(.../pcb-gcode-3.6.0.4/pcb-gcode.ulp)
(Copyright 2005 - 2012 by John Johnson)
(See readme.txt for licensing terms.)
(This file generated from the board:)
(.../eagle/ARMEDBASE_V0/DCU/DCU.brd)
(Current profile is .../pcb-gcode-3.6.0.4/profiles/emc.pp  )
(This file generated 7/3/2014 10:21:19 AM)
(Settings from pcb-machine.h)
(  Tool Size)
(0.1000 )
(Z Axis Settings)
(  High     Up        Down     Drill)
(15.0000 	2.0000 	-0.0250 	-1.5000 )
(spindle on time = 1.0000)
(milling depth = -0.0500)
(text depth = -0.0500)
(tool change at 15.0000 15.0000 15.0000 )
(feed rate xy = F508.00 )
(feed rate z  = F254.00 )
(Settings from pcb-defaults.h)
(isolate min = 0.0500)
(isolate max = 0.3000)
(isolate step = 0.1000)
(Generated top outlines, top drill, bottom outlines, bottom drill, )
(Unit of measure: mm)
(Metric Mode)
G21
(Absolute Coordinates)
G90
G00 X0.0000 Y0.0000 
M03
G04 P1.000000
G00 Z2.0000 
G00 X-83.4880 Y4.9353 
G01 Z-0.0250 F254.00 
G01 X-83.4880 Y5.2247 F508.00 
G01 X-83.4502 Y5.5117 
G01 X-83.3753 Y5.7913 
G01 X-83.2645 Y6.0587 
G01 X-83.1198 Y6.3093 
G01 X-82.9436 Y6.5390 
G01 X-82.7390 Y6.7436 
G01 X-82.5093 Y6.9198 
G01 X-82.2587 Y7.0645 
G01 X-81.9913 Y7.1753 
G01 X-81.7117 Y7.2502 
G01 X-81.4247 Y7.2880 
G01 X-81.1353 Y7.2880 
G01 X-80.8483 Y7.2502 
G01 X-80.5687 Y7.1753 
G01 X-80.3013 Y7.0645 
G01 X-80.0507 Y6.9198 
G01 X-79.8210 Y6.7436 
G01 X-79.6164 Y6.5390 
G01 X-79.4402 Y6.3093 
G01 X-79.2955 Y6.0587 
G01 X-79.1847 Y5.7913 
G01 X-79.1098 Y5.5117 
G01 X-79.0720 Y5.2247 
G01 X-79.0720 Y4.9353 
G01 X-79.1098 Y4.6483 
G01 X-79.1847 Y4.3687 
G01 X-79.2955 Y4.1013 
G01 X-79.4402 Y3.8507 
G01 X-79.6164 Y3.6210 
G01 X-79.8210 Y3.4164 
G01 X-80.0507 Y3.2402 
G01 X-80.3013 Y3.0955 
G01 X-80.5687 Y2.9847 
G01 X-80.8483 Y2.9098 
G01 X-81.1353 Y2.8720 
G01 X-81.4247 Y2.8720 
G01 X-81.7117 Y2.9098 
G01 X-81.9913 Y2.9847 
G01 X-82.2587 Y3.0955 
G01 X-82.5093 Y3.2402 
G01 X-82.7390 Y3.4164 
G01 X-82.9436 Y3.6210 
G01 X-83.1198 Y3.8507 
G01 X-83.2645 Y4.1013 
G01 X-83.3753 Y4.3687 
G01 X-83.4502 Y4.6483 
G01 X-83.4880 Y4.9353 
G00 Z2.0000 
G00 X-82.2180 Y51.9253 
G01 Z-0.0250 F254.00 
G01 X-82.2180 Y52.2147 F508.00 
G01 X-82.1802 Y52.5017 
G01 X-82.1053 Y52.7813 
G01 X-81.9945 Y53.0487 
G01 X-81.8498 Y53.2993 
G01 X-81.6736 Y53.5290 
G01 X-81.4690 Y53.7336 
G01 X-81.2393 Y53.9098 
G01 X-80.9887 Y54.0545 
G01 X-80.7213 Y54.1653 
G01 X-80.4417 Y54.2402 
G01 X-80.1547 Y54.2780 
G01 X-79.8653 Y54.2780 
G01 X-79.5783 Y54.2402 
G01 X-79.2987 Y54.1653 
G01 X-79.0313 Y54.0545 
G01 X-78.7807 Y53.9098 
G01 X-78.5510 Y53.7336 
G01 X-78.3464 Y53.5290 
G01 X-78.1702 Y53.2993 
G01 X-78.0255 Y53.0487 
G01 X-77.9147 Y52.7813 
G01 X-77.8398 Y52.5017 
G01 X-77.8020 Y52.2147 
G01 X-77.8020 Y51.9253 
G01 X-77.8398 Y51.6383 
G01 X-77.9147 Y51.3587 
G01 X-78.0255 Y51.0913 
G01 X-78.1702 Y50.8407 
G01 X-78.3464 Y50.6110 
G01 X-78.5510 Y50.4064 
G01 X-78.7807 Y50.2302 
G01 X-79.0313 Y50.0855 
G01 X-79.2987 Y49.9747 
G01 X-79.5783 Y49.8998 
G01 X-79.8653 Y49.8620 
G01 X-80.1547 Y49.8620 
G01 X-80.4417 Y49.8998 
G01 X-80.7213 Y49.9747 
G01 X-80.9887 Y50.0855 
G01 X-81.2393 Y50.2302 
G01 X-81.4690 Y50.4064 
G01 X-81.6736 Y50.6110 
G01 X-81.8498 Y50.8407 
G01 X-81.9945 Y51.0913 
G01 X-82.1053 Y51.3587 
G01 X-82.1802 Y51.6383 
G01 X-82.2180 Y51.9253 
G00 Z2.0000 
G00 X-7.2880 Y4.9353 
G01 Z-0.0250 F254.00 
G01 X-7.2880 Y5.2247 F508.00 
G01 X-7.2502 Y5.5117 
G01 X-7.1753 Y5.7913 
G01 X-7.0645 Y6.0587 
G01 X-6.9198 Y6.3093 
G01 X-6.7436 Y6.5390 
G01 X-6.5390 Y6.7436 
G01 X-6.3093 Y6.9198 
G01 X-6.0587 Y7.0645 
G01 X-5.7913 Y7.1753 
G01 X-5.5117 Y7.2502 
G01 X-5.2247 Y7.2880 
G01 X-4.9353 Y7.2880 
G01 X-4.6483 Y7.2502 
G01 X-4.3687 Y7.1753 
G01 X-4.1013 Y7.0645 
G01 X-3.8507 Y6.9198 
G01 X-3.6210 Y6.7436 
G01 X-3.4164 Y6.5390 
G01 X-3.2402 Y6.3093 
G01 X-3.0955 Y6.0587 
G01 X-2.9847 Y5.7913 
G01 X-2.9098 Y5.5117 
G01 X-2.8720 Y5.2247 
G01 X-2.8720 Y4.9353 
G01 X-2.9098 Y4.6483 
G01 X-2.9847 Y4.3687 
G01 X-3.0955 Y4.1013 
G01 X-3.2402 Y3.8507 
G01 X-3.4164 Y3.6210 
G01 X-3.6210 Y3.4164 
G01 X-3.8507 Y3.2402 
G01 X-4.1013 Y3.0955 
G01 X-4.3687 Y2.9847 
G01 X-4.6483 Y2.9098 
G01 X-4.9353 Y2.8720 
G01 X-5.2247 Y2.8720 
G01 X-5.5117 Y2.9098 
G01 X-5.7913 Y2.9847 
G01 X-6.0587 Y3.0955 
G01 X-6.3093 Y3.2402 
G01 X-6.5390 Y3.4164 
G01 X-6.7436 Y3.6210 
G01 X-6.9198 Y3.8507 
G01 X-7.0645 Y4.1013 
G01 X-7.1753 Y4.3687 
G01 X-7.2502 Y4.6483 
G01 X-7.2880 Y4.9353 
G00 Z2.0000 
G00 X-7.2880 Y51.9253 
G01 Z-0.0250 F254.00 
G01 X-7.2880 Y52.2147 F508.00 
G01 X-7.2502 Y52.5017 
G01 X-7.1753 Y52.7813 
G01 X-7.0645 Y53.0487 
G01 X-6.9198 Y53.2993 
G01 X-6.7436 Y53.5290 
G01 X-6.5390 Y53.7336 
G01 X-6.3093 Y53.9098 
G01 X-6.0587 Y54.0545 
G01 X-5.7913 Y54.1653 
G01 X-5.5117 Y54.2402 
G01 X-5.2247 Y54.2780 
G01 X-4.9353 Y54.2780 
G01 X-4.6483 Y54.2402 
G01 X-4.3687 Y54.1653 
G01 X-4.1013 Y54.0545 
G01 X-3.8507 Y53.9098 
G01 X-3.6210 Y53.7336 
G01 X-3.4164 Y53.5290 
G01 X-3.2402 Y53.2993 
G01 X-3.0955 Y53.0487 
G01 X-2.9847 Y52.7813 
G01 X-2.9098 Y52.5017 
G01 X-2.8720 Y52.2147 
G01 X-2.8720 Y51.9253 
G01 X-2.9098 Y51.6383 
G01 X-2.9847 Y51.3587 
G01 X-3.0955 Y51.0913 
G01 X-3.2402 Y50.8407 
G01 X-3.4164 Y50.6110 
G01 X-3.6210 Y50.4064 
G01 X-3.8507 Y50.2302 
G01 X-4.1013 Y50.0855 
G01 X-4.3687 Y49.9747 
G01 X-4.6483 Y49.8998 
G01 X-4.9353 Y49.8620 
G01 X-5.2247 Y49.8620 
G01 X-5.5117 Y49.8998 
G01 X-5.7913 Y49.9747 
G01 X-6.0587 Y50.0855 
G01 X-6.3093 Y50.2302 
G01 X-6.5390 Y50.4064 
G01 X-6.7436 Y50.6110 
G01 X-6.9198 Y50.8407 
G01 X-7.0645 Y51.0913 
G01 X-7.1753 Y51.3587 
G01 X-7.2502 Y51.6383 
G01 X-7.2880 Y51.9253 
G00 Z2.0000 
G00 X-1.6094 Y29.5418 
G01 Z-0.0250 F254.00 
G01 X-3.4706 Y29.5418 F508.00 
G01 X-3.6519 Y29.5779 
G01 X-3.8226 Y29.6486 
G01 X-3.9763 Y29.7513 
G01 X-4.1069 Y29.8819 
G01 X-4.2096 Y30.0356 
G01 X-4.2803 Y30.2063 
G01 X-4.3164 Y30.3876 
G01 X-4.3164 Y30.5724 
G01 X-4.2803 Y30.7537 
G01 X-4.2096 Y30.9244 
G01 X-4.1069 Y31.0781 
G01 X-3.9763 Y31.2087 
G01 X-3.8226 Y31.3114 
G01 X-3.6519 Y31.3821 
G01 X-3.4706 Y31.4182 
G01 X-1.6094 Y31.4182 
G01 X-1.4281 Y31.3821 
G01 X-1.2574 Y31.3114 
G01 X-1.1037 Y31.2087 
G01 X-0.9731 Y31.0781 
G01 X-0.8704 Y30.9244 
G01 X-0.7997 Y30.7537 
G01 X-0.7636 Y30.5724 
G01 X-0.7636 Y30.3876 
G01 X-0.7997 Y30.2063 
G01 X-0.8704 Y30.0356 
G01 X-0.9731 Y29.8819 
G01 X-1.1037 Y29.7513 
G01 X-1.2574 Y29.6486 
G01 X-1.4281 Y29.5779 
G01 X-1.6094 Y29.5418 
G00 Z2.0000 
G00 X-1.6094 Y37.1618 
G01 Z-0.0250 F254.00 
G01 X-3.4706 Y37.1618 F508.00 
G01 X-3.6519 Y37.1979 
G01 X-3.8226 Y37.2686 
G01 X-3.9763 Y37.3713 
G01 X-4.1069 Y37.5019 
G01 X-4.2096 Y37.6556 
G01 X-4.2803 Y37.8263 
G01 X-4.3164 Y38.0076 
G01 X-4.3164 Y38.1924 
G01 X-4.2803 Y38.3737 
G01 X-4.2096 Y38.5444 
G01 X-4.1069 Y38.6981 
G01 X-3.9763 Y38.8287 
G01 X-3.8226 Y38.9314 
G01 X-3.6519 Y39.0021 
G01 X-3.4706 Y39.0382 
G01 X-1.6094 Y39.0382 
G01 X-1.4281 Y39.0021 
G01 X-1.2574 Y38.9314 
G01 X-1.1037 Y38.8287 
G01 X-0.9731 Y38.6981 
G01 X-0.8704 Y38.5444 
G01 X-0.7997 Y38.3737 
G01 X-0.7636 Y38.1924 
G01 X-0.7636 Y38.0076 
G01 X-0.7997 Y37.8263 
G01 X-0.8704 Y37.6556 
G01 X-0.9731 Y37.5019 
G01 X-1.1037 Y37.3713 
G01 X-1.2574 Y37.2686 
G01 X-1.4281 Y37.1979 
G01 X-1.6094 Y37.1618 
G00 Z2.0000 
G00 X-42.0862 Y46.9101 
G01 Z-0.0250 F254.00 
G01 X-42.0862 Y47.0699 F508.00 
G01 X-42.0550 Y47.2266 
G01 X-41.9939 Y47.3742 
G01 X-41.9051 Y47.5071 
G01 X-41.7921 Y47.6201 
G01 X-41.6592 Y47.7089 
G01 X-41.5116 Y47.7700 
G01 X-41.3549 Y47.8012 
G01 X-41.1951 Y47.8012 
G01 X-41.0384 Y47.7700 
G01 X-40.8935 Y47.7100 
G01 X-40.1416 Y48.4619 
G01 X-40.0497 Y48.5000 
G01 X-28.7003 Y48.5000 
G01 X-28.6084 Y48.4619 
G01 X-28.5381 Y48.3916 
G01 X-27.7888 Y47.6424 
G01 X-27.6892 Y47.7089 
G01 X-27.5416 Y47.7700 
G01 X-27.3849 Y47.8012 
G01 X-27.2251 Y47.8012 
G01 X-27.0684 Y47.7700 
G01 X-26.9208 Y47.7089 
G01 X-26.7879 Y47.6201 
G01 X-26.6749 Y47.5071 
G01 X-26.5861 Y47.3742 
G01 X-26.5250 Y47.2266 
G01 X-26.4938 Y47.0699 
G01 X-26.4938 Y46.9101 
G01 X-26.5250 Y46.7534 
G01 X-26.5861 Y46.6058 
G01 X-26.6749 Y46.4729 
G01 X-26.7879 Y46.3599 
G01 X-26.9208 Y46.2711 
G01 X-27.0684 Y46.2100 
G01 X-27.2251 Y46.1788 
G01 X-27.3849 Y46.1788 
G01 X-27.5416 Y46.2100 
G01 X-27.6892 Y46.2711 
G01 X-27.8221 Y46.3599 
G01 X-27.9351 Y46.4729 
G01 X-28.0239 Y46.6058 
G01 X-28.0850 Y46.7534 
G01 X-28.1162 Y46.9101 
G01 X-28.1162 Y47.0699 
G01 X-28.0850 Y47.2266 
G01 X-28.0836 Y47.2300 
G01 X-28.8536 Y48.0000 
G01 X-39.8964 Y48.0000 
G01 X-40.5462 Y47.3503 
G01 X-40.4950 Y47.2266 
G01 X-40.4638 Y47.0699 
G01 X-40.4638 Y46.9101 
G01 X-40.4950 Y46.7534 
G01 X-40.5561 Y46.6058 
G01 X-40.6449 Y46.4729 
G01 X-40.7579 Y46.3599 
G01 X-40.8908 Y46.2711 
G01 X-41.0384 Y46.2100 
G01 X-41.1951 Y46.1788 
G01 X-41.3549 Y46.1788 
G01 X-41.5116 Y46.2100 
G01 X-41.6592 Y46.2711 
G01 X-41.7921 Y46.3599 
G01 X-41.9051 Y46.4729 
G01 X-41.9939 Y46.6058 
G01 X-42.0550 Y46.7534 
G01 X-42.0862 Y46.9101 
G00 Z2.0000 
G00 X-60.5901 Y37.7272 
G01 Z-0.0250 F254.00 
G01 X-60.5901 Y38.4728 F508.00 
G01 X-60.0628 Y39.0001 
G01 X-59.3172 Y39.0001 
G01 X-58.7899 Y38.4728 
G01 X-58.7899 Y37.7272 
G01 X-59.3172 Y37.1999 
G01 X-60.0628 Y37.1999 
G01 X-60.5901 Y37.7272 
G00 Z2.0000 
G00 X-60.5901 Y40.2672 
G01 Z-0.0250 F254.00 
G01 X-60.5901 Y41.0128 F508.00 
G01 X-60.0628 Y41.5401 
G01 X-59.3172 Y41.5401 
G01 X-58.7899 Y41.0128 
G01 X-58.7899 Y40.2672 
G01 X-59.3172 Y39.7399 
G01 X-60.0628 Y39.7399 
G01 X-60.5901 Y40.2672 
G00 Z2.0000 
G00 X-60.5901 Y42.8072 
G01 Z-0.0250 F254.00 
G01 X-60.5901 Y43.5528 F508.00 
G01 X-60.0628 Y44.0801 
G01 X-59.3172 Y44.0801 
G01 X-58.7899 Y43.5528 
G01 X-58.7899 Y42.8072 
G01 X-59.3172 Y42.2799 
G01 X-60.0628 Y42.2799 
G01 X-60.5901 Y42.8072 
G00 Z2.0000 
G00 X-60.5901 Y45.3472 
G01 Z-0.0250 F254.00 
G01 X-60.5901 Y46.0928 F508.00 
G01 X-60.0628 Y46.6201 
G01 X-59.3172 Y46.6201 
G01 X-58.7899 Y46.0928 
G01 X-58.7899 Y45.3472 
G01 X-59.3172 Y44.8199 
G01 X-60.0628 Y44.8199 
G01 X-60.5901 Y45.3472 
G00 Z2.0000 
G00 X-52.9701 Y45.3472 
G01 Z-0.0250 F254.00 
G01 X-52.9701 Y46.0928 F508.00 
G01 X-52.4428 Y46.6201 
G01 X-51.6972 Y46.6201 
G01 X-51.1699 Y46.0928 
G01 X-51.1699 Y45.3472 
G01 X-51.6972 Y44.8199 
G01 X-52.4428 Y44.8199 
G01 X-52.9701 Y45.3472 
G00 Z2.0000 
G00 X-52.9701 Y42.8072 
G01 Z-0.0250 F254.00 
G01 X-52.9701 Y43.5528 F508.00 
G01 X-52.4428 Y44.0801 
G01 X-51.6972 Y44.0801 
G01 X-51.1699 Y43.5528 
G01 X-51.1699 Y43.5000 
G01 X-47.6036 Y43.5000 
G01 X-44.5194 Y46.5841 
G01 X-44.5339 Y46.6058 
G01 X-44.5950 Y46.7534 
G01 X-44.6262 Y46.9101 
G01 X-44.6262 Y47.0699 
G01 X-44.5950 Y47.2266 
G01 X-44.5339 Y47.3742 
G01 X-44.4451 Y47.5071 
G01 X-44.3321 Y47.6201 
G01 X-44.1992 Y47.7089 
G01 X-44.0516 Y47.7700 
G01 X-43.8949 Y47.8012 
G01 X-43.7351 Y47.8012 
G01 X-43.5784 Y47.7700 
G01 X-43.4308 Y47.7089 
G01 X-43.2979 Y47.6201 
G01 X-43.1849 Y47.5071 
G01 X-43.0961 Y47.3742 
G01 X-43.0350 Y47.2266 
G01 X-43.0038 Y47.0699 
G01 X-43.0038 Y46.9101 
G01 X-43.0350 Y46.7534 
G01 X-43.0961 Y46.6058 
G01 X-43.1849 Y46.4729 
G01 X-43.2979 Y46.3599 
G01 X-43.4308 Y46.2711 
G01 X-43.5784 Y46.2100 
G01 X-43.7351 Y46.1788 
G01 X-43.8949 Y46.1788 
G01 X-44.0516 Y46.2100 
G01 X-44.1470 Y46.2495 
G01 X-47.2881 Y43.1084 
G01 X-47.3584 Y43.0381 
G01 X-47.4503 Y43.0000 
G01 X-51.1699 Y43.0000 
G01 X-51.1699 Y42.8072 
G01 X-51.6972 Y42.2799 
G01 X-52.4428 Y42.2799 
G01 X-52.9701 Y42.8072 
G00 Z2.0000 
G00 X-61.8220 Y4.2331 
G01 Z-0.0250 F254.00 
G01 X-61.8220 Y5.9269 F508.00 
G01 X-61.7889 Y6.0934 
G01 X-61.7239 Y6.2503 
G01 X-61.6296 Y6.3915 
G01 X-61.5095 Y6.5116 
G01 X-61.3683 Y6.6059 
G01 X-61.2114 Y6.6709 
G01 X-61.0449 Y6.7040 
G01 X-60.8751 Y6.7040 
G01 X-60.7086 Y6.6709 
G01 X-60.5517 Y6.6059 
G01 X-60.4105 Y6.5116 
G01 X-60.2904 Y6.3915 
G01 X-60.1961 Y6.2503 
G01 X-60.1311 Y6.0934 
G01 X-60.0980 Y5.9269 
G01 X-60.0980 Y4.2331 
G01 X-60.1311 Y4.0666 
G01 X-60.1961 Y3.9097 
G01 X-60.2904 Y3.7685 
G01 X-60.4105 Y3.6484 
G01 X-60.5517 Y3.5541 
G01 X-60.7086 Y3.4891 
G01 X-60.8751 Y3.4560 
G01 X-61.0449 Y3.4560 
G01 X-61.2114 Y3.4891 
G01 X-61.3683 Y3.5541 
G01 X-61.5095 Y3.6484 
G01 X-61.6296 Y3.7685 
G01 X-61.7239 Y3.9097 
G01 X-61.7889 Y4.0666 
G01 X-61.8220 Y4.2331 
G00 Z2.0000 
G00 X-59.2820 Y4.2331 
G01 Z-0.0250 F254.00 
G01 X-59.2820 Y5.9269 F508.00 
G01 X-59.2489 Y6.0934 
G01 X-59.1839 Y6.2503 
G01 X-59.0896 Y6.3915 
G01 X-58.9695 Y6.5116 
G01 X-58.8283 Y6.6059 
G01 X-58.6714 Y6.6709 
G01 X-58.5049 Y6.7040 
G01 X-58.3351 Y6.7040 
G01 X-58.1686 Y6.6709 
G01 X-58.0117 Y6.6059 
G01 X-57.8705 Y6.5116 
G01 X-57.7504 Y6.3915 
G01 X-57.6561 Y6.2503 
G01 X-57.5911 Y6.0934 
G01 X-57.5580 Y5.9269 
G01 X-57.5580 Y4.2331 
G01 X-57.5911 Y4.0666 
G01 X-57.6561 Y3.9097 
G01 X-57.7504 Y3.7685 
G01 X-57.8705 Y3.6484 
G01 X-58.0117 Y3.5541 
G01 X-58.1686 Y3.4891 
G01 X-58.3351 Y3.4560 
G01 X-58.5049 Y3.4560 
G01 X-58.6714 Y3.4891 
G01 X-58.8283 Y3.5541 
G01 X-58.9695 Y3.6484 
G01 X-59.0896 Y3.7685 
G01 X-59.1839 Y3.9097 
G01 X-59.2489 Y4.0666 
G01 X-59.2820 Y4.2331 
G00 Z2.0000 
G00 X-56.7420 Y4.2331 
G01 Z-0.0250 F254.00 
G01 X-56.7420 Y5.9269 F508.00 
G01 X-56.7089 Y6.0934 
G01 X-56.6439 Y6.2503 
G01 X-56.5496 Y6.3915 
G01 X-56.4295 Y6.5116 
G01 X-56.2883 Y6.6059 
G01 X-56.1314 Y6.6709 
G01 X-55.9649 Y6.7040 
G01 X-55.7951 Y6.7040 
G01 X-55.6286 Y6.6709 
G01 X-55.4717 Y6.6059 
G01 X-55.3305 Y6.5116 
G01 X-55.2104 Y6.3915 
G01 X-55.1161 Y6.2503 
G01 X-55.0511 Y6.0934 
G01 X-55.0180 Y5.9269 
G01 X-55.0180 Y4.2331 
G01 X-55.0511 Y4.0666 
G01 X-55.1161 Y3.9097 
G01 X-55.2104 Y3.7685 
G01 X-55.3305 Y3.6484 
G01 X-55.4717 Y3.5541 
G01 X-55.6286 Y3.4891 
G01 X-55.7951 Y3.4560 
G01 X-55.9649 Y3.4560 
G01 X-56.1314 Y3.4891 
G01 X-56.2883 Y3.5541 
G01 X-56.4295 Y3.6484 
G01 X-56.5496 Y3.7685 
G01 X-56.6439 Y3.9097 
G01 X-56.7089 Y4.0666 
G01 X-56.7420 Y4.2331 
G00 Z2.0000 
G00 X-54.2020 Y4.2331 
G01 Z-0.0250 F254.00 
G01 X-54.2020 Y5.9269 F508.00 
G01 X-54.1689 Y6.0934 
G01 X-54.1039 Y6.2503 
G01 X-54.0096 Y6.3915 
G01 X-53.8895 Y6.5116 
G01 X-53.7483 Y6.6059 
G01 X-53.5914 Y6.6709 
G01 X-53.4249 Y6.7040 
G01 X-53.2551 Y6.7040 
G01 X-53.0886 Y6.6709 
G01 X-52.9317 Y6.6059 
G01 X-52.7905 Y6.5116 
G01 X-52.6704 Y6.3915 
G01 X-52.5761 Y6.2503 
G01 X-52.5111 Y6.0934 
G01 X-52.4780 Y5.9269 
G01 X-52.4780 Y4.2331 
G01 X-52.5111 Y4.0666 
G01 X-52.5761 Y3.9097 
G01 X-52.6704 Y3.7685 
G01 X-52.7905 Y3.6484 
G01 X-52.9317 Y3.5541 
G01 X-53.0886 Y3.4891 
G01 X-53.2551 Y3.4560 
G01 X-53.4249 Y3.4560 
G01 X-53.5914 Y3.4891 
G01 X-53.7483 Y3.5541 
G01 X-53.8895 Y3.6484 
G01 X-54.0096 Y3.7685 
G01 X-54.1039 Y3.9097 
G01 X-54.1689 Y4.0666 
G01 X-54.2020 Y4.2331 
G00 Z2.0000 
G00 X-64.2604 Y22.1247 
G01 Z-0.0250 F254.00 
G01 X-64.2604 Y23.5953 F508.00 
G01 X-64.2312 Y23.7422 
G01 X-64.1739 Y23.8806 
G01 X-64.0906 Y24.0051 
G01 X-63.9847 Y24.1110 
G01 X-63.8602 Y24.1943 
G01 X-63.7218 Y24.2516 
G01 X-63.5749 Y24.2808 
G01 X-63.4251 Y24.2808 
G01 X-63.2782 Y24.2516 
G01 X-63.1398 Y24.1943 
G01 X-63.0153 Y24.1110 
G01 X-62.9094 Y24.0051 
G01 X-62.8261 Y23.8806 
G01 X-62.7688 Y23.7422 
G01 X-62.7396 Y23.5953 
G01 X-62.7396 Y22.1247 
G01 X-62.7688 Y21.9778 
G01 X-62.8261 Y21.8394 
G01 X-62.9094 Y21.7149 
G01 X-63.0153 Y21.6090 
G01 X-63.1398 Y21.5257 
G01 X-63.2782 Y21.4684 
G01 X-63.4251 Y21.4392 
G01 X-63.5749 Y21.4392 
G01 X-63.7218 Y21.4684 
G01 X-63.8602 Y21.5257 
G01 X-63.9847 Y21.6090 
G01 X-64.0906 Y21.7149 
G01 X-64.1739 Y21.8394 
G01 X-64.2312 Y21.9778 
G01 X-64.2604 Y22.1247 
G00 Z2.0000 
G00 X-61.7204 Y22.1247 
G01 Z-0.0250 F254.00 
G01 X-61.7204 Y23.5953 F508.00 
G01 X-61.6912 Y23.7422 
G01 X-61.6339 Y23.8806 
G01 X-61.5506 Y24.0051 
G01 X-61.4447 Y24.1110 
G01 X-61.3202 Y24.1943 
G01 X-61.1818 Y24.2516 
G01 X-61.0349 Y24.2808 
G01 X-60.8851 Y24.2808 
G01 X-60.7382 Y24.2516 
G01 X-60.5998 Y24.1943 
G01 X-60.4753 Y24.1110 
G01 X-60.3694 Y24.0051 
G01 X-60.2861 Y23.8806 
G01 X-60.2288 Y23.7422 
G01 X-60.1996 Y23.5953 
G01 X-60.1996 Y22.1247 
G01 X-60.2288 Y21.9778 
G01 X-60.2861 Y21.8394 
G01 X-60.3694 Y21.7149 
G01 X-60.4753 Y21.6090 
G01 X-60.5998 Y21.5257 
G01 X-60.7382 Y21.4684 
G01 X-60.8851 Y21.4392 
G01 X-61.0349 Y21.4392 
G01 X-61.1818 Y21.4684 
G01 X-61.3202 Y21.5257 
G01 X-61.4447 Y21.6090 
G01 X-61.5506 Y21.7149 
G01 X-61.6339 Y21.8394 
G01 X-61.6912 Y21.9778 
G01 X-61.7204 Y22.1247 
G00 Z2.0000 
G00 X-59.1804 Y22.1247 
G01 Z-0.0250 F254.00 
G01 X-59.1804 Y23.5953 F508.00 
G01 X-59.1512 Y23.7422 
G01 X-59.0939 Y23.8806 
G01 X-59.0106 Y24.0051 
G01 X-58.9047 Y24.1110 
G01 X-58.7802 Y24.1943 
G01 X-58.6418 Y24.2516 
G01 X-58.4949 Y24.2808 
G01 X-58.3451 Y24.2808 
G01 X-58.1982 Y24.2516 
G01 X-58.0598 Y24.1943 
G01 X-57.9353 Y24.1110 
G01 X-57.8294 Y24.0051 
G01 X-57.7461 Y23.8806 
G01 X-57.6888 Y23.7422 
G01 X-57.6596 Y23.5953 
G01 X-57.6596 Y22.1247 
G01 X-57.6888 Y21.9778 
G01 X-57.7461 Y21.8394 
G01 X-57.8294 Y21.7149 
G01 X-57.9353 Y21.6090 
G01 X-58.0598 Y21.5257 
G01 X-58.1982 Y21.4684 
G01 X-58.3451 Y21.4392 
G01 X-58.4949 Y21.4392 
G01 X-58.6418 Y21.4684 
G01 X-58.7802 Y21.5257 
G01 X-58.9047 Y21.6090 
G01 X-59.0106 Y21.7149 
G01 X-59.0939 Y21.8394 
G01 X-59.1512 Y21.9778 
G01 X-59.1804 Y22.1247 
G00 Z2.0000 
G00 X-49.0204 Y22.1247 
G01 Z-0.0250 F254.00 
G01 X-49.0204 Y23.5953 F508.00 
G01 X-48.9912 Y23.7422 
G01 X-48.9339 Y23.8806 
G01 X-48.8506 Y24.0051 
G01 X-48.7447 Y24.1110 
G01 X-48.6202 Y24.1943 
G01 X-48.4818 Y24.2516 
G01 X-48.3349 Y24.2808 
G01 X-48.1851 Y24.2808 
G01 X-48.0382 Y24.2516 
G01 X-47.8998 Y24.1943 
G01 X-47.7753 Y24.1110 
G01 X-47.6694 Y24.0051 
G01 X-47.5861 Y23.8806 
G01 X-47.5288 Y23.7422 
G01 X-47.4996 Y23.5953 
G01 X-47.4996 Y22.3532 
G01 X-41.8964 Y16.7500 
G01 X-41.8536 Y16.7500 
G01 X-38.6416 Y19.9619 
G01 X-38.5497 Y20.0000 
G01 X-37.2500 Y20.0000 
G01 X-37.2500 Y23.8964 
G01 X-37.8536 Y24.5000 
G01 X-38.7997 Y24.5000 
G01 X-38.8916 Y24.5381 
G01 X-38.9619 Y24.6084 
G01 X-51.6253 Y37.2718 
G01 X-51.6972 Y37.1999 
G01 X-52.4428 Y37.1999 
G01 X-52.9701 Y37.7272 
G01 X-52.9701 Y38.4728 
G01 X-52.4428 Y39.0001 
G01 X-51.6972 Y39.0001 
G01 X-51.1699 Y38.4728 
G01 X-51.1699 Y37.7272 
G01 X-51.2718 Y37.6253 
G01 X-38.6464 Y25.0000 
G01 X-37.7003 Y25.0000 
G01 X-37.6084 Y24.9619 
G01 X-36.8584 Y24.2119 
G01 X-36.7881 Y24.1416 
G01 X-36.7500 Y24.0497 
G01 X-36.7500 Y19.7003 
G01 X-36.7881 Y19.6084 
G01 X-36.8584 Y19.5381 
G01 X-36.9503 Y19.5000 
G01 X-38.3964 Y19.5000 
G01 X-41.5381 Y16.3584 
G01 X-41.6084 Y16.2881 
G01 X-42.4196 Y15.4768 
G01 X-42.4196 Y14.5047 
G01 X-42.4488 Y14.3578 
G01 X-42.5061 Y14.2194 
G01 X-42.5894 Y14.0949 
G01 X-42.6953 Y13.9890 
G01 X-42.8198 Y13.9057 
G01 X-42.9582 Y13.8484 
G01 X-43.1051 Y13.8192 
G01 X-43.2549 Y13.8192 
G01 X-43.4018 Y13.8484 
G01 X-43.5402 Y13.9057 
G01 X-43.6647 Y13.9890 
G01 X-43.7706 Y14.0949 
G01 X-43.8539 Y14.2194 
G01 X-43.9112 Y14.3578 
G01 X-43.9404 Y14.5047 
G01 X-43.9404 Y15.9753 
G01 X-43.9112 Y16.1222 
G01 X-43.8539 Y16.2606 
G01 X-43.7706 Y16.3851 
G01 X-43.6647 Y16.4910 
G01 X-43.5402 Y16.5743 
G01 X-43.4018 Y16.6316 
G01 X-43.2549 Y16.6608 
G01 X-43.1051 Y16.6608 
G01 X-42.9582 Y16.6316 
G01 X-42.8198 Y16.5743 
G01 X-42.6953 Y16.4910 
G01 X-42.5894 Y16.3851 
G01 X-42.5061 Y16.2606 
G01 X-42.4584 Y16.1452 
G01 X-42.2285 Y16.3750 
G01 X-47.6289 Y21.7754 
G01 X-47.6694 Y21.7149 
G01 X-47.7753 Y21.6090 
G01 X-47.8998 Y21.5257 
G01 X-48.0382 Y21.4684 
G01 X-48.1851 Y21.4392 
G01 X-48.3349 Y21.4392 
G01 X-48.4818 Y21.4684 
G01 X-48.6202 Y21.5257 
G01 X-48.7447 Y21.6090 
G01 X-48.8506 Y21.7149 
G01 X-48.9339 Y21.8394 
G01 X-48.9912 Y21.9778 
G01 X-49.0204 Y22.1247 
G00 Z2.0000 
G00 X-46.4804 Y22.1247 
G01 Z-0.0250 F254.00 
G01 X-46.4804 Y23.5953 F508.00 
G01 X-46.4512 Y23.7422 
G01 X-46.3939 Y23.8806 
G01 X-46.3106 Y24.0051 
G01 X-46.2047 Y24.1110 
G01 X-46.0802 Y24.1943 
G01 X-45.9418 Y24.2516 
G01 X-45.7949 Y24.2808 
G01 X-45.6451 Y24.2808 
G01 X-45.4982 Y24.2516 
G01 X-45.3598 Y24.1943 
G01 X-45.2353 Y24.1110 
G01 X-45.1294 Y24.0051 
G01 X-45.0461 Y23.8806 
G01 X-44.9888 Y23.7422 
G01 X-44.9596 Y23.5953 
G01 X-44.9596 Y22.1247 
G01 X-44.9888 Y21.9778 
G01 X-45.0461 Y21.8394 
G01 X-45.1294 Y21.7149 
G01 X-45.2353 Y21.6090 
G01 X-45.3598 Y21.5257 
G01 X-45.4982 Y21.4684 
G01 X-45.6451 Y21.4392 
G01 X-45.7949 Y21.4392 
G01 X-45.9418 Y21.4684 
G01 X-46.0802 Y21.5257 
G01 X-46.2047 Y21.6090 
G01 X-46.3106 Y21.7149 
G01 X-46.3939 Y21.8394 
G01 X-46.4512 Y21.9778 
G01 X-46.4804 Y22.1247 
G00 Z2.0000 
G00 X-43.9404 Y22.1247 
G01 Z-0.0250 F254.00 
G01 X-43.9404 Y23.3368 F508.00 
G01 X-46.5347 Y25.9311 
G01 X-46.5727 Y25.9154 
G01 X-46.6901 Y25.8920 
G01 X-46.8099 Y25.8920 
G01 X-46.9273 Y25.9154 
G01 X-47.0380 Y25.9612 
G01 X-47.1376 Y26.0277 
G01 X-47.2223 Y26.1124 
G01 X-47.2888 Y26.2120 
G01 X-47.3346 Y26.3227 
G01 X-47.3580 Y26.4401 
G01 X-47.3580 Y26.5599 
G01 X-47.3346 Y26.6773 
G01 X-47.2888 Y26.7880 
G01 X-47.2223 Y26.8876 
G01 X-47.1376 Y26.9723 
G01 X-47.0380 Y27.0388 
G01 X-46.9273 Y27.0846 
G01 X-46.8099 Y27.1080 
G01 X-46.6901 Y27.1080 
G01 X-46.5727 Y27.0846 
G01 X-46.4620 Y27.0388 
G01 X-46.3624 Y26.9723 
G01 X-46.2777 Y26.8876 
G01 X-46.2112 Y26.7880 
G01 X-46.1654 Y26.6773 
G01 X-46.1420 Y26.5599 
G01 X-46.1420 Y26.4401 
G01 X-46.1654 Y26.3227 
G01 X-46.1811 Y26.2847 
G01 X-43.8231 Y23.9266 
G01 X-43.7706 Y24.0051 
G01 X-43.6647 Y24.1110 
G01 X-43.5402 Y24.1943 
G01 X-43.4018 Y24.2516 
G01 X-43.2549 Y24.2808 
G01 X-43.1051 Y24.2808 
G01 X-42.9582 Y24.2516 
G01 X-42.8198 Y24.1943 
G01 X-42.6953 Y24.1110 
G01 X-42.5894 Y24.0051 
G01 X-42.5061 Y23.8806 
G01 X-42.4488 Y23.7422 
G01 X-42.4196 Y23.5953 
G01 X-42.4196 Y22.1247 
G01 X-42.4488 Y21.9778 
G01 X-42.5061 Y21.8394 
G01 X-42.5894 Y21.7149 
G01 X-42.6953 Y21.6090 
G01 X-42.8198 Y21.5257 
G01 X-42.9582 Y21.4684 
G01 X-43.1051 Y21.4392 
G01 X-43.2549 Y21.4392 
G01 X-43.4018 Y21.4684 
G01 X-43.5402 Y21.5257 
G01 X-43.6647 Y21.6090 
G01 X-43.7706 Y21.7149 
G01 X-43.8539 Y21.8394 
G01 X-43.9112 Y21.9778 
G01 X-43.9404 Y22.1247 
G00 Z2.0000 
G00 X-41.4004 Y22.1247 
G01 Z-0.0250 F254.00 
G01 X-41.4004 Y23.5953 F508.00 
G01 X-41.3712 Y23.7422 
G01 X-41.3139 Y23.8806 
G01 X-41.2306 Y24.0051 
G01 X-41.1247 Y24.1110 
G01 X-41.0002 Y24.1943 
G01 X-40.8618 Y24.2516 
G01 X-40.7149 Y24.2808 
G01 X-40.5651 Y24.2808 
G01 X-40.4182 Y24.2516 
G01 X-40.2798 Y24.1943 
G01 X-40.1553 Y24.1110 
G01 X-40.0494 Y24.0051 
G01 X-39.9661 Y23.8806 
G01 X-39.9088 Y23.7422 
G01 X-39.8796 Y23.5953 
G01 X-39.8796 Y22.1247 
G01 X-39.9088 Y21.9778 
G01 X-39.9661 Y21.8394 
G01 X-40.0494 Y21.7149 
G01 X-40.1553 Y21.6090 
G01 X-40.2798 Y21.5257 
G01 X-40.4182 Y21.4684 
G01 X-40.5651 Y21.4392 
G01 X-40.7149 Y21.4392 
G01 X-40.8618 Y21.4684 
G01 X-41.0002 Y21.5257 
G01 X-41.1247 Y21.6090 
G01 X-41.2306 Y21.7149 
G01 X-41.3139 Y21.8394 
G01 X-41.3712 Y21.9778 
G01 X-41.4004 Y22.1247 
G00 Z2.0000 
G00 X-38.8604 Y22.1247 
G01 Z-0.0250 F254.00 
G01 X-38.8604 Y23.2568 F508.00 
G01 X-52.1036 Y36.5000 
G01 X-66.0497 Y36.5000 
G01 X-66.1416 Y36.5381 
G01 X-71.9216 Y42.3180 
G01 X-73.2369 Y42.3180 
G01 X-73.4034 Y42.3511 
G01 X-73.5603 Y42.4161 
G01 X-73.7015 Y42.5104 
G01 X-73.8216 Y42.6305 
G01 X-73.9159 Y42.7717 
G01 X-73.9809 Y42.9286 
G01 X-74.0140 Y43.0951 
G01 X-74.0140 Y43.2649 
G01 X-73.9809 Y43.4314 
G01 X-73.9159 Y43.5883 
G01 X-73.8216 Y43.7295 
G01 X-73.7015 Y43.8496 
G01 X-73.5603 Y43.9439 
G01 X-73.4034 Y44.0089 
G01 X-73.2369 Y44.0420 
G01 X-71.5431 Y44.0420 
G01 X-71.3766 Y44.0089 
G01 X-71.2197 Y43.9439 
G01 X-71.0785 Y43.8496 
G01 X-70.9584 Y43.7295 
G01 X-70.8641 Y43.5883 
G01 X-70.7991 Y43.4314 
G01 X-70.7660 Y43.2649 
G01 X-70.7660 Y43.0951 
G01 X-70.7991 Y42.9286 
G01 X-70.8641 Y42.7717 
G01 X-70.9584 Y42.6305 
G01 X-71.0785 Y42.5104 
G01 X-71.2197 Y42.4161 
G01 X-71.2854 Y42.3889 
G01 X-65.8964 Y37.0000 
G01 X-51.9503 Y37.0000 
G01 X-51.8584 Y36.9619 
G01 X-51.7881 Y36.8916 
G01 X-38.7748 Y23.8783 
G01 X-38.6906 Y24.0051 
G01 X-38.5847 Y24.1110 
G01 X-38.4602 Y24.1943 
G01 X-38.3218 Y24.2516 
G01 X-38.1749 Y24.2808 
G01 X-38.0251 Y24.2808 
G01 X-37.8782 Y24.2516 
G01 X-37.7398 Y24.1943 
G01 X-37.6153 Y24.1110 
G01 X-37.5094 Y24.0051 
G01 X-37.4261 Y23.8806 
G01 X-37.3688 Y23.7422 
G01 X-37.3396 Y23.5953 
G01 X-37.3396 Y22.1247 
G01 X-37.3688 Y21.9778 
G01 X-37.4261 Y21.8394 
G01 X-37.5094 Y21.7149 
G01 X-37.6153 Y21.6090 
G01 X-37.7398 Y21.5257 
G01 X-37.8782 Y21.4684 
G01 X-38.0251 Y21.4392 
G01 X-38.1749 Y21.4392 
G01 X-38.3218 Y21.4684 
G01 X-38.4602 Y21.5257 
G01 X-38.5847 Y21.6090 
G01 X-38.6906 Y21.7149 
G01 X-38.7739 Y21.8394 
G01 X-38.8312 Y21.9778 
G01 X-38.8604 Y22.1247 
G00 Z2.0000 
G00 X-36.3204 Y22.1247 
G01 Z-0.0250 F254.00 
G01 X-36.3204 Y23.5953 F508.00 
G01 X-36.2912 Y23.7422 
G01 X-36.2339 Y23.8806 
G01 X-36.1506 Y24.0051 
G01 X-36.0447 Y24.1110 
G01 X-35.9202 Y24.1943 
G01 X-35.7818 Y24.2516 
G01 X-35.6349 Y24.2808 
G01 X-35.4851 Y24.2808 
G01 X-35.3382 Y24.2516 
G01 X-35.1998 Y24.1943 
G01 X-35.0753 Y24.1110 
G01 X-34.9694 Y24.0051 
G01 X-34.8861 Y23.8806 
G01 X-34.8288 Y23.7422 
G01 X-34.7996 Y23.5953 
G01 X-34.7996 Y22.1247 
G01 X-34.8288 Y21.9778 
G01 X-34.8861 Y21.8394 
G01 X-34.9694 Y21.7149 
G01 X-35.0753 Y21.6090 
G01 X-35.1998 Y21.5257 
G01 X-35.3382 Y21.4684 
G01 X-35.4851 Y21.4392 
G01 X-35.6349 Y21.4392 
G01 X-35.7818 Y21.4684 
G01 X-35.9202 Y21.5257 
G01 X-36.0447 Y21.6090 
G01 X-36.1506 Y21.7149 
G01 X-36.2339 Y21.8394 
G01 X-36.2912 Y21.9778 
G01 X-36.3204 Y22.1247 
G00 Z2.0000 
G00 X-33.7804 Y22.1247 
G01 Z-0.0250 F254.00 
G01 X-33.7804 Y23.5953 F508.00 
G01 X-33.7512 Y23.7422 
G01 X-33.6939 Y23.8806 
G01 X-33.6106 Y24.0051 
G01 X-33.5047 Y24.1110 
G01 X-33.3802 Y24.1943 
G01 X-33.2418 Y24.2516 
G01 X-33.0949 Y24.2808 
G01 X-32.9451 Y24.2808 
G01 X-32.7982 Y24.2516 
G01 X-32.6598 Y24.1943 
G01 X-32.5353 Y24.1110 
G01 X-32.4294 Y24.0051 
G01 X-32.3461 Y23.8806 
G01 X-32.2888 Y23.7422 
G01 X-32.2596 Y23.5953 
G01 X-32.2596 Y22.1247 
G01 X-32.2888 Y21.9778 
G01 X-32.3461 Y21.8394 
G01 X-32.4294 Y21.7149 
G01 X-32.5353 Y21.6090 
G01 X-32.6598 Y21.5257 
G01 X-32.7982 Y21.4684 
G01 X-32.9451 Y21.4392 
G01 X-33.0949 Y21.4392 
G01 X-33.2418 Y21.4684 
G01 X-33.3802 Y21.5257 
G01 X-33.5047 Y21.6090 
G01 X-33.6106 Y21.7149 
G01 X-33.6939 Y21.8394 
G01 X-33.7512 Y21.9778 
G01 X-33.7804 Y22.1247 
G00 Z2.0000 
G00 X-31.2404 Y22.1247 
G01 Z-0.0250 F254.00 
G01 X-31.2404 Y23.5953 F508.00 
G01 X-31.2112 Y23.7422 
G01 X-31.1539 Y23.8806 
G01 X-31.0706 Y24.0051 
G01 X-30.9647 Y24.1110 
G01 X-30.8402 Y24.1943 
G01 X-30.7018 Y24.2516 
G01 X-30.5549 Y24.2808 
G01 X-30.4051 Y24.2808 
G01 X-30.2582 Y24.2516 
G01 X-30.1198 Y24.1943 
G01 X-29.9953 Y24.1110 
G01 X-29.8894 Y24.0051 
G01 X-29.8061 Y23.8806 
G01 X-29.7488 Y23.7422 
G01 X-29.7196 Y23.5953 
G01 X-29.7196 Y22.1247 
G01 X-29.7488 Y21.9778 
G01 X-29.8061 Y21.8394 
G01 X-29.8894 Y21.7149 
G01 X-29.9953 Y21.6090 
G01 X-30.1198 Y21.5257 
G01 X-30.2582 Y21.4684 
G01 X-30.4051 Y21.4392 
G01 X-30.5549 Y21.4392 
G01 X-30.7018 Y21.4684 
G01 X-30.8402 Y21.5257 
G01 X-30.9647 Y21.6090 
G01 X-31.0706 Y21.7149 
G01 X-31.1539 Y21.8394 
G01 X-31.2112 Y21.9778 
G01 X-31.2404 Y22.1247 
G00 Z2.0000 
G00 X-31.2404 Y14.5047 
G01 Z-0.0250 F254.00 
G01 X-31.2404 Y15.9753 F508.00 
G01 X-31.2112 Y16.1222 
G01 X-31.1539 Y16.2606 
G01 X-31.0706 Y16.3851 
G01 X-30.9647 Y16.4910 
G01 X-30.8402 Y16.5743 
G01 X-30.7018 Y16.6316 
G01 X-30.5549 Y16.6608 
G01 X-30.4051 Y16.6608 
G01 X-30.2582 Y16.6316 
G01 X-30.1198 Y16.5743 
G01 X-29.9953 Y16.4910 
G01 X-29.8894 Y16.3851 
G01 X-29.8061 Y16.2606 
G01 X-29.7488 Y16.1222 
G01 X-29.7196 Y15.9753 
G01 X-29.7196 Y14.5047 
G01 X-29.7488 Y14.3578 
G01 X-29.8061 Y14.2194 
G01 X-29.8894 Y14.0949 
G01 X-29.9953 Y13.9890 
G01 X-30.1198 Y13.9057 
G01 X-30.2582 Y13.8484 
G01 X-30.4051 Y13.8192 
G01 X-30.5549 Y13.8192 
G01 X-30.7018 Y13.8484 
G01 X-30.8402 Y13.9057 
G01 X-30.9647 Y13.9890 
G01 X-31.0706 Y14.0949 
G01 X-31.1539 Y14.2194 
G01 X-31.2112 Y14.3578 
G01 X-31.2404 Y14.5047 
G00 Z2.0000 
G00 X-33.7804 Y14.5047 
G01 Z-0.0250 F254.00 
G01 X-33.7804 Y15.9753 F508.00 
G01 X-33.7512 Y16.1222 
G01 X-33.6939 Y16.2606 
G01 X-33.6106 Y16.3851 
G01 X-33.5047 Y16.4910 
G01 X-33.3802 Y16.5743 
G01 X-33.2418 Y16.6316 
G01 X-33.0949 Y16.6608 
G01 X-32.9451 Y16.6608 
G01 X-32.7982 Y16.6316 
G01 X-32.6598 Y16.5743 
G01 X-32.5353 Y16.4910 
G01 X-32.4294 Y16.3851 
G01 X-32.3461 Y16.2606 
G01 X-32.2888 Y16.1222 
G01 X-32.2596 Y15.9753 
G01 X-32.2596 Y14.5047 
G01 X-32.2888 Y14.3578 
G01 X-32.3461 Y14.2194 
G01 X-32.4294 Y14.0949 
G01 X-32.5353 Y13.9890 
G01 X-32.6598 Y13.9057 
G01 X-32.7982 Y13.8484 
G01 X-32.9451 Y13.8192 
G01 X-33.0949 Y13.8192 
G01 X-33.2418 Y13.8484 
G01 X-33.3802 Y13.9057 
G01 X-33.5047 Y13.9890 
G01 X-33.6106 Y14.0949 
G01 X-33.6939 Y14.2194 
G01 X-33.7512 Y14.3578 
G01 X-33.7804 Y14.5047 
G00 Z2.0000 
G00 X-38.8604 Y14.5047 
G01 Z-0.0250 F254.00 
G01 X-38.8604 Y15.9753 F508.00 
G01 X-38.8312 Y16.1222 
G01 X-38.7739 Y16.2606 
G01 X-38.6906 Y16.3851 
G01 X-38.5847 Y16.4910 
G01 X-38.4602 Y16.5743 
G01 X-38.3218 Y16.6316 
G01 X-38.1749 Y16.6608 
G01 X-38.0251 Y16.6608 
G01 X-37.8782 Y16.6316 
G01 X-37.7398 Y16.5743 
G01 X-37.6153 Y16.4910 
G01 X-37.5094 Y16.3851 
G01 X-37.4261 Y16.2606 
G01 X-37.4018 Y16.2018 
G01 X-34.4619 Y19.1416 
G01 X-34.3916 Y19.2119 
G01 X-34.2997 Y19.2500 
G01 X-19.1036 Y19.2500 
G01 X-18.5000 Y19.8536 
G01 X-18.5000 Y22.5000 
G01 X-18.7741 Y22.5000 
G01 X-18.7941 Y22.4517 
G01 X-18.8884 Y22.3105 
G01 X-19.0085 Y22.1904 
G01 X-19.1497 Y22.0961 
G01 X-19.3066 Y22.0311 
G01 X-19.4731 Y21.9980 
G01 X-21.1669 Y21.9980 
G01 X-21.3334 Y22.0311 
G01 X-21.4903 Y22.0961 
G01 X-21.6315 Y22.1904 
G01 X-21.7516 Y22.3105 
G01 X-21.8459 Y22.4517 
G01 X-21.9109 Y22.6086 
G01 X-21.9440 Y22.7751 
G01 X-21.9440 Y22.9449 
G01 X-21.9109 Y23.1114 
G01 X-21.8459 Y23.2683 
G01 X-21.7516 Y23.4095 
G01 X-21.6315 Y23.5296 
G01 X-21.4903 Y23.6239 
G01 X-21.3334 Y23.6889 
G01 X-21.1669 Y23.7220 
G01 X-19.4731 Y23.7220 
G01 X-19.3066 Y23.6889 
G01 X-19.1497 Y23.6239 
G01 X-19.0085 Y23.5296 
G01 X-18.8884 Y23.4095 
G01 X-18.7941 Y23.2683 
G01 X-18.7291 Y23.1114 
G01 X-18.7070 Y23.0000 
G01 X-18.2003 Y23.0000 
G01 X-18.1084 Y22.9619 
G01 X-18.0381 Y22.8916 
G01 X-18.0000 Y22.7997 
G01 X-18.0000 Y19.7003 
G01 X-18.0381 Y19.6084 
G01 X-18.1084 Y19.5381 
G01 X-18.8584 Y18.7881 
G01 X-18.9503 Y18.7500 
G01 X-34.1464 Y18.7500 
G01 X-37.3396 Y15.5568 
G01 X-37.3396 Y14.5047 
G01 X-37.3688 Y14.3578 
G01 X-37.4261 Y14.2194 
G01 X-37.5094 Y14.0949 
G01 X-37.6153 Y13.9890 
G01 X-37.7398 Y13.9057 
G01 X-37.8782 Y13.8484 
G01 X-38.0251 Y13.8192 
G01 X-38.1749 Y13.8192 
G01 X-38.3218 Y13.8484 
G01 X-38.4602 Y13.9057 
G01 X-38.5847 Y13.9890 
G01 X-38.6906 Y14.0949 
G01 X-38.7739 Y14.2194 
G01 X-38.8312 Y14.3578 
G01 X-38.8604 Y14.5047 
G00 Z2.0000 
G00 X-41.4004 Y14.5047 
G01 Z-0.0250 F254.00 
G01 X-41.4004 Y15.9753 F508.00 
G01 X-41.3712 Y16.1222 
G01 X-41.3139 Y16.2606 
G01 X-41.2306 Y16.3851 
G01 X-41.1247 Y16.4910 
G01 X-41.0002 Y16.5743 
G01 X-40.8618 Y16.6316 
G01 X-40.7149 Y16.6608 
G01 X-40.5651 Y16.6608 
G01 X-40.4182 Y16.6316 
G01 X-40.2798 Y16.5743 
G01 X-40.1553 Y16.4910 
G01 X-40.0494 Y16.3851 
G01 X-39.9661 Y16.2606 
G01 X-39.9301 Y16.1735 
G01 X-35.7119 Y20.3916 
G01 X-35.6416 Y20.4619 
G01 X-35.5497 Y20.5000 
G01 X-21.9251 Y20.5000 
G01 X-21.9109 Y20.5714 
G01 X-21.8459 Y20.7283 
G01 X-21.7516 Y20.8695 
G01 X-21.6315 Y20.9896 
G01 X-21.4903 Y21.0839 
G01 X-21.3334 Y21.1489 
G01 X-21.1669 Y21.1820 
G01 X-19.4731 Y21.1820 
G01 X-19.3066 Y21.1489 
G01 X-19.1497 Y21.0839 
G01 X-19.0085 Y20.9896 
G01 X-18.8884 Y20.8695 
G01 X-18.7941 Y20.7283 
G01 X-18.7291 Y20.5714 
G01 X-18.6960 Y20.4049 
G01 X-18.6960 Y20.2351 
G01 X-18.7291 Y20.0686 
G01 X-18.7941 Y19.9117 
G01 X-18.8884 Y19.7705 
G01 X-19.0085 Y19.6504 
G01 X-19.1497 Y19.5561 
G01 X-19.3066 Y19.4911 
G01 X-19.4731 Y19.4580 
G01 X-21.1669 Y19.4580 
G01 X-21.3334 Y19.4911 
G01 X-21.4903 Y19.5561 
G01 X-21.6315 Y19.6504 
G01 X-21.7516 Y19.7705 
G01 X-21.8459 Y19.9117 
G01 X-21.8825 Y20.0000 
G01 X-35.3964 Y20.0000 
G01 X-39.8796 Y15.5168 
G01 X-39.8796 Y14.5047 
G01 X-39.9088 Y14.3578 
G01 X-39.9661 Y14.2194 
G01 X-40.0494 Y14.0949 
G01 X-40.1553 Y13.9890 
G01 X-40.2798 Y13.9057 
G01 X-40.4182 Y13.8484 
G01 X-40.5651 Y13.8192 
G01 X-40.7149 Y13.8192 
G01 X-40.8618 Y13.8484 
G01 X-41.0002 Y13.9057 
G01 X-41.1247 Y13.9890 
G01 X-41.2306 Y14.0949 
G01 X-41.3139 Y14.2194 
G01 X-41.3712 Y14.3578 
G01 X-41.4004 Y14.5047 
G00 Z2.0000 
G00 X-46.4804 Y14.5047 
G01 Z-0.0250 F254.00 
G01 X-46.4804 Y15.9753 F508.00 
G01 X-46.4512 Y16.1222 
G01 X-46.3939 Y16.2606 
G01 X-46.3106 Y16.3851 
G01 X-46.2047 Y16.4910 
G01 X-46.0802 Y16.5743 
G01 X-45.9418 Y16.6316 
G01 X-45.7949 Y16.6608 
G01 X-45.6451 Y16.6608 
G01 X-45.4982 Y16.6316 
G01 X-45.3598 Y16.5743 
G01 X-45.2353 Y16.4910 
G01 X-45.1294 Y16.3851 
G01 X-45.0461 Y16.2606 
G01 X-44.9888 Y16.1222 
G01 X-44.9596 Y15.9753 
G01 X-44.9596 Y14.5047 
G01 X-44.9888 Y14.3578 
G01 X-45.0461 Y14.2194 
G01 X-45.1294 Y14.0949 
G01 X-45.2353 Y13.9890 
G01 X-45.3598 Y13.9057 
G01 X-45.4982 Y13.8484 
G01 X-45.6451 Y13.8192 
G01 X-45.7949 Y13.8192 
G01 X-45.9418 Y13.8484 
G01 X-46.0802 Y13.9057 
G01 X-46.2047 Y13.9890 
G01 X-46.3106 Y14.0949 
G01 X-46.3939 Y14.2194 
G01 X-46.4512 Y14.3578 
G01 X-46.4804 Y14.5047 
G00 Z2.0000 
G00 X-51.5604 Y14.5047 
G01 Z-0.0250 F254.00 
G01 X-51.5604 Y15.9753 F508.00 
G01 X-51.5312 Y16.1222 
G01 X-51.4739 Y16.2606 
G01 X-51.3906 Y16.3851 
G01 X-51.2847 Y16.4910 
G01 X-51.1602 Y16.5743 
G01 X-51.0218 Y16.6316 
G01 X-50.8749 Y16.6608 
G01 X-50.7251 Y16.6608 
G01 X-50.5782 Y16.6316 
G01 X-50.4398 Y16.5743 
G01 X-50.3153 Y16.4910 
G01 X-50.2094 Y16.3851 
G01 X-50.1261 Y16.2606 
G01 X-50.0688 Y16.1222 
G01 X-50.0396 Y15.9753 
G01 X-50.0396 Y14.5047 
G01 X-50.0688 Y14.3578 
G01 X-50.1261 Y14.2194 
G01 X-50.2094 Y14.0949 
G01 X-50.3153 Y13.9890 
G01 X-50.4398 Y13.9057 
G01 X-50.5782 Y13.8484 
G01 X-50.7251 Y13.8192 
G01 X-50.8749 Y13.8192 
G01 X-51.0218 Y13.8484 
G01 X-51.1602 Y13.9057 
G01 X-51.2847 Y13.9890 
G01 X-51.3906 Y14.0949 
G01 X-51.4739 Y14.2194 
G01 X-51.5312 Y14.3578 
G01 X-51.5604 Y14.5047 
G00 Z2.0000 
G00 X-54.1004 Y14.5047 
G01 Z-0.0250 F254.00 
G01 X-54.1004 Y15.9753 F508.00 
G01 X-54.0712 Y16.1222 
G01 X-54.0139 Y16.2606 
G01 X-53.9306 Y16.3851 
G01 X-53.8247 Y16.4910 
G01 X-53.7002 Y16.5743 
G01 X-53.5618 Y16.6316 
G01 X-53.4149 Y16.6608 
G01 X-53.2651 Y16.6608 
G01 X-53.1182 Y16.6316 
G01 X-52.9798 Y16.5743 
G01 X-52.8553 Y16.4910 
G01 X-52.7494 Y16.3851 
G01 X-52.6661 Y16.2606 
G01 X-52.6088 Y16.1222 
G01 X-52.5796 Y15.9753 
G01 X-52.5796 Y14.5047 
G01 X-52.6088 Y14.3578 
G01 X-52.6661 Y14.2194 
G01 X-52.7494 Y14.0949 
G01 X-52.8553 Y13.9890 
G01 X-52.9798 Y13.9057 
G01 X-53.1182 Y13.8484 
G01 X-53.2651 Y13.8192 
G01 X-53.4149 Y13.8192 
G01 X-53.5618 Y13.8484 
G01 X-53.7002 Y13.9057 
G01 X-53.8247 Y13.9890 
G01 X-53.9306 Y14.0949 
G01 X-54.0139 Y14.2194 
G01 X-54.0712 Y14.3578 
G01 X-54.1004 Y14.5047 
G00 Z2.0000 
G00 X-56.6404 Y14.5047 
G01 Z-0.0250 F254.00 
G01 X-56.6404 Y15.9753 F508.00 
G01 X-56.6112 Y16.1222 
G01 X-56.5539 Y16.2606 
G01 X-56.4706 Y16.3851 
G01 X-56.3647 Y16.4910 
G01 X-56.2402 Y16.5743 
G01 X-56.1018 Y16.6316 
G01 X-55.9549 Y16.6608 
G01 X-55.8051 Y16.6608 
G01 X-55.6582 Y16.6316 
G01 X-55.5198 Y16.5743 
G01 X-55.3953 Y16.4910 
G01 X-55.2894 Y16.3851 
G01 X-55.2061 Y16.2606 
G01 X-55.1488 Y16.1222 
G01 X-55.1196 Y15.9753 
G01 X-55.1196 Y14.5047 
G01 X-55.1488 Y14.3578 
G01 X-55.2061 Y14.2194 
G01 X-55.2894 Y14.0949 
G01 X-55.3953 Y13.9890 
G01 X-55.5198 Y13.9057 
G01 X-55.6582 Y13.8484 
G01 X-55.8051 Y13.8192 
G01 X-55.9549 Y13.8192 
G01 X-56.1018 Y13.8484 
G01 X-56.2402 Y13.9057 
G01 X-56.3647 Y13.9890 
G01 X-56.4706 Y14.0949 
G01 X-56.5539 Y14.2194 
G01 X-56.6112 Y14.3578 
G01 X-56.6404 Y14.5047 
G00 Z2.0000 
G00 X-59.1804 Y14.5047 
G01 Z-0.0250 F254.00 
G01 X-59.1804 Y15.9753 F508.00 
G01 X-59.1512 Y16.1222 
G01 X-59.0939 Y16.2606 
G01 X-59.0106 Y16.3851 
G01 X-58.9047 Y16.4910 
G01 X-58.7802 Y16.5743 
G01 X-58.6418 Y16.6316 
G01 X-58.4949 Y16.6608 
G01 X-58.3451 Y16.6608 
G01 X-58.1982 Y16.6316 
G01 X-58.0598 Y16.5743 
G01 X-57.9353 Y16.4910 
G01 X-57.8294 Y16.3851 
G01 X-57.7461 Y16.2606 
G01 X-57.6888 Y16.1222 
G01 X-57.6596 Y15.9753 
G01 X-57.6596 Y14.5047 
G01 X-57.6888 Y14.3578 
G01 X-57.7461 Y14.2194 
G01 X-57.8294 Y14.0949 
G01 X-57.9353 Y13.9890 
G01 X-58.0598 Y13.9057 
G01 X-58.1982 Y13.8484 
G01 X-58.3451 Y13.8192 
G01 X-58.4949 Y13.8192 
G01 X-58.6418 Y13.8484 
G01 X-58.7802 Y13.9057 
G01 X-58.9047 Y13.9890 
G01 X-59.0106 Y14.0949 
G01 X-59.0939 Y14.2194 
G01 X-59.1512 Y14.3578 
G01 X-59.1804 Y14.5047 
G00 Z2.0000 
G00 X-64.2604 Y14.5047 
G01 Z-0.0250 F254.00 
G01 X-64.2604 Y15.9753 F508.00 
G01 X-64.2312 Y16.1222 
G01 X-64.1739 Y16.2606 
G01 X-64.0906 Y16.3851 
G01 X-63.9847 Y16.4910 
G01 X-63.8602 Y16.5743 
G01 X-63.7218 Y16.6316 
G01 X-63.5749 Y16.6608 
G01 X-63.4251 Y16.6608 
G01 X-63.2782 Y16.6316 
G01 X-63.1398 Y16.5743 
G01 X-63.0153 Y16.4910 
G01 X-62.9094 Y16.3851 
G01 X-62.8261 Y16.2606 
G01 X-62.7688 Y16.1222 
G01 X-62.7396 Y15.9753 
G01 X-62.7396 Y14.5047 
G01 X-62.7688 Y14.3578 
G01 X-62.8261 Y14.2194 
G01 X-62.9094 Y14.0949 
G01 X-63.0153 Y13.9890 
G01 X-63.1398 Y13.9057 
G01 X-63.2782 Y13.8484 
G01 X-63.4251 Y13.8192 
G01 X-63.5749 Y13.8192 
G01 X-63.7218 Y13.8484 
G01 X-63.8602 Y13.9057 
G01 X-63.9847 Y13.9890 
G01 X-64.0906 Y14.0949 
G01 X-64.1739 Y14.2194 
G01 X-64.2312 Y14.3578 
G01 X-64.2604 Y14.5047 
G00 Z2.0000 
G00 X-9.3710 Y20.5176 
G01 Z-0.0250 F254.00 
G01 X-9.3710 Y20.6812 F508.00 
G01 X-9.3454 Y20.8429 
G01 X-9.2948 Y20.9985 
G01 X-9.2298 Y21.1262 
G01 X-17.1036 Y29.0000 
G01 X-40.5497 Y29.0000 
G01 X-40.6416 Y29.0381 
G01 X-47.0347 Y35.4311 
G01 X-47.0727 Y35.4154 
G01 X-47.1901 Y35.3920 
G01 X-47.3099 Y35.3920 
G01 X-47.4273 Y35.4154 
G01 X-47.5380 Y35.4612 
G01 X-47.6376 Y35.5277 
G01 X-47.7223 Y35.6124 
G01 X-47.7888 Y35.7120 
G01 X-47.8346 Y35.8227 
G01 X-47.8580 Y35.9401 
G01 X-47.8580 Y36.0599 
G01 X-47.8346 Y36.1773 
G01 X-47.7888 Y36.2880 
G01 X-47.7223 Y36.3876 
G01 X-47.6376 Y36.4723 
G01 X-47.5380 Y36.5388 
G01 X-47.4273 Y36.5846 
G01 X-47.3099 Y36.6080 
G01 X-47.1901 Y36.6080 
G01 X-47.0727 Y36.5846 
G01 X-46.9620 Y36.5388 
G01 X-46.8624 Y36.4723 
G01 X-46.7777 Y36.3876 
G01 X-46.7112 Y36.2880 
G01 X-46.6654 Y36.1773 
G01 X-46.6420 Y36.0599 
G01 X-46.6420 Y35.9401 
G01 X-46.6654 Y35.8227 
G01 X-46.6811 Y35.7847 
G01 X-40.3964 Y29.5000 
G01 X-16.9503 Y29.5000 
G01 X-16.8584 Y29.4619 
G01 X-16.7881 Y29.3916 
G01 X-8.8814 Y21.4849 
G01 X-8.8762 Y21.4887 
G01 X-8.7303 Y21.5630 
G01 X-8.5747 Y21.6136 
G01 X-8.4130 Y21.6392 
G01 X-8.2494 Y21.6392 
G01 X-8.0877 Y21.6136 
G01 X-7.9321 Y21.5630 
G01 X-7.7862 Y21.4887 
G01 X-7.6538 Y21.3925 
G01 X-7.5381 Y21.2768 
G01 X-7.4419 Y21.1444 
G01 X-7.3676 Y20.9985 
G01 X-7.3170 Y20.8429 
G01 X-7.2914 Y20.6812 
G01 X-7.2914 Y20.5176 
G01 X-7.3170 Y20.3559 
G01 X-7.3676 Y20.2003 
G01 X-7.4419 Y20.0544 
G01 X-7.5381 Y19.9220 
G01 X-7.6538 Y19.8063 
G01 X-7.7862 Y19.7101 
G01 X-7.9321 Y19.6358 
G01 X-8.0877 Y19.5852 
G01 X-8.2494 Y19.5596 
G01 X-8.4130 Y19.5596 
G01 X-8.5747 Y19.5852 
G01 X-8.7303 Y19.6358 
G01 X-8.8762 Y19.7101 
G01 X-9.0086 Y19.8063 
G01 X-9.1243 Y19.9220 
G01 X-9.2205 Y20.0544 
G01 X-9.2948 Y20.2003 
G01 X-9.3454 Y20.3559 
G01 X-9.3710 Y20.5176 
G00 Z2.0000 
G00 X-2.8686 Y20.5176 
G01 Z-0.0250 F254.00 
G01 X-2.8686 Y20.6812 F508.00 
G01 X-2.8430 Y20.8429 
G01 X-2.7924 Y20.9985 
G01 X-2.7181 Y21.1444 
G01 X-2.6219 Y21.2768 
G01 X-2.5062 Y21.3925 
G01 X-2.3738 Y21.4887 
G01 X-2.2279 Y21.5630 
G01 X-2.0723 Y21.6136 
G01 X-1.9106 Y21.6392 
G01 X-1.7470 Y21.6392 
G01 X-1.5853 Y21.6136 
G01 X-1.4297 Y21.5630 
G01 X-1.2838 Y21.4887 
G01 X-1.1514 Y21.3925 
G01 X-1.0357 Y21.2768 
G01 X-0.9395 Y21.1444 
G01 X-0.8652 Y20.9985 
G01 X-0.8146 Y20.8429 
G01 X-0.7890 Y20.6812 
G01 X-0.7890 Y20.5176 
G01 X-0.8146 Y20.3559 
G01 X-0.8652 Y20.2003 
G01 X-0.9395 Y20.0544 
G01 X-1.0357 Y19.9220 
G01 X-1.1514 Y19.8063 
G01 X-1.2838 Y19.7101 
G01 X-1.4297 Y19.6358 
G01 X-1.5853 Y19.5852 
G01 X-1.7470 Y19.5596 
G01 X-1.9106 Y19.5596 
G01 X-2.0723 Y19.5852 
G01 X-2.2279 Y19.6358 
G01 X-2.3738 Y19.7101 
G01 X-2.5062 Y19.8063 
G01 X-2.6219 Y19.9220 
G01 X-2.7181 Y20.0544 
G01 X-2.7924 Y20.2003 
G01 X-2.8430 Y20.3559 
G01 X-2.8686 Y20.5176 
G00 Z2.0000 
G00 X-9.3710 Y25.0388 
G01 Z-0.0250 F254.00 
G01 X-9.3710 Y25.2024 F508.00 
G01 X-9.3454 Y25.3641 
G01 X-9.2948 Y25.5197 
G01 X-9.2205 Y25.6656 
G01 X-9.1243 Y25.7980 
G01 X-9.0086 Y25.9137 
G01 X-8.8762 Y26.0099 
G01 X-8.7303 Y26.0842 
G01 X-8.5747 Y26.1348 
G01 X-8.4130 Y26.1604 
G01 X-8.2494 Y26.1604 
G01 X-8.0877 Y26.1348 
G01 X-7.9321 Y26.0842 
G01 X-7.7862 Y26.0099 
G01 X-7.6538 Y25.9137 
G01 X-7.5381 Y25.7980 
G01 X-7.4419 Y25.6656 
G01 X-7.3676 Y25.5197 
G01 X-7.3170 Y25.3641 
G01 X-7.2914 Y25.2024 
G01 X-7.2914 Y25.0388 
G01 X-7.3170 Y24.8771 
G01 X-7.3676 Y24.7215 
G01 X-7.4419 Y24.5756 
G01 X-7.5381 Y24.4432 
G01 X-7.6538 Y24.3275 
G01 X-7.7862 Y24.2313 
G01 X-7.9321 Y24.1570 
G01 X-8.0877 Y24.1064 
G01 X-8.2494 Y24.0808 
G01 X-8.4130 Y24.0808 
G01 X-8.5747 Y24.1064 
G01 X-8.7303 Y24.1570 
G01 X-8.8762 Y24.2313 
G01 X-9.0086 Y24.3275 
G01 X-9.1243 Y24.4432 
G01 X-9.2205 Y24.5756 
G01 X-9.2948 Y24.7215 
G01 X-9.3454 Y24.8771 
G01 X-9.3710 Y25.0388 
G00 Z2.0000 
G00 X-2.8686 Y25.0388 
G01 Z-0.0250 F254.00 
G01 X-2.8686 Y25.2024 F508.00 
G01 X-2.8430 Y25.3641 
G01 X-2.7924 Y25.5197 
G01 X-2.7181 Y25.6656 
G01 X-2.6219 Y25.7980 
G01 X-2.5062 Y25.9137 
G01 X-2.3738 Y26.0099 
G01 X-2.2279 Y26.0842 
G01 X-2.0723 Y26.1348 
G01 X-1.9106 Y26.1604 
G01 X-1.7470 Y26.1604 
G01 X-1.5853 Y26.1348 
G01 X-1.4297 Y26.0842 
G01 X-1.2838 Y26.0099 
G01 X-1.1514 Y25.9137 
G01 X-1.0357 Y25.7980 
G01 X-0.9395 Y25.6656 
G01 X-0.8652 Y25.5197 
G01 X-0.8146 Y25.3641 
G01 X-0.7890 Y25.2024 
G01 X-0.7890 Y25.0388 
G01 X-0.8146 Y24.8771 
G01 X-0.8652 Y24.7215 
G01 X-0.9395 Y24.5756 
G01 X-1.0357 Y24.4432 
G01 X-1.1514 Y24.3275 
G01 X-1.2838 Y24.2313 
G01 X-1.4297 Y24.1570 
G01 X-1.5853 Y24.1064 
G01 X-1.7470 Y24.0808 
G01 X-1.9106 Y24.0808 
G01 X-2.0723 Y24.1064 
G01 X-2.2279 Y24.1570 
G01 X-2.3738 Y24.2313 
G01 X-2.5062 Y24.3275 
G01 X-2.6219 Y24.4432 
G01 X-2.7181 Y24.5756 
G01 X-2.7924 Y24.7215 
G01 X-2.8430 Y24.8771 
G01 X-2.8686 Y25.0388 
G00 Z2.0000 
G00 X-9.7369 Y14.8320 
G01 Z-0.0250 F254.00 
G01 X-8.0431 Y14.8320 F508.00 
G01 X-7.8766 Y14.7989 
G01 X-7.7197 Y14.7339 
G01 X-7.5785 Y14.6396 
G01 X-7.4584 Y14.5195 
G01 X-7.3641 Y14.3783 
G01 X-7.2991 Y14.2214 
G01 X-7.2660 Y14.0549 
G01 X-7.2660 Y13.8851 
G01 X-7.2991 Y13.7186 
G01 X-7.3641 Y13.5617 
G01 X-7.4584 Y13.4205 
G01 X-7.5785 Y13.3004 
G01 X-7.7197 Y13.2061 
G01 X-7.8766 Y13.1411 
G01 X-8.0431 Y13.1080 
G01 X-9.7369 Y13.1080 
G01 X-9.9034 Y13.1411 
G01 X-10.0603 Y13.2061 
G01 X-10.2015 Y13.3004 
G01 X-10.3216 Y13.4205 
G01 X-10.4159 Y13.5617 
G01 X-10.4809 Y13.7186 
G01 X-10.5140 Y13.8851 
G01 X-10.5140 Y14.0549 
G01 X-10.4809 Y14.2214 
G01 X-10.4159 Y14.3783 
G01 X-10.3216 Y14.5195 
G01 X-10.2015 Y14.6396 
G01 X-10.0603 Y14.7339 
G01 X-9.9034 Y14.7989 
G01 X-9.7369 Y14.8320 
G00 Z2.0000 
G00 X-9.7369 Y12.2920 
G01 Z-0.0250 F254.00 
G01 X-8.0431 Y12.2920 F508.00 
G01 X-7.8766 Y12.2589 
G01 X-7.7197 Y12.1939 
G01 X-7.5785 Y12.0996 
G01 X-7.4584 Y11.9795 
G01 X-7.3641 Y11.8383 
G01 X-7.2991 Y11.6814 
G01 X-7.2660 Y11.5149 
G01 X-7.2660 Y11.3451 
G01 X-7.2991 Y11.1786 
G01 X-7.3641 Y11.0217 
G01 X-7.4584 Y10.8805 
G01 X-7.5785 Y10.7604 
G01 X-7.7197 Y10.6661 
G01 X-7.8766 Y10.6011 
G01 X-8.0431 Y10.5680 
G01 X-9.7369 Y10.5680 
G01 X-9.9034 Y10.6011 
G01 X-10.0603 Y10.6661 
G01 X-10.2015 Y10.7604 
G01 X-10.3216 Y10.8805 
G01 X-10.4159 Y11.0217 
G01 X-10.4809 Y11.1786 
G01 X-10.5140 Y11.3451 
G01 X-10.5140 Y11.5149 
G01 X-10.4809 Y11.6814 
G01 X-10.4159 Y11.8383 
G01 X-10.3216 Y11.9795 
G01 X-10.2015 Y12.0996 
G01 X-10.0603 Y12.1939 
G01 X-9.9034 Y12.2589 
G01 X-9.7369 Y12.2920 
G00 Z2.0000 
G00 X-30.6562 Y46.9101 
G01 Z-0.0250 F254.00 
G01 X-30.6562 Y47.0699 F508.00 
G01 X-30.6250 Y47.2266 
G01 X-30.5639 Y47.3742 
G01 X-30.4751 Y47.5071 
G01 X-30.3621 Y47.6201 
G01 X-30.2292 Y47.7089 
G01 X-30.0816 Y47.7700 
G01 X-29.9249 Y47.8012 
G01 X-29.7651 Y47.8012 
G01 X-29.6084 Y47.7700 
G01 X-29.4608 Y47.7089 
G01 X-29.3279 Y47.6201 
G01 X-29.2149 Y47.5071 
G01 X-29.1261 Y47.3742 
G01 X-29.0650 Y47.2266 
G01 X-29.0338 Y47.0699 
G01 X-29.0338 Y46.9101 
G01 X-29.0650 Y46.7534 
G01 X-29.1261 Y46.6058 
G01 X-29.2149 Y46.4729 
G01 X-29.3279 Y46.3599 
G01 X-29.4608 Y46.2711 
G01 X-29.6084 Y46.2100 
G01 X-29.7651 Y46.1788 
G01 X-29.9249 Y46.1788 
G01 X-30.0816 Y46.2100 
G01 X-30.2292 Y46.2711 
G01 X-30.3621 Y46.3599 
G01 X-30.4751 Y46.4729 
G01 X-30.5639 Y46.6058 
G01 X-30.6250 Y46.7534 
G01 X-30.6562 Y46.9101 
G00 Z2.0000 
G00 X-29.3862 Y44.3701 
G01 Z-0.0250 F254.00 
G01 X-29.3862 Y44.5299 F508.00 
G01 X-29.3550 Y44.6866 
G01 X-29.2939 Y44.8342 
G01 X-29.2051 Y44.9671 
G01 X-29.0921 Y45.0801 
G01 X-28.9592 Y45.1689 
G01 X-28.8116 Y45.2300 
G01 X-28.6549 Y45.2612 
G01 X-28.4951 Y45.2612 
G01 X-28.3384 Y45.2300 
G01 X-28.1908 Y45.1689 
G01 X-28.0579 Y45.0801 
G01 X-27.9449 Y44.9671 
G01 X-27.8561 Y44.8342 
G01 X-27.7950 Y44.6866 
G01 X-27.7638 Y44.5299 
G01 X-27.7638 Y44.3701 
G01 X-27.7950 Y44.2134 
G01 X-27.8561 Y44.0658 
G01 X-27.9449 Y43.9329 
G01 X-28.0579 Y43.8199 
G01 X-28.1908 Y43.7311 
G01 X-28.3384 Y43.6700 
G01 X-28.4951 Y43.6388 
G01 X-28.6549 Y43.6388 
G01 X-28.8116 Y43.6700 
G01 X-28.9282 Y43.7183 
G01 X-29.5381 Y43.1084 
G01 X-29.6084 Y43.0381 
G01 X-29.7003 Y43.0000 
G01 X-43.6464 Y43.0000 
G01 X-46.0381 Y40.6084 
G01 X-46.1084 Y40.5381 
G01 X-46.2003 Y40.5000 
G01 X-51.1699 Y40.5000 
G01 X-51.1699 Y40.2672 
G01 X-51.6972 Y39.7399 
G01 X-52.4428 Y39.7399 
G01 X-52.9701 Y40.2672 
G01 X-52.9701 Y41.0128 
G01 X-52.4428 Y41.5401 
G01 X-51.6972 Y41.5401 
G01 X-51.1699 Y41.0128 
G01 X-51.1699 Y41.0000 
G01 X-46.3536 Y41.0000 
G01 X-43.9619 Y43.3916 
G01 X-43.8916 Y43.4619 
G01 X-43.2709 Y44.0827 
G01 X-43.3250 Y44.2134 
G01 X-43.3562 Y44.3701 
G01 X-43.3562 Y44.5299 
G01 X-43.3250 Y44.6866 
G01 X-43.2639 Y44.8342 
G01 X-43.1751 Y44.9671 
G01 X-43.0621 Y45.0801 
G01 X-42.9292 Y45.1689 
G01 X-42.7816 Y45.2300 
G01 X-42.6249 Y45.2612 
G01 X-42.4651 Y45.2612 
G01 X-42.3084 Y45.2300 
G01 X-42.1608 Y45.1689 
G01 X-42.0279 Y45.0801 
G01 X-41.9149 Y44.9671 
G01 X-41.8261 Y44.8342 
G01 X-41.7650 Y44.6866 
G01 X-41.7338 Y44.5299 
G01 X-41.7338 Y44.3701 
G01 X-41.7650 Y44.2134 
G01 X-41.8261 Y44.0658 
G01 X-41.9149 Y43.9329 
G01 X-42.0279 Y43.8199 
G01 X-42.1608 Y43.7311 
G01 X-42.3084 Y43.6700 
G01 X-42.4651 Y43.6388 
G01 X-42.6249 Y43.6388 
G01 X-42.7816 Y43.6700 
G01 X-42.9194 Y43.7270 
G01 X-43.1465 Y43.5000 
G01 X-29.8536 Y43.5000 
G01 X-29.2914 Y44.0621 
G01 X-29.2939 Y44.0658 
G01 X-29.3550 Y44.2134 
G01 X-29.3862 Y44.3701 
G00 Z2.0000 
G00 X-26.8462 Y44.3701 
G01 Z-0.0250 F254.00 
G01 X-26.8462 Y44.5299 F508.00 
G01 X-26.8150 Y44.6866 
G01 X-26.8077 Y44.7042 
G01 X-27.6036 Y45.5000 
G01 X-38.6464 Y45.5000 
G01 X-39.2966 Y44.8499 
G01 X-39.2861 Y44.8342 
G01 X-39.2250 Y44.6866 
G01 X-39.1938 Y44.5299 
G01 X-39.1938 Y44.3701 
G01 X-39.2250 Y44.2134 
G01 X-39.2861 Y44.0658 
G01 X-39.3749 Y43.9329 
G01 X-39.4879 Y43.8199 
G01 X-39.6208 Y43.7311 
G01 X-39.7684 Y43.6700 
G01 X-39.9251 Y43.6388 
G01 X-40.0849 Y43.6388 
G01 X-40.2416 Y43.6700 
G01 X-40.3892 Y43.7311 
G01 X-40.5221 Y43.8199 
G01 X-40.6351 Y43.9329 
G01 X-40.7239 Y44.0658 
G01 X-40.7850 Y44.2134 
G01 X-40.8162 Y44.3701 
G01 X-40.8162 Y44.5299 
G01 X-40.7850 Y44.6866 
G01 X-40.7239 Y44.8342 
G01 X-40.6351 Y44.9671 
G01 X-40.5221 Y45.0801 
G01 X-40.3892 Y45.1689 
G01 X-40.2416 Y45.2300 
G01 X-40.0849 Y45.2612 
G01 X-39.9251 Y45.2612 
G01 X-39.7684 Y45.2300 
G01 X-39.6660 Y45.1876 
G01 X-38.8916 Y45.9619 
G01 X-38.7997 Y46.0000 
G01 X-27.4503 Y46.0000 
G01 X-27.3584 Y45.9619 
G01 X-26.5068 Y45.1104 
G01 X-26.4192 Y45.1689 
G01 X-26.2716 Y45.2300 
G01 X-26.1149 Y45.2612 
G01 X-25.9551 Y45.2612 
G01 X-25.7984 Y45.2300 
G01 X-25.6508 Y45.1689 
G01 X-25.5179 Y45.0801 
G01 X-25.4049 Y44.9671 
G01 X-25.3161 Y44.8342 
G01 X-25.2550 Y44.6866 
G01 X-25.2238 Y44.5299 
G01 X-25.2238 Y44.5000 
G01 X-12.4503 Y44.5000 
G01 X-12.3584 Y44.4619 
G01 X-12.2881 Y44.3916 
G01 X-3.1246 Y35.2282 
G01 X-1.6094 Y35.2282 
G01 X-1.4281 Y35.1921 
G01 X-1.2574 Y35.1214 
G01 X-1.1037 Y35.0187 
G01 X-0.9731 Y34.8881 
G01 X-0.8704 Y34.7344 
G01 X-0.7997 Y34.5637 
G01 X-0.7636 Y34.3824 
G01 X-0.7636 Y34.1976 
G01 X-0.7997 Y34.0163 
G01 X-0.8704 Y33.8456 
G01 X-0.9731 Y33.6919 
G01 X-1.1037 Y33.5613 
G01 X-1.2574 Y33.4586 
G01 X-1.4281 Y33.3879 
G01 X-1.6094 Y33.3518 
G01 X-3.4706 Y33.3518 
G01 X-3.6519 Y33.3879 
G01 X-3.8226 Y33.4586 
G01 X-3.9763 Y33.5613 
G01 X-4.1069 Y33.6919 
G01 X-4.2096 Y33.8456 
G01 X-4.2803 Y34.0163 
G01 X-4.3164 Y34.1976 
G01 X-4.3164 Y34.3824 
G01 X-4.2803 Y34.5637 
G01 X-4.2096 Y34.7344 
G01 X-4.1069 Y34.8881 
G01 X-3.9763 Y35.0187 
G01 X-3.8226 Y35.1214 
G01 X-3.7536 Y35.1500 
G01 X-12.6036 Y44.0000 
G01 X-25.3601 Y44.0000 
G01 X-25.4049 Y43.9329 
G01 X-25.5179 Y43.8199 
G01 X-25.6508 Y43.7311 
G01 X-25.7984 Y43.6700 
G01 X-25.9551 Y43.6388 
G01 X-26.1149 Y43.6388 
G01 X-26.2716 Y43.6700 
G01 X-26.4192 Y43.7311 
G01 X-26.5521 Y43.8199 
G01 X-26.6651 Y43.9329 
G01 X-26.7539 Y44.0658 
G01 X-26.8150 Y44.2134 
G01 X-26.8462 Y44.3701 
G00 Z2.0000 
G00 X-73.2369 Y23.7220 
G01 Z-0.0250 F254.00 
G01 X-71.5431 Y23.7220 F508.00 
G01 X-71.3766 Y23.6889 
G01 X-71.2197 Y23.6239 
G01 X-71.0785 Y23.5296 
G01 X-70.9584 Y23.4095 
G01 X-70.8641 Y23.2683 
G01 X-70.7991 Y23.1114 
G01 X-70.7660 Y22.9449 
G01 X-70.7660 Y22.7751 
G01 X-70.7991 Y22.6086 
G01 X-70.8641 Y22.4517 
G01 X-70.9584 Y22.3105 
G01 X-71.0785 Y22.1904 
G01 X-71.2197 Y22.0961 
G01 X-71.3766 Y22.0311 
G01 X-71.5431 Y21.9980 
G01 X-73.2369 Y21.9980 
G01 X-73.4034 Y22.0311 
G01 X-73.5603 Y22.0961 
G01 X-73.7015 Y22.1904 
G01 X-73.8216 Y22.3105 
G01 X-73.9159 Y22.4517 
G01 X-73.9809 Y22.6086 
G01 X-74.0140 Y22.7751 
G01 X-74.0140 Y22.9449 
G01 X-73.9809 Y23.1114 
G01 X-73.9159 Y23.2683 
G01 X-73.8216 Y23.4095 
G01 X-73.7015 Y23.5296 
G01 X-73.5603 Y23.6239 
G01 X-73.4034 Y23.6889 
G01 X-73.2369 Y23.7220 
G00 Z2.0000 
G00 X-73.2369 Y21.1820 
G01 Z-0.0250 F254.00 
G01 X-71.5431 Y21.1820 F508.00 
G01 X-71.3766 Y21.1489 
G01 X-71.2197 Y21.0839 
G01 X-71.0785 Y20.9896 
G01 X-70.9584 Y20.8695 
G01 X-70.8641 Y20.7283 
G01 X-70.7991 Y20.5714 
G01 X-70.7660 Y20.4049 
G01 X-70.7660 Y20.2351 
G01 X-70.7991 Y20.0686 
G01 X-70.8641 Y19.9117 
G01 X-70.9584 Y19.7705 
G01 X-71.0785 Y19.6504 
G01 X-71.2197 Y19.5561 
G01 X-71.3766 Y19.4911 
G01 X-71.5431 Y19.4580 
G01 X-73.2369 Y19.4580 
G01 X-73.4034 Y19.4911 
G01 X-73.5603 Y19.5561 
G01 X-73.7015 Y19.6504 
G01 X-73.8216 Y19.7705 
G01 X-73.9159 Y19.9117 
G01 X-73.9809 Y20.0686 
G01 X-74.0140 Y20.2351 
G01 X-74.0140 Y20.4049 
G01 X-73.9809 Y20.5714 
G01 X-73.9159 Y20.7283 
G01 X-73.8216 Y20.8695 
G01 X-73.7015 Y20.9896 
G01 X-73.5603 Y21.0839 
G01 X-73.4034 Y21.1489 
G01 X-73.2369 Y21.1820 
G00 Z2.0000 
G00 X-73.2369 Y18.6420 
G01 Z-0.0250 F254.00 
G01 X-71.5431 Y18.6420 F508.00 
G01 X-71.3766 Y18.6089 
G01 X-71.2197 Y18.5439 
G01 X-71.0785 Y18.4496 
G01 X-70.9584 Y18.3295 
G01 X-70.8641 Y18.1883 
G01 X-70.7991 Y18.0314 
G01 X-70.7929 Y18.0000 
G01 X-63.4503 Y18.0000 
G01 X-63.3584 Y17.9619 
G01 X-63.2881 Y17.8916 
G01 X-61.6406 Y16.2442 
G01 X-61.6339 Y16.2606 
G01 X-61.5506 Y16.3851 
G01 X-61.4447 Y16.4910 
G01 X-61.3202 Y16.5743 
G01 X-61.1818 Y16.6316 
G01 X-61.0349 Y16.6608 
G01 X-60.8851 Y16.6608 
G01 X-60.7382 Y16.6316 
G01 X-60.5998 Y16.5743 
G01 X-60.4753 Y16.4910 
G01 X-60.3694 Y16.3851 
G01 X-60.2861 Y16.2606 
G01 X-60.2288 Y16.1222 
G01 X-60.1996 Y15.9753 
G01 X-60.1996 Y14.5047 
G01 X-60.2288 Y14.3578 
G01 X-60.2861 Y14.2194 
G01 X-60.3694 Y14.0949 
G01 X-60.4753 Y13.9890 
G01 X-60.5998 Y13.9057 
G01 X-60.7382 Y13.8484 
G01 X-60.8851 Y13.8192 
G01 X-61.0349 Y13.8192 
G01 X-61.1818 Y13.8484 
G01 X-61.3202 Y13.9057 
G01 X-61.4447 Y13.9890 
G01 X-61.5506 Y14.0949 
G01 X-61.6339 Y14.2194 
G01 X-61.6912 Y14.3578 
G01 X-61.7204 Y14.5047 
G01 X-61.7204 Y15.6168 
G01 X-63.6036 Y17.5000 
G01 X-70.8110 Y17.5000 
G01 X-70.8641 Y17.3717 
G01 X-70.9584 Y17.2305 
G01 X-71.0785 Y17.1104 
G01 X-71.2197 Y17.0161 
G01 X-71.3766 Y16.9511 
G01 X-71.5431 Y16.9180 
G01 X-73.2369 Y16.9180 
G01 X-73.4034 Y16.9511 
G01 X-73.5603 Y17.0161 
G01 X-73.7015 Y17.1104 
G01 X-73.8216 Y17.2305 
G01 X-73.9159 Y17.3717 
G01 X-73.9809 Y17.5286 
G01 X-74.0140 Y17.6951 
G01 X-74.0140 Y17.8649 
G01 X-73.9809 Y18.0314 
G01 X-73.9159 Y18.1883 
G01 X-73.8216 Y18.3295 
G01 X-73.7015 Y18.4496 
G01 X-73.5603 Y18.5439 
G01 X-73.4034 Y18.6089 
G01 X-73.2369 Y18.6420 
G00 Z2.0000 
G00 X-73.2369 Y16.1020 
G01 Z-0.0250 F254.00 
G01 X-71.5431 Y16.1020 F508.00 
G01 X-71.3766 Y16.0689 
G01 X-71.2197 Y16.0039 
G01 X-71.0785 Y15.9096 
G01 X-70.9584 Y15.7895 
G01 X-70.8641 Y15.6483 
G01 X-70.7991 Y15.4914 
G01 X-70.7660 Y15.3249 
G01 X-70.7660 Y15.1551 
G01 X-70.7991 Y14.9886 
G01 X-70.8641 Y14.8317 
G01 X-70.9584 Y14.6905 
G01 X-71.0785 Y14.5704 
G01 X-71.2197 Y14.4761 
G01 X-71.3278 Y14.4313 
G01 X-70.6464 Y13.7500 
G01 X-50.1036 Y13.7500 
G01 X-49.0204 Y14.8332 
G01 X-49.0204 Y15.9753 
G01 X-48.9912 Y16.1222 
G01 X-48.9339 Y16.2606 
G01 X-48.8506 Y16.3851 
G01 X-48.7447 Y16.4910 
G01 X-48.6202 Y16.5743 
G01 X-48.4818 Y16.6316 
G01 X-48.3349 Y16.6608 
G01 X-48.1851 Y16.6608 
G01 X-48.0382 Y16.6316 
G01 X-47.8998 Y16.5743 
G01 X-47.7753 Y16.4910 
G01 X-47.6694 Y16.3851 
G01 X-47.5861 Y16.2606 
G01 X-47.5288 Y16.1222 
G01 X-47.4996 Y15.9753 
G01 X-47.4996 Y14.5047 
G01 X-47.5288 Y14.3578 
G01 X-47.5861 Y14.2194 
G01 X-47.6694 Y14.0949 
G01 X-47.7753 Y13.9890 
G01 X-47.8998 Y13.9057 
G01 X-48.0382 Y13.8484 
G01 X-48.1851 Y13.8192 
G01 X-48.3349 Y13.8192 
G01 X-48.4818 Y13.8484 
G01 X-48.6202 Y13.9057 
G01 X-48.7447 Y13.9890 
G01 X-48.8506 Y14.0949 
G01 X-48.9311 Y14.2153 
G01 X-49.8584 Y13.2881 
G01 X-49.9503 Y13.2500 
G01 X-70.7997 Y13.2500 
G01 X-70.8916 Y13.2881 
G01 X-70.9619 Y13.3584 
G01 X-71.9816 Y14.3780 
G01 X-73.2369 Y14.3780 
G01 X-73.4034 Y14.4111 
G01 X-73.5603 Y14.4761 
G01 X-73.7015 Y14.5704 
G01 X-73.8216 Y14.6905 
G01 X-73.9159 Y14.8317 
G01 X-73.9809 Y14.9886 
G01 X-74.0140 Y15.1551 
G01 X-74.0140 Y15.3249 
G01 X-73.9809 Y15.4914 
G01 X-73.9159 Y15.6483 
G01 X-73.8216 Y15.7895 
G01 X-73.7015 Y15.9096 
G01 X-73.5603 Y16.0039 
G01 X-73.4034 Y16.0689 
G01 X-73.2369 Y16.1020 
G00 Z2.0000 
G00 X-73.2369 Y13.5620 
G01 Z-0.0250 F254.00 
G01 X-71.5431 Y13.5620 F508.00 
G01 X-71.3766 Y13.5289 
G01 X-71.2197 Y13.4639 
G01 X-71.0785 Y13.3696 
G01 X-70.9584 Y13.2495 
G01 X-70.8641 Y13.1083 
G01 X-70.7991 Y12.9514 
G01 X-70.7660 Y12.7849 
G01 X-70.7660 Y12.6151 
G01 X-70.7991 Y12.4486 
G01 X-70.8641 Y12.2917 
G01 X-70.9584 Y12.1505 
G01 X-71.0785 Y12.0304 
G01 X-71.2197 Y11.9361 
G01 X-71.3766 Y11.8711 
G01 X-71.5431 Y11.8380 
G01 X-73.2369 Y11.8380 
G01 X-73.4034 Y11.8711 
G01 X-73.5603 Y11.9361 
G01 X-73.7015 Y12.0304 
G01 X-73.8216 Y12.1505 
G01 X-73.9159 Y12.2917 
G01 X-73.9809 Y12.4486 
G01 X-74.0140 Y12.6151 
G01 X-74.0140 Y12.7849 
G01 X-73.9809 Y12.9514 
G01 X-73.9159 Y13.1083 
G01 X-73.8216 Y13.2495 
G01 X-73.7015 Y13.3696 
G01 X-73.5603 Y13.4639 
G01 X-73.4034 Y13.5289 
G01 X-73.2369 Y13.5620 
G00 Z2.0000 
G00 X-73.2369 Y11.0220 
G01 Z-0.0250 F254.00 
G01 X-71.5431 Y11.0220 F508.00 
G01 X-71.3766 Y10.9889 
G01 X-71.2197 Y10.9239 
G01 X-71.0785 Y10.8296 
G01 X-70.9584 Y10.7095 
G01 X-70.8641 Y10.5683 
G01 X-70.7991 Y10.4114 
G01 X-70.7660 Y10.2449 
G01 X-70.7660 Y10.0751 
G01 X-70.7991 Y9.9086 
G01 X-70.8641 Y9.7517 
G01 X-70.9584 Y9.6105 
G01 X-71.0785 Y9.4904 
G01 X-71.2197 Y9.3961 
G01 X-71.3766 Y9.3311 
G01 X-71.5431 Y9.2980 
G01 X-73.2369 Y9.2980 
G01 X-73.4034 Y9.3311 
G01 X-73.5603 Y9.3961 
G01 X-73.7015 Y9.4904 
G01 X-73.8216 Y9.6105 
G01 X-73.9159 Y9.7517 
G01 X-73.9809 Y9.9086 
G01 X-74.0140 Y10.0751 
G01 X-74.0140 Y10.2449 
G01 X-73.9809 Y10.4114 
G01 X-73.9159 Y10.5683 
G01 X-73.8216 Y10.7095 
G01 X-73.7015 Y10.8296 
G01 X-73.5603 Y10.9239 
G01 X-73.4034 Y10.9889 
G01 X-73.2369 Y11.0220 
G00 Z2.0000 
G00 X-73.2369 Y8.4820 
G01 Z-0.0250 F254.00 
G01 X-71.5431 Y8.4820 F508.00 
G01 X-71.3766 Y8.4489 
G01 X-71.2197 Y8.3839 
G01 X-71.0785 Y8.2896 
G01 X-70.9584 Y8.1695 
G01 X-70.8641 Y8.0283 
G01 X-70.7991 Y7.8714 
G01 X-70.7660 Y7.7049 
G01 X-70.7660 Y7.5351 
G01 X-70.7991 Y7.3686 
G01 X-70.8641 Y7.2117 
G01 X-70.9584 Y7.0705 
G01 X-71.0785 Y6.9504 
G01 X-71.2197 Y6.8561 
G01 X-71.3766 Y6.7911 
G01 X-71.5431 Y6.7580 
G01 X-73.2369 Y6.7580 
G01 X-73.4034 Y6.7911 
G01 X-73.5603 Y6.8561 
G01 X-73.7015 Y6.9504 
G01 X-73.8216 Y7.0705 
G01 X-73.9159 Y7.2117 
G01 X-73.9809 Y7.3686 
G01 X-74.0140 Y7.5351 
G01 X-74.0140 Y7.7049 
G01 X-73.9809 Y7.8714 
G01 X-73.9159 Y8.0283 
G01 X-73.8216 Y8.1695 
G01 X-73.7015 Y8.2896 
G01 X-73.5603 Y8.3839 
G01 X-73.4034 Y8.4489 
G01 X-73.2369 Y8.4820 
G00 Z2.0000 
G00 X-73.2369 Y5.9420 
G01 Z-0.0250 F254.00 
G01 X-71.5431 Y5.9420 F508.00 
G01 X-71.3766 Y5.9089 
G01 X-71.2197 Y5.8439 
G01 X-71.0785 Y5.7496 
G01 X-70.9584 Y5.6295 
G01 X-70.8641 Y5.4883 
G01 X-70.7991 Y5.3314 
G01 X-70.7660 Y5.1649 
G01 X-70.7660 Y4.9951 
G01 X-70.7991 Y4.8286 
G01 X-70.8641 Y4.6717 
G01 X-70.9584 Y4.5305 
G01 X-71.0785 Y4.4104 
G01 X-71.2197 Y4.3161 
G01 X-71.3766 Y4.2511 
G01 X-71.5431 Y4.2180 
G01 X-73.2369 Y4.2180 
G01 X-73.4034 Y4.2511 
G01 X-73.5603 Y4.3161 
G01 X-73.7015 Y4.4104 
G01 X-73.8216 Y4.5305 
G01 X-73.9159 Y4.6717 
G01 X-73.9809 Y4.8286 
G01 X-74.0140 Y4.9951 
G01 X-74.0140 Y5.1649 
G01 X-73.9809 Y5.3314 
G01 X-73.9159 Y5.4883 
G01 X-73.8216 Y5.6295 
G01 X-73.7015 Y5.7496 
G01 X-73.5603 Y5.8439 
G01 X-73.4034 Y5.9089 
G01 X-73.2369 Y5.9420 
G00 Z2.0000 
G00 X-73.2369 Y41.5020 
G01 Z-0.0250 F254.00 
G01 X-71.5431 Y41.5020 F508.00 
G01 X-71.3766 Y41.4689 
G01 X-71.2197 Y41.4039 
G01 X-71.0785 Y41.3096 
G01 X-70.9584 Y41.1895 
G01 X-70.8641 Y41.0483 
G01 X-70.7991 Y40.8914 
G01 X-70.7660 Y40.7249 
G01 X-70.7660 Y40.5551 
G01 X-70.7991 Y40.3886 
G01 X-70.8641 Y40.2317 
G01 X-70.9584 Y40.0905 
G01 X-71.0785 Y39.9704 
G01 X-71.2197 Y39.8761 
G01 X-71.3766 Y39.8111 
G01 X-71.5431 Y39.7780 
G01 X-73.2369 Y39.7780 
G01 X-73.4034 Y39.8111 
G01 X-73.5603 Y39.8761 
G01 X-73.7015 Y39.9704 
G01 X-73.8216 Y40.0905 
G01 X-73.9159 Y40.2317 
G01 X-73.9235 Y40.2500 
G01 X-74.2500 Y40.2500 
G01 X-74.2500 Y31.6036 
G01 X-63.8964 Y21.2500 
G01 X-52.8536 Y21.2500 
G01 X-51.5604 Y22.5432 
G01 X-51.5604 Y23.5953 
G01 X-51.5312 Y23.7422 
G01 X-51.4739 Y23.8806 
G01 X-51.3906 Y24.0051 
G01 X-51.2847 Y24.1110 
G01 X-51.1602 Y24.1943 
G01 X-51.0218 Y24.2516 
G01 X-50.8749 Y24.2808 
G01 X-50.7251 Y24.2808 
G01 X-50.5782 Y24.2516 
G01 X-50.4398 Y24.1943 
G01 X-50.3153 Y24.1110 
G01 X-50.2094 Y24.0051 
G01 X-50.1261 Y23.8806 
G01 X-50.0688 Y23.7422 
G01 X-50.0396 Y23.5953 
G01 X-50.0396 Y22.1247 
G01 X-50.0688 Y21.9778 
G01 X-50.1261 Y21.8394 
G01 X-50.2094 Y21.7149 
G01 X-50.3153 Y21.6090 
G01 X-50.4398 Y21.5257 
G01 X-50.5782 Y21.4684 
G01 X-50.7251 Y21.4392 
G01 X-50.8749 Y21.4392 
G01 X-51.0218 Y21.4684 
G01 X-51.1602 Y21.5257 
G01 X-51.2847 Y21.6090 
G01 X-51.3906 Y21.7149 
G01 X-51.4739 Y21.8394 
G01 X-51.4982 Y21.8982 
G01 X-52.5381 Y20.8584 
G01 X-52.6084 Y20.7881 
G01 X-52.7003 Y20.7500 
G01 X-64.0497 Y20.7500 
G01 X-64.1416 Y20.7881 
G01 X-74.6416 Y31.2881 
G01 X-74.7119 Y31.3584 
G01 X-74.7500 Y31.4503 
G01 X-74.7500 Y40.5497 
G01 X-74.7119 Y40.6416 
G01 X-74.6416 Y40.7119 
G01 X-74.5497 Y40.7500 
G01 X-74.0090 Y40.7500 
G01 X-73.9809 Y40.8914 
G01 X-73.9159 Y41.0483 
G01 X-73.8216 Y41.1895 
G01 X-73.7015 Y41.3096 
G01 X-73.5603 Y41.4039 
G01 X-73.4034 Y41.4689 
G01 X-73.2369 Y41.5020 
G00 Z2.0000 
G00 X-73.2369 Y38.9620 
G01 Z-0.0250 F254.00 
G01 X-71.5431 Y38.9620 F508.00 
G01 X-71.3766 Y38.9289 
G01 X-71.2197 Y38.8639 
G01 X-71.0785 Y38.7696 
G01 X-70.9584 Y38.6495 
G01 X-70.8641 Y38.5083 
G01 X-70.7991 Y38.3514 
G01 X-70.7790 Y38.2500 
G01 X-68.4503 Y38.2500 
G01 X-68.3584 Y38.2119 
G01 X-68.2881 Y38.1416 
G01 X-54.0177 Y23.8713 
G01 X-54.0139 Y23.8806 
G01 X-53.9306 Y24.0051 
G01 X-53.8247 Y24.1110 
G01 X-53.7002 Y24.1943 
G01 X-53.5618 Y24.2516 
G01 X-53.4149 Y24.2808 
G01 X-53.2651 Y24.2808 
G01 X-53.1182 Y24.2516 
G01 X-52.9798 Y24.1943 
G01 X-52.8553 Y24.1110 
G01 X-52.7494 Y24.0051 
G01 X-52.6661 Y23.8806 
G01 X-52.6088 Y23.7422 
G01 X-52.5796 Y23.5953 
G01 X-52.5796 Y22.1247 
G01 X-52.6088 Y21.9778 
G01 X-52.6661 Y21.8394 
G01 X-52.7494 Y21.7149 
G01 X-52.8553 Y21.6090 
G01 X-52.9798 Y21.5257 
G01 X-53.1182 Y21.4684 
G01 X-53.2651 Y21.4392 
G01 X-53.4149 Y21.4392 
G01 X-53.5618 Y21.4684 
G01 X-53.7002 Y21.5257 
G01 X-53.8247 Y21.6090 
G01 X-53.9306 Y21.7149 
G01 X-54.0139 Y21.8394 
G01 X-54.0712 Y21.9778 
G01 X-54.1004 Y22.1247 
G01 X-54.1004 Y23.2468 
G01 X-68.6036 Y37.7500 
G01 X-70.8400 Y37.7500 
G01 X-70.8641 Y37.6917 
G01 X-70.9584 Y37.5505 
G01 X-71.0785 Y37.4304 
G01 X-71.2197 Y37.3361 
G01 X-71.3766 Y37.2711 
G01 X-71.5431 Y37.2380 
G01 X-73.2369 Y37.2380 
G01 X-73.4034 Y37.2711 
G01 X-73.5603 Y37.3361 
G01 X-73.7015 Y37.4304 
G01 X-73.8216 Y37.5505 
G01 X-73.9159 Y37.6917 
G01 X-73.9809 Y37.8486 
G01 X-74.0140 Y38.0151 
G01 X-74.0140 Y38.1849 
G01 X-73.9809 Y38.3514 
G01 X-73.9159 Y38.5083 
G01 X-73.8216 Y38.6495 
G01 X-73.7015 Y38.7696 
G01 X-73.5603 Y38.8639 
G01 X-73.4034 Y38.9289 
G01 X-73.2369 Y38.9620 
G00 Z2.0000 
G00 X-73.2369 Y36.4220 
G01 Z-0.0250 F254.00 
G01 X-71.5431 Y36.4220 F508.00 
G01 X-71.3766 Y36.3889 
G01 X-71.2197 Y36.3239 
G01 X-71.0785 Y36.2296 
G01 X-70.9584 Y36.1095 
G01 X-70.8641 Y35.9683 
G01 X-70.7991 Y35.8114 
G01 X-70.7869 Y35.7500 
G01 X-68.4503 Y35.7500 
G01 X-68.3584 Y35.7119 
G01 X-68.2881 Y35.6416 
G01 X-56.5431 Y23.8967 
G01 X-56.4706 Y24.0051 
G01 X-56.3647 Y24.1110 
G01 X-56.2402 Y24.1943 
G01 X-56.1018 Y24.2516 
G01 X-55.9549 Y24.2808 
G01 X-55.8051 Y24.2808 
G01 X-55.6582 Y24.2516 
G01 X-55.5198 Y24.1943 
G01 X-55.3953 Y24.1110 
G01 X-55.2894 Y24.0051 
G01 X-55.2061 Y23.8806 
G01 X-55.1488 Y23.7422 
G01 X-55.1196 Y23.5953 
G01 X-55.1196 Y22.1247 
G01 X-55.1488 Y21.9778 
G01 X-55.2061 Y21.8394 
G01 X-55.2894 Y21.7149 
G01 X-55.3953 Y21.6090 
G01 X-55.5198 Y21.5257 
G01 X-55.6582 Y21.4684 
G01 X-55.8051 Y21.4392 
G01 X-55.9549 Y21.4392 
G01 X-56.1018 Y21.4684 
G01 X-56.2402 Y21.5257 
G01 X-56.3647 Y21.6090 
G01 X-56.4706 Y21.7149 
G01 X-56.5539 Y21.8394 
G01 X-56.6112 Y21.9778 
G01 X-56.6404 Y22.1247 
G01 X-56.6404 Y23.2868 
G01 X-68.6036 Y35.2500 
G01 X-70.8234 Y35.2500 
G01 X-70.8641 Y35.1517 
G01 X-70.9584 Y35.0105 
G01 X-71.0785 Y34.8904 
G01 X-71.2197 Y34.7961 
G01 X-71.3766 Y34.7311 
G01 X-71.5431 Y34.6980 
G01 X-73.2369 Y34.6980 
G01 X-73.4034 Y34.7311 
G01 X-73.5603 Y34.7961 
G01 X-73.7015 Y34.8904 
G01 X-73.8216 Y35.0105 
G01 X-73.9159 Y35.1517 
G01 X-73.9809 Y35.3086 
G01 X-74.0140 Y35.4751 
G01 X-74.0140 Y35.6449 
G01 X-73.9809 Y35.8114 
G01 X-73.9159 Y35.9683 
G01 X-73.8216 Y36.1095 
G01 X-73.7015 Y36.2296 
G01 X-73.5603 Y36.3239 
G01 X-73.4034 Y36.3889 
G01 X-73.2369 Y36.4220 
G00 Z2.0000 
G00 X-19.4731 Y24.5380 
G01 Z-0.0250 F254.00 
G01 X-21.1669 Y24.5380 F508.00 
G01 X-21.3334 Y24.5711 
G01 X-21.4903 Y24.6361 
G01 X-21.6315 Y24.7304 
G01 X-21.7516 Y24.8505 
G01 X-21.8459 Y24.9917 
G01 X-21.9109 Y25.1486 
G01 X-21.9440 Y25.3151 
G01 X-21.9440 Y25.4849 
G01 X-21.9109 Y25.6514 
G01 X-21.8459 Y25.8083 
G01 X-21.7516 Y25.9495 
G01 X-21.6315 Y26.0696 
G01 X-21.4903 Y26.1639 
G01 X-21.3334 Y26.2289 
G01 X-21.1669 Y26.2620 
G01 X-19.4731 Y26.2620 
G01 X-19.3066 Y26.2289 
G01 X-19.1497 Y26.1639 
G01 X-19.0085 Y26.0696 
G01 X-18.8884 Y25.9495 
G01 X-18.7941 Y25.8083 
G01 X-18.7291 Y25.6514 
G01 X-18.6990 Y25.5000 
G01 X-17.4503 Y25.5000 
G01 X-17.3584 Y25.4619 
G01 X-17.2881 Y25.3916 
G01 X-17.2500 Y25.2997 
G01 X-17.2500 Y19.4503 
G01 X-17.2881 Y19.3584 
G01 X-17.3584 Y19.2881 
G01 X-18.6084 Y18.0381 
G01 X-18.7003 Y18.0000 
G01 X-32.3964 Y18.0000 
G01 X-34.7996 Y15.5968 
G01 X-34.7996 Y14.5047 
G01 X-34.8288 Y14.3578 
G01 X-34.8861 Y14.2194 
G01 X-34.9694 Y14.0949 
G01 X-35.0753 Y13.9890 
G01 X-35.1998 Y13.9057 
G01 X-35.3382 Y13.8484 
G01 X-35.4851 Y13.8192 
G01 X-35.6349 Y13.8192 
G01 X-35.7818 Y13.8484 
G01 X-35.9202 Y13.9057 
G01 X-36.0447 Y13.9890 
G01 X-36.1506 Y14.0949 
G01 X-36.2339 Y14.2194 
G01 X-36.2912 Y14.3578 
G01 X-36.3204 Y14.5047 
G01 X-36.3204 Y15.9753 
G01 X-36.2912 Y16.1222 
G01 X-36.2339 Y16.2606 
G01 X-36.1506 Y16.3851 
G01 X-36.0447 Y16.4910 
G01 X-35.9202 Y16.5743 
G01 X-35.7818 Y16.6316 
G01 X-35.6349 Y16.6608 
G01 X-35.4851 Y16.6608 
G01 X-35.3382 Y16.6316 
G01 X-35.1998 Y16.5743 
G01 X-35.0753 Y16.4910 
G01 X-34.9694 Y16.3851 
G01 X-34.8861 Y16.2606 
G01 X-34.8735 Y16.2301 
G01 X-32.7119 Y18.3916 
G01 X-32.6416 Y18.4619 
G01 X-32.5497 Y18.5000 
G01 X-18.8536 Y18.5000 
G01 X-17.7500 Y19.6036 
G01 X-17.7500 Y25.0000 
G01 X-18.7907 Y25.0000 
G01 X-18.7941 Y24.9917 
G01 X-18.8884 Y24.8505 
G01 X-19.0085 Y24.7304 
G01 X-19.1497 Y24.6361 
G01 X-19.3066 Y24.5711 
G01 X-19.4731 Y24.5380 
G00 Z2.0000 
G00 X-19.4731 Y27.0780 
G01 Z-0.0250 F254.00 
G01 X-21.1669 Y27.0780 F508.00 
G01 X-21.3334 Y27.1111 
G01 X-21.4903 Y27.1761 
G01 X-21.6315 Y27.2704 
G01 X-21.7516 Y27.3905 
G01 X-21.8459 Y27.5317 
G01 X-21.9109 Y27.6886 
G01 X-21.9440 Y27.8551 
G01 X-21.9440 Y28.0249 
G01 X-21.9109 Y28.1914 
G01 X-21.8459 Y28.3483 
G01 X-21.7516 Y28.4895 
G01 X-21.6315 Y28.6096 
G01 X-21.4903 Y28.7039 
G01 X-21.3334 Y28.7689 
G01 X-21.1669 Y28.8020 
G01 X-19.4731 Y28.8020 
G01 X-19.3066 Y28.7689 
G01 X-19.1497 Y28.7039 
G01 X-19.0085 Y28.6096 
G01 X-18.8884 Y28.4895 
G01 X-18.7941 Y28.3483 
G01 X-18.7291 Y28.1914 
G01 X-18.6960 Y28.0249 
G01 X-18.6960 Y27.8551 
G01 X-18.7291 Y27.6886 
G01 X-18.7941 Y27.5317 
G01 X-18.8884 Y27.3905 
G01 X-19.0085 Y27.2704 
G01 X-19.1497 Y27.1761 
G01 X-19.3066 Y27.1111 
G01 X-19.4731 Y27.0780 
G00 Z2.0000 
G00 X-19.4731 Y29.6180 
G01 Z-0.0250 F254.00 
G01 X-21.1669 Y29.6180 F508.00 
G01 X-21.3334 Y29.6511 
G01 X-21.4903 Y29.7161 
G01 X-21.6315 Y29.8104 
G01 X-21.7516 Y29.9305 
G01 X-21.8459 Y30.0717 
G01 X-21.9109 Y30.2286 
G01 X-21.9440 Y30.3951 
G01 X-21.9440 Y30.5649 
G01 X-21.9109 Y30.7314 
G01 X-21.8459 Y30.8883 
G01 X-21.7516 Y31.0295 
G01 X-21.6315 Y31.1496 
G01 X-21.4903 Y31.2439 
G01 X-21.3334 Y31.3089 
G01 X-21.1669 Y31.3420 
G01 X-19.4731 Y31.3420 
G01 X-19.3066 Y31.3089 
G01 X-19.1497 Y31.2439 
G01 X-19.0085 Y31.1496 
G01 X-18.8884 Y31.0295 
G01 X-18.7941 Y30.8883 
G01 X-18.7291 Y30.7314 
G01 X-18.6960 Y30.5649 
G01 X-18.6960 Y30.3951 
G01 X-18.7291 Y30.2286 
G01 X-18.7941 Y30.0717 
G01 X-18.8884 Y29.9305 
G01 X-19.0085 Y29.8104 
G01 X-19.1497 Y29.7161 
G01 X-19.3066 Y29.6511 
G01 X-19.4731 Y29.6180 
G00 Z2.0000 
G00 X-19.4731 Y32.1580 
G01 Z-0.0250 F254.00 
G01 X-21.1669 Y32.1580 F508.00 
G01 X-21.3334 Y32.1911 
G01 X-21.4903 Y32.2561 
G01 X-21.6315 Y32.3504 
G01 X-21.7516 Y32.4705 
G01 X-21.8459 Y32.6117 
G01 X-21.9109 Y32.7686 
G01 X-21.9440 Y32.9351 
G01 X-21.9440 Y33.1049 
G01 X-21.9109 Y33.2714 
G01 X-21.8459 Y33.4283 
G01 X-21.7516 Y33.5695 
G01 X-21.6315 Y33.6896 
G01 X-21.4903 Y33.7839 
G01 X-21.3334 Y33.8489 
G01 X-21.1669 Y33.8820 
G01 X-19.4731 Y33.8820 
G01 X-19.3066 Y33.8489 
G01 X-19.1497 Y33.7839 
G01 X-19.0085 Y33.6896 
G01 X-18.8884 Y33.5695 
G01 X-18.7941 Y33.4283 
G01 X-18.7291 Y33.2714 
G01 X-18.6960 Y33.1049 
G01 X-18.6960 Y32.9351 
G01 X-18.7291 Y32.7686 
G01 X-18.7941 Y32.6117 
G01 X-18.8884 Y32.4705 
G01 X-19.0085 Y32.3504 
G01 X-19.1497 Y32.2561 
G01 X-19.3066 Y32.1911 
G01 X-19.4731 Y32.1580 
G00 Z2.0000 
G00 X-19.4731 Y34.6980 
G01 Z-0.0250 F254.00 
G01 X-21.1669 Y34.6980 F508.00 
G01 X-21.3334 Y34.7311 
G01 X-21.4903 Y34.7961 
G01 X-21.6315 Y34.8904 
G01 X-21.7516 Y35.0105 
G01 X-21.8459 Y35.1517 
G01 X-21.9109 Y35.3086 
G01 X-21.9440 Y35.4751 
G01 X-21.9440 Y35.6449 
G01 X-21.9109 Y35.8114 
G01 X-21.8459 Y35.9683 
G01 X-21.7516 Y36.1095 
G01 X-21.6315 Y36.2296 
G01 X-21.4903 Y36.3239 
G01 X-21.3334 Y36.3889 
G01 X-21.1669 Y36.4220 
G01 X-19.4731 Y36.4220 
G01 X-19.3066 Y36.3889 
G01 X-19.1497 Y36.3239 
G01 X-19.0085 Y36.2296 
G01 X-18.8884 Y36.1095 
G01 X-18.7941 Y35.9683 
G01 X-18.7291 Y35.8114 
G01 X-18.6960 Y35.6449 
G01 X-18.6960 Y35.4751 
G01 X-18.7291 Y35.3086 
G01 X-18.7941 Y35.1517 
G01 X-18.8884 Y35.0105 
G01 X-19.0085 Y34.8904 
G01 X-19.1497 Y34.7961 
G01 X-19.3066 Y34.7311 
G01 X-19.4731 Y34.6980 
G00 Z2.0000 
G00 X-19.4731 Y37.2380 
G01 Z-0.0250 F254.00 
G01 X-21.1669 Y37.2380 F508.00 
G01 X-21.3334 Y37.2711 
G01 X-21.4903 Y37.3361 
G01 X-21.6315 Y37.4304 
G01 X-21.7516 Y37.5505 
G01 X-21.8459 Y37.6917 
G01 X-21.9109 Y37.8486 
G01 X-21.9440 Y38.0151 
G01 X-21.9440 Y38.1849 
G01 X-21.9109 Y38.3514 
G01 X-21.8459 Y38.5083 
G01 X-21.7516 Y38.6495 
G01 X-21.6315 Y38.7696 
G01 X-21.4903 Y38.8639 
G01 X-21.3334 Y38.9289 
G01 X-21.1669 Y38.9620 
G01 X-19.4731 Y38.9620 
G01 X-19.3066 Y38.9289 
G01 X-19.1497 Y38.8639 
G01 X-19.0085 Y38.7696 
G01 X-18.8884 Y38.6495 
G01 X-18.7941 Y38.5083 
G01 X-18.7291 Y38.3514 
G01 X-18.6960 Y38.1849 
G01 X-18.6960 Y38.0151 
G01 X-18.7291 Y37.8486 
G01 X-18.7941 Y37.6917 
G01 X-18.8884 Y37.5505 
G01 X-19.0085 Y37.4304 
G01 X-19.1497 Y37.3361 
G01 X-19.3066 Y37.2711 
G01 X-19.4731 Y37.2380 
G00 Z2.0000 
G00 X-47.8520 Y4.2331 
G01 Z-0.0250 F254.00 
G01 X-47.8520 Y5.9269 F508.00 
G01 X-47.8189 Y6.0934 
G01 X-47.7539 Y6.2503 
G01 X-47.6596 Y6.3915 
G01 X-47.5395 Y6.5116 
G01 X-47.3983 Y6.6059 
G01 X-47.2414 Y6.6709 
G01 X-47.0749 Y6.7040 
G01 X-46.9051 Y6.7040 
G01 X-46.7386 Y6.6709 
G01 X-46.5817 Y6.6059 
G01 X-46.4405 Y6.5116 
G01 X-46.3204 Y6.3915 
G01 X-46.2261 Y6.2503 
G01 X-46.1611 Y6.0934 
G01 X-46.1280 Y5.9269 
G01 X-46.1280 Y4.2331 
G01 X-46.1611 Y4.0666 
G01 X-46.2261 Y3.9097 
G01 X-46.3204 Y3.7685 
G01 X-46.4405 Y3.6484 
G01 X-46.5817 Y3.5541 
G01 X-46.7386 Y3.4891 
G01 X-46.9051 Y3.4560 
G01 X-47.0749 Y3.4560 
G01 X-47.2414 Y3.4891 
G01 X-47.3983 Y3.5541 
G01 X-47.5395 Y3.6484 
G01 X-47.6596 Y3.7685 
G01 X-47.7539 Y3.9097 
G01 X-47.8189 Y4.0666 
G01 X-47.8520 Y4.2331 
G00 Z2.0000 
G00 X-45.3120 Y4.2331 
G01 Z-0.0250 F254.00 
G01 X-45.3120 Y5.9269 F508.00 
G01 X-45.2789 Y6.0934 
G01 X-45.2139 Y6.2503 
G01 X-45.1196 Y6.3915 
G01 X-44.9995 Y6.5116 
G01 X-44.8583 Y6.6059 
G01 X-44.7014 Y6.6709 
G01 X-44.5349 Y6.7040 
G01 X-44.3651 Y6.7040 
G01 X-44.1986 Y6.6709 
G01 X-44.0417 Y6.6059 
G01 X-43.9005 Y6.5116 
G01 X-43.7804 Y6.3915 
G01 X-43.6861 Y6.2503 
G01 X-43.6211 Y6.0934 
G01 X-43.5880 Y5.9269 
G01 X-43.5880 Y4.2331 
G01 X-43.6211 Y4.0666 
G01 X-43.6861 Y3.9097 
G01 X-43.7804 Y3.7685 
G01 X-43.9005 Y3.6484 
G01 X-44.0417 Y3.5541 
G01 X-44.1986 Y3.4891 
G01 X-44.3651 Y3.4560 
G01 X-44.5349 Y3.4560 
G01 X-44.7014 Y3.4891 
G01 X-44.8583 Y3.5541 
G01 X-44.9995 Y3.6484 
G01 X-45.1196 Y3.7685 
G01 X-45.2139 Y3.9097 
G01 X-45.2789 Y4.0666 
G01 X-45.3120 Y4.2331 
G00 Z2.0000 
G00 X-42.7720 Y4.2331 
G01 Z-0.0250 F254.00 
G01 X-42.7720 Y5.9269 F508.00 
G01 X-42.7389 Y6.0934 
G01 X-42.6739 Y6.2503 
G01 X-42.5796 Y6.3915 
G01 X-42.4595 Y6.5116 
G01 X-42.3183 Y6.6059 
G01 X-42.1614 Y6.6709 
G01 X-41.9949 Y6.7040 
G01 X-41.8251 Y6.7040 
G01 X-41.6586 Y6.6709 
G01 X-41.5017 Y6.6059 
G01 X-41.3605 Y6.5116 
G01 X-41.2404 Y6.3915 
G01 X-41.1461 Y6.2503 
G01 X-41.1336 Y6.2200 
G01 X-39.8916 Y7.4619 
G01 X-39.7997 Y7.5000 
G01 X-10.6036 Y7.5000 
G01 X-10.0017 Y8.1018 
G01 X-10.0603 Y8.1261 
G01 X-10.2015 Y8.2204 
G01 X-10.3216 Y8.3405 
G01 X-10.4159 Y8.4817 
G01 X-10.4809 Y8.6386 
G01 X-10.5140 Y8.8051 
G01 X-10.5140 Y8.9749 
G01 X-10.4809 Y9.1414 
G01 X-10.4159 Y9.2983 
G01 X-10.3216 Y9.4395 
G01 X-10.2015 Y9.5596 
G01 X-10.0603 Y9.6539 
G01 X-9.9034 Y9.7189 
G01 X-9.7369 Y9.7520 
G01 X-8.0431 Y9.7520 
G01 X-7.8766 Y9.7189 
G01 X-7.7197 Y9.6539 
G01 X-7.5785 Y9.5596 
G01 X-7.4584 Y9.4395 
G01 X-7.3641 Y9.2983 
G01 X-7.2991 Y9.1414 
G01 X-7.2660 Y8.9749 
G01 X-7.2660 Y8.8051 
G01 X-7.2991 Y8.6386 
G01 X-7.3641 Y8.4817 
G01 X-7.4584 Y8.3405 
G01 X-7.5785 Y8.2204 
G01 X-7.7197 Y8.1261 
G01 X-7.8766 Y8.0611 
G01 X-8.0431 Y8.0280 
G01 X-9.3684 Y8.0280 
G01 X-10.2881 Y7.1084 
G01 X-10.3584 Y7.0381 
G01 X-10.4503 Y7.0000 
G01 X-39.6464 Y7.0000 
G01 X-41.0480 Y5.5984 
G01 X-41.0480 Y4.2331 
G01 X-41.0811 Y4.0666 
G01 X-41.1461 Y3.9097 
G01 X-41.2404 Y3.7685 
G01 X-41.3605 Y3.6484 
G01 X-41.5017 Y3.5541 
G01 X-41.6586 Y3.4891 
G01 X-41.8251 Y3.4560 
G01 X-41.9949 Y3.4560 
G01 X-42.1614 Y3.4891 
G01 X-42.3183 Y3.5541 
G01 X-42.4595 Y3.6484 
G01 X-42.5796 Y3.7685 
G01 X-42.6739 Y3.9097 
G01 X-42.7389 Y4.0666 
G01 X-42.7720 Y4.2331 
G00 Z2.0000 
G00 X-40.2320 Y4.2331 
G01 Z-0.0250 F254.00 
G01 X-40.2320 Y5.9269 F508.00 
G01 X-40.1989 Y6.0934 
G01 X-40.1339 Y6.2503 
G01 X-40.0396 Y6.3915 
G01 X-39.9195 Y6.5116 
G01 X-39.7783 Y6.6059 
G01 X-39.6214 Y6.6709 
G01 X-39.4549 Y6.7040 
G01 X-39.2851 Y6.7040 
G01 X-39.1186 Y6.6709 
G01 X-38.9617 Y6.6059 
G01 X-38.8205 Y6.5116 
G01 X-38.7004 Y6.3915 
G01 X-38.6061 Y6.2503 
G01 X-38.5411 Y6.0934 
G01 X-38.5080 Y5.9269 
G01 X-38.5080 Y4.2331 
G01 X-38.5411 Y4.0666 
G01 X-38.6061 Y3.9097 
G01 X-38.7004 Y3.7685 
G01 X-38.8205 Y3.6484 
G01 X-38.9617 Y3.5541 
G01 X-39.1186 Y3.4891 
G01 X-39.2851 Y3.4560 
G01 X-39.4549 Y3.4560 
G01 X-39.6214 Y3.4891 
G01 X-39.7783 Y3.5541 
G01 X-39.9195 Y3.6484 
G01 X-40.0396 Y3.7685 
G01 X-40.1339 Y3.9097 
G01 X-40.1989 Y4.0666 
G01 X-40.2320 Y4.2331 
G00 Z2.0000 
G00 X-27.5461 Y46.1000 
G01 Z-0.0250 F254.00 
G01 X-27.5013 Y46.1000 F508.00 
G01 X-27.5708 Y46.1138 
G01 X-27.7366 Y46.1825 
G01 X-27.8859 Y46.2822 
G01 X-28.0128 Y46.4091 
G01 X-28.1125 Y46.5584 
G01 X-28.1812 Y46.7242 
G01 X-28.2162 Y46.9003 
G01 X-28.2162 Y47.0797 
G01 X-28.1927 Y47.1977 
G01 X-28.8950 Y47.9000 
G01 X-29.7492 Y47.9000 
G01 X-29.5792 Y47.8662 
G01 X-29.4134 Y47.7975 
G01 X-29.2641 Y47.6978 
G01 X-29.1372 Y47.5709 
G01 X-29.0375 Y47.4216 
G01 X-28.9688 Y47.2558 
G01 X-28.9338 Y47.0797 
G01 X-28.9338 Y46.9003 
G01 X-28.9688 Y46.7242 
G01 X-29.0375 Y46.5584 
G01 X-29.1372 Y46.4091 
G01 X-29.2641 Y46.2822 
G01 X-29.4134 Y46.1825 
G01 X-29.5792 Y46.1138 
G01 X-29.6487 Y46.1000 
G01 X-27.5461 Y46.1000 
G00 Z2.0000 
G00 X-38.7683 Y24.0689 
G01 Z-0.0250 F254.00 
G01 X-38.6485 Y24.1887 F508.00 
G01 X-38.5076 Y24.2829 
G01 X-38.3510 Y24.3477 
G01 X-38.1847 Y24.3808 
G01 X-38.0153 Y24.3808 
G01 X-37.8490 Y24.3477 
G01 X-37.8382 Y24.3433 
G01 X-37.8950 Y24.4000 
G01 X-38.7961 Y24.4000 
G01 X-38.8851 Y24.4239 
G01 X-38.9649 Y24.4699 
G01 X-39.0301 Y24.5351 
G01 X-51.6253 Y37.1303 
G01 X-51.6557 Y37.0999 
G01 X-51.9536 Y37.0999 
G01 X-51.8649 Y37.0761 
G01 X-51.7851 Y37.0301 
G01 X-51.7199 Y36.9649 
G01 X-38.7906 Y24.0356 
G01 X-38.7683 Y24.0689 
G00 Z2.0000 
G00 X-63.6390 Y21.3500 
G01 Z-0.0250 F254.00 
G01 X-63.7510 Y21.3723 F508.00 
G01 X-63.9076 Y21.4371 
G01 X-64.0118 Y21.5068 
G01 X-63.8550 Y21.3500 
G01 X-63.6390 Y21.3500 
G00 Z2.0000 
G00 X-42.8959 Y43.6091 
G01 Z-0.0250 F254.00 
G01 X-42.9050 Y43.6000 F508.00 
G01 X-42.8740 Y43.6000 
G01 X-42.8959 Y43.6091 
G00 Z2.0000 
G00 X-83.5880 Y4.9287 
G01 Z-0.0250 F254.00 
G01 X-83.5880 Y5.2313 F508.00 
G01 X-83.5485 Y5.5312 
G01 X-83.4702 Y5.8235 
G01 X-83.3544 Y6.1030 
G01 X-83.2031 Y6.3650 
G01 X-83.0190 Y6.6050 
G01 X-82.8050 Y6.8190 
G01 X-82.5650 Y7.0031 
G01 X-82.3030 Y7.1544 
G01 X-82.0235 Y7.2702 
G01 X-81.7312 Y7.3485 
G01 X-81.4313 Y7.3880 
G01 X-81.1287 Y7.3880 
G01 X-80.8288 Y7.3485 
G01 X-80.5365 Y7.2702 
G01 X-80.2570 Y7.1544 
G01 X-79.9950 Y7.0031 
G01 X-79.7550 Y6.8190 
G01 X-79.5410 Y6.6050 
G01 X-79.3569 Y6.3650 
G01 X-79.2056 Y6.1030 
G01 X-79.0898 Y5.8235 
G01 X-79.0115 Y5.5312 
G01 X-78.9720 Y5.2313 
G01 X-78.9720 Y4.9287 
G01 X-79.0115 Y4.6288 
G01 X-79.0898 Y4.3365 
G01 X-79.2056 Y4.0570 
G01 X-79.3569 Y3.7950 
G01 X-79.5410 Y3.5550 
G01 X-79.7550 Y3.3410 
G01 X-79.9950 Y3.1568 
G01 X-80.2570 Y3.0056 
G01 X-80.5365 Y2.8898 
G01 X-80.8288 Y2.8115 
G01 X-81.1287 Y2.7720 
G01 X-81.4313 Y2.7720 
G01 X-81.7312 Y2.8115 
G01 X-82.0235 Y2.8898 
G01 X-82.3030 Y3.0056 
G01 X-82.5650 Y3.1568 
G01 X-82.8050 Y3.3410 
G01 X-83.0190 Y3.5550 
G01 X-83.2031 Y3.7950 
G01 X-83.3544 Y4.0570 
G01 X-83.4702 Y4.3365 
G01 X-83.5485 Y4.6288 
G01 X-83.5880 Y4.9287 
G00 Z2.0000 
G00 X-82.3180 Y51.9187 
G01 Z-0.0250 F254.00 
G01 X-82.3180 Y52.2213 F508.00 
G01 X-82.2785 Y52.5212 
G01 X-82.2002 Y52.8135 
G01 X-82.0844 Y53.0930 
G01 X-81.9331 Y53.3550 
G01 X-81.7490 Y53.5950 
G01 X-81.5350 Y53.8090 
G01 X-81.2950 Y53.9931 
G01 X-81.0330 Y54.1444 
G01 X-80.7535 Y54.2602 
G01 X-80.4612 Y54.3385 
G01 X-80.1613 Y54.3780 
G01 X-79.8587 Y54.3780 
G01 X-79.5588 Y54.3385 
G01 X-79.2665 Y54.2602 
G01 X-78.9870 Y54.1444 
G01 X-78.7250 Y53.9931 
G01 X-78.4850 Y53.8090 
G01 X-78.2710 Y53.5950 
G01 X-78.0868 Y53.3550 
G01 X-77.9356 Y53.0930 
G01 X-77.8198 Y52.8135 
G01 X-77.7415 Y52.5212 
G01 X-77.7020 Y52.2213 
G01 X-77.7020 Y51.9187 
G01 X-77.7415 Y51.6188 
G01 X-77.8198 Y51.3265 
G01 X-77.9356 Y51.0470 
G01 X-78.0868 Y50.7850 
G01 X-78.2710 Y50.5450 
G01 X-78.4850 Y50.3310 
G01 X-78.7250 Y50.1469 
G01 X-78.9870 Y49.9956 
G01 X-79.2665 Y49.8798 
G01 X-79.5588 Y49.8015 
G01 X-79.8587 Y49.7620 
G01 X-80.1613 Y49.7620 
G01 X-80.4612 Y49.8015 
G01 X-80.7535 Y49.8798 
G01 X-81.0330 Y49.9956 
G01 X-81.2950 Y50.1469 
G01 X-81.5350 Y50.3310 
G01 X-81.7490 Y50.5450 
G01 X-81.9331 Y50.7850 
G01 X-82.0844 Y51.0470 
G01 X-82.2002 Y51.3265 
G01 X-82.2785 Y51.6188 
G01 X-82.3180 Y51.9187 
G00 Z2.0000 
G00 X-7.3880 Y4.9287 
G01 Z-0.0250 F254.00 
G01 X-7.3880 Y5.2313 F508.00 
G01 X-7.3485 Y5.5312 
G01 X-7.2702 Y5.8235 
G01 X-7.1544 Y6.1030 
G01 X-7.0031 Y6.3650 
G01 X-6.8190 Y6.6050 
G01 X-6.6050 Y6.8190 
G01 X-6.3650 Y7.0031 
G01 X-6.1030 Y7.1544 
G01 X-5.8235 Y7.2702 
G01 X-5.5312 Y7.3485 
G01 X-5.2313 Y7.3880 
G01 X-4.9287 Y7.3880 
G01 X-4.6288 Y7.3485 
G01 X-4.3365 Y7.2702 
G01 X-4.0570 Y7.1544 
G01 X-3.7950 Y7.0031 
G01 X-3.5550 Y6.8190 
G01 X-3.3410 Y6.6050 
G01 X-3.1568 Y6.3650 
G01 X-3.0056 Y6.1030 
G01 X-2.8898 Y5.8235 
G01 X-2.8115 Y5.5312 
G01 X-2.7720 Y5.2313 
G01 X-2.7720 Y4.9287 
G01 X-2.8115 Y4.6288 
G01 X-2.8898 Y4.3365 
G01 X-3.0056 Y4.0570 
G01 X-3.1568 Y3.7950 
G01 X-3.3410 Y3.5550 
G01 X-3.5550 Y3.3410 
G01 X-3.7950 Y3.1568 
G01 X-4.0570 Y3.0056 
G01 X-4.3365 Y2.8898 
G01 X-4.6288 Y2.8115 
G01 X-4.9287 Y2.7720 
G01 X-5.2313 Y2.7720 
G01 X-5.5312 Y2.8115 
G01 X-5.8235 Y2.8898 
G01 X-6.1030 Y3.0056 
G01 X-6.3650 Y3.1568 
G01 X-6.6050 Y3.3410 
G01 X-6.8190 Y3.5550 
G01 X-7.0031 Y3.7950 
G01 X-7.1544 Y4.0570 
G01 X-7.2702 Y4.3365 
G01 X-7.3485 Y4.6288 
G01 X-7.3880 Y4.9287 
G00 Z2.0000 
G00 X-7.3880 Y51.9187 
G01 Z-0.0250 F254.00 
G01 X-7.3880 Y52.2213 F508.00 
G01 X-7.3485 Y52.5212 
G01 X-7.2702 Y52.8135 
G01 X-7.1544 Y53.0930 
G01 X-7.0031 Y53.3550 
G01 X-6.8190 Y53.5950 
G01 X-6.6050 Y53.8090 
G01 X-6.3650 Y53.9931 
G01 X-6.1030 Y54.1444 
G01 X-5.8235 Y54.2602 
G01 X-5.5312 Y54.3385 
G01 X-5.2313 Y54.3780 
G01 X-4.9287 Y54.3780 
G01 X-4.6288 Y54.3385 
G01 X-4.3365 Y54.2602 
G01 X-4.0570 Y54.1444 
G01 X-3.7950 Y53.9931 
G01 X-3.5550 Y53.8090 
G01 X-3.3410 Y53.5950 
G01 X-3.1568 Y53.3550 
G01 X-3.0056 Y53.0930 
G01 X-2.8898 Y52.8135 
G01 X-2.8115 Y52.5212 
G01 X-2.7720 Y52.2213 
G01 X-2.7720 Y51.9187 
G01 X-2.8115 Y51.6188 
G01 X-2.8898 Y51.3265 
G01 X-3.0056 Y51.0470 
G01 X-3.1568 Y50.7850 
G01 X-3.3410 Y50.5450 
G01 X-3.5550 Y50.3310 
G01 X-3.7950 Y50.1469 
G01 X-4.0570 Y49.9956 
G01 X-4.3365 Y49.8798 
G01 X-4.6288 Y49.8015 
G01 X-4.9287 Y49.7620 
G01 X-5.2313 Y49.7620 
G01 X-5.5312 Y49.8015 
G01 X-5.8235 Y49.8798 
G01 X-6.1030 Y49.9956 
G01 X-6.3650 Y50.1469 
G01 X-6.6050 Y50.3310 
G01 X-6.8190 Y50.5450 
G01 X-7.0031 Y50.7850 
G01 X-7.1544 Y51.0470 
G01 X-7.2702 Y51.3265 
G01 X-7.3485 Y51.6188 
G01 X-7.3880 Y51.9187 
G00 Z2.0000 
G00 X-1.6201 Y29.4418 
G01 Z-0.0250 F254.00 
G01 X-3.4599 Y29.4418 F508.00 
G01 X-3.6213 Y29.4674 
G01 X-3.7767 Y29.5179 
G01 X-3.9223 Y29.5921 
G01 X-4.0545 Y29.6881 
G01 X-4.1701 Y29.8037 
G01 X-4.2661 Y29.9359 
G01 X-4.3403 Y30.0815 
G01 X-4.3908 Y30.2369 
G01 X-4.4164 Y30.3983 
G01 X-4.4164 Y30.5617 
G01 X-4.3908 Y30.7231 
G01 X-4.3403 Y30.8785 
G01 X-4.2661 Y31.0241 
G01 X-4.1701 Y31.1563 
G01 X-4.0545 Y31.2719 
G01 X-3.9223 Y31.3679 
G01 X-3.7767 Y31.4421 
G01 X-3.6213 Y31.4926 
G01 X-3.4599 Y31.5182 
G01 X-1.6201 Y31.5182 
G01 X-1.4587 Y31.4926 
G01 X-1.3033 Y31.4421 
G01 X-1.1577 Y31.3679 
G01 X-1.0255 Y31.2719 
G01 X-0.9099 Y31.1563 
G01 X-0.8139 Y31.0241 
G01 X-0.7397 Y30.8785 
G01 X-0.6892 Y30.7231 
G01 X-0.6636 Y30.5617 
G01 X-0.6636 Y30.3983 
G01 X-0.6892 Y30.2369 
G01 X-0.7397 Y30.0815 
G01 X-0.8139 Y29.9359 
G01 X-0.9099 Y29.8037 
G01 X-1.0255 Y29.6881 
G01 X-1.1577 Y29.5921 
G01 X-1.3033 Y29.5179 
G01 X-1.4587 Y29.4674 
G01 X-1.6201 Y29.4418 
G00 Z2.0000 
G00 X-1.6201 Y37.0618 
G01 Z-0.0250 F254.00 
G01 X-3.4599 Y37.0618 F508.00 
G01 X-3.6213 Y37.0874 
G01 X-3.7767 Y37.1379 
G01 X-3.9223 Y37.2121 
G01 X-4.0545 Y37.3081 
G01 X-4.1701 Y37.4237 
G01 X-4.2661 Y37.5559 
G01 X-4.3403 Y37.7015 
G01 X-4.3908 Y37.8569 
G01 X-4.4164 Y38.0183 
G01 X-4.4164 Y38.1817 
G01 X-4.3908 Y38.3431 
G01 X-4.3403 Y38.4985 
G01 X-4.2661 Y38.6441 
G01 X-4.1701 Y38.7763 
G01 X-4.0545 Y38.8919 
G01 X-3.9223 Y38.9879 
G01 X-3.7767 Y39.0621 
G01 X-3.6213 Y39.1126 
G01 X-3.4599 Y39.1382 
G01 X-1.6201 Y39.1382 
G01 X-1.4587 Y39.1126 
G01 X-1.3033 Y39.0621 
G01 X-1.1577 Y38.9879 
G01 X-1.0255 Y38.8919 
G01 X-0.9099 Y38.7763 
G01 X-0.8139 Y38.6441 
G01 X-0.7397 Y38.4985 
G01 X-0.6892 Y38.3431 
G01 X-0.6636 Y38.1817 
G01 X-0.6636 Y38.0183 
G01 X-0.6892 Y37.8569 
G01 X-0.7397 Y37.7015 
G01 X-0.8139 Y37.5559 
G01 X-0.9099 Y37.4237 
G01 X-1.0255 Y37.3081 
G01 X-1.1577 Y37.2121 
G01 X-1.3033 Y37.1379 
G01 X-1.4587 Y37.0874 
G01 X-1.6201 Y37.0618 
G00 Z2.0000 
G00 X-44.7262 Y46.9003 
G01 Z-0.0250 F254.00 
G01 X-44.7262 Y47.0797 F508.00 
G01 X-44.6912 Y47.2558 
G01 X-44.6225 Y47.4216 
G01 X-44.5228 Y47.5709 
G01 X-44.3959 Y47.6978 
G01 X-44.2466 Y47.7975 
G01 X-44.0808 Y47.8662 
G01 X-43.9047 Y47.9012 
G01 X-43.7253 Y47.9012 
G01 X-43.5492 Y47.8662 
G01 X-43.3834 Y47.7975 
G01 X-43.2341 Y47.6978 
G01 X-43.1072 Y47.5709 
G01 X-43.0075 Y47.4216 
G01 X-42.9388 Y47.2558 
G01 X-42.9038 Y47.0797 
G01 X-42.9038 Y46.9003 
G01 X-42.9388 Y46.7242 
G01 X-43.0075 Y46.5584 
G01 X-43.1072 Y46.4091 
G01 X-43.2341 Y46.2822 
G01 X-43.3834 Y46.1825 
G01 X-43.5492 Y46.1138 
G01 X-43.7253 Y46.0788 
G01 X-43.9047 Y46.0788 
G01 X-44.0808 Y46.1138 
G01 X-44.1235 Y46.1315 
G01 X-47.2199 Y43.0351 
G01 X-47.2851 Y42.9699 
G01 X-47.3649 Y42.9239 
G01 X-47.4539 Y42.9000 
G01 X-51.0699 Y42.9000 
G01 X-51.0699 Y42.7657 
G01 X-51.6557 Y42.1799 
G01 X-52.4843 Y42.1799 
G01 X-53.0701 Y42.7657 
G01 X-53.0701 Y43.5943 
G01 X-52.4843 Y44.1801 
G01 X-51.6557 Y44.1801 
G01 X-51.0756 Y43.6000 
G01 X-47.6450 Y43.6000 
G01 X-44.6413 Y46.6037 
G01 X-44.6912 Y46.7242 
G01 X-44.7262 Y46.9003 
G00 Z2.0000 
G00 X-60.6901 Y40.2257 
G01 Z-0.0250 F254.00 
G01 X-60.6901 Y41.0543 F508.00 
G01 X-60.1043 Y41.6401 
G01 X-59.2757 Y41.6401 
G01 X-58.6899 Y41.0543 
G01 X-58.6899 Y40.2257 
G01 X-59.2757 Y39.6399 
G01 X-60.1043 Y39.6399 
G01 X-60.6901 Y40.2257 
G00 Z2.0000 
G00 X-60.6901 Y42.7657 
G01 Z-0.0250 F254.00 
G01 X-60.6901 Y43.5943 F508.00 
G01 X-60.1043 Y44.1801 
G01 X-59.2757 Y44.1801 
G01 X-58.6899 Y43.5943 
G01 X-58.6899 Y42.7657 
G01 X-59.2757 Y42.1799 
G01 X-60.1043 Y42.1799 
G01 X-60.6901 Y42.7657 
G00 Z2.0000 
G00 X-60.6901 Y45.3057 
G01 Z-0.0250 F254.00 
G01 X-60.6901 Y46.1343 F508.00 
G01 X-60.1043 Y46.7201 
G01 X-59.2757 Y46.7201 
G01 X-58.6899 Y46.1343 
G01 X-58.6899 Y45.3057 
G01 X-59.2757 Y44.7199 
G01 X-60.1043 Y44.7199 
G01 X-60.6901 Y45.3057 
G00 Z2.0000 
G00 X-53.0701 Y45.3057 
G01 Z-0.0250 F254.00 
G01 X-53.0701 Y46.1343 F508.00 
G01 X-52.4843 Y46.7201 
G01 X-51.6557 Y46.7201 
G01 X-51.0699 Y46.1343 
G01 X-51.0699 Y45.3057 
G01 X-51.6557 Y44.7199 
G01 X-52.4843 Y44.7199 
G01 X-53.0701 Y45.3057 
G00 Z2.0000 
G00 X-53.0701 Y40.2257 
G01 Z-0.0250 F254.00 
G01 X-53.0701 Y41.0543 F508.00 
G01 X-52.4843 Y41.6401 
G01 X-51.6557 Y41.6401 
G01 X-51.1156 Y41.1000 
G01 X-46.3950 Y41.1000 
G01 X-44.0301 Y43.4649 
G01 X-43.9649 Y43.5301 
G01 X-43.3888 Y44.1061 
G01 X-43.4212 Y44.1842 
G01 X-43.4562 Y44.3603 
G01 X-43.4562 Y44.5397 
G01 X-43.4212 Y44.7158 
G01 X-43.3525 Y44.8816 
G01 X-43.2528 Y45.0309 
G01 X-43.1259 Y45.1578 
G01 X-42.9766 Y45.2575 
G01 X-42.8108 Y45.3262 
G01 X-42.6347 Y45.3612 
G01 X-42.4553 Y45.3612 
G01 X-42.2792 Y45.3262 
G01 X-42.1134 Y45.2575 
G01 X-41.9641 Y45.1578 
G01 X-41.8372 Y45.0309 
G01 X-41.7375 Y44.8816 
G01 X-41.6688 Y44.7158 
G01 X-41.6338 Y44.5397 
G01 X-41.6338 Y44.3603 
G01 X-41.6688 Y44.1842 
G01 X-41.7375 Y44.0184 
G01 X-41.8372 Y43.8691 
G01 X-41.9641 Y43.7422 
G01 X-42.1134 Y43.6425 
G01 X-42.2160 Y43.6000 
G01 X-40.3340 Y43.6000 
G01 X-40.4366 Y43.6425 
G01 X-40.5859 Y43.7422 
G01 X-40.7128 Y43.8691 
G01 X-40.8125 Y44.0184 
G01 X-40.8812 Y44.1842 
G01 X-40.9162 Y44.3603 
G01 X-40.9162 Y44.5397 
G01 X-40.8812 Y44.7158 
G01 X-40.8125 Y44.8816 
G01 X-40.7128 Y45.0309 
G01 X-40.5859 Y45.1578 
G01 X-40.4366 Y45.2575 
G01 X-40.2708 Y45.3262 
G01 X-40.0947 Y45.3612 
G01 X-39.9153 Y45.3612 
G01 X-39.7392 Y45.3262 
G01 X-39.6894 Y45.3056 
G01 X-38.9649 Y46.0301 
G01 X-38.8851 Y46.0761 
G01 X-38.7961 Y46.1000 
G01 X-30.0413 Y46.1000 
G01 X-30.1108 Y46.1138 
G01 X-30.2766 Y46.1825 
G01 X-30.4259 Y46.2822 
G01 X-30.5528 Y46.4091 
G01 X-30.6525 Y46.5584 
G01 X-30.7212 Y46.7242 
G01 X-30.7562 Y46.9003 
G01 X-30.7562 Y47.0797 
G01 X-30.7212 Y47.2558 
G01 X-30.6525 Y47.4216 
G01 X-30.5528 Y47.5709 
G01 X-30.4259 Y47.6978 
G01 X-30.2766 Y47.7975 
G01 X-30.1108 Y47.8662 
G01 X-29.9408 Y47.9000 
G01 X-39.8550 Y47.9000 
G01 X-40.4282 Y47.3268 
G01 X-40.3988 Y47.2558 
G01 X-40.3638 Y47.0797 
G01 X-40.3638 Y46.9003 
G01 X-40.3988 Y46.7242 
G01 X-40.4675 Y46.5584 
G01 X-40.5672 Y46.4091 
G01 X-40.6941 Y46.2822 
G01 X-40.8434 Y46.1825 
G01 X-41.0092 Y46.1138 
G01 X-41.1853 Y46.0788 
G01 X-41.3647 Y46.0788 
G01 X-41.5408 Y46.1138 
G01 X-41.7066 Y46.1825 
G01 X-41.8559 Y46.2822 
G01 X-41.9828 Y46.4091 
G01 X-42.0825 Y46.5584 
G01 X-42.1512 Y46.7242 
G01 X-42.1862 Y46.9003 
G01 X-42.1862 Y47.0797 
G01 X-42.1512 Y47.2558 
G01 X-42.0825 Y47.4216 
G01 X-41.9828 Y47.5709 
G01 X-41.8559 Y47.6978 
G01 X-41.7066 Y47.7975 
G01 X-41.5408 Y47.8662 
G01 X-41.3647 Y47.9012 
G01 X-41.1853 Y47.9012 
G01 X-41.0092 Y47.8662 
G01 X-40.9170 Y47.8280 
G01 X-40.2149 Y48.5301 
G01 X-40.1351 Y48.5761 
G01 X-40.0461 Y48.6000 
G01 X-28.7039 Y48.6000 
G01 X-28.6149 Y48.5761 
G01 X-28.5351 Y48.5301 
G01 X-28.4699 Y48.4649 
G01 X-27.7761 Y47.7711 
G01 X-27.7366 Y47.7975 
G01 X-27.5708 Y47.8662 
G01 X-27.3947 Y47.9012 
G01 X-27.2153 Y47.9012 
G01 X-27.0392 Y47.8662 
G01 X-26.8734 Y47.7975 
G01 X-26.7241 Y47.6978 
G01 X-26.5972 Y47.5709 
G01 X-26.4975 Y47.4216 
G01 X-26.4288 Y47.2558 
G01 X-26.3938 Y47.0797 
G01 X-26.3938 Y46.9003 
G01 X-26.4288 Y46.7242 
G01 X-26.4975 Y46.5584 
G01 X-26.5972 Y46.4091 
G01 X-26.7241 Y46.2822 
G01 X-26.8734 Y46.1825 
G01 X-27.0392 Y46.1138 
G01 X-27.2153 Y46.0788 
G01 X-27.3748 Y46.0788 
G01 X-27.3649 Y46.0761 
G01 X-27.2851 Y46.0301 
G01 X-26.4941 Y45.2391 
G01 X-26.4666 Y45.2575 
G01 X-26.3008 Y45.3262 
G01 X-26.1247 Y45.3612 
G01 X-25.9453 Y45.3612 
G01 X-25.7692 Y45.3262 
G01 X-25.6034 Y45.2575 
G01 X-25.4541 Y45.1578 
G01 X-25.3272 Y45.0309 
G01 X-25.2275 Y44.8816 
G01 X-25.1588 Y44.7158 
G01 X-25.1358 Y44.6000 
G01 X-12.4539 Y44.6000 
G01 X-12.3649 Y44.5761 
G01 X-12.2851 Y44.5301 
G01 X-12.2199 Y44.4649 
G01 X-3.0832 Y35.3282 
G01 X-1.6201 Y35.3282 
G01 X-1.4587 Y35.3026 
G01 X-1.3033 Y35.2521 
G01 X-1.1577 Y35.1779 
G01 X-1.0255 Y35.0819 
G01 X-0.9099 Y34.9663 
G01 X-0.8139 Y34.8341 
G01 X-0.7397 Y34.6885 
G01 X-0.6892 Y34.5331 
G01 X-0.6636 Y34.3717 
G01 X-0.6636 Y34.2083 
G01 X-0.6892 Y34.0469 
G01 X-0.7397 Y33.8915 
G01 X-0.8139 Y33.7459 
G01 X-0.9099 Y33.6137 
G01 X-1.0255 Y33.4981 
G01 X-1.1577 Y33.4021 
G01 X-1.3033 Y33.3279 
G01 X-1.4587 Y33.2774 
G01 X-1.6201 Y33.2518 
G01 X-3.4599 Y33.2518 
G01 X-3.6213 Y33.2774 
G01 X-3.7767 Y33.3279 
G01 X-3.9223 Y33.4021 
G01 X-4.0545 Y33.4981 
G01 X-4.1701 Y33.6137 
G01 X-4.2661 Y33.7459 
G01 X-4.3403 Y33.8915 
G01 X-4.3908 Y34.0469 
G01 X-4.4164 Y34.2083 
G01 X-4.4164 Y34.3717 
G01 X-4.3908 Y34.5331 
G01 X-4.3403 Y34.6885 
G01 X-4.2661 Y34.8341 
G01 X-4.1701 Y34.9663 
G01 X-4.0545 Y35.0819 
G01 X-3.9227 Y35.1777 
G01 X-12.6450 Y43.9000 
G01 X-25.3066 Y43.9000 
G01 X-25.3272 Y43.8691 
G01 X-25.4541 Y43.7422 
G01 X-25.6034 Y43.6425 
G01 X-25.7692 Y43.5738 
G01 X-25.9453 Y43.5388 
G01 X-26.1247 Y43.5388 
G01 X-26.3008 Y43.5738 
G01 X-26.4666 Y43.6425 
G01 X-26.6159 Y43.7422 
G01 X-26.7428 Y43.8691 
G01 X-26.8425 Y44.0184 
G01 X-26.9112 Y44.1842 
G01 X-26.9462 Y44.3603 
G01 X-26.9462 Y44.5397 
G01 X-26.9194 Y44.6744 
G01 X-27.6450 Y45.4000 
G01 X-38.6050 Y45.4000 
G01 X-39.1758 Y44.8292 
G01 X-39.1288 Y44.7158 
G01 X-39.0938 Y44.5397 
G01 X-39.0938 Y44.3603 
G01 X-39.1288 Y44.1842 
G01 X-39.1975 Y44.0184 
G01 X-39.2972 Y43.8691 
G01 X-39.4241 Y43.7422 
G01 X-39.5734 Y43.6425 
G01 X-39.6760 Y43.6000 
G01 X-29.8950 Y43.6000 
G01 X-29.4101 Y44.0849 
G01 X-29.4512 Y44.1842 
G01 X-29.4862 Y44.3603 
G01 X-29.4862 Y44.5397 
G01 X-29.4512 Y44.7158 
G01 X-29.3825 Y44.8816 
G01 X-29.2828 Y45.0309 
G01 X-29.1559 Y45.1578 
G01 X-29.0066 Y45.2575 
G01 X-28.8408 Y45.3262 
G01 X-28.6647 Y45.3612 
G01 X-28.4853 Y45.3612 
G01 X-28.3092 Y45.3262 
G01 X-28.1434 Y45.2575 
G01 X-27.9941 Y45.1578 
G01 X-27.8672 Y45.0309 
G01 X-27.7675 Y44.8816 
G01 X-27.6988 Y44.7158 
G01 X-27.6638 Y44.5397 
G01 X-27.6638 Y44.3603 
G01 X-27.6988 Y44.1842 
G01 X-27.7675 Y44.0184 
G01 X-27.8672 Y43.8691 
G01 X-27.9941 Y43.7422 
G01 X-28.1434 Y43.6425 
G01 X-28.3092 Y43.5738 
G01 X-28.4853 Y43.5388 
G01 X-28.6647 Y43.5388 
G01 X-28.8408 Y43.5738 
G01 X-28.9047 Y43.6003 
G01 X-29.4699 Y43.0351 
G01 X-29.5351 Y42.9699 
G01 X-29.6149 Y42.9239 
G01 X-29.7039 Y42.9000 
G01 X-43.6050 Y42.9000 
G01 X-45.9699 Y40.5351 
G01 X-46.0351 Y40.4699 
G01 X-46.1149 Y40.4239 
G01 X-46.2039 Y40.4000 
G01 X-51.0699 Y40.4000 
G01 X-51.0699 Y40.2257 
G01 X-51.6557 Y39.6399 
G01 X-52.4843 Y39.6399 
G01 X-53.0701 Y40.2257 
G00 Z2.0000 
G00 X-61.9220 Y4.2233 
G01 Z-0.0250 F254.00 
G01 X-61.9220 Y5.9367 F508.00 
G01 X-61.8850 Y6.1226 
G01 X-61.8125 Y6.2977 
G01 X-61.7072 Y6.4552 
G01 X-61.5732 Y6.5892 
G01 X-61.4157 Y6.6945 
G01 X-61.2406 Y6.7670 
G01 X-61.0547 Y6.8040 
G01 X-60.8653 Y6.8040 
G01 X-60.6794 Y6.7670 
G01 X-60.5043 Y6.6945 
G01 X-60.3468 Y6.5892 
G01 X-60.2128 Y6.4552 
G01 X-60.1075 Y6.2977 
G01 X-60.0350 Y6.1226 
G01 X-59.9980 Y5.9367 
G01 X-59.9980 Y4.2233 
G01 X-60.0350 Y4.0374 
G01 X-60.1075 Y3.8623 
G01 X-60.2128 Y3.7048 
G01 X-60.3468 Y3.5708 
G01 X-60.5043 Y3.4655 
G01 X-60.6794 Y3.3930 
G01 X-60.8653 Y3.3560 
G01 X-61.0547 Y3.3560 
G01 X-61.2406 Y3.3930 
G01 X-61.4157 Y3.4655 
G01 X-61.5732 Y3.5708 
G01 X-61.7072 Y3.7048 
G01 X-61.8125 Y3.8623 
G01 X-61.8850 Y4.0374 
G01 X-61.9220 Y4.2233 
G00 Z2.0000 
G00 X-59.3820 Y4.2233 
G01 Z-0.0250 F254.00 
G01 X-59.3820 Y5.9367 F508.00 
G01 X-59.3450 Y6.1226 
G01 X-59.2725 Y6.2977 
G01 X-59.1672 Y6.4552 
G01 X-59.0332 Y6.5892 
G01 X-58.8757 Y6.6945 
G01 X-58.7006 Y6.7670 
G01 X-58.5147 Y6.8040 
G01 X-58.3253 Y6.8040 
G01 X-58.1394 Y6.7670 
G01 X-57.9643 Y6.6945 
G01 X-57.8068 Y6.5892 
G01 X-57.6728 Y6.4552 
G01 X-57.5675 Y6.2977 
G01 X-57.4950 Y6.1226 
G01 X-57.4580 Y5.9367 
G01 X-57.4580 Y4.2233 
G01 X-57.4950 Y4.0374 
G01 X-57.5675 Y3.8623 
G01 X-57.6728 Y3.7048 
G01 X-57.8068 Y3.5708 
G01 X-57.9643 Y3.4655 
G01 X-58.1394 Y3.3930 
G01 X-58.3253 Y3.3560 
G01 X-58.5147 Y3.3560 
G01 X-58.7006 Y3.3930 
G01 X-58.8757 Y3.4655 
G01 X-59.0332 Y3.5708 
G01 X-59.1672 Y3.7048 
G01 X-59.2725 Y3.8623 
G01 X-59.3450 Y4.0374 
G01 X-59.3820 Y4.2233 
G00 Z2.0000 
G00 X-56.8420 Y4.2233 
G01 Z-0.0250 F254.00 
G01 X-56.8420 Y5.9367 F508.00 
G01 X-56.8050 Y6.1226 
G01 X-56.7325 Y6.2977 
G01 X-56.6272 Y6.4552 
G01 X-56.4932 Y6.5892 
G01 X-56.3357 Y6.6945 
G01 X-56.1606 Y6.7670 
G01 X-55.9747 Y6.8040 
G01 X-55.7853 Y6.8040 
G01 X-55.5994 Y6.7670 
G01 X-55.4243 Y6.6945 
G01 X-55.2668 Y6.5892 
G01 X-55.1328 Y6.4552 
G01 X-55.0275 Y6.2977 
G01 X-54.9550 Y6.1226 
G01 X-54.9180 Y5.9367 
G01 X-54.9180 Y4.2233 
G01 X-54.9550 Y4.0374 
G01 X-55.0275 Y3.8623 
G01 X-55.1328 Y3.7048 
G01 X-55.2668 Y3.5708 
G01 X-55.4243 Y3.4655 
G01 X-55.5994 Y3.3930 
G01 X-55.7853 Y3.3560 
G01 X-55.9747 Y3.3560 
G01 X-56.1606 Y3.3930 
G01 X-56.3357 Y3.4655 
G01 X-56.4932 Y3.5708 
G01 X-56.6272 Y3.7048 
G01 X-56.7325 Y3.8623 
G01 X-56.8050 Y4.0374 
G01 X-56.8420 Y4.2233 
G00 Z2.0000 
G00 X-54.3020 Y4.2233 
G01 Z-0.0250 F254.00 
G01 X-54.3020 Y5.9367 F508.00 
G01 X-54.2650 Y6.1226 
G01 X-54.1925 Y6.2977 
G01 X-54.0872 Y6.4552 
G01 X-53.9532 Y6.5892 
G01 X-53.7957 Y6.6945 
G01 X-53.6206 Y6.7670 
G01 X-53.4347 Y6.8040 
G01 X-53.2453 Y6.8040 
G01 X-53.0594 Y6.7670 
G01 X-52.8843 Y6.6945 
G01 X-52.7268 Y6.5892 
G01 X-52.5928 Y6.4552 
G01 X-52.4875 Y6.2977 
G01 X-52.4150 Y6.1226 
G01 X-52.3780 Y5.9367 
G01 X-52.3780 Y4.2233 
G01 X-52.4150 Y4.0374 
G01 X-52.4875 Y3.8623 
G01 X-52.5928 Y3.7048 
G01 X-52.7268 Y3.5708 
G01 X-52.8843 Y3.4655 
G01 X-53.0594 Y3.3930 
G01 X-53.2453 Y3.3560 
G01 X-53.4347 Y3.3560 
G01 X-53.6206 Y3.3930 
G01 X-53.7957 Y3.4655 
G01 X-53.9532 Y3.5708 
G01 X-54.0872 Y3.7048 
G01 X-54.1925 Y3.8623 
G01 X-54.2650 Y4.0374 
G01 X-54.3020 Y4.2233 
G00 Z2.0000 
G00 X-46.5804 Y22.1149 
G01 Z-0.0250 F254.00 
G01 X-46.5804 Y23.6051 F508.00 
G01 X-46.5473 Y23.7714 
G01 X-46.4825 Y23.9280 
G01 X-46.3883 Y24.0689 
G01 X-46.2685 Y24.1887 
G01 X-46.1275 Y24.2829 
G01 X-45.9710 Y24.3477 
G01 X-45.8047 Y24.3808 
G01 X-45.6353 Y24.3808 
G01 X-45.4690 Y24.3477 
G01 X-45.3124 Y24.2829 
G01 X-45.1715 Y24.1887 
G01 X-45.0517 Y24.0689 
G01 X-44.9575 Y23.9280 
G01 X-44.8927 Y23.7714 
G01 X-44.8596 Y23.6051 
G01 X-44.8596 Y22.1149 
G01 X-44.8927 Y21.9486 
G01 X-44.9575 Y21.7920 
G01 X-45.0517 Y21.6511 
G01 X-45.1715 Y21.5313 
G01 X-45.3124 Y21.4371 
G01 X-45.4690 Y21.3723 
G01 X-45.6353 Y21.3392 
G01 X-45.8047 Y21.3392 
G01 X-45.9710 Y21.3723 
G01 X-46.1275 Y21.4371 
G01 X-46.2685 Y21.5313 
G01 X-46.3883 Y21.6511 
G01 X-46.4825 Y21.7920 
G01 X-46.5473 Y21.9486 
G01 X-46.5804 Y22.1149 
G00 Z2.0000 
G00 X-44.0404 Y22.1149 
G01 Z-0.0250 F254.00 
G01 X-44.0404 Y23.2954 F508.00 
G01 X-46.5607 Y25.8158 
G01 X-46.6803 Y25.7920 
G01 X-46.8197 Y25.7920 
G01 X-46.9565 Y25.8192 
G01 X-47.0854 Y25.8726 
G01 X-47.2013 Y25.9501 
G01 X-47.2999 Y26.0487 
G01 X-47.3774 Y26.1646 
G01 X-47.4308 Y26.2935 
G01 X-47.4580 Y26.4303 
G01 X-47.4580 Y26.5697 
G01 X-47.4308 Y26.7065 
G01 X-47.3774 Y26.8354 
G01 X-47.2999 Y26.9513 
G01 X-47.2013 Y27.0499 
G01 X-47.0854 Y27.1274 
G01 X-46.9565 Y27.1808 
G01 X-46.8197 Y27.2080 
G01 X-46.6803 Y27.2080 
G01 X-46.5435 Y27.1808 
G01 X-46.4146 Y27.1274 
G01 X-46.2987 Y27.0499 
G01 X-46.2001 Y26.9513 
G01 X-46.1226 Y26.8354 
G01 X-46.0692 Y26.7065 
G01 X-46.0420 Y26.5697 
G01 X-46.0420 Y26.4303 
G01 X-46.0658 Y26.3108 
G01 X-43.8361 Y24.0811 
G01 X-43.7285 Y24.1887 
G01 X-43.5876 Y24.2829 
G01 X-43.4310 Y24.3477 
G01 X-43.2647 Y24.3808 
G01 X-43.0953 Y24.3808 
G01 X-42.9290 Y24.3477 
G01 X-42.7724 Y24.2829 
G01 X-42.6315 Y24.1887 
G01 X-42.5117 Y24.0689 
G01 X-42.4175 Y23.9280 
G01 X-42.3527 Y23.7714 
G01 X-42.3196 Y23.6051 
G01 X-42.3196 Y22.1149 
G01 X-42.3527 Y21.9486 
G01 X-42.4175 Y21.7920 
G01 X-42.5117 Y21.6511 
G01 X-42.6315 Y21.5313 
G01 X-42.7724 Y21.4371 
G01 X-42.9290 Y21.3723 
G01 X-43.0953 Y21.3392 
G01 X-43.2647 Y21.3392 
G01 X-43.4310 Y21.3723 
G01 X-43.5876 Y21.4371 
G01 X-43.7285 Y21.5313 
G01 X-43.8483 Y21.6511 
G01 X-43.9425 Y21.7920 
G01 X-44.0073 Y21.9486 
G01 X-44.0404 Y22.1149 
G00 Z2.0000 
G00 X-41.5004 Y22.1149 
G01 Z-0.0250 F254.00 
G01 X-41.5004 Y23.6051 F508.00 
G01 X-41.4673 Y23.7714 
G01 X-41.4025 Y23.9280 
G01 X-41.3083 Y24.0689 
G01 X-41.1885 Y24.1887 
G01 X-41.0476 Y24.2829 
G01 X-40.8910 Y24.3477 
G01 X-40.7247 Y24.3808 
G01 X-40.5553 Y24.3808 
G01 X-40.3890 Y24.3477 
G01 X-40.2324 Y24.2829 
G01 X-40.0915 Y24.1887 
G01 X-39.9717 Y24.0689 
G01 X-39.8775 Y23.9280 
G01 X-39.8127 Y23.7714 
G01 X-39.7796 Y23.6051 
G01 X-39.7796 Y22.1149 
G01 X-39.8127 Y21.9486 
G01 X-39.8775 Y21.7920 
G01 X-39.9717 Y21.6511 
G01 X-40.0915 Y21.5313 
G01 X-40.2324 Y21.4371 
G01 X-40.3890 Y21.3723 
G01 X-40.5553 Y21.3392 
G01 X-40.7247 Y21.3392 
G01 X-40.8910 Y21.3723 
G01 X-41.0476 Y21.4371 
G01 X-41.1885 Y21.5313 
G01 X-41.3083 Y21.6511 
G01 X-41.4025 Y21.7920 
G01 X-41.4673 Y21.9486 
G01 X-41.5004 Y22.1149 
G00 Z2.0000 
G00 X-36.4204 Y22.1149 
G01 Z-0.0250 F254.00 
G01 X-36.4204 Y23.6051 F508.00 
G01 X-36.3873 Y23.7714 
G01 X-36.3225 Y23.9280 
G01 X-36.2283 Y24.0689 
G01 X-36.1085 Y24.1887 
G01 X-35.9676 Y24.2829 
G01 X-35.8110 Y24.3477 
G01 X-35.6447 Y24.3808 
G01 X-35.4753 Y24.3808 
G01 X-35.3090 Y24.3477 
G01 X-35.1524 Y24.2829 
G01 X-35.0115 Y24.1887 
G01 X-34.8917 Y24.0689 
G01 X-34.7975 Y23.9280 
G01 X-34.7327 Y23.7714 
G01 X-34.6996 Y23.6051 
G01 X-34.6996 Y22.1149 
G01 X-34.7327 Y21.9486 
G01 X-34.7975 Y21.7920 
G01 X-34.8917 Y21.6511 
G01 X-35.0115 Y21.5313 
G01 X-35.1524 Y21.4371 
G01 X-35.3090 Y21.3723 
G01 X-35.4753 Y21.3392 
G01 X-35.6447 Y21.3392 
G01 X-35.8110 Y21.3723 
G01 X-35.9676 Y21.4371 
G01 X-36.1085 Y21.5313 
G01 X-36.2283 Y21.6511 
G01 X-36.3225 Y21.7920 
G01 X-36.3873 Y21.9486 
G01 X-36.4204 Y22.1149 
G00 Z2.0000 
G00 X-33.8804 Y22.1149 
G01 Z-0.0250 F254.00 
G01 X-33.8804 Y23.6051 F508.00 
G01 X-33.8473 Y23.7714 
G01 X-33.7825 Y23.9280 
G01 X-33.6883 Y24.0689 
G01 X-33.5685 Y24.1887 
G01 X-33.4276 Y24.2829 
G01 X-33.2710 Y24.3477 
G01 X-33.1047 Y24.3808 
G01 X-32.9353 Y24.3808 
G01 X-32.7690 Y24.3477 
G01 X-32.6124 Y24.2829 
G01 X-32.4715 Y24.1887 
G01 X-32.3517 Y24.0689 
G01 X-32.2575 Y23.9280 
G01 X-32.1927 Y23.7714 
G01 X-32.1596 Y23.6051 
G01 X-32.1596 Y22.1149 
G01 X-32.1927 Y21.9486 
G01 X-32.2575 Y21.7920 
G01 X-32.3517 Y21.6511 
G01 X-32.4715 Y21.5313 
G01 X-32.6124 Y21.4371 
G01 X-32.7690 Y21.3723 
G01 X-32.9353 Y21.3392 
G01 X-33.1047 Y21.3392 
G01 X-33.2710 Y21.3723 
G01 X-33.4276 Y21.4371 
G01 X-33.5685 Y21.5313 
G01 X-33.6883 Y21.6511 
G01 X-33.7825 Y21.7920 
G01 X-33.8473 Y21.9486 
G01 X-33.8804 Y22.1149 
G00 Z2.0000 
G00 X-31.3404 Y22.1149 
G01 Z-0.0250 F254.00 
G01 X-31.3404 Y23.6051 F508.00 
G01 X-31.3073 Y23.7714 
G01 X-31.2425 Y23.9280 
G01 X-31.1483 Y24.0689 
G01 X-31.0285 Y24.1887 
G01 X-30.8876 Y24.2829 
G01 X-30.7310 Y24.3477 
G01 X-30.5647 Y24.3808 
G01 X-30.3953 Y24.3808 
G01 X-30.2290 Y24.3477 
G01 X-30.0724 Y24.2829 
G01 X-29.9315 Y24.1887 
G01 X-29.8117 Y24.0689 
G01 X-29.7175 Y23.9280 
G01 X-29.6527 Y23.7714 
G01 X-29.6196 Y23.6051 
G01 X-29.6196 Y22.1149 
G01 X-29.6527 Y21.9486 
G01 X-29.7175 Y21.7920 
G01 X-29.8117 Y21.6511 
G01 X-29.9315 Y21.5313 
G01 X-30.0724 Y21.4371 
G01 X-30.2290 Y21.3723 
G01 X-30.3953 Y21.3392 
G01 X-30.5647 Y21.3392 
G01 X-30.7310 Y21.3723 
G01 X-30.8876 Y21.4371 
G01 X-31.0285 Y21.5313 
G01 X-31.1483 Y21.6511 
G01 X-31.2425 Y21.7920 
G01 X-31.3073 Y21.9486 
G01 X-31.3404 Y22.1149 
G00 Z2.0000 
G00 X-31.3404 Y14.4949 
G01 Z-0.0250 F254.00 
G01 X-31.3404 Y15.9851 F508.00 
G01 X-31.3073 Y16.1514 
G01 X-31.2425 Y16.3080 
G01 X-31.1483 Y16.4489 
G01 X-31.0285 Y16.5687 
G01 X-30.8876 Y16.6629 
G01 X-30.7310 Y16.7277 
G01 X-30.5647 Y16.7608 
G01 X-30.3953 Y16.7608 
G01 X-30.2290 Y16.7277 
G01 X-30.0724 Y16.6629 
G01 X-29.9315 Y16.5687 
G01 X-29.8117 Y16.4489 
G01 X-29.7175 Y16.3080 
G01 X-29.6527 Y16.1514 
G01 X-29.6196 Y15.9851 
G01 X-29.6196 Y14.4949 
G01 X-29.6527 Y14.3286 
G01 X-29.7175 Y14.1720 
G01 X-29.8117 Y14.0311 
G01 X-29.9315 Y13.9113 
G01 X-30.0724 Y13.8171 
G01 X-30.2290 Y13.7523 
G01 X-30.3953 Y13.7192 
G01 X-30.5647 Y13.7192 
G01 X-30.7310 Y13.7523 
G01 X-30.8876 Y13.8171 
G01 X-31.0285 Y13.9113 
G01 X-31.1483 Y14.0311 
G01 X-31.2425 Y14.1720 
G01 X-31.3073 Y14.3286 
G01 X-31.3404 Y14.4949 
G00 Z2.0000 
G00 X-33.8804 Y14.4949 
G01 Z-0.0250 F254.00 
G01 X-33.8804 Y15.9851 F508.00 
G01 X-33.8473 Y16.1514 
G01 X-33.7825 Y16.3080 
G01 X-33.6883 Y16.4489 
G01 X-33.5685 Y16.5687 
G01 X-33.4276 Y16.6629 
G01 X-33.2710 Y16.7277 
G01 X-33.1047 Y16.7608 
G01 X-32.9353 Y16.7608 
G01 X-32.7690 Y16.7277 
G01 X-32.6124 Y16.6629 
G01 X-32.4715 Y16.5687 
G01 X-32.3517 Y16.4489 
G01 X-32.2575 Y16.3080 
G01 X-32.1927 Y16.1514 
G01 X-32.1596 Y15.9851 
G01 X-32.1596 Y14.4949 
G01 X-32.1927 Y14.3286 
G01 X-32.2575 Y14.1720 
G01 X-32.3517 Y14.0311 
G01 X-32.4715 Y13.9113 
G01 X-32.6124 Y13.8171 
G01 X-32.7690 Y13.7523 
G01 X-32.9353 Y13.7192 
G01 X-33.1047 Y13.7192 
G01 X-33.2710 Y13.7523 
G01 X-33.4276 Y13.8171 
G01 X-33.5685 Y13.9113 
