(.../pcb-gcode-3.6.0.4/pcb-gcode.ulp)
(Copyright 2005 - 2012 by John Johnson)
(See readme.txt for licensing terms.)
(This file generated from the board:)
(.../eagle/ARMEDBASE_V0/DCU/DCU.brd)
(Current profile is .../pcb-gcode-3.6.0.4/profiles/emc.pp  )
(This file generated 7/3/2014 10:21:26 AM)
(Settings from pcb-machine.h)
(  Tool Size)
(0.1000 )
(Z Axis Settings)
(  High     Up        Down     Drill)
(15.0000 	2.0000 	-0.0250 	-1.5000 )
(spindle on time = 1.0000)
(milling depth = -0.0500)
(text depth = -0.0500)
(tool change at 15.0000 15.0000 15.0000 )
(feed rate xy = F508.00 )
(feed rate z  = F254.00 )
(Settings from pcb-defaults.h)
(isolate min = 0.0500)
(isolate max = 0.3000)
(isolate step = 0.1000)
(Generated top outlines, top drill, bottom outlines, bottom drill, )
(Unit of measure: mm)
( Tool|       Size       |  Min Sub |  Max Sub |   Count )
( T01  3.200mm 0.1260in 0.0000in 0.0000in )
( T02  3.302mm 0.1300in 0.0000in 0.0000in )
( T03  0.610mm 0.0240in 0.0000in 0.0000in )
( T04  0.813mm 0.0320in 0.0000in 0.0000in )
( T05  0.900mm 0.0354in 0.0000in 0.0000in )
( T06  1.016mm 0.0400in 0.0000in 0.0000in )
( T07  1.118mm 0.0440in 0.0000in 0.0000in )
(Metric Mode)
G21
(Absolute Coordinates)
G90
M05
G00 Z15.0000 
G00 X15.0000 Y15.0000 
M06 T01  ; 3.2000 
G01 Z0.0000 F254.00 
M06 T01  ; 3.2000 
G00 Z2.0000 
M03
G04 P1.000000
G00 Z2.000000
G00 X31.7500 Y53.3400 
G01 Z-1.5000 F254.00 
G01 Z2.000000
(R2.0000  P1.000000)
(G00 Z2.000000)
G00 X38.1000 Y53.3400 
G01 Z-1.500000
G01 Z2.000000
(G00 Z2.000000)
G00 X45.7200 Y53.3400 
G01 Z-1.500000
G01 Z2.000000
(G00 Z2.000000)
G00 X5.0800 Y5.0800 
G01 Z-1.500000
G01 Z2.000000
(G00 Z2.000000)
G00 X5.0800 Y52.0700 
G01 Z-1.500000
G01 Z2.000000
(G00 Z2.000000)
G00 X80.0100 Y52.0700 
G01 Z-1.500000
G01 Z2.000000
(G00 Z2.000000)
G00 X81.2800 Y5.0800 
G01 Z-1.500000
G01 Z2.000000
(G00 Z2.000000)
G00 X24.1300 Y53.3400 
G01 Z-1.500000
G01 Z2.000000
M05
G00 Z15.0000 
M06 T02  ; 3.3020 
G01 Z0.0000 F254.00 
M06 T02  ; 3.3020 
G00 Z2.0000 
M03
G04 P1.000000
G00 Z2.000000
G00 X23.8760 Y11.4300 
G01 Z-1.5000 F254.00 
G01 Z2.000000
(R2.0000  P1.000000)
M05
G00 Z15.0000 
M06 T03  ; 0.6096 
G01 Z0.0000 F254.00 
M06 T03  ; 0.6096 
G00 Z2.0000 
M03
G04 P1.000000
G00 Z2.000000
G00 X46.7500 Y26.5000 
G01 Z-1.5000 F254.00 
G01 Z2.000000
(R2.0000  P1.000000)
(G00 Z2.000000)
G00 X47.2500 Y36.0000 
G01 Z-1.500000
G01 Z2.000000
M05
G00 Z15.0000 
M06 T04  ; 0.8128 
G01 Z0.0000 F254.00 
M06 T04  ; 0.8128 
G00 Z2.0000 
M03
G04 P1.000000
G00 Z2.000000
G00 X33.0200 Y15.2400 
G01 Z-1.5000 F254.00 
G01 Z2.000000
(R2.0000  P1.000000)
(G00 Z2.000000)
G00 X33.0200 Y22.8600 
G01 Z-1.500000
G01 Z2.000000
(G00 Z2.000000)
G00 X35.5600 Y15.2400 
G01 Z-1.500000
G01 Z2.000000
(G00 Z2.000000)
G00 X35.5600 Y22.8600 
G01 Z-1.500000
G01 Z2.000000
(G00 Z2.000000)
G00 X38.1000 Y15.2400 
G01 Z-1.500000
G01 Z2.000000
(G00 Z2.000000)
G00 X38.1000 Y22.8600 
G01 Z-1.500000
G01 Z2.000000
(G00 Z2.000000)
G00 X40.6400 Y15.2400 
G01 Z-1.500000
G01 Z2.000000
(G00 Z2.000000)
G00 X40.6400 Y22.8600 
G01 Z-1.500000
G01 Z2.000000
(G00 Z2.000000)
G00 X43.1800 Y15.2400 
G01 Z-1.500000
G01 Z2.000000
(G00 Z2.000000)
G00 X43.1800 Y22.8600 
G01 Z-1.500000
G01 Z2.000000
(G00 Z2.000000)
G00 X45.7200 Y15.2400 
G01 Z-1.500000
G01 Z2.000000
(G00 Z2.000000)
G00 X45.7200 Y22.8600 
G01 Z-1.500000
G01 Z2.000000
(G00 Z2.000000)
G00 X48.2600 Y15.2400 
G01 Z-1.500000
G01 Z2.000000
(G00 Z2.000000)
G00 X48.2600 Y22.8600 
G01 Z-1.500000
G01 Z2.000000
(G00 Z2.000000)
G00 X50.8000 Y15.2400 
G01 Z-1.500000
G01 Z2.000000
(G00 Z2.000000)
G00 X50.8000 Y22.8600 
G01 Z-1.500000
G01 Z2.000000
(G00 Z2.000000)
G00 X52.0700 Y38.1000 
G01 Z-1.500000
G01 Z2.000000
(G00 Z2.000000)
G00 X52.0700 Y40.6400 
G01 Z-1.500000
G01 Z2.000000
(G00 Z2.000000)
G00 X52.0700 Y43.1800 
G01 Z-1.500000
G01 Z2.000000
(G00 Z2.000000)
G00 X52.0700 Y45.7200 
G01 Z-1.500000
G01 Z2.000000
(G00 Z2.000000)
G00 X53.3400 Y15.2400 
G01 Z-1.500000
G01 Z2.000000
(G00 Z2.000000)
G00 X53.3400 Y22.8600 
G01 Z-1.500000
G01 Z2.000000
(G00 Z2.000000)
G00 X55.8800 Y15.2400 
G01 Z-1.500000
G01 Z2.000000
(G00 Z2.000000)
G00 X55.8800 Y22.8600 
G01 Z-1.500000
G01 Z2.000000
(G00 Z2.000000)
G00 X58.4200 Y15.2400 
G01 Z-1.500000
G01 Z2.000000
(G00 Z2.000000)
G00 X58.4200 Y22.8600 
G01 Z-1.500000
G01 Z2.000000
(G00 Z2.000000)
G00 X59.6900 Y38.1000 
G01 Z-1.500000
G01 Z2.000000
(G00 Z2.000000)
G00 X59.6900 Y40.6400 
G01 Z-1.500000
G01 Z2.000000
(G00 Z2.000000)
G00 X59.6900 Y43.1800 
G01 Z-1.500000
G01 Z2.000000
(G00 Z2.000000)
G00 X59.6900 Y45.7200 
G01 Z-1.500000
G01 Z2.000000
(G00 Z2.000000)
G00 X60.9600 Y15.2400 
G01 Z-1.500000
G01 Z2.000000
(G00 Z2.000000)
G00 X60.9600 Y22.8600 
G01 Z-1.500000
G01 Z2.000000
(G00 Z2.000000)
G00 X63.5000 Y15.2400 
G01 Z-1.500000
G01 Z2.000000
(G00 Z2.000000)
G00 X63.5000 Y22.8600 
G01 Z-1.500000
G01 Z2.000000
(G00 Z2.000000)
G00 X30.4800 Y15.2400 
G01 Z-1.500000
G01 Z2.000000
(G00 Z2.000000)
G00 X30.4800 Y22.8600 
G01 Z-1.500000
G01 Z2.000000
M05
G00 Z15.0000 
M06 T05  ; 0.9000 
G01 Z0.0000 F254.00 
M06 T05  ; 0.9000 
G00 Z2.0000 
M03
G04 P1.000000
G00 Z2.000000
G00 X40.0050 Y44.4500 
G01 Z-1.5000 F254.00 
G01 Z2.000000
(R2.0000  P1.000000)
(G00 Z2.000000)
G00 X41.2750 Y46.9900 
G01 Z-1.500000
G01 Z2.000000
(G00 Z2.000000)
G00 X42.5450 Y44.4500 
G01 Z-1.500000
G01 Z2.000000
(G00 Z2.000000)
G00 X43.8150 Y46.9900 
G01 Z-1.500000
G01 Z2.000000
(G00 Z2.000000)
G00 X26.0350 Y44.4500 
G01 Z-1.500000
G01 Z2.000000
(G00 Z2.000000)
G00 X27.3050 Y46.9900 
G01 Z-1.500000
G01 Z2.000000
(G00 Z2.000000)
G00 X28.5750 Y44.4500 
G01 Z-1.500000
G01 Z2.000000
(G00 Z2.000000)
G00 X29.8450 Y46.9900 
G01 Z-1.500000
G01 Z2.000000
M05
G00 Z15.0000 
M06 T06  ; 1.0160 
G01 Z0.0000 F254.00 
M06 T06  ; 1.0160 
G00 Z2.0000 
M03
G04 P1.000000
G00 Z2.000000
G00 X39.3700 Y5.0800 
G01 Z-1.5000 F254.00 
G01 Z2.000000
(R2.0000  P1.000000)
(G00 Z2.000000)
G00 X41.9100 Y5.0800 
G01 Z-1.500000
G01 Z2.000000
(G00 Z2.000000)
G00 X44.4500 Y5.0800 
G01 Z-1.500000
G01 Z2.000000
(G00 Z2.000000)
G00 X46.9900 Y5.0800 
G01 Z-1.500000
G01 Z2.000000
(G00 Z2.000000)
G00 X53.3400 Y5.0800 
G01 Z-1.500000
G01 Z2.000000
(G00 Z2.000000)
G00 X55.8800 Y5.0800 
G01 Z-1.500000
G01 Z2.000000
(G00 Z2.000000)
G00 X58.4200 Y5.0800 
G01 Z-1.500000
G01 Z2.000000
(G00 Z2.000000)
G00 X60.9600 Y5.0800 
G01 Z-1.500000
G01 Z2.000000
(G00 Z2.000000)
G00 X72.3900 Y35.5600 
G01 Z-1.500000
G01 Z2.000000
(G00 Z2.000000)
G00 X72.3900 Y38.1000 
G01 Z-1.500000
G01 Z2.000000
(G00 Z2.000000)
G00 X72.3900 Y40.6400 
G01 Z-1.500000
G01 Z2.000000
(G00 Z2.000000)
G00 X72.3900 Y43.1800 
G01 Z-1.500000
G01 Z2.000000
(G00 Z2.000000)
G00 X72.3900 Y5.0800 
G01 Z-1.500000
G01 Z2.000000
(G00 Z2.000000)
G00 X72.3900 Y7.6200 
G01 Z-1.500000
G01 Z2.000000
(G00 Z2.000000)
G00 X72.3900 Y10.1600 
G01 Z-1.500000
G01 Z2.000000
(G00 Z2.000000)
G00 X72.3900 Y12.7000 
G01 Z-1.500000
G01 Z2.000000
(G00 Z2.000000)
G00 X72.3900 Y15.2400 
G01 Z-1.500000
G01 Z2.000000
(G00 Z2.000000)
G00 X72.3900 Y17.7800 
G01 Z-1.500000
G01 Z2.000000
(G00 Z2.000000)
G00 X72.3900 Y20.3200 
G01 Z-1.500000
G01 Z2.000000
(G00 Z2.000000)
G00 X72.3900 Y22.8600 
G01 Z-1.500000
G01 Z2.000000
(G00 Z2.000000)
G00 X8.3312 Y20.5994 
G01 Z-1.500000
G01 Z2.000000
(G00 Z2.000000)
G00 X8.3312 Y25.1206 
G01 Z-1.500000
G01 Z2.000000
(G00 Z2.000000)
G00 X8.8900 Y8.8900 
G01 Z-1.500000
G01 Z2.000000
(G00 Z2.000000)
G00 X8.8900 Y11.4300 
G01 Z-1.500000
G01 Z2.000000
(G00 Z2.000000)
G00 X8.8900 Y13.9700 
G01 Z-1.500000
G01 Z2.000000
(G00 Z2.000000)
G00 X1.8288 Y20.5994 
G01 Z-1.500000
G01 Z2.000000
(G00 Z2.000000)
G00 X1.8288 Y25.1206 
G01 Z-1.500000
G01 Z2.000000
(G00 Z2.000000)
G00 X20.3200 Y33.0200 
G01 Z-1.500000
G01 Z2.000000
(G00 Z2.000000)
G00 X20.3200 Y35.5600 
G01 Z-1.500000
G01 Z2.000000
(G00 Z2.000000)
G00 X20.3200 Y38.1000 
G01 Z-1.500000
G01 Z2.000000
(G00 Z2.000000)
G00 X20.3200 Y20.3200 
G01 Z-1.500000
G01 Z2.000000
(G00 Z2.000000)
G00 X20.3200 Y22.8600 
G01 Z-1.500000
G01 Z2.000000
(G00 Z2.000000)
G00 X20.3200 Y25.4000 
G01 Z-1.500000
G01 Z2.000000
(G00 Z2.000000)
G00 X20.3200 Y27.9400 
G01 Z-1.500000
G01 Z2.000000
(G00 Z2.000000)
G00 X20.3200 Y30.4800 
G01 Z-1.500000
G01 Z2.000000
M05
G00 Z15.0000 
M06 T07  ; 1.1176 
G01 Z0.0000 F254.00 
M06 T07  ; 1.1176 
G00 Z2.0000 
M03
G04 P1.000000
G00 Z2.000000
G00 X2.5400 Y34.2900 
G01 Z-1.5000 F254.00 
G01 Z2.000000
(R2.0000  P1.000000)
(G00 Z2.000000)
G00 X2.5400 Y38.1000 
G01 Z-1.500000
G01 Z2.000000
(G00 Z2.000000)
G00 X2.5400 Y30.4800 
G01 Z-1.500000
G01 Z2.000000
T01 
G00 Z15.0000 
M05
M02
