(.../pcb-gcode-3.6.0.4/pcb-gcode.ulp)
(Copyright 2005 - 2012 by John Johnson)
(See readme.txt for licensing terms.)
(This file generated from the board:)
(.../eagle/ARMEDBASE_V0/DCU/DCU.brd)
(Current profile is .../pcb-gcode-3.6.0.4/profiles/emc.pp  )
(This file generated 7/3/2014 10:21:08 AM)
(Settings from pcb-machine.h)
(  Tool Size)
(0.1000 )
(Z Axis Settings)
(  High     Up        Down     Drill)
(15.0000 	2.0000 	-0.0250 	-1.5000 )
(spindle on time = 1.0000)
(milling depth = -0.0500)
(text depth = -0.0500)
(tool change at 15.0000 15.0000 15.0000 )
(feed rate xy = F508.00 )
(feed rate z  = F254.00 )
(Settings from pcb-defaults.h)
(isolate min = 0.0500)
(isolate max = 0.3000)
(isolate step = 0.1000)
(Generated top outlines, top drill, bottom outlines, bottom drill, )
(Unit of measure: mm)
(Metric Mode)
G21
(Absolute Coordinates)
G90
G00 X0.0000 Y0.0000 
M03
G04 P1.000000
G00 Z2.0000 
G00 X83.2137 Y20.4540 
G01 Z-0.0250 F254.00 
G01 X83.2137 Y19.9378 F508.00 
G01 X83.0821 Y19.8062 
G01 X83.0365 Y19.8062 
G01 X82.9049 Y19.9378 
G01 X82.9049 Y20.4540 
G01 X83.2137 Y20.4540 
G00 Z2.0000 
G00 X82.0653 Y19.8062 
G01 Z-0.0250 F254.00 
G01 X82.0196 Y19.8062 F508.00 
G01 X81.8880 Y19.9378 
G01 X81.8880 Y20.4540 
G01 X82.1969 Y20.4540 
G01 X82.1969 Y19.9378 
G01 X82.0653 Y19.8062 
G00 Z2.0000 
G00 X78.2096 Y21.3402 
G01 Z-0.0250 F254.00 
G01 X78.0780 Y21.4718 F508.00 
G01 X78.0780 Y21.8263 
G01 X78.5642 Y21.3402 
G01 X78.2096 Y21.3402 
G00 Z2.0000 
G00 X79.2721 Y21.9880 
G01 Z-0.0250 F254.00 
G01 X79.4037 Y21.8564 F508.00 
G01 X79.4037 Y21.5019 
G01 X78.9176 Y21.9880 
G01 X79.2721 Y21.9880 
G00 Z2.0000 
G00 X79.2721 Y33.0342 
G01 Z-0.0250 F254.00 
G01 X78.2096 Y33.0342 F508.00 
G01 X78.0780 Y33.1658 
G01 X78.0780 Y33.6820 
G01 X79.4037 Y33.6820 
G01 X79.4037 Y33.1658 
G01 X79.2721 Y33.0342 
G00 Z2.0000 
G00 X83.0671 Y34.1629 
G01 Z-0.0250 F254.00 
G01 X82.9049 Y34.0007 F508.00 
G01 X82.9049 Y34.3251 
G01 X83.0671 Y34.1629 
G00 Z2.0000 
G00 X83.2137 Y32.1480 
G01 Z-0.0250 F254.00 
G01 X83.2137 Y31.6318 F508.00 
G01 X83.0821 Y31.5002 
G01 X82.6975 Y31.5002 
G01 X82.5659 Y31.6318 
G01 X82.5659 Y32.1480 
G01 X83.2137 Y32.1480 
G00 Z2.0000 
G00 X83.0821 Y24.4838 
G01 Z-0.0250 F254.00 
G01 X82.0196 Y24.4838 F508.00 
G01 X81.8880 Y24.6154 
G01 X81.8880 Y25.1316 
G01 X83.2137 Y25.1316 
G01 X83.2137 Y24.6154 
G01 X83.0821 Y24.4838 
G00 Z2.0000 
G00 X83.0671 Y17.7913 
G01 Z-0.0250 F254.00 
G01 X82.9049 Y17.6291 F508.00 
G01 X82.9049 Y17.9536 
G01 X83.0671 Y17.7913 
G00 Z2.0000 
G00 X83.2137 Y12.3892 
G01 Z-0.0250 F254.00 
G01 X83.2379 Y12.2992 F508.00 
G01 X83.2845 Y12.2185 
G01 X83.3504 Y12.1525 
G01 X83.4311 Y12.1059 
G01 X83.5211 Y12.0818 
G01 X83.6143 Y12.0818 
G01 X83.7044 Y12.1059 
G01 X83.7851 Y12.1525 
G01 X83.8510 Y12.2185 
G01 X83.8976 Y12.2992 
G01 X83.9217 Y12.3892 
G01 X83.9217 Y13.8382 
G01 X83.8976 Y13.9283 
G01 X83.8510 Y14.0090 
G01 X83.7851 Y14.0749 
G01 X83.7044 Y14.1215 
G01 X83.6143 Y14.1456 
G01 X81.4874 Y14.1456 
G01 X81.3974 Y14.1215 
G01 X81.3166 Y14.0749 
G01 X81.2507 Y14.0090 
G01 X81.2041 Y13.9283 
G01 X81.1800 Y13.8382 
G01 X81.1800 Y12.3892 
G01 X81.2041 Y12.2992 
G01 X81.2507 Y12.2185 
G01 X81.3166 Y12.1525 
G01 X81.3974 Y12.1059 
G01 X81.4874 Y12.0818 
G01 X81.5806 Y12.0818 
G01 X81.6706 Y12.1059 
G01 X81.7514 Y12.1525 
G01 X81.8173 Y12.2185 
G01 X81.8639 Y12.2992 
G01 X81.8880 Y12.3892 
G01 X81.8880 Y13.4376 
G01 X82.1969 Y13.4376 
G01 X82.1969 Y13.0671 
G01 X82.2210 Y12.9771 
G01 X82.2676 Y12.8964 
G01 X82.3335 Y12.8305 
G01 X82.4142 Y12.7839 
G01 X82.5043 Y12.7597 
G01 X82.5975 Y12.7597 
G01 X82.6875 Y12.7839 
G01 X82.7682 Y12.8305 
G01 X82.8341 Y12.8964 
G01 X82.8807 Y12.9771 
G01 X82.9049 Y13.0671 
G01 X82.9049 Y13.4376 
G01 X83.2137 Y13.4376 
G01 X83.2137 Y12.3892 
G00 Z2.0000 
G00 X82.9455 Y14.9920 
G01 Z-0.0250 F254.00 
G01 X82.8989 Y14.9113 F508.00 
G01 X82.8748 Y14.8212 
G01 X82.8748 Y14.7280 
G01 X82.8989 Y14.6380 
G01 X82.9455 Y14.5573 
G01 X83.0114 Y14.4913 
G01 X83.0921 Y14.4447 
G01 X83.1822 Y14.4206 
G01 X83.2754 Y14.4206 
G01 X83.3654 Y14.4447 
G01 X83.4461 Y14.4913 
G01 X83.7851 Y14.8303 
G01 X83.8510 Y14.8962 
G01 X83.8976 Y14.9769 
G01 X83.9217 Y15.0670 
G01 X83.9217 Y15.8381 
G01 X83.8976 Y15.9281 
G01 X83.8510 Y16.0088 
G01 X83.5121 Y16.3478 
G01 X83.4461 Y16.4137 
G01 X83.3654 Y16.4603 
G01 X83.2754 Y16.4844 
G01 X82.8432 Y16.4844 
G01 X82.7532 Y16.4603 
G01 X82.6725 Y16.4137 
G01 X82.3335 Y16.0748 
G01 X82.2676 Y16.0088 
G01 X82.2210 Y15.9281 
G01 X82.1969 Y15.8381 
G01 X82.1969 Y15.2602 
G01 X82.0653 Y15.1286 
G01 X82.0196 Y15.1286 
G01 X81.8880 Y15.2602 
G01 X81.8880 Y15.6448 
G01 X82.1562 Y15.9131 
G01 X82.2028 Y15.9938 
G01 X82.2270 Y16.0838 
G01 X82.2270 Y16.1770 
G01 X82.2028 Y16.2671 
G01 X82.1562 Y16.3478 
G01 X82.0903 Y16.4137 
G01 X82.0096 Y16.4603 
G01 X81.9196 Y16.4844 
G01 X81.8264 Y16.4844 
G01 X81.7363 Y16.4603 
G01 X81.6556 Y16.4137 
G01 X81.2507 Y16.0088 
G01 X81.2041 Y15.9281 
G01 X81.1800 Y15.8381 
G01 X81.1800 Y15.0670 
G01 X81.2041 Y14.9769 
G01 X81.2507 Y14.8962 
G01 X81.3166 Y14.8303 
G01 X81.6556 Y14.4913 
G01 X81.7363 Y14.4447 
G01 X81.8264 Y14.4206 
G01 X82.2585 Y14.4206 
G01 X82.3486 Y14.4447 
G01 X82.4293 Y14.4913 
G01 X82.4952 Y14.5573 
G01 X82.8341 Y14.8962 
G01 X82.8807 Y14.9769 
G01 X82.9049 Y15.0670 
G01 X82.9049 Y15.6448 
G01 X83.0365 Y15.7764 
G01 X83.0821 Y15.7764 
G01 X83.2137 Y15.6448 
G01 X83.2137 Y15.2602 
G01 X82.9455 Y14.9920 
G00 Z2.0000 
G00 X81.4874 Y18.8232 
G01 Z-0.0250 F254.00 
G01 X81.3974 Y18.7991 F508.00 
G01 X81.3166 Y18.7525 
G01 X81.2507 Y18.6866 
G01 X81.2041 Y18.6059 
G01 X81.1800 Y18.5158 
G01 X81.1800 Y18.4226 
G01 X81.2041 Y18.3326 
G01 X81.2507 Y18.2519 
G01 X81.3166 Y18.1860 
G01 X81.3974 Y18.1394 
G01 X81.4874 Y18.1152 
G01 X82.1969 Y18.1152 
G01 X82.1969 Y17.4674 
G01 X81.4874 Y17.4674 
G01 X81.3974 Y17.4433 
G01 X81.3166 Y17.3967 
G01 X81.2507 Y17.3308 
G01 X81.2041 Y17.2500 
G01 X81.1800 Y17.1600 
G01 X81.1800 Y17.0668 
G01 X81.2041 Y16.9768 
G01 X81.2507 Y16.8960 
G01 X81.3166 Y16.8301 
G01 X81.3974 Y16.7835 
G01 X81.4874 Y16.7594 
G01 X82.9364 Y16.7594 
G01 X83.0265 Y16.7835 
G01 X83.1072 Y16.8301 
G01 X83.1731 Y16.8960 
G01 X83.8510 Y17.5740 
G01 X83.8976 Y17.6547 
G01 X83.9217 Y17.7447 
G01 X83.9217 Y17.8379 
G01 X83.8976 Y17.9280 
G01 X83.8510 Y18.0087 
G01 X83.7851 Y18.0746 
G01 X83.1072 Y18.7525 
G01 X83.0265 Y18.7991 
G01 X82.9364 Y18.8232 
G01 X82.5043 Y18.8232 
G01 X81.4874 Y18.8232 
G00 Z2.0000 
G00 X81.5806 Y25.8396 
G01 Z-0.0250 F254.00 
G01 X81.4874 Y25.8396 F508.00 
G01 X81.3974 Y25.8155 
G01 X81.3166 Y25.7689 
G01 X81.2507 Y25.7030 
G01 X81.2041 Y25.6223 
G01 X81.1800 Y25.5322 
G01 X81.1800 Y24.4222 
G01 X81.2041 Y24.3321 
G01 X81.2507 Y24.2514 
G01 X81.5897 Y23.9124 
G01 X81.6556 Y23.8465 
G01 X81.7363 Y23.7999 
G01 X81.8264 Y23.7758 
G01 X83.2754 Y23.7758 
G01 X83.3654 Y23.7999 
G01 X83.4461 Y23.8465 
G01 X83.7851 Y24.1855 
G01 X83.8510 Y24.2514 
G01 X83.8976 Y24.3321 
G01 X83.9217 Y24.4222 
G01 X83.9217 Y25.5322 
G01 X83.8976 Y25.6223 
G01 X83.8510 Y25.7030 
G01 X83.7851 Y25.7689 
G01 X83.7044 Y25.8155 
G01 X83.6143 Y25.8396 
G01 X83.5211 Y25.8396 
G01 X81.5806 Y25.8396 
G00 Z2.0000 
G00 X81.4874 Y30.5172 
G01 Z-0.0250 F254.00 
G01 X81.3974 Y30.4931 F508.00 
G01 X81.3166 Y30.4465 
G01 X81.2507 Y30.3806 
G01 X81.2041 Y30.2999 
G01 X81.1800 Y30.2098 
G01 X81.1800 Y30.1166 
G01 X81.2041 Y30.0266 
G01 X81.2507 Y29.9459 
G01 X81.3166 Y29.8799 
G01 X81.3974 Y29.8333 
G01 X81.4874 Y29.8092 
G01 X82.7131 Y29.8092 
G01 X82.6725 Y29.7686 
G01 X82.6066 Y29.7027 
G01 X82.5600 Y29.6219 
G01 X82.5358 Y29.5319 
G01 X82.5358 Y29.4387 
G01 X82.5600 Y29.3487 
G01 X82.6066 Y29.2679 
G01 X82.7131 Y29.1614 
G01 X81.4874 Y29.1614 
G01 X81.3974 Y29.1373 
G01 X81.3166 Y29.0907 
G01 X81.2507 Y29.0248 
G01 X81.2041 Y28.9440 
G01 X81.1800 Y28.8540 
G01 X81.1800 Y28.7608 
G01 X81.2041 Y28.6708 
G01 X81.2507 Y28.5900 
G01 X81.3166 Y28.5241 
G01 X81.3974 Y28.4775 
G01 X81.4874 Y28.4534 
G01 X83.6143 Y28.4534 
G01 X83.7044 Y28.4775 
G01 X83.7851 Y28.5241 
G01 X83.8510 Y28.5900 
G01 X83.8976 Y28.6708 
G01 X83.9217 Y28.7608 
G01 X83.9217 Y28.8540 
G01 X83.8976 Y28.9440 
G01 X83.8510 Y29.0248 
G01 X83.7851 Y29.0907 
G01 X83.3905 Y29.4853 
G01 X83.8510 Y29.9459 
G01 X83.8976 Y30.0266 
G01 X83.9217 Y30.1166 
G01 X83.9217 Y30.2098 
G01 X83.8976 Y30.2999 
G01 X83.8510 Y30.3806 
G01 X83.7851 Y30.4465 
G01 X83.7044 Y30.4931 
G01 X83.6143 Y30.5172 
G01 X83.5211 Y30.5172 
G01 X81.4874 Y30.5172 
G00 Z2.0000 
G00 X81.4874 Y32.8560 
G01 Z-0.0250 F254.00 
G01 X81.3974 Y32.8319 F508.00 
G01 X81.3166 Y32.7853 
G01 X81.2507 Y32.7194 
G01 X81.2041 Y32.6387 
G01 X81.1800 Y32.5486 
G01 X81.1800 Y32.4554 
G01 X81.2041 Y32.3654 
G01 X81.2507 Y32.2847 
G01 X81.3166 Y32.2187 
G01 X81.3974 Y32.1721 
G01 X81.4874 Y32.1480 
G01 X81.8579 Y32.1480 
G01 X81.8579 Y31.9707 
G01 X81.2507 Y31.3636 
G01 X81.2041 Y31.2828 
G01 X81.1800 Y31.1928 
G01 X81.1800 Y31.0996 
G01 X81.2041 Y31.0096 
G01 X81.2507 Y30.9288 
G01 X81.3166 Y30.8629 
G01 X81.3974 Y30.8163 
G01 X81.4874 Y30.7922 
G01 X81.5806 Y30.7922 
G01 X81.6706 Y30.8163 
G01 X81.7514 Y30.8629 
G01 X82.0424 Y31.1540 
G01 X82.3335 Y30.8629 
G01 X82.4142 Y30.8163 
G01 X82.5043 Y30.7922 
G01 X83.2754 Y30.7922 
G01 X83.3654 Y30.8163 
G01 X83.4461 Y30.8629 
G01 X83.5121 Y30.9288 
G01 X83.8510 Y31.2678 
G01 X83.8976 Y31.3485 
G01 X83.9217 Y31.4385 
G01 X83.9217 Y32.5486 
G01 X83.8976 Y32.6387 
G01 X83.8510 Y32.7194 
G01 X83.7851 Y32.7853 
G01 X83.7044 Y32.8319 
G01 X83.6143 Y32.8560 
G01 X82.1653 Y32.8560 
G01 X81.4874 Y32.8560 
G00 Z2.0000 
G00 X81.4874 Y35.1948 
G01 Z-0.0250 F254.00 
G01 X81.3974 Y35.1707 F508.00 
G01 X81.3166 Y35.1241 
G01 X81.2507 Y35.0582 
G01 X81.2041 Y34.9775 
G01 X81.1800 Y34.8874 
G01 X81.1800 Y34.7942 
G01 X81.2041 Y34.7042 
G01 X81.2507 Y34.6234 
G01 X81.3166 Y34.5575 
G01 X81.3974 Y34.5109 
G01 X81.4874 Y34.4868 
G01 X82.1969 Y34.4868 
G01 X82.1969 Y33.8390 
G01 X81.4874 Y33.8390 
G01 X81.3974 Y33.8149 
G01 X81.3166 Y33.7683 
G01 X81.2507 Y33.7023 
G01 X81.2041 Y33.6216 
G01 X81.1800 Y33.5316 
G01 X81.1800 Y33.4384 
G01 X81.2041 Y33.3483 
G01 X81.2507 Y33.2676 
G01 X81.3166 Y33.2017 
G01 X81.3974 Y33.1551 
G01 X81.4874 Y33.1310 
G01 X82.9364 Y33.1310 
G01 X83.0265 Y33.1551 
G01 X83.1072 Y33.2017 
G01 X83.1731 Y33.2676 
G01 X83.8510 Y33.9455 
G01 X83.8976 Y34.0263 
G01 X83.9217 Y34.1163 
G01 X83.9217 Y34.2095 
G01 X83.8976 Y34.2995 
G01 X83.8510 Y34.3803 
G01 X83.7851 Y34.4462 
G01 X83.1072 Y35.1241 
G01 X83.0265 Y35.1707 
G01 X82.9364 Y35.1948 
G01 X82.5043 Y35.1948 
G01 X81.4874 Y35.1948 
G00 Z2.0000 
G00 X81.4874 Y39.1644 
G01 Z-0.0250 F254.00 
G01 X82.0352 Y39.1644 F508.00 
G01 X81.2507 Y38.3799 
G01 X81.2041 Y38.2992 
G01 X81.1800 Y38.2092 
G01 X81.1800 Y38.1160 
G01 X81.2041 Y38.0259 
G01 X81.2507 Y37.9452 
G01 X81.3166 Y37.8793 
G01 X81.3974 Y37.8327 
G01 X81.4874 Y37.8086 
G01 X81.5806 Y37.8086 
G01 X81.6706 Y37.8327 
G01 X81.7514 Y37.8793 
G01 X82.5509 Y38.6788 
G01 X83.3504 Y37.8793 
G01 X83.4311 Y37.8327 
G01 X83.5211 Y37.8086 
G01 X83.6143 Y37.8086 
G01 X83.7044 Y37.8327 
G01 X83.7851 Y37.8793 
G01 X83.8510 Y37.9452 
G01 X83.8976 Y38.0259 
G01 X83.9217 Y38.1160 
G01 X83.9217 Y38.2092 
G01 X83.8976 Y38.2992 
G01 X83.8510 Y38.3799 
G01 X83.0665 Y39.1644 
G01 X83.6143 Y39.1644 
G01 X83.7044 Y39.1885 
G01 X83.7851 Y39.2351 
G01 X83.8510 Y39.3010 
G01 X83.8976 Y39.3818 
G01 X83.9217 Y39.4718 
G01 X83.9217 Y39.5650 
G01 X83.8976 Y39.6550 
G01 X83.8510 Y39.7358 
G01 X83.7851 Y39.8017 
G01 X83.7044 Y39.8483 
G01 X83.6143 Y39.8724 
G01 X81.4874 Y39.8724 
G01 X81.3974 Y39.8483 
G01 X81.3166 Y39.8017 
G01 X81.2507 Y39.7358 
G01 X81.2041 Y39.6550 
G01 X81.1800 Y39.5650 
G01 X81.1800 Y39.4718 
G01 X81.2041 Y39.3818 
G01 X81.2507 Y39.3010 
G01 X81.3166 Y39.2351 
G01 X81.3974 Y39.1885 
G01 X81.4874 Y39.1644 
G00 Z2.0000 
G00 X79.8043 Y24.3268 
G01 Z-0.0250 F254.00 
G01 X79.8944 Y24.3509 F508.00 
G01 X79.9751 Y24.3975 
G01 X80.0410 Y24.4635 
G01 X80.0876 Y24.5442 
G01 X80.1117 Y24.6342 
G01 X80.1117 Y24.7274 
G01 X80.0876 Y24.8175 
G01 X80.0410 Y24.8982 
G01 X79.9751 Y24.9641 
G01 X79.8944 Y25.0107 
G01 X79.8043 Y25.0348 
G01 X78.3553 Y25.0348 
G01 X78.2653 Y25.0107 
G01 X78.1846 Y24.9641 
G01 X77.5066 Y24.2862 
G01 X77.4407 Y24.2203 
G01 X77.3941 Y24.1395 
G01 X77.3700 Y24.0495 
G01 X77.3700 Y23.9563 
G01 X77.3941 Y23.8663 
G01 X77.4407 Y23.7855 
G01 X78.1186 Y23.1076 
G01 X78.1846 Y23.0417 
G01 X78.2653 Y22.9951 
G01 X78.3553 Y22.9710 
G01 X79.8043 Y22.9710 
G01 X79.8944 Y22.9951 
G01 X79.9751 Y23.0417 
G01 X80.0410 Y23.1076 
G01 X80.0876 Y23.1883 
G01 X80.1117 Y23.2784 
G01 X80.1117 Y23.3716 
G01 X80.0876 Y23.4616 
G01 X80.0410 Y23.5423 
G01 X79.9751 Y23.6083 
G01 X79.8944 Y23.6549 
G01 X79.8043 Y23.6790 
G01 X78.5485 Y23.6790 
G01 X78.2246 Y24.0029 
G01 X78.5485 Y24.3268 
G01 X79.8043 Y24.3268 
G00 Z2.0000 
G00 X79.8043 Y29.0044 
G01 Z-0.0250 F254.00 
G01 X79.8944 Y29.0285 F508.00 
G01 X79.9751 Y29.0751 
G01 X80.0410 Y29.1410 
G01 X80.0876 Y29.2218 
G01 X80.1117 Y29.3118 
G01 X80.1117 Y29.4050 
G01 X80.0876 Y29.4950 
G01 X80.0410 Y29.5758 
G01 X79.9751 Y29.6417 
G01 X79.8944 Y29.6883 
G01 X79.8043 Y29.7124 
G01 X78.0164 Y29.7124 
G01 X77.9263 Y29.6883 
G01 X77.8456 Y29.6417 
G01 X77.5066 Y29.3027 
G01 X77.4407 Y29.2368 
G01 X77.3941 Y29.1561 
G01 X77.3700 Y29.0661 
G01 X77.3700 Y28.2949 
G01 X77.3941 Y28.2049 
G01 X77.4407 Y28.1242 
G01 X77.7797 Y27.7852 
G01 X77.8456 Y27.7193 
G01 X77.9263 Y27.6727 
G01 X78.0164 Y27.6486 
G01 X79.8043 Y27.6486 
G01 X79.8944 Y27.6727 
G01 X79.9751 Y27.7193 
G01 X80.0410 Y27.7852 
G01 X80.0876 Y27.8659 
G01 X80.1117 Y27.9560 
G01 X80.1117 Y28.0492 
G01 X80.0876 Y28.1392 
G01 X80.0410 Y28.2199 
G01 X79.9751 Y28.2858 
G01 X79.8944 Y28.3325 
G01 X79.8043 Y28.3566 
G01 X78.2096 Y28.3566 
G01 X78.0780 Y28.4882 
G01 X78.0780 Y28.8728 
G01 X78.2096 Y29.0044 
G01 X79.8043 Y29.0044 
G00 Z2.0000 
G00 X79.1355 Y30.5587 
G01 Z-0.0250 F254.00 
G01 X79.0889 Y30.4780 F508.00 
G01 X79.0648 Y30.3880 
G01 X79.0648 Y30.2948 
G01 X79.0889 Y30.2047 
G01 X79.1355 Y30.1240 
G01 X79.2014 Y30.0581 
G01 X79.2821 Y30.0115 
G01 X79.3722 Y29.9874 
G01 X79.4654 Y29.9874 
G01 X79.5554 Y30.0115 
G01 X79.6361 Y30.0581 
G01 X79.9751 Y30.3971 
G01 X80.0410 Y30.4630 
G01 X80.0876 Y30.5437 
G01 X80.1117 Y30.6337 
G01 X80.1117 Y31.4049 
G01 X80.0876 Y31.4949 
G01 X80.0410 Y31.5756 
G01 X79.7020 Y31.9146 
G01 X79.6361 Y31.9805 
G01 X79.5554 Y32.0271 
G01 X79.4654 Y32.0512 
G01 X78.0164 Y32.0512 
G01 X77.9263 Y32.0271 
G01 X77.8456 Y31.9805 
G01 X77.5066 Y31.6415 
G01 X77.4407 Y31.5756 
G01 X77.3941 Y31.4949 
G01 X77.3700 Y31.4049 
G01 X77.3700 Y30.6337 
G01 X77.3941 Y30.5437 
G01 X77.4407 Y30.4630 
G01 X77.8456 Y30.0581 
G01 X77.9263 Y30.0115 
G01 X78.0164 Y29.9874 
G01 X78.1096 Y29.9874 
G01 X78.1996 Y30.0115 
G01 X78.2803 Y30.0581 
G01 X78.3462 Y30.1240 
G01 X78.3928 Y30.2047 
G01 X78.4170 Y30.2948 
G01 X78.4170 Y30.3880 
G01 X78.3928 Y30.4780 
G01 X78.3462 Y30.5587 
G01 X78.0780 Y30.8270 
G01 X78.0780 Y31.2116 
G01 X78.2096 Y31.3432 
G01 X79.2721 Y31.3432 
G01 X79.4037 Y31.2116 
G01 X79.4037 Y30.8270 
G01 X79.1355 Y30.5587 
G00 Z2.0000 
G00 X77.7706 Y34.3900 
G01 Z-0.0250 F254.00 
G01 X77.6774 Y34.3900 F508.00 
G01 X77.5874 Y34.3659 
G01 X77.5066 Y34.3193 
G01 X77.4407 Y34.2534 
G01 X77.3941 Y34.1726 
G01 X77.3700 Y34.0826 
G01 X77.3700 Y32.9725 
G01 X77.3941 Y32.8825 
G01 X77.4407 Y32.8018 
G01 X77.7797 Y32.4628 
G01 X77.8456 Y32.3969 
G01 X77.9263 Y32.3503 
G01 X78.0164 Y32.3262 
G01 X79.4654 Y32.3262 
G01 X79.5554 Y32.3503 
G01 X79.6361 Y32.3969 
G01 X79.9751 Y32.7359 
G01 X80.0410 Y32.8018 
G01 X80.0876 Y32.8825 
G01 X80.1117 Y32.9725 
G01 X80.1117 Y34.0826 
G01 X80.0876 Y34.1726 
G01 X80.0410 Y34.2534 
G01 X79.9751 Y34.3193 
G01 X79.8944 Y34.3659 
G01 X79.8043 Y34.3900 
G01 X79.7111 Y34.3900 
G01 X77.7706 Y34.3900 
G00 Z2.0000 
G00 X77.3700 Y21.2785 
G01 Z-0.0250 F254.00 
G01 X77.3941 Y21.1885 F508.00 
G01 X77.4407 Y21.1078 
G01 X77.5066 Y21.0419 
G01 X77.8456 Y20.7029 
G01 X77.9263 Y20.6563 
G01 X78.0164 Y20.6322 
G01 X79.4654 Y20.6322 
G01 X79.5554 Y20.6563 
G01 X79.6361 Y20.7029 
G01 X79.7020 Y20.7688 
G01 X80.0410 Y21.1078 
G01 X80.0876 Y21.1885 
G01 X80.1117 Y21.2785 
G01 X80.1117 Y22.0497 
G01 X80.0876 Y22.1397 
G01 X80.0410 Y22.2204 
G01 X79.9751 Y22.2863 
G01 X79.6361 Y22.6253 
G01 X79.5554 Y22.6719 
G01 X79.4654 Y22.6960 
G01 X78.0164 Y22.6960 
G01 X77.9263 Y22.6719 
G01 X77.8456 Y22.6253 
G01 X77.7797 Y22.5594 
G01 X77.4407 Y22.2204 
G01 X77.3941 Y22.1397 
G01 X77.3700 Y22.0497 
G01 X77.3700 Y21.9565 
G01 X77.3700 Y21.2785 
G00 Z2.0000 
G00 X82.9455 Y43.0575 
G01 Z-0.0250 F254.00 
G01 X82.8989 Y42.9768 F508.00 
G01 X82.8748 Y42.8868 
G01 X82.8748 Y42.7936 
G01 X82.8989 Y42.7035 
G01 X82.9455 Y42.6228 
G01 X83.0114 Y42.5569 
G01 X83.0921 Y42.5103 
G01 X83.1822 Y42.4862 
G01 X83.2754 Y42.4862 
G01 X83.3654 Y42.5103 
G01 X83.4461 Y42.5569 
G01 X83.7851 Y42.8959 
G01 X83.8510 Y42.9618 
G01 X83.8976 Y43.0425 
G01 X83.9217 Y43.1325 
G01 X83.9217 Y43.9036 
G01 X83.8976 Y43.9937 
G01 X83.8510 Y44.0744 
G01 X83.5121 Y44.4134 
G01 X83.4461 Y44.4793 
G01 X83.3654 Y44.5259 
G01 X83.2754 Y44.5500 
G01 X81.8264 Y44.5500 
G01 X81.7363 Y44.5259 
G01 X81.6556 Y44.4793 
G01 X81.3166 Y44.1403 
G01 X81.2507 Y44.0744 
G01 X81.2041 Y43.9937 
G01 X81.1800 Y43.9036 
G01 X81.1800 Y43.1325 
G01 X81.2041 Y43.0425 
G01 X81.2507 Y42.9618 
G01 X81.3166 Y42.8959 
G01 X81.6556 Y42.5569 
G01 X81.7363 Y42.5103 
G01 X81.8264 Y42.4862 
G01 X81.9196 Y42.4862 
G01 X82.0096 Y42.5103 
G01 X82.0903 Y42.5569 
G01 X82.1562 Y42.6228 
G01 X82.2028 Y42.7035 
G01 X82.2270 Y42.7936 
G01 X82.2270 Y42.8868 
G01 X82.2028 Y42.9768 
G01 X82.1562 Y43.0575 
G01 X81.8880 Y43.3258 
G01 X81.8880 Y43.7104 
G01 X82.0196 Y43.8420 
G01 X83.0821 Y43.8420 
G01 X83.2137 Y43.7104 
G01 X83.2137 Y43.3258 
G01 X82.9455 Y43.0575 
G00 Z2.0000 
G00 X83.6143 Y41.5032 
G01 Z-0.0250 F254.00 
G01 X83.7044 Y41.5273 F508.00 
G01 X83.7851 Y41.5739 
G01 X83.8510 Y41.6398 
G01 X83.8976 Y41.7206 
G01 X83.9217 Y41.8106 
G01 X83.9217 Y41.9038 
G01 X83.8976 Y41.9938 
G01 X83.8510 Y42.0746 
G01 X83.7851 Y42.1405 
G01 X83.7044 Y42.1871 
G01 X83.6143 Y42.2112 
G01 X81.4874 Y42.2112 
G01 X81.3974 Y42.1871 
G01 X81.3166 Y42.1405 
G01 X81.2507 Y42.0746 
G01 X81.2041 Y41.9938 
G01 X81.1800 Y41.9038 
G01 X81.1800 Y40.4548 
G01 X81.2041 Y40.3647 
G01 X81.2507 Y40.2840 
G01 X81.3166 Y40.2181 
G01 X81.3974 Y40.1715 
G01 X81.4874 Y40.1474 
G01 X81.5806 Y40.1474 
G01 X81.6706 Y40.1715 
G01 X81.7514 Y40.2181 
G01 X81.8173 Y40.2840 
G01 X81.8639 Y40.3647 
G01 X81.8880 Y40.4548 
G01 X81.8880 Y41.5032 
G01 X83.6143 Y41.5032 
G00 Z2.0000 
G00 X83.2137 Y26.4220 
G01 Z-0.0250 F254.00 
G01 X83.2379 Y26.3320 F508.00 
G01 X83.2845 Y26.2512 
G01 X83.3504 Y26.1853 
G01 X83.4311 Y26.1387 
G01 X83.5211 Y26.1146 
G01 X83.6143 Y26.1146 
G01 X83.7044 Y26.1387 
G01 X83.7851 Y26.1853 
G01 X83.8510 Y26.2512 
G01 X83.8976 Y26.3320 
G01 X83.9217 Y26.4220 
G01 X83.9217 Y27.8710 
G01 X83.8976 Y27.9611 
G01 X83.8510 Y28.0418 
G01 X83.7851 Y28.1077 
G01 X83.7044 Y28.1543 
G01 X83.6143 Y28.1784 
G01 X81.4874 Y28.1784 
G01 X81.3974 Y28.1543 
G01 X81.3166 Y28.1077 
G01 X81.2507 Y28.0418 
G01 X81.2041 Y27.9611 
G01 X81.1800 Y27.8710 
G01 X81.1800 Y26.4220 
G01 X81.2041 Y26.3320 
G01 X81.2507 Y26.2512 
G01 X81.3166 Y26.1853 
G01 X81.3974 Y26.1387 
G01 X81.4874 Y26.1146 
G01 X81.5806 Y26.1146 
G01 X81.6706 Y26.1387 
G01 X81.7514 Y26.1853 
G01 X81.8173 Y26.2512 
G01 X81.8639 Y26.3320 
G01 X81.8880 Y26.4220 
G01 X81.8880 Y27.4704 
G01 X82.1969 Y27.4704 
G01 X82.1969 Y27.0999 
G01 X82.2210 Y27.0099 
G01 X82.2676 Y26.9291 
G01 X82.3335 Y26.8632 
G01 X82.4142 Y26.8166 
G01 X82.5043 Y26.7925 
G01 X82.5975 Y26.7925 
G01 X82.6875 Y26.8166 
G01 X82.7682 Y26.8632 
G01 X82.8341 Y26.9291 
G01 X82.8807 Y27.0099 
G01 X82.9049 Y27.0999 
G01 X82.9049 Y27.4704 
G01 X83.2137 Y27.4704 
G01 X83.2137 Y26.4220 
G00 Z2.0000 
G00 X81.4874 Y21.1620 
G01 Z-0.0250 F254.00 
G01 X81.3974 Y21.1379 F508.00 
G01 X81.3166 Y21.0913 
G01 X81.2507 Y21.0254 
G01 X81.2041 Y20.9447 
G01 X81.1800 Y20.8546 
G01 X81.1800 Y19.7446 
G01 X81.2041 Y19.6545 
G01 X81.2507 Y19.5738 
G01 X81.3166 Y19.5079 
G01 X81.6556 Y19.1689 
G01 X81.7363 Y19.1223 
G01 X81.8264 Y19.0982 
G01 X82.2585 Y19.0982 
G01 X82.3486 Y19.1223 
G01 X82.4293 Y19.1689 
G01 X82.4952 Y19.2348 
G01 X82.5509 Y19.2905 
G01 X82.6065 Y19.2349 
G01 X82.6725 Y19.1689 
G01 X82.7532 Y19.1223 
G01 X82.8432 Y19.0982 
G01 X83.2754 Y19.0982 
G01 X83.3654 Y19.1223 
G01 X83.4461 Y19.1689 
G01 X83.5121 Y19.2348 
G01 X83.8510 Y19.5738 
G01 X83.8976 Y19.6545 
G01 X83.9217 Y19.7446 
G01 X83.9217 Y20.8546 
G01 X83.8976 Y20.9447 
G01 X83.8510 Y21.0254 
G01 X83.7851 Y21.0913 
G01 X83.7044 Y21.1379 
G01 X83.6143 Y21.1620 
G01 X83.5211 Y21.1620 
G01 X81.4874 Y21.1620 
G00 Z2.0000 
G00 X5.7800 Y43.6101 
G01 Z-0.0250 F254.00 
G01 X5.7800 Y44.4264 F508.00 
G01 X7.6416 Y46.2881 
G01 X7.7119 Y46.3584 
G01 X7.7500 Y46.4503 
G01 X7.7500 Y49.1464 
G01 X8.6036 Y50.0000 
G01 X17.0000 Y50.0000 
G01 X17.0000 Y45.1500 
G01 X16.9901 Y45.1500 
G01 X16.9534 Y45.1348 
G01 X16.9252 Y45.1066 
G01 X16.9100 Y45.0699 
G01 X16.9100 Y44.2636 
G01 X16.3584 Y43.7119 
G01 X16.2881 Y43.6416 
G01 X16.2500 Y43.5497 
G01 X16.2500 Y39.7003 
G01 X16.2881 Y39.6084 
G01 X16.5381 Y39.3584 
G01 X16.6084 Y39.2881 
G01 X16.7003 Y39.2500 
G01 X25.5000 Y39.2500 
G01 X25.5000 Y38.8000 
G01 X25.3501 Y38.8000 
G01 X25.3134 Y38.7848 
G01 X25.2852 Y38.7566 
G01 X25.2700 Y38.7199 
G01 X25.2700 Y37.4801 
G01 X25.2852 Y37.4434 
G01 X25.3134 Y37.4152 
G01 X25.3501 Y37.4000 
G01 X26.1899 Y37.4000 
G01 X26.2266 Y37.4152 
G01 X26.2548 Y37.4434 
G01 X26.2700 Y37.4801 
G01 X26.2700 Y38.1664 
G01 X27.4619 Y39.3584 
G01 X27.5000 Y39.4503 
G01 X27.5000 Y46.2017 
G01 X27.5416 Y46.2100 
G01 X27.6892 Y46.2711 
G01 X27.8221 Y46.3599 
G01 X27.9351 Y46.4729 
G01 X28.0239 Y46.6058 
G01 X28.0850 Y46.7534 
G01 X28.1162 Y46.9101 
G01 X28.1162 Y47.0699 
G01 X28.0850 Y47.2266 
G01 X28.0239 Y47.3742 
G01 X27.9351 Y47.5071 
G01 X27.8221 Y47.6201 
G01 X27.6892 Y47.7089 
G01 X27.5416 Y47.7700 
G01 X27.3849 Y47.8012 
G01 X27.2251 Y47.8012 
G01 X27.0684 Y47.7700 
G01 X26.9208 Y47.7089 
G01 X26.7879 Y47.6201 
G01 X26.6749 Y47.5071 
G01 X26.5861 Y47.3742 
G01 X26.5250 Y47.2266 
G01 X26.4938 Y47.0699 
G01 X26.4938 Y46.9101 
G01 X26.5250 Y46.7534 
G01 X26.5861 Y46.6058 
G01 X26.6749 Y46.4729 
G01 X26.7879 Y46.3599 
G01 X26.9208 Y46.2711 
G01 X27.0000 Y46.2383 
G01 X27.0000 Y39.6036 
G01 X26.1945 Y38.7981 
G01 X26.1899 Y38.8000 
G01 X26.0000 Y38.8000 
G01 X26.0000 Y39.5497 
G01 X25.9619 Y39.6416 
G01 X25.8916 Y39.7119 
G01 X25.7997 Y39.7500 
G01 X16.8536 Y39.7500 
G01 X16.7500 Y39.8536 
G01 X16.7500 Y43.3964 
G01 X17.1036 Y43.7500 
G01 X17.8299 Y43.7500 
G01 X17.8666 Y43.7652 
G01 X17.8948 Y43.7934 
G01 X17.9100 Y43.8301 
G01 X17.9100 Y45.0699 
G01 X17.8948 Y45.1066 
G01 X17.8666 Y45.1348 
G01 X17.8299 Y45.1500 
G01 X17.5000 Y45.1500 
G01 X17.5000 Y50.2997 
G01 X17.4619 Y50.3916 
G01 X17.3916 Y50.4619 
G01 X17.2997 Y50.5000 
G01 X8.4503 Y50.5000 
G01 X8.3584 Y50.4619 
G01 X8.2881 Y50.3916 
G01 X7.2881 Y49.3916 
G01 X7.2500 Y49.2997 
G01 X7.2500 Y46.6036 
G01 X5.5764 Y44.9300 
G01 X4.4601 Y44.9300 
G01 X4.4234 Y44.9148 
G01 X4.3952 Y44.8866 
G01 X4.3800 Y44.8499 
G01 X4.3800 Y43.7336 
G01 X3.8584 Y43.2119 
G01 X3.7881 Y43.1416 
G01 X3.7500 Y43.0497 
G01 X3.7500 Y41.2003 
G01 X3.7881 Y41.1084 
G01 X4.0381 Y40.8584 
G01 X4.1084 Y40.7881 
G01 X4.2003 Y40.7500 
G01 X9.0000 Y40.7500 
G01 X9.0000 Y26.1036 
G01 X8.8937 Y25.9972 
G01 X8.8762 Y26.0099 
G01 X8.7303 Y26.0842 
G01 X8.5747 Y26.1348 
G01 X8.4130 Y26.1604 
G01 X8.2494 Y26.1604 
G01 X8.0877 Y26.1348 
G01 X7.9321 Y26.0842 
G01 X7.7862 Y26.0099 
G01 X7.6538 Y25.9137 
G01 X7.5381 Y25.7980 
G01 X7.4419 Y25.6656 
G01 X7.3676 Y25.5197 
G01 X7.3170 Y25.3641 
G01 X7.2914 Y25.2024 
G01 X7.2914 Y25.0388 
G01 X7.3170 Y24.8771 
G01 X7.3676 Y24.7215 
G01 X7.4419 Y24.5756 
G01 X7.4546 Y24.5581 
G01 X6.5381 Y23.6416 
G01 X6.5000 Y23.5497 
G01 X6.5000 Y13.4503 
G01 X6.5381 Y13.3584 
G01 X6.6084 Y13.2881 
G01 X7.7094 Y12.1870 
G01 X7.5785 Y12.0996 
G01 X7.4584 Y11.9795 
G01 X7.3641 Y11.8383 
G01 X7.2991 Y11.6814 
G01 X7.2660 Y11.5149 
G01 X7.2660 Y11.3451 
G01 X7.2991 Y11.1786 
G01 X7.3641 Y11.0217 
G01 X7.4584 Y10.8805 
G01 X7.5785 Y10.7604 
G01 X7.7197 Y10.6661 
G01 X7.8766 Y10.6011 
G01 X8.0431 Y10.5680 
G01 X9.7369 Y10.5680 
G01 X9.9034 Y10.6011 
G01 X10.0603 Y10.6661 
G01 X10.2015 Y10.7604 
G01 X10.3216 Y10.8805 
G01 X10.4159 Y11.0217 
G01 X10.4809 Y11.1786 
G01 X10.5140 Y11.3451 
G01 X10.5140 Y11.5149 
G01 X10.4809 Y11.6814 
G01 X10.4159 Y11.8383 
G01 X10.3216 Y11.9795 
G01 X10.2015 Y12.0996 
G01 X10.0603 Y12.1939 
G01 X9.9034 Y12.2589 
G01 X9.7369 Y12.2920 
G01 X8.3116 Y12.2920 
G01 X7.0000 Y13.6036 
G01 X7.0000 Y23.3964 
G01 X7.8184 Y24.2149 
G01 X7.9321 Y24.1570 
G01 X8.0877 Y24.1064 
G01 X8.2494 Y24.0808 
G01 X8.4130 Y24.0808 
G01 X8.5747 Y24.1064 
G01 X8.7303 Y24.1570 
G01 X8.8762 Y24.2313 
G01 X9.0086 Y24.3275 
G01 X9.1243 Y24.4432 
G01 X9.2205 Y24.5756 
G01 X9.2948 Y24.7215 
G01 X9.3454 Y24.8771 
G01 X9.3710 Y25.0388 
G01 X9.3710 Y25.2024 
G01 X9.3454 Y25.3641 
G01 X9.2948 Y25.5197 
G01 X9.2369 Y25.6334 
G01 X9.4619 Y25.8584 
G01 X9.5000 Y25.9503 
G01 X9.5000 Y47.5600 
G01 X9.6799 Y47.5600 
G01 X9.7166 Y47.5752 
G01 X9.7448 Y47.6034 
G01 X9.7600 Y47.6401 
G01 X9.7600 Y48.8799 
G01 X9.7448 Y48.9166 
G01 X9.7166 Y48.9448 
G01 X9.6799 Y48.9600 
G01 X8.8401 Y48.9600 
G01 X8.8034 Y48.9448 
G01 X8.7752 Y48.9166 
G01 X8.7600 Y48.8799 
G01 X8.7600 Y47.6401 
G01 X8.7752 Y47.6034 
G01 X8.8034 Y47.5752 
G01 X8.8401 Y47.5600 
G01 X9.0000 Y47.5600 
G01 X9.0000 Y41.2500 
G01 X4.3536 Y41.2500 
G01 X4.2500 Y41.3536 
G01 X4.2500 Y42.8964 
G01 X4.8836 Y43.5300 
G01 X5.6999 Y43.5300 
G01 X5.7366 Y43.5452 
G01 X5.7648 Y43.5734 
G01 X5.7800 Y43.6101 
G00 Z2.0000 
G00 X1.6094 Y29.5418 
G01 Z-0.0250 F254.00 
G01 X3.4706 Y29.5418 F508.00 
G01 X3.6519 Y29.5779 
G01 X3.8226 Y29.6486 
G01 X3.9763 Y29.7513 
G01 X4.1069 Y29.8819 
G01 X4.2096 Y30.0356 
G01 X4.2803 Y30.2063 
G01 X4.3164 Y30.3876 
G01 X4.3164 Y30.5724 
G01 X4.2803 Y30.7537 
G01 X4.2096 Y30.9244 
G01 X4.1069 Y31.0781 
G01 X3.9763 Y31.2087 
G01 X3.8226 Y31.3114 
G01 X3.6519 Y31.3821 
G01 X3.4706 Y31.4182 
G01 X3.0000 Y31.4182 
G01 X3.0000 Y31.5000 
G01 X7.2750 Y31.5000 
G01 X7.2750 Y30.9951 
G01 X7.2902 Y30.9584 
G01 X7.3184 Y30.9302 
G01 X7.3551 Y30.9150 
G01 X8.6649 Y30.9150 
G01 X8.7016 Y30.9302 
G01 X8.7298 Y30.9584 
G01 X8.7450 Y30.9951 
G01 X8.7450 Y32.5049 
G01 X8.7298 Y32.5416 
G01 X8.7016 Y32.5698 
G01 X8.6649 Y32.5850 
G01 X7.3551 Y32.5850 
G01 X7.3184 Y32.5698 
G01 X7.2902 Y32.5416 
G01 X7.2750 Y32.5049 
G01 X7.2750 Y32.0000 
G01 X2.7003 Y32.0000 
G01 X2.6084 Y31.9619 
G01 X2.5381 Y31.8916 
G01 X2.5000 Y31.7997 
G01 X2.5000 Y31.4182 
G01 X1.6094 Y31.4182 
G01 X1.4281 Y31.3821 
G01 X1.2574 Y31.3114 
G01 X1.1037 Y31.2087 
G01 X0.9731 Y31.0781 
G01 X0.8704 Y30.9244 
G01 X0.7997 Y30.7537 
G01 X0.7636 Y30.5724 
G01 X0.7636 Y30.3876 
G01 X0.7997 Y30.2063 
G01 X0.8704 Y30.0356 
G01 X0.9731 Y29.8819 
G01 X1.1037 Y29.7513 
G01 X1.2574 Y29.6486 
G01 X1.4281 Y29.5779 
G01 X1.6094 Y29.5418 
G00 Z2.0000 
G00 X1.6094 Y33.3518 
G01 Z-0.0250 F254.00 
G01 X3.4706 Y33.3518 F508.00 
G01 X3.6519 Y33.3879 
G01 X3.8226 Y33.4586 
G01 X3.9763 Y33.5613 
G01 X4.1069 Y33.6919 
G01 X4.2096 Y33.8456 
G01 X4.2803 Y34.0163 
G01 X4.3164 Y34.1976 
G01 X4.3164 Y34.3824 
G01 X4.2803 Y34.5637 
G01 X4.2096 Y34.7344 
G01 X4.1069 Y34.8881 
G01 X3.9763 Y35.0187 
G01 X3.8226 Y35.1214 
G01 X3.6519 Y35.1921 
G01 X3.4706 Y35.2282 
G01 X1.6094 Y35.2282 
G01 X1.4281 Y35.1921 
G01 X1.2574 Y35.1214 
G01 X1.1037 Y35.0187 
G01 X0.9731 Y34.8881 
G01 X0.8704 Y34.7344 
G01 X0.7997 Y34.5637 
G01 X0.7636 Y34.3824 
G01 X0.7636 Y34.1976 
G01 X0.7997 Y34.0163 
G01 X0.8704 Y33.8456 
G01 X0.9731 Y33.6919 
G01 X1.1037 Y33.5613 
G01 X1.2574 Y33.4586 
G01 X1.4281 Y33.3879 
G01 X1.6094 Y33.3518 
G00 Z2.0000 
G00 X1.6094 Y37.1618 
G01 Z-0.0250 F254.00 
G01 X3.4706 Y37.1618 F508.00 
G01 X3.6519 Y37.1979 
G01 X3.8226 Y37.2686 
G01 X3.9763 Y37.3713 
G01 X4.1069 Y37.5019 
G01 X4.2096 Y37.6556 
G01 X4.2803 Y37.8263 
G01 X4.3164 Y38.0076 
G01 X4.3164 Y38.1924 
G01 X4.2803 Y38.3737 
G01 X4.2096 Y38.5444 
G01 X4.1069 Y38.6981 
G01 X3.9763 Y38.8287 
G01 X3.8226 Y38.9314 
G01 X3.6519 Y39.0021 
G01 X3.4706 Y39.0382 
G01 X1.6094 Y39.0382 
G01 X1.4281 Y39.0021 
G01 X1.2574 Y38.9314 
G01 X1.1037 Y38.8287 
G01 X0.9731 Y38.6981 
G01 X0.8704 Y38.5444 
G01 X0.7997 Y38.3737 
G01 X0.7636 Y38.1924 
G01 X0.7636 Y38.0076 
G01 X0.7997 Y37.8263 
G01 X0.8704 Y37.6556 
G01 X0.9731 Y37.5019 
G01 X1.1037 Y37.3713 
G01 X1.2574 Y37.2686 
G01 X1.4281 Y37.1979 
G01 X1.6094 Y37.1618 
G00 Z2.0000 
G00 X11.5600 Y48.2936 
G01 Z-0.0250 F254.00 
G01 X11.5600 Y48.8799 F508.00 
G01 X11.5448 Y48.9166 
G01 X11.5166 Y48.9448 
G01 X11.4799 Y48.9600 
G01 X10.6401 Y48.9600 
G01 X10.6034 Y48.9448 
G01 X10.5752 Y48.9166 
G01 X10.5600 Y48.8799 
G01 X10.5600 Y47.6401 
G01 X10.5752 Y47.6034 
G01 X10.6034 Y47.5752 
G01 X10.6401 Y47.5600 
G01 X11.2500 Y47.5600 
G01 X11.2500 Y32.4503 
G01 X11.2881 Y32.3584 
G01 X11.5750 Y32.0714 
G01 X11.5750 Y30.9951 
G01 X11.5902 Y30.9584 
G01 X11.6184 Y30.9302 
G01 X11.6551 Y30.9150 
G01 X12.2500 Y30.9150 
G01 X12.2500 Y26.3400 
G01 X11.0801 Y26.3400 
G01 X11.0434 Y26.3248 
G01 X11.0152 Y26.2966 
G01 X11.0000 Y26.2599 
G01 X11.0000 Y24.4401 
G01 X11.0152 Y24.4034 
G01 X11.0434 Y24.3752 
G01 X11.0801 Y24.3600 
G01 X13.2864 Y24.3600 
G01 X14.5000 Y23.1464 
G01 X14.5000 Y5.2003 
G01 X14.5381 Y5.1084 
G01 X14.6084 Y5.0381 
G01 X14.7003 Y5.0000 
G01 X38.5080 Y5.0000 
G01 X38.5080 Y4.2331 
G01 X38.5411 Y4.0666 
G01 X38.6061 Y3.9097 
G01 X38.7004 Y3.7685 
G01 X38.8205 Y3.6484 
G01 X38.9617 Y3.5541 
G01 X39.1186 Y3.4891 
G01 X39.2851 Y3.4560 
G01 X39.4549 Y3.4560 
G01 X39.6214 Y3.4891 
G01 X39.7783 Y3.5541 
G01 X39.9195 Y3.6484 
G01 X40.0396 Y3.7685 
G01 X40.1339 Y3.9097 
G01 X40.1989 Y4.0666 
G01 X40.2320 Y4.2331 
G01 X40.2320 Y5.9269 
G01 X40.1989 Y6.0934 
G01 X40.1339 Y6.2503 
G01 X40.0396 Y6.3915 
G01 X39.9195 Y6.5116 
G01 X39.7783 Y6.6059 
G01 X39.6214 Y6.6709 
G01 X39.4549 Y6.7040 
G01 X39.2851 Y6.7040 
G01 X39.1186 Y6.6709 
G01 X38.9617 Y6.6059 
G01 X38.8205 Y6.5116 
G01 X38.7004 Y6.3915 
G01 X38.6061 Y6.2503 
G01 X38.5411 Y6.0934 
G01 X38.5080 Y5.9269 
G01 X38.5080 Y5.5000 
G01 X15.0000 Y5.5000 
G01 X15.0000 Y23.2997 
G01 X14.9619 Y23.3916 
G01 X13.9935 Y24.3600 
G01 X14.3199 Y24.3600 
G01 X14.3566 Y24.3752 
G01 X14.3848 Y24.4034 
G01 X14.4000 Y24.4401 
G01 X14.4000 Y26.2599 
G01 X14.3848 Y26.2966 
G01 X14.3566 Y26.3248 
G01 X14.3199 Y26.3400 
G01 X12.7500 Y26.3400 
G01 X12.7500 Y30.9150 
G01 X12.9649 Y30.9150 
G01 X13.0016 Y30.9302 
G01 X13.0298 Y30.9584 
G01 X13.0450 Y30.9951 
G01 X13.0450 Y32.5049 
G01 X13.0298 Y32.5416 
G01 X13.0016 Y32.5698 
G01 X12.9649 Y32.5850 
G01 X11.7686 Y32.5850 
G01 X11.7500 Y32.6036 
G01 X11.7500 Y48.0497 
G01 X11.7119 Y48.1416 
G01 X11.6416 Y48.2119 
G01 X11.5600 Y48.2936 
G00 Z2.0000 
G00 X12.0801 Y42.3100 
G01 Z-0.0250 F254.00 
G01 X13.3199 Y42.3100 F508.00 
G01 X13.3566 Y42.3252 
G01 X13.3848 Y42.3534 
G01 X13.4000 Y42.3901 
G01 X13.4000 Y43.2299 
G01 X13.3848 Y43.2666 
G01 X13.3566 Y43.2948 
G01 X13.3199 Y43.3100 
G01 X12.7500 Y43.3100 
G01 X12.7500 Y49.5497 
G01 X12.7119 Y49.6416 
G01 X12.6416 Y49.7119 
G01 X12.5497 Y49.7500 
G01 X8.7003 Y49.7500 
G01 X8.6084 Y49.7119 
G01 X8.5381 Y49.6416 
G01 X8.0381 Y49.1416 
G01 X8.0000 Y49.0497 
G01 X8.0000 Y45.3536 
G01 X5.4764 Y42.8300 
G01 X4.4601 Y42.8300 
G01 X4.4234 Y42.8148 
G01 X4.3952 Y42.7866 
G01 X4.3800 Y42.7499 
G01 X4.3800 Y41.5101 
G01 X4.3952 Y41.4734 
G01 X4.4234 Y41.4452 
G01 X4.4601 Y41.4300 
G01 X5.6999 Y41.4300 
G01 X5.7366 Y41.4452 
G01 X5.7648 Y41.4734 
G01 X5.7800 Y41.5101 
G01 X5.7800 Y42.4264 
G01 X8.3916 Y45.0381 
G01 X8.4619 Y45.1084 
G01 X8.5000 Y45.2003 
G01 X8.5000 Y48.8964 
G01 X8.8536 Y49.2500 
G01 X12.2500 Y49.2500 
G01 X12.2500 Y43.3100 
G01 X12.0801 Y43.3100 
G01 X12.0434 Y43.2948 
G01 X12.0152 Y43.2666 
G01 X12.0000 Y43.2299 
G01 X12.0000 Y42.3901 
G01 X12.0152 Y42.3534 
G01 X12.0434 Y42.3252 
G01 X12.0801 Y42.3100 
G00 Z2.0000 
G00 X43.3562 Y44.3701 
G01 Z-0.0250 F254.00 
G01 X43.3562 Y44.5299 F508.00 
G01 X43.3250 Y44.6866 
G01 X43.2639 Y44.8342 
G01 X43.1751 Y44.9671 
G01 X43.0621 Y45.0801 
G01 X42.9292 Y45.1689 
G01 X42.7816 Y45.2300 
G01 X42.6249 Y45.2612 
G01 X42.4651 Y45.2612 
G01 X42.3084 Y45.2300 
G01 X42.1608 Y45.1689 
G01 X42.0279 Y45.0801 
G01 X41.9149 Y44.9671 
G01 X41.8261 Y44.8342 
G01 X41.7650 Y44.6866 
G01 X41.7338 Y44.5299 
G01 X41.7338 Y44.3701 
G01 X41.7650 Y44.2134 
G01 X41.8261 Y44.0658 
G01 X41.9149 Y43.9329 
G01 X42.0279 Y43.8199 
G01 X42.1608 Y43.7311 
G01 X42.3084 Y43.6700 
G01 X42.4651 Y43.6388 
G01 X42.6249 Y43.6388 
G01 X42.7816 Y43.6700 
G01 X42.9292 Y43.7311 
G01 X43.0621 Y43.8199 
G01 X43.1751 Y43.9329 
G01 X43.2639 Y44.0658 
G01 X43.3250 Y44.2134 
G01 X43.3562 Y44.3701 
G00 Z2.0000 
G00 X40.8162 Y44.3701 
G01 Z-0.0250 F254.00 
G01 X40.8162 Y44.5299 F508.00 
G01 X40.7850 Y44.6866 
G01 X40.7239 Y44.8342 
G01 X40.6351 Y44.9671 
G01 X40.5221 Y45.0801 
G01 X40.3892 Y45.1689 
G01 X40.2416 Y45.2300 
G01 X40.0849 Y45.2612 
G01 X39.9251 Y45.2612 
G01 X39.7684 Y45.2300 
G01 X39.6208 Y45.1689 
G01 X39.4879 Y45.0801 
G01 X39.3749 Y44.9671 
G01 X39.2861 Y44.8342 
G01 X39.2250 Y44.6866 
G01 X39.1938 Y44.5299 
G01 X39.1938 Y44.3701 
G01 X39.2250 Y44.2134 
G01 X39.2861 Y44.0658 
G01 X39.3749 Y43.9329 
G01 X39.4879 Y43.8199 
G01 X39.6208 Y43.7311 
G01 X39.7684 Y43.6700 
G01 X39.9251 Y43.6388 
G01 X40.0849 Y43.6388 
G01 X40.2416 Y43.6700 
G01 X40.3892 Y43.7311 
G01 X40.5221 Y43.8199 
G01 X40.6351 Y43.9329 
G01 X40.7239 Y44.0658 
G01 X40.7850 Y44.2134 
G01 X40.8162 Y44.3701 
G00 Z2.0000 
G00 X60.5901 Y42.8072 
G01 Z-0.0250 F254.00 
G01 X60.5901 Y43.5528 F508.00 
G01 X60.0628 Y44.0801 
G01 X59.3172 Y44.0801 
G01 X58.7899 Y43.5528 
G01 X58.7899 Y42.8072 
G01 X59.3172 Y42.2799 
G01 X59.5000 Y42.2799 
G01 X59.5000 Y41.5401 
G01 X59.3172 Y41.5401 
G01 X58.7899 Y41.0128 
G01 X58.7899 Y40.2672 
G01 X59.3172 Y39.7399 
G01 X60.0628 Y39.7399 
G01 X60.5901 Y40.2672 
G01 X60.5901 Y41.0128 
G01 X60.1032 Y41.4997 
G01 X63.6236 Y45.0200 
G01 X64.2899 Y45.0200 
G01 X64.3266 Y45.0352 
G01 X64.3548 Y45.0634 
G01 X64.3700 Y45.1001 
G01 X64.3700 Y45.7664 
G01 X64.6416 Y46.0381 
G01 X64.7119 Y46.1084 
G01 X64.7500 Y46.2003 
G01 X64.7500 Y50.2000 
G01 X65.3199 Y50.2000 
G01 X65.3566 Y50.2152 
G01 X65.3848 Y50.2434 
G01 X65.4000 Y50.2801 
G01 X65.4000 Y51.3199 
G01 X65.3848 Y51.3566 
G01 X65.3566 Y51.3848 
G01 X65.3199 Y51.4000 
G01 X63.8801 Y51.4000 
G01 X63.8434 Y51.3848 
G01 X63.8152 Y51.3566 
G01 X63.8000 Y51.3199 
G01 X63.8000 Y50.2801 
G01 X63.8152 Y50.2434 
G01 X63.8434 Y50.2152 
G01 X63.8801 Y50.2000 
G01 X64.2500 Y50.2000 
G01 X64.2500 Y46.4200 
G01 X63.4501 Y46.4200 
G01 X63.4134 Y46.4048 
G01 X63.3852 Y46.3766 
G01 X63.3700 Y46.3399 
G01 X63.3700 Y45.4736 
G01 X60.0000 Y42.1035 
G01 X60.0000 Y42.2799 
G01 X60.0628 Y42.2799 
G01 X60.5901 Y42.8072 
G00 Z2.0000 
G00 X60.5901 Y45.3472 
G01 Z-0.0250 F254.00 
G01 X60.5901 Y46.0928 F508.00 
G01 X60.0628 Y46.6201 
G01 X59.7500 Y46.6201 
G01 X59.7500 Y47.5497 
G01 X59.7119 Y47.6416 
G01 X59.6416 Y47.7119 
G01 X58.4619 Y48.8916 
G01 X58.3916 Y48.9619 
G01 X57.8500 Y49.5036 
G01 X57.8500 Y50.3199 
G01 X57.8348 Y50.3566 
G01 X57.8066 Y50.3848 
G01 X57.7699 Y50.4000 
G01 X56.5301 Y50.4000 
G01 X56.4934 Y50.3848 
G01 X56.4652 Y50.3566 
G01 X56.4500 Y50.3199 
G01 X56.4500 Y49.4801 
G01 X56.4652 Y49.4434 
G01 X56.4934 Y49.4152 
G01 X56.5301 Y49.4000 
G01 X57.2464 Y49.4000 
G01 X58.0000 Y48.6464 
G01 X58.0000 Y24.1543 
G01 X57.9353 Y24.1110 
G01 X57.8294 Y24.0051 
G01 X57.7461 Y23.8806 
G01 X57.6888 Y23.7422 
G01 X57.6596 Y23.5953 
G01 X57.6596 Y22.1247 
G01 X57.6888 Y21.9778 
G01 X57.7461 Y21.8394 
G01 X57.8294 Y21.7149 
G01 X57.9353 Y21.6090 
G01 X58.0598 Y21.5257 
G01 X58.1982 Y21.4684 
G01 X58.3451 Y21.4392 
G01 X58.4949 Y21.4392 
G01 X58.6418 Y21.4684 
G01 X58.7802 Y21.5257 
G01 X58.9047 Y21.6090 
G01 X59.0106 Y21.7149 
G01 X59.0939 Y21.8394 
G01 X59.1512 Y21.9778 
G01 X59.1804 Y22.1247 
G01 X59.1804 Y23.5953 
G01 X59.1512 Y23.7422 
G01 X59.0939 Y23.8806 
G01 X59.0106 Y24.0051 
G01 X58.9047 Y24.1110 
G01 X58.7802 Y24.1943 
G01 X58.6418 Y24.2516 
G01 X58.5000 Y24.2798 
G01 X58.5000 Y48.1465 
G01 X59.2500 Y47.3964 
G01 X59.2500 Y46.5529 
G01 X58.7899 Y46.0928 
G01 X58.7899 Y45.3472 
G01 X59.3172 Y44.8199 
G01 X60.0628 Y44.8199 
G01 X60.5901 Y45.3472 
G00 Z2.0000 
G00 X52.9701 Y45.3472 
G01 Z-0.0250 F254.00 
G01 X52.9701 Y46.0928 F508.00 
G01 X52.4428 Y46.6201 
G01 X52.2500 Y46.6201 
G01 X52.2500 Y49.4000 
G01 X52.6899 Y49.4000 
G01 X52.7266 Y49.4152 
G01 X52.7548 Y49.4434 
G01 X52.7700 Y49.4801 
G01 X52.7700 Y50.3199 
G01 X52.7548 Y50.3566 
G01 X52.7266 Y50.3848 
G01 X52.6899 Y50.4000 
G01 X52.5000 Y50.4000 
G01 X52.5000 Y50.5000 
G01 X57.8964 Y50.5000 
G01 X58.0000 Y50.3964 
G01 X58.0000 Y49.9503 
G01 X58.0381 Y49.8584 
G01 X58.1084 Y49.7881 
G01 X58.2003 Y49.7500 
G01 X61.6000 Y49.7500 
G01 X61.6000 Y49.3301 
G01 X61.6152 Y49.2934 
G01 X61.6434 Y49.2652 
G01 X61.6801 Y49.2500 
G01 X63.1199 Y49.2500 
G01 X63.1566 Y49.2652 
G01 X63.1848 Y49.2934 
G01 X63.2000 Y49.3301 
G01 X63.2000 Y50.3699 
G01 X63.1848 Y50.4066 
G01 X63.1566 Y50.4348 
G01 X63.1199 Y50.4500 
G01 X61.6801 Y50.4500 
G01 X61.6434 Y50.4348 
G01 X61.6152 Y50.4066 
G01 X61.6000 Y50.3699 
G01 X61.6000 Y50.2500 
G01 X58.5000 Y50.2500 
G01 X58.5000 Y50.5497 
G01 X58.4619 Y50.6416 
G01 X58.2119 Y50.8916 
G01 X58.1416 Y50.9619 
G01 X58.0497 Y51.0000 
G01 X52.2003 Y51.0000 
G01 X52.1084 Y50.9619 
G01 X52.0381 Y50.8916 
G01 X52.0000 Y50.7997 
G01 X52.0000 Y50.4000 
G01 X51.4501 Y50.4000 
G01 X51.4134 Y50.3848 
G01 X51.3852 Y50.3566 
G01 X51.3700 Y50.3199 
G01 X51.3700 Y49.4801 
G01 X51.3852 Y49.4434 
G01 X51.4134 Y49.4152 
G01 X51.4501 Y49.4000 
G01 X51.7500 Y49.4000 
G01 X51.7500 Y46.6201 
G01 X51.6972 Y46.6201 
G01 X51.1699 Y46.0928 
G01 X51.1699 Y45.3472 
G01 X51.3318 Y45.1853 
G01 X50.5381 Y44.3916 
G01 X50.5000 Y44.2997 
G01 X50.5000 Y41.3536 
G01 X48.6464 Y39.5000 
G01 X47.6401 Y39.5000 
G01 X47.6034 Y39.4848 
G01 X47.5752 Y39.4566 
G01 X47.5600 Y39.4199 
G01 X47.5600 Y39.2500 
G01 X45.1500 Y39.2500 
G01 X45.1500 Y39.4199 
G01 X45.1348 Y39.4566 
G01 X45.1066 Y39.4848 
G01 X45.0699 Y39.5000 
G01 X43.8301 Y39.5000 
G01 X43.7934 Y39.4848 
G01 X43.7652 Y39.4566 
G01 X43.7500 Y39.4199 
G01 X43.7500 Y39.2500 
G01 X41.5000 Y39.2500 
G01 X41.5000 Y46.2077 
G01 X41.5116 Y46.2100 
G01 X41.6592 Y46.2711 
G01 X41.7921 Y46.3599 
G01 X41.9051 Y46.4729 
G01 X41.9939 Y46.6058 
G01 X42.0550 Y46.7534 
G01 X42.0862 Y46.9101 
G01 X42.0862 Y47.0699 
G01 X42.0550 Y47.2266 
G01 X41.9939 Y47.3742 
G01 X41.9051 Y47.5071 
G01 X41.7921 Y47.6201 
G01 X41.6592 Y47.7089 
G01 X41.5116 Y47.7700 
G01 X41.3549 Y47.8012 
G01 X41.1951 Y47.8012 
G01 X41.0384 Y47.7700 
G01 X40.8908 Y47.7089 
G01 X40.7579 Y47.6201 
G01 X40.6449 Y47.5071 
G01 X40.5561 Y47.3742 
G01 X40.4950 Y47.2266 
G01 X40.4638 Y47.0699 
G01 X40.4638 Y46.9101 
G01 X40.4950 Y46.7534 
G01 X40.5561 Y46.6058 
G01 X40.6449 Y46.4729 
G01 X40.7579 Y46.3599 
G01 X40.8908 Y46.2711 
G01 X41.0000 Y46.2259 
G01 X41.0000 Y39.5000 
G01 X40.0201 Y39.5000 
G01 X39.9834 Y39.4848 
G01 X39.9552 Y39.4566 
G01 X39.9400 Y39.4199 
G01 X39.9400 Y38.5801 
G01 X39.9552 Y38.5434 
G01 X39.9834 Y38.5152 
G01 X40.0201 Y38.5000 
G01 X41.2599 Y38.5000 
G01 X41.2966 Y38.5152 
G01 X41.3248 Y38.5434 
G01 X41.3400 Y38.5801 
G01 X41.3400 Y38.7500 
G01 X43.7500 Y38.7500 
G01 X43.7500 Y38.5801 
G01 X43.7652 Y38.5434 
G01 X43.7934 Y38.5152 
G01 X43.8301 Y38.5000 
G01 X45.0699 Y38.5000 
G01 X45.1066 Y38.5152 
G01 X45.1348 Y38.5434 
G01 X45.1500 Y38.5801 
G01 X45.1500 Y38.7500 
G01 X45.5000 Y38.7500 
G01 X45.5000 Y24.2519 
G01 X45.3598 Y24.1943 
G01 X45.2353 Y24.1110 
G01 X45.1294 Y24.0051 
G01 X45.0461 Y23.8806 
G01 X44.9888 Y23.7422 
G01 X44.9596 Y23.5953 
G01 X44.9596 Y22.1247 
G01 X44.9888 Y21.9778 
G01 X45.0461 Y21.8394 
G01 X45.1294 Y21.7149 
G01 X45.2353 Y21.6090 
G01 X45.3598 Y21.5257 
G01 X45.4982 Y21.4684 
G01 X45.6451 Y21.4392 
G01 X45.7949 Y21.4392 
G01 X45.9418 Y21.4684 
G01 X46.0802 Y21.5257 
G01 X46.2047 Y21.6090 
G01 X46.3106 Y21.7149 
G01 X46.3591 Y21.7874 
G01 X47.5000 Y20.6464 
G01 X47.5000 Y15.9773 
G01 X47.4996 Y14.5047 
G01 X47.5288 Y14.3578 
G01 X47.5861 Y14.2194 
G01 X47.6694 Y14.0949 
G01 X47.7753 Y13.9890 
G01 X47.8998 Y13.9057 
G01 X48.0000 Y13.8642 
G01 X48.0000 Y6.6036 
G01 X47.7110 Y6.3145 
G01 X47.6596 Y6.3915 
G01 X47.5395 Y6.5116 
G01 X47.3983 Y6.6059 
G01 X47.2414 Y6.6709 
G01 X47.0749 Y6.7040 
G01 X46.9051 Y6.7040 
G01 X46.7386 Y6.6709 
G01 X46.5817 Y6.6059 
G01 X46.4405 Y6.5116 
G01 X46.3204 Y6.3915 
G01 X46.2261 Y6.2503 
G01 X46.1611 Y6.0934 
G01 X46.1280 Y5.9269 
G01 X46.1280 Y5.5000 
G01 X45.3120 Y5.5000 
G01 X45.3120 Y5.9269 
G01 X45.2789 Y6.0934 
G01 X45.2139 Y6.2503 
G01 X45.1196 Y6.3915 
G01 X44.9995 Y6.5116 
G01 X44.8583 Y6.6059 
G01 X44.7014 Y6.6709 
G01 X44.5349 Y6.7040 
G01 X44.3651 Y6.7040 
G01 X44.1986 Y6.6709 
G01 X44.0417 Y6.6059 
G01 X43.9005 Y6.5116 
G01 X43.7804 Y6.3915 
G01 X43.6861 Y6.2503 
G01 X43.6211 Y6.0934 
G01 X43.5880 Y5.9269 
G01 X43.5880 Y4.2331 
G01 X43.6211 Y4.0666 
G01 X43.6861 Y3.9097 
G01 X43.7804 Y3.7685 
G01 X43.9005 Y3.6484 
G01 X44.0417 Y3.5541 
G01 X44.1986 Y3.4891 
G01 X44.3651 Y3.4560 
G01 X44.5349 Y3.4560 
G01 X44.7014 Y3.4891 
G01 X44.8583 Y3.5541 
G01 X44.9995 Y3.6484 
G01 X45.1196 Y3.7685 
G01 X45.2139 Y3.9097 
G01 X45.2789 Y4.0666 
G01 X45.3120 Y4.2331 
G01 X45.3120 Y5.0000 
G01 X46.1280 Y5.0000 
G01 X46.1280 Y4.2331 
G01 X46.1611 Y4.0666 
G01 X46.2261 Y3.9097 
G01 X46.3204 Y3.7685 
G01 X46.4405 Y3.6484 
G01 X46.5817 Y3.5541 
G01 X46.7386 Y3.4891 
G01 X46.9051 Y3.4560 
G01 X47.0749 Y3.4560 
G01 X47.2414 Y3.4891 
G01 X47.3983 Y3.5541 
G01 X47.5395 Y3.6484 
G01 X47.6596 Y3.7685 
G01 X47.7539 Y3.9097 
G01 X47.8189 Y4.0666 
G01 X47.8520 Y4.2331 
G01 X47.8520 Y5.7484 
G01 X48.3916 Y6.2881 
G01 X48.4619 Y6.3584 
G01 X48.5000 Y6.4503 
G01 X48.5000 Y13.8560 
G01 X48.6202 Y13.9057 
G01 X48.7447 Y13.9890 
G01 X48.8506 Y14.0949 
G01 X48.9339 Y14.2194 
G01 X48.9912 Y14.3578 
G01 X49.0204 Y14.5047 
G01 X49.0204 Y15.9753 
G01 X48.9912 Y16.1222 
G01 X48.9339 Y16.2606 
G01 X48.8506 Y16.3851 
G01 X48.7447 Y16.4910 
G01 X48.6202 Y16.5743 
G01 X48.4818 Y16.6316 
G01 X48.3349 Y16.6608 
G01 X48.1851 Y16.6608 
G01 X48.0382 Y16.6316 
G01 X48.0000 Y16.6158 
G01 X48.0000 Y20.7997 
G01 X47.9619 Y20.8916 
G01 X47.8916 Y20.9619 
G01 X46.4804 Y22.3732 
G01 X46.4804 Y23.5953 
G01 X46.4512 Y23.7422 
G01 X46.3939 Y23.8806 
G01 X46.3106 Y24.0051 
G01 X46.2047 Y24.1110 
G01 X46.0802 Y24.1943 
G01 X46.0000 Y24.2275 
G01 X46.0000 Y38.7500 
G01 X47.5600 Y38.7500 
G01 X47.5600 Y38.5801 
G01 X47.5752 Y38.5434 
G01 X47.6034 Y38.5152 
G01 X47.6401 Y38.5000 
G01 X48.8799 Y38.5000 
G01 X48.9166 Y38.5152 
G01 X48.9448 Y38.5434 
G01 X48.9600 Y38.5801 
G01 X48.9600 Y39.1064 
G01 X50.8916 Y41.0381 
G01 X50.9619 Y41.1084 
G01 X51.0000 Y41.2003 
G01 X51.0000 Y44.1464 
G01 X51.6853 Y44.8318 
G01 X51.6972 Y44.8199 
G01 X52.4428 Y44.8199 
G01 X52.9701 Y45.3472 
G00 Z2.0000 
G00 X52.9701 Y42.8072 
G01 Z-0.0250 F254.00 
G01 X52.9701 Y43.5528 F508.00 
G01 X52.4428 Y44.0801 
G01 X51.6972 Y44.0801 
G01 X51.1699 Y43.5528 
G01 X51.1699 Y42.8072 
G01 X51.6972 Y42.2799 
G01 X52.4428 Y42.2799 
G01 X52.9701 Y42.8072 
G00 Z2.0000 
G00 X52.9701 Y40.2672 
G01 Z-0.0250 F254.00 
G01 X52.9701 Y41.0128 F508.00 
G01 X52.4428 Y41.5401 
G01 X51.6972 Y41.5401 
G01 X51.1699 Y41.0128 
G01 X51.1699 Y40.2672 
G01 X51.6972 Y39.7399 
G01 X52.4428 Y39.7399 
G01 X52.9701 Y40.2672 
G00 Z2.0000 
G00 X52.9701 Y37.7272 
G01 Z-0.0250 F254.00 
G01 X52.9701 Y38.4728 F508.00 
G01 X52.4428 Y39.0001 
G01 X51.6972 Y39.0001 
G01 X51.1699 Y38.4728 
G01 X51.1699 Y37.7272 
G01 X51.6972 Y37.1999 
G01 X52.4428 Y37.1999 
G01 X52.9701 Y37.7272 
G00 Z2.0000 
G00 X15.1100 Y41.2599 
G01 Z-0.0250 F254.00 
G01 X15.1100 Y41.0000 F508.00 
G01 X13.4000 Y41.0000 
G01 X13.4000 Y41.4299 
G01 X13.3848 Y41.4666 
G01 X13.3566 Y41.4948 
G01 X13.3199 Y41.5100 
G01 X12.0801 Y41.5100 
G01 X12.0434 Y41.4948 
G01 X12.0152 Y41.4666 
G01 X12.0000 Y41.4299 
G01 X12.0000 Y40.5901 
G01 X12.0152 Y40.5534 
G01 X12.0434 Y40.5252 
G01 X12.0801 Y40.5100 
G01 X12.2500 Y40.5100 
G01 X12.2500 Y37.5300 
G01 X11.9101 Y37.5300 
G01 X11.8734 Y37.5148 
G01 X11.8452 Y37.4866 
G01 X11.8300 Y37.4499 
G01 X11.8300 Y36.2101 
G01 X11.8452 Y36.1734 
G01 X11.8734 Y36.1452 
G01 X11.9101 Y36.1300 
G01 X12.7499 Y36.1300 
G01 X12.7616 Y36.1349 
G01 X18.0000 Y30.8964 
G01 X18.0000 Y12.9503 
G01 X18.0381 Y12.8584 
G01 X22.5381 Y8.3584 
G01 X22.6084 Y8.2881 
G01 X22.7003 Y8.2500 
G01 X41.7500 Y8.2500 
G01 X41.7500 Y6.6891 
G01 X41.6586 Y6.6709 
G01 X41.5017 Y6.6059 
G01 X41.3605 Y6.5116 
G01 X41.2404 Y6.3915 
G01 X41.1461 Y6.2503 
G01 X41.0811 Y6.0934 
G01 X41.0480 Y5.9269 
G01 X41.0480 Y4.2331 
G01 X41.0811 Y4.0666 
G01 X41.1461 Y3.9097 
G01 X41.2404 Y3.7685 
G01 X41.3605 Y3.6484 
G01 X41.5017 Y3.5541 
G01 X41.6586 Y3.4891 
G01 X41.8251 Y3.4560 
G01 X41.9949 Y3.4560 
G01 X42.1614 Y3.4891 
G01 X42.3183 Y3.5541 
G01 X42.4595 Y3.6484 
G01 X42.5796 Y3.7685 
G01 X42.6739 Y3.9097 
G01 X42.7389 Y4.0666 
G01 X42.7720 Y4.2331 
G01 X42.7720 Y5.9269 
G01 X42.7389 Y6.0934 
G01 X42.6739 Y6.2503 
G01 X42.5796 Y6.3915 
G01 X42.4595 Y6.5116 
G01 X42.3183 Y6.6059 
G01 X42.2500 Y6.6342 
G01 X42.2500 Y13.8964 
G01 X42.5329 Y14.1794 
G01 X42.5894 Y14.0949 
G01 X42.6953 Y13.9890 
G01 X42.8198 Y13.9057 
G01 X42.9582 Y13.8484 
G01 X43.1051 Y13.8192 
G01 X43.2549 Y13.8192 
G01 X43.4018 Y13.8484 
G01 X43.5402 Y13.9057 
G01 X43.6647 Y13.9890 
G01 X43.7706 Y14.0949 
G01 X43.8539 Y14.2194 
G01 X43.9112 Y14.3578 
G01 X43.9404 Y14.5047 
G01 X43.9404 Y15.9753 
G01 X43.9112 Y16.1222 
G01 X43.8539 Y16.2606 
G01 X43.7706 Y16.3851 
G01 X43.6647 Y16.4910 
G01 X43.5402 Y16.5743 
G01 X43.4018 Y16.6316 
G01 X43.2549 Y16.6608 
G01 X43.1051 Y16.6608 
G01 X42.9582 Y16.6316 
G01 X42.8198 Y16.5743 
G01 X42.6953 Y16.4910 
G01 X42.5894 Y16.3851 
G01 X42.5061 Y16.2606 
G01 X42.4488 Y16.1222 
G01 X42.4196 Y15.9753 
G01 X42.4196 Y14.7732 
G01 X41.8584 Y14.2119 
G01 X41.7881 Y14.1416 
G01 X41.7500 Y14.0497 
G01 X41.7500 Y8.7500 
G01 X22.8536 Y8.7500 
G01 X18.5000 Y13.1036 
G01 X18.5000 Y31.0497 
G01 X18.4619 Y31.1416 
G01 X18.3916 Y31.2119 
G01 X12.8300 Y36.7736 
G01 X12.8300 Y37.4499 
G01 X12.8148 Y37.4866 
G01 X12.7866 Y37.5148 
G01 X12.7500 Y37.5300 
G01 X12.7500 Y40.5000 
G01 X15.1100 Y40.5000 
G01 X15.1100 Y40.0201 
G01 X15.1252 Y39.9834 
G01 X15.1534 Y39.9552 
G01 X15.1901 Y39.9400 
G01 X16.0299 Y39.9400 
G01 X16.0666 Y39.9552 
G01 X16.0948 Y39.9834 
G01 X16.1100 Y40.0201 
G01 X16.1100 Y41.2599 
G01 X16.0948 Y41.2966 
G01 X16.0666 Y41.3248 
G01 X16.0299 Y41.3400 
G01 X16.0000 Y41.3400 
G01 X16.0000 Y43.7500 
G01 X16.0299 Y43.7500 
G01 X16.0666 Y43.7652 
G01 X16.0948 Y43.7934 
G01 X16.1100 Y43.8301 
G01 X16.1100 Y45.0699 
G01 X16.0948 Y45.1066 
G01 X16.0666 Y45.1348 
G01 X16.0299 Y45.1500 
G01 X15.1901 Y45.1500 
G01 X15.1534 Y45.1348 
G01 X15.1252 Y45.1066 
G01 X15.1100 Y45.0699 
G01 X15.1100 Y43.8301 
G01 X15.1252 Y43.7934 
G01 X15.1534 Y43.7652 
G01 X15.1901 Y43.7500 
G01 X15.5000 Y43.7500 
G01 X15.5000 Y41.3400 
G01 X15.1901 Y41.3400 
G01 X15.1534 Y41.3248 
G01 X15.1252 Y41.2966 
G01 X15.1100 Y41.2599 
G00 Z2.0000 
G00 X28.0700 Y37.4801 
G01 Z-0.0250 F254.00 
G01 X28.0700 Y37.7500 F508.00 
G01 X30.3500 Y37.7500 
G01 X30.3500 Y37.4801 
G01 X30.3652 Y37.4434 
G01 X30.3934 Y37.4152 
G01 X30.4301 Y37.4000 
G01 X31.2699 Y37.4000 
G01 X31.3066 Y37.4152 
G01 X31.3348 Y37.4434 
G01 X31.3500 Y37.4801 
G01 X31.3500 Y38.7199 
G01 X31.3348 Y38.7566 
G01 X31.3066 Y38.7848 
G01 X31.2699 Y38.8000 
G01 X30.4301 Y38.8000 
G01 X30.3934 Y38.7848 
G01 X30.3652 Y38.7566 
G01 X30.3500 Y38.7199 
G01 X30.3500 Y38.2500 
G01 X29.0000 Y38.2500 
G01 X29.0000 Y43.7584 
G01 X29.0921 Y43.8199 
G01 X29.2051 Y43.9329 
G01 X29.2939 Y44.0658 
G01 X29.3550 Y44.2134 
G01 X29.3862 Y44.3701 
G01 X29.3862 Y44.5299 
G01 X29.3550 Y44.6866 
G01 X29.2939 Y44.8342 
G01 X29.2051 Y44.9671 
G01 X29.0921 Y45.0801 
G01 X28.9592 Y45.1689 
G01 X28.8116 Y45.2300 
G01 X28.6549 Y45.2612 
G01 X28.4951 Y45.2612 
G01 X28.3384 Y45.2300 
G01 X28.1908 Y45.1689 
G01 X28.0579 Y45.0801 
G01 X27.9449 Y44.9671 
G01 X27.8561 Y44.8342 
G01 X27.7950 Y44.6866 
G01 X27.7638 Y44.5299 
G01 X27.7638 Y44.3701 
G01 X27.7950 Y44.2134 
G01 X27.8561 Y44.0658 
G01 X27.9449 Y43.9329 
G01 X28.0579 Y43.8199 
G01 X28.1908 Y43.7311 
G01 X28.3384 Y43.6700 
G01 X28.4951 Y43.6388 
G01 X28.5000 Y43.6388 
G01 X28.5000 Y38.2500 
G01 X28.0700 Y38.2500 
G01 X28.0700 Y38.7199 
G01 X28.0548 Y38.7566 
G01 X28.0266 Y38.7848 
G01 X27.9899 Y38.8000 
G01 X27.1501 Y38.8000 
G01 X27.1134 Y38.7848 
G01 X27.0852 Y38.7566 
G01 X27.0700 Y38.7199 
G01 X27.0700 Y37.4801 
G01 X27.0852 Y37.4434 
G01 X27.1134 Y37.4152 
G01 X27.1501 Y37.4000 
G01 X27.9899 Y37.4000 
G01 X28.0266 Y37.4152 
G01 X28.0548 Y37.4434 
G01 X28.0700 Y37.4801 
G00 Z2.0000 
G00 X33.1500 Y37.4801 
G01 Z-0.0250 F254.00 
G01 X33.1500 Y38.7199 F508.00 
G01 X33.1348 Y38.7566 
G01 X33.1066 Y38.7848 
G01 X33.0699 Y38.8000 
G01 X32.3036 Y38.8000 
G01 X30.2500 Y40.8536 
G01 X30.2500 Y46.2850 
G01 X30.3621 Y46.3599 
G01 X30.4751 Y46.4729 
G01 X30.5639 Y46.6058 
G01 X30.6250 Y46.7534 
G01 X30.6562 Y46.9101 
G01 X30.6562 Y47.0699 
G01 X30.6250 Y47.2266 
G01 X30.5639 Y47.3742 
G01 X30.4751 Y47.5071 
G01 X30.3621 Y47.6201 
G01 X30.2292 Y47.7089 
G01 X30.0816 Y47.7700 
G01 X30.0000 Y47.7863 
G01 X30.0000 Y48.0000 
G01 X42.3964 Y48.0000 
G01 X43.0745 Y47.3220 
G01 X43.0350 Y47.2266 
G01 X43.0038 Y47.0699 
G01 X43.0038 Y46.9101 
G01 X43.0350 Y46.7534 
G01 X43.0961 Y46.6058 
G01 X43.1849 Y46.4729 
G01 X43.2979 Y46.3599 
G01 X43.4308 Y46.2711 
G01 X43.5784 Y46.2100 
G01 X43.7351 Y46.1788 
G01 X43.8949 Y46.1788 
G01 X44.0516 Y46.2100 
G01 X44.1992 Y46.2711 
G01 X44.3321 Y46.3599 
G01 X44.4451 Y46.4729 
G01 X44.5339 Y46.6058 
G01 X44.5950 Y46.7534 
G01 X44.6262 Y46.9101 
G01 X44.6262 Y47.0699 
G01 X44.5950 Y47.2266 
G01 X44.5339 Y47.3742 
G01 X44.4451 Y47.5071 
G01 X44.3321 Y47.6201 
G01 X44.1992 Y47.7089 
G01 X44.0516 Y47.7700 
G01 X43.8949 Y47.8012 
G01 X43.7351 Y47.8012 
G01 X43.5784 Y47.7700 
G01 X43.4308 Y47.7089 
G01 X43.4091 Y47.6944 
G01 X42.7119 Y48.3916 
G01 X42.6416 Y48.4619 
G01 X42.5497 Y48.5000 
G01 X24.9503 Y48.5000 
G01 X24.8584 Y48.4619 
G01 X24.7881 Y48.3916 
G01 X17.7364 Y41.3400 
G01 X16.9901 Y41.3400 
G01 X16.9534 Y41.3248 
G01 X16.9252 Y41.2966 
G01 X16.9100 Y41.2599 
G01 X16.9100 Y40.0201 
G01 X16.9252 Y39.9834 
G01 X16.9534 Y39.9552 
G01 X16.9901 Y39.9400 
G01 X17.8299 Y39.9400 
G01 X17.8666 Y39.9552 
G01 X17.8948 Y39.9834 
G01 X17.9100 Y40.0201 
G01 X17.9100 Y40.8064 
G01 X25.1036 Y48.0000 
G01 X29.5000 Y48.0000 
G01 X29.5000 Y47.7251 
G01 X29.4608 Y47.7089 
G01 X29.3279 Y47.6201 
G01 X29.2149 Y47.5071 
G01 X29.1261 Y47.3742 
G01 X29.0650 Y47.2266 
G01 X29.0338 Y47.0699 
G01 X29.0338 Y46.9101 
G01 X29.0650 Y46.7534 
G01 X29.1261 Y46.6058 
G01 X29.2149 Y46.4729 
G01 X29.3279 Y46.3599 
G01 X29.4608 Y46.2711 
G01 X29.6084 Y46.2100 
G01 X29.7500 Y46.1818 
G01 X29.7500 Y40.7003 
G01 X29.7881 Y40.6084 
G01 X29.8584 Y40.5381 
G01 X32.1500 Y38.2464 
G01 X32.1500 Y37.4801 
G01 X32.1652 Y37.4434 
G01 X32.1934 Y37.4152 
G01 X32.2301 Y37.4000 
G01 X33.0699 Y37.4000 
G01 X33.1066 Y37.4152 
G01 X33.1348 Y37.4434 
G01 X33.1500 Y37.4801 
G00 Z2.0000 
G00 X56.5301 Y51.2000 
G01 Z-0.0250 F254.00 
G01 X57.7699 Y51.2000 F508.00 
G01 X57.8066 Y51.2152 
G01 X57.8348 Y51.2434 
G01 X57.8500 Y51.2801 
G01 X57.8500 Y51.5000 
G01 X61.6000 Y51.5000 
G01 X61.6000 Y51.2301 
G01 X61.6152 Y51.1934 
G01 X61.6434 Y51.1652 
G01 X61.6801 Y51.1500 
G01 X63.1199 Y51.1500 
G01 X63.1566 Y51.1652 
G01 X63.1848 Y51.1934 
G01 X63.2000 Y51.2301 
G01 X63.2000 Y52.2699 
G01 X63.1848 Y52.3066 
G01 X63.1566 Y52.3348 
G01 X63.1199 Y52.3500 
G01 X61.6801 Y52.3500 
G01 X61.6434 Y52.3348 
G01 X61.6152 Y52.3066 
G01 X61.6000 Y52.2699 
G01 X61.6000 Y52.0000 
G01 X57.8500 Y52.0000 
G01 X57.8500 Y52.1199 
G01 X57.8348 Y52.1566 
G01 X57.8066 Y52.1848 
G01 X57.7699 Y52.2000 
G01 X56.5301 Y52.2000 
G01 X56.4934 Y52.1848 
G01 X56.4652 Y52.1566 
G01 X56.4500 Y52.1199 
G01 X56.4500 Y52.0000 
G01 X52.7700 Y52.0000 
G01 X52.7700 Y52.1199 
G01 X52.7548 Y52.1566 
G01 X52.7266 Y52.1848 
G01 X52.6899 Y52.2000 
G01 X51.4501 Y52.2000 
G01 X51.4134 Y52.1848 
G01 X51.3852 Y52.1566 
G01 X51.3700 Y52.1199 
G01 X51.3700 Y51.2801 
G01 X51.3852 Y51.2434 
G01 X51.4134 Y51.2152 
G01 X51.4501 Y51.2000 
G01 X52.6899 Y51.2000 
G01 X52.7266 Y51.2152 
G01 X52.7548 Y51.2434 
G01 X52.7700 Y51.2801 
G01 X52.7700 Y51.5000 
G01 X56.4500 Y51.5000 
G01 X56.4500 Y51.2801 
G01 X56.4652 Y51.2434 
G01 X56.4934 Y51.2152 
G01 X56.5301 Y51.2000 
G00 Z2.0000 
G00 X61.8220 Y4.2331 
G01 Z-0.0250 F254.00 
G01 X61.8220 Y5.9269 F508.00 
G01 X61.7889 Y6.0934 
G01 X61.7239 Y6.2503 
G01 X61.6296 Y6.3915 
G01 X61.5095 Y6.5116 
G01 X61.3683 Y6.6059 
G01 X61.2114 Y6.6709 
G01 X61.0449 Y6.7040 
G01 X61.0000 Y6.7040 
G01 X61.0000 Y12.7997 
G01 X60.9619 Y12.8916 
G01 X60.8916 Y12.9619 
G01 X59.1804 Y14.6732 
G01 X59.1804 Y15.9753 
G01 X59.1512 Y16.1222 
G01 X59.0939 Y16.2606 
G01 X59.0106 Y16.3851 
G01 X58.9047 Y16.4910 
G01 X58.7802 Y16.5743 
G01 X58.6418 Y16.6316 
G01 X58.4949 Y16.6608 
G01 X58.3451 Y16.6608 
G01 X58.1982 Y16.6316 
G01 X58.0598 Y16.5743 
G01 X57.9353 Y16.4910 
G01 X57.8294 Y16.3851 
G01 X57.7461 Y16.2606 
G01 X57.6888 Y16.1222 
G01 X57.6596 Y15.9753 
G01 X57.6596 Y14.5047 
G01 X57.6888 Y14.3578 
G01 X57.7461 Y14.2194 
G01 X57.8294 Y14.0949 
G01 X57.9353 Y13.9890 
G01 X58.0598 Y13.9057 
G01 X58.1982 Y13.8484 
G01 X58.3451 Y13.8192 
G01 X58.4949 Y13.8192 
G01 X58.6418 Y13.8484 
G01 X58.7802 Y13.9057 
G01 X58.9047 Y13.9890 
G01 X59.0106 Y14.0949 
G01 X59.0270 Y14.1194 
G01 X60.5000 Y12.6464 
G01 X60.5000 Y6.5714 
G01 X60.4105 Y6.5116 
G01 X60.2904 Y6.3915 
G01 X60.1961 Y6.2503 
G01 X60.1311 Y6.0934 
G01 X60.0980 Y5.9269 
G01 X60.0980 Y4.2331 
G01 X60.1311 Y4.0666 
G01 X60.1961 Y3.9097 
G01 X60.2904 Y3.7685 
G01 X60.4105 Y3.6484 
G01 X60.5517 Y3.5541 
G01 X60.7086 Y3.4891 
G01 X60.8751 Y3.4560 
G01 X61.0449 Y3.4560 
G01 X61.2114 Y3.4891 
G01 X61.3683 Y3.5541 
G01 X61.5095 Y3.6484 
G01 X61.6296 Y3.7685 
G01 X61.7239 Y3.9097 
G01 X61.7889 Y4.0666 
G01 X61.8220 Y4.2331 
G00 Z2.0000 
G00 X59.2820 Y4.2331 
G01 Z-0.0250 F254.00 
G01 X59.2820 Y5.9269 F508.00 
G01 X59.2489 Y6.0934 
G01 X59.1839 Y6.2503 
G01 X59.0896 Y6.3915 
G01 X58.9695 Y6.5116 
G01 X58.8283 Y6.6059 
G01 X58.6714 Y6.6709 
G01 X58.5049 Y6.7040 
G01 X58.5000 Y6.7040 
G01 X58.5000 Y12.7997 
G01 X58.4619 Y12.8916 
G01 X58.3916 Y12.9619 
G01 X56.6404 Y14.7132 
G01 X56.6404 Y15.9753 
G01 X56.6112 Y16.1222 
G01 X56.5539 Y16.2606 
G01 X56.4706 Y16.3851 
G01 X56.3647 Y16.4910 
G01 X56.2402 Y16.5743 
G01 X56.1018 Y16.6316 
G01 X55.9549 Y16.6608 
G01 X55.8051 Y16.6608 
G01 X55.6582 Y16.6316 
G01 X55.5198 Y16.5743 
G01 X55.3953 Y16.4910 
G01 X55.2894 Y16.3851 
G01 X55.2061 Y16.2606 
G01 X55.1488 Y16.1222 
G01 X55.1196 Y15.9753 
G01 X55.1196 Y14.5047 
G01 X55.1488 Y14.3578 
G01 X55.2061 Y14.2194 
G01 X55.2894 Y14.0949 
G01 X55.3953 Y13.9890 
G01 X55.5198 Y13.9057 
G01 X55.6582 Y13.8484 
G01 X55.8051 Y13.8192 
G01 X55.9549 Y13.8192 
G01 X56.1018 Y13.8484 
G01 X56.2402 Y13.9057 
G01 X56.3647 Y13.9890 
G01 X56.4706 Y14.0949 
G01 X56.5031 Y14.1434 
G01 X58.0000 Y12.6464 
G01 X58.0000 Y6.5981 
G01 X57.8705 Y6.5116 
G01 X57.7504 Y6.3915 
G01 X57.6561 Y6.2503 
G01 X57.5911 Y6.0934 
G01 X57.5580 Y5.9269 
G01 X57.5580 Y4.2331 
G01 X57.5911 Y4.0666 
G01 X57.6561 Y3.9097 
G01 X57.7504 Y3.7685 
G01 X57.8705 Y3.6484 
G01 X58.0117 Y3.5541 
G01 X58.1686 Y3.4891 
G01 X58.3351 Y3.4560 
G01 X58.5049 Y3.4560 
G01 X58.6714 Y3.4891 
G01 X58.8283 Y3.5541 
G01 X58.9695 Y3.6484 
G01 X59.0896 Y3.7685 
G01 X59.1839 Y3.9097 
G01 X59.2489 Y4.0666 
G01 X59.2820 Y4.2331 
G00 Z2.0000 
G00 X56.7420 Y4.2331 
G01 Z-0.0250 F254.00 
G01 X56.7420 Y5.9269 F508.00 
G01 X56.7089 Y6.0934 
G01 X56.6439 Y6.2503 
G01 X56.5496 Y6.3915 
G01 X56.4295 Y6.5116 
G01 X56.2883 Y6.6059 
G01 X56.1314 Y6.6709 
G01 X56.0000 Y6.6970 
G01 X56.0000 Y12.7997 
G01 X55.9619 Y12.8916 
G01 X55.8916 Y12.9619 
G01 X54.1004 Y14.7532 
G01 X54.1004 Y15.9753 
G01 X54.0712 Y16.1222 
G01 X54.0139 Y16.2606 
G01 X53.9306 Y16.3851 
G01 X53.8247 Y16.4910 
G01 X53.7002 Y16.5743 
G01 X53.5618 Y16.6316 
G01 X53.4149 Y16.6608 
G01 X53.2651 Y16.6608 
G01 X53.1182 Y16.6316 
G01 X52.9798 Y16.5743 
G01 X52.8553 Y16.4910 
G01 X52.7494 Y16.3851 
G01 X52.6661 Y16.2606 
G01 X52.6088 Y16.1222 
G01 X52.5796 Y15.9753 
G01 X52.5796 Y14.5047 
G01 X52.6088 Y14.3578 
G01 X52.6661 Y14.2194 
G01 X52.7494 Y14.0949 
G01 X52.8553 Y13.9890 
G01 X52.9798 Y13.9057 
G01 X53.1182 Y13.8484 
G01 X53.2651 Y13.8192 
G01 X53.4149 Y13.8192 
G01 X53.5618 Y13.8484 
G01 X53.7002 Y13.9057 
G01 X53.8247 Y13.9890 
G01 X53.9306 Y14.0949 
G01 X53.9791 Y14.1674 
G01 X55.5000 Y12.6464 
G01 X55.5000 Y6.6176 
G01 X55.4717 Y6.6059 
G01 X55.3305 Y6.5116 
G01 X55.2104 Y6.3915 
G01 X55.1161 Y6.2503 
G01 X55.0511 Y6.0934 
G01 X55.0180 Y5.9269 
G01 X55.0180 Y4.2331 
G01 X55.0511 Y4.0666 
G01 X55.1161 Y3.9097 
G01 X55.2104 Y3.7685 
G01 X55.3305 Y3.6484 
G01 X55.4717 Y3.5541 
G01 X55.6286 Y3.4891 
G01 X55.7951 Y3.4560 
G01 X55.9649 Y3.4560 
G01 X56.1314 Y3.4891 
G01 X56.2883 Y3.5541 
G01 X56.4295 Y3.6484 
G01 X56.5496 Y3.7685 
G01 X56.6439 Y3.9097 
G01 X56.7089 Y4.0666 
G01 X56.7420 Y4.2331 
G00 Z2.0000 
G00 X54.2020 Y4.2331 
G01 Z-0.0250 F254.00 
G01 X54.2020 Y5.9269 F508.00 
G01 X54.1689 Y6.0934 
G01 X54.1039 Y6.2503 
G01 X54.0096 Y6.3915 
G01 X53.8895 Y6.5116 
G01 X53.7483 Y6.6059 
G01 X53.5914 Y6.6709 
G01 X53.5000 Y6.6891 
G01 X53.5000 Y12.7997 
G01 X53.4619 Y12.8916 
G01 X53.3916 Y12.9619 
G01 X51.5604 Y14.7932 
G01 X51.5604 Y15.9753 
G01 X51.5312 Y16.1222 
G01 X51.4739 Y16.2606 
G01 X51.3906 Y16.3851 
G01 X51.2847 Y16.4910 
G01 X51.1602 Y16.5743 
G01 X51.0218 Y16.6316 
G01 X50.8749 Y16.6608 
G01 X50.7251 Y16.6608 
G01 X50.5782 Y16.6316 
G01 X50.4398 Y16.5743 
G01 X50.3153 Y16.4910 
G01 X50.2094 Y16.3851 
G01 X50.1261 Y16.2606 
G01 X50.0688 Y16.1222 
G01 X50.0396 Y15.9753 
G01 X50.0396 Y14.5047 
G01 X50.0688 Y14.3578 
G01 X50.1261 Y14.2194 
G01 X50.2094 Y14.0949 
G01 X50.3153 Y13.9890 
G01 X50.4398 Y13.9057 
G01 X50.5782 Y13.8484 
G01 X50.7251 Y13.8192 
G01 X50.8749 Y13.8192 
G01 X51.0218 Y13.8484 
G01 X51.1602 Y13.9057 
G01 X51.2847 Y13.9890 
G01 X51.3906 Y14.0949 
G01 X51.4551 Y14.1913 
G01 X53.0000 Y12.6464 
G01 X53.0000 Y6.6342 
G01 X52.9317 Y6.6059 
G01 X52.7905 Y6.5116 
G01 X52.6704 Y6.3915 
G01 X52.5761 Y6.2503 
G01 X52.5111 Y6.0934 
G01 X52.4780 Y5.9269 
G01 X52.4780 Y4.2331 
G01 X52.5111 Y4.0666 
G01 X52.5761 Y3.9097 
G01 X52.6704 Y3.7685 
G01 X52.7905 Y3.6484 
G01 X52.9317 Y3.5541 
G01 X53.0886 Y3.4891 
G01 X53.2551 Y3.4560 
G01 X53.4249 Y3.4560 
G01 X53.5914 Y3.4891 
G01 X53.7483 Y3.5541 
G01 X53.8895 Y3.6484 
G01 X54.0096 Y3.7685 
G01 X54.1039 Y3.9097 
G01 X54.1689 Y4.0666 
G01 X54.2020 Y4.2331 
G00 Z2.0000 
G00 X64.2604 Y22.1247 
G01 Z-0.0250 F254.00 
G01 X64.2604 Y23.5953 F508.00 
G01 X64.2312 Y23.7422 
G01 X64.1739 Y23.8806 
G01 X64.0906 Y24.0051 
G01 X63.9847 Y24.1110 
G01 X63.8602 Y24.1943 
G01 X63.7218 Y24.2516 
G01 X63.5749 Y24.2808 
G01 X63.4251 Y24.2808 
G01 X63.2782 Y24.2516 
G01 X63.1398 Y24.1943 
G01 X63.0153 Y24.1110 
G01 X62.9094 Y24.0051 
G01 X62.8261 Y23.8806 
G01 X62.7688 Y23.7422 
G01 X62.7396 Y23.5953 
G01 X62.7396 Y22.1247 
G01 X62.7688 Y21.9778 
G01 X62.8261 Y21.8394 
G01 X62.9094 Y21.7149 
G01 X63.0153 Y21.6090 
G01 X63.1398 Y21.5257 
G01 X63.2500 Y21.4801 
G01 X63.2500 Y21.2500 
G01 X58.1036 Y21.2500 
G01 X57.5000 Y21.8536 
G01 X57.5000 Y28.2997 
G01 X57.4619 Y28.3916 
G01 X57.3916 Y28.4619 
G01 X48.9600 Y36.8936 
G01 X48.9600 Y37.6199 
G01 X48.9448 Y37.6566 
G01 X48.9166 Y37.6848 
G01 X48.8799 Y37.7000 
G01 X47.6401 Y37.7000 
G01 X47.6034 Y37.6848 
G01 X47.5752 Y37.6566 
G01 X47.5600 Y37.6199 
G01 X47.5600 Y36.7801 
G01 X47.5752 Y36.7434 
G01 X47.6034 Y36.7152 
G01 X47.6092 Y36.7128 
G01 X47.4653 Y36.5689 
G01 X47.4273 Y36.5846 
G01 X47.3099 Y36.6080 
G01 X47.1901 Y36.6080 
G01 X47.0727 Y36.5846 
G01 X46.9620 Y36.5388 
G01 X46.8624 Y36.4723 
G01 X46.7777 Y36.3876 
G01 X46.7112 Y36.2880 
G01 X46.6654 Y36.1773 
G01 X46.6420 Y36.0599 
G01 X46.6420 Y35.9401 
G01 X46.6654 Y35.8227 
G01 X46.7112 Y35.7120 
G01 X46.7777 Y35.6124 
G01 X46.8624 Y35.5277 
G01 X46.9620 Y35.4612 
G01 X47.0727 Y35.4154 
G01 X47.1901 Y35.3920 
G01 X47.3099 Y35.3920 
G01 X47.4273 Y35.4154 
G01 X47.5380 Y35.4612 
G01 X47.6376 Y35.5277 
G01 X47.7223 Y35.6124 
G01 X47.7888 Y35.7120 
G01 X47.8346 Y35.8227 
G01 X47.8580 Y35.9401 
G01 X47.8580 Y36.0599 
G01 X47.8346 Y36.1773 
G01 X47.8189 Y36.2153 
G01 X48.3036 Y36.7000 
G01 X48.4464 Y36.7000 
G01 X57.0000 Y28.1464 
G01 X57.0000 Y21.7003 
G01 X57.0381 Y21.6084 
G01 X57.7881 Y20.8584 
G01 X57.8584 Y20.7881 
G01 X57.9503 Y20.7500 
G01 X63.5497 Y20.7500 
G01 X63.6416 Y20.7881 
G01 X63.7119 Y20.8584 
G01 X63.7500 Y20.9503 
G01 X63.7500 Y21.4801 
G01 X63.8602 Y21.5257 
G01 X63.9847 Y21.6090 
G01 X64.0906 Y21.7149 
G01 X64.1739 Y21.8394 
G01 X64.2312 Y21.9778 
G01 X64.2604 Y22.1247 
G00 Z2.0000 
G00 X61.7204 Y22.1247 
G01 Z-0.0250 F254.00 
G01 X61.7204 Y23.5953 F508.00 
G01 X61.6912 Y23.7422 
G01 X61.6339 Y23.8806 
G01 X61.5506 Y24.0051 
G01 X61.4447 Y24.1110 
G01 X61.3202 Y24.1943 
G01 X61.1818 Y24.2516 
G01 X61.0349 Y24.2808 
G01 X60.8851 Y24.2808 
G01 X60.7382 Y24.2516 
G01 X60.5998 Y24.1943 
G01 X60.4753 Y24.1110 
G01 X60.3694 Y24.0051 
G01 X60.2861 Y23.8806 
G01 X60.2676 Y23.8359 
G01 X60.0000 Y24.1036 
G01 X60.0000 Y37.1999 
G01 X60.0628 Y37.1999 
G01 X60.5901 Y37.7272 
G01 X60.5901 Y38.2365 
G01 X63.5636 Y41.2100 
G01 X64.2899 Y41.2100 
G01 X64.3266 Y41.2252 
G01 X64.3548 Y41.2534 
G01 X64.3700 Y41.2901 
G01 X64.3700 Y42.5299 
G01 X64.3548 Y42.5666 
G01 X64.3266 Y42.5948 
G01 X64.2899 Y42.6100 
G01 X63.4501 Y42.6100 
G01 X63.4134 Y42.5948 
G01 X63.3852 Y42.5666 
G01 X63.3700 Y42.5299 
G01 X63.3700 Y41.7236 
G01 X60.3547 Y38.7082 
G01 X60.0628 Y39.0001 
G01 X59.3172 Y39.0001 
G01 X58.7899 Y38.4728 
G01 X58.7899 Y37.7272 
G01 X59.3172 Y37.1999 
G01 X59.5000 Y37.1999 
G01 X59.5000 Y23.9503 
G01 X59.5381 Y23.8584 
G01 X59.6084 Y23.7881 
G01 X60.1996 Y23.1968 
G01 X60.1996 Y22.1247 
G01 X60.2288 Y21.9778 
G01 X60.2861 Y21.8394 
G01 X60.3694 Y21.7149 
G01 X60.4753 Y21.6090 
G01 X60.5998 Y21.5257 
G01 X60.7382 Y21.4684 
G01 X60.8851 Y21.4392 
G01 X61.0349 Y21.4392 
G01 X61.1818 Y21.4684 
G01 X61.3202 Y21.5257 
G01 X61.4447 Y21.6090 
G01 X61.5506 Y21.7149 
G01 X61.6339 Y21.8394 
G01 X61.6912 Y21.9778 
G01 X61.7204 Y22.1247 
G00 Z2.0000 
G00 X56.6404 Y22.1247 
G01 Z-0.0250 F254.00 
G01 X56.6404 Y23.5953 F508.00 
G01 X56.6112 Y23.7422 
G01 X56.5539 Y23.8806 
G01 X56.4706 Y24.0051 
G01 X56.3647 Y24.1110 
G01 X56.2402 Y24.1943 
G01 X56.1018 Y24.2516 
G01 X55.9549 Y24.2808 
G01 X55.8051 Y24.2808 
G01 X55.6582 Y24.2516 
G01 X55.5198 Y24.1943 
G01 X55.3953 Y24.1110 
G01 X55.2894 Y24.0051 
G01 X55.2061 Y23.8806 
G01 X55.1488 Y23.7422 
G01 X55.1196 Y23.5953 
G01 X55.1196 Y22.1247 
G01 X55.1488 Y21.9778 
G01 X55.2061 Y21.8394 
G01 X55.2894 Y21.7149 
G01 X55.3953 Y21.6090 
G01 X55.5198 Y21.5257 
G01 X55.6582 Y21.4684 
G01 X55.8051 Y21.4392 
G01 X55.9549 Y21.4392 
G01 X56.1018 Y21.4684 
G01 X56.2402 Y21.5257 
G01 X56.3647 Y21.6090 
G01 X56.4706 Y21.7149 
G01 X56.5539 Y21.8394 
G01 X56.6112 Y21.9778 
G01 X56.6404 Y22.1247 
G00 Z2.0000 
G00 X54.1004 Y22.1247 
G01 Z-0.0250 F254.00 
G01 X54.1004 Y23.5953 F508.00 
G01 X54.0712 Y23.7422 
G01 X54.0139 Y23.8806 
G01 X53.9306 Y24.0051 
G01 X53.8247 Y24.1110 
G01 X53.7002 Y24.1943 
G01 X53.5618 Y24.2516 
G01 X53.4149 Y24.2808 
G01 X53.2651 Y24.2808 
G01 X53.1182 Y24.2516 
G01 X52.9798 Y24.1943 
G01 X52.8553 Y24.1110 
G01 X52.7494 Y24.0051 
G01 X52.6661 Y23.8806 
G01 X52.6088 Y23.7422 
G01 X52.5796 Y23.5953 
G01 X52.5796 Y22.1247 
G01 X52.6088 Y21.9778 
G01 X52.6661 Y21.8394 
G01 X52.7494 Y21.7149 
G01 X52.8553 Y21.6090 
G01 X52.9798 Y21.5257 
G01 X53.1182 Y21.4684 
G01 X53.2651 Y21.4392 
G01 X53.4149 Y21.4392 
G01 X53.5618 Y21.4684 
G01 X53.7002 Y21.5257 
G01 X53.8247 Y21.6090 
G01 X53.9306 Y21.7149 
G01 X54.0139 Y21.8394 
G01 X54.0712 Y21.9778 
G01 X54.1004 Y22.1247 
G00 Z2.0000 
G00 X51.5604 Y22.1247 
G01 Z-0.0250 F254.00 
G01 X51.5604 Y23.5953 F508.00 
G01 X51.5312 Y23.7422 
G01 X51.4739 Y23.8806 
G01 X51.3906 Y24.0051 
G01 X51.2847 Y24.1110 
G01 X51.1602 Y24.1943 
G01 X51.0218 Y24.2516 
G01 X50.8749 Y24.2808 
G01 X50.7251 Y24.2808 
G01 X50.5782 Y24.2516 
G01 X50.4398 Y24.1943 
G01 X50.3153 Y24.1110 
G01 X50.2094 Y24.0051 
G01 X50.1261 Y23.8806 
G01 X50.0688 Y23.7422 
G01 X50.0396 Y23.5953 
G01 X50.0396 Y22.1247 
G01 X50.0688 Y21.9778 
G01 X50.1261 Y21.8394 
G01 X50.2094 Y21.7149 
G01 X50.3153 Y21.6090 
G01 X50.4398 Y21.5257 
G01 X50.5782 Y21.4684 
G01 X50.7251 Y21.4392 
G01 X50.8749 Y21.4392 
G01 X51.0218 Y21.4684 
G01 X51.1602 Y21.5257 
G01 X51.2847 Y21.6090 
G01 X51.3906 Y21.7149 
G01 X51.4739 Y21.8394 
G01 X51.5312 Y21.9778 
G01 X51.5604 Y22.1247 
G00 Z2.0000 
G00 X49.0204 Y22.1247 
G01 Z-0.0250 F254.00 
G01 X49.0204 Y23.5953 F508.00 
G01 X48.9912 Y23.7422 
G01 X48.9339 Y23.8806 
G01 X48.8506 Y24.0051 
G01 X48.7447 Y24.1110 
G01 X48.6202 Y24.1943 
G01 X48.4818 Y24.2516 
G01 X48.3349 Y24.2808 
G01 X48.1851 Y24.2808 
G01 X48.0382 Y24.2516 
G01 X47.8998 Y24.1943 
G01 X47.7753 Y24.1110 
G01 X47.6694 Y24.0051 
G01 X47.5861 Y23.8806 
G01 X47.5288 Y23.7422 
G01 X47.4996 Y23.5953 
G01 X47.4996 Y22.1247 
G01 X47.5288 Y21.9778 
G01 X47.5861 Y21.8394 
G01 X47.6694 Y21.7149 
G01 X47.7753 Y21.6090 
G01 X47.8998 Y21.5257 
G01 X48.0382 Y21.4684 
G01 X48.1851 Y21.4392 
G01 X48.2500 Y21.4392 
G01 X48.2500 Y20.2003 
G01 X48.2881 Y20.1084 
G01 X48.3584 Y20.0381 
G01 X48.4503 Y20.0000 
G01 X62.0000 Y20.0000 
G01 X62.0000 Y12.7003 
G01 X62.0381 Y12.6084 
G01 X62.1084 Y12.5381 
G01 X62.2003 Y12.5000 
G01 X70.7889 Y12.5000 
G01 X70.7991 Y12.4486 
G01 X70.8641 Y12.2917 
G01 X70.9584 Y12.1505 
G01 X71.0785 Y12.0304 
G01 X71.2197 Y11.9361 
G01 X71.3766 Y11.8711 
G01 X71.5431 Y11.8380 
G01 X73.2369 Y11.8380 
G01 X73.4034 Y11.8711 
G01 X73.5603 Y11.9361 
G01 X73.7015 Y12.0304 
G01 X73.8216 Y12.1505 
G01 X73.9159 Y12.2917 
G01 X73.9809 Y12.4486 
G01 X74.0140 Y12.6151 
G01 X74.0140 Y12.7849 
G01 X73.9809 Y12.9514 
G01 X73.9159 Y13.1083 
G01 X73.8216 Y13.2495 
G01 X73.7015 Y13.3696 
G01 X73.5603 Y13.4639 
G01 X73.4034 Y13.5289 
G01 X73.2369 Y13.5620 
G01 X71.5431 Y13.5620 
G01 X71.3766 Y13.5289 
G01 X71.2197 Y13.4639 
G01 X71.0785 Y13.3696 
G01 X70.9584 Y13.2495 
G01 X70.8641 Y13.1083 
G01 X70.8192 Y13.0000 
G01 X62.5000 Y13.0000 
G01 X62.5000 Y20.0000 
G01 X63.7997 Y20.0000 
G01 X63.8916 Y20.0381 
G01 X63.9619 Y20.1084 
G01 X64.9619 Y21.1084 
G01 X65.0000 Y21.2003 
G01 X65.0000 Y40.8964 
G01 X65.3136 Y41.2100 
G01 X66.0899 Y41.2100 
G01 X66.1266 Y41.2252 
G01 X66.1548 Y41.2534 
G01 X66.1700 Y41.2901 
G01 X66.1700 Y42.5299 
G01 X66.1548 Y42.5666 
G01 X66.1266 Y42.5948 
G01 X66.0899 Y42.6100 
G01 X66.0000 Y42.6100 
G01 X66.0000 Y45.0200 
G01 X66.0899 Y45.0200 
G01 X66.1266 Y45.0352 
G01 X66.1548 Y45.0634 
G01 X66.1700 Y45.1001 
G01 X66.1700 Y46.3399 
G01 X66.1548 Y46.3766 
G01 X66.1266 Y46.4048 
G01 X66.0899 Y46.4200 
G01 X65.2501 Y46.4200 
G01 X65.2134 Y46.4048 
G01 X65.1852 Y46.3766 
G01 X65.1700 Y46.3399 
G01 X65.1700 Y45.1001 
G01 X65.1852 Y45.0634 
G01 X65.2134 Y45.0352 
G01 X65.2501 Y45.0200 
G01 X65.5000 Y45.0200 
G01 X65.5000 Y42.6100 
G01 X65.2501 Y42.6100 
G01 X65.2134 Y42.5948 
G01 X65.1852 Y42.5666 
G01 X65.1700 Y42.5299 
G01 X65.1700 Y41.7736 
G01 X64.6084 Y41.2119 
G01 X64.5381 Y41.1416 
G01 X64.5000 Y41.0497 
G01 X64.5000 Y21.3536 
G01 X63.6464 Y20.5000 
G01 X48.7500 Y20.5000 
G01 X48.7500 Y21.6142 
G01 X48.8506 Y21.7149 
G01 X48.9339 Y21.8394 
G01 X48.9912 Y21.9778 
G01 X49.0204 Y22.1247 
G00 Z2.0000 
G00 X41.4004 Y22.1247 
G01 Z-0.0250 F254.00 
G01 X41.4004 Y23.5953 F508.00 
G01 X41.3712 Y23.7422 
G01 X41.3139 Y23.8806 
G01 X41.2306 Y24.0051 
G01 X41.1247 Y24.1110 
G01 X41.0002 Y24.1943 
G01 X40.8618 Y24.2516 
G01 X40.7149 Y24.2808 
G01 X40.5651 Y24.2808 
G01 X40.4182 Y24.2516 
G01 X40.2798 Y24.1943 
G01 X40.1553 Y24.1110 
G01 X40.0494 Y24.0051 
G01 X40.0000 Y23.9312 
G01 X40.0000 Y30.7610 
G01 X42.1839 Y30.7610 
G01 X42.2206 Y30.7762 
G01 X42.2488 Y30.8044 
G01 X42.2640 Y30.8411 
G01 X42.2640 Y32.6589 
G01 X42.2488 Y32.6956 
G01 X42.2206 Y32.7238 
G01 X42.1839 Y32.7390 
G01 X40.0000 Y32.7390 
G01 X40.0000 Y36.1464 
G01 X40.5536 Y36.7000 
G01 X41.2599 Y36.7000 
G01 X41.2966 Y36.7152 
G01 X41.3248 Y36.7434 
G01 X41.3400 Y36.7801 
G01 X41.3400 Y37.6199 
G01 X41.3248 Y37.6566 
G01 X41.2966 Y37.6848 
G01 X41.2599 Y37.7000 
G01 X40.0201 Y37.7000 
G01 X39.9834 Y37.6848 
G01 X39.9552 Y37.6566 
G01 X39.9400 Y37.6199 
G01 X39.9400 Y36.7936 
G01 X39.6084 Y36.4619 
G01 X39.5381 Y36.3916 
G01 X39.5000 Y36.2997 
G01 X39.5000 Y32.7390 
G01 X37.0641 Y32.7390 
G01 X37.0274 Y32.7238 
G01 X36.9992 Y32.6956 
G01 X36.9840 Y32.6589 
G01 X36.9840 Y30.8411 
G01 X36.9992 Y30.8044 
G01 X37.0274 Y30.7762 
G01 X37.0641 Y30.7610 
G01 X39.5000 Y30.7610 
G01 X39.5000 Y23.7003 
G01 X39.5381 Y23.6084 
G01 X39.6084 Y23.5381 
G01 X39.8796 Y23.2668 
G01 X39.8796 Y22.1247 
G01 X39.9088 Y21.9778 
G01 X39.9661 Y21.8394 
G01 X40.0494 Y21.7149 
G01 X40.1553 Y21.6090 
G01 X40.2798 Y21.5257 
G01 X40.4182 Y21.4684 
G01 X40.5651 Y21.4392 
G01 X40.7149 Y21.4392 
G01 X40.8618 Y21.4684 
G01 X41.0002 Y21.5257 
G01 X41.1247 Y21.6090 
G01 X41.2306 Y21.7149 
G01 X41.3139 Y21.8394 
G01 X41.3712 Y21.9778 
G01 X41.4004 Y22.1247 
G00 Z2.0000 
G00 X38.8604 Y22.1247 
G01 Z-0.0250 F254.00 
G01 X38.8604 Y23.5953 F508.00 
G01 X38.8312 Y23.7422 
G01 X38.7739 Y23.8806 
G01 X38.6906 Y24.0051 
G01 X38.5847 Y24.1110 
G01 X38.4602 Y24.1943 
G01 X38.3218 Y24.2516 
G01 X38.1749 Y24.2808 
G01 X38.0251 Y24.2808 
G01 X37.8782 Y24.2516 
G01 X37.7398 Y24.1943 
G01 X37.6153 Y24.1110 
G01 X37.5094 Y24.0051 
G01 X37.4261 Y23.8806 
G01 X37.3688 Y23.7422 
G01 X37.3396 Y23.5953 
G01 X37.3396 Y22.1247 
G01 X37.3688 Y21.9778 
G01 X37.4261 Y21.8394 
G01 X37.5094 Y21.7149 
G01 X37.6153 Y21.6090 
G01 X37.7398 Y21.5257 
G01 X37.8782 Y21.4684 
G01 X38.0251 Y21.4392 
G01 X38.1749 Y21.4392 
G01 X38.3218 Y21.4684 
G01 X38.4602 Y21.5257 
G01 X38.5847 Y21.6090 
G01 X38.6906 Y21.7149 
G01 X38.7739 Y21.8394 
G01 X38.8312 Y21.9778 
G01 X38.8604 Y22.1247 
G00 Z2.0000 
G00 X36.3204 Y22.1247 
G01 Z-0.0250 F254.00 
G01 X36.3204 Y23.5953 F508.00 
G01 X36.2912 Y23.7422 
G01 X36.2339 Y23.8806 
G01 X36.1506 Y24.0051 
G01 X36.0447 Y24.1110 
G01 X35.9202 Y24.1943 
G01 X35.7818 Y24.2516 
G01 X35.6349 Y24.2808 
G01 X35.4851 Y24.2808 
G01 X35.3382 Y24.2516 
G01 X35.1998 Y24.1943 
G01 X35.0753 Y24.1110 
G01 X34.9694 Y24.0051 
G01 X34.9209 Y23.9326 
G01 X21.5066 Y37.3470 
G01 X21.6315 Y37.4304 
G01 X21.7516 Y37.5505 
G01 X21.8459 Y37.6917 
G01 X21.9109 Y37.8486 
G01 X21.9440 Y38.0151 
G01 X21.9440 Y38.1849 
G01 X21.9109 Y38.3514 
G01 X21.8459 Y38.5083 
G01 X21.7516 Y38.6495 
G01 X21.6315 Y38.7696 
G01 X21.4903 Y38.8639 
G01 X21.3334 Y38.9289 
G01 X21.1669 Y38.9620 
G01 X19.4731 Y38.9620 
G01 X19.3066 Y38.9289 
G01 X19.1497 Y38.8639 
G01 X19.0085 Y38.7696 
G01 X18.8884 Y38.6495 
G01 X18.7941 Y38.5083 
G01 X18.7291 Y38.3514 
G01 X18.6960 Y38.1849 
G01 X18.6960 Y38.0151 
G01 X18.7291 Y37.8486 
G01 X18.7941 Y37.6917 
G01 X18.8884 Y37.5505 
G01 X19.0085 Y37.4304 
G01 X19.1497 Y37.3361 
G01 X19.3066 Y37.2711 
G01 X19.4731 Y37.2380 
G01 X20.9084 Y37.2380 
G01 X34.7996 Y23.3468 
G01 X34.7996 Y22.1247 
G01 X34.8288 Y21.9778 
G01 X34.8861 Y21.8394 
G01 X34.9694 Y21.7149 
G01 X35.0753 Y21.6090 
G01 X35.1998 Y21.5257 
G01 X35.3382 Y21.4684 
G01 X35.4851 Y21.4392 
G01 X35.6349 Y21.4392 
G01 X35.7818 Y21.4684 
G01 X35.9202 Y21.5257 
G01 X36.0447 Y21.6090 
G01 X36.1506 Y21.7149 
G01 X36.2339 Y21.8394 
G01 X36.2912 Y21.9778 
G01 X36.3204 Y22.1247 
G00 Z2.0000 
G00 X31.2404 Y22.1247 
G01 Z-0.0250 F254.00 
G01 X31.2404 Y23.5953 F508.00 
G01 X31.2112 Y23.7422 
G01 X31.1539 Y23.8806 
G01 X31.0706 Y24.0051 
G01 X30.9647 Y24.1110 
G01 X30.8402 Y24.1943 
G01 X30.7018 Y24.2516 
G01 X30.5549 Y24.2808 
G01 X30.4051 Y24.2808 
G01 X30.2582 Y24.2516 
G01 X30.1198 Y24.1943 
G01 X29.9953 Y24.1110 
G01 X29.8894 Y24.0051 
G01 X29.8061 Y23.8806 
G01 X29.7818 Y23.8218 
G01 X21.3893 Y32.2143 
G01 X21.4903 Y32.2561 
G01 X21.6315 Y32.3504 
G01 X21.7516 Y32.4705 
G01 X21.8459 Y32.6117 
G01 X21.9109 Y32.7686 
G01 X21.9440 Y32.9351 
G01 X21.9440 Y33.1049 
G01 X21.9109 Y33.2714 
G01 X21.8459 Y33.4283 
G01 X21.7516 Y33.5695 
G01 X21.6315 Y33.6896 
G01 X21.4903 Y33.7839 
G01 X21.3334 Y33.8489 
G01 X21.1669 Y33.8820 
G01 X19.4731 Y33.8820 
G01 X19.3066 Y33.8489 
G01 X19.1497 Y33.7839 
G01 X19.0085 Y33.6896 
G01 X18.8884 Y33.5695 
G01 X18.7941 Y33.4283 
G01 X18.7291 Y33.2714 
G01 X18.6960 Y33.1049 
G01 X18.6960 Y32.9351 
G01 X18.7291 Y32.7686 
G01 X18.7941 Y32.6117 
G01 X18.8884 Y32.4705 
G01 X19.0085 Y32.3504 
G01 X19.1497 Y32.2561 
G01 X19.3066 Y32.1911 
G01 X19.4731 Y32.1580 
G01 X20.7384 Y32.1580 
G01 X29.7196 Y23.1768 
G01 X29.7196 Y22.1247 
G01 X29.7488 Y21.9778 
G01 X29.8061 Y21.8394 
G01 X29.8894 Y21.7149 
G01 X29.9953 Y21.6090 
G01 X30.1198 Y21.5257 
G01 X30.2582 Y21.4684 
G01 X30.4051 Y21.4392 
G01 X30.5549 Y21.4392 
G01 X30.7018 Y21.4684 
G01 X30.8402 Y21.5257 
G01 X30.9647 Y21.6090 
G01 X31.0706 Y21.7149 
G01 X31.1539 Y21.8394 
G01 X31.2112 Y21.9778 
G01 X31.2404 Y22.1247 
G00 Z2.0000 
G00 X33.7804 Y14.5047 
G01 Z-0.0250 F254.00 
G01 X33.7804 Y15.9753 F508.00 
G01 X33.7512 Y16.1222 
G01 X33.6939 Y16.2606 
G01 X33.6106 Y16.3851 
G01 X33.5047 Y16.4910 
G01 X33.3802 Y16.5743 
G01 X33.2418 Y16.6316 
G01 X33.0949 Y16.6608 
G01 X32.9451 Y16.6608 
G01 X32.7982 Y16.6316 
G01 X32.6598 Y16.5743 
G01 X32.5353 Y16.4910 
G01 X32.4294 Y16.3851 
G01 X32.3461 Y16.2606 
G01 X32.2888 Y16.1222 
G01 X32.2596 Y15.9753 
G01 X32.2596 Y14.6132 
G01 X31.3964 Y13.7500 
G01 X26.2500 Y13.7500 
G01 X26.2500 Y18.5497 
G01 X26.2119 Y18.6416 
G01 X22.5000 Y22.3536 
G01 X22.5000 Y26.0497 
G01 X22.4619 Y26.1416 
G01 X21.4459 Y27.1577 
G01 X21.4903 Y27.1761 
G01 X21.6315 Y27.2704 
G01 X21.7516 Y27.3905 
G01 X21.8459 Y27.5317 
G01 X21.9109 Y27.6886 
G01 X21.9440 Y27.8551 
G01 X21.9440 Y28.0249 
G01 X21.9109 Y28.1914 
G01 X21.8459 Y28.3483 
G01 X21.7516 Y28.4895 
G01 X21.6315 Y28.6096 
G01 X21.4903 Y28.7039 
G01 X21.3334 Y28.7689 
G01 X21.1669 Y28.8020 
G01 X19.4731 Y28.8020 
G01 X19.3066 Y28.7689 
G01 X19.1497 Y28.7039 
G01 X19.0085 Y28.6096 
G01 X18.8884 Y28.4895 
G01 X18.7941 Y28.3483 
G01 X18.7291 Y28.1914 
G01 X18.6960 Y28.0249 
G01 X18.6960 Y27.8551 
G01 X18.7291 Y27.6886 
G01 X18.7941 Y27.5317 
G01 X18.8884 Y27.3905 
G01 X19.0085 Y27.2704 
G01 X19.1497 Y27.1761 
G01 X19.3066 Y27.1111 
G01 X19.4731 Y27.0780 
G01 X20.8184 Y27.0780 
G01 X22.0000 Y25.8964 
G01 X22.0000 Y22.2003 
G01 X22.0381 Y22.1084 
G01 X22.1084 Y22.0381 
G01 X25.7500 Y18.3964 
G01 X25.7500 Y13.4503 
G01 X25.7881 Y13.3584 
G01 X25.8584 Y13.2881 
G01 X25.9503 Y13.2500 
G01 X31.5497 Y13.2500 
G01 X31.6416 Y13.2881 
G01 X31.7119 Y13.3584 
G01 X32.4389 Y14.0853 
G01 X32.5353 Y13.9890 
G01 X32.6598 Y13.9057 
G01 X32.7982 Y13.8484 
G01 X32.9451 Y13.8192 
G01 X33.0949 Y13.8192 
G01 X33.2418 Y13.8484 
G01 X33.3802 Y13.9057 
G01 X33.5047 Y13.9890 
G01 X33.6106 Y14.0949 
G01 X33.6939 Y14.2194 
G01 X33.7512 Y14.3578 
G01 X33.7804 Y14.5047 
G00 Z2.0000 
G00 X36.3204 Y14.5047 
G01 Z-0.0250 F254.00 
G01 X36.3204 Y15.9753 F508.00 
G01 X36.2912 Y16.1222 
G01 X36.2339 Y16.2606 
G01 X36.1506 Y16.3851 
G01 X36.0447 Y16.4910 
G01 X35.9202 Y16.5743 
G01 X35.7818 Y16.6316 
G01 X35.6349 Y16.6608 
G01 X35.4851 Y16.6608 
G01 X35.3382 Y16.6316 
G01 X35.1998 Y16.5743 
G01 X35.0753 Y16.4910 
G01 X34.9694 Y16.3851 
G01 X34.8861 Y16.2606 
G01 X34.8288 Y16.1222 
G01 X34.7996 Y15.9753 
G01 X34.7996 Y14.5047 
G01 X34.8288 Y14.3578 
G01 X34.8861 Y14.2194 
G01 X34.9694 Y14.0949 
G01 X35.0753 Y13.9890 
G01 X35.1998 Y13.9057 
G01 X35.3382 Y13.8484 
G01 X35.4851 Y13.8192 
G01 X35.6349 Y13.8192 
G01 X35.7818 Y13.8484 
G01 X35.9202 Y13.9057 
G01 X36.0447 Y13.9890 
G01 X36.1506 Y14.0949 
G01 X36.2339 Y14.2194 
G01 X36.2912 Y14.3578 
G01 X36.3204 Y14.5047 
G00 Z2.0000 
G00 X38.8604 Y14.5047 
G01 Z-0.0250 F254.00 
G01 X38.8604 Y15.9753 F508.00 
G01 X38.8312 Y16.1222 
G01 X38.7739 Y16.2606 
G01 X38.6906 Y16.3851 
G01 X38.5847 Y16.4910 
G01 X38.4602 Y16.5743 
G01 X38.3218 Y16.6316 
G01 X38.1749 Y16.6608 
G01 X38.0251 Y16.6608 
G01 X37.8782 Y16.6316 
G01 X37.7398 Y16.5743 
G01 X37.6153 Y16.4910 
G01 X37.5094 Y16.3851 
G01 X37.4261 Y16.2606 
G01 X37.3688 Y16.1222 
G01 X37.3396 Y15.9753 
G01 X37.3396 Y14.5047 
G01 X37.3688 Y14.3578 
G01 X37.4261 Y14.2194 
G01 X37.5094 Y14.0949 
G01 X37.6153 Y13.9890 
G01 X37.7398 Y13.9057 
G01 X37.8782 Y13.8484 
G01 X38.0251 Y13.8192 
G01 X38.1749 Y13.8192 
G01 X38.3218 Y13.8484 
G01 X38.4602 Y13.9057 
G01 X38.5847 Y13.9890 
G01 X38.6906 Y14.0949 
G01 X38.7739 Y14.2194 
G01 X38.8312 Y14.3578 
G01 X38.8604 Y14.5047 
G00 Z2.0000 
G00 X41.4004 Y14.5047 
G01 Z-0.0250 F254.00 
G01 X41.4004 Y15.9753 F508.00 
G01 X41.3712 Y16.1222 
G01 X41.3139 Y16.2606 
G01 X41.2306 Y16.3851 
G01 X41.1247 Y16.4910 
G01 X41.0002 Y16.5743 
G01 X40.8618 Y16.6316 
G01 X40.7149 Y16.6608 
G01 X40.5651 Y16.6608 
G01 X40.4182 Y16.6316 
G01 X40.2798 Y16.5743 
G01 X40.1553 Y16.4910 
G01 X40.0494 Y16.3851 
G01 X39.9661 Y16.2606 
G01 X39.9088 Y16.1222 
G01 X39.8796 Y15.9753 
G01 X39.8796 Y14.5047 
G01 X39.9088 Y14.3578 
G01 X39.9661 Y14.2194 
G01 X40.0494 Y14.0949 
G01 X40.1553 Y13.9890 
G01 X40.2798 Y13.9057 
G01 X40.4182 Y13.8484 
G01 X40.5651 Y13.8192 
G01 X40.7149 Y13.8192 
G01 X40.8618 Y13.8484 
G01 X41.0002 Y13.9057 
G01 X41.1247 Y13.9890 
G01 X41.2306 Y14.0949 
G01 X41.3139 Y14.2194 
G01 X41.3712 Y14.3578 
G01 X41.4004 Y14.5047 
G00 Z2.0000 
G00 X46.4804 Y14.5047 
G01 Z-0.0250 F254.00 
G01 X46.4804 Y15.9753 F508.00 
G01 X46.4512 Y16.1222 
G01 X46.3939 Y16.2606 
G01 X46.3106 Y16.3851 
G01 X46.2047 Y16.4910 
G01 X46.0802 Y16.5743 
G01 X45.9418 Y16.6316 
G01 X45.7949 Y16.6608 
G01 X45.6451 Y16.6608 
G01 X45.4982 Y16.6316 
G01 X45.3598 Y16.5743 
G01 X45.2353 Y16.4910 
G01 X45.1294 Y16.3851 
G01 X45.0461 Y16.2606 
G01 X44.9888 Y16.1222 
G01 X44.9596 Y15.9753 
G01 X44.9596 Y14.5047 
G01 X44.9888 Y14.3578 
G01 X45.0461 Y14.2194 
G01 X45.1294 Y14.0949 
G01 X45.2353 Y13.9890 
G01 X45.3598 Y13.9057 
G01 X45.4982 Y13.8484 
G01 X45.6451 Y13.8192 
G01 X45.7949 Y13.8192 
G01 X45.9418 Y13.8484 
G01 X46.0802 Y13.9057 
G01 X46.2047 Y13.9890 
G01 X46.3106 Y14.0949 
G01 X46.3939 Y14.2194 
G01 X46.4512 Y14.3578 
G01 X46.4804 Y14.5047 
G00 Z2.0000 
G00 X61.7204 Y14.5047 
G01 Z-0.0250 F254.00 
G01 X61.7204 Y15.9753 F508.00 
G01 X61.6912 Y16.1222 
G01 X61.6339 Y16.2606 
G01 X61.5506 Y16.3851 
G01 X61.4447 Y16.4910 
G01 X61.3202 Y16.5743 
G01 X61.1818 Y16.6316 
G01 X61.0349 Y16.6608 
G01 X60.8851 Y16.6608 
G01 X60.7382 Y16.6316 
G01 X60.5998 Y16.5743 
G01 X60.4753 Y16.4910 
G01 X60.3694 Y16.3851 
G01 X60.2861 Y16.2606 
G01 X60.2288 Y16.1222 
G01 X60.1996 Y15.9753 
G01 X60.1996 Y14.5047 
G01 X60.2288 Y14.3578 
G01 X60.2861 Y14.2194 
G01 X60.3694 Y14.0949 
G01 X60.4753 Y13.9890 
G01 X60.5998 Y13.9057 
G01 X60.7382 Y13.8484 
G01 X60.8851 Y13.8192 
G01 X61.0349 Y13.8192 
G01 X61.1818 Y13.8484 
G01 X61.3202 Y13.9057 
G01 X61.4447 Y13.9890 
G01 X61.5506 Y14.0949 
G01 X61.6339 Y14.2194 
G01 X61.6912 Y14.3578 
G01 X61.7204 Y14.5047 
G00 Z2.0000 
G00 X51.9160 Y30.8411 
G01 Z-0.0250 F254.00 
G01 X51.9160 Y32.6589 F508.00 
G01 X51.9008 Y32.6956 
G01 X51.8726 Y32.7238 
G01 X51.8359 Y32.7390 
G01 X46.7161 Y32.7390 
G01 X46.6794 Y32.7238 
G01 X46.6512 Y32.6956 
G01 X46.6360 Y32.6589 
G01 X46.6360 Y30.8411 
G01 X46.6512 Y30.8044 
G01 X46.6794 Y30.7762 
G01 X46.7161 Y30.7610 
G01 X47.9075 Y30.7610 
G01 X46.6084 Y29.4619 
G01 X46.5381 Y29.3916 
G01 X46.5000 Y29.2997 
G01 X46.5000 Y27.0545 
G01 X46.4620 Y27.0388 
G01 X46.3624 Y26.9723 
G01 X46.2777 Y26.8876 
G01 X46.2112 Y26.7880 
G01 X46.1654 Y26.6773 
G01 X46.1420 Y26.5599 
G01 X46.1420 Y26.4401 
G01 X46.1654 Y26.3227 
G01 X46.2112 Y26.2120 
G01 X46.2777 Y26.1124 
G01 X46.3624 Y26.0277 
G01 X46.4620 Y25.9612 
G01 X46.5727 Y25.9154 
G01 X46.6901 Y25.8920 
G01 X46.8099 Y25.8920 
G01 X46.9273 Y25.9154 
G01 X47.0380 Y25.9612 
G01 X47.1376 Y26.0277 
G01 X47.2223 Y26.1124 
G01 X47.2888 Y26.2120 
G01 X47.3346 Y26.3227 
G01 X47.3580 Y26.4401 
G01 X47.3580 Y26.5599 
G01 X47.3346 Y26.6773 
G01 X47.2888 Y26.7880 
G01 X47.2223 Y26.8876 
G01 X47.1376 Y26.9723 
G01 X47.0380 Y27.0388 
G01 X47.0000 Y27.0545 
G01 X47.0000 Y29.1464 
G01 X48.6146 Y30.7610 
G01 X51.8359 Y30.7610 
G01 X51.8726 Y30.7762 
G01 X51.9008 Y30.8044 
G01 X51.9160 Y30.8411 
G00 Z2.0000 
G00 X45.0699 Y36.7000 
G01 Z-0.0250 F254.00 
G01 X45.1066 Y36.7152 F508.00 
G01 X45.1348 Y36.7434 
G01 X45.1500 Y36.7801 
G01 X45.1500 Y37.6199 
G01 X45.1348 Y37.6566 
G01 X45.1066 Y37.6848 
G01 X45.0699 Y37.7000 
G01 X43.8301 Y37.7000 
G01 X43.7934 Y37.6848 
G01 X43.7652 Y37.6566 
G01 X43.7500 Y37.6199 
G01 X43.7500 Y36.8535 
G01 X43.1084 Y36.2119 
G01 X43.0381 Y36.1416 
G01 X43.0000 Y36.0497 
G01 X43.0000 Y24.2599 
G01 X42.9582 Y24.2516 
G01 X42.8198 Y24.1943 
G01 X42.6953 Y24.1110 
G01 X42.5894 Y24.0051 
G01 X42.5061 Y23.8806 
G01 X42.4488 Y23.7422 
G01 X42.4196 Y23.5953 
G01 X42.4196 Y22.1247 
G01 X42.4488 Y21.9778 
G01 X42.5061 Y21.8394 
G01 X42.5894 Y21.7149 
G01 X42.6953 Y21.6090 
G01 X42.8198 Y21.5257 
G01 X42.9582 Y21.4684 
G01 X43.1051 Y21.4392 
G01 X43.2549 Y21.4392 
G01 X43.4018 Y21.4684 
G01 X43.5402 Y21.5257 
G01 X43.6647 Y21.6090 
G01 X43.7706 Y21.7149 
G01 X43.8539 Y21.8394 
G01 X43.9112 Y21.9778 
G01 X43.9404 Y22.1247 
G01 X43.9404 Y23.5953 
G01 X43.9112 Y23.7422 
G01 X43.8539 Y23.8806 
G01 X43.7706 Y24.0051 
G01 X43.6647 Y24.1110 
G01 X43.5402 Y24.1943 
G01 X43.5000 Y24.2109 
G01 X43.5000 Y35.8964 
G01 X44.3036 Y36.7000 
G01 X45.0699 Y36.7000 
G00 Z2.0000 
G00 X9.3710 Y20.5176 
G01 Z-0.0250 F254.00 
G01 X9.3710 Y20.6812 F508.00 
G01 X9.3454 Y20.8429 
G01 X9.2948 Y20.9985 
G01 X9.2298 Y21.1262 
G01 X10.2119 Y22.1084 
G01 X10.2500 Y22.2003 
G01 X10.2500 Y36.1300 
G01 X10.9499 Y36.1300 
G01 X10.9866 Y36.1452 
G01 X11.0148 Y36.1734 
G01 X11.0300 Y36.2101 
G01 X11.0300 Y37.4499 
G01 X11.0148 Y37.4866 
G01 X10.9866 Y37.5148 
G01 X10.9499 Y37.5300 
G01 X10.1101 Y37.5300 
G01 X10.0734 Y37.5148 
G01 X10.0452 Y37.4866 
G01 X10.0300 Y37.4499 
G01 X10.0300 Y36.6335 
G01 X9.8584 Y36.4619 
G01 X9.7881 Y36.3916 
G01 X9.7500 Y36.2997 
G01 X9.7500 Y22.3536 
G01 X8.8814 Y21.4849 
G01 X8.8762 Y21.4887 
G01 X8.7303 Y21.5630 
G01 X8.5747 Y21.6136 
G01 X8.4130 Y21.6392 
G01 X8.2494 Y21.6392 
G01 X8.0877 Y21.6136 
G01 X7.9321 Y21.5630 
G01 X7.7862 Y21.4887 
G01 X7.6538 Y21.3925 
G01 X7.5381 Y21.2768 
G01 X7.4419 Y21.1444 
G01 X7.3676 Y20.9985 
G01 X7.3170 Y20.8429 
G01 X7.2914 Y20.6812 
G01 X7.2914 Y20.5176 
G01 X7.3170 Y20.3559 
G01 X7.3676 Y20.2003 
G01 X7.4419 Y20.0544 
G01 X7.5381 Y19.9220 
G01 X7.6538 Y19.8063 
G01 X7.7862 Y19.7101 
G01 X7.9321 Y19.6358 
G01 X8.0877 Y19.5852 
G01 X8.2494 Y19.5596 
G01 X8.4130 Y19.5596 
G01 X8.5747 Y19.5852 
G01 X8.7303 Y19.6358 
G01 X8.8762 Y19.7101 
G01 X9.0086 Y19.8063 
G01 X9.1243 Y19.9220 
G01 X9.2205 Y20.0544 
G01 X9.2948 Y20.2003 
G01 X9.3454 Y20.3559 
G01 X9.3710 Y20.5176 
G00 Z2.0000 
G00 X2.8686 Y20.5176 
G01 Z-0.0250 F254.00 
G01 X2.8686 Y20.6812 F508.00 
G01 X2.8430 Y20.8429 
G01 X2.7924 Y20.9985 
G01 X2.7181 Y21.1444 
G01 X2.6219 Y21.2768 
G01 X2.5062 Y21.3925 
G01 X2.3738 Y21.4887 
G01 X2.2279 Y21.5630 
G01 X2.0723 Y21.6136 
G01 X1.9106 Y21.6392 
G01 X1.7470 Y21.6392 
G01 X1.5853 Y21.6136 
G01 X1.4297 Y21.5630 
G01 X1.2838 Y21.4887 
G01 X1.1514 Y21.3925 
G01 X1.0357 Y21.2768 
G01 X0.9395 Y21.1444 
G01 X0.8652 Y20.9985 
G01 X0.8146 Y20.8429 
G01 X0.7890 Y20.6812 
G01 X0.7890 Y20.5176 
G01 X0.8146 Y20.3559 
G01 X0.8652 Y20.2003 
G01 X0.9395 Y20.0544 
G01 X1.0357 Y19.9220 
G01 X1.1514 Y19.8063 
G01 X1.2838 Y19.7101 
G01 X1.4297 Y19.6358 
G01 X1.5853 Y19.5852 
G01 X1.7470 Y19.5596 
G01 X1.9106 Y19.5596 
G01 X2.0723 Y19.5852 
G01 X2.2279 Y19.6358 
G01 X2.3738 Y19.7101 
G01 X2.5062 Y19.8063 
G01 X2.6219 Y19.9220 
G01 X2.7181 Y20.0544 
G01 X2.7924 Y20.2003 
G01 X2.8430 Y20.3559 
G01 X2.8686 Y20.5176 
G00 Z2.0000 
G00 X2.8686 Y25.0388 
G01 Z-0.0250 F254.00 
G01 X2.8686 Y25.2024 F508.00 
G01 X2.8430 Y25.3641 
G01 X2.7924 Y25.5197 
G01 X2.7181 Y25.6656 
G01 X2.6219 Y25.7980 
G01 X2.5062 Y25.9137 
G01 X2.3738 Y26.0099 
G01 X2.2279 Y26.0842 
G01 X2.0723 Y26.1348 
G01 X1.9106 Y26.1604 
G01 X1.7470 Y26.1604 
G01 X1.5853 Y26.1348 
G01 X1.4297 Y26.0842 
G01 X1.2838 Y26.0099 
G01 X1.1514 Y25.9137 
G01 X1.0357 Y25.7980 
G01 X0.9395 Y25.6656 
G01 X0.8652 Y25.5197 
G01 X0.8146 Y25.3641 
G01 X0.7890 Y25.2024 
G01 X0.7890 Y25.0388 
G01 X0.8146 Y24.8771 
G01 X0.8652 Y24.7215 
G01 X0.9395 Y24.5756 
G01 X1.0357 Y24.4432 
G01 X1.1514 Y24.3275 
G01 X1.2838 Y24.2313 
G01 X1.4297 Y24.1570 
G01 X1.5853 Y24.1064 
G01 X1.7470 Y24.0808 
G01 X1.9106 Y24.0808 
G01 X2.0723 Y24.1064 
G01 X2.2279 Y24.1570 
G01 X2.3738 Y24.2313 
G01 X2.5062 Y24.3275 
G01 X2.6219 Y24.4432 
G01 X2.7181 Y24.5756 
G01 X2.7924 Y24.7215 
G01 X2.8430 Y24.8771 
G01 X2.8686 Y25.0388 
G00 Z2.0000 
G00 X9.7369 Y9.7520 
G01 Z-0.0250 F254.00 
G01 X8.0431 Y9.7520 F508.00 
G01 X7.8766 Y9.7189 
G01 X7.7197 Y9.6539 
G01 X7.5785 Y9.5596 
G01 X7.4584 Y9.4395 
G01 X7.3641 Y9.2983 
G01 X7.2991 Y9.1414 
G01 X7.2660 Y8.9749 
G01 X7.2660 Y8.8051 
G01 X7.2991 Y8.6386 
G01 X7.3641 Y8.4817 
G01 X7.4584 Y8.3405 
G01 X7.5785 Y8.2204 
G01 X7.7197 Y8.1261 
G01 X7.8766 Y8.0611 
G01 X8.0431 Y8.0280 
G01 X9.7369 Y8.0280 
G01 X9.9034 Y8.0611 
G01 X10.0603 Y8.1261 
G01 X10.2015 Y8.2204 
G01 X10.3216 Y8.3405 
G01 X10.4159 Y8.4817 
G01 X10.4809 Y8.6386 
G01 X10.5140 Y8.8051 
G01 X10.5140 Y8.9749 
G01 X10.4809 Y9.1414 
G01 X10.4159 Y9.2983 
G01 X10.3216 Y9.4395 
G01 X10.2015 Y9.5596 
G01 X10.0603 Y9.6539 
G01 X9.9034 Y9.7189 
G01 X9.7369 Y9.7520 
G00 Z2.0000 
G00 X26.8462 Y44.3701 
G01 Z-0.0250 F254.00 
G01 X26.8462 Y44.5299 F508.00 
G01 X26.8150 Y44.6866 
G01 X26.7539 Y44.8342 
G01 X26.6651 Y44.9671 
G01 X26.5521 Y45.0801 
G01 X26.4192 Y45.1689 
G01 X26.2716 Y45.2300 
G01 X26.1149 Y45.2612 
G01 X25.9551 Y45.2612 
G01 X25.7984 Y45.2300 
G01 X25.6508 Y45.1689 
G01 X25.5179 Y45.0801 
G01 X25.4049 Y44.9671 
G01 X25.3161 Y44.8342 
G01 X25.2550 Y44.6866 
G01 X25.2238 Y44.5299 
G01 X25.2238 Y44.3701 
G01 X25.2550 Y44.2134 
G01 X25.3161 Y44.0658 
G01 X25.4049 Y43.9329 
G01 X25.5179 Y43.8199 
G01 X25.6508 Y43.7311 
G01 X25.7984 Y43.6700 
G01 X25.9551 Y43.6388 
G01 X26.1149 Y43.6388 
G01 X26.2716 Y43.6700 
G01 X26.4192 Y43.7311 
G01 X26.5521 Y43.8199 
G01 X26.6651 Y43.9329 
G01 X26.7539 Y44.0658 
G01 X26.8150 Y44.2134 
G01 X26.8462 Y44.3701 
G00 Z2.0000 
G00 X11.0801 Y19.3800 
G01 Z-0.0250 F254.00 
G01 X12.2500 Y19.3800 F508.00 
G01 X12.2500 Y17.6036 
G01 X9.4784 Y14.8320 
G01 X8.0431 Y14.8320 
G01 X7.8766 Y14.7989 
G01 X7.7197 Y14.7339 
G01 X7.5785 Y14.6396 
G01 X7.4584 Y14.5195 
G01 X7.3641 Y14.3783 
G01 X7.2991 Y14.2214 
G01 X7.2660 Y14.0549 
G01 X7.2660 Y13.8851 
G01 X7.2991 Y13.7186 
G01 X7.3641 Y13.5617 
G01 X7.4584 Y13.4205 
G01 X7.5785 Y13.3004 
G01 X7.7197 Y13.2061 
G01 X7.8766 Y13.1411 
G01 X8.0431 Y13.1080 
G01 X9.7369 Y13.1080 
G01 X9.9034 Y13.1411 
G01 X10.0603 Y13.2061 
G01 X10.2015 Y13.3004 
G01 X10.3216 Y13.4205 
G01 X10.4159 Y13.5617 
G01 X10.4809 Y13.7186 
G01 X10.5140 Y13.8851 
G01 X10.5140 Y14.0549 
G01 X10.4809 Y14.2214 
G01 X10.4159 Y14.3783 
G01 X10.3216 Y14.5195 
G01 X10.2015 Y14.6396 
G01 X10.0766 Y14.7230 
G01 X12.6416 Y17.2881 
G01 X12.7119 Y17.3584 
G01 X12.7500 Y17.4503 
G01 X12.7500 Y19.3800 
G01 X14.3199 Y19.3800 
G01 X14.3566 Y19.3952 
G01 X14.3848 Y19.4234 
G01 X14.4000 Y19.4601 
G01 X14.4000 Y21.2799 
G01 X14.3848 Y21.3166 
G01 X14.3566 Y21.3448 
G01 X14.3199 Y21.3600 
G01 X11.0801 Y21.3600 
G01 X11.0434 Y21.3448 
G01 X11.0152 Y21.3166 
G01 X11.0000 Y21.2799 
G01 X11.0000 Y19.4601 
G01 X11.0152 Y19.4234 
G01 X11.0434 Y19.3952 
G01 X11.0801 Y19.3800 
G00 Z2.0000 
G00 X73.2369 Y23.7220 
G01 Z-0.0250 F254.00 
G01 X71.5431 Y23.7220 F508.00 
G01 X71.3766 Y23.6889 
G01 X71.2197 Y23.6239 
G01 X71.0785 Y23.5296 
G01 X70.9584 Y23.4095 
G01 X70.8641 Y23.2683 
G01 X70.7991 Y23.1114 
G01 X70.7660 Y22.9449 
G01 X70.7660 Y22.8696 
G01 X64.1671 Y16.2707 
G01 X64.0906 Y16.3851 
G01 X63.9847 Y16.4910 
G01 X63.8602 Y16.5743 
G01 X63.7218 Y16.6316 
G01 X63.5749 Y16.6608 
G01 X63.4251 Y16.6608 
G01 X63.2782 Y16.6316 
G01 X63.1398 Y16.5743 
G01 X63.0153 Y16.4910 
G01 X62.9094 Y16.3851 
G01 X62.8261 Y16.2606 
G01 X62.7688 Y16.1222 
G01 X62.7396 Y15.9753 
G01 X62.7396 Y14.5047 
G01 X62.7688 Y14.3578 
G01 X62.8261 Y14.2194 
G01 X62.9094 Y14.0949 
G01 X63.0153 Y13.9890 
G01 X63.1398 Y13.9057 
G01 X63.2782 Y13.8484 
G01 X63.4251 Y13.8192 
G01 X63.5749 Y13.8192 
G01 X63.7218 Y13.8484 
G01 X63.8602 Y13.9057 
G01 X63.9847 Y13.9890 
G01 X64.0906 Y14.0949 
G01 X64.1739 Y14.2194 
G01 X64.2312 Y14.3578 
G01 X64.2604 Y14.5047 
G01 X64.2604 Y15.6568 
G01 X70.9407 Y22.3371 
G01 X70.9584 Y22.3105 
G01 X71.0785 Y22.1904 
G01 X71.2197 Y22.0961 
G01 X71.3766 Y22.0311 
G01 X71.5431 Y21.9980 
G01 X73.2369 Y21.9980 
G01 X73.4034 Y22.0311 
G01 X73.5603 Y22.0961 
G01 X73.7015 Y22.1904 
G01 X73.8216 Y22.3105 
G01 X73.9159 Y22.4517 
G01 X73.9809 Y22.6086 
G01 X74.0140 Y22.7751 
G01 X74.0140 Y22.9449 
G01 X73.9809 Y23.1114 
G01 X73.9159 Y23.2683 
G01 X73.8216 Y23.4095 
G01 X73.7015 Y23.5296 
G01 X73.5603 Y23.6239 
G01 X73.4034 Y23.6889 
G01 X73.2369 Y23.7220 
G00 Z2.0000 
G00 X73.2369 Y18.6420 
G01 Z-0.0250 F254.00 
G01 X71.5431 Y18.6420 F508.00 
G01 X71.3766 Y18.6089 
G01 X71.2197 Y18.5439 
G01 X71.0785 Y18.4496 
G01 X70.9584 Y18.3295 
G01 X70.8641 Y18.1883 
G01 X70.7991 Y18.0314 
G01 X70.7660 Y17.8649 
G01 X70.7660 Y17.6951 
G01 X70.7991 Y17.5286 
G01 X70.8641 Y17.3717 
G01 X70.9584 Y17.2305 
G01 X71.0785 Y17.1104 
G01 X71.2197 Y17.0161 
G01 X71.3766 Y16.9511 
G01 X71.5431 Y16.9180 
G01 X73.2369 Y16.9180 
G01 X73.4034 Y16.9511 
G01 X73.5603 Y17.0161 
G01 X73.7015 Y17.1104 
G01 X73.8216 Y17.2305 
G01 X73.9159 Y17.3717 
G01 X73.9809 Y17.5286 
G01 X74.0140 Y17.6951 
G01 X74.0140 Y17.8649 
G01 X73.9809 Y18.0314 
G01 X73.9159 Y18.1883 
G01 X73.8216 Y18.3295 
G01 X73.7015 Y18.4496 
G01 X73.5603 Y18.5439 
G01 X73.4034 Y18.6089 
G01 X73.2369 Y18.6420 
G00 Z2.0000 
G00 X71.5431 Y11.0220 
G01 Z-0.0250 F254.00 
G01 X71.3766 Y10.9889 F508.00 
G01 X71.2197 Y10.9239 
G01 X71.0785 Y10.8296 
G01 X70.9584 Y10.7095 
G01 X70.8641 Y10.5683 
G01 X70.7991 Y10.4114 
G01 X70.7660 Y10.2449 
G01 X70.7660 Y10.0751 
G01 X70.7991 Y9.9086 
G01 X70.8641 Y9.7517 
G01 X70.9584 Y9.6105 
G01 X71.0785 Y9.4904 
G01 X71.2197 Y9.3961 
G01 X71.3766 Y9.3311 
G01 X71.5431 Y9.2980 
G01 X73.2369 Y9.2980 
G01 X73.4034 Y9.3311 
G01 X73.5603 Y9.3961 
G01 X73.7015 Y9.4904 
G01 X73.8216 Y9.6105 
G01 X73.9159 Y9.7517 
G01 X73.9809 Y9.9086 
G01 X74.0140 Y10.0751 
G01 X74.0140 Y10.2449 
G01 X73.9809 Y10.4114 
G01 X73.9159 Y10.5683 
G01 X73.8216 Y10.7095 
G01 X73.7015 Y10.8296 
G01 X73.5603 Y10.9239 
G01 X73.5371 Y10.9335 
G01 X74.6416 Y12.0381 
G01 X74.7119 Y12.1084 
G01 X74.7500 Y12.2003 
G01 X74.7500 Y18.2997 
G01 X74.7119 Y18.3916 
G01 X74.6416 Y18.4619 
G01 X73.5512 Y19.5523 
G01 X73.5603 Y19.5561 
G01 X73.7015 Y19.6504 
G01 X73.8216 Y19.7705 
G01 X73.9159 Y19.9117 
G01 X73.9809 Y20.0686 
G01 X74.0140 Y20.2351 
G01 X74.0140 Y20.4049 
G01 X73.9809 Y20.5714 
G01 X73.9159 Y20.7283 
G01 X73.8216 Y20.8695 
G01 X73.7015 Y20.9896 
G01 X73.5603 Y21.0839 
G01 X73.4034 Y21.1489 
G01 X73.2369 Y21.1820 
G01 X71.5431 Y21.1820 
G01 X71.3766 Y21.1489 
G01 X71.2197 Y21.0839 
G01 X71.0785 Y20.9896 
G01 X70.9584 Y20.8695 
G01 X70.8641 Y20.7283 
G01 X70.7991 Y20.5714 
G01 X70.7660 Y20.4049 
G01 X70.7660 Y20.2351 
G01 X70.7991 Y20.0686 
G01 X70.8641 Y19.9117 
G01 X70.9584 Y19.7705 
G01 X71.0785 Y19.6504 
G01 X71.2197 Y19.5561 
G01 X71.3766 Y19.4911 
G01 X71.5431 Y19.4580 
G01 X72.9384 Y19.4580 
G01 X74.2500 Y18.1464 
G01 X74.2500 Y13.6035 
G01 X73.4310 Y14.4225 
G01 X73.5603 Y14.4761 
G01 X73.7015 Y14.5704 
G01 X73.8216 Y14.6905 
G01 X73.9159 Y14.8317 
G01 X73.9809 Y14.9886 
G01 X74.0140 Y15.1551 
G01 X74.0140 Y15.3249 
G01 X73.9809 Y15.4914 
G01 X73.9159 Y15.6483 
G01 X73.8216 Y15.7895 
G01 X73.7015 Y15.9096 
G01 X73.5603 Y16.0039 
G01 X73.4034 Y16.0689 
G01 X73.2369 Y16.1020 
G01 X71.5431 Y16.1020 
G01 X71.3766 Y16.0689 
G01 X71.2197 Y16.0039 
G01 X71.0785 Y15.9096 
G01 X70.9584 Y15.7895 
G01 X70.8641 Y15.6483 
G01 X70.7991 Y15.4914 
G01 X70.7660 Y15.3249 
G01 X70.7660 Y15.1551 
G01 X70.7991 Y14.9886 
G01 X70.8641 Y14.8317 
G01 X70.9584 Y14.6905 
G01 X71.0785 Y14.5704 
G01 X71.2197 Y14.4761 
G01 X71.3766 Y14.4111 
G01 X71.5431 Y14.3780 
G01 X72.7684 Y14.3780 
G01 X74.2500 Y12.8964 
G01 X74.2500 Y12.3536 
G01 X72.9184 Y11.0220 
G01 X71.5431 Y11.0220 
G00 Z2.0000 
G00 X73.2369 Y8.4820 
G01 Z-0.0250 F254.00 
G01 X71.5431 Y8.4820 F508.00 
G01 X71.3766 Y8.4489 
G01 X71.2197 Y8.3839 
G01 X71.0785 Y8.2896 
G01 X70.9584 Y8.1695 
G01 X70.8641 Y8.0283 
G01 X70.7991 Y7.8714 
G01 X70.7660 Y7.7049 
G01 X70.7660 Y7.5351 
G01 X70.7991 Y7.3686 
G01 X70.8641 Y7.2117 
G01 X70.9584 Y7.0705 
G01 X71.0785 Y6.9504 
G01 X71.2197 Y6.8561 
G01 X71.3766 Y6.7911 
G01 X71.5431 Y6.7580 
G01 X73.2369 Y6.7580 
G01 X73.4034 Y6.7911 
G01 X73.5603 Y6.8561 
G01 X73.7015 Y6.9504 
G01 X73.8216 Y7.0705 
G01 X73.9159 Y7.2117 
G01 X73.9809 Y7.3686 
G01 X74.0140 Y7.5351 
G01 X74.0140 Y7.7049 
G01 X73.9809 Y7.8714 
G01 X73.9159 Y8.0283 
G01 X73.8216 Y8.1695 
G01 X73.7015 Y8.2896 
G01 X73.5603 Y8.3839 
G01 X73.4034 Y8.4489 
G01 X73.2369 Y8.4820 
G00 Z2.0000 
G00 X73.2369 Y5.9420 
G01 Z-0.0250 F254.00 
G01 X71.5431 Y5.9420 F508.00 
G01 X71.3766 Y5.9089 
G01 X71.2197 Y5.8439 
G01 X71.0785 Y5.7496 
G01 X70.9584 Y5.6295 
G01 X70.8641 Y5.4883 
G01 X70.7991 Y5.3314 
G01 X70.7660 Y5.1649 
G01 X70.7660 Y4.9951 
G01 X70.7991 Y4.8286 
G01 X70.8641 Y4.6717 
G01 X70.9584 Y4.5305 
G01 X71.0785 Y4.4104 
G01 X71.2197 Y4.3161 
G01 X71.3766 Y4.2511 
G01 X71.5431 Y4.2180 
G01 X73.2369 Y4.2180 
G01 X73.4034 Y4.2511 
G01 X73.5603 Y4.3161 
G01 X73.7015 Y4.4104 
G01 X73.8216 Y4.5305 
G01 X73.9159 Y4.6717 
G01 X73.9809 Y4.8286 
G01 X74.0140 Y4.9951 
G01 X74.0140 Y5.1649 
G01 X73.9809 Y5.3314 
G01 X73.9159 Y5.4883 
G01 X73.8216 Y5.6295 
G01 X73.7015 Y5.7496 
G01 X73.5603 Y5.8439 
G01 X73.4034 Y5.9089 
G01 X73.2369 Y5.9420 
G00 Z2.0000 
G00 X73.2369 Y44.0420 
G01 Z-0.0250 F254.00 
G01 X71.5431 Y44.0420 F508.00 
G01 X71.3766 Y44.0089 
G01 X71.2197 Y43.9439 
G01 X71.0785 Y43.8496 
G01 X70.9584 Y43.7295 
G01 X70.8641 Y43.5883 
G01 X70.7991 Y43.4314 
G01 X70.7660 Y43.2649 
G01 X70.7660 Y43.0951 
G01 X70.7991 Y42.9286 
G01 X70.8641 Y42.7717 
G01 X70.9584 Y42.6305 
G01 X71.0785 Y42.5104 
G01 X71.2197 Y42.4161 
G01 X71.3766 Y42.3511 
G01 X71.5431 Y42.3180 
G01 X73.2369 Y42.3180 
G01 X73.4034 Y42.3511 
G01 X73.5603 Y42.4161 
G01 X73.7015 Y42.5104 
G01 X73.8216 Y42.6305 
G01 X73.9159 Y42.7717 
G01 X73.9809 Y42.9286 
G01 X74.0140 Y43.0951 
G01 X74.0140 Y43.2649 
G01 X73.9809 Y43.4314 
G01 X73.9159 Y43.5883 
G01 X73.8216 Y43.7295 
G01 X73.7015 Y43.8496 
G01 X73.5603 Y43.9439 
G01 X73.4034 Y44.0089 
G01 X73.2369 Y44.0420 
G00 Z2.0000 
G00 X73.2369 Y41.5020 
G01 Z-0.0250 F254.00 
G01 X71.5431 Y41.5020 F508.00 
G01 X71.3766 Y41.4689 
G01 X71.2197 Y41.4039 
G01 X71.0785 Y41.3096 
G01 X70.9584 Y41.1895 
G01 X70.8641 Y41.0483 
G01 X70.7991 Y40.8914 
G01 X70.7660 Y40.7249 
G01 X70.7660 Y40.5551 
G01 X70.7991 Y40.3886 
G01 X70.8641 Y40.2317 
G01 X70.9584 Y40.0905 
G01 X71.0785 Y39.9704 
G01 X71.2197 Y39.8761 
G01 X71.3766 Y39.8111 
G01 X71.5431 Y39.7780 
G01 X73.2369 Y39.7780 
G01 X73.4034 Y39.8111 
G01 X73.5603 Y39.8761 
G01 X73.7015 Y39.9704 
G01 X73.8216 Y40.0905 
G01 X73.9159 Y40.2317 
G01 X73.9809 Y40.3886 
G01 X74.0140 Y40.5551 
G01 X74.0140 Y40.7249 
G01 X73.9809 Y40.8914 
G01 X73.9159 Y41.0483 
G01 X73.8216 Y41.1895 
G01 X73.7015 Y41.3096 
G01 X73.5603 Y41.4039 
G01 X73.4034 Y41.4689 
G01 X73.2369 Y41.5020 
G00 Z2.0000 
G00 X73.2369 Y38.9620 
G01 Z-0.0250 F254.00 
G01 X71.5431 Y38.9620 F508.00 
G01 X71.3766 Y38.9289 
G01 X71.2197 Y38.8639 
G01 X71.0785 Y38.7696 
G01 X70.9584 Y38.6495 
G01 X70.8641 Y38.5083 
G01 X70.7991 Y38.3514 
G01 X70.7660 Y38.1849 
G01 X70.7660 Y38.0151 
G01 X70.7991 Y37.8486 
G01 X70.8641 Y37.6917 
G01 X70.9584 Y37.5505 
G01 X71.0785 Y37.4304 
G01 X71.2197 Y37.3361 
G01 X71.3766 Y37.2711 
G01 X71.5431 Y37.2380 
G01 X73.2369 Y37.2380 
G01 X73.4034 Y37.2711 
G01 X73.5603 Y37.3361 
G01 X73.7015 Y37.4304 
G01 X73.8216 Y37.5505 
G01 X73.9159 Y37.6917 
G01 X73.9809 Y37.8486 
G01 X74.0140 Y38.0151 
G01 X74.0140 Y38.1849 
G01 X73.9809 Y38.3514 
G01 X73.9159 Y38.5083 
G01 X73.8216 Y38.6495 
G01 X73.7015 Y38.7696 
G01 X73.5603 Y38.8639 
G01 X73.4034 Y38.9289 
G01 X73.2369 Y38.9620 
G00 Z2.0000 
G00 X73.2369 Y36.4220 
G01 Z-0.0250 F254.00 
G01 X71.5431 Y36.4220 F508.00 
G01 X71.3766 Y36.3889 
G01 X71.2197 Y36.3239 
G01 X71.0785 Y36.2296 
G01 X70.9584 Y36.1095 
G01 X70.8641 Y35.9683 
G01 X70.7991 Y35.8114 
G01 X70.7660 Y35.6449 
G01 X70.7660 Y35.4751 
G01 X70.7991 Y35.3086 
G01 X70.8641 Y35.1517 
G01 X70.9584 Y35.0105 
G01 X71.0785 Y34.8904 
G01 X71.2197 Y34.7961 
G01 X71.3766 Y34.7311 
G01 X71.5431 Y34.6980 
G01 X73.2369 Y34.6980 
G01 X73.4034 Y34.7311 
G01 X73.5603 Y34.7961 
G01 X73.7015 Y34.8904 
G01 X73.8216 Y35.0105 
G01 X73.9159 Y35.1517 
G01 X73.9809 Y35.3086 
G01 X74.0140 Y35.4751 
G01 X74.0140 Y35.6449 
G01 X73.9809 Y35.8114 
G01 X73.9159 Y35.9683 
G01 X73.8216 Y36.1095 
G01 X73.7015 Y36.2296 
G01 X73.5603 Y36.3239 
G01 X73.4034 Y36.3889 
G01 X73.2369 Y36.4220 
G00 Z2.0000 
G00 X19.4731 Y19.4580 
G01 Z-0.0250 F254.00 
G01 X21.1669 Y19.4580 F508.00 
G01 X21.3334 Y19.4911 
G01 X21.4903 Y19.5561 
G01 X21.6315 Y19.6504 
G01 X21.7516 Y19.7705 
G01 X21.8459 Y19.9117 
G01 X21.9109 Y20.0686 
G01 X21.9440 Y20.2351 
G01 X21.9440 Y20.4049 
G01 X21.9109 Y20.5714 
G01 X21.8459 Y20.7283 
G01 X21.7516 Y20.8695 
G01 X21.6315 Y20.9896 
G01 X21.4903 Y21.0839 
G01 X21.3334 Y21.1489 
G01 X21.1669 Y21.1820 
G01 X19.4731 Y21.1820 
G01 X19.3066 Y21.1489 
G01 X19.1497 Y21.0839 
G01 X19.0085 Y20.9896 
G01 X18.8884 Y20.8695 
G01 X18.7941 Y20.7283 
G01 X18.7291 Y20.5714 
G01 X18.6960 Y20.4049 
G01 X18.6960 Y20.2351 
G01 X18.7291 Y20.0686 
G01 X18.7941 Y19.9117 
G01 X18.8884 Y19.7705 
G01 X19.0085 Y19.6504 
G01 X19.1497 Y19.5561 
G01 X19.3066 Y19.4911 
G01 X19.4731 Y19.4580 
G00 Z2.0000 
G00 X19.4731 Y21.9980 
G01 Z-0.0250 F254.00 
G01 X21.1669 Y21.9980 F508.00 
G01 X21.3334 Y22.0311 
G01 X21.4903 Y22.0961 
G01 X21.6315 Y22.1904 
G01 X21.7516 Y22.3105 
G01 X21.8459 Y22.4517 
G01 X21.9109 Y22.6086 
G01 X21.9440 Y22.7751 
G01 X21.9440 Y22.9449 
G01 X21.9109 Y23.1114 
G01 X21.8459 Y23.2683 
G01 X21.7516 Y23.4095 
G01 X21.6315 Y23.5296 
G01 X21.4903 Y23.6239 
G01 X21.3334 Y23.6889 
G01 X21.1669 Y23.7220 
G01 X19.4731 Y23.7220 
G01 X19.3066 Y23.6889 
G01 X19.1497 Y23.6239 
G01 X19.0085 Y23.5296 
G01 X18.8884 Y23.4095 
G01 X18.7941 Y23.2683 
G01 X18.7291 Y23.1114 
G01 X18.6960 Y22.9449 
G01 X18.6960 Y22.7751 
G01 X18.7291 Y22.6086 
G01 X18.7941 Y22.4517 
G01 X18.8884 Y22.3105 
G01 X19.0085 Y22.1904 
G01 X19.1497 Y22.0961 
G01 X19.3066 Y22.0311 
G01 X19.4731 Y21.9980 
G00 Z2.0000 
G00 X19.4731 Y24.5380 
G01 Z-0.0250 F254.00 
G01 X21.1669 Y24.5380 F508.00 
G01 X21.3334 Y24.5711 
G01 X21.4903 Y24.6361 
G01 X21.6315 Y24.7304 
G01 X21.7516 Y24.8505 
G01 X21.8459 Y24.9917 
G01 X21.9109 Y25.1486 
G01 X21.9440 Y25.3151 
G01 X21.9440 Y25.4849 
G01 X21.9109 Y25.6514 
G01 X21.8459 Y25.8083 
G01 X21.7516 Y25.9495 
G01 X21.6315 Y26.0696 
G01 X21.4903 Y26.1639 
G01 X21.3334 Y26.2289 
G01 X21.1669 Y26.2620 
G01 X19.4731 Y26.2620 
G01 X19.3066 Y26.2289 
G01 X19.1497 Y26.1639 
G01 X19.0085 Y26.0696 
G01 X18.8884 Y25.9495 
G01 X18.7941 Y25.8083 
G01 X18.7291 Y25.6514 
G01 X18.6960 Y25.4849 
G01 X18.6960 Y25.3151 
G01 X18.7291 Y25.1486 
G01 X18.7941 Y24.9917 
G01 X18.8884 Y24.8505 
G01 X19.0085 Y24.7304 
G01 X19.1497 Y24.6361 
G01 X19.3066 Y24.5711 
G01 X19.4731 Y24.5380 
G00 Z2.0000 
G00 X19.4731 Y29.6180 
G01 Z-0.0250 F254.00 
G01 X20.7784 Y29.6180 F508.00 
G01 X22.7500 Y27.6464 
G01 X22.7500 Y22.4503 
G01 X22.7881 Y22.3584 
G01 X22.8584 Y22.2881 
G01 X29.7196 Y15.4268 
G01 X29.7196 Y14.5047 
G01 X29.7488 Y14.3578 
G01 X29.8061 Y14.2194 
G01 X29.8894 Y14.0949 
G01 X29.9953 Y13.9890 
G01 X30.1198 Y13.9057 
G01 X30.2582 Y13.8484 
G01 X30.4051 Y13.8192 
G01 X30.5549 Y13.8192 
G01 X30.7018 Y13.8484 
