(.../pcb-gcode-3.6.0.4/pcb-gcode.ulp)
(Copyright 2005 - 2012 by John Johnson)
(See readme.txt for licensing terms.)
(This file generated from the board:)
(.../eagle/SulaMatikV2/SulaMatikV2.brd)
(Current profile is .../pcb-gcode-3.6.0.4/profiles/emc.pp  )
(This file generated 2/1/2015 11:56:19 PM)
(Settings from pcb-machine.h)
(  Tool Size)
(0.1000 )
(Z Axis Settings)
(  High     Up        Down     Drill)
(19.5000 	2.0000 	-0.0250 	-1.5000 )
(spindle on time = 1.0000)
(milling depth = -0.0500)
(text depth = -0.0500)
(tool change at 15.0000 15.0000 19.0000 )
(feed rate xy = F508.00 )
(feed rate z  = F254.00 )
(Settings from pcb-defaults.h)
(isolate min = 0.0500)
(isolate max = 1.0000)
(isolate step = 0.1000)
(Generated top outlines, top drill, bottom outlines, bottom drill, )
(Unit of measure: mm)
(Metric Mode)
G21
(Absolute Coordinates)
G90
G00 X0.0000 Y0.0000 
M03
G04 P1.000000
G00 Z2.0000 
G00 X22.8916 Y44.0381 
G01 Z-0.0250 F254.00 
G01 X22.8916 Y44.0381 F508.00 
G01 X22.9619 Y44.1084 
G01 X23.0000 Y44.2003 
G01 X23.0000 Y44.7800 
G01 X24.4799 Y44.7800 
G01 X24.5166 Y44.7952 
G01 X24.5448 Y44.8234 
G01 X24.5600 Y44.8601 
G01 X24.5600 Y46.6799 
G01 X24.5448 Y46.7166 
G01 X24.5166 Y46.7448 
G01 X24.4799 Y46.7600 
G01 X21.2401 Y46.7600 
G01 X21.2034 Y46.7448 
G01 X21.1752 Y46.7166 
G01 X21.1600 Y46.6799 
G01 X21.1600 Y44.8601 
G01 X21.1752 Y44.8234 
G01 X21.2034 Y44.7952 
G01 X21.2401 Y44.7800 
G01 X22.5000 Y44.7800 
G01 X22.5000 Y44.3536 
G01 X19.9653 Y41.8189 
G01 X19.9273 Y41.8346 
G01 X19.8099 Y41.8580 
G01 X19.6901 Y41.8580 
G01 X19.5726 Y41.8346 
G01 X19.4620 Y41.7888 
G01 X19.3624 Y41.7223 
G01 X19.2777 Y41.6376 
G01 X19.2112 Y41.5380 
G01 X19.1654 Y41.4273 
G01 X19.1420 Y41.3099 
G01 X19.1420 Y41.1901 
G01 X19.1654 Y41.0727 
G01 X19.2112 Y40.9620 
G01 X19.2777 Y40.8624 
G01 X19.3624 Y40.7777 
G01 X19.4620 Y40.7112 
G01 X19.5726 Y40.6654 
G01 X19.6901 Y40.6420 
G01 X19.8099 Y40.6420 
G01 X19.9273 Y40.6654 
G01 X20.0380 Y40.7112 
G01 X20.1376 Y40.7777 
G01 X20.2223 Y40.8624 
G01 X20.2888 Y40.9620 
G01 X20.3346 Y41.0727 
G01 X20.3580 Y41.1901 
G01 X20.3580 Y41.3099 
G01 X20.3346 Y41.4273 
G01 X20.3189 Y41.4653 
G01 X22.8916 Y44.0381 
G00 Z2.0000 
G00 X52.9828 Y57.0601 
G01 Z-0.0250 F254.00 
G01 X52.9828 Y57.2399 F508.00 
G01 X52.9477 Y57.4163 
G01 X52.8789 Y57.5824 
G01 X52.7790 Y57.7319 
G01 X52.6519 Y57.8590 
G01 X52.5024 Y57.9589 
G01 X52.3363 Y58.0277 
G01 X52.1599 Y58.0628 
G01 X51.9801 Y58.0628 
G01 X51.8037 Y58.0277 
G01 X51.6376 Y57.9589 
G01 X51.4881 Y57.8590 
G01 X51.3610 Y57.7319 
G01 X51.2611 Y57.5824 
G01 X51.1923 Y57.4163 
G01 X51.1572 Y57.2399 
G01 X51.1572 Y57.0601 
G01 X51.1923 Y56.8837 
G01 X51.2611 Y56.7176 
G01 X51.3610 Y56.5681 
G01 X51.4881 Y56.4410 
G01 X51.6376 Y56.3411 
G01 X51.8037 Y56.2723 
G01 X51.9801 Y56.2372 
G01 X52.1599 Y56.2372 
G01 X52.3363 Y56.2723 
G01 X52.5024 Y56.3411 
G01 X52.6519 Y56.4410 
G01 X52.7790 Y56.5681 
G01 X52.8789 Y56.7176 
G01 X52.9477 Y56.8837 
G01 X52.9828 Y57.0601 
G00 Z2.0000 
G00 X52.9828 Y54.5201 
G01 Z-0.0250 F254.00 
G01 X52.9828 Y54.6999 F508.00 
G01 X52.9477 Y54.8763 
G01 X52.8789 Y55.0424 
G01 X52.7790 Y55.1919 
G01 X52.6519 Y55.3190 
G01 X52.5024 Y55.4189 
G01 X52.3363 Y55.4877 
G01 X52.1599 Y55.5228 
G01 X51.9801 Y55.5228 
G01 X51.8037 Y55.4877 
G01 X51.6376 Y55.4189 
G01 X51.4881 Y55.3190 
G01 X51.3610 Y55.1919 
G01 X51.2611 Y55.0424 
G01 X51.1923 Y54.8763 
G01 X51.1572 Y54.6999 
G01 X51.1572 Y54.5201 
G01 X51.1923 Y54.3437 
G01 X51.2611 Y54.1776 
G01 X51.2863 Y54.1399 
G01 X48.3584 Y51.2119 
G01 X48.2881 Y51.1416 
G01 X48.2500 Y51.0497 
G01 X48.2500 Y27.1256 
G01 X48.1701 Y27.1256 
G01 X47.9937 Y27.0905 
G01 X47.8276 Y27.0217 
G01 X47.6781 Y26.9218 
G01 X47.5510 Y26.7947 
G01 X47.4511 Y26.6452 
G01 X47.3823 Y26.4791 
G01 X47.3472 Y26.3027 
G01 X47.3472 Y24.4973 
G01 X47.3823 Y24.3209 
G01 X47.4511 Y24.1548 
G01 X47.5510 Y24.0053 
G01 X47.6781 Y23.8782 
G01 X47.8276 Y23.7783 
G01 X47.9937 Y23.7095 
G01 X48.1701 Y23.6744 
G01 X48.3499 Y23.6744 
G01 X48.5263 Y23.7095 
G01 X48.6924 Y23.7783 
G01 X48.8419 Y23.8782 
G01 X48.9690 Y24.0053 
G01 X49.0689 Y24.1548 
G01 X49.1377 Y24.3209 
G01 X49.1728 Y24.4973 
G01 X49.1728 Y26.3027 
G01 X49.1377 Y26.4791 
G01 X49.0689 Y26.6452 
G01 X48.9690 Y26.7947 
G01 X48.8419 Y26.9218 
G01 X48.7500 Y26.9832 
G01 X48.7500 Y50.8964 
G01 X51.6497 Y53.7961 
G01 X51.8037 Y53.7323 
G01 X51.9801 Y53.6972 
G01 X52.1599 Y53.6972 
G01 X52.3363 Y53.7323 
G01 X52.5024 Y53.8011 
G01 X52.6519 Y53.9010 
G01 X52.7790 Y54.0281 
G01 X52.8789 Y54.1776 
G01 X52.9477 Y54.3437 
G01 X52.9828 Y54.5201 
G00 Z2.0000 
G00 X52.9828 Y51.9801 
G01 Z-0.0250 F254.00 
G01 X52.9828 Y52.1599 F508.00 
G01 X52.9477 Y52.3363 
G01 X52.8789 Y52.5024 
G01 X52.7790 Y52.6519 
G01 X52.6519 Y52.7790 
G01 X52.5024 Y52.8789 
G01 X52.3363 Y52.9477 
G01 X52.1599 Y52.9828 
G01 X51.9801 Y52.9828 
G01 X51.8037 Y52.9477 
G01 X51.6376 Y52.8789 
G01 X51.4881 Y52.7790 
G01 X51.3610 Y52.6519 
G01 X51.2611 Y52.5024 
G01 X51.1923 Y52.3363 
G01 X51.1572 Y52.1599 
G01 X51.1572 Y51.9801 
G01 X51.1923 Y51.8037 
G01 X51.2611 Y51.6376 
G01 X51.3610 Y51.4881 
G01 X51.4881 Y51.3610 
G01 X51.6376 Y51.2611 
G01 X51.8037 Y51.1923 
G01 X51.9801 Y51.1572 
G01 X52.1599 Y51.1572 
G01 X52.3363 Y51.1923 
G01 X52.5024 Y51.2611 
G01 X52.6519 Y51.3610 
G01 X52.7790 Y51.4881 
G01 X52.8789 Y51.6376 
G01 X52.9477 Y51.8037 
G01 X52.9828 Y51.9801 
G00 Z2.0000 
G00 X52.9828 Y46.9001 
G01 Z-0.0250 F254.00 
G01 X52.9828 Y47.0799 F508.00 
G01 X52.9477 Y47.2563 
G01 X52.8789 Y47.4224 
G01 X52.7790 Y47.5719 
G01 X52.6519 Y47.6990 
G01 X52.5024 Y47.7989 
G01 X52.3363 Y47.8677 
G01 X52.1599 Y47.9028 
G01 X51.9801 Y47.9028 
G01 X51.8037 Y47.8677 
G01 X51.6376 Y47.7989 
G01 X51.4881 Y47.6990 
G01 X51.3610 Y47.5719 
G01 X51.2611 Y47.4224 
G01 X51.1923 Y47.2563 
G01 X51.1572 Y47.0799 
G01 X51.1572 Y46.9001 
G01 X51.1923 Y46.7237 
G01 X51.2611 Y46.5576 
G01 X51.3384 Y46.4419 
G01 X50.5381 Y45.6416 
G01 X50.5000 Y45.5497 
G01 X50.5000 Y17.1080 
G01 X50.4401 Y17.1080 
G01 X50.3227 Y17.0846 
G01 X50.2120 Y17.0388 
G01 X50.1124 Y16.9723 
G01 X50.0277 Y16.8876 
G01 X49.9612 Y16.7880 
G01 X49.9154 Y16.6773 
G01 X49.8920 Y16.5599 
G01 X49.8920 Y16.4401 
G01 X49.9154 Y16.3226 
G01 X49.9612 Y16.2120 
G01 X50.0277 Y16.1124 
G01 X50.1124 Y16.0277 
G01 X50.2120 Y15.9612 
G01 X50.3227 Y15.9154 
G01 X50.4401 Y15.8920 
G01 X50.5599 Y15.8920 
G01 X50.6773 Y15.9154 
G01 X50.7880 Y15.9612 
G01 X50.8876 Y16.0277 
G01 X50.9723 Y16.1124 
G01 X51.0388 Y16.2120 
G01 X51.0846 Y16.3226 
G01 X51.1080 Y16.4401 
G01 X51.1080 Y16.5599 
G01 X51.0846 Y16.6773 
G01 X51.0388 Y16.7880 
G01 X51.0000 Y16.8461 
G01 X51.0000 Y45.3964 
G01 X51.7416 Y46.1380 
G01 X51.8037 Y46.1123 
G01 X51.9801 Y46.0772 
G01 X52.1599 Y46.0772 
G01 X52.3363 Y46.1123 
G01 X52.5024 Y46.1811 
G01 X52.6519 Y46.2810 
G01 X52.7790 Y46.4081 
G01 X52.8789 Y46.5576 
G01 X52.9477 Y46.7237 
G01 X52.9828 Y46.9001 
G00 Z2.0000 
G00 X52.9828 Y44.3601 
G01 Z-0.0250 F254.00 
G01 X52.9828 Y44.5399 F508.00 
G01 X52.9477 Y44.7163 
G01 X52.8789 Y44.8824 
G01 X52.7790 Y45.0319 
G01 X52.6519 Y45.1590 
G01 X52.5024 Y45.2589 
G01 X52.3363 Y45.3277 
G01 X52.1599 Y45.3628 
G01 X51.9801 Y45.3628 
G01 X51.8037 Y45.3277 
G01 X51.6376 Y45.2589 
G01 X51.4881 Y45.1590 
G01 X51.3610 Y45.0319 
G01 X51.2611 Y44.8824 
G01 X51.1923 Y44.7163 
G01 X51.1572 Y44.5399 
G01 X51.1572 Y44.3601 
G01 X51.1923 Y44.1837 
G01 X51.2611 Y44.0176 
G01 X51.3610 Y43.8681 
G01 X51.4881 Y43.7410 
G01 X51.6376 Y43.6411 
G01 X51.8037 Y43.5723 
G01 X51.9801 Y43.5372 
G01 X52.1599 Y43.5372 
G01 X52.3363 Y43.5723 
G01 X52.5024 Y43.6411 
G01 X52.6519 Y43.7410 
G01 X52.7790 Y43.8681 
G01 X52.8789 Y44.0176 
G01 X52.9477 Y44.1837 
G01 X52.9828 Y44.3601 
G00 Z2.0000 
G00 X52.9828 Y41.8201 
G01 Z-0.0250 F254.00 
G01 X52.9828 Y41.9999 F508.00 
G01 X52.9477 Y42.1763 
G01 X52.8789 Y42.3424 
G01 X52.7790 Y42.4919 
G01 X52.6519 Y42.6190 
G01 X52.5024 Y42.7189 
G01 X52.3363 Y42.7877 
G01 X52.1599 Y42.8228 
G01 X51.9801 Y42.8228 
G01 X51.8037 Y42.7877 
G01 X51.6376 Y42.7189 
G01 X51.4881 Y42.6190 
G01 X51.3610 Y42.4919 
G01 X51.2611 Y42.3424 
G01 X51.1923 Y42.1763 
G01 X51.1572 Y41.9999 
G01 X51.1572 Y41.8201 
G01 X51.1923 Y41.6437 
G01 X51.2611 Y41.4776 
G01 X51.3610 Y41.3281 
G01 X51.4881 Y41.2010 
G01 X51.6376 Y41.1011 
G01 X51.8037 Y41.0323 
G01 X51.9801 Y40.9972 
G01 X52.1599 Y40.9972 
G01 X52.3363 Y41.0323 
G01 X52.5024 Y41.1011 
G01 X52.6519 Y41.2010 
G01 X52.7790 Y41.3281 
G01 X52.8789 Y41.4776 
G01 X52.9477 Y41.6437 
G01 X52.9828 Y41.8201 
G00 Z2.0000 
G00 X52.9828 Y39.2801 
G01 Z-0.0250 F254.00 
G01 X52.9828 Y39.4599 F508.00 
G01 X52.9477 Y39.6363 
G01 X52.8789 Y39.8024 
G01 X52.7790 Y39.9519 
G01 X52.6519 Y40.0790 
G01 X52.5024 Y40.1789 
G01 X52.3363 Y40.2477 
G01 X52.1599 Y40.2828 
G01 X51.9801 Y40.2828 
G01 X51.8037 Y40.2477 
G01 X51.6376 Y40.1789 
G01 X51.4881 Y40.0790 
G01 X51.3610 Y39.9519 
G01 X51.2611 Y39.8024 
G01 X51.1923 Y39.6363 
G01 X51.1572 Y39.4599 
G01 X51.1572 Y39.2801 
G01 X51.1923 Y39.1037 
G01 X51.2611 Y38.9376 
G01 X51.3610 Y38.7881 
G01 X51.4881 Y38.6610 
G01 X51.6376 Y38.5611 
G01 X51.8037 Y38.4923 
G01 X51.9801 Y38.4572 
G01 X52.1599 Y38.4572 
G01 X52.3363 Y38.4923 
G01 X52.5024 Y38.5611 
G01 X52.6519 Y38.6610 
G01 X52.7790 Y38.7881 
G01 X52.8789 Y38.9376 
G01 X52.9477 Y39.1037 
G01 X52.9828 Y39.2801 
G00 Z2.0000 
G00 X52.9828 Y36.7401 
G01 Z-0.0250 F254.00 
G01 X52.9828 Y36.9199 F508.00 
G01 X52.9477 Y37.0963 
G01 X52.8789 Y37.2624 
G01 X52.7790 Y37.4119 
G01 X52.6519 Y37.5390 
G01 X52.5024 Y37.6389 
G01 X52.3363 Y37.7077 
G01 X52.1599 Y37.7428 
G01 X51.9801 Y37.7428 
G01 X51.8037 Y37.7077 
G01 X51.6376 Y37.6389 
G01 X51.4881 Y37.5390 
G01 X51.3610 Y37.4119 
G01 X51.2611 Y37.2624 
G01 X51.1923 Y37.0963 
G01 X51.1572 Y36.9199 
G01 X51.1572 Y36.7401 
G01 X51.1923 Y36.5637 
G01 X51.2611 Y36.3976 
G01 X51.3610 Y36.2481 
G01 X51.4881 Y36.1210 
G01 X51.6376 Y36.0211 
G01 X51.8037 Y35.9523 
G01 X51.9801 Y35.9172 
G01 X52.1599 Y35.9172 
G01 X52.3363 Y35.9523 
G01 X52.5024 Y36.0211 
G01 X52.6519 Y36.1210 
G01 X52.7790 Y36.2481 
G01 X52.8789 Y36.3976 
G01 X52.9477 Y36.5637 
G01 X52.9828 Y36.7401 
G00 Z2.0000 
G00 X52.9828 Y34.2001 
G01 Z-0.0250 F254.00 
G01 X52.9828 Y34.3799 F508.00 
G01 X52.9477 Y34.5563 
G01 X52.8789 Y34.7224 
G01 X52.7790 Y34.8719 
G01 X52.6519 Y34.9990 
G01 X52.5024 Y35.0989 
G01 X52.3363 Y35.1677 
G01 X52.1599 Y35.2028 
G01 X51.9801 Y35.2028 
G01 X51.8037 Y35.1677 
G01 X51.6376 Y35.0989 
G01 X51.4881 Y34.9990 
G01 X51.3610 Y34.8719 
G01 X51.2611 Y34.7224 
G01 X51.1923 Y34.5563 
G01 X51.1572 Y34.3799 
G01 X51.1572 Y34.2001 
G01 X51.1923 Y34.0237 
G01 X51.2611 Y33.8576 
G01 X51.3610 Y33.7081 
G01 X51.4881 Y33.5810 
G01 X51.6376 Y33.4811 
G01 X51.8037 Y33.4123 
G01 X51.9801 Y33.3772 
G01 X52.1599 Y33.3772 
G01 X52.3363 Y33.4123 
G01 X52.5024 Y33.4811 
G01 X52.6519 Y33.5810 
G01 X52.7790 Y33.7081 
G01 X52.8789 Y33.8576 
G01 X52.9477 Y34.0237 
G01 X52.9828 Y34.2001 
G00 Z2.0000 
G00 X52.9828 Y31.6601 
G01 Z-0.0250 F254.00 
G01 X52.9828 Y31.8399 F508.00 
G01 X52.9477 Y32.0163 
G01 X52.8789 Y32.1824 
G01 X52.7790 Y32.3319 
G01 X52.6519 Y32.4590 
G01 X52.5024 Y32.5589 
G01 X52.3363 Y32.6277 
G01 X52.1599 Y32.6628 
G01 X51.9801 Y32.6628 
G01 X51.8037 Y32.6277 
G01 X51.6376 Y32.5589 
G01 X51.4881 Y32.4590 
G01 X51.3610 Y32.3319 
G01 X51.2611 Y32.1824 
G01 X51.1923 Y32.0163 
G01 X51.1572 Y31.8399 
G01 X51.1572 Y31.6601 
G01 X51.1923 Y31.4837 
G01 X51.2611 Y31.3176 
G01 X51.3610 Y31.1681 
G01 X51.4881 Y31.0410 
G01 X51.6376 Y30.9411 
G01 X51.8037 Y30.8723 
G01 X51.9801 Y30.8372 
G01 X52.1599 Y30.8372 
G01 X52.3363 Y30.8723 
G01 X52.5024 Y30.9411 
G01 X52.6519 Y31.0410 
G01 X52.7790 Y31.1681 
G01 X52.8789 Y31.3176 
G01 X52.9477 Y31.4837 
G01 X52.9828 Y31.6601 
G00 Z2.0000 
G00 X52.9828 Y29.1201 
G01 Z-0.0250 F254.00 
G01 X52.9828 Y29.2999 F508.00 
G01 X52.9477 Y29.4763 
G01 X52.8789 Y29.6424 
G01 X52.7790 Y29.7919 
G01 X52.6519 Y29.9190 
G01 X52.5024 Y30.0189 
G01 X52.3363 Y30.0877 
G01 X52.1599 Y30.1228 
G01 X51.9801 Y30.1228 
G01 X51.8037 Y30.0877 
G01 X51.6376 Y30.0189 
G01 X51.4881 Y29.9190 
G01 X51.3610 Y29.7919 
G01 X51.2611 Y29.6424 
G01 X51.1923 Y29.4763 
G01 X51.1572 Y29.2999 
G01 X51.1572 Y29.1201 
G01 X51.1923 Y28.9437 
G01 X51.2611 Y28.7776 
G01 X51.3610 Y28.6281 
G01 X51.4881 Y28.5010 
G01 X51.6376 Y28.4011 
G01 X51.8037 Y28.3323 
G01 X51.9801 Y28.2972 
G01 X52.1599 Y28.2972 
G01 X52.3363 Y28.3323 
G01 X52.5024 Y28.4011 
G01 X52.6519 Y28.5010 
G01 X52.7790 Y28.6281 
G01 X52.8789 Y28.7776 
G01 X52.9477 Y28.9437 
G01 X52.9828 Y29.1201 
G00 Z2.0000 
G00 X37.7428 Y29.1201 
G01 Z-0.0250 F254.00 
G01 X37.7428 Y29.2999 F508.00 
G01 X37.7077 Y29.4763 
G01 X37.6389 Y29.6424 
G01 X37.5390 Y29.7919 
G01 X37.4119 Y29.9190 
G01 X37.2624 Y30.0189 
G01 X37.0963 Y30.0877 
G01 X36.9199 Y30.1228 
G01 X36.7401 Y30.1228 
G01 X36.5637 Y30.0877 
G01 X36.3976 Y30.0189 
G01 X36.2481 Y29.9190 
G01 X36.1210 Y29.7919 
G01 X36.0211 Y29.6424 
G01 X35.9523 Y29.4763 
G01 X35.9172 Y29.2999 
G01 X35.9172 Y29.1201 
G01 X35.9523 Y28.9437 
G01 X36.0211 Y28.7776 
G01 X36.1210 Y28.6281 
G01 X36.2481 Y28.5010 
G01 X36.3976 Y28.4011 
G01 X36.5000 Y28.3587 
G01 X36.5000 Y26.7500 
G01 X34.9503 Y26.7500 
G01 X34.8584 Y26.7119 
G01 X34.7881 Y26.6416 
G01 X31.7064 Y23.5600 
G01 X30.9601 Y23.5600 
G01 X30.9234 Y23.5448 
G01 X30.8952 Y23.5166 
G01 X30.8800 Y23.4799 
G01 X30.8800 Y22.2401 
G01 X30.8952 Y22.2034 
G01 X30.9234 Y22.1752 
G01 X30.9601 Y22.1600 
G01 X31.7999 Y22.1600 
G01 X31.8366 Y22.1752 
G01 X31.8648 Y22.2034 
G01 X31.8800 Y22.2401 
G01 X31.8800 Y23.0264 
G01 X35.1036 Y26.2500 
G01 X36.7997 Y26.2500 
G01 X36.8916 Y26.2881 
G01 X36.9619 Y26.3584 
G01 X37.0000 Y26.4503 
G01 X37.0000 Y28.3131 
G01 X37.0963 Y28.3323 
G01 X37.2624 Y28.4011 
G01 X37.4119 Y28.5010 
G01 X37.5390 Y28.6281 
G01 X37.6389 Y28.7776 
G01 X37.7077 Y28.9437 
G01 X37.7428 Y29.1201 
G00 Z2.0000 
G00 X37.7428 Y31.6601 
G01 Z-0.0250 F254.00 
G01 X37.7428 Y31.8399 F508.00 
G01 X37.7077 Y32.0163 
G01 X37.6389 Y32.1824 
G01 X37.5390 Y32.3319 
G01 X37.4119 Y32.4590 
G01 X37.2624 Y32.5589 
G01 X37.0963 Y32.6277 
G01 X36.9199 Y32.6628 
G01 X36.7401 Y32.6628 
G01 X36.5637 Y32.6277 
G01 X36.3976 Y32.5589 
G01 X36.2481 Y32.4590 
G01 X36.1210 Y32.3319 
G01 X36.0211 Y32.1824 
G01 X35.9523 Y32.0163 
G01 X35.9172 Y31.8399 
G01 X35.9172 Y31.6601 
G01 X35.9523 Y31.4837 
G01 X36.0211 Y31.3176 
G01 X36.1210 Y31.1681 
G01 X36.2481 Y31.0410 
G01 X36.3976 Y30.9411 
G01 X36.5637 Y30.8723 
G01 X36.7401 Y30.8372 
G01 X36.9199 Y30.8372 
G01 X37.0963 Y30.8723 
G01 X37.2624 Y30.9411 
G01 X37.4119 Y31.0410 
G01 X37.5390 Y31.1681 
G01 X37.6389 Y31.3176 
G01 X37.7077 Y31.4837 
G01 X37.7428 Y31.6601 
G00 Z2.0000 
G00 X37.7428 Y34.2001 
G01 Z-0.0250 F254.00 
G01 X37.7428 Y34.3799 F508.00 
G01 X37.7077 Y34.5563 
G01 X37.6389 Y34.7224 
G01 X37.5390 Y34.8719 
G01 X37.4119 Y34.9990 
G01 X37.2624 Y35.0989 
G01 X37.0963 Y35.1677 
G01 X36.9199 Y35.2028 
G01 X36.7401 Y35.2028 
G01 X36.5637 Y35.1677 
G01 X36.3976 Y35.0989 
G01 X36.2481 Y34.9990 
G01 X36.1210 Y34.8719 
G01 X36.0211 Y34.7224 
G01 X35.9523 Y34.5563 
G01 X35.9172 Y34.3799 
G01 X35.9172 Y34.2001 
G01 X35.9523 Y34.0237 
G01 X36.0211 Y33.8576 
G01 X36.1210 Y33.7081 
G01 X36.2481 Y33.5810 
G01 X36.3976 Y33.4811 
G01 X36.5637 Y33.4123 
G01 X36.7401 Y33.3772 
G01 X36.9199 Y33.3772 
G01 X37.0963 Y33.4123 
G01 X37.2624 Y33.4811 
G01 X37.4119 Y33.5810 
G01 X37.5390 Y33.7081 
G01 X37.6389 Y33.8576 
G01 X37.7077 Y34.0237 
G01 X37.7428 Y34.2001 
G00 Z2.0000 
G00 X37.7428 Y36.7401 
G01 Z-0.0250 F254.00 
G01 X37.7428 Y36.9199 F508.00 
G01 X37.7077 Y37.0963 
G01 X37.6389 Y37.2624 
G01 X37.5390 Y37.4119 
G01 X37.4119 Y37.5390 
G01 X37.2624 Y37.6389 
G01 X37.0963 Y37.7077 
G01 X36.9199 Y37.7428 
G01 X36.7401 Y37.7428 
G01 X36.5637 Y37.7077 
G01 X36.3976 Y37.6389 
G01 X36.2481 Y37.5390 
G01 X36.1210 Y37.4119 
G01 X36.0211 Y37.2624 
G01 X35.9523 Y37.0963 
G01 X35.9172 Y36.9199 
G01 X35.9172 Y36.7401 
G01 X35.9523 Y36.5637 
G01 X36.0211 Y36.3976 
G01 X36.1210 Y36.2481 
G01 X36.2481 Y36.1210 
G01 X36.3976 Y36.0211 
G01 X36.5637 Y35.9523 
G01 X36.7401 Y35.9172 
G01 X36.9199 Y35.9172 
G01 X37.0963 Y35.9523 
G01 X37.2624 Y36.0211 
G01 X37.4119 Y36.1210 
G01 X37.5390 Y36.2481 
G01 X37.6389 Y36.3976 
G01 X37.7077 Y36.5637 
G01 X37.7428 Y36.7401 
G00 Z2.0000 
G00 X37.7428 Y39.2801 
G01 Z-0.0250 F254.00 
G01 X37.7428 Y39.4599 F508.00 
G01 X37.7077 Y39.6363 
G01 X37.6389 Y39.8024 
G01 X37.5390 Y39.9519 
G01 X37.4119 Y40.0790 
G01 X37.2624 Y40.1789 
G01 X37.0963 Y40.2477 
G01 X36.9199 Y40.2828 
G01 X36.7401 Y40.2828 
G01 X36.5637 Y40.2477 
G01 X36.3976 Y40.1789 
G01 X36.2481 Y40.0790 
G01 X36.1210 Y39.9519 
G01 X36.0211 Y39.8024 
G01 X35.9523 Y39.6363 
G01 X35.9172 Y39.4599 
G01 X35.9172 Y39.2801 
G01 X35.9523 Y39.1037 
G01 X36.0211 Y38.9376 
G01 X36.0463 Y38.8999 
G01 X35.2881 Y38.1416 
G01 X35.2500 Y38.0497 
G01 X35.2500 Y27.5000 
G01 X33.7014 Y27.5000 
G01 X33.6766 Y27.5248 
G01 X33.6399 Y27.5400 
G01 X32.4001 Y27.5400 
G01 X32.3634 Y27.5248 
G01 X32.3352 Y27.4966 
G01 X32.3200 Y27.4599 
G01 X32.3200 Y26.6201 
G01 X32.3352 Y26.5834 
G01 X32.3634 Y26.5552 
G01 X32.4001 Y26.5400 
G01 X33.6399 Y26.5400 
G01 X33.6766 Y26.5552 
G01 X33.7048 Y26.5834 
G01 X33.7200 Y26.6201 
G01 X33.7200 Y27.0000 
G01 X35.5497 Y27.0000 
G01 X35.6416 Y27.0381 
G01 X35.7119 Y27.1084 
G01 X35.7500 Y27.2003 
G01 X35.7500 Y37.8964 
G01 X36.4097 Y38.5561 
G01 X36.5637 Y38.4923 
G01 X36.7401 Y38.4572 
G01 X36.9199 Y38.4572 
G01 X37.0963 Y38.4923 
G01 X37.2624 Y38.5611 
G01 X37.4119 Y38.6610 
G01 X37.5390 Y38.7881 
G01 X37.6389 Y38.9376 
G01 X37.7077 Y39.1037 
G01 X37.7428 Y39.2801 
G00 Z2.0000 
G00 X37.7428 Y41.8201 
G01 Z-0.0250 F254.00 
G01 X37.7428 Y41.9999 F508.00 
G01 X37.7077 Y42.1763 
G01 X37.6389 Y42.3424 
G01 X37.5390 Y42.4919 
G01 X37.4119 Y42.6190 
G01 X37.2624 Y42.7189 
G01 X37.0963 Y42.7877 
G01 X36.9199 Y42.8228 
G01 X36.7401 Y42.8228 
G01 X36.5637 Y42.7877 
G01 X36.3976 Y42.7189 
G01 X36.3898 Y42.7137 
G01 X35.7500 Y43.3536 
G01 X35.7500 Y48.7997 
G01 X35.7119 Y48.8916 
G01 X35.6416 Y48.9619 
G01 X33.8189 Y50.7847 
G01 X33.8346 Y50.8227 
G01 X33.8580 Y50.9401 
G01 X33.8580 Y51.0599 
G01 X33.8346 Y51.1773 
G01 X33.7888 Y51.2880 
G01 X33.7223 Y51.3876 
G01 X33.6376 Y51.4723 
G01 X33.5380 Y51.5388 
G01 X33.4273 Y51.5846 
G01 X33.3099 Y51.6080 
G01 X33.1901 Y51.6080 
G01 X33.0727 Y51.5846 
G01 X32.9620 Y51.5388 
G01 X32.8624 Y51.4723 
G01 X32.7777 Y51.3876 
G01 X32.7112 Y51.2880 
G01 X32.6654 Y51.1773 
G01 X32.6420 Y51.0599 
G01 X32.6420 Y50.9401 
G01 X32.6654 Y50.8227 
G01 X32.7112 Y50.7120 
G01 X32.7777 Y50.6124 
G01 X32.8624 Y50.5277 
G01 X32.9620 Y50.4612 
G01 X33.0727 Y50.4154 
G01 X33.1901 Y50.3920 
G01 X33.3099 Y50.3920 
G01 X33.4273 Y50.4154 
G01 X33.4653 Y50.4311 
G01 X35.2500 Y48.6464 
G01 X35.2500 Y43.2003 
G01 X35.2881 Y43.1084 
G01 X36.0343 Y42.3621 
G01 X36.0211 Y42.3424 
G01 X35.9523 Y42.1763 
G01 X35.9172 Y41.9999 
G01 X35.9172 Y41.8201 
G01 X35.9523 Y41.6437 
G01 X36.0211 Y41.4776 
G01 X36.1210 Y41.3281 
G01 X36.2481 Y41.2010 
G01 X36.3976 Y41.1011 
G01 X36.5637 Y41.0323 
G01 X36.7401 Y40.9972 
G01 X36.9199 Y40.9972 
G01 X37.0963 Y41.0323 
G01 X37.2624 Y41.1011 
G01 X37.4119 Y41.2010 
G01 X37.5390 Y41.3281 
G01 X37.6389 Y41.4776 
G01 X37.7077 Y41.6437 
G01 X37.7428 Y41.8201 
G00 Z2.0000 
G00 X37.7428 Y44.3601 
G01 Z-0.0250 F254.00 
G01 X37.7428 Y44.5399 F508.00 
G01 X37.7077 Y44.7163 
G01 X37.6389 Y44.8824 
G01 X37.5390 Y45.0319 
G01 X37.4119 Y45.1590 
G01 X37.2624 Y45.2589 
G01 X37.0963 Y45.3277 
G01 X36.9199 Y45.3628 
G01 X36.7401 Y45.3628 
G01 X36.5637 Y45.3277 
G01 X36.3976 Y45.2589 
G01 X36.2481 Y45.1590 
G01 X36.1210 Y45.0319 
G01 X36.0211 Y44.8824 
G01 X35.9523 Y44.7163 
G01 X35.9172 Y44.5399 
G01 X35.9172 Y44.3601 
G01 X35.9523 Y44.1837 
G01 X36.0211 Y44.0176 
G01 X36.1210 Y43.8681 
G01 X36.2481 Y43.7410 
G01 X36.3976 Y43.6411 
G01 X36.5637 Y43.5723 
G01 X36.7401 Y43.5372 
G01 X36.9199 Y43.5372 
G01 X37.0963 Y43.5723 
G01 X37.2624 Y43.6411 
G01 X37.4119 Y43.7410 
G01 X37.5390 Y43.8681 
G01 X37.6389 Y44.0176 
G01 X37.7077 Y44.1837 
G01 X37.7428 Y44.3601 
G00 Z2.0000 
G00 X37.7428 Y46.9001 
G01 Z-0.0250 F254.00 
G01 X37.7428 Y47.0799 F508.00 
G01 X37.7077 Y47.2563 
G01 X37.6389 Y47.4224 
G01 X37.5390 Y47.5719 
G01 X37.4119 Y47.6990 
G01 X37.2624 Y47.7989 
G01 X37.0963 Y47.8677 
G01 X36.9199 Y47.9028 
G01 X36.7401 Y47.9028 
G01 X36.5637 Y47.8677 
G01 X36.3976 Y47.7989 
G01 X36.2481 Y47.6990 
G01 X36.1210 Y47.5719 
G01 X36.0211 Y47.4224 
G01 X35.9523 Y47.2563 
G01 X35.9172 Y47.0799 
G01 X35.9172 Y46.9001 
G01 X35.9523 Y46.7237 
G01 X36.0211 Y46.5576 
G01 X36.1210 Y46.4081 
G01 X36.2481 Y46.2810 
G01 X36.3976 Y46.1811 
G01 X36.5637 Y46.1123 
G01 X36.7401 Y46.0772 
G01 X36.9199 Y46.0772 
G01 X37.0963 Y46.1123 
G01 X37.2624 Y46.1811 
G01 X37.4119 Y46.2810 
G01 X37.5390 Y46.4081 
G01 X37.6389 Y46.5576 
G01 X37.7077 Y46.7237 
G01 X37.7428 Y46.9001 
G00 Z2.0000 
G00 X37.7428 Y49.4401 
G01 Z-0.0250 F254.00 
G01 X37.7428 Y49.6199 F508.00 
G01 X37.7077 Y49.7963 
G01 X37.6389 Y49.9624 
G01 X37.5390 Y50.1119 
G01 X37.4119 Y50.2390 
G01 X37.2624 Y50.3389 
G01 X37.0963 Y50.4077 
G01 X36.9199 Y50.4428 
G01 X36.7401 Y50.4428 
G01 X36.5637 Y50.4077 
G01 X36.3976 Y50.3389 
G01 X36.2481 Y50.2390 
G01 X36.1210 Y50.1119 
G01 X36.0211 Y49.9624 
G01 X35.9523 Y49.7963 
G01 X35.9172 Y49.6199 
G01 X35.9172 Y49.4401 
G01 X35.9523 Y49.2637 
G01 X36.0211 Y49.0976 
G01 X36.1210 Y48.9481 
G01 X36.2481 Y48.8210 
G01 X36.3976 Y48.7211 
G01 X36.5637 Y48.6523 
G01 X36.7401 Y48.6172 
G01 X36.9199 Y48.6172 
G01 X37.0963 Y48.6523 
G01 X37.2624 Y48.7211 
G01 X37.4119 Y48.8210 
G01 X37.5390 Y48.9481 
G01 X37.6389 Y49.0976 
G01 X37.7077 Y49.2637 
G01 X37.7428 Y49.4401 
G00 Z2.0000 
G00 X37.7428 Y51.9801 
G01 Z-0.0250 F254.00 
G01 X37.7428 Y52.1599 F508.00 
G01 X37.7077 Y52.3363 
G01 X37.6389 Y52.5024 
G01 X37.5390 Y52.6519 
G01 X37.4119 Y52.7790 
G01 X37.2624 Y52.8789 
G01 X37.0963 Y52.9477 
G01 X36.9199 Y52.9828 
G01 X36.7401 Y52.9828 
G01 X36.5637 Y52.9477 
G01 X36.3976 Y52.8789 
G01 X36.2481 Y52.7790 
G01 X36.1210 Y52.6519 
G01 X36.0211 Y52.5024 
G01 X35.9523 Y52.3363 
G01 X35.9172 Y52.1599 
G01 X35.9172 Y51.9801 
G01 X35.9523 Y51.8037 
G01 X36.0211 Y51.6376 
G01 X36.1210 Y51.4881 
G01 X36.2481 Y51.3610 
G01 X36.3976 Y51.2611 
G01 X36.5637 Y51.1923 
G01 X36.7401 Y51.1572 
G01 X36.9199 Y51.1572 
G01 X37.0963 Y51.1923 
G01 X37.2624 Y51.2611 
G01 X37.4119 Y51.3610 
G01 X37.5390 Y51.4881 
G01 X37.6389 Y51.6376 
G01 X37.7077 Y51.8037 
G01 X37.7428 Y51.9801 
G00 Z2.0000 
G00 X37.7428 Y54.5201 
G01 Z-0.0250 F254.00 
G01 X37.7428 Y54.6999 F508.00 
G01 X37.7077 Y54.8763 
G01 X37.6389 Y55.0424 
G01 X37.5390 Y55.1919 
G01 X37.4119 Y55.3190 
G01 X37.2624 Y55.4189 
G01 X37.0963 Y55.4877 
G01 X36.9199 Y55.5228 
G01 X36.7401 Y55.5228 
G01 X36.5637 Y55.4877 
G01 X36.3976 Y55.4189 
G01 X36.2481 Y55.3190 
G01 X36.1210 Y55.1919 
G01 X36.0211 Y55.0424 
G01 X35.9523 Y54.8763 
G01 X35.9172 Y54.6999 
G01 X35.9172 Y54.5201 
G01 X35.9523 Y54.3437 
G01 X36.0211 Y54.1776 
G01 X36.1210 Y54.0281 
G01 X36.2481 Y53.9010 
G01 X36.3976 Y53.8011 
G01 X36.5637 Y53.7323 
G01 X36.7401 Y53.6972 
G01 X36.9199 Y53.6972 
G01 X37.0963 Y53.7323 
G01 X37.2624 Y53.8011 
G01 X37.4119 Y53.9010 
G01 X37.5390 Y54.0281 
G01 X37.6389 Y54.1776 
G01 X37.7077 Y54.3437 
G01 X37.7428 Y54.5201 
G00 Z2.0000 
G00 X37.7428 Y57.0601 
G01 Z-0.0250 F254.00 
G01 X37.7428 Y57.2399 F508.00 
G01 X37.7077 Y57.4163 
G01 X37.6389 Y57.5824 
G01 X37.5390 Y57.7319 
G01 X37.4119 Y57.8590 
G01 X37.2624 Y57.9589 
G01 X37.0963 Y58.0277 
G01 X36.9199 Y58.0628 
G01 X36.7401 Y58.0628 
G01 X36.5637 Y58.0277 
G01 X36.3976 Y57.9589 
G01 X36.2481 Y57.8590 
G01 X36.1210 Y57.7319 
G01 X36.0211 Y57.5824 
G01 X35.9523 Y57.4163 
G01 X35.9172 Y57.2399 
G01 X35.9172 Y57.0601 
G01 X35.9523 Y56.8837 
G01 X36.0211 Y56.7176 
G01 X36.1210 Y56.5681 
G01 X36.2481 Y56.4410 
G01 X36.3976 Y56.3411 
G01 X36.5637 Y56.2723 
G01 X36.7401 Y56.2372 
G01 X36.9199 Y56.2372 
G01 X37.0963 Y56.2723 
G01 X37.2624 Y56.3411 
G01 X37.4119 Y56.4410 
G01 X37.5390 Y56.5681 
G01 X37.6389 Y56.7176 
G01 X37.7077 Y56.8837 
G01 X37.7428 Y57.0601 
G00 Z2.0000 
G00 X32.6628 Y40.5501 
G01 Z-0.0250 F254.00 
G01 X32.6628 Y40.7299 F508.00 
G01 X32.6277 Y40.9063 
G01 X32.5589 Y41.0724 
G01 X32.4590 Y41.2219 
G01 X32.3319 Y41.3490 
G01 X32.1824 Y41.4489 
G01 X32.0163 Y41.5177 
G01 X31.8399 Y41.5528 
G01 X31.6601 Y41.5528 
G01 X31.4837 Y41.5177 
G01 X31.3176 Y41.4489 
G01 X31.1681 Y41.3490 
G01 X31.0410 Y41.2219 
G01 X30.9411 Y41.0724 
G01 X30.8723 Y40.9063 
G01 X30.8372 Y40.7299 
G01 X30.8372 Y40.5501 
G01 X30.8723 Y40.3737 
G01 X30.9411 Y40.2076 
G01 X31.0410 Y40.0581 
G01 X31.1681 Y39.9310 
G01 X31.3176 Y39.8311 
G01 X31.4837 Y39.7623 
G01 X31.6601 Y39.7272 
G01 X31.8399 Y39.7272 
G01 X32.0163 Y39.7623 
G01 X32.1824 Y39.8311 
G01 X32.3319 Y39.9310 
G01 X32.4590 Y40.0581 
G01 X32.5589 Y40.2076 
G01 X32.6277 Y40.3737 
G01 X32.6628 Y40.5501 
G00 Z2.0000 
G00 X32.6628 Y43.0901 
G01 Z-0.0250 F254.00 
G01 X32.6628 Y43.2699 F508.00 
G01 X32.6277 Y43.4463 
G01 X32.5589 Y43.6124 
G01 X32.4590 Y43.7619 
G01 X32.3319 Y43.8890 
G01 X32.1824 Y43.9889 
G01 X32.0163 Y44.0577 
G01 X31.8399 Y44.0928 
G01 X31.6601 Y44.0928 
G01 X31.4837 Y44.0577 
G01 X31.3176 Y43.9889 
G01 X31.1681 Y43.8890 
G01 X31.0410 Y43.7619 
G01 X30.9411 Y43.6124 
G01 X30.8723 Y43.4463 
G01 X30.8372 Y43.2699 
G01 X30.8372 Y43.0901 
G01 X30.8723 Y42.9137 
G01 X30.9411 Y42.7476 
G01 X31.0410 Y42.5981 
G01 X31.1681 Y42.4710 
G01 X31.3176 Y42.3711 
G01 X31.4837 Y42.3023 
G01 X31.6601 Y42.2672 
G01 X31.8399 Y42.2672 
G01 X32.0163 Y42.3023 
G01 X32.0713 Y42.3251 
G01 X32.7500 Y41.6464 
G01 X32.7500 Y30.9503 
G01 X32.7881 Y30.8584 
G01 X32.8584 Y30.7881 
G01 X33.9311 Y29.7153 
G01 X33.9154 Y29.6773 
G01 X33.8920 Y29.5599 
G01 X33.8920 Y29.4401 
G01 X33.9154 Y29.3227 
G01 X33.9612 Y29.2120 
G01 X34.0277 Y29.1124 
G01 X34.1124 Y29.0277 
G01 X34.2120 Y28.9612 
G01 X34.3227 Y28.9154 
G01 X34.4401 Y28.8920 
G01 X34.5599 Y28.8920 
G01 X34.6773 Y28.9154 
G01 X34.7880 Y28.9612 
G01 X34.8876 Y29.0277 
G01 X34.9723 Y29.1124 
G01 X35.0388 Y29.2120 
G01 X35.0846 Y29.3227 
G01 X35.1080 Y29.4401 
G01 X35.1080 Y29.5599 
G01 X35.0846 Y29.6773 
G01 X35.0388 Y29.7880 
G01 X34.9723 Y29.8876 
G01 X34.8876 Y29.9723 
G01 X34.7880 Y30.0388 
G01 X34.6773 Y30.0846 
G01 X34.5599 Y30.1080 
G01 X34.4401 Y30.1080 
G01 X34.3227 Y30.0846 
G01 X34.2847 Y30.0689 
G01 X33.2500 Y31.1036 
G01 X33.2500 Y41.7997 
G01 X33.2119 Y41.8916 
G01 X32.4776 Y42.6259 
G01 X32.5589 Y42.7476 
G01 X32.6277 Y42.9137 
G01 X32.6628 Y43.0901 
G00 Z2.0000 
G00 X30.0800 Y22.2401 
G01 Z-0.0250 F254.00 
G01 X30.0800 Y23.4799 F508.00 
G01 X30.0648 Y23.5166 
G01 X30.0366 Y23.5448 
G01 X29.9999 Y23.5600 
G01 X29.1601 Y23.5600 
G01 X29.1234 Y23.5448 
G01 X29.0952 Y23.5166 
G01 X29.0800 Y23.4799 
G01 X29.0800 Y22.6836 
G01 X24.7153 Y18.3189 
G01 X24.6773 Y18.3346 
G01 X24.5599 Y18.3580 
G01 X24.4401 Y18.3580 
G01 X24.3226 Y18.3346 
G01 X24.2120 Y18.2888 
G01 X24.1124 Y18.2223 
G01 X24.0277 Y18.1376 
G01 X23.9612 Y18.0380 
G01 X23.9154 Y17.9273 
G01 X23.8920 Y17.8099 
G01 X23.8920 Y17.6901 
G01 X23.9154 Y17.5726 
G01 X23.9612 Y17.4620 
G01 X24.0277 Y17.3624 
G01 X24.1124 Y17.2777 
G01 X24.2120 Y17.2112 
G01 X24.3226 Y17.1654 
G01 X24.4401 Y17.1420 
G01 X24.5599 Y17.1420 
G01 X24.6773 Y17.1654 
G01 X24.7880 Y17.2112 
G01 X24.8876 Y17.2777 
G01 X24.9723 Y17.3624 
G01 X25.0388 Y17.4620 
G01 X25.0846 Y17.5726 
G01 X25.1080 Y17.6901 
G01 X25.1080 Y17.8099 
G01 X25.0846 Y17.9273 
G01 X25.0689 Y17.9653 
G01 X29.2636 Y22.1600 
G01 X29.9999 Y22.1600 
G01 X30.0366 Y22.1752 
G01 X30.0648 Y22.2034 
G01 X30.0800 Y22.2401 
G00 Z2.0000 
G00 X14.8950 Y56.6349 
G01 Z-0.0250 F254.00 
G01 X14.8950 Y55.1251 F508.00 
G01 X14.9102 Y55.0884 
G01 X14.9384 Y55.0602 
G01 X14.9751 Y55.0450 
G01 X15.5000 Y55.0450 
G01 X15.5000 Y19.3045 
G01 X15.4620 Y19.2888 
G01 X15.3624 Y19.2223 
G01 X15.2777 Y19.1376 
G01 X15.2112 Y19.0380 
G01 X15.1654 Y18.9273 
G01 X15.1420 Y18.8099 
G01 X15.1420 Y18.6901 
G01 X15.1654 Y18.5726 
G01 X15.2112 Y18.4620 
G01 X15.2777 Y18.3624 
G01 X15.3624 Y18.2777 
G01 X15.4620 Y18.2112 
G01 X15.5727 Y18.1654 
G01 X15.6901 Y18.1420 
G01 X15.8099 Y18.1420 
G01 X15.9273 Y18.1654 
G01 X16.0380 Y18.2112 
G01 X16.1376 Y18.2777 
G01 X16.2223 Y18.3624 
G01 X16.2888 Y18.4620 
G01 X16.3346 Y18.5726 
G01 X16.3580 Y18.6901 
G01 X16.3580 Y18.8099 
G01 X16.3346 Y18.9273 
G01 X16.2888 Y19.0380 
G01 X16.2223 Y19.1376 
G01 X16.1376 Y19.2223 
G01 X16.0380 Y19.2888 
G01 X16.0000 Y19.3045 
G01 X16.0000 Y55.0450 
G01 X16.2849 Y55.0450 
G01 X16.3216 Y55.0602 
G01 X16.3498 Y55.0884 
G01 X16.3650 Y55.1251 
G01 X16.3650 Y56.6349 
G01 X16.3498 Y56.6716 
G01 X16.3216 Y56.6998 
G01 X16.2849 Y56.7150 
G01 X14.9751 Y56.7150 
G01 X14.9384 Y56.6998 
G01 X14.9102 Y56.6716 
G01 X14.8950 Y56.6349 
G00 Z2.0000 
G00 X23.6149 Y32.6750 
G01 Z-0.0250 F254.00 
G01 X23.6516 Y32.6902 F508.00 
G01 X23.6798 Y32.7184 
G01 X23.6950 Y32.7551 
G01 X23.6950 Y34.0649 
G01 X23.6798 Y34.1016 
G01 X23.6516 Y34.1298 
G01 X23.6149 Y34.1450 
G01 X22.1051 Y34.1450 
G01 X22.0684 Y34.1298 
G01 X22.0402 Y34.1016 
G01 X22.0250 Y34.0649 
G01 X22.0250 Y32.8786 
G01 X20.3584 Y31.2119 
G01 X20.2881 Y31.1416 
G01 X20.2500 Y31.0497 
G01 X20.2500 Y6.0545 
G01 X20.2120 Y6.0388 
G01 X20.1124 Y5.9723 
G01 X20.0277 Y5.8876 
G01 X19.9612 Y5.7880 
G01 X19.9154 Y5.6773 
G01 X19.8920 Y5.5599 
G01 X19.8920 Y5.4401 
G01 X19.9154 Y5.3227 
G01 X19.9612 Y5.2120 
G01 X20.0277 Y5.1124 
G01 X20.1124 Y5.0277 
G01 X20.2120 Y4.9612 
G01 X20.3226 Y4.9154 
G01 X20.4401 Y4.8920 
G01 X20.5599 Y4.8920 
G01 X20.6773 Y4.9154 
G01 X20.7880 Y4.9612 
G01 X20.8876 Y5.0277 
G01 X20.9723 Y5.1124 
G01 X21.0388 Y5.2120 
G01 X21.0846 Y5.3227 
G01 X21.1080 Y5.4401 
G01 X21.1080 Y5.5599 
G01 X21.0846 Y5.6773 
G01 X21.0388 Y5.7880 
G01 X20.9723 Y5.8876 
G01 X20.8876 Y5.9723 
G01 X20.7880 Y6.0388 
G01 X20.7500 Y6.0545 
G01 X20.7500 Y30.8964 
G01 X22.5286 Y32.6750 
G01 X23.6149 Y32.6750 
G00 Z2.0000 
G00 X38.4064 Y6.0385 
G01 Z-0.0250 F254.00 
G01 X38.4064 Y4.1215 F508.00 
G01 X38.4434 Y3.9353 
G01 X38.5161 Y3.7600 
G01 X38.6215 Y3.6021 
G01 X38.7557 Y3.4679 
G01 X38.9136 Y3.3625 
G01 X39.0889 Y3.2898 
G01 X39.2751 Y3.2528 
G01 X39.4649 Y3.2528 
G01 X39.6511 Y3.2898 
G01 X39.8264 Y3.3625 
G01 X39.9843 Y3.4679 
G01 X40.1185 Y3.6021 
G01 X40.2239 Y3.7600 
G01 X40.2966 Y3.9353 
G01 X40.3336 Y4.1215 
G01 X40.3336 Y6.0385 
G01 X40.2966 Y6.2247 
G01 X40.2239 Y6.4000 
G01 X40.1185 Y6.5579 
G01 X39.9843 Y6.6921 
G01 X39.8264 Y6.7975 
G01 X39.6511 Y6.8702 
G01 X39.4649 Y6.9072 
G01 X39.2751 Y6.9072 
G01 X39.0889 Y6.8702 
G01 X38.9136 Y6.7975 
G01 X38.7557 Y6.6921 
G01 X38.6215 Y6.5579 
G01 X38.5161 Y6.4000 
G01 X38.4434 Y6.2247 
G01 X38.4064 Y6.0385 
G00 Z2.0000 
G00 X42.2164 Y6.0385 
G01 Z-0.0250 F254.00 
G01 X42.2164 Y4.1215 F508.00 
G01 X42.2534 Y3.9353 
G01 X42.3261 Y3.7600 
G01 X42.4315 Y3.6021 
G01 X42.5657 Y3.4679 
G01 X42.7236 Y3.3625 
G01 X42.8989 Y3.2898 
G01 X43.0851 Y3.2528 
G01 X43.2749 Y3.2528 
G01 X43.4611 Y3.2898 
G01 X43.6364 Y3.3625 
G01 X43.7943 Y3.4679 
G01 X43.9285 Y3.6021 
G01 X44.0339 Y3.7600 
G01 X44.1066 Y3.9353 
G01 X44.1436 Y4.1215 
G01 X44.1436 Y6.0385 
G01 X44.1066 Y6.2247 
G01 X44.0339 Y6.4000 
G01 X43.9285 Y6.5579 
G01 X43.7943 Y6.6921 
G01 X43.6364 Y6.7975 
G01 X43.4611 Y6.8702 
G01 X43.2749 Y6.9072 
G01 X43.0851 Y6.9072 
G01 X42.8989 Y6.8702 
G01 X42.7236 Y6.7975 
G01 X42.5657 Y6.6921 
G01 X42.4315 Y6.5579 
G01 X42.3261 Y6.4000 
G01 X42.2534 Y6.2247 
G01 X42.2164 Y6.0385 
G00 Z2.0000 
G00 X46.0264 Y6.0385 
G01 Z-0.0250 F254.00 
G01 X46.0264 Y4.1215 F508.00 
G01 X46.0634 Y3.9353 
G01 X46.1361 Y3.7600 
G01 X46.2415 Y3.6021 
G01 X46.3757 Y3.4679 
G01 X46.5336 Y3.3625 
G01 X46.7089 Y3.2898 
G01 X46.8951 Y3.2528 
G01 X47.0849 Y3.2528 
G01 X47.2711 Y3.2898 
G01 X47.4464 Y3.3625 
G01 X47.6043 Y3.4679 
G01 X47.7385 Y3.6021 
G01 X47.8439 Y3.7600 
G01 X47.9166 Y3.9353 
G01 X47.9536 Y4.1215 
G01 X47.9536 Y6.0385 
G01 X47.9166 Y6.2247 
G01 X47.8439 Y6.4000 
G01 X47.7385 Y6.5579 
G01 X47.6043 Y6.6921 
G01 X47.4464 Y6.7975 
G01 X47.2711 Y6.8702 
G01 X47.0849 Y6.9072 
G01 X46.8951 Y6.9072 
G01 X46.7089 Y6.8702 
G01 X46.5336 Y6.7975 
G01 X46.3757 Y6.6921 
G01 X46.2415 Y6.5579 
G01 X46.1361 Y6.4000 
G01 X46.0634 Y6.2247 
G01 X46.0264 Y6.0385 
G00 Z2.0000 
G00 X25.8000 Y53.9599 
G01 Z-0.0250 F254.00 
G01 X25.8000 Y52.7201 F508.00 
G01 X25.8152 Y52.6834 
G01 X25.8434 Y52.6552 
G01 X25.8801 Y52.6400 
G01 X26.7199 Y52.6400 
G01 X26.7566 Y52.6552 
G01 X26.7848 Y52.6834 
G01 X26.8000 Y52.7201 
G01 X26.8000 Y53.2500 
G01 X29.0000 Y53.2500 
G01 X29.0000 Y51.2003 
G01 X29.0381 Y51.1084 
G01 X29.0800 Y51.0664 
G01 X29.0800 Y50.1801 
G01 X29.0952 Y50.1434 
G01 X29.1234 Y50.1152 
G01 X29.1601 Y50.1000 
G01 X29.5000 Y50.1000 
G01 X29.5000 Y35.7003 
G01 X29.5381 Y35.6084 
G01 X29.6084 Y35.5381 
G01 X30.7800 Y34.3664 
G01 X30.7800 Y33.4501 
G01 X30.7952 Y33.4134 
G01 X30.8234 Y33.3852 
G01 X30.8601 Y33.3700 
G01 X32.2999 Y33.3700 
G01 X32.3366 Y33.3852 
G01 X32.3648 Y33.4134 
G01 X32.3800 Y33.4501 
G01 X32.3800 Y34.4899 
G01 X32.3648 Y34.5266 
G01 X32.3366 Y34.5548 
G01 X32.2999 Y34.5700 
G01 X31.2836 Y34.5700 
G01 X30.0000 Y35.8536 
G01 X30.0000 Y49.2500 
G01 X32.6955 Y49.2500 
G01 X32.7112 Y49.2120 
G01 X32.7777 Y49.1124 
G01 X32.8624 Y49.0277 
G01 X32.9620 Y48.9612 
G01 X33.0727 Y48.9154 
G01 X33.1901 Y48.8920 
G01 X33.3099 Y48.8920 
G01 X33.4273 Y48.9154 
G01 X33.5380 Y48.9612 
G01 X33.6376 Y49.0277 
G01 X33.7223 Y49.1124 
G01 X33.7888 Y49.2120 
G01 X33.8346 Y49.3227 
G01 X33.8580 Y49.4401 
G01 X33.8580 Y49.5599 
G01 X33.8346 Y49.6773 
G01 X33.7888 Y49.7880 
G01 X33.7223 Y49.8876 
G01 X33.6376 Y49.9723 
G01 X33.5380 Y50.0388 
G01 X33.4273 Y50.0846 
G01 X33.3099 Y50.1080 
G01 X33.1901 Y50.1080 
G01 X33.0727 Y50.0846 
G01 X32.9620 Y50.0388 
G01 X32.8624 Y49.9723 
G01 X32.7777 Y49.8876 
G01 X32.7112 Y49.7880 
G01 X32.6955 Y49.7500 
G01 X30.0000 Y49.7500 
G01 X30.0000 Y50.1000 
G01 X30.0366 Y50.1152 
G01 X30.0648 Y50.1434 
G01 X30.0800 Y50.1801 
G01 X30.0800 Y51.4199 
G01 X30.0648 Y51.4566 
G01 X30.0366 Y51.4848 
G01 X29.9999 Y51.5000 
G01 X29.5000 Y51.5000 
G01 X29.5000 Y55.1800 
G01 X30.0499 Y55.1800 
G01 X30.0866 Y55.1952 
G01 X30.1148 Y55.2234 
G01 X30.1300 Y55.2601 
G01 X30.1300 Y56.4999 
G01 X30.1148 Y56.5366 
G01 X30.0866 Y56.5648 
G01 X30.0499 Y56.5800 
G01 X28.8101 Y56.5800 
G01 X28.7734 Y56.5648 
G01 X28.7452 Y56.5366 
G01 X28.7300 Y56.4999 
G01 X28.7300 Y55.2601 
G01 X28.7452 Y55.2234 
G01 X28.7734 Y55.1952 
G01 X28.8101 Y55.1800 
G01 X29.0000 Y55.1800 
G01 X29.0000 Y53.7500 
G01 X26.8000 Y53.7500 
G01 X26.8000 Y53.9599 
G01 X26.7848 Y53.9966 
G01 X26.7566 Y54.0248 
G01 X26.7199 Y54.0400 
G01 X25.8801 Y54.0400 
G01 X25.8434 Y54.0248 
G01 X25.8152 Y53.9966 
G01 X25.8000 Y53.9599 
G00 Z2.0000 
G00 X35.1600 Y60.3401 
G01 Z-0.0250 F254.00 
G01 X35.1600 Y61.5799 F508.00 
G01 X35.1448 Y61.6166 
G01 X35.1166 Y61.6448 
G01 X35.0799 Y61.6600 
G01 X34.2401 Y61.6600 
G01 X34.2034 Y61.6448 
G01 X34.1752 Y61.6166 
G01 X34.1600 Y61.5799 
G01 X34.1600 Y60.3401 
G01 X34.1752 Y60.3034 
G01 X34.2034 Y60.2752 
G01 X34.2401 Y60.2600 
G01 X34.2500 Y60.2600 
G01 X34.2500 Y58.8536 
G01 X31.9764 Y56.5800 
G01 X30.9101 Y56.5800 
G01 X30.8734 Y56.5648 
G01 X30.8452 Y56.5366 
G01 X30.8300 Y56.4999 
G01 X30.8300 Y55.2601 
G01 X30.8452 Y55.2234 
G01 X30.8734 Y55.1952 
G01 X30.9101 Y55.1800 
G01 X32.1499 Y55.1800 
G01 X32.1866 Y55.1952 
G01 X32.2148 Y55.2234 
G01 X32.2300 Y55.2601 
G01 X32.2300 Y56.1264 
G01 X34.6416 Y58.5381 
G01 X34.7119 Y58.6084 
G01 X34.7500 Y58.7003 
G01 X34.7500 Y60.2600 
G01 X35.0799 Y60.2600 
G01 X35.1166 Y60.2752 
G01 X35.1448 Y60.3034 
G01 X35.1600 Y60.3401 
G00 Z2.0000 
G00 X32.2999 Y32.6700 
G01 Z-0.0250 F254.00 
G01 X30.8601 Y32.6700 F508.00 
G01 X30.8234 Y32.6548 
G01 X30.7952 Y32.6266 
G01 X30.7800 Y32.5899 
G01 X30.7800 Y31.5501 
G01 X30.7952 Y31.5134 
G01 X30.8234 Y31.4852 
G01 X30.8601 Y31.4700 
G01 X31.5000 Y31.4700 
G01 X31.5000 Y30.2003 
G01 X31.5381 Y30.1084 
G01 X31.6084 Y30.0381 
G01 X32.3425 Y29.3039 
G01 X32.3352 Y29.2966 
G01 X32.3200 Y29.2599 
G01 X32.3200 Y28.4201 
G01 X32.3352 Y28.3834 
G01 X32.3634 Y28.3552 
G01 X32.4001 Y28.3400 
G01 X33.6399 Y28.3400 
G01 X33.6766 Y28.3552 
G01 X33.7048 Y28.3834 
G01 X33.7200 Y28.4201 
G01 X33.7200 Y29.2599 
G01 X33.7048 Y29.2966 
G01 X33.6766 Y29.3248 
G01 X33.6399 Y29.3400 
G01 X33.0136 Y29.3400 
G01 X32.0000 Y30.3536 
G01 X32.0000 Y31.4700 
G01 X32.2999 Y31.4700 
G01 X32.3366 Y31.4852 
G01 X32.3648 Y31.5134 
G01 X32.3800 Y31.5501 
G01 X32.3800 Y32.5899 
G01 X32.3648 Y32.6266 
G01 X32.3366 Y32.6548 
G01 X32.2999 Y32.6700 
G00 Z2.0000 
G00 X22.1051 Y19.9750 
G01 Z-0.0250 F254.00 
G01 X23.6149 Y19.9750 F508.00 
G01 X23.6516 Y19.9902 
G01 X23.6798 Y20.0184 
G01 X23.6950 Y20.0551 
G01 X23.6950 Y21.3649 
G01 X23.6798 Y21.4016 
G01 X23.6516 Y21.4298 
G01 X23.6149 Y21.4450 
G01 X22.4086 Y21.4450 
G01 X21.7500 Y22.1036 
G01 X21.7500 Y25.6955 
G01 X21.7880 Y25.7112 
G01 X21.8876 Y25.7777 
G01 X21.9723 Y25.8624 
G01 X22.0388 Y25.9620 
G01 X22.0545 Y26.0000 
G01 X22.5497 Y26.0000 
G01 X22.6416 Y26.0381 
G01 X22.7119 Y26.1084 
G01 X29.0236 Y32.4200 
G01 X30.0999 Y32.4200 
G01 X30.1366 Y32.4352 
G01 X30.1648 Y32.4634 
G01 X30.1800 Y32.5001 
G01 X30.1800 Y33.5399 
G01 X30.1648 Y33.5766 
G01 X30.1366 Y33.6048 
G01 X30.0999 Y33.6200 
G01 X28.6601 Y33.6200 
G01 X28.6234 Y33.6048 
G01 X28.5952 Y33.5766 
G01 X28.5800 Y33.5399 
G01 X28.5800 Y32.6836 
G01 X22.3964 Y26.5000 
G01 X22.0545 Y26.5000 
G01 X22.0388 Y26.5380 
G01 X21.9723 Y26.6376 
G01 X21.8876 Y26.7223 
G01 X21.7880 Y26.7888 
G01 X21.6773 Y26.8346 
G01 X21.5599 Y26.8580 
G01 X21.4401 Y26.8580 
G01 X21.3226 Y26.8346 
G01 X21.2120 Y26.7888 
G01 X21.1124 Y26.7223 
G01 X21.0277 Y26.6376 
G01 X20.9612 Y26.5380 
G01 X20.9154 Y26.4273 
G01 X20.8920 Y26.3099 
G01 X20.8920 Y26.1901 
G01 X20.9154 Y26.0727 
G01 X20.9612 Y25.9620 
G01 X21.0277 Y25.8624 
G01 X21.1124 Y25.7777 
G01 X21.2120 Y25.7112 
G01 X21.2500 Y25.6955 
G01 X21.2500 Y21.9503 
G01 X21.2881 Y21.8584 
G01 X22.0250 Y21.1214 
G01 X22.0250 Y20.0551 
G01 X22.0402 Y20.0184 
G01 X22.0684 Y19.9902 
G01 X22.1051 Y19.9750 
G00 Z2.0000 
G00 X44.8200 Y20.2412 
G01 Z-0.0250 F254.00 
G01 X44.8200 Y20.3988 F508.00 
G01 X44.7893 Y20.5534 
G01 X44.7392 Y20.6742 
G01 X44.7500 Y20.7003 
G01 X44.7500 Y36.1955 
G01 X44.7880 Y36.2112 
G01 X44.8876 Y36.2777 
G01 X44.9723 Y36.3624 
G01 X45.0388 Y36.4620 
G01 X45.0846 Y36.5727 
G01 X45.1080 Y36.6901 
G01 X45.1080 Y36.8099 
G01 X45.0846 Y36.9273 
G01 X45.0388 Y37.0380 
G01 X44.9723 Y37.1376 
G01 X44.8876 Y37.2223 
G01 X44.7880 Y37.2888 
G01 X44.6773 Y37.3346 
G01 X44.5599 Y37.3580 
G01 X44.4401 Y37.3580 
G01 X44.3227 Y37.3346 
G01 X44.2120 Y37.2888 
G01 X44.1124 Y37.2223 
G01 X44.0277 Y37.1376 
G01 X43.9612 Y37.0380 
G01 X43.9154 Y36.9273 
G01 X43.8920 Y36.8099 
G01 X43.8920 Y36.6901 
G01 X43.9154 Y36.5727 
G01 X43.9612 Y36.4620 
G01 X44.0277 Y36.3624 
G01 X44.1124 Y36.2777 
G01 X44.2120 Y36.2112 
G01 X44.2500 Y36.1955 
G01 X44.2500 Y21.0899 
G01 X44.0988 Y21.1200 
G01 X43.9412 Y21.1200 
G01 X43.7866 Y21.0893 
G01 X43.6411 Y21.0289 
G01 X43.5100 Y20.9414 
G01 X43.3986 Y20.8300 
G01 X43.3111 Y20.6989 
G01 X43.2507 Y20.5534 
G01 X43.2200 Y20.3988 
G01 X43.2200 Y20.2412 
G01 X43.2507 Y20.0866 
G01 X43.3111 Y19.9411 
G01 X43.3986 Y19.8100 
G01 X43.5100 Y19.6986 
G01 X43.6411 Y19.6111 
G01 X43.7866 Y19.5507 
G01 X43.9412 Y19.5200 
G01 X44.0988 Y19.5200 
G01 X44.2534 Y19.5507 
G01 X44.3989 Y19.6111 
G01 X44.5300 Y19.6986 
G01 X44.6414 Y19.8100 
G01 X44.7289 Y19.9411 
G01 X44.7893 Y20.0866 
G01 X44.8200 Y20.2412 
G00 Z2.0000 
G00 X25.8000 Y15.8599 
G01 Z-0.0250 F254.00 
G01 X25.8000 Y14.6201 F508.00 
G01 X25.8152 Y14.5834 
G01 X25.8434 Y14.5552 
G01 X25.8801 Y14.5400 
G01 X26.7199 Y14.5400 
G01 X26.7566 Y14.5552 
G01 X26.7848 Y14.5834 
G01 X26.8000 Y14.6201 
G01 X26.8000 Y15.1964 
G01 X31.2847 Y19.6811 
G01 X31.3227 Y19.6654 
G01 X31.4401 Y19.6420 
G01 X31.5599 Y19.6420 
G01 X31.6773 Y19.6654 
G01 X31.7880 Y19.7112 
G01 X31.8876 Y19.7777 
G01 X31.9723 Y19.8624 
G01 X32.0388 Y19.9620 
G01 X32.0846 Y20.0726 
G01 X32.1080 Y20.1901 
G01 X32.1080 Y20.3099 
G01 X32.0846 Y20.4273 
G01 X32.0388 Y20.5380 
G01 X31.9723 Y20.6376 
G01 X31.8876 Y20.7223 
G01 X31.7880 Y20.7888 
G01 X31.6773 Y20.8346 
G01 X31.5599 Y20.8580 
G01 X31.4401 Y20.8580 
G01 X31.3227 Y20.8346 
G01 X31.2120 Y20.7888 
G01 X31.1124 Y20.7223 
G01 X31.0277 Y20.6376 
G01 X30.9612 Y20.5380 
G01 X30.9154 Y20.4273 
G01 X30.8920 Y20.3099 
G01 X30.8920 Y20.1901 
G01 X30.9154 Y20.0726 
G01 X30.9311 Y20.0347 
G01 X26.7872 Y15.8908 
G01 X26.7848 Y15.8966 
G01 X26.7566 Y15.9248 
G01 X26.7199 Y15.9400 
G01 X25.8801 Y15.9400 
G01 X25.8434 Y15.9248 
G01 X25.8152 Y15.8966 
G01 X25.8000 Y15.8599 
G00 Z2.0000 
G00 X30.8800 Y10.7799 
G01 Z-0.0250 F254.00 
G01 X30.8800 Y9.5401 F508.00 
G01 X30.8952 Y9.5034 
G01 X30.9234 Y9.4752 
G01 X30.9601 Y9.4600 
G01 X31.6864 Y9.4600 
G01 X31.7500 Y9.3964 
G01 X31.7500 Y9.3045 
G01 X31.7120 Y9.2888 
G01 X31.6124 Y9.2223 
G01 X31.5277 Y9.1376 
G01 X31.4612 Y9.0380 
G01 X31.4154 Y8.9273 
G01 X31.3920 Y8.8099 
G01 X31.3920 Y8.6901 
G01 X31.4154 Y8.5727 
G01 X31.4612 Y8.4620 
G01 X31.5277 Y8.3624 
G01 X31.6124 Y8.2777 
G01 X31.7120 Y8.2112 
G01 X31.8227 Y8.1654 
G01 X31.9401 Y8.1420 
G01 X32.0599 Y8.1420 
G01 X32.1773 Y8.1654 
G01 X32.2880 Y8.2112 
G01 X32.3876 Y8.2777 
G01 X32.4723 Y8.3624 
G01 X32.5388 Y8.4620 
G01 X32.5846 Y8.5727 
G01 X32.6080 Y8.6901 
G01 X32.6080 Y8.8099 
G01 X32.5846 Y8.9273 
G01 X32.5388 Y9.0380 
G01 X32.4723 Y9.1376 
G01 X32.3876 Y9.2223 
G01 X32.2880 Y9.2888 
G01 X32.2500 Y9.3045 
G01 X32.2500 Y9.5497 
G01 X32.2119 Y9.6416 
G01 X32.1416 Y9.7119 
G01 X31.8800 Y9.9736 
G01 X31.8800 Y10.7799 
G01 X31.8648 Y10.8166 
G01 X31.8366 Y10.8448 
G01 X31.7999 Y10.8600 
G01 X30.9601 Y10.8600 
G01 X30.9234 Y10.8448 
G01 X30.8952 Y10.8166 
G01 X30.8800 Y10.7799 
G00 Z2.0000 
G00 X35.9600 Y13.3199 
G01 Z-0.0250 F254.00 
G01 X35.9600 Y12.5636 F508.00 
G01 X34.8964 Y11.5000 
G01 X30.4503 Y11.5000 
G01 X30.3584 Y11.4619 
G01 X30.2881 Y11.3916 
G01 X30.2500 Y11.2997 
G01 X30.2500 Y9.6036 
G01 X26.1888 Y5.5424 
G01 X26.1090 Y5.6619 
G01 X25.9819 Y5.7890 
G01 X25.8324 Y5.8889 
G01 X25.6663 Y5.9577 
G01 X25.4899 Y5.9928 
G01 X25.3101 Y5.9928 
G01 X25.1337 Y5.9577 
G01 X24.9676 Y5.8889 
G01 X24.8181 Y5.7890 
G01 X24.6910 Y5.6619 
G01 X24.5911 Y5.5124 
G01 X24.5223 Y5.3463 
G01 X24.4872 Y5.1699 
G01 X24.4872 Y4.9901 
G01 X24.5223 Y4.8137 
G01 X24.5911 Y4.6476 
G01 X24.6910 Y4.4981 
G01 X24.8181 Y4.3710 
G01 X24.9676 Y4.2711 
G01 X25.1337 Y4.2023 
G01 X25.3101 Y4.1672 
G01 X25.4899 Y4.1672 
G01 X25.6663 Y4.2023 
G01 X25.8324 Y4.2711 
G01 X25.9819 Y4.3710 
G01 X26.1090 Y4.4981 
G01 X26.2089 Y4.6476 
G01 X26.2777 Y4.8137 
G01 X26.3128 Y4.9901 
G01 X26.3128 Y5.0054 
G01 X26.3916 Y5.0381 
G01 X26.4619 Y5.1084 
G01 X30.7119 Y9.3584 
G01 X30.7500 Y9.4503 
G01 X30.7500 Y11.0000 
G01 X35.0497 Y11.0000 
G01 X35.1416 Y11.0381 
G01 X35.2119 Y11.1084 
G01 X36.1036 Y12.0000 
G01 X36.8799 Y12.0000 
G01 X36.9166 Y12.0152 
G01 X36.9448 Y12.0434 
G01 X36.9600 Y12.0801 
G01 X36.9600 Y12.8564 
G01 X39.2119 Y15.1084 
G01 X39.2500 Y15.2003 
G01 X39.2500 Y28.6464 
G01 X42.5347 Y31.9311 
G01 X42.5727 Y31.9154 
G01 X42.6901 Y31.8920 
G01 X42.8099 Y31.8920 
G01 X42.9273 Y31.9154 
G01 X43.0380 Y31.9612 
G01 X43.1376 Y32.0277 
G01 X43.2223 Y32.1124 
G01 X43.2888 Y32.2120 
G01 X43.3346 Y32.3227 
G01 X43.3580 Y32.4401 
G01 X43.3580 Y32.5599 
G01 X43.3346 Y32.6773 
G01 X43.2888 Y32.7880 
G01 X43.2223 Y32.8876 
G01 X43.1376 Y32.9723 
G01 X43.0380 Y33.0388 
G01 X42.9273 Y33.0846 
G01 X42.8099 Y33.1080 
G01 X42.6901 Y33.1080 
G01 X42.5727 Y33.0846 
G01 X42.4620 Y33.0388 
G01 X42.3624 Y32.9723 
G01 X42.2777 Y32.8876 
G01 X42.2112 Y32.7880 
G01 X42.1654 Y32.6773 
G01 X42.1420 Y32.5599 
G01 X42.1420 Y32.4401 
G01 X42.1654 Y32.3227 
G01 X42.1811 Y32.2847 
G01 X38.8584 Y28.9619 
G01 X38.7881 Y28.8916 
G01 X38.7500 Y28.7997 
G01 X38.7500 Y15.3536 
G01 X36.7964 Y13.4000 
G01 X36.0401 Y13.4000 
G01 X36.0034 Y13.3848 
G01 X35.9752 Y13.3566 
G01 X35.9600 Y13.3199 
G00 Z2.0000 
G00 X36.3149 Y23.2050 
G01 Z-0.0250 F254.00 
G01 X34.8051 Y23.2050 F508.00 
G01 X34.7684 Y23.1898 
G01 X34.7402 Y23.1616 
G01 X34.7250 Y23.1249 
G01 X34.7250 Y22.0000 
G01 X30.8536 Y22.0000 
G01 X30.7500 Y22.1036 
G01 X30.7500 Y25.0497 
G01 X30.7119 Y25.1416 
G01 X30.6416 Y25.2119 
G01 X30.5497 Y25.2500 
G01 X23.6950 Y25.2500 
G01 X23.6950 Y25.6649 
G01 X23.6798 Y25.7016 
G01 X23.6516 Y25.7298 
G01 X23.6149 Y25.7450 
G01 X22.1051 Y25.7450 
G01 X22.0684 Y25.7298 
G01 X22.0402 Y25.7016 
G01 X22.0250 Y25.6649 
G01 X22.0250 Y24.3551 
G01 X22.0402 Y24.3184 
G01 X22.0684 Y24.2902 
G01 X22.1051 Y24.2750 
G01 X23.6149 Y24.2750 
G01 X23.6516 Y24.2902 
G01 X23.6798 Y24.3184 
G01 X23.6950 Y24.3551 
G01 X23.6950 Y24.7500 
G01 X23.7500 Y24.7500 
G01 X23.7500 Y19.8536 
G01 X23.3584 Y19.4619 
G01 X23.2881 Y19.3916 
G01 X23.2500 Y19.2997 
G01 X23.2500 Y5.9065 
G01 X23.1263 Y5.9577 
G01 X22.9499 Y5.9928 
G01 X22.7701 Y5.9928 
G01 X22.5937 Y5.9577 
G01 X22.4276 Y5.8889 
G01 X22.2781 Y5.7890 
G01 X22.1510 Y5.6619 
G01 X22.0511 Y5.5124 
G01 X21.9823 Y5.3463 
G01 X21.9472 Y5.1699 
G01 X21.9472 Y4.9901 
G01 X21.9823 Y4.8137 
G01 X22.0511 Y4.6476 
G01 X22.1510 Y4.4981 
G01 X22.2781 Y4.3710 
G01 X22.4276 Y4.2711 
G01 X22.5937 Y4.2023 
G01 X22.7701 Y4.1672 
G01 X22.9499 Y4.1672 
G01 X23.1263 Y4.2023 
G01 X23.2924 Y4.2711 
G01 X23.4419 Y4.3710 
G01 X23.5690 Y4.4981 
G01 X23.6689 Y4.6476 
G01 X23.6923 Y4.7041 
G01 X24.7881 Y3.6084 
G01 X24.8584 Y3.5381 
G01 X24.9503 Y3.5000 
G01 X38.0497 Y3.5000 
G01 X38.1416 Y3.5381 
G01 X38.2119 Y3.6084 
G01 X38.2500 Y3.7003 
G01 X38.2500 Y6.3964 
G01 X42.8779 Y11.0243 
G01 X42.9137 Y11.0095 
G01 X43.0000 Y10.9923 
G01 X43.0000 Y10.4503 
G01 X43.0381 Y10.3584 
G01 X43.1084 Y10.2881 
G01 X43.2003 Y10.2500 
G01 X47.8964 Y10.2500 
G01 X52.5723 Y5.5741 
G01 X52.5311 Y5.5124 
G01 X52.4623 Y5.3463 
G01 X52.4272 Y5.1699 
G01 X52.4272 Y4.9901 
G01 X52.4623 Y4.8137 
G01 X52.5311 Y4.6476 
G01 X52.6310 Y4.4981 
G01 X52.7581 Y4.3710 
G01 X52.9076 Y4.2711 
G01 X53.0737 Y4.2023 
G01 X53.2501 Y4.1672 
G01 X53.4299 Y4.1672 
G01 X53.6063 Y4.2023 
G01 X53.7724 Y4.2711 
G01 X53.9219 Y4.3710 
G01 X54.0490 Y4.4981 
G01 X54.1489 Y4.6476 
G01 X54.2177 Y4.8137 
G01 X54.2528 Y4.9901 
G01 X54.2528 Y5.1699 
G01 X54.2177 Y5.3463 
G01 X54.1489 Y5.5124 
G01 X54.0490 Y5.6619 
G01 X53.9219 Y5.7890 
G01 X53.7724 Y5.8889 
G01 X53.6063 Y5.9577 
G01 X53.4299 Y5.9928 
G01 X53.2501 Y5.9928 
G01 X53.0737 Y5.9577 
G01 X52.9479 Y5.9056 
G01 X48.2119 Y10.6416 
G01 X48.1416 Y10.7119 
G01 X48.0497 Y10.7500 
G01 X43.5000 Y10.7500 
G01 X43.5000 Y11.0317 
G01 X43.6124 Y11.0783 
G01 X43.7619 Y11.1782 
G01 X43.8890 Y11.3053 
G01 X43.9889 Y11.4548 
G01 X44.0577 Y11.6209 
G01 X44.0928 Y11.7973 
G01 X44.0928 Y13.2392 
G01 X44.6416 Y13.7881 
G01 X44.7119 Y13.8584 
G01 X44.7500 Y13.9503 
G01 X44.7500 Y17.3964 
G01 X46.9952 Y19.6417 
G01 X47.0411 Y19.6111 
G01 X47.1866 Y19.5507 
G01 X47.3412 Y19.5200 
G01 X47.4988 Y19.5200 
G01 X47.6534 Y19.5507 
G01 X47.7989 Y19.6111 
G01 X47.9300 Y19.6986 
G01 X48.0414 Y19.8100 
G01 X48.1289 Y19.9411 
G01 X48.1893 Y20.0866 
G01 X48.2200 Y20.2412 
G01 X48.2200 Y20.3988 
G01 X48.1893 Y20.5534 
G01 X48.1289 Y20.6989 
G01 X48.0414 Y20.8300 
G01 X47.9300 Y20.9414 
G01 X47.7989 Y21.0289 
G01 X47.6534 Y21.0893 
G01 X47.4988 Y21.1200 
G01 X47.3412 Y21.1200 
G01 X47.1866 Y21.0893 
G01 X47.0648 Y21.0388 
G01 X46.0000 Y22.1036 
G01 X46.0000 Y23.7152 
G01 X46.1524 Y23.7783 
G01 X46.3019 Y23.8782 
G01 X46.4290 Y24.0053 
G01 X46.5289 Y24.1548 
G01 X46.5977 Y24.3209 
G01 X46.6328 Y24.4973 
G01 X46.6328 Y26.3027 
G01 X46.5977 Y26.4791 
G01 X46.5289 Y26.6452 
G01 X46.4290 Y26.7947 
G01 X46.3019 Y26.9218 
G01 X46.1524 Y27.0217 
G01 X45.9863 Y27.0905 
G01 X45.8099 Y27.1256 
G01 X45.6301 Y27.1256 
G01 X45.4537 Y27.0905 
G01 X45.2876 Y27.0217 
G01 X45.1381 Y26.9218 
G01 X45.0110 Y26.7947 
G01 X44.9111 Y26.6452 
G01 X44.8423 Y26.4791 
G01 X44.8072 Y26.3027 
G01 X44.8072 Y24.4973 
G01 X44.8423 Y24.3209 
G01 X44.9111 Y24.1548 
G01 X45.0110 Y24.0053 
G01 X45.1381 Y23.8782 
G01 X45.2876 Y23.7783 
G01 X45.4537 Y23.7095 
G01 X45.5000 Y23.7003 
G01 X45.5000 Y21.9503 
G01 X45.5381 Y21.8584 
G01 X45.6084 Y21.7881 
G01 X46.7071 Y20.6894 
G01 X46.6507 Y20.5534 
G01 X46.6200 Y20.3988 
G01 X46.6200 Y20.2412 
G01 X46.6507 Y20.0866 
G01 X46.6749 Y20.0284 
G01 X44.2881 Y17.6416 
G01 X44.2500 Y17.5497 
G01 X44.2500 Y14.1036 
G01 X44.0190 Y13.8725 
G01 X43.9889 Y13.9452 
G01 X43.8890 Y14.0947 
G01 X43.7619 Y14.2218 
G01 X43.6124 Y14.3217 
G01 X43.4463 Y14.3905 
G01 X43.2699 Y14.4256 
G01 X43.0901 Y14.4256 
G01 X42.9137 Y14.3905 
G01 X42.7476 Y14.3217 
G01 X42.5981 Y14.2218 
G01 X42.4710 Y14.0947 
G01 X42.3711 Y13.9452 
G01 X42.3023 Y13.7791 
G01 X42.2672 Y13.6027 
G01 X42.2672 Y11.7973 
G01 X42.3023 Y11.6209 
G01 X42.3711 Y11.4548 
G01 X42.4633 Y11.3168 
G01 X37.7881 Y6.6416 
G01 X37.7500 Y6.5497 
G01 X37.7500 Y4.0000 
G01 X25.1036 Y4.0000 
G01 X23.7239 Y5.3797 
G01 X23.6689 Y5.5124 
G01 X23.6477 Y5.5441 
G01 X23.7119 Y5.6084 
G01 X23.7500 Y5.7003 
G01 X23.7500 Y19.1464 
G01 X24.1416 Y19.5381 
G01 X24.2119 Y19.6084 
G01 X24.2500 Y19.7003 
G01 X24.2500 Y24.7500 
G01 X30.2500 Y24.7500 
G01 X30.2500 Y21.9503 
G01 X30.2881 Y21.8584 
G01 X30.5381 Y21.6084 
G01 X30.6084 Y21.5381 
G01 X30.7003 Y21.5000 
G01 X35.5497 Y21.5000 
G01 X35.6416 Y21.5381 
G01 X35.7119 Y21.6084 
G01 X35.7500 Y21.7003 
G01 X35.7500 Y21.7350 
G01 X36.3149 Y21.7350 
G01 X36.3516 Y21.7502 
G01 X36.3798 Y21.7784 
G01 X36.3950 Y21.8151 
G01 X36.3950 Y23.1249 
G01 X36.3798 Y23.1616 
G01 X36.3516 Y23.1898 
G01 X36.3149 Y23.2050 
G00 Z2.0000 
G00 X21.1312 Y62.7089 
G01 Z-0.0250 F254.00 
G01 X21.1312 Y64.2911 F508.00 
G01 X21.1000 Y64.4478 
G01 X21.0389 Y64.5954 
G01 X20.9501 Y64.7283 
G01 X20.8371 Y64.8413 
G01 X20.7042 Y64.9301 
G01 X20.5566 Y64.9912 
G01 X20.3999 Y65.0224 
G01 X20.2401 Y65.0224 
G01 X20.0834 Y64.9912 
G01 X19.9358 Y64.9301 
G01 X19.8029 Y64.8413 
G01 X19.6899 Y64.7283 
G01 X19.6011 Y64.5954 
G01 X19.5400 Y64.4478 
G01 X19.5088 Y64.2911 
G01 X19.5088 Y63.1124 
G01 X18.6084 Y62.2119 
G01 X18.5381 Y62.1416 
G01 X18.5000 Y62.0497 
G01 X18.5000 Y38.3045 
G01 X18.4620 Y38.2888 
G01 X18.3624 Y38.2223 
G01 X18.2777 Y38.1376 
G01 X18.2112 Y38.0380 
G01 X18.1654 Y37.9273 
G01 X18.1420 Y37.8099 
G01 X18.1420 Y37.6901 
G01 X18.1654 Y37.5727 
G01 X18.2112 Y37.4620 
G01 X18.2777 Y37.3624 
G01 X18.3624 Y37.2777 
G01 X18.4620 Y37.2112 
G01 X18.5726 Y37.1654 
G01 X18.6901 Y37.1420 
G01 X18.8099 Y37.1420 
G01 X18.9273 Y37.1654 
G01 X19.0380 Y37.2112 
G01 X19.1376 Y37.2777 
G01 X19.2223 Y37.3624 
G01 X19.2888 Y37.4620 
G01 X19.3346 Y37.5727 
G01 X19.3580 Y37.6901 
G01 X19.3580 Y37.8099 
G01 X19.3346 Y37.9273 
G01 X19.2888 Y38.0380 
G01 X19.2223 Y38.1376 
G01 X19.1376 Y38.2223 
G01 X19.0380 Y38.2888 
G01 X19.0000 Y38.3045 
G01 X19.0000 Y61.8964 
G01 X19.5739 Y62.4703 
G01 X19.6011 Y62.4046 
G01 X19.6899 Y62.2717 
G01 X19.8029 Y62.1587 
G01 X19.9358 Y62.0699 
G01 X20.0834 Y62.0088 
G01 X20.2401 Y61.9776 
G01 X20.3999 Y61.9776 
G01 X20.5566 Y62.0088 
G01 X20.7042 Y62.0699 
G01 X20.8371 Y62.1587 
G01 X20.9501 Y62.2717 
G01 X21.0389 Y62.4046 
G01 X21.1000 Y62.5522 
G01 X21.1312 Y62.7089 
G00 Z2.0000 
G00 X18.5912 Y62.7089 
G01 Z-0.0250 F254.00 
G01 X18.5912 Y64.2911 F508.00 
G01 X18.5600 Y64.4478 
G01 X18.4989 Y64.5954 
G01 X18.4101 Y64.7283 
G01 X18.2971 Y64.8413 
G01 X18.1642 Y64.9301 
G01 X18.0166 Y64.9912 
G01 X17.8599 Y65.0224 
G01 X17.7001 Y65.0224 
G01 X17.5434 Y64.9912 
G01 X17.3957 Y64.9301 
G01 X17.2629 Y64.8413 
G01 X17.1499 Y64.7283 
G01 X17.0611 Y64.5954 
G01 X17.0000 Y64.4478 
G01 X16.9688 Y64.2911 
G01 X16.9688 Y62.7089 
G01 X17.0000 Y62.5522 
G01 X17.0611 Y62.4046 
G01 X17.1499 Y62.2717 
G01 X17.2629 Y62.1587 
G01 X17.3957 Y62.0699 
G01 X17.5000 Y62.0267 
G01 X17.5000 Y40.8045 
G01 X17.4620 Y40.7888 
G01 X17.3624 Y40.7223 
G01 X17.2777 Y40.6376 
G01 X17.2112 Y40.5380 
G01 X17.1654 Y40.4273 
G01 X17.1420 Y40.3099 
G01 X17.1420 Y40.1901 
G01 X17.1654 Y40.0727 
G01 X17.2112 Y39.9620 
G01 X17.2777 Y39.8624 
G01 X17.3624 Y39.7777 
G01 X17.4620 Y39.7112 
G01 X17.5726 Y39.6654 
G01 X17.6901 Y39.6420 
G01 X17.8099 Y39.6420 
G01 X17.9273 Y39.6654 
G01 X18.0380 Y39.7112 
G01 X18.1376 Y39.7777 
G01 X18.2223 Y39.8624 
G01 X18.2888 Y39.9620 
G01 X18.3346 Y40.0727 
G01 X18.3580 Y40.1901 
G01 X18.3580 Y40.3099 
G01 X18.3346 Y40.4273 
G01 X18.2888 Y40.5380 
G01 X18.2223 Y40.6376 
G01 X18.1376 Y40.7223 
G01 X18.0380 Y40.7888 
G01 X18.0000 Y40.8045 
G01 X18.0000 Y62.0055 
G01 X18.0166 Y62.0088 
G01 X18.1642 Y62.0699 
G01 X18.2971 Y62.1587 
G01 X18.4101 Y62.2717 
G01 X18.4989 Y62.4046 
G01 X18.5600 Y62.5522 
G01 X18.5912 Y62.7089 
G00 Z2.0000 
G00 X16.0512 Y64.2911 
G01 Z-0.0250 F254.00 
G01 X16.0200 Y64.4478 F508.00 
G01 X15.9589 Y64.5954 
G01 X15.8701 Y64.7283 
G01 X15.7571 Y64.8413 
G01 X15.6242 Y64.9301 
G01 X15.4766 Y64.9912 
G01 X15.3199 Y65.0224 
G01 X15.1601 Y65.0224 
G01 X15.0034 Y64.9912 
G01 X14.8558 Y64.9301 
G01 X14.7229 Y64.8413 
G01 X14.6099 Y64.7283 
G01 X14.5211 Y64.5954 
G01 X14.4600 Y64.4478 
G01 X14.4288 Y64.2911 
G01 X14.4288 Y62.7089 
G01 X14.4600 Y62.5522 
G01 X14.5211 Y62.4046 
G01 X14.6099 Y62.2717 
G01 X14.7229 Y62.1587 
G01 X14.8558 Y62.0699 
G01 X15.0034 Y62.0088 
G01 X15.1601 Y61.9776 
G01 X15.3199 Y61.9776 
G01 X15.4766 Y62.0088 
G01 X15.6242 Y62.0699 
G01 X15.7571 Y62.1587 
G01 X15.8701 Y62.2717 
G01 X15.9589 Y62.4046 
G01 X15.9685 Y62.4279 
G01 X16.5000 Y61.8964 
G01 X16.5000 Y46.3045 
G01 X16.4620 Y46.2888 
G01 X16.3624 Y46.2223 
G01 X16.2777 Y46.1376 
G01 X16.2112 Y46.0380 
G01 X16.1654 Y45.9273 
G01 X16.1420 Y45.8099 
G01 X16.1420 Y45.6901 
G01 X16.1654 Y45.5727 
G01 X16.2112 Y45.4620 
G01 X16.2777 Y45.3624 
G01 X16.3624 Y45.2777 
G01 X16.4620 Y45.2112 
G01 X16.5726 Y45.1654 
G01 X16.6901 Y45.1420 
G01 X16.8099 Y45.1420 
G01 X16.9273 Y45.1654 
G01 X17.0380 Y45.2112 
G01 X17.1376 Y45.2777 
G01 X17.2223 Y45.3624 
G01 X17.2888 Y45.4620 
G01 X17.3346 Y45.5727 
G01 X17.3580 Y45.6901 
G01 X17.3580 Y45.8099 
G01 X17.3346 Y45.9273 
G01 X17.2888 Y46.0380 
G01 X17.2223 Y46.1376 
G01 X17.1376 Y46.2223 
G01 X17.0380 Y46.2888 
G01 X17.0000 Y46.3045 
G01 X17.0000 Y62.0497 
G01 X16.9619 Y62.1416 
G01 X16.8916 Y62.2119 
G01 X16.0512 Y63.0524 
G01 X16.0512 Y64.2911 
G00 Z2.0000 
G00 X10.9712 Y62.7089 
G01 Z-0.0250 F254.00 
G01 X10.9712 Y64.2911 F508.00 
G01 X10.9400 Y64.4478 
G01 X10.8789 Y64.5954 
G01 X10.7901 Y64.7283 
G01 X10.6771 Y64.8413 
G01 X10.5442 Y64.9301 
G01 X10.3966 Y64.9912 
G01 X10.2399 Y65.0224 
G01 X10.0801 Y65.0224 
G01 X9.9234 Y64.9912 
G01 X9.7758 Y64.9301 
G01 X9.6429 Y64.8413 
G01 X9.5299 Y64.7283 
G01 X9.4411 Y64.5954 
G01 X9.3800 Y64.4478 
G01 X9.3488 Y64.2911 
G01 X9.3488 Y62.7089 
G01 X9.3800 Y62.5522 
G01 X9.4411 Y62.4046 
G01 X9.5299 Y62.2717 
G01 X9.6429 Y62.1587 
G01 X9.7758 Y62.0699 
G01 X9.9234 Y62.0088 
G01 X10.0801 Y61.9776 
G01 X10.2399 Y61.9776 
G01 X10.3966 Y62.0088 
G01 X10.5442 Y62.0699 
G01 X10.6771 Y62.1587 
G01 X10.7901 Y62.2717 
G01 X10.8789 Y62.4046 
G01 X10.9400 Y62.5522 
G01 X10.9712 Y62.7089 
G00 Z2.0000 
G00 X30.9101 Y60.2600 
G01 Z-0.0250 F254.00 
G01 X32.1499 Y60.2600 F508.00 
G01 X32.1866 Y60.2752 
G01 X32.2148 Y60.3034 
G01 X32.2300 Y60.3401 
G01 X32.2300 Y60.7500 
G01 X33.7997 Y60.7500 
G01 X33.8916 Y60.7881 
G01 X33.9619 Y60.8584 
G01 X34.0000 Y60.9503 
G01 X34.0000 Y61.6464 
G01 X34.1036 Y61.7500 
G01 X41.7500 Y61.7500 
G01 X41.7500 Y61.2003 
G01 X41.7881 Y61.1084 
G01 X44.3200 Y58.5764 
G01 X44.3200 Y58.1736 
G01 X38.1084 Y51.9619 
G01 X38.0381 Y51.8916 
G01 X38.0000 Y51.7997 
G01 X38.0000 Y20.8536 
G01 X36.0514 Y18.9050 
G01 X34.8051 Y18.9050 
G01 X34.7684 Y18.8898 
G01 X34.7402 Y18.8616 
G01 X34.7250 Y18.8249 
G01 X34.7250 Y17.5151 
G01 X34.7402 Y17.4784 
G01 X34.7684 Y17.4502 
G01 X34.8051 Y17.4350 
G01 X35.2500 Y17.4350 
G01 X35.2500 Y13.6036 
G01 X35.0464 Y13.4000 
G01 X34.2401 Y13.4000 
G01 X34.2034 Y13.3848 
G01 X34.1752 Y13.3566 
G01 X34.1600 Y13.3199 
G01 X34.1600 Y12.7500 
G01 X29.7003 Y12.7500 
G01 X29.6084 Y12.7119 
G01 X29.5381 Y12.6416 
G01 X29.5000 Y12.5497 
G01 X29.5000 Y10.8600 
G01 X29.2436 Y10.8600 
G01 X28.5689 Y11.5347 
G01 X28.5846 Y11.5727 
G01 X28.6080 Y11.6901 
G01 X28.6080 Y11.8099 
G01 X28.5846 Y11.9273 
G01 X28.5388 Y12.0380 
G01 X28.4723 Y12.1376 
G01 X28.3876 Y12.2223 
G01 X28.2880 Y12.2888 
G01 X28.1773 Y12.3346 
G01 X28.0599 Y12.3580 
G01 X27.9401 Y12.3580 
G01 X27.8227 Y12.3346 
G01 X27.7847 Y12.3189 
G01 X25.0000 Y15.1036 
G01 X25.0000 Y15.8599 
G01 X24.9848 Y15.8966 
G01 X24.9566 Y15.9248 
G01 X24.9199 Y15.9400 
G01 X24.0801 Y15.9400 
G01 X24.0434 Y15.9248 
G01 X24.0152 Y15.8966 
G01 X24.0000 Y15.8599 
G01 X24.0000 Y14.6201 
G01 X24.0152 Y14.5834 
G01 X24.0434 Y14.5552 
G01 X24.0801 Y14.5400 
G01 X24.8564 Y14.5400 
G01 X27.4311 Y11.9653 
G01 X27.4154 Y11.9273 
G01 X27.3920 Y11.8099 
G01 X27.3920 Y11.6901 
G01 X27.4154 Y11.5727 
G01 X27.4612 Y11.4620 
G01 X27.5277 Y11.3624 
G01 X27.6124 Y11.2777 
G01 X27.7120 Y11.2112 
G01 X27.8227 Y11.1654 
G01 X27.9401 Y11.1420 
G01 X28.0599 Y11.1420 
G01 X28.1773 Y11.1654 
G01 X28.2153 Y11.1811 
G01 X29.0800 Y10.3164 
G01 X29.0800 Y9.5401 
G01 X29.0952 Y9.5034 
G01 X29.1234 Y9.4752 
G01 X29.1601 Y9.4600 
G01 X29.9999 Y9.4600 
G01 X30.0366 Y9.4752 
G01 X30.0648 Y9.5034 
G01 X30.0800 Y9.5401 
G01 X30.0800 Y10.7799 
G01 X30.0648 Y10.8166 
G01 X30.0366 Y10.8448 
G01 X30.0000 Y10.8600 
G01 X30.0000 Y12.2500 
G01 X34.1600 Y12.2500 
G01 X34.1600 Y12.0801 
G01 X34.1752 Y12.0434 
G01 X34.2034 Y12.0152 
G01 X34.2401 Y12.0000 
G01 X35.0799 Y12.0000 
G01 X35.1166 Y12.0152 
G01 X35.1448 Y12.0434 
G01 X35.1600 Y12.0801 
G01 X35.1600 Y12.8064 
G01 X35.6416 Y13.2881 
G01 X35.7119 Y13.3584 
G01 X35.7500 Y13.4503 
G01 X35.7500 Y17.4350 
G01 X36.3149 Y17.4350 
G01 X36.3516 Y17.4502 
G01 X36.3798 Y17.4784 
G01 X36.3950 Y17.5151 
G01 X36.3950 Y18.5414 
G01 X38.4619 Y20.6084 
G01 X38.5000 Y20.7003 
G01 X38.5000 Y51.6464 
G01 X44.5736 Y57.7200 
G01 X45.2399 Y57.7200 
G01 X45.2766 Y57.7352 
G01 X45.3048 Y57.7634 
G01 X45.3200 Y57.8001 
G01 X45.3200 Y59.0399 
G01 X45.3048 Y59.0766 
G01 X45.2766 Y59.1048 
G01 X45.2399 Y59.1200 
G01 X44.4836 Y59.1200 
G01 X42.2500 Y61.3536 
G01 X42.2500 Y62.0497 
G01 X42.2119 Y62.1416 
G01 X42.1416 Y62.2119 
G01 X42.0497 Y62.2500 
G01 X33.9503 Y62.2500 
G01 X33.8584 Y62.2119 
G01 X33.7881 Y62.1416 
G01 X33.5381 Y61.8916 
G01 X33.5000 Y61.7997 
G01 X33.5000 Y61.2500 
G01 X32.2300 Y61.2500 
G01 X32.2300 Y61.5799 
G01 X32.2148 Y61.6166 
G01 X32.1866 Y61.6448 
G01 X32.1499 Y61.6600 
G01 X30.9101 Y61.6600 
G01 X30.8734 Y61.6448 
G01 X30.8452 Y61.6166 
G01 X30.8300 Y61.5799 
G01 X30.8300 Y60.3401 
G01 X30.8452 Y60.3034 
G01 X30.8734 Y60.2752 
G01 X30.9101 Y60.2600 
G00 Z2.0000 
G00 X25.8000 Y61.5799 
G01 Z-0.0250 F254.00 
G01 X25.8000 Y60.3401 F508.00 
G01 X25.8152 Y60.3034 
G01 X25.8434 Y60.2752 
G01 X25.8801 Y60.2600 
G01 X26.7199 Y60.2600 
G01 X26.7566 Y60.2752 
G01 X26.7848 Y60.3034 
G01 X26.8000 Y60.3401 
G01 X26.8000 Y60.7500 
G01 X28.7300 Y60.7500 
G01 X28.7300 Y60.3401 
G01 X28.7452 Y60.3034 
G01 X28.7734 Y60.2752 
G01 X28.8101 Y60.2600 
G01 X30.0499 Y60.2600 
G01 X30.0866 Y60.2752 
G01 X30.1148 Y60.3034 
G01 X30.1300 Y60.3401 
G01 X30.1300 Y61.5799 
G01 X30.1148 Y61.6166 
G01 X30.0866 Y61.6448 
G01 X30.0499 Y61.6600 
G01 X28.8101 Y61.6600 
G01 X28.7734 Y61.6448 
G01 X28.7452 Y61.6166 
G01 X28.7300 Y61.5799 
G01 X28.7300 Y61.2500 
G01 X26.8000 Y61.2500 
G01 X26.8000 Y61.5799 
G01 X26.7848 Y61.6166 
G01 X26.7566 Y61.6448 
G01 X26.7199 Y61.6600 
G01 X25.8801 Y61.6600 
G01 X25.8434 Y61.6448 
G01 X25.8152 Y61.6166 
G01 X25.8000 Y61.5799 
G00 Z2.0000 
G00 X9.7520 Y59.3329 
G01 Z-0.0250 F254.00 
G01 X9.7520 Y59.5000 F508.00 
G01 X10.5680 Y59.5000 
G01 X10.5680 Y59.3329 
G01 X11.0729 Y58.8280 
G01 X11.7871 Y58.8280 
G01 X12.2920 Y59.3329 
G01 X12.2920 Y60.0471 
G01 X11.7871 Y60.5520 
G01 X11.7500 Y60.5520 
G01 X11.7500 Y62.3964 
G01 X11.9176 Y62.5641 
G01 X11.9200 Y62.5522 
G01 X11.9811 Y62.4046 
G01 X12.0699 Y62.2717 
G01 X12.1829 Y62.1587 
G01 X12.3158 Y62.0699 
G01 X12.4634 Y62.0088 
G01 X12.6201 Y61.9776 
G01 X12.7799 Y61.9776 
G01 X12.9366 Y62.0088 
G01 X13.0842 Y62.0699 
G01 X13.2171 Y62.1587 
G01 X13.3301 Y62.2717 
G01 X13.4189 Y62.4046 
G01 X13.4800 Y62.5522 
G01 X13.5112 Y62.7089 
G01 X13.5112 Y64.2911 
G01 X13.4800 Y64.4478 
G01 X13.4189 Y64.5954 
G01 X13.3301 Y64.7283 
G01 X13.2171 Y64.8413 
G01 X13.0842 Y64.9301 
G01 X12.9366 Y64.9912 
G01 X12.7799 Y65.0224 
G01 X12.6201 Y65.0224 
G01 X12.4634 Y64.9912 
G01 X12.3158 Y64.9301 
G01 X12.1829 Y64.8413 
G01 X12.0699 Y64.7283 
G01 X11.9811 Y64.5954 
G01 X11.9200 Y64.4478 
G01 X11.8888 Y64.2911 
G01 X11.8888 Y63.2424 
G01 X11.3584 Y62.7119 
G01 X11.2881 Y62.6416 
G01 X11.2500 Y62.5497 
G01 X11.2500 Y60.5520 
G01 X11.0729 Y60.5520 
G01 X10.5680 Y60.0471 
G01 X10.5680 Y60.0000 
G01 X9.7520 Y60.0000 
G01 X9.7520 Y60.0471 
G01 X9.2470 Y60.5520 
G01 X8.5329 Y60.5520 
G01 X8.0280 Y60.0471 
G01 X8.0280 Y59.3329 
G01 X8.5329 Y58.8280 
G01 X9.2470 Y58.8280 
G01 X9.7520 Y59.3329 
G00 Z2.0000 
G00 X12.2920 Y56.7929 
G01 Z-0.0250 F254.00 
G01 X12.2920 Y57.5070 F508.00 
G01 X11.7871 Y58.0120 
G01 X11.0729 Y58.0120 
G01 X10.5680 Y57.5070 
G01 X10.5680 Y57.5000 
G01 X9.7520 Y57.5000 
G01 X9.7520 Y57.5070 
G01 X9.2470 Y58.0120 
G01 X8.5329 Y58.0120 
G01 X8.0280 Y57.5070 
G01 X8.0280 Y56.7929 
G01 X8.5329 Y56.2880 
G01 X9.2470 Y56.2880 
G01 X9.7520 Y56.7929 
G01 X9.7520 Y57.0000 
G01 X10.5680 Y57.0000 
G01 X10.5680 Y56.7929 
G01 X11.0729 Y56.2880 
G01 X11.7871 Y56.2880 
G01 X12.2920 Y56.7929 
G00 Z2.0000 
G00 X12.2920 Y54.2529 
G01 Z-0.0250 F254.00 
G01 X12.2920 Y54.9671 F508.00 
G01 X11.7871 Y55.4720 
G01 X11.0729 Y55.4720 
G01 X10.5680 Y54.9671 
G01 X10.5680 Y54.2529 
G01 X11.0729 Y53.7480 
G01 X11.7871 Y53.7480 
G01 X12.2920 Y54.2529 
G00 Z2.0000 
G00 X9.7520 Y54.2529 
G01 Z-0.0250 F254.00 
G01 X9.7520 Y54.9671 F508.00 
G01 X9.2470 Y55.4720 
G01 X8.5329 Y55.4720 
G01 X8.0280 Y54.9671 
G01 X8.0280 Y54.2529 
G01 X8.0887 Y54.1923 
G01 X6.3584 Y52.4619 
G01 X6.2881 Y52.3916 
G01 X6.2500 Y52.2997 
G01 X6.2500 Y31.8536 
G01 X5.6161 Y31.2196 
G01 X5.5124 Y31.2889 
G01 X5.3463 Y31.3577 
G01 X5.1699 Y31.3928 
G01 X4.9901 Y31.3928 
G01 X4.8137 Y31.3577 
G01 X4.6476 Y31.2889 
G01 X4.4981 Y31.1890 
G01 X4.3710 Y31.0619 
G01 X4.2711 Y30.9124 
G01 X4.2023 Y30.7463 
G01 X4.1672 Y30.5699 
G01 X4.1672 Y30.3901 
G01 X4.2023 Y30.2137 
G01 X4.2711 Y30.0476 
G01 X4.3710 Y29.8981 
G01 X4.4981 Y29.7710 
G01 X4.6476 Y29.6711 
G01 X4.8137 Y29.6023 
G01 X4.9901 Y29.5672 
G01 X5.1699 Y29.5672 
G01 X5.3463 Y29.6023 
G01 X5.5124 Y29.6711 
G01 X5.6619 Y29.7710 
G01 X5.7890 Y29.8981 
G01 X5.8889 Y30.0476 
G01 X5.9577 Y30.2137 
G01 X5.9928 Y30.3901 
G01 X5.9928 Y30.5699 
G01 X5.9577 Y30.7463 
G01 X5.9261 Y30.8226 
G01 X6.7119 Y31.6084 
G01 X6.7500 Y31.7003 
G01 X6.7500 Y52.1464 
G01 X8.4422 Y53.8387 
G01 X8.5329 Y53.7480 
G01 X9.2470 Y53.7480 
G01 X9.7520 Y54.2529 
G00 Z2.0000 
G00 X9.7520 Y51.7129 
G01 Z-0.0250 F254.00 
G01 X9.7520 Y52.0000 F508.00 
G01 X10.5680 Y52.0000 
G01 X10.5680 Y51.7129 
G01 X11.0729 Y51.2080 
G01 X11.7871 Y51.2080 
G01 X12.2920 Y51.7129 
G01 X12.2920 Y52.4271 
G01 X11.7871 Y52.9320 
G01 X11.0729 Y52.9320 
G01 X10.6410 Y52.5000 
G01 X9.6790 Y52.5000 
G01 X9.2470 Y52.9320 
G01 X8.5329 Y52.9320 
G01 X8.0280 Y52.4271 
G01 X8.0280 Y51.7129 
G01 X8.5329 Y51.2080 
G01 X9.2470 Y51.2080 
G01 X9.7520 Y51.7129 
G00 Z2.0000 
G00 X12.2920 Y49.1729 
G01 Z-0.0250 F254.00 
G01 X12.2920 Y49.8871 F508.00 
G01 X11.7871 Y50.3920 
G01 X11.0729 Y50.3920 
G01 X10.6810 Y50.0000 
G01 X9.6390 Y50.0000 
G01 X9.2470 Y50.3920 
G01 X8.5329 Y50.3920 
G01 X8.0280 Y49.8871 
G01 X8.0280 Y49.1729 
G01 X8.5329 Y48.6680 
G01 X9.2470 Y48.6680 
G01 X9.7520 Y49.1729 
G01 X9.7520 Y49.5000 
G01 X10.5680 Y49.5000 
G01 X10.5680 Y49.1729 
G01 X11.0729 Y48.6680 
G01 X11.7871 Y48.6680 
G01 X12.2920 Y49.1729 
G00 Z2.0000 
G00 X9.7520 Y46.6329 
G01 Z-0.0250 F254.00 
G01 X9.7520 Y46.7500 F508.00 
G01 X10.5680 Y46.7500 
G01 X10.5680 Y46.6329 
G01 X11.0729 Y46.1280 
G01 X11.7871 Y46.1280 
G01 X12.2920 Y46.6329 
G01 X12.2920 Y47.3471 
G01 X11.7871 Y47.8520 
G01 X11.0729 Y47.8520 
G01 X10.5680 Y47.3471 
G01 X10.5680 Y47.2500 
G01 X9.7520 Y47.2500 
G01 X9.7520 Y47.3471 
G01 X9.2470 Y47.8520 
G01 X8.5329 Y47.8520 
G01 X8.0280 Y47.3471 
G01 X8.0280 Y46.6329 
G01 X8.5329 Y46.1280 
G01 X9.2470 Y46.1280 
G01 X9.7520 Y46.6329 
G00 Z2.0000 
G00 X12.2920 Y41.5529 
G01 Z-0.0250 F254.00 
G01 X12.2920 Y42.2671 F508.00 
G01 X11.7871 Y42.7720 
G01 X11.0729 Y42.7720 
G01 X10.5680 Y42.2671 
G01 X10.5680 Y41.5529 
G01 X11.0729 Y41.0480 
G01 X11.7871 Y41.0480 
G01 X12.2920 Y41.5529 
G00 Z2.0000 
G00 X9.7520 Y41.5529 
G01 Z-0.0250 F254.00 
G01 X9.7520 Y42.2671 F508.00 
G01 X9.2470 Y42.7720 
G01 X8.5329 Y42.7720 
G01 X8.0280 Y42.2671 
G01 X8.0280 Y41.5529 
G01 X8.1137 Y41.4672 
G01 X7.1084 Y40.4619 
G01 X7.0381 Y40.3916 
G01 X7.0000 Y40.2997 
G01 X7.0000 Y18.8536 
G01 X5.4676 Y17.3212 
G01 X4.2889 Y17.3212 
G01 X4.1322 Y17.2900 
G01 X3.9846 Y17.2289 
G01 X3.8517 Y17.1401 
G01 X3.7387 Y17.0271 
G01 X3.6499 Y16.8942 
G01 X3.5888 Y16.7466 
G01 X3.5576 Y16.5899 
G01 X3.5576 Y16.4301 
G01 X3.5888 Y16.2734 
G01 X3.6499 Y16.1258 
G01 X3.7387 Y15.9929 
G01 X3.8517 Y15.8799 
G01 X3.9846 Y15.7911 
G01 X4.1322 Y15.7300 
G01 X4.2889 Y15.6988 
G01 X5.8711 Y15.6988 
G01 X6.0278 Y15.7300 
G01 X6.1754 Y15.7911 
G01 X6.3083 Y15.8799 
G01 X6.4213 Y15.9929 
G01 X6.5101 Y16.1258 
G01 X6.5712 Y16.2734 
G01 X6.6024 Y16.4301 
G01 X6.6024 Y16.5899 
G01 X6.5712 Y16.7466 
G01 X6.5101 Y16.8942 
G01 X6.4213 Y17.0271 
G01 X6.3083 Y17.1401 
G01 X6.1754 Y17.2289 
G01 X6.1097 Y17.2561 
G01 X7.4619 Y18.6084 
G01 X7.5000 Y18.7003 
G01 X7.5000 Y40.1464 
G01 X8.4672 Y41.1137 
G01 X8.5329 Y41.0480 
G01 X9.2470 Y41.0480 
G01 X9.7520 Y41.5529 
G00 Z2.0000 
G00 X4.2889 Y8.0788 
G01 Z-0.0250 F254.00 
G01 X5.8711 Y8.0788 F508.00 
G01 X6.0278 Y8.1100 
G01 X6.1754 Y8.1711 
G01 X6.3083 Y8.2599 
G01 X6.4213 Y8.3729 
G01 X6.5101 Y8.5058 
G01 X6.5712 Y8.6534 
G01 X6.6024 Y8.8101 
G01 X6.6024 Y8.9699 
G01 X6.5712 Y9.1266 
G01 X6.5101 Y9.2742 
G01 X6.4213 Y9.4071 
G01 X6.3083 Y9.5201 
G01 X6.1754 Y9.6089 
G01 X6.0278 Y9.6700 
G01 X5.8711 Y9.7012 
G01 X4.2889 Y9.7012 
G01 X4.1322 Y9.6700 
G01 X3.9846 Y9.6089 
G01 X3.8517 Y9.5201 
G01 X3.7387 Y9.4071 
G01 X3.6499 Y9.2742 
G01 X3.5888 Y9.1266 
G01 X3.5576 Y8.9699 
G01 X3.5576 Y8.8101 
G01 X3.5888 Y8.6534 
G01 X3.6499 Y8.5058 
G01 X3.7387 Y8.3729 
G01 X3.8517 Y8.2599 
G01 X3.9846 Y8.1711 
G01 X4.1322 Y8.1100 
G01 X4.2889 Y8.0788 
G00 Z2.0000 
G00 X4.2889 Y10.6188 
G01 Z-0.0250 F254.00 
G01 X5.8711 Y10.6188 F508.00 
G01 X6.0278 Y10.6500 
G01 X6.1754 Y10.7111 
G01 X6.3083 Y10.7999 
G01 X6.4213 Y10.9129 
G01 X6.5101 Y11.0457 
G01 X6.5712 Y11.1934 
G01 X6.6024 Y11.3501 
G01 X6.6024 Y11.5099 
G01 X6.5712 Y11.6666 
G01 X6.5101 Y11.8142 
G01 X6.4213 Y11.9471 
G01 X6.3083 Y12.0601 
G01 X6.2216 Y12.1180 
G01 X15.1416 Y21.0381 
G01 X15.2119 Y21.1084 
G01 X15.2500 Y21.2003 
G01 X15.2500 Y45.6539 
G01 X15.2888 Y45.7120 
G01 X15.3346 Y45.8227 
G01 X15.3580 Y45.9401 
G01 X15.3580 Y46.0599 
G01 X15.3346 Y46.1773 
G01 X15.2888 Y46.2880 
G01 X15.2223 Y46.3876 
G01 X15.1376 Y46.4723 
G01 X15.0380 Y46.5388 
G01 X14.9273 Y46.5846 
G01 X14.8099 Y46.6080 
G01 X14.6901 Y46.6080 
G01 X14.5727 Y46.5846 
G01 X14.4620 Y46.5388 
G01 X14.3624 Y46.4723 
G01 X14.2777 Y46.3876 
G01 X14.2112 Y46.2880 
G01 X14.1654 Y46.1773 
G01 X14.1420 Y46.0599 
G01 X14.1420 Y45.9401 
G01 X14.1654 Y45.8227 
G01 X14.2112 Y45.7120 
G01 X14.2777 Y45.6124 
G01 X14.3624 Y45.5277 
G01 X14.4620 Y45.4612 
G01 X14.5727 Y45.4154 
G01 X14.6901 Y45.3920 
G01 X14.7500 Y45.3920 
G01 X14.7500 Y21.3536 
G01 X5.6376 Y12.2412 
G01 X4.2889 Y12.2412 
G01 X4.1322 Y12.2100 
G01 X3.9846 Y12.1489 
G01 X3.8517 Y12.0601 
G01 X3.7387 Y11.9471 
G01 X3.6499 Y11.8142 
G01 X3.5888 Y11.6666 
G01 X3.5576 Y11.5099 
G01 X3.5576 Y11.3501 
G01 X3.5888 Y11.1934 
G01 X3.6499 Y11.0457 
G01 X3.7387 Y10.9129 
G01 X3.8517 Y10.7999 
G01 X3.9846 Y10.7111 
G01 X4.1322 Y10.6500 
G01 X4.2889 Y10.6188 
G00 Z2.0000 
G00 X5.8711 Y13.1588 
G01 Z-0.0250 F254.00 
G01 X6.0278 Y13.1900 F508.00 
G01 X6.1754 Y13.2511 
G01 X6.3083 Y13.3399 
G01 X6.4213 Y13.4529 
G01 X6.5101 Y13.5858 
G01 X6.5712 Y13.7334 
G01 X6.6024 Y13.8901 
G01 X6.6024 Y14.0499 
G01 X6.5712 Y14.2066 
G01 X6.5101 Y14.3542 
G01 X6.4213 Y14.4871 
G01 X6.3083 Y14.6001 
G01 X6.1754 Y14.6889 
G01 X6.0278 Y14.7500 
G01 X5.8711 Y14.7812 
G01 X4.2889 Y14.7812 
G01 X4.1322 Y14.7500 
G01 X3.9846 Y14.6889 
G01 X3.8517 Y14.6001 
G01 X3.7387 Y14.4871 
G01 X3.6499 Y14.3542 
G01 X3.5888 Y14.2066 
G01 X3.5576 Y14.0499 
G01 X3.5576 Y13.8901 
G01 X3.5888 Y13.7334 
G01 X3.6499 Y13.5858 
G01 X3.7387 Y13.4529 
G01 X3.8517 Y13.3399 
G01 X3.9846 Y13.2511 
G01 X4.0998 Y13.2034 
G01 X3.1084 Y12.2119 
G01 X3.0381 Y12.1416 
G01 X3.0000 Y12.0497 
G01 X3.0000 Y10.7003 
G01 X3.0381 Y10.6084 
G01 X3.5381 Y10.1084 
G01 X3.6084 Y10.0381 
G01 X3.7003 Y10.0000 
G01 X19.7997 Y10.0000 
G01 X19.8916 Y10.0381 
G01 X19.9619 Y10.1084 
G01 X20.0000 Y10.2003 
G01 X20.0000 Y32.3964 
G01 X28.8916 Y41.2881 
G01 X28.9619 Y41.3584 
G01 X28.9976 Y41.4445 
G01 X29.0380 Y41.4612 
G01 X29.1376 Y41.5277 
G01 X29.2223 Y41.6124 
G01 X29.2888 Y41.7120 
G01 X29.3346 Y41.8227 
G01 X29.3580 Y41.9401 
G01 X29.3580 Y42.0599 
G01 X29.3346 Y42.1773 
G01 X29.2888 Y42.2880 
G01 X29.2223 Y42.3876 
G01 X29.1376 Y42.4723 
G01 X29.0380 Y42.5388 
G01 X28.9273 Y42.5846 
G01 X28.8099 Y42.6080 
G01 X28.6901 Y42.6080 
G01 X28.5727 Y42.5846 
G01 X28.4620 Y42.5388 
G01 X28.3624 Y42.4723 
G01 X28.2777 Y42.3876 
G01 X28.2112 Y42.2880 
G01 X28.1654 Y42.1773 
G01 X28.1420 Y42.0599 
G01 X28.1420 Y41.9401 
G01 X28.1654 Y41.8227 
G01 X28.2112 Y41.7120 
G01 X28.2777 Y41.6124 
G01 X28.3624 Y41.5277 
G01 X28.3994 Y41.5030 
G01 X19.5381 Y32.6416 
G01 X19.5000 Y32.5497 
G01 X19.5000 Y10.5000 
G01 X3.8536 Y10.5000 
G01 X3.5000 Y10.8536 
G01 X3.5000 Y11.8964 
G01 X4.7624 Y13.1588 
G01 X5.8711 Y13.1588 
G00 Z2.0000 
G00 X4.2889 Y18.2388 
G01 Z-0.0250 F254.00 
G01 X5.8711 Y18.2388 F508.00 
G01 X6.0278 Y18.2700 
G01 X6.1754 Y18.3311 
G01 X6.3083 Y18.4199 
G01 X6.4213 Y18.5329 
G01 X6.5101 Y18.6657 
G01 X6.5712 Y18.8134 
G01 X6.6024 Y18.9701 
G01 X6.6024 Y19.1299 
G01 X6.5712 Y19.2866 
G01 X6.5101 Y19.4342 
G01 X6.4213 Y19.5671 
G01 X6.3083 Y19.6801 
G01 X6.1754 Y19.7689 
G01 X6.0278 Y19.8300 
G01 X5.8711 Y19.8612 
G01 X4.2889 Y19.8612 
G01 X4.1322 Y19.8300 
G01 X3.9846 Y19.7689 
G01 X3.8517 Y19.6801 
G01 X3.7387 Y19.5671 
G01 X3.6499 Y19.4342 
G01 X3.5888 Y19.2866 
G01 X3.5576 Y19.1299 
G01 X3.5576 Y18.9701 
G01 X3.5888 Y18.8134 
G01 X3.6499 Y18.6657 
G01 X3.7387 Y18.5329 
G01 X3.8517 Y18.4199 
G01 X3.9846 Y18.3311 
G01 X4.1322 Y18.2700 
G01 X4.2889 Y18.2388 
G00 Z2.0000 
G00 X4.2889 Y20.7788 
G01 Z-0.0250 F254.00 
G01 X5.8711 Y20.7788 F508.00 
G01 X6.0278 Y20.8100 
G01 X6.1754 Y20.8711 
G01 X6.3083 Y20.9599 
G01 X6.4213 Y21.0729 
G01 X6.5101 Y21.2058 
G01 X6.5712 Y21.3534 
G01 X6.6024 Y21.5101 
G01 X6.6024 Y21.6699 
G01 X6.5712 Y21.8266 
G01 X6.5101 Y21.9742 
G01 X6.4213 Y22.1071 
G01 X6.3083 Y22.2201 
G01 X6.1754 Y22.3089 
G01 X6.0278 Y22.3700 
G01 X5.8711 Y22.4012 
G01 X4.2889 Y22.4012 
G01 X4.1322 Y22.3700 
G01 X3.9846 Y22.3089 
G01 X3.8517 Y22.2201 
G01 X3.7387 Y22.1071 
G01 X3.6499 Y21.9742 
G01 X3.5888 Y21.8266 
G01 X3.5576 Y21.6699 
G01 X3.5576 Y21.5101 
G01 X3.5888 Y21.3534 
G01 X3.6499 Y21.2058 
G01 X3.7387 Y21.0729 
G01 X3.8517 Y20.9599 
G01 X3.9846 Y20.8711 
G01 X4.1322 Y20.8100 
G01 X4.2889 Y20.7788 
G00 Z2.0000 
G00 X49.1728 Y11.7973 
G01 Z-0.0250 F254.00 
G01 X49.1728 Y13.6027 F508.00 
G01 X49.1377 Y13.7791 
G01 X49.0689 Y13.9452 
G01 X48.9690 Y14.0947 
G01 X48.8419 Y14.2218 
G01 X48.6924 Y14.3217 
G01 X48.5263 Y14.3905 
G01 X48.3499 Y14.4256 
G01 X48.1701 Y14.4256 
G01 X47.9937 Y14.3905 
G01 X47.8276 Y14.3217 
G01 X47.6781 Y14.2218 
G01 X47.5510 Y14.0947 
G01 X47.4511 Y13.9452 
G01 X47.3823 Y13.7791 
G01 X47.3472 Y13.6027 
G01 X47.3472 Y11.7973 
G01 X47.3823 Y11.6209 
G01 X47.4511 Y11.4548 
G01 X47.5510 Y11.3053 
G01 X47.6781 Y11.1782 
G01 X47.8276 Y11.0783 
G01 X47.9937 Y11.0095 
G01 X48.1701 Y10.9744 
G01 X48.3499 Y10.9744 
G01 X48.5263 Y11.0095 
G01 X48.6924 Y11.0783 
G01 X48.8419 Y11.1782 
G01 X48.9690 Y11.3053 
G01 X49.0689 Y11.4548 
G01 X49.1377 Y11.6209 
G01 X49.1728 Y11.7973 
G00 Z2.0000 
G00 X46.6328 Y11.7973 
G01 Z-0.0250 F254.00 
G01 X46.6328 Y13.6027 F508.00 
G01 X46.5977 Y13.7791 
G01 X46.5289 Y13.9452 
G01 X46.4290 Y14.0947 
G01 X46.3019 Y14.2218 
G01 X46.1524 Y14.3217 
G01 X45.9863 Y14.3905 
G01 X45.8099 Y14.4256 
G01 X45.6301 Y14.4256 
G01 X45.4537 Y14.3905 
G01 X45.2876 Y14.3217 
G01 X45.1381 Y14.2218 
G01 X45.0110 Y14.0947 
G01 X44.9111 Y13.9452 
G01 X44.8423 Y13.7791 
G01 X44.8072 Y13.6027 
G01 X44.8072 Y11.7973 
G01 X44.8423 Y11.6209 
G01 X44.9111 Y11.4548 
G01 X45.0110 Y11.3053 
G01 X45.1381 Y11.1782 
G01 X45.2876 Y11.0783 
G01 X45.4537 Y11.0095 
G01 X45.6301 Y10.9744 
G01 X45.8099 Y10.9744 
G01 X45.9863 Y11.0095 
G01 X46.1524 Y11.0783 
G01 X46.3019 Y11.1782 
G01 X46.4290 Y11.3053 
G01 X46.5289 Y11.4548 
G01 X46.5977 Y11.6209 
G01 X46.6328 Y11.7973 
G00 Z2.0000 
G00 X31.3928 Y4.9901 
G01 Z-0.0250 F254.00 
G01 X31.3928 Y5.1699 F508.00 
G01 X31.3577 Y5.3463 
G01 X31.2889 Y5.5124 
G01 X31.1890 Y5.6619 
G01 X31.0619 Y5.7890 
G01 X30.9124 Y5.8889 
G01 X30.7463 Y5.9577 
G01 X30.5699 Y5.9928 
G01 X30.3901 Y5.9928 
G01 X30.2137 Y5.9577 
G01 X30.0476 Y5.8889 
G01 X29.8981 Y5.7890 
G01 X29.7710 Y5.6619 
G01 X29.6711 Y5.5124 
G01 X29.6023 Y5.3463 
G01 X29.5672 Y5.1699 
G01 X29.5672 Y4.9901 
G01 X29.6023 Y4.8137 
G01 X29.6711 Y4.6476 
G01 X29.7710 Y4.4981 
G01 X29.8981 Y4.3710 
G01 X30.0476 Y4.2711 
G01 X30.2137 Y4.2023 
G01 X30.3901 Y4.1672 
G01 X30.5699 Y4.1672 
G01 X30.7463 Y4.2023 
G01 X30.9124 Y4.2711 
G01 X31.0619 Y4.3710 
G01 X31.1890 Y4.4981 
G01 X31.2889 Y4.6476 
G01 X31.3577 Y4.8137 
G01 X31.3928 Y4.9901 
G00 Z2.0000 
G00 X33.9328 Y4.9901 
G01 Z-0.0250 F254.00 
G01 X33.9328 Y5.1699 F508.00 
G01 X33.8977 Y5.3463 
G01 X33.8289 Y5.5124 
G01 X33.7290 Y5.6619 
G01 X33.6019 Y5.7890 
G01 X33.4524 Y5.8889 
G01 X33.2863 Y5.9577 
G01 X33.1099 Y5.9928 
G01 X32.9301 Y5.9928 
G01 X32.7537 Y5.9577 
G01 X32.5876 Y5.8889 
G01 X32.4381 Y5.7890 
G01 X32.3110 Y5.6619 
G01 X32.2111 Y5.5124 
G01 X32.1423 Y5.3463 
G01 X32.1072 Y5.1699 
G01 X32.1072 Y4.9901 
G01 X32.1423 Y4.8137 
G01 X32.2111 Y4.6476 
G01 X32.3110 Y4.4981 
G01 X32.4381 Y4.3710 
G01 X32.5876 Y4.2711 
G01 X32.7537 Y4.2023 
G01 X32.9301 Y4.1672 
G01 X33.1099 Y4.1672 
G01 X33.2863 Y4.2023 
G01 X33.4524 Y4.2711 
G01 X33.6019 Y4.3710 
G01 X33.7290 Y4.4981 
G01 X33.8289 Y4.6476 
G01 X33.8977 Y4.8137 
G01 X33.9328 Y4.9901 
G00 Z2.0000 
G00 X42.2672 Y26.3027 
G01 Z-0.0250 F254.00 
G01 X42.2672 Y24.4973 F508.00 
G01 X42.3023 Y24.3209 
G01 X42.3711 Y24.1548 
G01 X42.4710 Y24.0053 
G01 X42.5981 Y23.8782 
G01 X42.7476 Y23.7783 
G01 X42.9137 Y23.7095 
G01 X43.0901 Y23.6744 
G01 X43.2699 Y23.6744 
G01 X43.4463 Y23.7095 
G01 X43.6124 Y23.7783 
G01 X43.7619 Y23.8782 
G01 X43.8890 Y24.0053 
G01 X43.9889 Y24.1548 
G01 X44.0577 Y24.3209 
G01 X44.0928 Y24.4973 
G01 X44.0928 Y26.3027 
G01 X44.0577 Y26.4791 
G01 X43.9889 Y26.6452 
G01 X43.8890 Y26.7947 
G01 X43.7619 Y26.9218 
G01 X43.6124 Y27.0217 
G01 X43.4463 Y27.0905 
G01 X43.2699 Y27.1256 
G01 X43.0901 Y27.1256 
G01 X42.9137 Y27.0905 
G01 X42.7476 Y27.0217 
G01 X42.5981 Y26.9218 
G01 X42.4710 Y26.7947 
G01 X42.3711 Y26.6452 
G01 X42.3023 Y26.4791 
G01 X42.2672 Y26.3027 
G00 Z2.0000 
G00 X46.1200 Y53.9599 
G01 Z-0.0250 F254.00 
G01 X46.1200 Y53.2236 F508.00 
G01 X39.4653 Y46.5689 
G01 X39.4273 Y46.5846 
G01 X39.3099 Y46.6080 
G01 X39.1901 Y46.6080 
G01 X39.0727 Y46.5846 
G01 X38.9620 Y46.5388 
G01 X38.8624 Y46.4723 
G01 X38.7777 Y46.3876 
G01 X38.7112 Y46.2880 
G01 X38.6654 Y46.1773 
G01 X38.6420 Y46.0599 
G01 X38.6420 Y45.9401 
G01 X38.6654 Y45.8227 
G01 X38.7112 Y45.7120 
G01 X38.7777 Y45.6124 
G01 X38.8624 Y45.5277 
G01 X38.9620 Y45.4612 
G01 X39.0727 Y45.4154 
G01 X39.1901 Y45.3920 
G01 X39.3099 Y45.3920 
G01 X39.4273 Y45.4154 
G01 X39.5380 Y45.4612 
G01 X39.6376 Y45.5277 
G01 X39.7223 Y45.6124 
G01 X39.7888 Y45.7120 
G01 X39.8346 Y45.8227 
G01 X39.8580 Y45.9401 
G01 X39.8580 Y46.0599 
G01 X39.8346 Y46.1773 
G01 X39.8189 Y46.2153 
G01 X46.2435 Y52.6400 
G01 X47.0399 Y52.6400 
G01 X47.0766 Y52.6552 
G01 X47.1048 Y52.6834 
G01 X47.1200 Y52.7201 
G01 X47.1200 Y53.9599 
G01 X47.1048 Y53.9966 
G01 X47.0766 Y54.0248 
G01 X47.0399 Y54.0400 
G01 X47.0000 Y54.0400 
G01 X47.0000 Y57.7200 
G01 X47.0399 Y57.7200 
G01 X47.0766 Y57.7352 
G01 X47.1048 Y57.7634 
G01 X47.1200 Y57.8001 
G01 X47.1200 Y59.0399 
G01 X47.1048 Y59.0766 
G01 X47.0766 Y59.1048 
G01 X47.0399 Y59.1200 
G01 X46.2001 Y59.1200 
G01 X46.1634 Y59.1048 
G01 X46.1352 Y59.0766 
G01 X46.1200 Y59.0399 
G01 X46.1200 Y57.8001 
G01 X46.1352 Y57.7634 
G01 X46.1634 Y57.7352 
G01 X46.2001 Y57.7200 
G01 X46.5000 Y57.7200 
G01 X46.5000 Y54.0400 
G01 X46.2001 Y54.0400 
G01 X46.1634 Y54.0248 
G01 X46.1352 Y53.9966 
G01 X46.1200 Y53.9599 
G00 Z2.0000 
G00 X44.3200 Y53.9599 
G01 Z-0.0250 F254.00 
G01 X44.3200 Y52.7201 F508.00 
G01 X44.3352 Y52.6834 
G01 X44.3634 Y52.6552 
G01 X44.4001 Y52.6400 
G01 X45.2399 Y52.6400 
G01 X45.2766 Y52.6552 
G01 X45.3048 Y52.6834 
G01 X45.3200 Y52.7201 
G01 X45.3200 Y53.4664 
G01 X45.8916 Y54.0381 
G01 X45.9619 Y54.1084 
G01 X46.0000 Y54.2003 
G01 X46.0000 Y59.2997 
G01 X45.9619 Y59.3916 
G01 X42.4619 Y62.8916 
G01 X42.3916 Y62.9619 
G01 X42.2997 Y63.0000 
G01 X23.4503 Y63.0000 
G01 X23.3584 Y62.9619 
G01 X23.2881 Y62.8916 
G01 X23.2500 Y62.7997 
G01 X23.2500 Y52.3536 
G01 X22.8584 Y51.9619 
G01 X22.7881 Y51.8916 
G01 X22.7500 Y51.7997 
G01 X22.7500 Y51.7400 
G01 X21.2401 Y51.7400 
G01 X21.2034 Y51.7248 
G01 X21.1752 Y51.6966 
G01 X21.1600 Y51.6599 
G01 X21.1600 Y49.8401 
G01 X21.1752 Y49.8034 
G01 X21.2034 Y49.7752 
G01 X21.2401 Y49.7600 
G01 X23.6364 Y49.7600 
G01 X24.7500 Y48.6464 
G01 X24.7500 Y39.8536 
G01 X23.3414 Y38.4450 
G01 X22.1051 Y38.4450 
G01 X22.0684 Y38.4298 
G01 X22.0402 Y38.4016 
G01 X22.0250 Y38.3649 
G01 X22.0250 Y37.0551 
G01 X22.0402 Y37.0184 
G01 X22.0684 Y36.9902 
G01 X22.1051 Y36.9750 
G01 X23.6149 Y36.9750 
G01 X23.6516 Y36.9902 
G01 X23.6798 Y37.0184 
G01 X23.6950 Y37.0551 
G01 X23.6950 Y38.0914 
G01 X25.1416 Y39.5381 
G01 X25.2119 Y39.6084 
G01 X25.2500 Y39.7003 
G01 X25.2500 Y48.7997 
G01 X25.2119 Y48.8916 
G01 X24.3435 Y49.7600 
G01 X24.4799 Y49.7600 
G01 X24.5166 Y49.7752 
G01 X24.5448 Y49.8034 
G01 X24.5600 Y49.8401 
G01 X24.5600 Y51.6599 
G01 X24.5448 Y51.6966 
G01 X24.5166 Y51.7248 
G01 X24.4799 Y51.7400 
G01 X23.3435 Y51.7400 
G01 X23.6416 Y52.0381 
G01 X23.7119 Y52.1084 
G01 X24.2436 Y52.6400 
G01 X24.9199 Y52.6400 
G01 X24.9566 Y52.6552 
G01 X24.9848 Y52.6834 
G01 X25.0000 Y52.7201 
G01 X25.0000 Y53.9599 
G01 X24.9848 Y53.9966 
G01 X24.9566 Y54.0248 
G01 X24.9199 Y54.0400 
G01 X24.0801 Y54.0400 
G01 X24.0434 Y54.0248 
G01 X24.0152 Y53.9966 
G01 X24.0000 Y53.9599 
G01 X24.0000 Y53.1036 
G01 X23.7500 Y52.8535 
G01 X23.7500 Y62.5000 
G01 X42.1464 Y62.5000 
G01 X45.5000 Y59.1464 
G01 X45.5000 Y54.3536 
G01 X45.1864 Y54.0400 
G01 X44.4001 Y54.0400 
G01 X44.3634 Y54.0248 
G01 X44.3352 Y53.9966 
G01 X44.3200 Y53.9599 
G00 Z2.0000 
G00 X52.5489 Y11.8888 
G01 Z-0.0250 F254.00 
G01 X54.1311 Y11.8888 F508.00 
G01 X54.2878 Y11.9200 
G01 X54.4354 Y11.9811 
G01 X54.5683 Y12.0699 
G01 X54.6813 Y12.1829 
G01 X54.7701 Y12.3158 
G01 X54.8312 Y12.4634 
G01 X54.8624 Y12.6201 
G01 X54.8624 Y12.7799 
G01 X54.8312 Y12.9366 
G01 X54.7701 Y13.0842 
G01 X54.6813 Y13.2171 
G01 X54.5683 Y13.3301 
G01 X54.4354 Y13.4189 
G01 X54.2878 Y13.4800 
G01 X54.1311 Y13.5112 
G01 X52.5489 Y13.5112 
G01 X52.3922 Y13.4800 
G01 X52.2446 Y13.4189 
G01 X52.1117 Y13.3301 
G01 X51.9987 Y13.2171 
G01 X51.9099 Y13.0842 
G01 X51.8488 Y12.9366 
G01 X51.8176 Y12.7799 
G01 X51.8176 Y12.6201 
G01 X51.8488 Y12.4634 
G01 X51.9099 Y12.3158 
G01 X51.9987 Y12.1829 
G01 X52.1117 Y12.0699 
G01 X52.2446 Y11.9811 
G01 X52.3922 Y11.9200 
G01 X52.5489 Y11.8888 
G00 Z2.0000 
G00 X52.5489 Y14.4288 
G01 Z-0.0250 F254.00 
G01 X54.1311 Y14.4288 F508.00 
G01 X54.2878 Y14.4600 
G01 X54.4354 Y14.5211 
G01 X54.5683 Y14.6099 
G01 X54.6813 Y14.7229 
G01 X54.7701 Y14.8558 
G01 X54.8312 Y15.0034 
G01 X54.8624 Y15.1601 
G01 X54.8624 Y15.3199 
G01 X54.8312 Y15.4766 
G01 X54.7701 Y15.6242 
G01 X54.6813 Y15.7571 
G01 X54.5683 Y15.8701 
G01 X54.4354 Y15.9589 
G01 X54.2878 Y16.0200 
G01 X54.1311 Y16.0512 
G01 X52.5489 Y16.0512 
G01 X52.3922 Y16.0200 
G01 X52.2446 Y15.9589 
G01 X52.1117 Y15.8701 
G01 X51.9987 Y15.7571 
G01 X51.9099 Y15.6242 
G01 X51.8488 Y15.4766 
G01 X51.8176 Y15.3199 
G01 X51.8176 Y15.1601 
G01 X51.8488 Y15.0034 
G01 X51.9099 Y14.8558 
G01 X51.9987 Y14.7229 
G01 X52.1117 Y14.6099 
G01 X52.2446 Y14.5211 
G01 X52.3922 Y14.4600 
G01 X52.5489 Y14.4288 
G00 Z2.0000 
G00 X52.5489 Y16.9688 
G01 Z-0.0250 F254.00 
G01 X54.1311 Y16.9688 F508.00 
G01 X54.2878 Y17.0000 
G01 X54.4354 Y17.0611 
G01 X54.5683 Y17.1499 
G01 X54.6813 Y17.2629 
G01 X54.7701 Y17.3957 
G01 X54.8312 Y17.5434 
G01 X54.8624 Y17.7001 
G01 X54.8624 Y17.8599 
G01 X54.8312 Y18.0166 
G01 X54.7701 Y18.1642 
G01 X54.6813 Y18.2971 
G01 X54.5683 Y18.4101 
G01 X54.4354 Y18.4989 
G01 X54.2878 Y18.5600 
G01 X54.1311 Y18.5912 
G01 X53.7500 Y18.5912 
G01 X53.7500 Y19.5088 
G01 X54.1311 Y19.5088 
G01 X54.2878 Y19.5400 
G01 X54.4354 Y19.6011 
G01 X54.5683 Y19.6899 
G01 X54.6813 Y19.8029 
G01 X54.7701 Y19.9358 
G01 X54.8312 Y20.0834 
G01 X54.8624 Y20.2401 
G01 X54.8624 Y20.3999 
G01 X54.8312 Y20.5566 
G01 X54.7701 Y20.7042 
G01 X54.6813 Y20.8371 
G01 X54.5683 Y20.9501 
G01 X54.4354 Y21.0389 
G01 X54.4050 Y21.0515 
G01 X55.4619 Y22.1084 
G01 X55.5000 Y22.2003 
G01 X55.5000 Y55.7997 
G01 X55.4619 Y55.8916 
G01 X55.3916 Y55.9619 
G01 X51.5000 Y59.8536 
G01 X51.5000 Y63.5497 
G01 X51.4619 Y63.6416 
G01 X51.3916 Y63.7119 
G01 X51.2997 Y63.7500 
G01 X23.2003 Y63.7500 
G01 X23.1084 Y63.7119 
G01 X23.0381 Y63.6416 
G01 X22.5381 Y63.1416 
G01 X22.5000 Y63.0497 
G01 X22.5000 Y58.8536 
G01 X20.3614 Y56.7150 
G01 X19.2751 Y56.7150 
G01 X19.2384 Y56.6998 
G01 X19.2102 Y56.6716 
G01 X19.1950 Y56.6349 
G01 X19.1950 Y55.1251 
G01 X19.2102 Y55.0884 
G01 X19.2384 Y55.0602 
G01 X19.2751 Y55.0450 
G01 X20.5849 Y55.0450 
G01 X20.6216 Y55.0602 
G01 X20.6498 Y55.0884 
G01 X20.6650 Y55.1251 
G01 X20.6650 Y56.3114 
G01 X22.8916 Y58.5381 
G01 X22.9619 Y58.6084 
G01 X23.0000 Y58.7003 
G01 X23.0000 Y62.8964 
G01 X23.3536 Y63.2500 
G01 X51.0000 Y63.2500 
G01 X51.0000 Y59.7003 
G01 X51.0381 Y59.6084 
G01 X55.0000 Y55.6464 
G01 X55.0000 Y22.3536 
G01 X53.7776 Y21.1312 
G01 X52.5489 Y21.1312 
G01 X52.3922 Y21.1000 
G01 X52.2446 Y21.0389 
G01 X52.1117 Y20.9501 
G01 X51.9987 Y20.8371 
G01 X51.9099 Y20.7042 
G01 X51.8488 Y20.5566 
G01 X51.8176 Y20.3999 
G01 X51.8176 Y20.2401 
G01 X51.8488 Y20.0834 
G01 X51.9099 Y19.9358 
G01 X51.9987 Y19.8029 
G01 X52.1117 Y19.6899 
G01 X52.2446 Y19.6011 
G01 X52.3922 Y19.5400 
G01 X52.5489 Y19.5088 
G01 X53.2500 Y19.5088 
G01 X53.2500 Y18.5912 
G01 X52.5489 Y18.5912 
G01 X52.3922 Y18.5600 
G01 X52.2446 Y18.4989 
G01 X52.1117 Y18.4101 
G01 X51.9987 Y18.2971 
G01 X51.9099 Y18.1642 
G01 X51.8488 Y18.0166 
G01 X51.8176 Y17.8599 
G01 X51.8176 Y17.7001 
G01 X51.8488 Y17.5434 
G01 X51.9099 Y17.3957 
G01 X51.9987 Y17.2629 
G01 X52.1117 Y17.1499 
G01 X52.2446 Y17.0611 
G01 X52.3922 Y17.0000 
G01 X52.5489 Y16.9688 
G00 Z2.0000 
G00 X52.5489 Y22.0488 
G01 Z-0.0250 F254.00 
G01 X54.1311 Y22.0488 F508.00 
G01 X54.2878 Y22.0800 
G01 X54.4354 Y22.1411 
G01 X54.5683 Y22.2299 
G01 X54.6813 Y22.3429 
G01 X54.7701 Y22.4758 
G01 X54.8312 Y22.6234 
G01 X54.8624 Y22.7801 
G01 X54.8624 Y22.9399 
G01 X54.8312 Y23.0966 
G01 X54.7701 Y23.2442 
G01 X54.6813 Y23.3771 
G01 X54.5683 Y23.4901 
G01 X54.4354 Y23.5789 
G01 X54.2878 Y23.6400 
G01 X54.1311 Y23.6712 
G01 X53.7500 Y23.6712 
G01 X53.7500 Y48.2997 
G01 X53.7119 Y48.3916 
G01 X53.6416 Y48.4619 
G01 X52.9161 Y49.1874 
G01 X52.9477 Y49.2637 
G01 X52.9828 Y49.4401 
G01 X52.9828 Y49.6199 
G01 X52.9477 Y49.7963 
G01 X52.8789 Y49.9624 
G01 X52.7790 Y50.1119 
G01 X52.6519 Y50.2390 
G01 X52.5024 Y50.3389 
G01 X52.3363 Y50.4077 
G01 X52.1599 Y50.4428 
G01 X51.9801 Y50.4428 
G01 X51.8037 Y50.4077 
G01 X51.6376 Y50.3389 
G01 X51.4881 Y50.2390 
G01 X51.3610 Y50.1119 
G01 X51.2611 Y49.9624 
G01 X51.1923 Y49.7963 
G01 X51.1572 Y49.6199 
G01 X51.1572 Y49.4401 
G01 X51.1923 Y49.2637 
G01 X51.2611 Y49.0976 
G01 X51.3610 Y48.9481 
G01 X51.4881 Y48.8210 
G01 X51.6376 Y48.7211 
G01 X51.8037 Y48.6523 
G01 X51.9801 Y48.6172 
G01 X52.1599 Y48.6172 
G01 X52.3363 Y48.6523 
G01 X52.5024 Y48.7211 
G01 X52.6061 Y48.7904 
G01 X53.2500 Y48.1464 
G01 X53.2500 Y23.6712 
G01 X52.5489 Y23.6712 
G01 X52.3922 Y23.6400 
G01 X52.2446 Y23.5789 
G01 X52.1117 Y23.4901 
G01 X51.9987 Y23.3771 
G01 X51.9099 Y23.2442 
G01 X51.8488 Y23.0966 
G01 X51.8176 Y22.9399 
G01 X51.8176 Y22.7801 
G01 X51.8488 Y22.6234 
G01 X51.9099 Y22.4758 
G01 X51.9987 Y22.3429 
G01 X52.1117 Y22.2299 
G01 X52.2446 Y22.1411 
G01 X52.3922 Y22.0800 
G01 X52.5489 Y22.0488 
G00 Z2.0000 
G00 X5.9928 Y32.9301 
G01 Z-0.0250 F254.00 
G01 X5.9928 Y33.1099 F508.00 
G01 X5.9577 Y33.2863 
G01 X5.8889 Y33.4524 
G01 X5.7890 Y33.6019 
G01 X5.6619 Y33.7290 
G01 X5.5124 Y33.8289 
G01 X5.3463 Y33.8977 
G01 X5.1699 Y33.9328 
G01 X4.9901 Y33.9328 
G01 X4.8137 Y33.8977 
G01 X4.6476 Y33.8289 
G01 X4.4981 Y33.7290 
G01 X4.3710 Y33.6019 
G01 X4.2711 Y33.4524 
G01 X4.2023 Y33.2863 
G01 X4.1672 Y33.1099 
G01 X4.1672 Y32.9301 
G01 X4.2023 Y32.7537 
G01 X4.2711 Y32.5876 
G01 X4.3710 Y32.4381 
G01 X4.4981 Y32.3110 
G01 X4.6476 Y32.2111 
G01 X4.8137 Y32.1423 
G01 X4.9901 Y32.1072 
G01 X5.1699 Y32.1072 
G01 X5.3463 Y32.1423 
G01 X5.5124 Y32.2111 
G01 X5.6619 Y32.3110 
G01 X5.7890 Y32.4381 
G01 X5.8889 Y32.5876 
G01 X5.9577 Y32.7537 
G01 X5.9928 Y32.9301 
G00 Z2.0000 
G00 X10.5000 Y41.3536 
G01 Z-0.0250 F254.00 
G01 X10.5000 Y44.2500 F508.00 
G01 X10.5680 Y44.2500 
G01 X10.5680 Y44.0929 
G01 X11.0729 Y43.5880 
G01 X11.7871 Y43.5880 
G01 X12.2920 Y44.0929 
G01 X12.2920 Y44.8071 
G01 X11.7871 Y45.3120 
G01 X11.0729 Y45.3120 
G01 X10.5680 Y44.8071 
G01 X10.5680 Y44.7500 
G01 X9.7520 Y44.7500 
G01 X9.7520 Y44.8071 
G01 X9.2470 Y45.3120 
G01 X8.5329 Y45.3120 
G01 X8.0280 Y44.8071 
G01 X8.0280 Y44.0929 
G01 X8.5329 Y43.5880 
G01 X9.2470 Y43.5880 
G01 X9.7520 Y44.0929 
G01 X9.7520 Y44.2500 
G01 X10.0000 Y44.2500 
G01 X10.0000 Y41.2003 
G01 X10.0381 Y41.1084 
G01 X10.1084 Y41.0381 
G01 X12.9311 Y38.2153 
G01 X12.9154 Y38.1773 
G01 X12.8920 Y38.0599 
G01 X12.8920 Y37.9401 
G01 X12.9154 Y37.8227 
G01 X12.9612 Y37.7120 
G01 X13.0277 Y37.6124 
G01 X13.1124 Y37.5277 
G01 X13.2120 Y37.4612 
G01 X13.3227 Y37.4154 
G01 X13.4401 Y37.3920 
G01 X13.5599 Y37.3920 
G01 X13.6773 Y37.4154 
G01 X13.7880 Y37.4612 
G01 X13.8876 Y37.5277 
G01 X13.9723 Y37.6124 
G01 X14.0388 Y37.7120 
G01 X14.0846 Y37.8227 
G01 X14.1080 Y37.9401 
G01 X14.1080 Y38.0599 
G01 X14.0846 Y38.1773 
G01 X14.0388 Y38.2880 
G01 X13.9723 Y38.3876 
G01 X13.8876 Y38.4723 
G01 X13.7880 Y38.5388 
G01 X13.6773 Y38.5846 
G01 X13.5599 Y38.6080 
G01 X13.4401 Y38.6080 
G01 X13.3227 Y38.5846 
G01 X13.2847 Y38.5689 
G01 X10.5000 Y41.3536 
G00 Z2.0000 
G00 X31.6464 Y51.5000 
G01 Z-0.0250 F254.00 
G01 X30.9601 Y51.5000 F508.00 
G01 X30.9234 Y51.4848 
G01 X30.8952 Y51.4566 
G01 X30.8800 Y51.4199 
G01 X30.8800 Y50.1801 
G01 X30.8952 Y50.1434 
G01 X30.9234 Y50.1152 
G01 X30.9601 Y50.1000 
G01 X31.7999 Y50.1000 
G01 X31.8366 Y50.1152 
G01 X31.8648 Y50.1434 
G01 X31.8800 Y50.1801 
G01 X31.8800 Y51.0264 
G01 X33.1416 Y52.2881 
G01 X33.2119 Y52.3584 
G01 X35.6416 Y54.7881 
G01 X35.7119 Y54.8584 
G01 X35.7500 Y54.9503 
G01 X35.7500 Y59.8964 
G01 X36.1136 Y60.2600 
G01 X36.8799 Y60.2600 
G01 X36.9166 Y60.2752 
G01 X36.9448 Y60.3034 
G01 X36.9600 Y60.3401 
G01 X36.9600 Y61.5799 
G01 X36.9448 Y61.6166 
G01 X36.9166 Y61.6448 
G01 X36.8799 Y61.6600 
G01 X36.0401 Y61.6600 
G01 X36.0034 Y61.6448 
G01 X35.9752 Y61.6166 
G01 X35.9600 Y61.5799 
G01 X35.9600 Y60.8136 
G01 X35.2881 Y60.1416 
G01 X35.2500 Y60.0497 
G01 X35.2500 Y55.1036 
G01 X33.0000 Y52.8536 
G01 X30.7500 Y55.1036 
G01 X30.7500 Y57.0497 
G01 X30.7119 Y57.1416 
G01 X30.6416 Y57.2119 
G01 X30.5497 Y57.2500 
G01 X28.3536 Y57.2500 
G01 X25.4619 Y60.1416 
G01 X25.3916 Y60.2119 
G01 X25.0000 Y60.6036 
G01 X25.0000 Y61.5799 
G01 X24.9848 Y61.6166 
G01 X24.9566 Y61.6448 
G01 X24.9199 Y61.6600 
G01 X24.0801 Y61.6600 
G01 X24.0434 Y61.6448 
G01 X24.0152 Y61.6166 
G01 X24.0000 Y61.5799 
G01 X24.0000 Y60.3401 
G01 X24.0152 Y60.3034 
G01 X24.0434 Y60.2752 
G01 X24.0801 Y60.2600 
G01 X24.6364 Y60.2600 
G01 X24.8964 Y60.0000 
G01 X24.7153 Y59.8189 
G01 X24.6773 Y59.8346 
G01 X24.5599 Y59.8580 
G01 X24.4401 Y59.8580 
G01 X24.3226 Y59.8346 
G01 X24.2120 Y59.7888 
G01 X24.1124 Y59.7223 
G01 X24.0277 Y59.6376 
G01 X23.9612 Y59.5380 
G01 X23.9154 Y59.4273 
G01 X23.8920 Y59.3099 
G01 X23.8920 Y59.1901 
G01 X23.9154 Y59.0727 
G01 X23.9612 Y58.9620 
G01 X24.0277 Y58.8624 
G01 X24.1124 Y58.7777 
G01 X24.2120 Y58.7112 
G01 X24.3226 Y58.6654 
G01 X24.4401 Y58.6420 
G01 X24.5599 Y58.6420 
G01 X24.6773 Y58.6654 
G01 X24.7880 Y58.7112 
G01 X24.8876 Y58.7777 
G01 X24.9723 Y58.8624 
G01 X25.0388 Y58.9620 
G01 X25.0846 Y59.0727 
G01 X25.1080 Y59.1901 
G01 X25.1080 Y59.3099 
G01 X25.0846 Y59.4273 
G01 X25.0689 Y59.4653 
G01 X25.2500 Y59.6464 
G01 X28.0381 Y56.8584 
G01 X28.1084 Y56.7881 
G01 X28.2003 Y56.7500 
G01 X30.2500 Y56.7500 
G01 X30.2500 Y54.9503 
G01 X30.2881 Y54.8584 
G01 X32.6464 Y52.5000 
G01 X31.6464 Y51.5000 
G00 Z2.0000 
G00 X49.2500 Y11.5497 
G01 Z-0.0250 F254.00 
G01 X49.2500 Y11.4503 F508.00 
G01 X49.2881 Y11.3584 
G01 X52.5563 Y8.0901 
G01 X52.5311 Y8.0524 
G01 X52.4623 Y7.8863 
G01 X52.4272 Y7.7099 
G01 X52.4272 Y7.5301 
G01 X52.4623 Y7.3537 
G01 X52.5311 Y7.1876 
G01 X52.6310 Y7.0381 
G01 X52.7581 Y6.9110 
G01 X52.9076 Y6.8111 
G01 X53.0737 Y6.7423 
G01 X53.2501 Y6.7072 
G01 X53.4299 Y6.7072 
G01 X53.6063 Y6.7423 
G01 X53.7724 Y6.8111 
G01 X53.9219 Y6.9110 
G01 X54.0490 Y7.0381 
G01 X54.1489 Y7.1876 
G01 X54.2177 Y7.3537 
G01 X54.2528 Y7.5301 
G01 X54.2528 Y7.7099 
G01 X54.2177 Y7.8863 
G01 X54.1489 Y8.0524 
G01 X54.0490 Y8.2019 
G01 X53.9219 Y8.3290 
G01 X53.7724 Y8.4289 
G01 X53.6063 Y8.4977 
G01 X53.4299 Y8.5328 
G01 X53.2501 Y8.5328 
G01 X53.0737 Y8.4977 
G01 X52.9197 Y8.4339 
G01 X49.7500 Y11.6036 
G01 X49.7500 Y36.1955 
G01 X49.7880 Y36.2112 
G01 X49.8876 Y36.2777 
G01 X49.9723 Y36.3624 
G01 X50.0388 Y36.4620 
G01 X50.0846 Y36.5727 
G01 X50.1080 Y36.6901 
G01 X50.1080 Y36.8099 
G01 X50.0846 Y36.9273 
G01 X50.0388 Y37.0380 
G01 X49.9723 Y37.1376 
G01 X49.8876 Y37.2223 
G01 X49.7880 Y37.2888 
G01 X49.6773 Y37.3346 
G01 X49.5599 Y37.3580 
G01 X49.4401 Y37.3580 
G01 X49.3227 Y37.3346 
G01 X49.2120 Y37.2888 
G01 X49.1124 Y37.2223 
G01 X49.0277 Y37.1376 
G01 X48.9612 Y37.0380 
G01 X48.9154 Y36.9273 
G01 X48.8920 Y36.8099 
G01 X48.8920 Y36.6901 
G01 X48.9154 Y36.5727 
G01 X48.9612 Y36.4620 
G01 X49.0277 Y36.3624 
G01 X49.1124 Y36.2777 
G01 X49.2120 Y36.2112 
G01 X49.2500 Y36.1955 
G01 X49.2500 Y11.5497 
G00 Z2.0000 
G00 X41.6416 Y15.7881 
G01 Z-0.0250 F254.00 
G01 X41.7119 Y15.8584 F508.00 
G01 X41.7500 Y15.9503 
G01 X41.7500 Y26.1955 
G01 X41.7880 Y26.2112 
G01 X41.8876 Y26.2777 
G01 X41.9723 Y26.3624 
G01 X42.0388 Y26.4620 
G01 X42.0846 Y26.5727 
G01 X42.1080 Y26.6901 
G01 X42.1080 Y26.8099 
G01 X42.0846 Y26.9273 
G01 X42.0388 Y27.0380 
G01 X41.9723 Y27.1376 
G01 X41.8876 Y27.2223 
G01 X41.7880 Y27.2888 
G01 X41.6773 Y27.3346 
G01 X41.5599 Y27.3580 
G01 X41.4401 Y27.3580 
G01 X41.3227 Y27.3346 
G01 X41.2120 Y27.2888 
G01 X41.1124 Y27.2223 
G01 X41.0277 Y27.1376 
G01 X40.9612 Y27.0380 
G01 X40.9154 Y26.9273 
G01 X40.8920 Y26.8099 
G01 X40.8920 Y26.6901 
G01 X40.9154 Y26.5727 
G01 X40.9612 Y26.4620 
G01 X41.0277 Y26.3624 
G01 X41.1124 Y26.2777 
G01 X41.2120 Y26.2112 
G01 X41.2500 Y26.1955 
G01 X41.2500 Y16.1036 
G01 X36.4653 Y11.3189 
G01 X36.4273 Y11.3346 
G01 X36.3099 Y11.3580 
G01 X36.1901 Y11.3580 
G01 X36.0727 Y11.3346 
G01 X35.9620 Y11.2888 
G01 X35.8624 Y11.2223 
G01 X35.7777 Y11.1376 
G01 X35.7112 Y11.0380 
G01 X35.6654 Y10.9273 
G01 X35.6420 Y10.8099 
G01 X35.6420 Y10.6901 
G01 X35.6654 Y10.5727 
G01 X35.7112 Y10.4620 
G01 X35.7777 Y10.3624 
G01 X35.8624 Y10.2777 
G01 X35.9620 Y10.2112 
G01 X36.0727 Y10.1654 
G01 X36.1901 Y10.1420 
G01 X36.3099 Y10.1420 
G01 X36.4273 Y10.1654 
G01 X36.5380 Y10.2112 
G01 X36.6376 Y10.2777 
G01 X36.7223 Y10.3624 
G01 X36.7888 Y10.4620 
G01 X36.8346 Y10.5727 
G01 X36.8580 Y10.6901 
G01 X36.8580 Y10.8099 
G01 X36.8346 Y10.9273 
G01 X36.8189 Y10.9653 
G01 X41.6416 Y15.7881 
G00 Z2.0000 
G00 X6.6800 Y4.9541 
G01 Z-0.0250 F254.00 
G01 X6.6800 Y5.2059 F508.00 
G01 X6.6406 Y5.4547 
G01 X6.5628 Y5.6942 
G01 X6.4484 Y5.9186 
G01 X6.3004 Y6.1223 
G01 X6.1223 Y6.3004 
G01 X5.9186 Y6.4484 
G01 X5.6942 Y6.5628 
G01 X5.4547 Y6.6406 
G01 X5.2059 Y6.6800 
G01 X4.9541 Y6.6800 
G01 X4.7053 Y6.6406 
G01 X4.4658 Y6.5628 
G01 X4.2414 Y6.4484 
G01 X4.0377 Y6.3004 
G01 X3.8596 Y6.1223 
G01 X3.7116 Y5.9186 
G01 X3.5972 Y5.6942 
G01 X3.5194 Y5.4547 
G01 X3.4800 Y5.2059 
G01 X3.4800 Y4.9541 
G01 X3.5194 Y4.7053 
G01 X3.5972 Y4.4658 
G01 X3.7116 Y4.2414 
G01 X3.8596 Y4.0377 
G01 X4.0377 Y3.8596 
G01 X4.2414 Y3.7116 
G01 X4.4658 Y3.5972 
G01 X4.7053 Y3.5194 
G01 X4.9541 Y3.4800 
G01 X5.2059 Y3.4800 
G01 X5.4547 Y3.5194 
G01 X5.6942 Y3.5972 
G01 X5.9186 Y3.7116 
G01 X6.1223 Y3.8596 
G01 X6.3004 Y4.0377 
G01 X6.4484 Y4.2414 
G01 X6.5628 Y4.4658 
G01 X6.6406 Y4.7053 
G01 X6.6800 Y4.9541 
G00 Z2.0000 
G00 X54.9400 Y63.3741 
G01 Z-0.0250 F254.00 
G01 X54.9400 Y63.6259 F508.00 
G01 X54.9006 Y63.8747 
G01 X54.8228 Y64.1142 
G01 X54.7084 Y64.3386 
G01 X54.5604 Y64.5423 
G01 X54.3823 Y64.7204 
G01 X54.1786 Y64.8684 
G01 X53.9542 Y64.9828 
G01 X53.7147 Y65.0606 
G01 X53.4659 Y65.1000 
G01 X53.2141 Y65.1000 
G01 X52.9653 Y65.0606 
G01 X52.7258 Y64.9828 
G01 X52.5014 Y64.8684 
G01 X52.2977 Y64.7204 
G01 X52.1196 Y64.5423 
G01 X51.9716 Y64.3386 
G01 X51.8572 Y64.1142 
G01 X51.7794 Y63.8747 
G01 X51.7400 Y63.6259 
G01 X51.7400 Y63.3741 
G01 X51.7794 Y63.1253 
G01 X51.8572 Y62.8858 
G01 X51.9716 Y62.6614 
G01 X52.1196 Y62.4577 
G01 X52.2977 Y62.2796 
G01 X52.5014 Y62.1316 
G01 X52.7258 Y62.0172 
G01 X52.9653 Y61.9394 
G01 X53.2141 Y61.9000 
G01 X53.4659 Y61.9000 
G01 X53.7147 Y61.9394 
G01 X53.9542 Y62.0172 
G01 X54.1786 Y62.1316 
G01 X54.3823 Y62.2796 
G01 X54.5604 Y62.4577 
G01 X54.7084 Y62.6614 
G01 X54.8228 Y62.8858 
G01 X54.9006 Y63.1253 
G01 X54.9400 Y63.3741 
G00 Z2.0000 
G00 X35.8600 Y61.5998 
G01 Z-0.0250 F254.00 
G01 X35.8600 Y60.8550 F508.00 
G01 X35.2199 Y60.2149 
G01 X35.1739 Y60.1351 
G01 X35.1500 Y60.0461 
G01 X35.1500 Y55.1450 
G01 X33.0000 Y52.9950 
G01 X30.9150 Y55.0800 
G01 X32.1698 Y55.0800 
G01 X32.2433 Y55.1104 
G01 X32.2996 Y55.1667 
G01 X32.3300 Y55.2402 
G01 X32.3300 Y56.0850 
G01 X34.7149 Y58.4699 
G01 X34.7801 Y58.5351 
G01 X34.8261 Y58.6149 
G01 X34.8500 Y58.7039 
G01 X34.8500 Y60.1600 
G01 X35.0998 Y60.1600 
G01 X35.1733 Y60.1904 
G01 X35.2296 Y60.2467 
G01 X35.2600 Y60.3202 
G01 X35.2600 Y61.5998 
G01 X35.2392 Y61.6500 
G01 X35.8808 Y61.6500 
G01 X35.8600 Y61.5998 
G00 Z2.0000 
G00 X42.3500 Y62.0461 
G01 Z-0.0250 F254.00 
G01 X42.3261 Y62.1351 F508.00 
G01 X42.2801 Y62.2149 
G01 X42.2149 Y62.2801 
G01 X42.1351 Y62.3261 
G01 X42.0461 Y62.3500 
G01 X33.9539 Y62.3500 
G01 X33.8649 Y62.3261 
G01 X33.7851 Y62.2801 
G01 X33.7199 Y62.2149 
G01 X33.4699 Y61.9649 
G01 X33.4239 Y61.8851 
G01 X33.4000 Y61.7961 
G01 X33.4000 Y61.3500 
G01 X32.3300 Y61.3500 
G01 X32.3300 Y61.5998 
G01 X32.2996 Y61.6733 
G01 X32.2433 Y61.7296 
G01 X32.1698 Y61.7600 
G01 X30.8902 Y61.7600 
G01 X30.8167 Y61.7296 
G01 X30.7604 Y61.6733 
G01 X30.7300 Y61.5998 
G01 X30.7300 Y60.3202 
G01 X30.7604 Y60.2467 
G01 X30.8167 Y60.1904 
G01 X30.8902 Y60.1600 
G01 X32.1698 Y60.1600 
G01 X32.2433 Y60.1904 
G01 X32.2996 Y60.2467 
G01 X32.3300 Y60.3202 
G01 X32.3300 Y60.6500 
G01 X33.7961 Y60.6500 
G01 X33.8851 Y60.6739 
G01 X33.9649 Y60.7199 
G01 X34.0301 Y60.7851 
G01 X34.0600 Y60.8369 
G01 X34.0600 Y60.3202 
G01 X34.0904 Y60.2467 
G01 X34.1467 Y60.1904 
G01 X34.1500 Y60.1891 
G01 X34.1500 Y58.8950 
G01 X31.9350 Y56.6800 
G01 X30.8902 Y56.6800 
G01 X30.8500 Y56.6633 
G01 X30.8500 Y57.0461 
G01 X30.8261 Y57.1351 
G01 X30.7801 Y57.2149 
G01 X30.7149 Y57.2801 
G01 X30.6351 Y57.3261 
G01 X30.5461 Y57.3500 
G01 X28.3950 Y57.3500 
G01 X25.5301 Y60.2149 
G01 X25.4649 Y60.2801 
G01 X25.1000 Y60.6450 
G01 X25.1000 Y61.5998 
G01 X25.0695 Y61.6733 
G01 X25.0133 Y61.7296 
G01 X24.9398 Y61.7600 
G01 X24.0602 Y61.7600 
G01 X23.9867 Y61.7296 
G01 X23.9304 Y61.6733 
G01 X23.9000 Y61.5998 
G01 X23.9000 Y60.3202 
G01 X23.9304 Y60.2467 
G01 X23.9867 Y60.1904 
G01 X24.0602 Y60.1600 
G01 X24.5950 Y60.1600 
G01 X24.7550 Y60.0000 
G01 X24.6892 Y59.9342 
G01 X24.5697 Y59.9580 
G01 X24.4303 Y59.9580 
G01 X24.2935 Y59.9308 
G01 X24.1646 Y59.8774 
G01 X24.0487 Y59.7999 
G01 X23.9501 Y59.7013 
G01 X23.8726 Y59.5854 
G01 X23.8500 Y59.5308 
G01 X23.8500 Y62.4000 
G01 X42.1050 Y62.4000 
G01 X45.3029 Y59.2021 
G01 X45.2598 Y59.2200 
G01 X44.5250 Y59.2200 
G01 X42.3500 Y61.3950 
G01 X42.3500 Y62.0461 
G00 Z2.0000 
G00 X25.7000 Y61.5998 
G01 Z-0.0250 F254.00 
G01 X25.7000 Y60.3202 F508.00 
G01 X25.7304 Y60.2467 
G01 X25.7867 Y60.1904 
G01 X25.8602 Y60.1600 
G01 X26.7398 Y60.1600 
G01 X26.8133 Y60.1904 
G01 X26.8696 Y60.2467 
G01 X26.9000 Y60.3202 
G01 X26.9000 Y60.6500 
G01 X28.6300 Y60.6500 
G01 X28.6300 Y60.3202 
G01 X28.6604 Y60.2467 
G01 X28.7167 Y60.1904 
G01 X28.7902 Y60.1600 
G01 X30.0698 Y60.1600 
G01 X30.1433 Y60.1904 
G01 X30.1996 Y60.2467 
G01 X30.2300 Y60.3202 
G01 X30.2300 Y61.5998 
G01 X30.1996 Y61.6733 
G01 X30.1433 Y61.7296 
G01 X30.0698 Y61.7600 
G01 X28.7902 Y61.7600 
G01 X28.7167 Y61.7296 
G01 X28.6604 Y61.6733 
G01 X28.6300 Y61.5998 
G01 X28.6300 Y61.3500 
G01 X26.9000 Y61.3500 
G01 X26.9000 Y61.5998 
G01 X26.8696 Y61.6733 
G01 X26.8133 Y61.7296 
G01 X26.7398 Y61.7600 
G01 X25.8602 Y61.7600 
G01 X25.7867 Y61.7296 
G01 X25.7304 Y61.6733 
G01 X25.7000 Y61.5998 
G00 Z2.0000 
G00 X44.6150 Y57.6200 
G01 Z-0.0250 F254.00 
G01 X45.2598 Y57.6200 F508.00 
G01 X45.3333 Y57.6504 
G01 X45.3895 Y57.7067 
G01 X45.4000 Y57.7319 
G01 X45.4000 Y54.3950 
G01 X45.1450 Y54.1400 
G01 X44.3802 Y54.1400 
G01 X44.3067 Y54.1096 
G01 X44.2504 Y54.0533 
G01 X44.2200 Y53.9798 
G01 X44.2200 Y52.7002 
G01 X44.2504 Y52.6267 
G01 X44.3067 Y52.5704 
G01 X44.3802 Y52.5400 
G01 X45.2598 Y52.5400 
G01 X45.3199 Y52.5649 
G01 X39.4393 Y46.6842 
G01 X39.3197 Y46.7080 
G01 X39.1803 Y46.7080 
G01 X39.0435 Y46.6808 
G01 X38.9146 Y46.6274 
G01 X38.7987 Y46.5499 
G01 X38.7001 Y46.4513 
G01 X38.6226 Y46.3354 
G01 X38.6000 Y46.2808 
G01 X38.6000 Y51.6050 
G01 X44.6150 Y57.6200 
G00 Z2.0000 
G00 X22.9649 Y43.9699 
G01 Z-0.0250 F254.00 
G01 X22.9649 Y43.9699 F508.00 
G01 X23.0301 Y44.0351 
G01 X23.0761 Y44.1149 
G01 X23.1000 Y44.2039 
G01 X23.1000 Y44.6800 
G01 X24.4998 Y44.6800 
G01 X24.5733 Y44.7104 
G01 X24.6296 Y44.7667 
G01 X24.6500 Y44.8161 
G01 X24.6500 Y39.8950 
G01 X23.3000 Y38.5450 
G01 X22.0852 Y38.5450 
G01 X22.0117 Y38.5145 
G01 X21.9554 Y38.4583 
G01 X21.9250 Y38.3848 
G01 X21.9250 Y37.0352 
G01 X21.9554 Y36.9617 
G01 X22.0117 Y36.9054 
G01 X22.0852 Y36.8750 
G01 X23.6300 Y36.8750 
G01 X19.4699 Y32.7149 
G01 X19.4239 Y32.6351 
G01 X19.4000 Y32.5461 
G01 X19.4000 Y10.6000 
G01 X6.1685 Y10.6000 
G01 X6.2228 Y10.6225 
G01 X6.3721 Y10.7222 
G01 X6.4990 Y10.8491 
G01 X6.5987 Y10.9984 
G01 X6.6674 Y11.1642 
G01 X6.7024 Y11.3403 
G01 X6.7024 Y11.5197 
G01 X6.6674 Y11.6958 
G01 X6.5987 Y11.8616 
G01 X6.4990 Y12.0109 
G01 X6.3774 Y12.1324 
G01 X15.2149 Y20.9699 
G01 X15.2801 Y21.0351 
G01 X15.3261 Y21.1149 
G01 X15.3500 Y21.2039 
G01 X15.3500 Y45.6236 
G01 X15.3774 Y45.6646 
G01 X15.4000 Y45.7192 
G01 X15.4000 Y19.3676 
G01 X15.2987 Y19.2999 
G01 X15.2001 Y19.2013 
G01 X15.1226 Y19.0854 
G01 X15.0692 Y18.9565 
G01 X15.0420 Y18.8197 
G01 X15.0420 Y18.6803 
G01 X15.0692 Y18.5435 
G01 X15.1226 Y18.4146 
G01 X15.2001 Y18.2987 
G01 X15.2987 Y18.2001 
G01 X15.4146 Y18.1226 
G01 X15.5435 Y18.0692 
G01 X15.6803 Y18.0420 
G01 X15.8197 Y18.0420 
G01 X15.9565 Y18.0692 
G01 X16.0854 Y18.1226 
G01 X16.2013 Y18.2001 
G01 X16.2999 Y18.2987 
G01 X16.3774 Y18.4146 
G01 X16.4308 Y18.5435 
G01 X16.4580 Y18.6803 
G01 X16.4580 Y18.8197 
G01 X16.4308 Y18.9565 
G01 X16.3774 Y19.0854 
G01 X16.2999 Y19.2013 
G01 X16.2013 Y19.2999 
