(.../pcb-gcode-3.6.0.4/pcb-gcode.ulp)
(Copyright 2005 - 2012 by John Johnson)
(See readme.txt for licensing terms.)
(This file generated from the board:)
(.../eagle/SulaMatikV2/SulaMatikV2.brd)
(Current profile is .../pcb-gcode-3.6.0.4/profiles/emc.pp  )
(This file generated 2/1/2015 11:56:32 PM)
(Settings from pcb-machine.h)
(  Tool Size)
(0.1000 )
(Z Axis Settings)
(  High     Up        Down     Drill)
(19.5000 	2.0000 	-0.0250 	-1.5000 )
(spindle on time = 1.0000)
(milling depth = -0.0500)
(text depth = -0.0500)
(tool change at 15.0000 15.0000 19.0000 )
(feed rate xy = F508.00 )
(feed rate z  = F254.00 )
(Settings from pcb-defaults.h)
(isolate min = 0.0500)
(isolate max = 1.0000)
(isolate step = 0.1000)
(Generated top outlines, top drill, bottom outlines, bottom drill, )
(Unit of measure: mm)
(Metric Mode)
G21
(Absolute Coordinates)
G90
G00 X0.0000 Y0.0000 
M03
G04 P1.000000
G00 Z2.0000 
G00 X-23.2881 Y34.3584 
G01 Z-0.0250 F254.00 
G01 X-23.3584 Y34.2881 F508.00 
G01 X-23.4503 Y34.2500 
G01 X-35.9172 Y34.2500 
G01 X-35.9172 Y34.2001 
G01 X-35.9523 Y34.0237 
G01 X-36.0211 Y33.8576 
G01 X-36.1210 Y33.7081 
G01 X-36.2481 Y33.5810 
G01 X-36.3976 Y33.4811 
G01 X-36.5637 Y33.4123 
G01 X-36.7401 Y33.3772 
G01 X-36.9199 Y33.3772 
G01 X-37.0963 Y33.4123 
G01 X-37.2624 Y33.4811 
G01 X-37.4119 Y33.5810 
G01 X-37.5390 Y33.7081 
G01 X-37.6389 Y33.8576 
G01 X-37.7077 Y34.0237 
G01 X-37.7428 Y34.2001 
G01 X-37.7428 Y34.3799 
G01 X-37.7077 Y34.5563 
G01 X-37.6389 Y34.7224 
G01 X-37.5390 Y34.8719 
G01 X-37.4119 Y34.9990 
G01 X-37.2624 Y35.0989 
G01 X-37.0963 Y35.1677 
G01 X-36.9199 Y35.2028 
G01 X-36.7401 Y35.2028 
G01 X-36.5637 Y35.1677 
G01 X-36.3976 Y35.0989 
G01 X-36.2481 Y34.9990 
G01 X-36.1210 Y34.8719 
G01 X-36.0395 Y34.7500 
G01 X-23.6036 Y34.7500 
G01 X-18.3189 Y40.0347 
G01 X-18.3346 Y40.0727 
G01 X-18.3580 Y40.1901 
G01 X-18.3580 Y40.3099 
G01 X-18.3346 Y40.4273 
G01 X-18.2888 Y40.5380 
G01 X-18.2223 Y40.6376 
G01 X-18.1376 Y40.7223 
G01 X-18.0380 Y40.7888 
G01 X-17.9273 Y40.8346 
G01 X-17.8099 Y40.8580 
G01 X-17.6901 Y40.8580 
G01 X-17.5726 Y40.8346 
G01 X-17.4620 Y40.7888 
G01 X-17.3624 Y40.7223 
G01 X-17.2777 Y40.6376 
G01 X-17.2112 Y40.5380 
G01 X-17.1654 Y40.4273 
G01 X-17.1420 Y40.3099 
G01 X-17.1420 Y40.1901 
G01 X-17.1654 Y40.0727 
G01 X-17.2112 Y39.9620 
G01 X-17.2777 Y39.8624 
G01 X-17.3624 Y39.7777 
G01 X-17.4620 Y39.7112 
G01 X-17.5726 Y39.6654 
G01 X-17.6901 Y39.6420 
G01 X-17.8099 Y39.6420 
G01 X-17.9273 Y39.6654 
G01 X-17.9653 Y39.6811 
G01 X-23.2881 Y34.3584 
G00 Z2.0000 
G00 X-31.3536 Y44.2500 
G01 Z-0.0250 F254.00 
G01 X-35.9391 Y44.2500 F508.00 
G01 X-35.9523 Y44.1837 
G01 X-36.0211 Y44.0176 
G01 X-36.1210 Y43.8681 
G01 X-36.2481 Y43.7410 
G01 X-36.3976 Y43.6411 
G01 X-36.5637 Y43.5723 
G01 X-36.7401 Y43.5372 
G01 X-36.9199 Y43.5372 
G01 X-37.0963 Y43.5723 
G01 X-37.2624 Y43.6411 
G01 X-37.4119 Y43.7410 
G01 X-37.5390 Y43.8681 
G01 X-37.6389 Y44.0176 
G01 X-37.7077 Y44.1837 
G01 X-37.7428 Y44.3601 
G01 X-37.7428 Y44.5399 
G01 X-37.7077 Y44.7163 
G01 X-37.6389 Y44.8824 
G01 X-37.5390 Y45.0319 
G01 X-37.4119 Y45.1590 
G01 X-37.2624 Y45.2589 
G01 X-37.0963 Y45.3277 
G01 X-36.9199 Y45.3628 
G01 X-36.7401 Y45.3628 
G01 X-36.5637 Y45.3277 
G01 X-36.3976 Y45.2589 
G01 X-36.2481 Y45.1590 
G01 X-36.1210 Y45.0319 
G01 X-36.0211 Y44.8824 
G01 X-35.9663 Y44.7500 
G01 X-31.2003 Y44.7500 
G01 X-31.1084 Y44.7119 
G01 X-28.9653 Y42.5689 
G01 X-28.9273 Y42.5846 
G01 X-28.8099 Y42.6080 
G01 X-28.6901 Y42.6080 
G01 X-28.5727 Y42.5846 
G01 X-28.4620 Y42.5388 
G01 X-28.3624 Y42.4723 
G01 X-28.2777 Y42.3876 
G01 X-28.2112 Y42.2880 
G01 X-28.1654 Y42.1773 
G01 X-28.1420 Y42.0599 
G01 X-28.1420 Y41.9401 
G01 X-28.1654 Y41.8227 
G01 X-28.2112 Y41.7120 
G01 X-28.2777 Y41.6124 
G01 X-28.3624 Y41.5277 
G01 X-28.4620 Y41.4612 
G01 X-28.5727 Y41.4154 
G01 X-28.6901 Y41.3920 
G01 X-28.8099 Y41.3920 
G01 X-28.9273 Y41.4154 
G01 X-29.0380 Y41.4612 
G01 X-29.1376 Y41.5277 
G01 X-29.2223 Y41.6124 
G01 X-29.2888 Y41.7120 
G01 X-29.3346 Y41.8227 
G01 X-29.3580 Y41.9401 
G01 X-29.3580 Y42.0599 
G01 X-29.3346 Y42.1773 
G01 X-29.3189 Y42.2153 
G01 X-31.3536 Y44.2500 
G00 Z2.0000 
G00 X-32.5381 Y7.8584 
G01 Z-0.0250 F254.00 
G01 X-32.6084 Y7.7881 F508.00 
G01 X-32.7003 Y7.7500 
G01 X-52.4352 Y7.7500 
G01 X-52.4272 Y7.7099 
G01 X-52.4272 Y7.5301 
G01 X-52.4623 Y7.3537 
G01 X-52.5311 Y7.1876 
G01 X-52.6310 Y7.0381 
G01 X-52.7581 Y6.9110 
G01 X-52.9076 Y6.8111 
G01 X-53.0737 Y6.7423 
G01 X-53.2501 Y6.7072 
G01 X-53.4299 Y6.7072 
G01 X-53.6063 Y6.7423 
G01 X-53.7724 Y6.8111 
G01 X-53.9219 Y6.9110 
G01 X-54.0490 Y7.0381 
G01 X-54.1489 Y7.1876 
G01 X-54.2177 Y7.3537 
G01 X-54.2528 Y7.5301 
G01 X-54.2528 Y7.7099 
G01 X-54.2177 Y7.8863 
G01 X-54.1489 Y8.0524 
G01 X-54.0490 Y8.2019 
G01 X-53.9219 Y8.3290 
G01 X-53.7724 Y8.4289 
G01 X-53.6063 Y8.4977 
G01 X-53.4299 Y8.5328 
G01 X-53.2501 Y8.5328 
G01 X-53.0737 Y8.4977 
G01 X-52.9076 Y8.4289 
G01 X-52.7581 Y8.3290 
G01 X-52.6791 Y8.2500 
G01 X-32.8536 Y8.2500 
G01 X-32.5689 Y8.5347 
G01 X-32.5846 Y8.5727 
G01 X-32.6080 Y8.6901 
G01 X-32.6080 Y8.8099 
G01 X-32.5846 Y8.9273 
G01 X-32.5388 Y9.0380 
G01 X-32.4723 Y9.1376 
G01 X-32.3876 Y9.2223 
G01 X-32.2880 Y9.2888 
G01 X-32.1773 Y9.3346 
G01 X-32.0599 Y9.3580 
G01 X-31.9401 Y9.3580 
G01 X-31.8227 Y9.3346 
G01 X-31.7120 Y9.2888 
G01 X-31.6124 Y9.2223 
G01 X-31.5277 Y9.1376 
G01 X-31.4612 Y9.0380 
G01 X-31.4154 Y8.9273 
G01 X-31.3920 Y8.8099 
G01 X-31.3920 Y8.6901 
G01 X-31.4154 Y8.5727 
G01 X-31.4612 Y8.4620 
G01 X-31.5277 Y8.3624 
G01 X-31.6124 Y8.2777 
G01 X-31.7120 Y8.2112 
G01 X-31.8227 Y8.1654 
G01 X-31.9401 Y8.1420 
G01 X-32.0599 Y8.1420 
G01 X-32.1773 Y8.1654 
G01 X-32.2153 Y8.1811 
G01 X-32.5381 Y7.8584 
G00 Z2.0000 
G00 X-24.5381 Y31.6084 
G01 Z-0.0250 F254.00 
G01 X-24.6084 Y31.5381 F508.00 
G01 X-24.7003 Y31.5000 
G01 X-35.9490 Y31.5000 
G01 X-35.9523 Y31.4837 
G01 X-36.0211 Y31.3176 
G01 X-36.1210 Y31.1681 
G01 X-36.2481 Y31.0410 
G01 X-36.3976 Y30.9411 
G01 X-36.5637 Y30.8723 
G01 X-36.7401 Y30.8372 
G01 X-36.9199 Y30.8372 
G01 X-37.0963 Y30.8723 
G01 X-37.2624 Y30.9411 
G01 X-37.4119 Y31.0410 
G01 X-37.5390 Y31.1681 
G01 X-37.6389 Y31.3176 
G01 X-37.7077 Y31.4837 
G01 X-37.7428 Y31.6601 
G01 X-37.7428 Y31.8399 
G01 X-37.7077 Y32.0163 
G01 X-37.6389 Y32.1824 
G01 X-37.5390 Y32.3319 
G01 X-37.4119 Y32.4590 
G01 X-37.2624 Y32.5589 
G01 X-37.0963 Y32.6277 
G01 X-36.9199 Y32.6628 
G01 X-36.7401 Y32.6628 
G01 X-36.5637 Y32.6277 
G01 X-36.3976 Y32.5589 
G01 X-36.2481 Y32.4590 
G01 X-36.1210 Y32.3319 
G01 X-36.0211 Y32.1824 
G01 X-35.9523 Y32.0163 
G01 X-35.9490 Y32.0000 
G01 X-24.8536 Y32.0000 
G01 X-19.3189 Y37.5347 
G01 X-19.3346 Y37.5727 
G01 X-19.3580 Y37.6901 
G01 X-19.3580 Y37.8099 
G01 X-19.3346 Y37.9273 
G01 X-19.2888 Y38.0380 
G01 X-19.2223 Y38.1376 
G01 X-19.1376 Y38.2223 
G01 X-19.0380 Y38.2888 
G01 X-18.9273 Y38.3346 
G01 X-18.8099 Y38.3580 
G01 X-18.6901 Y38.3580 
G01 X-18.5726 Y38.3346 
G01 X-18.4620 Y38.2888 
G01 X-18.3624 Y38.2223 
G01 X-18.2777 Y38.1376 
G01 X-18.2112 Y38.0380 
G01 X-18.1654 Y37.9273 
G01 X-18.1420 Y37.8099 
G01 X-18.1420 Y37.6901 
G01 X-18.1654 Y37.5727 
G01 X-18.2112 Y37.4620 
G01 X-18.2777 Y37.3624 
G01 X-18.3624 Y37.2777 
G01 X-18.4620 Y37.2112 
G01 X-18.5726 Y37.1654 
G01 X-18.6901 Y37.1420 
G01 X-18.8099 Y37.1420 
G01 X-18.9273 Y37.1654 
G01 X-18.9653 Y37.1811 
G01 X-24.5381 Y31.6084 
G00 Z2.0000 
G00 X-23.6464 Y58.7500 
G01 Z-0.0250 F254.00 
G01 X-10.5000 Y58.7500 F508.00 
G01 X-10.5000 Y62.0516 
G01 X-10.5442 Y62.0699 
G01 X-10.6771 Y62.1587 
G01 X-10.7901 Y62.2717 
G01 X-10.8789 Y62.4046 
G01 X-10.9400 Y62.5522 
G01 X-10.9712 Y62.7089 
G01 X-10.9712 Y64.2911 
G01 X-10.9400 Y64.4478 
G01 X-10.8789 Y64.5954 
G01 X-10.7901 Y64.7283 
G01 X-10.6771 Y64.8413 
G01 X-10.5442 Y64.9301 
G01 X-10.3966 Y64.9912 
G01 X-10.2399 Y65.0224 
G01 X-10.0801 Y65.0224 
G01 X-9.9234 Y64.9912 
G01 X-9.7758 Y64.9301 
G01 X-9.6429 Y64.8413 
G01 X-9.5299 Y64.7283 
G01 X-9.4411 Y64.5954 
G01 X-9.3800 Y64.4478 
G01 X-9.3488 Y64.2911 
G01 X-9.3488 Y62.7089 
G01 X-9.3800 Y62.5522 
G01 X-9.4411 Y62.4046 
G01 X-9.5299 Y62.2717 
G01 X-9.6429 Y62.1587 
G01 X-9.7758 Y62.0699 
G01 X-9.9234 Y62.0088 
G01 X-10.0000 Y61.9935 
G01 X-10.0000 Y55.0000 
G01 X-9.7191 Y55.0000 
G01 X-9.2470 Y55.4720 
G01 X-8.5329 Y55.4720 
G01 X-8.0280 Y54.9671 
G01 X-8.0280 Y54.2529 
G01 X-8.5329 Y53.7480 
G01 X-9.2470 Y53.7480 
G01 X-9.7520 Y54.2529 
G01 X-9.7520 Y54.5000 
G01 X-10.5680 Y54.5000 
G01 X-10.5680 Y54.2529 
G01 X-11.0729 Y53.7480 
G01 X-11.7871 Y53.7480 
G01 X-12.2920 Y54.2529 
G01 X-12.2920 Y54.9671 
G01 X-11.7871 Y55.4720 
G01 X-11.0729 Y55.4720 
G01 X-10.6009 Y55.0000 
G01 X-10.5000 Y55.0000 
G01 X-10.5000 Y58.2500 
G01 X-23.7997 Y58.2500 
G01 X-23.8916 Y58.2881 
G01 X-23.9619 Y58.3584 
G01 X-24.2847 Y58.6811 
G01 X-24.3226 Y58.6654 
G01 X-24.4401 Y58.6420 
G01 X-24.5599 Y58.6420 
G01 X-24.6773 Y58.6654 
G01 X-24.7880 Y58.7112 
G01 X-24.8876 Y58.7777 
G01 X-24.9723 Y58.8624 
G01 X-25.0388 Y58.9620 
G01 X-25.0846 Y59.0727 
G01 X-25.1080 Y59.1901 
G01 X-25.1080 Y59.3099 
G01 X-25.0846 Y59.4273 
G01 X-25.0388 Y59.5380 
G01 X-24.9723 Y59.6376 
G01 X-24.8876 Y59.7223 
G01 X-24.7880 Y59.7888 
G01 X-24.6773 Y59.8346 
G01 X-24.5599 Y59.8580 
G01 X-24.4401 Y59.8580 
G01 X-24.3226 Y59.8346 
G01 X-24.2120 Y59.7888 
G01 X-24.1124 Y59.7223 
G01 X-24.0277 Y59.6376 
G01 X-23.9612 Y59.5380 
G01 X-23.9154 Y59.4273 
G01 X-23.8920 Y59.3099 
G01 X-23.8920 Y59.1901 
G01 X-23.9154 Y59.0727 
G01 X-23.9311 Y59.0347 
G01 X-23.6464 Y58.7500 
G00 Z2.0000 
G00 X-5.9928 Y32.9301 
G01 Z-0.0250 F254.00 
G01 X-5.9928 Y33.1099 F508.00 
G01 X-5.9577 Y33.2863 
G01 X-5.8889 Y33.4524 
G01 X-5.7890 Y33.6019 
G01 X-5.6619 Y33.7290 
G01 X-5.5124 Y33.8289 
G01 X-5.3463 Y33.8977 
G01 X-5.1699 Y33.9328 
G01 X-4.9901 Y33.9328 
G01 X-4.8137 Y33.8977 
G01 X-4.6476 Y33.8289 
G01 X-4.4981 Y33.7290 
G01 X-4.3710 Y33.6019 
G01 X-4.2711 Y33.4524 
G01 X-4.2023 Y33.2863 
G01 X-4.1672 Y33.1099 
G01 X-4.1672 Y32.9301 
G01 X-4.2023 Y32.7537 
G01 X-4.2711 Y32.5876 
G01 X-4.3710 Y32.4381 
G01 X-4.4981 Y32.3110 
G01 X-4.6476 Y32.2111 
G01 X-4.8137 Y32.1423 
G01 X-4.9901 Y32.1072 
G01 X-5.1699 Y32.1072 
G01 X-5.3463 Y32.1423 
G01 X-5.5124 Y32.2111 
G01 X-5.6161 Y32.2804 
G01 X-6.5381 Y31.3584 
G01 X-6.6084 Y31.2881 
G01 X-6.7003 Y31.2500 
G01 X-16.1464 Y31.2500 
G01 X-20.9311 Y26.4653 
G01 X-20.9154 Y26.4273 
G01 X-20.8920 Y26.3099 
G01 X-20.8920 Y26.1901 
G01 X-20.9154 Y26.0727 
G01 X-20.9612 Y25.9620 
G01 X-21.0277 Y25.8624 
G01 X-21.1124 Y25.7777 
G01 X-21.2120 Y25.7112 
G01 X-21.3226 Y25.6654 
G01 X-21.4401 Y25.6420 
G01 X-21.5599 Y25.6420 
G01 X-21.6773 Y25.6654 
G01 X-21.7880 Y25.7112 
G01 X-21.8876 Y25.7777 
G01 X-21.9723 Y25.8624 
G01 X-22.0388 Y25.9620 
G01 X-22.0846 Y26.0727 
G01 X-22.1080 Y26.1901 
G01 X-22.1080 Y26.3099 
G01 X-22.0846 Y26.4273 
G01 X-22.0388 Y26.5380 
G01 X-21.9723 Y26.6376 
G01 X-21.8876 Y26.7223 
G01 X-21.7880 Y26.7888 
G01 X-21.6773 Y26.8346 
G01 X-21.5599 Y26.8580 
G01 X-21.4401 Y26.8580 
G01 X-21.3226 Y26.8346 
G01 X-21.2847 Y26.8189 
G01 X-16.3916 Y31.7119 
G01 X-16.2997 Y31.7500 
G01 X-6.8536 Y31.7500 
G01 X-5.9261 Y32.6774 
G01 X-5.9577 Y32.7537 
G01 X-5.9928 Y32.9301 
G00 Z2.0000 
G00 X-54.1311 Y22.0488 
G01 Z-0.0250 F254.00 
G01 X-54.2878 Y22.0800 F508.00 
G01 X-54.4354 Y22.1411 
G01 X-54.5683 Y22.2299 
G01 X-54.6813 Y22.3429 
G01 X-54.7701 Y22.4758 
G01 X-54.8312 Y22.6234 
G01 X-54.8624 Y22.7801 
G01 X-54.8624 Y22.9399 
G01 X-54.8312 Y23.0966 
G01 X-54.7701 Y23.2442 
G01 X-54.6813 Y23.3771 
G01 X-54.5683 Y23.4901 
G01 X-54.4354 Y23.5789 
G01 X-54.2878 Y23.6400 
G01 X-54.1311 Y23.6712 
G01 X-52.5489 Y23.6712 
G01 X-52.3922 Y23.6400 
G01 X-52.2446 Y23.5789 
G01 X-52.1117 Y23.4901 
G01 X-51.9987 Y23.3771 
G01 X-51.9099 Y23.2442 
G01 X-51.8488 Y23.0966 
G01 X-51.8176 Y22.9399 
G01 X-51.8176 Y22.7801 
G01 X-51.8488 Y22.6234 
G01 X-51.9099 Y22.4758 
G01 X-51.9987 Y22.3429 
G01 X-52.1117 Y22.2299 
G01 X-52.2446 Y22.1411 
G01 X-52.2750 Y22.1285 
G01 X-50.8964 Y20.7500 
G01 X-48.0948 Y20.7500 
G01 X-48.0414 Y20.8300 
G01 X-47.9300 Y20.9414 
G01 X-47.7989 Y21.0289 
G01 X-47.6534 Y21.0893 
G01 X-47.4988 Y21.1200 
G01 X-47.3412 Y21.1200 
G01 X-47.1866 Y21.0893 
G01 X-47.0411 Y21.0289 
G01 X-46.9100 Y20.9414 
G01 X-46.7986 Y20.8300 
G01 X-46.7111 Y20.6989 
G01 X-46.6507 Y20.5534 
G01 X-46.6200 Y20.3988 
G01 X-46.6200 Y20.2412 
G01 X-46.6507 Y20.0866 
G01 X-46.7111 Y19.9411 
G01 X-46.7986 Y19.8100 
G01 X-46.9100 Y19.6986 
G01 X-47.0411 Y19.6111 
G01 X-47.1866 Y19.5507 
G01 X-47.3412 Y19.5200 
G01 X-47.4988 Y19.5200 
G01 X-47.6534 Y19.5507 
G01 X-47.7989 Y19.6111 
G01 X-47.9300 Y19.6986 
G01 X-48.0414 Y19.8100 
G01 X-48.1289 Y19.9411 
G01 X-48.1893 Y20.0866 
G01 X-48.2200 Y20.2412 
G01 X-48.2200 Y20.2500 
G01 X-51.0497 Y20.2500 
G01 X-51.1416 Y20.2881 
G01 X-51.2119 Y20.3584 
G01 X-52.9024 Y22.0488 
G01 X-54.1311 Y22.0488 
G00 Z2.0000 
G00 X-52.5489 Y19.5088 
G01 Z-0.0250 F254.00 
G01 X-54.1311 Y19.5088 F508.00 
G01 X-54.2878 Y19.5400 
G01 X-54.4354 Y19.6011 
G01 X-54.5683 Y19.6899 
G01 X-54.6813 Y19.8029 
G01 X-54.7701 Y19.9358 
G01 X-54.8312 Y20.0834 
G01 X-54.8624 Y20.2401 
G01 X-54.8624 Y20.3999 
G01 X-54.8312 Y20.5566 
G01 X-54.7701 Y20.7042 
G01 X-54.6813 Y20.8371 
G01 X-54.5683 Y20.9501 
G01 X-54.4354 Y21.0389 
G01 X-54.2878 Y21.1000 
G01 X-54.1311 Y21.1312 
G01 X-52.5489 Y21.1312 
G01 X-52.3922 Y21.1000 
G01 X-52.2446 Y21.0389 
G01 X-52.1117 Y20.9501 
G01 X-51.9987 Y20.8371 
G01 X-51.9099 Y20.7042 
G01 X-51.8488 Y20.5566 
G01 X-51.8176 Y20.3999 
G01 X-51.8176 Y20.2401 
G01 X-51.8488 Y20.0834 
G01 X-51.9099 Y19.9358 
G01 X-51.9987 Y19.8029 
G01 X-52.1117 Y19.6899 
G01 X-52.2446 Y19.6011 
G01 X-52.3922 Y19.5400 
G01 X-52.5489 Y19.5088 
G00 Z2.0000 
G00 X-52.5489 Y16.9688 
G01 Z-0.0250 F254.00 
G01 X-54.1311 Y16.9688 F508.00 
G01 X-54.2878 Y17.0000 
G01 X-54.4354 Y17.0611 
G01 X-54.5683 Y17.1499 
G01 X-54.6813 Y17.2629 
G01 X-54.7701 Y17.3957 
G01 X-54.8312 Y17.5434 
G01 X-54.8624 Y17.7001 
G01 X-54.8624 Y17.8599 
G01 X-54.8312 Y18.0166 
G01 X-54.7701 Y18.1642 
G01 X-54.6813 Y18.2971 
G01 X-54.5683 Y18.4101 
G01 X-54.4354 Y18.4989 
G01 X-54.2878 Y18.5600 
G01 X-54.1311 Y18.5912 
G01 X-52.5489 Y18.5912 
G01 X-52.3922 Y18.5600 
G01 X-52.2446 Y18.4989 
G01 X-52.1117 Y18.4101 
G01 X-51.9987 Y18.2971 
G01 X-51.9099 Y18.1642 
G01 X-51.8488 Y18.0166 
G01 X-51.8176 Y17.8599 
G01 X-51.8176 Y17.7001 
G01 X-51.8488 Y17.5434 
G01 X-51.9099 Y17.3957 
G01 X-51.9987 Y17.2629 
G01 X-52.1117 Y17.1499 
G01 X-52.2446 Y17.0611 
G01 X-52.3922 Y17.0000 
G01 X-52.5489 Y16.9688 
G00 Z2.0000 
G00 X-52.5489 Y14.4288 
G01 Z-0.0250 F254.00 
G01 X-54.1311 Y14.4288 F508.00 
G01 X-54.2878 Y14.4600 
G01 X-54.4354 Y14.5211 
G01 X-54.5683 Y14.6099 
G01 X-54.6813 Y14.7229 
G01 X-54.7701 Y14.8558 
G01 X-54.8312 Y15.0034 
G01 X-54.8624 Y15.1601 
G01 X-54.8624 Y15.3199 
G01 X-54.8312 Y15.4766 
G01 X-54.7701 Y15.6242 
G01 X-54.6813 Y15.7571 
G01 X-54.5683 Y15.8701 
G01 X-54.4354 Y15.9589 
G01 X-54.2878 Y16.0200 
G01 X-54.1311 Y16.0512 
G01 X-52.8024 Y16.0512 
G01 X-49.8916 Y18.9619 
G01 X-49.7997 Y19.0000 
G01 X-16.3045 Y19.0000 
G01 X-16.2888 Y19.0380 
G01 X-16.2223 Y19.1376 
G01 X-16.1376 Y19.2223 
G01 X-16.0380 Y19.2888 
G01 X-15.9273 Y19.3346 
G01 X-15.8099 Y19.3580 
G01 X-15.6901 Y19.3580 
G01 X-15.5727 Y19.3346 
G01 X-15.4620 Y19.2888 
G01 X-15.3624 Y19.2223 
G01 X-15.2777 Y19.1376 
G01 X-15.2112 Y19.0380 
G01 X-15.1955 Y19.0000 
G01 X-13.3000 Y19.0000 
G01 X-13.3000 Y19.5999 
G01 X-13.2848 Y19.6366 
G01 X-13.2566 Y19.6648 
G01 X-13.2199 Y19.6800 
G01 X-12.1801 Y19.6800 
G01 X-12.1434 Y19.6648 
G01 X-12.1152 Y19.6366 
G01 X-12.1000 Y19.5999 
G01 X-12.1000 Y18.1601 
G01 X-12.1152 Y18.1234 
G01 X-12.1434 Y18.0952 
G01 X-12.1801 Y18.0800 
G01 X-13.2199 Y18.0800 
G01 X-13.2566 Y18.0952 
G01 X-13.2848 Y18.1234 
G01 X-13.3000 Y18.1601 
G01 X-13.3000 Y18.5000 
G01 X-15.1955 Y18.5000 
G01 X-15.2112 Y18.4620 
G01 X-15.2777 Y18.3624 
G01 X-15.3624 Y18.2777 
G01 X-15.4620 Y18.2112 
G01 X-15.5727 Y18.1654 
G01 X-15.6901 Y18.1420 
G01 X-15.8099 Y18.1420 
G01 X-15.9273 Y18.1654 
G01 X-16.0380 Y18.2112 
G01 X-16.1376 Y18.2777 
G01 X-16.2223 Y18.3624 
G01 X-16.2888 Y18.4620 
G01 X-16.3045 Y18.5000 
G01 X-49.6464 Y18.5000 
G01 X-52.2104 Y15.9361 
G01 X-52.1117 Y15.8701 
G01 X-51.9987 Y15.7571 
G01 X-51.9099 Y15.6242 
G01 X-51.8488 Y15.4766 
G01 X-51.8176 Y15.3199 
G01 X-51.8176 Y15.1601 
G01 X-51.8488 Y15.0034 
G01 X-51.9099 Y14.8558 
G01 X-51.9987 Y14.7229 
G01 X-52.1117 Y14.6099 
G01 X-52.2446 Y14.5211 
G01 X-52.3922 Y14.4600 
G01 X-52.5489 Y14.4288 
G00 Z2.0000 
G00 X-42.2672 Y26.3027 
G01 Z-0.0250 F254.00 
G01 X-42.2672 Y26.0000 F508.00 
G01 X-38.3535 Y26.0000 
G01 X-35.0689 Y29.2847 
G01 X-35.0846 Y29.3227 
G01 X-35.1080 Y29.4401 
G01 X-35.1080 Y29.5599 
G01 X-35.0846 Y29.6773 
G01 X-35.0388 Y29.7880 
G01 X-34.9723 Y29.8876 
G01 X-34.8876 Y29.9723 
G01 X-34.7880 Y30.0388 
G01 X-34.6773 Y30.0846 
G01 X-34.5599 Y30.1080 
G01 X-34.4401 Y30.1080 
G01 X-34.3227 Y30.0846 
G01 X-34.2120 Y30.0388 
G01 X-34.1124 Y29.9723 
G01 X-34.0277 Y29.8876 
G01 X-33.9612 Y29.7880 
G01 X-33.9154 Y29.6773 
G01 X-33.8920 Y29.5599 
G01 X-33.8920 Y29.4401 
G01 X-33.9154 Y29.3227 
G01 X-33.9612 Y29.2120 
G01 X-34.0277 Y29.1124 
G01 X-34.1124 Y29.0277 
G01 X-34.2120 Y28.9612 
G01 X-34.3227 Y28.9154 
G01 X-34.4401 Y28.8920 
G01 X-34.5599 Y28.8920 
G01 X-34.6773 Y28.9154 
G01 X-34.7153 Y28.9311 
G01 X-38.0381 Y25.6084 
G01 X-38.1084 Y25.5381 
G01 X-38.2003 Y25.5000 
G01 X-42.2672 Y25.5000 
G01 X-42.2672 Y24.4973 
G01 X-42.3023 Y24.3209 
G01 X-42.3711 Y24.1548 
G01 X-42.4710 Y24.0053 
G01 X-42.5981 Y23.8782 
G01 X-42.7476 Y23.7783 
G01 X-42.9137 Y23.7095 
G01 X-43.0901 Y23.6744 
G01 X-43.2699 Y23.6744 
G01 X-43.4463 Y23.7095 
G01 X-43.6124 Y23.7783 
G01 X-43.7619 Y23.8782 
G01 X-43.8890 Y24.0053 
G01 X-43.9889 Y24.1548 
G01 X-44.0577 Y24.3209 
G01 X-44.0928 Y24.4973 
G01 X-44.0928 Y26.3027 
G01 X-44.0577 Y26.4791 
G01 X-43.9889 Y26.6452 
G01 X-43.8890 Y26.7947 
G01 X-43.7619 Y26.9218 
G01 X-43.6124 Y27.0217 
G01 X-43.4463 Y27.0905 
G01 X-43.2699 Y27.1256 
G01 X-43.0901 Y27.1256 
G01 X-42.9137 Y27.0905 
G01 X-42.7476 Y27.0217 
G01 X-42.5981 Y26.9218 
G01 X-42.4710 Y26.7947 
G01 X-42.3711 Y26.6452 
G01 X-42.3023 Y26.4791 
G01 X-42.2672 Y26.3027 
G00 Z2.0000 
G00 X-54.2528 Y4.9901 
G01 Z-0.0250 F254.00 
G01 X-54.2528 Y5.1699 F508.00 
G01 X-54.2177 Y5.3463 
G01 X-54.1489 Y5.5124 
G01 X-54.0490 Y5.6619 
G01 X-53.9219 Y5.7890 
G01 X-53.7724 Y5.8889 
G01 X-53.6063 Y5.9577 
G01 X-53.4299 Y5.9928 
G01 X-53.2501 Y5.9928 
G01 X-53.0737 Y5.9577 
G01 X-52.9076 Y5.8889 
G01 X-52.7581 Y5.7890 
G01 X-52.6310 Y5.6619 
G01 X-52.5311 Y5.5124 
G01 X-52.4623 Y5.3463 
G01 X-52.4272 Y5.1699 
G01 X-52.4272 Y4.9901 
G01 X-52.4623 Y4.8137 
G01 X-52.5311 Y4.6476 
G01 X-52.6310 Y4.4981 
G01 X-52.7581 Y4.3710 
G01 X-52.9076 Y4.2711 
G01 X-53.0737 Y4.2023 
G01 X-53.2501 Y4.1672 
G01 X-53.4299 Y4.1672 
G01 X-53.6063 Y4.2023 
G01 X-53.7724 Y4.2711 
G01 X-53.9219 Y4.3710 
G01 X-54.0490 Y4.4981 
G01 X-54.1489 Y4.6476 
G01 X-54.2177 Y4.8137 
G01 X-54.2528 Y4.9901 
G00 Z2.0000 
G00 X-31.3928 Y4.9901 
G01 Z-0.0250 F254.00 
G01 X-31.3928 Y5.1699 F508.00 
G01 X-31.3577 Y5.3463 
G01 X-31.2889 Y5.5124 
G01 X-31.1890 Y5.6619 
G01 X-31.0619 Y5.7890 
G01 X-30.9124 Y5.8889 
G01 X-30.7463 Y5.9577 
G01 X-30.5699 Y5.9928 
G01 X-30.3901 Y5.9928 
G01 X-30.2137 Y5.9577 
G01 X-30.0476 Y5.8889 
G01 X-29.9979 Y5.8557 
G01 X-29.1416 Y6.7119 
G01 X-29.0497 Y6.7500 
G01 X-28.8535 Y6.7500 
G01 X-31.6036 Y9.5000 
G01 X-50.5497 Y9.5000 
G01 X-50.6416 Y9.5381 
G01 X-50.7119 Y9.6084 
G01 X-52.9924 Y11.8888 
G01 X-54.1311 Y11.8888 
G01 X-54.2878 Y11.9200 
G01 X-54.4354 Y11.9811 
G01 X-54.5683 Y12.0699 
G01 X-54.6813 Y12.1829 
G01 X-54.7701 Y12.3158 
G01 X-54.8312 Y12.4634 
G01 X-54.8624 Y12.6201 
G01 X-54.8624 Y12.7799 
G01 X-54.8312 Y12.9366 
G01 X-54.7701 Y13.0842 
G01 X-54.6813 Y13.2171 
G01 X-54.5683 Y13.3301 
G01 X-54.4876 Y13.3840 
G01 X-55.3916 Y14.2881 
G01 X-55.4619 Y14.3584 
G01 X-55.5000 Y14.4503 
G01 X-55.5000 Y25.2997 
G01 X-55.4619 Y25.3916 
G01 X-55.3916 Y25.4619 
G01 X-55.2997 Y25.5000 
G01 X-49.1728 Y25.5000 
G01 X-49.1728 Y26.3027 
G01 X-49.1377 Y26.4791 
G01 X-49.0689 Y26.6452 
G01 X-48.9690 Y26.7947 
G01 X-48.8419 Y26.9218 
G01 X-48.6924 Y27.0217 
G01 X-48.5263 Y27.0905 
G01 X-48.3499 Y27.1256 
G01 X-48.1701 Y27.1256 
G01 X-47.9937 Y27.0905 
G01 X-47.8276 Y27.0217 
G01 X-47.6781 Y26.9218 
G01 X-47.5510 Y26.7947 
G01 X-47.4511 Y26.6452 
G01 X-47.3823 Y26.4791 
G01 X-47.3472 Y26.3027 
G01 X-47.3472 Y24.4973 
G01 X-47.3823 Y24.3209 
G01 X-47.4511 Y24.1548 
G01 X-47.5510 Y24.0053 
G01 X-47.6781 Y23.8782 
G01 X-47.8276 Y23.7783 
G01 X-47.9937 Y23.7095 
G01 X-48.1701 Y23.6744 
G01 X-48.3499 Y23.6744 
G01 X-48.5263 Y23.7095 
G01 X-48.6924 Y23.7783 
G01 X-48.8419 Y23.8782 
G01 X-48.9690 Y24.0053 
G01 X-49.0689 Y24.1548 
G01 X-49.1377 Y24.3209 
G01 X-49.1728 Y24.4973 
G01 X-49.1728 Y25.0000 
G01 X-55.0000 Y25.0000 
G01 X-55.0000 Y14.6036 
G01 X-53.9076 Y13.5112 
G01 X-52.5489 Y13.5112 
G01 X-52.3922 Y13.4800 
G01 X-52.2446 Y13.4189 
G01 X-52.1117 Y13.3301 
G01 X-51.9987 Y13.2171 
G01 X-51.9099 Y13.0842 
G01 X-51.8488 Y12.9366 
G01 X-51.8176 Y12.7799 
G01 X-51.8176 Y12.6201 
G01 X-51.8488 Y12.4634 
G01 X-51.9099 Y12.3158 
G01 X-51.9987 Y12.1829 
G01 X-52.1117 Y12.0699 
G01 X-52.2446 Y11.9811 
G01 X-52.3386 Y11.9422 
G01 X-50.3964 Y10.0000 
G01 X-31.4503 Y10.0000 
G01 X-31.3584 Y9.9619 
G01 X-28.1464 Y6.7500 
G01 X-17.1400 Y6.7500 
G01 X-17.1400 Y7.1899 
G01 X-17.1248 Y7.2266 
G01 X-17.0966 Y7.2548 
G01 X-17.0599 Y7.2700 
G01 X-15.6201 Y7.2700 
G01 X-15.5834 Y7.2548 
G01 X-15.5552 Y7.2266 
G01 X-15.5400 Y7.1899 
G01 X-15.5400 Y6.7500 
G01 X-12.0000 Y6.7500 
G01 X-12.0000 Y15.8800 
G01 X-12.2699 Y15.8800 
G01 X-12.3066 Y15.8952 
G01 X-12.3348 Y15.9234 
G01 X-12.3500 Y15.9601 
G01 X-12.3500 Y17.3999 
G01 X-12.3348 Y17.4366 
G01 X-12.3066 Y17.4648 
G01 X-12.2699 Y17.4800 
G01 X-11.2301 Y17.4800 
G01 X-11.1934 Y17.4648 
G01 X-11.1652 Y17.4366 
G01 X-11.1500 Y17.3999 
G01 X-11.1500 Y17.0000 
G01 X-6.4394 Y17.0000 
G01 X-6.4213 Y17.0271 
G01 X-6.3083 Y17.1401 
G01 X-6.1754 Y17.2289 
G01 X-6.0278 Y17.2900 
G01 X-5.8711 Y17.3212 
G01 X-4.2889 Y17.3212 
G01 X-4.1322 Y17.2900 
G01 X-3.9846 Y17.2289 
G01 X-3.8517 Y17.1401 
G01 X-3.7387 Y17.0271 
G01 X-3.6499 Y16.8942 
G01 X-3.5888 Y16.7466 
G01 X-3.5576 Y16.5899 
G01 X-3.5576 Y16.4301 
G01 X-3.5888 Y16.2734 
G01 X-3.6499 Y16.1258 
G01 X-3.7387 Y15.9929 
G01 X-3.8517 Y15.8799 
G01 X-3.9846 Y15.7911 
G01 X-4.1322 Y15.7300 
G01 X-4.2889 Y15.6988 
G01 X-5.8711 Y15.6988 
G01 X-6.0278 Y15.7300 
G01 X-6.1754 Y15.7911 
G01 X-6.3083 Y15.8799 
G01 X-6.4213 Y15.9929 
G01 X-6.5101 Y16.1258 
G01 X-6.5712 Y16.2734 
G01 X-6.6024 Y16.4301 
G01 X-6.6024 Y16.5000 
G01 X-11.1500 Y16.5000 
G01 X-11.1500 Y15.9601 
G01 X-11.1652 Y15.9234 
G01 X-11.1934 Y15.8952 
G01 X-11.2301 Y15.8800 
G01 X-11.5000 Y15.8800 
G01 X-11.5000 Y6.4503 
G01 X-11.5381 Y6.3584 
G01 X-11.6084 Y6.2881 
G01 X-11.7003 Y6.2500 
G01 X-15.5400 Y6.2500 
G01 X-15.5400 Y6.1501 
G01 X-15.5552 Y6.1134 
G01 X-15.5834 Y6.0852 
G01 X-15.6201 Y6.0700 
G01 X-17.0599 Y6.0700 
G01 X-17.0966 Y6.0852 
G01 X-17.1248 Y6.1134 
G01 X-17.1400 Y6.1501 
G01 X-17.1400 Y6.2500 
G01 X-28.8964 Y6.2500 
G01 X-29.6602 Y5.4862 
G01 X-29.6023 Y5.3463 
G01 X-29.5672 Y5.1699 
G01 X-29.5672 Y4.9901 
G01 X-29.6023 Y4.8137 
G01 X-29.6711 Y4.6476 
G01 X-29.7710 Y4.4981 
G01 X-29.8981 Y4.3710 
G01 X-30.0476 Y4.2711 
G01 X-30.2137 Y4.2023 
G01 X-30.3901 Y4.1672 
G01 X-30.5699 Y4.1672 
G01 X-30.7463 Y4.2023 
G01 X-30.9124 Y4.2711 
G01 X-31.0619 Y4.3710 
G01 X-31.1890 Y4.4981 
G01 X-31.2889 Y4.6476 
G01 X-31.3577 Y4.8137 
G01 X-31.3928 Y4.9901 
G00 Z2.0000 
G00 X-26.3128 Y4.9901 
G01 Z-0.0250 F254.00 
G01 X-26.3128 Y5.1699 F508.00 
G01 X-26.2777 Y5.3463 
G01 X-26.2089 Y5.5124 
G01 X-26.1090 Y5.6619 
G01 X-25.9819 Y5.7890 
G01 X-25.8324 Y5.8889 
G01 X-25.6663 Y5.9577 
G01 X-25.4899 Y5.9928 
G01 X-25.3101 Y5.9928 
G01 X-25.1337 Y5.9577 
G01 X-24.9676 Y5.8889 
G01 X-24.8181 Y5.7890 
G01 X-24.6910 Y5.6619 
G01 X-24.5911 Y5.5124 
G01 X-24.5223 Y5.3463 
G01 X-24.4872 Y5.1699 
G01 X-24.4872 Y4.9901 
G01 X-24.5223 Y4.8137 
G01 X-24.5911 Y4.6476 
G01 X-24.6910 Y4.4981 
G01 X-24.8181 Y4.3710 
G01 X-24.9676 Y4.2711 
G01 X-25.1337 Y4.2023 
G01 X-25.3101 Y4.1672 
G01 X-25.4899 Y4.1672 
G01 X-25.6663 Y4.2023 
G01 X-25.8324 Y4.2711 
G01 X-25.9819 Y4.3710 
G01 X-26.1090 Y4.4981 
G01 X-26.2089 Y4.6476 
G01 X-26.2777 Y4.8137 
G01 X-26.3128 Y4.9901 
G00 Z2.0000 
G00 X-23.7728 Y4.9901 
G01 Z-0.0250 F254.00 
G01 X-23.7728 Y5.1699 F508.00 
G01 X-23.7377 Y5.3463 
G01 X-23.6689 Y5.5124 
G01 X-23.5690 Y5.6619 
G01 X-23.4419 Y5.7890 
G01 X-23.2924 Y5.8889 
G01 X-23.1263 Y5.9577 
G01 X-22.9499 Y5.9928 
G01 X-22.7701 Y5.9928 
G01 X-22.5937 Y5.9577 
G01 X-22.4276 Y5.8889 
G01 X-22.2781 Y5.7890 
G01 X-22.1510 Y5.6619 
G01 X-22.0511 Y5.5124 
G01 X-21.9823 Y5.3463 
G01 X-21.9472 Y5.1699 
G01 X-21.9472 Y4.9901 
G01 X-21.9823 Y4.8137 
G01 X-22.0511 Y4.6476 
G01 X-22.1510 Y4.4981 
G01 X-22.2781 Y4.3710 
G01 X-22.4276 Y4.2711 
G01 X-22.5937 Y4.2023 
G01 X-22.7701 Y4.1672 
G01 X-22.9499 Y4.1672 
G01 X-23.1263 Y4.2023 
G01 X-23.2924 Y4.2711 
G01 X-23.4419 Y4.3710 
G01 X-23.5690 Y4.4981 
G01 X-23.6689 Y4.6476 
G01 X-23.7377 Y4.8137 
G01 X-23.7728 Y4.9901 
G00 Z2.0000 
G00 X-44.0928 Y11.7973 
G01 Z-0.0250 F254.00 
G01 X-44.0928 Y13.6027 F508.00 
G01 X-44.0577 Y13.7791 
G01 X-43.9889 Y13.9452 
G01 X-43.8890 Y14.0947 
G01 X-43.7619 Y14.2218 
G01 X-43.6124 Y14.3217 
G01 X-43.4463 Y14.3905 
G01 X-43.2699 Y14.4256 
G01 X-43.0901 Y14.4256 
G01 X-42.9137 Y14.3905 
G01 X-42.7476 Y14.3217 
G01 X-42.5981 Y14.2218 
G01 X-42.4710 Y14.0947 
G01 X-42.3711 Y13.9452 
G01 X-42.3023 Y13.7791 
G01 X-42.2672 Y13.6027 
G01 X-42.2672 Y11.7973 
G01 X-42.3023 Y11.6209 
G01 X-42.3711 Y11.4548 
G01 X-42.4710 Y11.3053 
G01 X-42.5981 Y11.1782 
G01 X-42.7476 Y11.0783 
G01 X-42.9137 Y11.0095 
G01 X-43.0901 Y10.9744 
G01 X-43.2699 Y10.9744 
G01 X-43.4463 Y11.0095 
G01 X-43.6124 Y11.0783 
G01 X-43.7619 Y11.1782 
G01 X-43.8890 Y11.3053 
G01 X-43.9889 Y11.4548 
G01 X-44.0577 Y11.6209 
G01 X-44.0928 Y11.7973 
G00 Z2.0000 
G00 X-46.6328 Y11.7973 
G01 Z-0.0250 F254.00 
G01 X-46.6328 Y13.2792 F508.00 
G01 X-49.6036 Y16.2500 
G01 X-49.9455 Y16.2500 
G01 X-49.9612 Y16.2120 
G01 X-50.0277 Y16.1124 
G01 X-50.1124 Y16.0277 
G01 X-50.2120 Y15.9612 
G01 X-50.3227 Y15.9154 
G01 X-50.4401 Y15.8920 
G01 X-50.5599 Y15.8920 
G01 X-50.6773 Y15.9154 
G01 X-50.7880 Y15.9612 
G01 X-50.8876 Y16.0277 
G01 X-50.9723 Y16.1124 
G01 X-51.0388 Y16.2120 
G01 X-51.0846 Y16.3226 
G01 X-51.1080 Y16.4401 
G01 X-51.1080 Y16.5599 
G01 X-51.0846 Y16.6773 
G01 X-51.0388 Y16.7880 
G01 X-50.9723 Y16.8876 
G01 X-50.8876 Y16.9723 
G01 X-50.7880 Y17.0388 
G01 X-50.6773 Y17.0846 
G01 X-50.5599 Y17.1080 
G01 X-50.4401 Y17.1080 
G01 X-50.3227 Y17.0846 
G01 X-50.2120 Y17.0388 
G01 X-50.1124 Y16.9723 
G01 X-50.0277 Y16.8876 
G01 X-49.9612 Y16.7880 
G01 X-49.9455 Y16.7500 
G01 X-49.4503 Y16.7500 
G01 X-49.3584 Y16.7119 
G01 X-49.2881 Y16.6416 
G01 X-46.5473 Y13.9008 
G01 X-46.5289 Y13.9452 
G01 X-46.4290 Y14.0947 
G01 X-46.3019 Y14.2218 
G01 X-46.1524 Y14.3217 
G01 X-45.9863 Y14.3905 
G01 X-45.8099 Y14.4256 
G01 X-45.6301 Y14.4256 
G01 X-45.4537 Y14.3905 
G01 X-45.2876 Y14.3217 
G01 X-45.1381 Y14.2218 
G01 X-45.0110 Y14.0947 
G01 X-44.9111 Y13.9452 
G01 X-44.8423 Y13.7791 
G01 X-44.8072 Y13.6027 
G01 X-44.8072 Y11.7973 
G01 X-44.8423 Y11.6209 
G01 X-44.9111 Y11.4548 
G01 X-45.0110 Y11.3053 
G01 X-45.1381 Y11.1782 
G01 X-45.2876 Y11.0783 
G01 X-45.4537 Y11.0095 
G01 X-45.6301 Y10.9744 
G01 X-45.8099 Y10.9744 
G01 X-45.9863 Y11.0095 
G01 X-46.1524 Y11.0783 
G01 X-46.3019 Y11.1782 
G01 X-46.4290 Y11.3053 
G01 X-46.5289 Y11.4548 
G01 X-46.5977 Y11.6209 
G01 X-46.6328 Y11.7973 
G00 Z2.0000 
G00 X-49.1728 Y11.7973 
G01 Z-0.0250 F254.00 
G01 X-49.1728 Y13.6027 F508.00 
G01 X-49.1377 Y13.7791 
G01 X-49.0689 Y13.9452 
G01 X-48.9690 Y14.0947 
G01 X-48.8419 Y14.2218 
G01 X-48.6924 Y14.3217 
G01 X-48.5263 Y14.3905 
G01 X-48.3499 Y14.4256 
G01 X-48.1701 Y14.4256 
G01 X-47.9937 Y14.3905 
G01 X-47.8276 Y14.3217 
G01 X-47.6781 Y14.2218 
G01 X-47.5510 Y14.0947 
G01 X-47.4511 Y13.9452 
G01 X-47.3823 Y13.7791 
G01 X-47.3472 Y13.6027 
G01 X-47.3472 Y11.9508 
G01 X-46.1464 Y10.7500 
G01 X-42.8536 Y10.7500 
G01 X-41.6416 Y11.9619 
G01 X-41.5497 Y12.0000 
G01 X-28.5545 Y12.0000 
G01 X-28.5388 Y12.0380 
G01 X-28.4723 Y12.1376 
G01 X-28.3876 Y12.2223 
G01 X-28.2880 Y12.2888 
G01 X-28.1773 Y12.3346 
G01 X-28.0599 Y12.3580 
G01 X-27.9401 Y12.3580 
G01 X-27.8227 Y12.3346 
G01 X-27.7120 Y12.2888 
G01 X-27.6124 Y12.2223 
G01 X-27.5277 Y12.1376 
G01 X-27.4612 Y12.0380 
G01 X-27.4455 Y12.0000 
G01 X-14.2003 Y12.0000 
G01 X-14.1084 Y11.9619 
G01 X-14.0381 Y11.8916 
G01 X-14.0000 Y11.7997 
G01 X-14.0000 Y8.2200 
G01 X-13.4201 Y8.2200 
G01 X-13.3834 Y8.2048 
G01 X-13.3552 Y8.1766 
G01 X-13.3400 Y8.1399 
G01 X-13.3400 Y7.1001 
G01 X-13.3552 Y7.0634 
G01 X-13.3834 Y7.0352 
G01 X-13.4201 Y7.0200 
G01 X-14.8599 Y7.0200 
G01 X-14.8966 Y7.0352 
G01 X-14.9248 Y7.0634 
G01 X-14.9400 Y7.1001 
G01 X-14.9400 Y8.1399 
G01 X-14.9248 Y8.1766 
G01 X-14.8966 Y8.2048 
G01 X-14.8599 Y8.2200 
G01 X-14.5000 Y8.2200 
G01 X-14.5000 Y11.5000 
G01 X-27.4455 Y11.5000 
G01 X-27.4612 Y11.4620 
G01 X-27.5277 Y11.3624 
G01 X-27.6124 Y11.2777 
G01 X-27.7120 Y11.2112 
G01 X-27.8227 Y11.1654 
G01 X-27.9401 Y11.1420 
G01 X-28.0599 Y11.1420 
G01 X-28.1773 Y11.1654 
G01 X-28.2880 Y11.2112 
G01 X-28.3876 Y11.2777 
G01 X-28.4723 Y11.3624 
G01 X-28.5388 Y11.4620 
G01 X-28.5545 Y11.5000 
G01 X-41.3964 Y11.5000 
G01 X-42.5381 Y10.3584 
G01 X-42.6084 Y10.2881 
G01 X-42.7003 Y10.2500 
G01 X-46.2997 Y10.2500 
G01 X-46.3916 Y10.2881 
G01 X-47.4941 Y11.3905 
G01 X-47.5510 Y11.3053 
G01 X-47.6781 Y11.1782 
G01 X-47.8276 Y11.0783 
G01 X-47.9937 Y11.0095 
G01 X-48.1701 Y10.9744 
G01 X-48.3499 Y10.9744 
G01 X-48.5263 Y11.0095 
G01 X-48.6924 Y11.0783 
G01 X-48.8419 Y11.1782 
G01 X-48.9690 Y11.3053 
G01 X-49.0689 Y11.4548 
G01 X-49.1377 Y11.6209 
G01 X-49.1728 Y11.7973 
G00 Z2.0000 
G00 X-4.2889 Y20.7788 
G01 Z-0.0250 F254.00 
G01 X-5.8711 Y20.7788 F508.00 
G01 X-6.0278 Y20.8100 
G01 X-6.1754 Y20.8711 
G01 X-6.3083 Y20.9599 
G01 X-6.4213 Y21.0729 
G01 X-6.5101 Y21.2058 
G01 X-6.5712 Y21.3534 
G01 X-6.6024 Y21.5101 
G01 X-6.6024 Y21.6699 
G01 X-6.5712 Y21.8266 
G01 X-6.5101 Y21.9742 
G01 X-6.4213 Y22.1071 
G01 X-6.3083 Y22.2201 
G01 X-6.1754 Y22.3089 
G01 X-6.0278 Y22.3700 
G01 X-5.8711 Y22.4012 
G01 X-4.2889 Y22.4012 
G01 X-4.1322 Y22.3700 
G01 X-3.9846 Y22.3089 
G01 X-3.8517 Y22.2201 
G01 X-3.7387 Y22.1071 
G01 X-3.6499 Y21.9742 
G01 X-3.5888 Y21.8266 
G01 X-3.5576 Y21.6699 
G01 X-3.5576 Y21.5101 
G01 X-3.5888 Y21.3534 
G01 X-3.6499 Y21.2058 
G01 X-3.7387 Y21.0729 
G01 X-3.8517 Y20.9599 
G01 X-3.9846 Y20.8711 
G01 X-4.1322 Y20.8100 
G01 X-4.2889 Y20.7788 
G00 Z2.0000 
G00 X-4.2889 Y18.2388 
G01 Z-0.0250 F254.00 
G01 X-5.8711 Y18.2388 F508.00 
G01 X-6.0278 Y18.2700 
G01 X-6.1754 Y18.3311 
G01 X-6.3083 Y18.4199 
G01 X-6.4213 Y18.5329 
G01 X-6.5101 Y18.6657 
G01 X-6.5712 Y18.8134 
G01 X-6.6024 Y18.9701 
G01 X-6.6024 Y19.1299 
G01 X-6.5712 Y19.2866 
G01 X-6.5101 Y19.4342 
G01 X-6.4213 Y19.5671 
G01 X-6.3083 Y19.6801 
G01 X-6.1754 Y19.7689 
G01 X-6.1380 Y19.7844 
G01 X-9.3536 Y23.0000 
G01 X-43.7997 Y23.0000 
G01 X-43.8916 Y23.0381 
G01 X-44.9501 Y24.0965 
G01 X-45.0110 Y24.0053 
G01 X-45.1381 Y23.8782 
G01 X-45.2876 Y23.7783 
G01 X-45.4537 Y23.7095 
G01 X-45.6301 Y23.6744 
G01 X-45.8099 Y23.6744 
G01 X-45.9863 Y23.7095 
G01 X-46.1524 Y23.7783 
G01 X-46.3019 Y23.8782 
G01 X-46.4290 Y24.0053 
G01 X-46.5289 Y24.1548 
G01 X-46.5977 Y24.3209 
G01 X-46.6328 Y24.4973 
G01 X-46.6328 Y26.3027 
G01 X-46.5977 Y26.4791 
G01 X-46.5289 Y26.6452 
G01 X-46.4290 Y26.7947 
G01 X-46.3019 Y26.9218 
G01 X-46.1524 Y27.0217 
G01 X-45.9863 Y27.0905 
G01 X-45.8099 Y27.1256 
G01 X-45.6301 Y27.1256 
G01 X-45.4537 Y27.0905 
G01 X-45.2876 Y27.0217 
G01 X-45.1381 Y26.9218 
G01 X-45.0110 Y26.7947 
G01 X-44.9111 Y26.6452 
G01 X-44.8423 Y26.4791 
G01 X-44.8072 Y26.3027 
G01 X-44.8072 Y24.6608 
G01 X-43.6464 Y23.5000 
G01 X-9.2003 Y23.5000 
G01 X-9.1084 Y23.4619 
G01 X-9.0381 Y23.3916 
G01 X-5.5076 Y19.8612 
G01 X-4.7424 Y19.8612 
G01 X-3.5000 Y21.1036 
G01 X-3.5000 Y30.2500 
G01 X-4.1951 Y30.2500 
G01 X-4.2023 Y30.2137 
G01 X-4.2711 Y30.0476 
G01 X-4.3710 Y29.8981 
G01 X-4.4981 Y29.7710 
G01 X-4.6476 Y29.6711 
G01 X-4.8137 Y29.6023 
G01 X-4.9901 Y29.5672 
G01 X-5.1699 Y29.5672 
G01 X-5.3463 Y29.6023 
G01 X-5.5124 Y29.6711 
G01 X-5.6619 Y29.7710 
G01 X-5.7890 Y29.8981 
G01 X-5.8889 Y30.0476 
G01 X-5.9577 Y30.2137 
G01 X-5.9928 Y30.3901 
G01 X-5.9928 Y30.5699 
G01 X-5.9577 Y30.7463 
G01 X-5.8889 Y30.9124 
G01 X-5.7890 Y31.0619 
G01 X-5.6619 Y31.1890 
G01 X-5.5124 Y31.2889 
G01 X-5.3463 Y31.3577 
G01 X-5.1699 Y31.3928 
G01 X-4.9901 Y31.3928 
G01 X-4.8137 Y31.3577 
G01 X-4.6476 Y31.2889 
G01 X-4.4981 Y31.1890 
G01 X-4.3710 Y31.0619 
G01 X-4.2711 Y30.9124 
G01 X-4.2038 Y30.7500 
G01 X-4.0000 Y30.7500 
G01 X-4.0000 Y33.3964 
G01 X-4.6036 Y34.0000 
G01 X-10.0497 Y34.0000 
G01 X-10.1416 Y34.0381 
G01 X-10.2119 Y34.1084 
G01 X-10.2500 Y34.2003 
G01 X-10.2500 Y35.0663 
G01 X-10.9546 Y35.0663 
G01 X-10.9913 Y35.0815 
G01 X-11.0195 Y35.1097 
G01 X-11.0347 Y35.1464 
G01 X-11.0347 Y37.1928 
G01 X-11.0195 Y37.2295 
G01 X-10.9913 Y37.2577 
G01 X-10.9546 Y37.2729 
G01 X-9.4162 Y37.2729 
G01 X-9.3795 Y37.2577 
G01 X-9.3513 Y37.2295 
G01 X-9.3361 Y37.1928 
G01 X-9.3361 Y35.1464 
G01 X-9.3513 Y35.1097 
G01 X-9.3795 Y35.0815 
G01 X-9.4162 Y35.0663 
G01 X-9.7500 Y35.0663 
G01 X-9.7500 Y34.5000 
G01 X-4.4503 Y34.5000 
G01 X-4.3584 Y34.4619 
G01 X-3.6084 Y33.7119 
G01 X-3.5381 Y33.6416 
G01 X-3.5000 Y33.5497 
G01 X-3.5000 Y30.7500 
G01 X-3.2003 Y30.7500 
G01 X-3.1084 Y30.7119 
G01 X-3.0381 Y30.6416 
G01 X-3.0000 Y30.5497 
G01 X-3.0000 Y20.9503 
G01 X-3.0381 Y20.8584 
G01 X-3.1084 Y20.7881 
G01 X-4.0857 Y19.8108 
G01 X-3.9846 Y19.7689 
G01 X-3.8517 Y19.6801 
G01 X-3.7387 Y19.5671 
G01 X-3.6499 Y19.4342 
G01 X-3.5888 Y19.2866 
G01 X-3.5576 Y19.1299 
G01 X-3.5576 Y18.9701 
G01 X-3.5888 Y18.8134 
G01 X-3.6499 Y18.6657 
G01 X-3.7387 Y18.5329 
G01 X-3.8517 Y18.4199 
G01 X-3.9846 Y18.3311 
G01 X-4.1322 Y18.2700 
G01 X-4.2889 Y18.2388 
G00 Z2.0000 
G00 X-4.2889 Y13.1588 
G01 Z-0.0250 F254.00 
G01 X-5.8711 Y13.1588 F508.00 
G01 X-6.0278 Y13.1900 
G01 X-6.1754 Y13.2511 
G01 X-6.3083 Y13.3399 
G01 X-6.4213 Y13.4529 
G01 X-6.5101 Y13.5858 
G01 X-6.5712 Y13.7334 
G01 X-6.6024 Y13.8901 
G01 X-6.6024 Y14.0499 
G01 X-6.5712 Y14.2066 
G01 X-6.5101 Y14.3542 
G01 X-6.4213 Y14.4871 
G01 X-6.3083 Y14.6001 
G01 X-6.1754 Y14.6889 
G01 X-6.0278 Y14.7500 
G01 X-5.8711 Y14.7812 
G01 X-4.2889 Y14.7812 
G01 X-4.1322 Y14.7500 
G01 X-3.9846 Y14.6889 
G01 X-3.8517 Y14.6001 
G01 X-3.7387 Y14.4871 
G01 X-3.6499 Y14.3542 
G01 X-3.5888 Y14.2066 
G01 X-3.5576 Y14.0499 
G01 X-3.5576 Y13.8901 
G01 X-3.5888 Y13.7334 
G01 X-3.6499 Y13.5858 
G01 X-3.7387 Y13.4529 
G01 X-3.8517 Y13.3399 
G01 X-3.9846 Y13.2511 
G01 X-4.1322 Y13.1900 
G01 X-4.2889 Y13.1588 
G00 Z2.0000 
G00 X-4.2889 Y10.6188 
G01 Z-0.0250 F254.00 
G01 X-5.8711 Y10.6188 F508.00 
G01 X-6.0278 Y10.6500 
G01 X-6.1754 Y10.7111 
G01 X-6.3083 Y10.7999 
G01 X-6.4213 Y10.9129 
G01 X-6.5101 Y11.0457 
G01 X-6.5712 Y11.1934 
G01 X-6.6024 Y11.3501 
G01 X-6.6024 Y11.5099 
G01 X-6.5712 Y11.6666 
G01 X-6.5101 Y11.8142 
G01 X-6.4213 Y11.9471 
G01 X-6.3083 Y12.0601 
G01 X-6.1754 Y12.1489 
G01 X-6.0278 Y12.2100 
G01 X-5.8711 Y12.2412 
G01 X-4.2889 Y12.2412 
G01 X-4.1322 Y12.2100 
G01 X-3.9846 Y12.1489 
G01 X-3.8517 Y12.0601 
G01 X-3.7387 Y11.9471 
G01 X-3.6499 Y11.8142 
G01 X-3.5888 Y11.6666 
G01 X-3.5576 Y11.5099 
G01 X-3.5576 Y11.3501 
G01 X-3.5888 Y11.1934 
G01 X-3.6499 Y11.0457 
G01 X-3.7387 Y10.9129 
G01 X-3.8517 Y10.7999 
G01 X-3.9846 Y10.7111 
G01 X-4.1322 Y10.6500 
G01 X-4.2889 Y10.6188 
G00 Z2.0000 
G00 X-4.2889 Y8.0788 
G01 Z-0.0250 F254.00 
G01 X-5.8711 Y8.0788 F508.00 
G01 X-6.0278 Y8.1100 
G01 X-6.1754 Y8.1711 
G01 X-6.3083 Y8.2599 
G01 X-6.4213 Y8.3729 
G01 X-6.5101 Y8.5058 
G01 X-6.5712 Y8.6534 
G01 X-6.6024 Y8.8101 
G01 X-6.6024 Y8.9699 
G01 X-6.5712 Y9.1266 
G01 X-6.5101 Y9.2742 
G01 X-6.4213 Y9.4071 
G01 X-6.3083 Y9.5201 
G01 X-6.1754 Y9.6089 
G01 X-6.0278 Y9.6700 
G01 X-5.8711 Y9.7012 
G01 X-4.2889 Y9.7012 
G01 X-4.1322 Y9.6700 
G01 X-3.9846 Y9.6089 
G01 X-3.8517 Y9.5201 
G01 X-3.7387 Y9.4071 
G01 X-3.6499 Y9.2742 
G01 X-3.5888 Y9.1266 
G01 X-3.5576 Y8.9699 
G01 X-3.5576 Y8.8101 
G01 X-3.5888 Y8.6534 
G01 X-3.6499 Y8.5058 
G01 X-3.7387 Y8.3729 
G01 X-3.8517 Y8.2599 
G01 X-3.9846 Y8.1711 
G01 X-4.1322 Y8.1100 
G01 X-4.2889 Y8.0788 
G00 Z2.0000 
G00 X-5.4800 Y53.9599 
G01 Z-0.0250 F254.00 
G01 X-5.4800 Y52.7201 F508.00 
G01 X-5.4952 Y52.6834 
G01 X-5.5234 Y52.6552 
G01 X-5.5601 Y52.6400 
G01 X-6.2564 Y52.6400 
G01 X-6.7881 Y52.1084 
G01 X-6.8584 Y52.0381 
G01 X-6.9503 Y52.0000 
G01 X-8.0280 Y52.0000 
G01 X-8.0280 Y51.7129 
G01 X-8.5329 Y51.2080 
G01 X-9.2470 Y51.2080 
G01 X-9.7520 Y51.7129 
G01 X-9.7520 Y52.4271 
G01 X-9.2470 Y52.9320 
G01 X-8.5329 Y52.9320 
G01 X-8.1009 Y52.5000 
G01 X-7.1036 Y52.5000 
G01 X-6.4800 Y53.1236 
G01 X-6.4800 Y53.9599 
G01 X-6.4648 Y53.9966 
G01 X-6.4366 Y54.0248 
G01 X-6.3999 Y54.0400 
G01 X-5.5601 Y54.0400 
G01 X-5.5234 Y54.0248 
G01 X-5.4952 Y53.9966 
G01 X-5.4800 Y53.9599 
G00 Z2.0000 
G00 X-20.7200 Y53.9599 
G01 Z-0.0250 F254.00 
G01 X-20.7200 Y52.7201 F508.00 
G01 X-20.7352 Y52.6834 
G01 X-20.7634 Y52.6552 
G01 X-20.8001 Y52.6400 
G01 X-21.5064 Y52.6400 
G01 X-23.2881 Y50.8584 
G01 X-23.3584 Y50.7881 
G01 X-23.4503 Y50.7500 
G01 X-32.6955 Y50.7500 
G01 X-32.7112 Y50.7120 
G01 X-32.7777 Y50.6124 
G01 X-32.8624 Y50.5277 
G01 X-32.9620 Y50.4612 
G01 X-33.0727 Y50.4154 
G01 X-33.1901 Y50.3920 
G01 X-33.3099 Y50.3920 
G01 X-33.4273 Y50.4154 
G01 X-33.5380 Y50.4612 
G01 X-33.6376 Y50.5277 
G01 X-33.7223 Y50.6124 
G01 X-33.7888 Y50.7120 
G01 X-33.8346 Y50.8227 
G01 X-33.8580 Y50.9401 
G01 X-33.8580 Y51.0599 
G01 X-33.8346 Y51.1773 
G01 X-33.7888 Y51.2880 
G01 X-33.7223 Y51.3876 
G01 X-33.6376 Y51.4723 
G01 X-33.5380 Y51.5388 
G01 X-33.4273 Y51.5846 
G01 X-33.3099 Y51.6080 
G01 X-33.1901 Y51.6080 
G01 X-33.0727 Y51.5846 
G01 X-32.9620 Y51.5388 
G01 X-32.8624 Y51.4723 
G01 X-32.7777 Y51.3876 
G01 X-32.7112 Y51.2880 
G01 X-32.6955 Y51.2500 
G01 X-23.6036 Y51.2500 
G01 X-21.7200 Y53.1335 
G01 X-21.7200 Y53.9599 
G01 X-21.7048 Y53.9966 
G01 X-21.6766 Y54.0248 
G01 X-21.6399 Y54.0400 
G01 X-20.8001 Y54.0400 
G01 X-20.7634 Y54.0248 
G01 X-20.7352 Y53.9966 
G01 X-20.7200 Y53.9599 
G00 Z2.0000 
G00 X-18.9200 Y47.6401 
G01 Z-0.0250 F254.00 
G01 X-18.9352 Y47.6034 F508.00 
G01 X-18.9634 Y47.5752 
G01 X-19.0001 Y47.5600 
G01 X-19.8399 Y47.5600 
G01 X-19.8766 Y47.5752 
G01 X-19.9048 Y47.6034 
G01 X-19.9200 Y47.6401 
G01 X-19.9200 Y48.8799 
G01 X-19.9048 Y48.9166 
G01 X-19.8766 Y48.9448 
G01 X-19.8399 Y48.9600 
G01 X-19.1436 Y48.9600 
G01 X-18.4619 Y49.6416 
G01 X-18.3916 Y49.7119 
G01 X-18.2997 Y49.7500 
G01 X-12.2920 Y49.7500 
G01 X-12.2920 Y49.8871 
G01 X-11.7871 Y50.3920 
G01 X-11.0729 Y50.3920 
G01 X-10.5680 Y49.8871 
G01 X-10.5680 Y49.1729 
G01 X-11.0729 Y48.6680 
G01 X-11.7871 Y48.6680 
G01 X-12.2920 Y49.1729 
G01 X-12.2920 Y49.2500 
G01 X-18.1464 Y49.2500 
G01 X-18.9200 Y48.4764 
G01 X-18.9200 Y47.6401 
G00 Z2.0000 
G00 X-20.7200 Y48.8799 
G01 Z-0.0250 F254.00 
G01 X-20.7200 Y47.6401 F508.00 
G01 X-20.7352 Y47.6034 
G01 X-20.7634 Y47.5752 
G01 X-20.8001 Y47.5600 
G01 X-21.6399 Y47.5600 
G01 X-21.6766 Y47.5752 
G01 X-21.7048 Y47.6034 
G01 X-21.7200 Y47.6401 
G01 X-21.7200 Y48.0000 
G01 X-38.3964 Y48.0000 
G01 X-41.5000 Y44.8964 
G01 X-41.5000 Y31.4503 
G01 X-41.5381 Y31.3584 
G01 X-41.6084 Y31.2881 
G01 X-41.7003 Y31.2500 
G01 X-51.3063 Y31.2500 
G01 X-51.3610 Y31.1681 
G01 X-51.4881 Y31.0410 
G01 X-51.6376 Y30.9411 
G01 X-51.8037 Y30.8723 
G01 X-51.9801 Y30.8372 
G01 X-52.1599 Y30.8372 
G01 X-52.3363 Y30.8723 
G01 X-52.5024 Y30.9411 
G01 X-52.6519 Y31.0410 
G01 X-52.7790 Y31.1681 
G01 X-52.8789 Y31.3176 
G01 X-52.9477 Y31.4837 
G01 X-52.9828 Y31.6601 
G01 X-52.9828 Y31.8399 
G01 X-52.9477 Y32.0163 
G01 X-52.8789 Y32.1824 
G01 X-52.7790 Y32.3319 
G01 X-52.6519 Y32.4590 
G01 X-52.5024 Y32.5589 
G01 X-52.3363 Y32.6277 
G01 X-52.1599 Y32.6628 
G01 X-51.9801 Y32.6628 
G01 X-51.8037 Y32.6277 
G01 X-51.6376 Y32.5589 
G01 X-51.4881 Y32.4590 
G01 X-51.3610 Y32.3319 
G01 X-51.2611 Y32.1824 
G01 X-51.1923 Y32.0163 
G01 X-51.1572 Y31.8399 
G01 X-51.1572 Y31.7500 
G01 X-42.0000 Y31.7500 
G01 X-42.0000 Y45.0497 
G01 X-41.9619 Y45.1416 
G01 X-41.8916 Y45.2119 
G01 X-38.6416 Y48.4619 
G01 X-38.5497 Y48.5000 
G01 X-21.7200 Y48.5000 
G01 X-21.7200 Y48.8799 
G01 X-21.7048 Y48.9166 
G01 X-21.6766 Y48.9448 
G01 X-21.6399 Y48.9600 
G01 X-20.8001 Y48.9600 
G01 X-20.7634 Y48.9448 
G01 X-20.7352 Y48.9166 
G01 X-20.7200 Y48.8799 
G00 Z2.0000 
G00 X-9.7520 Y44.0929 
G01 Z-0.0250 F254.00 
G01 X-9.7520 Y44.8071 F508.00 
G01 X-9.2470 Y45.3120 
G01 X-8.5329 Y45.3120 
G01 X-8.0280 Y44.8071 
G01 X-8.0280 Y44.0929 
G01 X-8.5329 Y43.5880 
G01 X-9.2470 Y43.5880 
G01 X-9.7520 Y44.0929 
G00 Z2.0000 
G00 X-12.2920 Y44.0929 
G01 Z-0.0250 F254.00 
G01 X-12.2920 Y44.8071 F508.00 
G01 X-11.7871 Y45.3120 
G01 X-11.0729 Y45.3120 
G01 X-10.5680 Y44.8071 
G01 X-10.5680 Y44.0929 
G01 X-11.0729 Y43.5880 
G01 X-11.7871 Y43.5880 
G01 X-12.2920 Y44.0929 
G00 Z2.0000 
G00 X-9.7520 Y46.6329 
G01 Z-0.0250 F254.00 
G01 X-9.7520 Y47.3471 F508.00 
G01 X-9.2470 Y47.8520 
G01 X-8.5329 Y47.8520 
G01 X-8.0280 Y47.3471 
G01 X-8.0280 Y47.0000 
G01 X-4.5000 Y47.0000 
G01 X-4.5000 Y47.5600 
G01 X-4.5999 Y47.5600 
G01 X-4.6366 Y47.5752 
G01 X-4.6648 Y47.6034 
G01 X-4.6800 Y47.6401 
G01 X-4.6800 Y48.8799 
G01 X-4.6648 Y48.9166 
G01 X-4.6366 Y48.9448 
G01 X-4.5999 Y48.9600 
G01 X-3.7601 Y48.9600 
G01 X-3.7234 Y48.9448 
G01 X-3.6952 Y48.9166 
G01 X-3.6800 Y48.8799 
G01 X-3.6800 Y47.6401 
G01 X-3.6952 Y47.6034 
G01 X-3.7234 Y47.5752 
G01 X-3.7601 Y47.5600 
G01 X-4.0000 Y47.5600 
G01 X-4.0000 Y43.8800 
G01 X-3.7601 Y43.8800 
G01 X-3.7234 Y43.8648 
G01 X-3.6952 Y43.8366 
G01 X-3.6800 Y43.7999 
G01 X-3.6800 Y42.5601 
G01 X-3.6952 Y42.5234 
G01 X-3.7234 Y42.4952 
G01 X-3.7601 Y42.4800 
G01 X-4.5999 Y42.4800 
G01 X-4.6366 Y42.4952 
G01 X-4.6648 Y42.5234 
G01 X-4.6800 Y42.5601 
G01 X-4.6800 Y43.7999 
G01 X-4.6648 Y43.8366 
G01 X-4.6366 Y43.8648 
G01 X-4.5999 Y43.8800 
G01 X-4.5000 Y43.8800 
G01 X-4.5000 Y46.5000 
G01 X-8.1609 Y46.5000 
G01 X-8.5329 Y46.1280 
G01 X-9.2470 Y46.1280 
G01 X-9.7520 Y46.6329 
G00 Z2.0000 
G00 X-12.2920 Y46.6329 
G01 Z-0.0250 F254.00 
G01 X-12.2920 Y47.3471 F508.00 
G01 X-11.7871 Y47.8520 
G01 X-11.0729 Y47.8520 
G01 X-10.5680 Y47.3471 
G01 X-10.5680 Y46.6329 
G01 X-11.0729 Y46.1280 
G01 X-11.7871 Y46.1280 
G01 X-12.2920 Y46.6329 
G00 Z2.0000 
G00 X-9.7520 Y49.1729 
G01 Z-0.0250 F254.00 
G01 X-9.7520 Y49.8871 F508.00 
G01 X-9.2470 Y50.3920 
G01 X-8.5329 Y50.3920 
G01 X-8.1409 Y50.0000 
G01 X-5.2500 Y50.0000 
G01 X-5.2500 Y53.8964 
G01 X-5.6036 Y54.2500 
G01 X-5.7997 Y54.2500 
G01 X-5.8916 Y54.2881 
G01 X-5.9619 Y54.3584 
G01 X-6.0000 Y54.4503 
G01 X-6.0000 Y57.7200 
G01 X-6.3999 Y57.7200 
G01 X-6.4366 Y57.7352 
G01 X-6.4648 Y57.7634 
G01 X-6.4800 Y57.8001 
G01 X-6.4800 Y59.0399 
G01 X-6.4648 Y59.0766 
G01 X-6.4366 Y59.1048 
G01 X-6.3999 Y59.1200 
G01 X-5.5601 Y59.1200 
G01 X-5.5234 Y59.1048 
G01 X-5.4952 Y59.0766 
G01 X-5.4800 Y59.0399 
G01 X-5.4800 Y57.8001 
G01 X-5.4952 Y57.7634 
G01 X-5.5000 Y57.7586 
G01 X-5.5000 Y54.7500 
G01 X-5.4503 Y54.7500 
G01 X-5.3584 Y54.7119 
G01 X-4.8584 Y54.2119 
G01 X-4.7881 Y54.1416 
G01 X-4.7500 Y54.0497 
G01 X-4.7500 Y49.7003 
G01 X-4.7881 Y49.6084 
G01 X-4.8584 Y49.5381 
G01 X-4.9503 Y49.5000 
G01 X-8.0280 Y49.5000 
G01 X-8.0280 Y49.1729 
G01 X-8.5329 Y48.6680 
G01 X-9.2470 Y48.6680 
G01 X-9.7520 Y49.1729 
G00 Z2.0000 
G00 X-12.2920 Y51.7129 
G01 Z-0.0250 F254.00 
G01 X-12.2920 Y52.0000 F508.00 
G01 X-18.2997 Y52.0000 
G01 X-18.3916 Y52.0381 
G01 X-18.4619 Y52.1084 
G01 X-18.9955 Y52.6419 
G01 X-19.0001 Y52.6400 
G01 X-19.8399 Y52.6400 
G01 X-19.8766 Y52.6552 
G01 X-19.9048 Y52.6834 
G01 X-19.9200 Y52.7201 
G01 X-19.9200 Y53.9599 
G01 X-19.9048 Y53.9966 
G01 X-19.8766 Y54.0248 
G01 X-19.8399 Y54.0400 
G01 X-19.0001 Y54.0400 
G01 X-18.9634 Y54.0248 
G01 X-18.9352 Y53.9966 
G01 X-18.9200 Y53.9599 
G01 X-18.9200 Y53.2736 
G01 X-18.1464 Y52.5000 
G01 X-12.2191 Y52.5000 
G01 X-11.7871 Y52.9320 
G01 X-11.0729 Y52.9320 
G01 X-10.5680 Y52.4271 
G01 X-10.5680 Y51.7129 
G01 X-11.0729 Y51.2080 
G01 X-11.7871 Y51.2080 
G01 X-12.2920 Y51.7129 
G00 Z2.0000 
G00 X-9.7520 Y56.7929 
G01 Z-0.0250 F254.00 
G01 X-9.7520 Y57.5070 F508.00 
G01 X-9.2470 Y58.0120 
G01 X-8.5329 Y58.0120 
G01 X-8.0280 Y57.5070 
G01 X-8.0280 Y56.7929 
G01 X-8.5329 Y56.2880 
G01 X-9.2470 Y56.2880 
G01 X-9.7520 Y56.7929 
G00 Z2.0000 
G00 X-12.2920 Y56.7929 
G01 Z-0.0250 F254.00 
G01 X-12.2920 Y57.5070 F508.00 
G01 X-11.7871 Y58.0120 
G01 X-11.0729 Y58.0120 
G01 X-10.5680 Y57.5070 
G01 X-10.5680 Y56.7929 
G01 X-11.0729 Y56.2880 
G01 X-11.7871 Y56.2880 
G01 X-12.2920 Y56.7929 
G00 Z2.0000 
G00 X-9.7520 Y59.3329 
G01 Z-0.0250 F254.00 
G01 X-9.7520 Y60.0471 F508.00 
G01 X-9.2470 Y60.5520 
G01 X-8.5329 Y60.5520 
G01 X-8.0280 Y60.0471 
G01 X-8.0280 Y59.7500 
G01 X-5.2003 Y59.7500 
G01 X-5.1084 Y59.7119 
G01 X-5.0381 Y59.6416 
G01 X-4.5164 Y59.1200 
G01 X-3.7601 Y59.1200 
G01 X-3.7234 Y59.1048 
G01 X-3.6952 Y59.0766 
G01 X-3.6800 Y59.0399 
G01 X-3.6800 Y57.8001 
G01 X-3.6952 Y57.7634 
G01 X-3.7234 Y57.7352 
G01 X-3.7601 Y57.7200 
G01 X-4.0000 Y57.7200 
G01 X-4.0000 Y54.0400 
G01 X-3.7601 Y54.0400 
G01 X-3.7234 Y54.0248 
G01 X-3.6952 Y53.9966 
G01 X-3.6800 Y53.9599 
G01 X-3.6800 Y53.5000 
G01 X-3.2003 Y53.5000 
G01 X-3.1084 Y53.4619 
G01 X-3.0381 Y53.3916 
G01 X-3.0000 Y53.2997 
G01 X-3.0000 Y42.4503 
G01 X-3.0381 Y42.3584 
G01 X-3.1084 Y42.2881 
G01 X-3.6084 Y41.7881 
G01 X-3.7003 Y41.7500 
G01 X-4.7997 Y41.7500 
G01 X-4.8916 Y41.7881 
G01 X-4.9619 Y41.8584 
G01 X-5.5836 Y42.4800 
G01 X-6.1664 Y42.4800 
G01 X-6.7881 Y41.8584 
G01 X-6.8584 Y41.7881 
G01 X-6.9503 Y41.7500 
G01 X-7.7500 Y41.7500 
G01 X-7.7500 Y37.2729 
G01 X-7.1302 Y37.2729 
G01 X-7.0935 Y37.2577 
G01 X-7.0653 Y37.2295 
G01 X-7.0501 Y37.1928 
G01 X-7.0501 Y35.1464 
G01 X-7.0653 Y35.1097 
G01 X-7.0935 Y35.0815 
G01 X-7.1302 Y35.0663 
G01 X-8.6686 Y35.0663 
G01 X-8.7053 Y35.0815 
G01 X-8.7335 Y35.1097 
G01 X-8.7487 Y35.1464 
G01 X-8.7487 Y37.1928 
G01 X-8.7335 Y37.2295 
G01 X-8.7053 Y37.2577 
G01 X-8.6686 Y37.2729 
G01 X-8.2500 Y37.2729 
G01 X-8.2500 Y41.3310 
G01 X-8.5329 Y41.0480 
G01 X-9.2470 Y41.0480 
G01 X-9.7520 Y41.5529 
G01 X-9.7520 Y41.7500 
G01 X-10.5680 Y41.7500 
G01 X-10.5680 Y41.5529 
G01 X-11.0729 Y41.0480 
G01 X-11.7871 Y41.0480 
G01 X-12.2920 Y41.5529 
G01 X-12.2920 Y42.2671 
G01 X-11.7871 Y42.7720 
G01 X-11.0729 Y42.7720 
G01 X-10.5680 Y42.2671 
G01 X-10.5680 Y42.2500 
G01 X-9.7520 Y42.2500 
G01 X-9.7520 Y42.2671 
G01 X-9.2470 Y42.7720 
G01 X-8.5329 Y42.7720 
G01 X-8.0280 Y42.2671 
G01 X-8.0280 Y42.2500 
G01 X-7.1036 Y42.2500 
G01 X-6.4800 Y42.8736 
G01 X-6.4800 Y43.7999 
G01 X-6.4648 Y43.8366 
G01 X-6.4366 Y43.8648 
G01 X-6.3999 Y43.8800 
G01 X-5.5601 Y43.8800 
G01 X-5.5234 Y43.8648 
G01 X-5.4952 Y43.8366 
G01 X-5.4800 Y43.7999 
G01 X-5.4800 Y43.0836 
G01 X-4.6464 Y42.2500 
G01 X-3.8536 Y42.2500 
G01 X-3.5000 Y42.6036 
G01 X-3.5000 Y53.0000 
G01 X-3.6800 Y53.0000 
G01 X-3.6800 Y52.7201 
G01 X-3.6952 Y52.6834 
G01 X-3.7234 Y52.6552 
G01 X-3.7601 Y52.6400 
G01 X-4.5999 Y52.6400 
G01 X-4.6366 Y52.6552 
G01 X-4.6648 Y52.6834 
G01 X-4.6800 Y52.7201 
G01 X-4.6800 Y53.9599 
G01 X-4.6648 Y53.9966 
G01 X-4.6366 Y54.0248 
G01 X-4.5999 Y54.0400 
G01 X-4.5000 Y54.0400 
G01 X-4.5000 Y57.7200 
G01 X-4.5999 Y57.7200 
G01 X-4.6366 Y57.7352 
G01 X-4.6648 Y57.7634 
G01 X-4.6800 Y57.8001 
G01 X-4.6800 Y58.5764 
G01 X-5.3536 Y59.2500 
G01 X-8.1109 Y59.2500 
G01 X-8.5329 Y58.8280 
G01 X-9.2470 Y58.8280 
G01 X-9.7520 Y59.3329 
G00 Z2.0000 
G00 X-12.2920 Y59.3329 
G01 Z-0.0250 F254.00 
G01 X-12.2920 Y60.0471 F508.00 
G01 X-11.7871 Y60.5520 
G01 X-11.0729 Y60.5520 
G01 X-10.5680 Y60.0471 
G01 X-10.5680 Y59.3329 
G01 X-11.0729 Y58.8280 
G01 X-11.7871 Y58.8280 
G01 X-12.2920 Y59.3329 
G00 Z2.0000 
G00 X-13.5112 Y62.7089 
G01 Z-0.0250 F254.00 
G01 X-13.5112 Y64.2911 F508.00 
G01 X-13.4800 Y64.4478 
G01 X-13.4189 Y64.5954 
G01 X-13.3301 Y64.7283 
G01 X-13.2171 Y64.8413 
G01 X-13.0842 Y64.9301 
G01 X-12.9366 Y64.9912 
G01 X-12.7799 Y65.0224 
G01 X-12.6201 Y65.0224 
G01 X-12.4634 Y64.9912 
G01 X-12.3158 Y64.9301 
G01 X-12.1829 Y64.8413 
G01 X-12.0699 Y64.7283 
G01 X-11.9811 Y64.5954 
G01 X-11.9200 Y64.4478 
G01 X-11.8888 Y64.2911 
G01 X-11.8888 Y62.7089 
G01 X-11.9200 Y62.5522 
G01 X-11.9811 Y62.4046 
G01 X-12.0699 Y62.2717 
G01 X-12.1829 Y62.1587 
G01 X-12.3158 Y62.0699 
G01 X-12.4634 Y62.0088 
G01 X-12.6201 Y61.9776 
G01 X-12.7799 Y61.9776 
G01 X-12.9366 Y62.0088 
G01 X-13.0842 Y62.0699 
G01 X-13.2171 Y62.1587 
G01 X-13.3301 Y62.2717 
G01 X-13.4189 Y62.4046 
G01 X-13.4800 Y62.5522 
G01 X-13.5112 Y62.7089 
G00 Z2.0000 
G00 X-16.0512 Y62.7089 
G01 Z-0.0250 F254.00 
G01 X-16.0512 Y64.2911 F508.00 
G01 X-16.0200 Y64.4478 
G01 X-15.9589 Y64.5954 
G01 X-15.8701 Y64.7283 
G01 X-15.7571 Y64.8413 
G01 X-15.6242 Y64.9301 
G01 X-15.4766 Y64.9912 
G01 X-15.3199 Y65.0224 
G01 X-15.1601 Y65.0224 
G01 X-15.0034 Y64.9912 
G01 X-14.8558 Y64.9301 
G01 X-14.7229 Y64.8413 
G01 X-14.6099 Y64.7283 
G01 X-14.5211 Y64.5954 
G01 X-14.4600 Y64.4478 
G01 X-14.4288 Y64.2911 
G01 X-14.4288 Y62.7089 
G01 X-14.4600 Y62.5522 
G01 X-14.5211 Y62.4046 
G01 X-14.6099 Y62.2717 
G01 X-14.7229 Y62.1587 
G01 X-14.8558 Y62.0699 
G01 X-15.0034 Y62.0088 
G01 X-15.1601 Y61.9776 
G01 X-15.3199 Y61.9776 
G01 X-15.4766 Y62.0088 
G01 X-15.6242 Y62.0699 
G01 X-15.7571 Y62.1587 
G01 X-15.8701 Y62.2717 
G01 X-15.9589 Y62.4046 
G01 X-16.0200 Y62.5522 
G01 X-16.0512 Y62.7089 
G00 Z2.0000 
G00 X-18.5912 Y62.7089 
G01 Z-0.0250 F254.00 
G01 X-18.5912 Y64.2911 F508.00 
G01 X-18.5600 Y64.4478 
G01 X-18.4989 Y64.5954 
G01 X-18.4101 Y64.7283 
G01 X-18.2971 Y64.8413 
G01 X-18.1642 Y64.9301 
G01 X-18.0166 Y64.9912 
G01 X-17.8599 Y65.0224 
G01 X-17.7001 Y65.0224 
G01 X-17.5434 Y64.9912 
G01 X-17.3957 Y64.9301 
G01 X-17.2629 Y64.8413 
G01 X-17.1499 Y64.7283 
G01 X-17.0611 Y64.5954 
G01 X-17.0000 Y64.4478 
G01 X-16.9688 Y64.2911 
G01 X-16.9688 Y62.7089 
G01 X-17.0000 Y62.5522 
G01 X-17.0611 Y62.4046 
G01 X-17.1499 Y62.2717 
G01 X-17.2629 Y62.1587 
G01 X-17.3957 Y62.0699 
G01 X-17.5434 Y62.0088 
G01 X-17.7001 Y61.9776 
G01 X-17.8599 Y61.9776 
G01 X-18.0166 Y62.0088 
G01 X-18.1642 Y62.0699 
G01 X-18.2971 Y62.1587 
G01 X-18.4101 Y62.2717 
G01 X-18.4989 Y62.4046 
G01 X-18.5600 Y62.5522 
G01 X-18.5912 Y62.7089 
G00 Z2.0000 
G00 X-21.1312 Y62.7089 
G01 Z-0.0250 F254.00 
G01 X-21.1312 Y64.2911 F508.00 
G01 X-21.1000 Y64.4478 
G01 X-21.0389 Y64.5954 
G01 X-20.9501 Y64.7283 
G01 X-20.8371 Y64.8413 
G01 X-20.7042 Y64.9301 
G01 X-20.5566 Y64.9912 
G01 X-20.3999 Y65.0224 
G01 X-20.2401 Y65.0224 
G01 X-20.0834 Y64.9912 
G01 X-19.9358 Y64.9301 
G01 X-19.8029 Y64.8413 
G01 X-19.6899 Y64.7283 
G01 X-19.6011 Y64.5954 
G01 X-19.5400 Y64.4478 
G01 X-19.5088 Y64.2911 
G01 X-19.5088 Y62.7089 
G01 X-19.5400 Y62.5522 
G01 X-19.6011 Y62.4046 
G01 X-19.6899 Y62.2717 
G01 X-19.8029 Y62.1587 
G01 X-19.9358 Y62.0699 
G01 X-20.0834 Y62.0088 
G01 X-20.2401 Y61.9776 
G01 X-20.3999 Y61.9776 
G01 X-20.5566 Y62.0088 
G01 X-20.7042 Y62.0699 
G01 X-20.8371 Y62.1587 
G01 X-20.9501 Y62.2717 
G01 X-21.0389 Y62.4046 
G01 X-21.1000 Y62.5522 
G01 X-21.1312 Y62.7089 
G00 Z2.0000 
G00 X-26.8000 Y9.5401 
G01 Z-0.0250 F254.00 
G01 X-26.8000 Y10.1964 F508.00 
G01 X-27.1036 Y10.5000 
G01 X-35.6955 Y10.5000 
G01 X-35.7112 Y10.4620 
G01 X-35.7777 Y10.3624 
G01 X-35.8624 Y10.2777 
G01 X-35.9620 Y10.2112 
G01 X-36.0727 Y10.1654 
G01 X-36.1901 Y10.1420 
G01 X-36.3099 Y10.1420 
G01 X-36.4273 Y10.1654 
G01 X-36.5380 Y10.2112 
G01 X-36.6376 Y10.2777 
G01 X-36.7223 Y10.3624 
G01 X-36.7888 Y10.4620 
G01 X-36.8346 Y10.5727 
G01 X-36.8580 Y10.6901 
G01 X-36.8580 Y10.8099 
G01 X-36.8346 Y10.9273 
G01 X-36.7888 Y11.0380 
G01 X-36.7223 Y11.1376 
G01 X-36.6376 Y11.2223 
G01 X-36.5380 Y11.2888 
G01 X-36.4273 Y11.3346 
G01 X-36.3099 Y11.3580 
G01 X-36.1901 Y11.3580 
G01 X-36.0727 Y11.3346 
G01 X-35.9620 Y11.2888 
G01 X-35.8624 Y11.2223 
G01 X-35.7777 Y11.1376 
G01 X-35.7112 Y11.0380 
G01 X-35.6955 Y11.0000 
G01 X-26.9503 Y11.0000 
G01 X-26.8584 Y10.9619 
G01 X-26.7881 Y10.8916 
G01 X-26.7457 Y10.8493 
G01 X-26.7199 Y10.8600 
G01 X-25.8801 Y10.8600 
G01 X-25.8434 Y10.8448 
G01 X-25.8152 Y10.8166 
G01 X-25.8000 Y10.7799 
G01 X-25.8000 Y9.5401 
G01 X-25.8152 Y9.5034 
G01 X-25.8434 Y9.4752 
G01 X-25.8801 Y9.4600 
G01 X-26.7199 Y9.4600 
G01 X-26.7566 Y9.4752 
G01 X-26.7848 Y9.5034 
G01 X-26.8000 Y9.5401 
G00 Z2.0000 
G00 X-25.0000 Y9.5401 
G01 Z-0.0250 F254.00 
G01 X-25.0000 Y10.7799 F508.00 
G01 X-24.9848 Y10.8166 
G01 X-24.9566 Y10.8448 
G01 X-24.9199 Y10.8600 
G01 X-24.0801 Y10.8600 
G01 X-24.0434 Y10.8448 
G01 X-24.0152 Y10.8166 
G01 X-24.0000 Y10.7799 
G01 X-24.0000 Y9.8536 
G01 X-23.1464 Y9.0000 
G01 X-17.1400 Y9.0000 
G01 X-17.1400 Y9.0899 
G01 X-17.1248 Y9.1266 
G01 X-17.0966 Y9.1548 
G01 X-17.0599 Y9.1700 
G01 X-15.6201 Y9.1700 
G01 X-15.5834 Y9.1548 
G01 X-15.5552 Y9.1266 
G01 X-15.5400 Y9.0899 
G01 X-15.5400 Y8.0501 
G01 X-15.5552 Y8.0134 
G01 X-15.5834 Y7.9852 
G01 X-15.6201 Y7.9700 
G01 X-17.0599 Y7.9700 
G01 X-17.0966 Y7.9852 
G01 X-17.1248 Y8.0134 
G01 X-17.1400 Y8.0501 
G01 X-17.1400 Y8.5000 
G01 X-23.2997 Y8.5000 
G01 X-23.3916 Y8.5381 
G01 X-23.4619 Y8.6084 
G01 X-24.3136 Y9.4600 
G01 X-24.9199 Y9.4600 
G01 X-24.9566 Y9.4752 
G01 X-24.9848 Y9.5034 
G01 X-25.0000 Y9.5401 
G00 Z2.0000 
G00 X-44.8200 Y20.2412 
G01 Z-0.0250 F254.00 
G01 X-44.8200 Y20.3988 F508.00 
G01 X-44.7893 Y20.5534 
G01 X-44.7289 Y20.6989 
G01 X-44.6414 Y20.8300 
G01 X-44.5300 Y20.9414 
G01 X-44.3989 Y21.0289 
G01 X-44.2534 Y21.0893 
G01 X-44.0988 Y21.1200 
G01 X-43.9412 Y21.1200 
G01 X-43.7866 Y21.0893 
G01 X-43.6411 Y21.0289 
G01 X-43.5100 Y20.9414 
G01 X-43.3986 Y20.8300 
G01 X-43.3111 Y20.6989 
G01 X-43.2507 Y20.5534 
G01 X-43.2401 Y20.5000 
G01 X-32.0545 Y20.5000 
G01 X-32.0388 Y20.5380 
G01 X-31.9723 Y20.6376 
G01 X-31.8876 Y20.7223 
G01 X-31.7880 Y20.7888 
G01 X-31.6773 Y20.8346 
G01 X-31.5599 Y20.8580 
G01 X-31.4401 Y20.8580 
G01 X-31.3227 Y20.8346 
G01 X-31.2120 Y20.7888 
G01 X-31.1124 Y20.7223 
G01 X-31.0277 Y20.6376 
G01 X-30.9612 Y20.5380 
G01 X-30.9154 Y20.4273 
G01 X-30.8920 Y20.3099 
G01 X-30.8920 Y20.1901 
G01 X-30.9154 Y20.0726 
G01 X-30.9612 Y19.9620 
G01 X-31.0277 Y19.8624 
G01 X-31.1124 Y19.7777 
G01 X-31.2120 Y19.7112 
G01 X-31.3227 Y19.6654 
G01 X-31.4401 Y19.6420 
G01 X-31.5599 Y19.6420 
G01 X-31.6773 Y19.6654 
G01 X-31.7880 Y19.7112 
G01 X-31.8876 Y19.7777 
G01 X-31.9723 Y19.8624 
G01 X-32.0388 Y19.9620 
G01 X-32.0545 Y20.0000 
G01 X-43.2866 Y20.0000 
G01 X-43.3111 Y19.9411 
G01 X-43.3986 Y19.8100 
G01 X-43.5100 Y19.6986 
G01 X-43.6411 Y19.6111 
G01 X-43.7866 Y19.5507 
G01 X-43.9412 Y19.5200 
G01 X-44.0988 Y19.5200 
G01 X-44.2534 Y19.5507 
G01 X-44.3989 Y19.6111 
G01 X-44.5300 Y19.6986 
G01 X-44.6414 Y19.8100 
G01 X-44.7289 Y19.9411 
G01 X-44.7893 Y20.0866 
G01 X-44.8200 Y20.2412 
G00 Z2.0000 
G00 X-12.1650 Y28.8472 
G01 Z-0.0250 F254.00 
G01 X-12.1650 Y30.8936 F508.00 
G01 X-12.1498 Y30.9303 
G01 X-12.1216 Y30.9585 
G01 X-12.0849 Y30.9737 
G01 X-8.2351 Y30.9737 
G01 X-8.1984 Y30.9585 
G01 X-8.1702 Y30.9303 
G01 X-8.1550 Y30.8936 
G01 X-8.1550 Y28.8472 
G01 X-8.1702 Y28.8105 
G01 X-8.1984 Y28.7823 
G01 X-8.2351 Y28.7671 
G01 X-12.0849 Y28.7671 
G01 X-12.1216 Y28.7823 
G01 X-12.1498 Y28.8105 
G01 X-12.1650 Y28.8472 
G00 Z2.0000 
G00 X-13.3207 Y35.1464 
G01 Z-0.0250 F254.00 
G01 X-13.3207 Y37.1928 F508.00 
G01 X-13.3055 Y37.2295 
G01 X-13.2773 Y37.2577 
G01 X-13.2406 Y37.2729 
G01 X-12.7500 Y37.2729 
G01 X-12.7500 Y41.0000 
G01 X-19.1955 Y41.0000 
G01 X-19.2112 Y40.9620 
G01 X-19.2777 Y40.8624 
G01 X-19.3624 Y40.7777 
G01 X-19.4620 Y40.7112 
G01 X-19.5726 Y40.6654 
G01 X-19.6901 Y40.6420 
G01 X-19.8099 Y40.6420 
G01 X-19.9273 Y40.6654 
G01 X-20.0380 Y40.7112 
G01 X-20.1376 Y40.7777 
G01 X-20.2223 Y40.8624 
G01 X-20.2888 Y40.9620 
G01 X-20.3346 Y41.0727 
G01 X-20.3580 Y41.1901 
G01 X-20.3580 Y41.3099 
G01 X-20.3346 Y41.4273 
G01 X-20.2888 Y41.5380 
G01 X-20.2223 Y41.6376 
G01 X-20.1376 Y41.7223 
G01 X-20.0380 Y41.7888 
G01 X-19.9273 Y41.8346 
G01 X-19.8099 Y41.8580 
G01 X-19.6901 Y41.8580 
G01 X-19.5726 Y41.8346 
G01 X-19.4620 Y41.7888 
G01 X-19.3624 Y41.7223 
G01 X-19.2777 Y41.6376 
G01 X-19.2112 Y41.5380 
G01 X-19.1955 Y41.5000 
G01 X-12.4503 Y41.5000 
G01 X-12.3584 Y41.4619 
G01 X-12.2881 Y41.3916 
G01 X-12.2500 Y41.2997 
G01 X-12.2500 Y37.2729 
G01 X-11.7022 Y37.2729 
G01 X-11.6655 Y37.2577 
G01 X-11.6373 Y37.2295 
G01 X-11.6221 Y37.1928 
G01 X-11.6221 Y35.1464 
G01 X-11.6373 Y35.1097 
G01 X-11.6655 Y35.0815 
G01 X-11.7022 Y35.0663 
G01 X-13.2406 Y35.0663 
G01 X-13.2773 Y35.0815 
G01 X-13.3055 Y35.1097 
G01 X-13.3207 Y35.1464 
G00 Z2.0000 
G00 X-46.0264 Y6.0385 
G01 Z-0.0250 F254.00 
G01 X-46.0264 Y4.1215 F508.00 
G01 X-46.0634 Y3.9353 
G01 X-46.1361 Y3.7600 
G01 X-46.2415 Y3.6021 
G01 X-46.3757 Y3.4679 
G01 X-46.5336 Y3.3625 
G01 X-46.7089 Y3.2898 
G01 X-46.8951 Y3.2528 
G01 X-47.0849 Y3.2528 
G01 X-47.2711 Y3.2898 
G01 X-47.4464 Y3.3625 
G01 X-47.6043 Y3.4679 
G01 X-47.7385 Y3.6021 
G01 X-47.8439 Y3.7600 
G01 X-47.9166 Y3.9353 
G01 X-47.9536 Y4.1215 
G01 X-47.9536 Y6.0385 
G01 X-47.9166 Y6.2247 
G01 X-47.8439 Y6.4000 
G01 X-47.7385 Y6.5579 
G01 X-47.6043 Y6.6921 
G01 X-47.4464 Y6.7975 
G01 X-47.2711 Y6.8702 
G01 X-47.0849 Y6.9072 
G01 X-46.8951 Y6.9072 
G01 X-46.7089 Y6.8702 
G01 X-46.5336 Y6.7975 
G01 X-46.3757 Y6.6921 
G01 X-46.2415 Y6.5579 
G01 X-46.1361 Y6.4000 
G01 X-46.0634 Y6.2247 
G01 X-46.0264 Y6.0385 
G00 Z2.0000 
G00 X-42.2164 Y4.1215 
G01 Z-0.0250 F254.00 
G01 X-42.2534 Y3.9353 F508.00 
G01 X-42.3261 Y3.7600 
G01 X-42.4315 Y3.6021 
G01 X-42.5657 Y3.4679 
G01 X-42.7236 Y3.3625 
G01 X-42.8989 Y3.2898 
G01 X-43.0851 Y3.2528 
G01 X-43.2749 Y3.2528 
G01 X-43.4611 Y3.2898 
G01 X-43.6364 Y3.3625 
G01 X-43.7943 Y3.4679 
G01 X-43.9285 Y3.6021 
G01 X-44.0339 Y3.7600 
G01 X-44.1066 Y3.9353 
G01 X-44.1436 Y4.1215 
G01 X-44.1436 Y6.0385 
G01 X-44.1066 Y6.2247 
G01 X-44.0339 Y6.4000 
G01 X-43.9285 Y6.5579 
G01 X-43.7943 Y6.6921 
G01 X-43.6364 Y6.7975 
G01 X-43.4611 Y6.8702 
G01 X-43.2749 Y6.9072 
G01 X-43.0851 Y6.9072 
G01 X-42.8989 Y6.8702 
G01 X-42.7236 Y6.7975 
G01 X-42.5657 Y6.6921 
G01 X-42.4315 Y6.5579 
G01 X-42.3261 Y6.4000 
G01 X-42.2902 Y6.3134 
G01 X-41.1416 Y7.4619 
G01 X-41.0497 Y7.5000 
G01 X-35.2003 Y7.5000 
G01 X-35.1084 Y7.4619 
G01 X-35.0381 Y7.3916 
G01 X-33.5021 Y5.8557 
G01 X-33.4524 Y5.8889 
G01 X-33.2863 Y5.9577 
G01 X-33.1099 Y5.9928 
G01 X-32.9301 Y5.9928 
G01 X-32.7537 Y5.9577 
G01 X-32.5876 Y5.8889 
G01 X-32.4381 Y5.7890 
G01 X-32.3110 Y5.6619 
G01 X-32.2111 Y5.5124 
G01 X-32.1423 Y5.3463 
G01 X-32.1072 Y5.1699 
G01 X-32.1072 Y4.9901 
G01 X-32.1423 Y4.8137 
G01 X-32.2111 Y4.6476 
G01 X-32.3110 Y4.4981 
G01 X-32.4381 Y4.3710 
G01 X-32.5876 Y4.2711 
G01 X-32.7537 Y4.2023 
G01 X-32.9301 Y4.1672 
G01 X-33.1099 Y4.1672 
G01 X-33.2863 Y4.2023 
G01 X-33.4524 Y4.2711 
G01 X-33.6019 Y4.3710 
G01 X-33.7290 Y4.4981 
G01 X-33.8289 Y4.6476 
G01 X-33.8977 Y4.8137 
G01 X-33.9328 Y4.9901 
G01 X-33.9328 Y5.1699 
G01 X-33.8977 Y5.3463 
G01 X-33.8398 Y5.4862 
G01 X-35.3536 Y7.0000 
G01 X-40.8964 Y7.0000 
G01 X-42.2164 Y5.6800 
G01 X-42.2164 Y4.1215 
G00 Z2.0000 
G00 X-38.4064 Y6.0385 
G01 Z-0.0250 F254.00 
G01 X-38.4064 Y4.5100 F508.00 
G01 X-37.8964 Y4.0000 
G01 X-22.3536 Y4.0000 
G01 X-21.0689 Y5.2847 
G01 X-21.0846 Y5.3227 
G01 X-21.1080 Y5.4401 
G01 X-21.1080 Y5.5599 
G01 X-21.0846 Y5.6773 
G01 X-21.0388 Y5.7880 
G01 X-20.9723 Y5.8876 
G01 X-20.8876 Y5.9723 
G01 X-20.7880 Y6.0388 
G01 X-20.6773 Y6.0846 
G01 X-20.5599 Y6.1080 
G01 X-20.4401 Y6.1080 
G01 X-20.3226 Y6.0846 
G01 X-20.2120 Y6.0388 
G01 X-20.1124 Y5.9723 
G01 X-20.0277 Y5.8876 
G01 X-19.9612 Y5.7880 
G01 X-19.9154 Y5.6773 
G01 X-19.8920 Y5.5599 
G01 X-19.8920 Y5.4401 
G01 X-19.9154 Y5.3227 
G01 X-19.9612 Y5.2120 
G01 X-20.0277 Y5.1124 
G01 X-20.1124 Y5.0277 
G01 X-20.2120 Y4.9612 
G01 X-20.3226 Y4.9154 
G01 X-20.4401 Y4.8920 
G01 X-20.5599 Y4.8920 
G01 X-20.6773 Y4.9154 
G01 X-20.7153 Y4.9311 
G01 X-22.0381 Y3.6084 
G01 X-22.1084 Y3.5381 
G01 X-22.2003 Y3.5000 
G01 X-38.0497 Y3.5000 
G01 X-38.1416 Y3.5381 
G01 X-38.4714 Y3.8678 
G01 X-38.5161 Y3.7600 
G01 X-38.6215 Y3.6021 
G01 X-38.7557 Y3.4679 
G01 X-38.9136 Y3.3625 
G01 X-39.0889 Y3.2898 
G01 X-39.2751 Y3.2528 
G01 X-39.4649 Y3.2528 
G01 X-39.6511 Y3.2898 
G01 X-39.8264 Y3.3625 
G01 X-39.9843 Y3.4679 
G01 X-40.1185 Y3.6021 
G01 X-40.2239 Y3.7600 
G01 X-40.2966 Y3.9353 
G01 X-40.3336 Y4.1215 
G01 X-40.3336 Y6.0385 
G01 X-40.2966 Y6.2247 
G01 X-40.2239 Y6.4000 
G01 X-40.1185 Y6.5579 
G01 X-39.9843 Y6.6921 
G01 X-39.8264 Y6.7975 
G01 X-39.6511 Y6.8702 
G01 X-39.4649 Y6.9072 
G01 X-39.2751 Y6.9072 
G01 X-39.0889 Y6.8702 
G01 X-38.9136 Y6.7975 
G01 X-38.7557 Y6.6921 
G01 X-38.6215 Y6.5579 
G01 X-38.5161 Y6.4000 
G01 X-38.4434 Y6.2247 
G01 X-38.4064 Y6.0385 
G00 Z2.0000 
G00 X-32.6628 Y43.0901 
G01 Z-0.0250 F254.00 
G01 X-32.6628 Y43.2699 F508.00 
G01 X-32.6277 Y43.4463 
G01 X-32.5589 Y43.6124 
G01 X-32.4590 Y43.7619 
G01 X-32.3319 Y43.8890 
G01 X-32.1824 Y43.9889 
G01 X-32.0163 Y44.0577 
G01 X-31.8399 Y44.0928 
G01 X-31.6601 Y44.0928 
G01 X-31.4837 Y44.0577 
G01 X-31.3176 Y43.9889 
G01 X-31.1681 Y43.8890 
G01 X-31.0410 Y43.7619 
G01 X-30.9411 Y43.6124 
G01 X-30.8723 Y43.4463 
G01 X-30.8372 Y43.2699 
G01 X-30.8372 Y43.0901 
G01 X-30.8723 Y42.9137 
G01 X-30.9411 Y42.7476 
G01 X-31.0410 Y42.5981 
G01 X-31.1681 Y42.4710 
G01 X-31.3176 Y42.3711 
G01 X-31.4837 Y42.3023 
G01 X-31.6601 Y42.2672 
G01 X-31.8399 Y42.2672 
G01 X-32.0163 Y42.3023 
G01 X-32.1824 Y42.3711 
G01 X-32.3319 Y42.4710 
G01 X-32.4590 Y42.5981 
G01 X-32.5589 Y42.7476 
G01 X-32.6277 Y42.9137 
G01 X-32.6628 Y43.0901 
G00 Z2.0000 
G00 X-32.6628 Y40.5501 
G01 Z-0.0250 F254.00 
G01 X-32.6628 Y40.7299 F508.00 
G01 X-32.6277 Y40.9063 
G01 X-32.5589 Y41.0724 
G01 X-32.4590 Y41.2219 
G01 X-32.3319 Y41.3490 
G01 X-32.1824 Y41.4489 
G01 X-32.0163 Y41.5177 
G01 X-31.8399 Y41.5528 
G01 X-31.6601 Y41.5528 
G01 X-31.4837 Y41.5177 
G01 X-31.3176 Y41.4489 
G01 X-31.1681 Y41.3490 
G01 X-31.0410 Y41.2219 
G01 X-30.9411 Y41.0724 
G01 X-30.9111 Y41.0000 
G01 X-28.0000 Y41.0000 
G01 X-28.0000 Y42.3964 
G01 X-31.1036 Y45.5000 
G01 X-38.9039 Y45.5000 
G01 X-38.9620 Y45.4612 
G01 X-39.0727 Y45.4154 
G01 X-39.1901 Y45.3920 
G01 X-39.3099 Y45.3920 
G01 X-39.4273 Y45.4154 
G01 X-39.5380 Y45.4612 
G01 X-39.6376 Y45.5277 
G01 X-39.7223 Y45.6124 
G01 X-39.7888 Y45.7120 
G01 X-39.8346 Y45.8227 
G01 X-39.8580 Y45.9401 
G01 X-39.8580 Y46.0599 
G01 X-39.8346 Y46.1773 
G01 X-39.7888 Y46.2880 
G01 X-39.7223 Y46.3876 
G01 X-39.6376 Y46.4723 
G01 X-39.5380 Y46.5388 
G01 X-39.4273 Y46.5846 
G01 X-39.3099 Y46.6080 
G01 X-39.1901 Y46.6080 
G01 X-39.0727 Y46.5846 
G01 X-38.9620 Y46.5388 
G01 X-38.8624 Y46.4723 
G01 X-38.7777 Y46.3876 
G01 X-38.7112 Y46.2880 
G01 X-38.6654 Y46.1773 
G01 X-38.6420 Y46.0599 
G01 X-38.6420 Y46.0000 
G01 X-30.9503 Y46.0000 
G01 X-30.8584 Y45.9619 
G01 X-27.6084 Y42.7119 
G01 X-27.5381 Y42.6416 
G01 X-27.5000 Y42.5497 
G01 X-27.5000 Y40.7003 
G01 X-27.5381 Y40.6084 
G01 X-27.6084 Y40.5381 
G01 X-27.7003 Y40.5000 
G01 X-30.8472 Y40.5000 
G01 X-30.8723 Y40.3737 
G01 X-30.9411 Y40.2076 
G01 X-31.0410 Y40.0581 
G01 X-31.1681 Y39.9310 
G01 X-31.3176 Y39.8311 
G01 X-31.4837 Y39.7623 
G01 X-31.6601 Y39.7272 
G01 X-31.8399 Y39.7272 
G01 X-32.0163 Y39.7623 
G01 X-32.1824 Y39.8311 
G01 X-32.3319 Y39.9310 
G01 X-32.4590 Y40.0581 
G01 X-32.5589 Y40.2076 
G01 X-32.6277 Y40.3737 
G01 X-32.6628 Y40.5501 
G00 Z2.0000 
G00 X-37.7428 Y57.0601 
G01 Z-0.0250 F254.00 
G01 X-37.7428 Y57.2399 F508.00 
G01 X-37.7077 Y57.4163 
G01 X-37.6389 Y57.5824 
G01 X-37.5390 Y57.7319 
G01 X-37.4119 Y57.8590 
G01 X-37.2624 Y57.9589 
G01 X-37.0963 Y58.0277 
G01 X-36.9199 Y58.0628 
G01 X-36.7401 Y58.0628 
G01 X-36.5637 Y58.0277 
G01 X-36.3976 Y57.9589 
G01 X-36.2481 Y57.8590 
G01 X-36.1210 Y57.7319 
G01 X-36.0211 Y57.5824 
G01 X-35.9523 Y57.4163 
G01 X-35.9172 Y57.2399 
G01 X-35.9172 Y57.0601 
G01 X-35.9523 Y56.8837 
G01 X-36.0211 Y56.7176 
G01 X-36.1210 Y56.5681 
G01 X-36.2481 Y56.4410 
G01 X-36.3976 Y56.3411 
G01 X-36.5637 Y56.2723 
G01 X-36.7401 Y56.2372 
G01 X-36.9199 Y56.2372 
G01 X-37.0963 Y56.2723 
G01 X-37.2624 Y56.3411 
G01 X-37.4119 Y56.4410 
G01 X-37.5390 Y56.5681 
G01 X-37.6389 Y56.7176 
G01 X-37.7077 Y56.8837 
G01 X-37.7428 Y57.0601 
G00 Z2.0000 
G00 X-37.7428 Y54.5201 
G01 Z-0.0250 F254.00 
G01 X-37.7428 Y54.6999 F508.00 
G01 X-37.7077 Y54.8763 
G01 X-37.6389 Y55.0424 
G01 X-37.5390 Y55.1919 
G01 X-37.4119 Y55.3190 
G01 X-37.2624 Y55.4189 
G01 X-37.0963 Y55.4877 
G01 X-36.9199 Y55.5228 
G01 X-36.7401 Y55.5228 
G01 X-36.5637 Y55.4877 
G01 X-36.3976 Y55.4189 
G01 X-36.2481 Y55.3190 
G01 X-36.1210 Y55.1919 
G01 X-36.0211 Y55.0424 
G01 X-35.9523 Y54.8763 
G01 X-35.9172 Y54.6999 
G01 X-35.9172 Y54.5201 
G01 X-35.9523 Y54.3437 
G01 X-36.0211 Y54.1776 
G01 X-36.1210 Y54.0281 
G01 X-36.2481 Y53.9010 
G01 X-36.3976 Y53.8011 
G01 X-36.5637 Y53.7323 
G01 X-36.7401 Y53.6972 
G01 X-36.9199 Y53.6972 
G01 X-37.0963 Y53.7323 
G01 X-37.2624 Y53.8011 
G01 X-37.4119 Y53.9010 
G01 X-37.5390 Y54.0281 
G01 X-37.6389 Y54.1776 
G01 X-37.7077 Y54.3437 
G01 X-37.7428 Y54.5201 
G00 Z2.0000 
G00 X-37.7077 Y52.3363 
G01 Z-0.0250 F254.00 
G01 X-37.6389 Y52.5024 F508.00 
G01 X-37.5390 Y52.6519 
G01 X-37.4119 Y52.7790 
G01 X-37.2624 Y52.8789 
G01 X-37.0963 Y52.9477 
G01 X-36.9199 Y52.9828 
G01 X-36.7401 Y52.9828 
G01 X-36.5637 Y52.9477 
G01 X-36.3976 Y52.8789 
G01 X-36.2481 Y52.7790 
G01 X-36.1210 Y52.6519 
G01 X-36.0211 Y52.5024 
G01 X-35.9523 Y52.3363 
G01 X-35.9172 Y52.1599 
G01 X-35.9172 Y51.9801 
G01 X-35.9523 Y51.8037 
G01 X-36.0211 Y51.6376 
G01 X-36.1210 Y51.4881 
G01 X-36.2481 Y51.3610 
G01 X-36.3976 Y51.2611 
G01 X-36.5637 Y51.1923 
G01 X-36.7401 Y51.1572 
G01 X-36.9199 Y51.1572 
G01 X-37.0963 Y51.1923 
G01 X-37.2624 Y51.2611 
G01 X-37.4119 Y51.3610 
G01 X-37.5390 Y51.4881 
G01 X-37.6389 Y51.6376 
G01 X-37.6855 Y51.7500 
G01 X-51.2145 Y51.7500 
G01 X-51.2611 Y51.6376 
G01 X-51.3610 Y51.4881 
G01 X-51.4881 Y51.3610 
G01 X-51.6376 Y51.2611 
G01 X-51.8037 Y51.1923 
G01 X-51.9801 Y51.1572 
G01 X-52.1599 Y51.1572 
G01 X-52.3363 Y51.1923 
G01 X-52.5024 Y51.2611 
G01 X-52.6519 Y51.3610 
G01 X-52.7790 Y51.4881 
G01 X-52.8789 Y51.6376 
G01 X-52.9477 Y51.8037 
G01 X-52.9828 Y51.9801 
G01 X-52.9828 Y52.1599 
G01 X-52.9477 Y52.3363 
G01 X-52.8789 Y52.5024 
G01 X-52.7790 Y52.6519 
G01 X-52.6519 Y52.7790 
G01 X-52.5024 Y52.8789 
G01 X-52.3363 Y52.9477 
G01 X-52.1599 Y52.9828 
G01 X-51.9801 Y52.9828 
G01 X-51.8037 Y52.9477 
G01 X-51.6376 Y52.8789 
G01 X-51.4881 Y52.7790 
G01 X-51.3610 Y52.6519 
G01 X-51.2611 Y52.5024 
G01 X-51.1923 Y52.3363 
G01 X-51.1751 Y52.2500 
G01 X-37.7249 Y52.2500 
G01 X-37.7077 Y52.3363 
G00 Z2.0000 
G00 X-37.7428 Y49.4401 
G01 Z-0.0250 F254.00 
G01 X-37.7428 Y49.6199 F508.00 
G01 X-37.7077 Y49.7963 
G01 X-37.6389 Y49.9624 
G01 X-37.6097 Y50.0061 
G01 X-38.1036 Y50.5000 
G01 X-52.5497 Y50.5000 
G01 X-52.6416 Y50.5381 
G01 X-53.6416 Y51.5381 
G01 X-53.7119 Y51.6084 
G01 X-53.7500 Y51.7003 
G01 X-53.7500 Y54.5497 
G01 X-53.7119 Y54.6416 
G01 X-53.6416 Y54.7119 
G01 X-53.5497 Y54.7500 
G01 X-52.9728 Y54.7500 
G01 X-52.9477 Y54.8763 
G01 X-52.8789 Y55.0424 
G01 X-52.7790 Y55.1919 
G01 X-52.6519 Y55.3190 
G01 X-52.5024 Y55.4189 
G01 X-52.3363 Y55.4877 
G01 X-52.1599 Y55.5228 
G01 X-51.9801 Y55.5228 
G01 X-51.8037 Y55.4877 
G01 X-51.6376 Y55.4189 
G01 X-51.4881 Y55.3190 
G01 X-51.3610 Y55.1919 
G01 X-51.2611 Y55.0424 
G01 X-51.1923 Y54.8763 
G01 X-51.1572 Y54.6999 
G01 X-51.1572 Y54.5201 
G01 X-51.1923 Y54.3437 
G01 X-51.2611 Y54.1776 
G01 X-51.3610 Y54.0281 
G01 X-51.4881 Y53.9010 
G01 X-51.6376 Y53.8011 
G01 X-51.8037 Y53.7323 
G01 X-51.9801 Y53.6972 
G01 X-52.1599 Y53.6972 
G01 X-52.3363 Y53.7323 
G01 X-52.5024 Y53.8011 
G01 X-52.6519 Y53.9010 
G01 X-52.7790 Y54.0281 
G01 X-52.8789 Y54.1776 
G01 X-52.9089 Y54.2500 
G01 X-53.2500 Y54.2500 
G01 X-53.2500 Y51.8536 
G01 X-52.3964 Y51.0000 
G01 X-37.9503 Y51.0000 
G01 X-37.8584 Y50.9619 
G01 X-37.7881 Y50.8916 
G01 X-37.2433 Y50.3468 
G01 X-37.0963 Y50.4077 
G01 X-36.9199 Y50.4428 
G01 X-36.7401 Y50.4428 
G01 X-36.5637 Y50.4077 
G01 X-36.3976 Y50.3389 
G01 X-36.2481 Y50.2390 
G01 X-36.1210 Y50.1119 
G01 X-36.0211 Y49.9624 
G01 X-35.9523 Y49.7963 
G01 X-35.9431 Y49.7500 
G01 X-33.8045 Y49.7500 
G01 X-33.7888 Y49.7880 
G01 X-33.7223 Y49.8876 
G01 X-33.6376 Y49.9723 
G01 X-33.5380 Y50.0388 
G01 X-33.4273 Y50.0846 
G01 X-33.3099 Y50.1080 
G01 X-33.1901 Y50.1080 
G01 X-33.0727 Y50.0846 
G01 X-32.9620 Y50.0388 
G01 X-32.8624 Y49.9723 
G01 X-32.7777 Y49.8876 
G01 X-32.7112 Y49.7880 
G01 X-32.6654 Y49.6773 
G01 X-32.6420 Y49.5599 
G01 X-32.6420 Y49.4401 
G01 X-32.6654 Y49.3227 
G01 X-32.7112 Y49.2120 
G01 X-32.7777 Y49.1124 
G01 X-32.8624 Y49.0277 
G01 X-32.9620 Y48.9612 
G01 X-33.0727 Y48.9154 
G01 X-33.1901 Y48.8920 
G01 X-33.3099 Y48.8920 
G01 X-33.4273 Y48.9154 
G01 X-33.5380 Y48.9612 
G01 X-33.6376 Y49.0277 
G01 X-33.7223 Y49.1124 
G01 X-33.7888 Y49.2120 
G01 X-33.8045 Y49.2500 
G01 X-35.9580 Y49.2500 
G01 X-36.0211 Y49.0976 
G01 X-36.1210 Y48.9481 
G01 X-36.2481 Y48.8210 
G01 X-36.3976 Y48.7211 
G01 X-36.5637 Y48.6523 
G01 X-36.7401 Y48.6172 
G01 X-36.9199 Y48.6172 
G01 X-37.0963 Y48.6523 
G01 X-37.2624 Y48.7211 
G01 X-37.4119 Y48.8210 
G01 X-37.5390 Y48.9481 
G01 X-37.6389 Y49.0976 
G01 X-37.7077 Y49.2637 
G01 X-37.7428 Y49.4401 
G00 Z2.0000 
G00 X-37.7428 Y41.8201 
G01 Z-0.0250 F254.00 
G01 X-37.7428 Y41.9999 F508.00 
G01 X-37.7077 Y42.1763 
G01 X-37.6389 Y42.3424 
G01 X-37.5390 Y42.4919 
G01 X-37.4119 Y42.6190 
G01 X-37.2624 Y42.7189 
G01 X-37.0963 Y42.7877 
G01 X-36.9199 Y42.8228 
G01 X-36.7401 Y42.8228 
G01 X-36.5637 Y42.7877 
G01 X-36.3976 Y42.7189 
G01 X-36.2481 Y42.6190 
G01 X-36.1210 Y42.4919 
G01 X-36.0211 Y42.3424 
G01 X-35.9523 Y42.1763 
G01 X-35.9172 Y41.9999 
G01 X-35.9172 Y41.8201 
G01 X-35.9523 Y41.6437 
G01 X-36.0211 Y41.4776 
G01 X-36.1210 Y41.3281 
G01 X-36.2481 Y41.2010 
G01 X-36.3976 Y41.1011 
G01 X-36.5637 Y41.0323 
G01 X-36.7401 Y40.9972 
G01 X-36.9199 Y40.9972 
G01 X-37.0963 Y41.0323 
G01 X-37.2624 Y41.1011 
G01 X-37.4119 Y41.2010 
G01 X-37.5390 Y41.3281 
G01 X-37.6389 Y41.4776 
G01 X-37.7077 Y41.6437 
G01 X-37.7428 Y41.8201 
G00 Z2.0000 
G00 X-37.7428 Y39.2801 
G01 Z-0.0250 F254.00 
G01 X-37.7428 Y39.4599 F508.00 
G01 X-37.7077 Y39.6363 
G01 X-37.6389 Y39.8024 
G01 X-37.5390 Y39.9519 
G01 X-37.4119 Y40.0790 
G01 X-37.2624 Y40.1789 
G01 X-37.0963 Y40.2477 
G01 X-36.9199 Y40.2828 
G01 X-36.7401 Y40.2828 
G01 X-36.5637 Y40.2477 
G01 X-36.3976 Y40.1789 
G01 X-36.2481 Y40.0790 
G01 X-36.1210 Y39.9519 
G01 X-36.0211 Y39.8024 
G01 X-35.9523 Y39.6363 
G01 X-35.9172 Y39.4599 
G01 X-35.9172 Y39.2801 
G01 X-35.9523 Y39.1037 
G01 X-36.0211 Y38.9376 
G01 X-36.1210 Y38.7881 
G01 X-36.2481 Y38.6610 
G01 X-36.3976 Y38.5611 
G01 X-36.5637 Y38.4923 
G01 X-36.7401 Y38.4572 
G01 X-36.9199 Y38.4572 
G01 X-37.0963 Y38.4923 
G01 X-37.2624 Y38.5611 
G01 X-37.4119 Y38.6610 
G01 X-37.5390 Y38.7881 
G01 X-37.6389 Y38.9376 
G01 X-37.7077 Y39.1037 
G01 X-37.7428 Y39.2801 
G00 Z2.0000 
G00 X-37.7428 Y29.1201 
G01 Z-0.0250 F254.00 
G01 X-37.7428 Y29.2999 F508.00 
G01 X-37.7077 Y29.4763 
G01 X-37.6389 Y29.6424 
G01 X-37.5390 Y29.7919 
G01 X-37.4119 Y29.9190 
G01 X-37.2624 Y30.0189 
G01 X-37.0963 Y30.0877 
G01 X-36.9199 Y30.1228 
G01 X-36.7401 Y30.1228 
G01 X-36.5637 Y30.0877 
G01 X-36.3976 Y30.0189 
G01 X-36.2481 Y29.9190 
G01 X-36.1210 Y29.7919 
G01 X-36.0211 Y29.6424 
G01 X-35.9523 Y29.4763 
G01 X-35.9172 Y29.2999 
G01 X-35.9172 Y29.1201 
G01 X-35.9523 Y28.9437 
G01 X-36.0211 Y28.7776 
G01 X-36.1210 Y28.6281 
G01 X-36.2481 Y28.5010 
G01 X-36.3976 Y28.4011 
G01 X-36.5637 Y28.3323 
G01 X-36.7401 Y28.2972 
G01 X-36.9199 Y28.2972 
G01 X-37.0963 Y28.3323 
G01 X-37.2624 Y28.4011 
G01 X-37.4119 Y28.5010 
G01 X-37.5390 Y28.6281 
G01 X-37.6389 Y28.7776 
G01 X-37.7077 Y28.9437 
G01 X-37.7428 Y29.1201 
G00 Z2.0000 
G00 X-52.9828 Y34.2001 
G01 Z-0.0250 F254.00 
G01 X-52.9828 Y34.3799 F508.00 
G01 X-52.9477 Y34.5563 
G01 X-52.8789 Y34.7224 
G01 X-52.7790 Y34.8719 
G01 X-52.6519 Y34.9990 
G01 X-52.5024 Y35.0989 
G01 X-52.3363 Y35.1677 
G01 X-52.1599 Y35.2028 
G01 X-51.9801 Y35.2028 
G01 X-51.8037 Y35.1677 
G01 X-51.6376 Y35.0989 
G01 X-51.4881 Y34.9990 
G01 X-51.3610 Y34.8719 
G01 X-51.2611 Y34.7224 
G01 X-51.1923 Y34.5563 
G01 X-51.1572 Y34.3799 
G01 X-51.1572 Y34.2001 
G01 X-51.1923 Y34.0237 
G01 X-51.2611 Y33.8576 
G01 X-51.3610 Y33.7081 
G01 X-51.4881 Y33.5810 
G01 X-51.6376 Y33.4811 
G01 X-51.8037 Y33.4123 
G01 X-51.9801 Y33.3772 
G01 X-52.1599 Y33.3772 
G01 X-52.3363 Y33.4123 
G01 X-52.5024 Y33.4811 
G01 X-52.6001 Y33.5464 
G01 X-53.2500 Y32.8964 
G01 X-53.2500 Y30.7500 
G01 X-21.1036 Y30.7500 
G01 X-14.0689 Y37.7847 
G01 X-14.0846 Y37.8227 
G01 X-14.1080 Y37.9401 
G01 X-14.1080 Y38.0599 
G01 X-14.0846 Y38.1773 
G01 X-14.0388 Y38.2880 
G01 X-13.9723 Y38.3876 
G01 X-13.8876 Y38.4723 
G01 X-13.7880 Y38.5388 
G01 X-13.6773 Y38.5846 
G01 X-13.5599 Y38.6080 
G01 X-13.4401 Y38.6080 
G01 X-13.3227 Y38.5846 
G01 X-13.2120 Y38.5388 
G01 X-13.1124 Y38.4723 
G01 X-13.0277 Y38.3876 
G01 X-12.9612 Y38.2880 
G01 X-12.9154 Y38.1773 
G01 X-12.8920 Y38.0599 
G01 X-12.8920 Y37.9401 
G01 X-12.9154 Y37.8227 
G01 X-12.9612 Y37.7120 
G01 X-13.0277 Y37.6124 
G01 X-13.1124 Y37.5277 
G01 X-13.2120 Y37.4612 
G01 X-13.3227 Y37.4154 
G01 X-13.4401 Y37.3920 
G01 X-13.5599 Y37.3920 
G01 X-13.6773 Y37.4154 
G01 X-13.7153 Y37.4311 
G01 X-20.8584 Y30.2881 
G01 X-20.9503 Y30.2500 
G01 X-53.5497 Y30.2500 
G01 X-53.6416 Y30.2881 
G01 X-53.7119 Y30.3584 
G01 X-53.7500 Y30.4503 
G01 X-53.7500 Y33.0497 
G01 X-53.7119 Y33.1416 
G01 X-53.6416 Y33.2119 
G01 X-52.9132 Y33.9404 
G01 X-52.9477 Y34.0237 
G01 X-52.9828 Y34.2001 
G00 Z2.0000 
G00 X-52.9828 Y36.7401 
G01 Z-0.0250 F254.00 
G01 X-52.9828 Y36.7500 F508.00 
G01 X-54.2997 Y36.7500 
G01 X-54.3916 Y36.7881 
G01 X-54.4619 Y36.8584 
G01 X-54.5000 Y36.9503 
G01 X-54.5000 Y56.7997 
G01 X-54.4619 Y56.8916 
G01 X-54.3916 Y56.9619 
G01 X-52.6416 Y58.7119 
G01 X-52.5497 Y58.7500 
G01 X-36.2003 Y58.7500 
G01 X-36.1084 Y58.7119 
G01 X-36.0381 Y58.6416 
G01 X-35.3964 Y58.0000 
G01 X-22.2003 Y58.0000 
G01 X-22.1084 Y57.9619 
G01 X-22.0381 Y57.8916 
G01 X-17.6464 Y53.5000 
G01 X-10.2003 Y53.5000 
G01 X-10.1084 Y53.4619 
G01 X-10.0381 Y53.3916 
G01 X-10.0000 Y53.2997 
G01 X-10.0000 Y49.1036 
G01 X-9.3964 Y48.5000 
G01 X-6.4800 Y48.5000 
G01 X-6.4800 Y48.8799 
G01 X-6.4648 Y48.9166 
G01 X-6.4366 Y48.9448 
G01 X-6.3999 Y48.9600 
G01 X-5.5601 Y48.9600 
G01 X-5.5234 Y48.9448 
G01 X-5.4952 Y48.9166 
G01 X-5.4800 Y48.8799 
G01 X-5.4800 Y47.6401 
G01 X-5.4952 Y47.6034 
G01 X-5.5234 Y47.5752 
G01 X-5.5601 Y47.5600 
G01 X-6.3999 Y47.5600 
G01 X-6.4366 Y47.5752 
G01 X-6.4648 Y47.6034 
G01 X-6.4800 Y47.6401 
G01 X-6.4800 Y48.0000 
G01 X-9.5497 Y48.0000 
G01 X-9.6416 Y48.0381 
G01 X-10.3916 Y48.7881 
G01 X-10.4619 Y48.8584 
G01 X-10.5000 Y48.9503 
G01 X-10.5000 Y53.0000 
G01 X-17.7997 Y53.0000 
G01 X-17.8916 Y53.0381 
G01 X-22.3536 Y57.5000 
G01 X-35.5497 Y57.5000 
G01 X-35.6416 Y57.5381 
G01 X-36.3536 Y58.2500 
G01 X-52.3964 Y58.2500 
G01 X-54.0000 Y56.6464 
G01 X-54.0000 Y37.2500 
G01 X-52.8840 Y37.2500 
G01 X-52.8789 Y37.2624 
G01 X-52.7790 Y37.4119 
G01 X-52.6519 Y37.5390 
G01 X-52.5024 Y37.6389 
G01 X-52.3363 Y37.7077 
G01 X-52.1599 Y37.7428 
G01 X-51.9801 Y37.7428 
G01 X-51.8037 Y37.7077 
G01 X-51.6376 Y37.6389 
G01 X-51.4881 Y37.5390 
G01 X-51.3610 Y37.4119 
G01 X-51.2611 Y37.2624 
G01 X-51.1923 Y37.0963 
G01 X-51.1572 Y36.9199 
G01 X-51.1572 Y36.7401 
G01 X-51.1923 Y36.5637 
G01 X-51.2611 Y36.3976 
G01 X-51.3610 Y36.2481 
G01 X-51.4881 Y36.1210 
G01 X-51.6376 Y36.0211 
G01 X-51.8037 Y35.9523 
G01 X-51.9801 Y35.9172 
G01 X-52.1599 Y35.9172 
G01 X-52.3363 Y35.9523 
G01 X-52.5024 Y36.0211 
G01 X-52.6519 Y36.1210 
G01 X-52.7790 Y36.2481 
G01 X-52.8789 Y36.3976 
G01 X-52.9477 Y36.5637 
G01 X-52.9828 Y36.7401 
G00 Z2.0000 
G00 X-52.9828 Y39.2801 
G01 Z-0.0250 F254.00 
G01 X-52.9828 Y39.4599 F508.00 
G01 X-52.9477 Y39.6363 
G01 X-52.8789 Y39.8024 
G01 X-52.7790 Y39.9519 
G01 X-52.6519 Y40.0790 
G01 X-52.5024 Y40.1789 
G01 X-52.3363 Y40.2477 
G01 X-52.1599 Y40.2828 
G01 X-51.9801 Y40.2828 
G01 X-51.8037 Y40.2477 
G01 X-51.6376 Y40.1789 
G01 X-51.4881 Y40.0790 
G01 X-51.3610 Y39.9519 
G01 X-51.2611 Y39.8024 
G01 X-51.1923 Y39.6363 
G01 X-51.1572 Y39.4599 
G01 X-51.1572 Y39.2801 
G01 X-51.1923 Y39.1037 
G01 X-51.2611 Y38.9376 
G01 X-51.2903 Y38.8939 
G01 X-49.7153 Y37.3189 
G01 X-49.6773 Y37.3346 
G01 X-49.5599 Y37.3580 
G01 X-49.4401 Y37.3580 
G01 X-49.3227 Y37.3346 
G01 X-49.2120 Y37.2888 
G01 X-49.1124 Y37.2223 
G01 X-49.0277 Y37.1376 
G01 X-48.9612 Y37.0380 
G01 X-48.9154 Y36.9273 
G01 X-48.8920 Y36.8099 
G01 X-48.8920 Y36.6901 
G01 X-48.9154 Y36.5727 
G01 X-48.9612 Y36.4620 
G01 X-49.0277 Y36.3624 
G01 X-49.1124 Y36.2777 
G01 X-49.2120 Y36.2112 
G01 X-49.3227 Y36.1654 
G01 X-49.4401 Y36.1420 
G01 X-49.5599 Y36.1420 
G01 X-49.6773 Y36.1654 
G01 X-49.7880 Y36.2112 
G01 X-49.8876 Y36.2777 
G01 X-49.9723 Y36.3624 
G01 X-50.0388 Y36.4620 
G01 X-50.0846 Y36.5727 
G01 X-50.1080 Y36.6901 
G01 X-50.1080 Y36.8099 
G01 X-50.0846 Y36.9273 
G01 X-50.0689 Y36.9653 
G01 X-51.6567 Y38.5532 
G01 X-51.8037 Y38.4923 
G01 X-51.9801 Y38.4572 
G01 X-52.1599 Y38.4572 
G01 X-52.3363 Y38.4923 
G01 X-52.5024 Y38.5611 
G01 X-52.6519 Y38.6610 
G01 X-52.7790 Y38.7881 
G01 X-52.8789 Y38.9376 
G01 X-52.9477 Y39.1037 
G01 X-52.9828 Y39.2801 
G00 Z2.0000 
G00 X-52.9828 Y41.8201 
G01 Z-0.0250 F254.00 
G01 X-52.9828 Y41.9999 F508.00 
G01 X-52.9477 Y42.1763 
G01 X-52.8789 Y42.3424 
G01 X-52.7790 Y42.4919 
G01 X-52.6519 Y42.6190 
G01 X-52.5024 Y42.7189 
G01 X-52.3363 Y42.7877 
G01 X-52.1599 Y42.8228 
G01 X-51.9801 Y42.8228 
G01 X-51.8037 Y42.7877 
G01 X-51.6376 Y42.7189 
G01 X-51.4881 Y42.6190 
G01 X-51.3610 Y42.4919 
G01 X-51.2611 Y42.3424 
G01 X-51.1923 Y42.1763 
G01 X-51.1572 Y41.9999 
G01 X-51.1572 Y41.8201 
G01 X-51.1923 Y41.6437 
G01 X-51.2611 Y41.4776 
G01 X-51.3063 Y41.4099 
G01 X-42.9653 Y33.0689 
G01 X-42.9273 Y33.0846 
G01 X-42.8099 Y33.1080 
G01 X-42.6901 Y33.1080 
G01 X-42.5727 Y33.0846 
G01 X-42.4620 Y33.0388 
G01 X-42.3624 Y32.9723 
G01 X-42.2777 Y32.8876 
G01 X-42.2112 Y32.7880 
G01 X-42.1654 Y32.6773 
G01 X-42.1420 Y32.5599 
G01 X-42.1420 Y32.4401 
G01 X-42.1654 Y32.3227 
G01 X-42.2112 Y32.2120 
G01 X-42.2777 Y32.1124 
G01 X-42.3624 Y32.0277 
G01 X-42.4620 Y31.9612 
G01 X-42.5727 Y31.9154 
G01 X-42.6901 Y31.8920 
G01 X-42.8099 Y31.8920 
G01 X-42.9273 Y31.9154 
G01 X-43.0380 Y31.9612 
G01 X-43.1376 Y32.0277 
G01 X-43.2223 Y32.1124 
G01 X-43.2888 Y32.2120 
G01 X-43.3346 Y32.3227 
G01 X-43.3580 Y32.4401 
G01 X-43.3580 Y32.5599 
G01 X-43.3346 Y32.6773 
G01 X-43.3189 Y32.7153 
G01 X-51.6850 Y41.0815 
G01 X-51.8037 Y41.0323 
G01 X-51.9801 Y40.9972 
G01 X-52.1599 Y40.9972 
G01 X-52.3363 Y41.0323 
G01 X-52.5024 Y41.1011 
G01 X-52.6519 Y41.2010 
G01 X-52.7790 Y41.3281 
G01 X-52.8789 Y41.4776 
G01 X-52.9477 Y41.6437 
G01 X-52.9828 Y41.8201 
G00 Z2.0000 
G00 X-52.9828 Y44.3601 
G01 Z-0.0250 F254.00 
G01 X-52.9828 Y44.5399 F508.00 
G01 X-52.9477 Y44.7163 
G01 X-52.8789 Y44.8824 
G01 X-52.7790 Y45.0319 
G01 X-52.6519 Y45.1590 
G01 X-52.5024 Y45.2589 
G01 X-52.3363 Y45.3277 
G01 X-52.1599 Y45.3628 
G01 X-51.9801 Y45.3628 
G01 X-51.8037 Y45.3277 
G01 X-51.6376 Y45.2589 
G01 X-51.4881 Y45.1590 
G01 X-51.3610 Y45.0319 
G01 X-51.2611 Y44.8824 
G01 X-51.1923 Y44.7163 
G01 X-51.1572 Y44.5399 
G01 X-51.1572 Y44.3601 
G01 X-51.1923 Y44.1837 
G01 X-51.2611 Y44.0176 
G01 X-51.3224 Y43.9259 
G01 X-44.7153 Y37.3189 
G01 X-44.6773 Y37.3346 
G01 X-44.5599 Y37.3580 
G01 X-44.4401 Y37.3580 
G01 X-44.3227 Y37.3346 
G01 X-44.2120 Y37.2888 
G01 X-44.1124 Y37.2223 
G01 X-44.0277 Y37.1376 
G01 X-43.9612 Y37.0380 
G01 X-43.9154 Y36.9273 
G01 X-43.8920 Y36.8099 
G01 X-43.8920 Y36.6901 
G01 X-43.9154 Y36.5727 
G01 X-43.9612 Y36.4620 
G01 X-44.0277 Y36.3624 
G01 X-44.1124 Y36.2777 
G01 X-44.2120 Y36.2112 
G01 X-44.3227 Y36.1654 
G01 X-44.4401 Y36.1420 
G01 X-44.5599 Y36.1420 
G01 X-44.6773 Y36.1654 
G01 X-44.7880 Y36.2112 
G01 X-44.8876 Y36.2777 
G01 X-44.9723 Y36.3624 
G01 X-45.0388 Y36.4620 
G01 X-45.0846 Y36.5727 
G01 X-45.1080 Y36.6901 
G01 X-45.1080 Y36.8099 
G01 X-45.0846 Y36.9273 
G01 X-45.0689 Y36.9653 
G01 X-51.7133 Y43.6097 
G01 X-51.8037 Y43.5723 
G01 X-51.9801 Y43.5372 
G01 X-52.1599 Y43.5372 
G01 X-52.3363 Y43.5723 
G01 X-52.5024 Y43.6411 
G01 X-52.6519 Y43.7410 
G01 X-52.7790 Y43.8681 
G01 X-52.8789 Y44.0176 
G01 X-52.9477 Y44.1837 
G01 X-52.9828 Y44.3601 
G00 Z2.0000 
G00 X-52.9828 Y46.9001 
G01 Z-0.0250 F254.00 
G01 X-52.9828 Y47.0799 F508.00 
G01 X-52.9477 Y47.2563 
G01 X-52.8789 Y47.4224 
G01 X-52.7790 Y47.5719 
G01 X-52.6519 Y47.6990 
G01 X-52.5024 Y47.7989 
G01 X-52.3363 Y47.8677 
G01 X-52.1599 Y47.9028 
G01 X-51.9801 Y47.9028 
G01 X-51.8037 Y47.8677 
G01 X-51.6376 Y47.7989 
G01 X-51.4881 Y47.6990 
G01 X-51.3610 Y47.5719 
G01 X-51.2611 Y47.4224 
G01 X-51.1923 Y47.2563 
G01 X-51.1572 Y47.0799 
G01 X-51.1572 Y46.9001 
G01 X-51.1923 Y46.7237 
G01 X-51.2611 Y46.5576 
G01 X-51.3610 Y46.4081 
G01 X-51.4881 Y46.2810 
G01 X-51.6376 Y46.1811 
G01 X-51.8037 Y46.1123 
G01 X-51.9801 Y46.0772 
G01 X-52.1599 Y46.0772 
G01 X-52.3363 Y46.1123 
G01 X-52.5024 Y46.1811 
G01 X-52.6519 Y46.2810 
G01 X-52.7790 Y46.4081 
G01 X-52.8789 Y46.5576 
G01 X-52.9477 Y46.7237 
G01 X-52.9828 Y46.9001 
G00 Z2.0000 
G00 X-52.9828 Y49.4401 
G01 Z-0.0250 F254.00 
G01 X-52.9828 Y49.6199 F508.00 
G01 X-52.9477 Y49.7963 
G01 X-52.8789 Y49.9624 
G01 X-52.7790 Y50.1119 
G01 X-52.6519 Y50.2390 
G01 X-52.5024 Y50.3389 
G01 X-52.3363 Y50.4077 
G01 X-52.1599 Y50.4428 
G01 X-51.9801 Y50.4428 
G01 X-51.8037 Y50.4077 
G01 X-51.6376 Y50.3389 
G01 X-51.4881 Y50.2390 
G01 X-51.3610 Y50.1119 
G01 X-51.2611 Y49.9624 
G01 X-51.1923 Y49.7963 
G01 X-51.1572 Y49.6199 
G01 X-51.1572 Y49.4401 
G01 X-51.1923 Y49.2637 
G01 X-51.2611 Y49.0976 
G01 X-51.3610 Y48.9481 
G01 X-51.4881 Y48.8210 
G01 X-51.6376 Y48.7211 
G01 X-51.8037 Y48.6523 
G01 X-51.9801 Y48.6172 
G01 X-52.1599 Y48.6172 
G01 X-52.3363 Y48.6523 
G01 X-52.5024 Y48.7211 
G01 X-52.6519 Y48.8210 
G01 X-52.7790 Y48.9481 
G01 X-52.8789 Y49.0976 
G01 X-52.9477 Y49.2637 
G01 X-52.9828 Y49.4401 
G00 Z2.0000 
G00 X-52.9828 Y57.0601 
G01 Z-0.0250 F254.00 
G01 X-52.9828 Y57.2399 F508.00 
G01 X-52.9477 Y57.4163 
G01 X-52.8789 Y57.5824 
G01 X-52.7790 Y57.7319 
G01 X-52.6519 Y57.8590 
G01 X-52.5024 Y57.9589 
G01 X-52.3363 Y58.0277 
G01 X-52.1599 Y58.0628 
G01 X-51.9801 Y58.0628 
G01 X-51.8037 Y58.0277 
G01 X-51.6376 Y57.9589 
G01 X-51.4881 Y57.8590 
G01 X-51.3610 Y57.7319 
G01 X-51.2611 Y57.5824 
G01 X-51.1923 Y57.4163 
G01 X-51.1572 Y57.2399 
G01 X-51.1572 Y57.0601 
G01 X-51.1923 Y56.8837 
G01 X-51.2611 Y56.7176 
G01 X-51.3610 Y56.5681 
G01 X-51.4881 Y56.4410 
G01 X-51.6376 Y56.3411 
G01 X-51.8037 Y56.2723 
G01 X-51.9801 Y56.2372 
G01 X-52.1599 Y56.2372 
G01 X-52.3363 Y56.2723 
G01 X-52.5024 Y56.3411 
G01 X-52.6519 Y56.4410 
G01 X-52.7790 Y56.5681 
G01 X-52.8789 Y56.7176 
G01 X-52.9477 Y56.8837 
G01 X-52.9828 Y57.0601 
G00 Z2.0000 
G00 X-27.2344 Y61.0215 
G01 Z-0.0250 F254.00 
G01 X-27.2651 Y60.9474 F508.00 
G01 X-27.3218 Y60.8907 
G01 X-27.3959 Y60.8600 
G01 X-27.4761 Y60.8600 
G01 X-27.5502 Y60.8907 
G01 X-27.6069 Y60.9474 
G01 X-27.6376 Y61.0215 
G01 X-27.6376 Y63.4405 
G01 X-27.6069 Y63.5146 
G01 X-27.5502 Y63.5713 
G01 X-27.4782 Y63.6011 
G01 X-27.3959 Y63.6020 
G01 X-27.3218 Y63.5713 
G01 X-27.3154 Y63.5649 
G01 X-27.2651 Y63.5146 
G01 X-26.6564 Y62.9059 
G01 X-26.0477 Y63.5146 
G01 X-25.9910 Y63.5713 
G01 X-25.9169 Y63.6020 
G01 X-25.8367 Y63.6020 
G01 X-25.7626 Y63.5713 
G01 X-25.7059 Y63.5146 
G01 X-25.6752 Y63.4405 
G01 X-25.6752 Y61.0215 
G01 X-25.7059 Y60.9474 
G01 X-25.7626 Y60.8907 
G01 X-25.8367 Y60.8600 
G01 X-25.9169 Y60.8600 
G01 X-25.9910 Y60.8907 
G01 X-26.0477 Y60.9474 
G01 X-26.0784 Y61.0215 
G01 X-26.0784 Y62.9137 
G01 X-26.5422 Y62.4499 
G01 X-26.6163 Y62.4192 
G01 X-26.6965 Y62.4192 
G01 X-26.7706 Y62.4499 
G01 X-26.8273 Y62.5066 
G01 X-27.2344 Y62.9137 
G01 X-27.2344 Y61.0215 
G00 Z2.0000 
G00 X-28.0447 Y63.1248 
G01 Z-0.0250 F254.00 
G01 X-28.0140 Y63.0507 F508.00 
G01 X-28.0140 Y62.9705 
G01 X-28.0447 Y62.8964 
G01 X-28.1014 Y62.8397 
G01 X-28.1755 Y62.8090 
G01 X-28.2557 Y62.8090 
G01 X-28.3298 Y62.8397 
G01 X-28.6889 Y63.1988 
G01 X-29.3015 Y63.1988 
G01 X-29.5732 Y62.9271 
G01 X-29.5732 Y62.7043 
G01 X-29.3015 Y62.4326 
G01 X-28.5653 Y62.4326 
G01 X-28.4912 Y62.4019 
G01 X-28.1014 Y62.0121 
G01 X-28.0447 Y61.9554 
G01 X-28.0140 Y61.8813 
G01 X-28.0140 Y61.4113 
G01 X-28.0447 Y61.3372 
G01 X-28.0481 Y61.3338 
G01 X-28.1014 Y61.2805 
G01 X-28.4345 Y60.9474 
G01 X-28.4912 Y60.8907 
G01 X-28.5653 Y60.8600 
G01 X-29.4251 Y60.8600 
G01 X-29.4992 Y60.8907 
G01 X-29.9457 Y61.3372 
G01 X-29.9764 Y61.4113 
G01 X-29.9764 Y61.4915 
G01 X-29.9457 Y61.5656 
G01 X-29.8890 Y61.6223 
G01 X-29.8149 Y61.6530 
G01 X-29.7347 Y61.6530 
G01 X-29.6606 Y61.6223 
G01 X-29.3015 Y61.2632 
G01 X-28.6889 Y61.2632 
G01 X-28.4172 Y61.5349 
G01 X-28.4172 Y61.7577 
G01 X-28.6889 Y62.0294 
G01 X-29.4251 Y62.0294 
G01 X-29.4992 Y62.0601 
G01 X-29.5559 Y62.1168 
G01 X-29.8890 Y62.4499 
G01 X-29.9457 Y62.5066 
G01 X-29.9755 Y62.5786 
G01 X-29.9764 Y63.0507 
G01 X-29.9457 Y63.1248 
G01 X-29.8890 Y63.1815 
G01 X-29.5559 Y63.5146 
G01 X-29.5026 Y63.5679 
G01 X-29.4992 Y63.5713 
G01 X-29.4251 Y63.6020 
G01 X-28.5653 Y63.6020 
G01 X-28.4912 Y63.5713 
G01 X-28.4345 Y63.5146 
G01 X-28.0447 Y63.1248 
G00 Z2.0000 
G00 X-30.5143 Y62.0294 
G01 Z-0.0250 F254.00 
G01 X-32.1537 Y62.0294 F508.00 
G01 X-32.2278 Y62.0601 
G01 X-32.2845 Y62.1168 
G01 X-32.3152 Y62.1909 
G01 X-32.3152 Y62.2711 
G01 X-32.2845 Y62.3452 
G01 X-32.2278 Y62.4019 
G01 X-32.1537 Y62.4326 
G01 X-30.5143 Y62.4326 
G01 X-30.4402 Y62.4019 
G01 X-30.3835 Y62.3452 
G01 X-30.3528 Y62.2711 
G01 X-30.3528 Y62.1909 
G01 X-30.3835 Y62.1168 
G01 X-30.4402 Y62.0601 
G01 X-30.5143 Y62.0294 
G00 Z2.0000 
G00 X-34.6540 Y61.0215 
G01 Z-0.0250 F254.00 
G01 X-34.6540 Y63.4405 F508.00 
G01 X-34.6233 Y63.5146 
G01 X-34.5666 Y63.5713 
G01 X-34.4925 Y63.6020 
G01 X-34.4123 Y63.6020 
G01 X-34.3382 Y63.5713 
G01 X-34.2815 Y63.5146 
G01 X-34.2508 Y63.4405 
G01 X-34.2508 Y62.3279 
G01 X-34.2335 Y62.3452 
G01 X-34.1768 Y62.4019 
G01 X-33.0074 Y63.5713 
G01 X-32.9333 Y63.6020 
G01 X-32.8531 Y63.6020 
G01 X-32.7790 Y63.5713 
G01 X-32.7223 Y63.5146 
G01 X-32.6916 Y63.4405 
G01 X-32.6916 Y63.3603 
G01 X-32.7223 Y63.2862 
G01 X-33.7775 Y62.2310 
G01 X-32.7223 Y61.1758 
G01 X-32.6916 Y61.1017 
G01 X-32.6916 Y61.0215 
G01 X-32.7223 Y60.9474 
G01 X-32.7790 Y60.8907 
G01 X-32.8531 Y60.8600 
G01 X-32.9333 Y60.8600 
G01 X-33.0074 Y60.8907 
G01 X-34.0626 Y61.9459 
G01 X-34.2508 Y61.7577 
G01 X-34.2508 Y61.0215 
G01 X-34.2815 Y60.9474 
G01 X-34.3382 Y60.8907 
G01 X-34.4123 Y60.8600 
G01 X-34.4925 Y60.8600 
G01 X-34.5666 Y60.8907 
G01 X-34.6233 Y60.9474 
G01 X-34.6540 Y61.0215 
G00 Z2.0000 
G00 X-37.3999 Y63.1248 
G01 Z-0.0250 F254.00 
G01 X-37.3692 Y63.0507 F508.00 
G01 X-37.3692 Y62.9705 
G01 X-37.3999 Y62.8964 
G01 X-37.4566 Y62.8397 
G01 X-37.5307 Y62.8090 
G01 X-37.6109 Y62.8090 
G01 X-37.6850 Y62.8397 
G01 X-38.0441 Y63.1988 
G01 X-38.6567 Y63.1988 
G01 X-38.9284 Y62.9271 
G01 X-38.9284 Y61.5349 
G01 X-38.6567 Y61.2632 
G01 X-38.0441 Y61.2632 
G01 X-37.6850 Y61.6223 
G01 X-37.6109 Y61.6530 
G01 X-37.5307 Y61.6530 
G01 X-37.4566 Y61.6223 
G01 X-37.3999 Y61.5656 
G01 X-37.3692 Y61.4915 
G01 X-37.3692 Y61.4113 
G01 X-37.3999 Y61.3372 
G01 X-37.7897 Y60.9474 
G01 X-37.8464 Y60.8907 
G01 X-37.9184 Y60.8609 
G01 X-38.7803 Y60.8600 
G01 X-38.8544 Y60.8907 
G01 X-38.9111 Y60.9474 
G01 X-39.3009 Y61.3372 
G01 X-39.3316 Y61.4113 
G01 X-39.3316 Y63.0507 
G01 X-39.3009 Y63.1248 
G01 X-39.2442 Y63.1815 
G01 X-38.9111 Y63.5146 
G01 X-38.8578 Y63.5679 
G01 X-38.8544 Y63.5713 
G01 X-38.7803 Y63.6020 
G01 X-37.9205 Y63.6020 
G01 X-37.8464 Y63.5713 
G01 X-37.7897 Y63.5146 
G01 X-37.3999 Y63.1248 
G00 Z2.0000 
G00 X-36.9928 Y63.4405 
G01 Z-0.0250 F254.00 
G01 X-36.9621 Y63.5146 F508.00 
G01 X-36.9054 Y63.5713 
G01 X-36.8313 Y63.6020 
G01 X-36.7511 Y63.6020 
G01 X-36.6770 Y63.5713 
G01 X-36.6203 Y63.5146 
G01 X-36.5896 Y63.4405 
G01 X-36.5896 Y61.2632 
G01 X-35.1919 Y61.2632 
G01 X-35.1178 Y61.2325 
G01 X-35.0611 Y61.1758 
G01 X-35.0304 Y61.1017 
G01 X-35.0304 Y61.0215 
G01 X-35.0611 Y60.9474 
G01 X-35.1178 Y60.8907 
G01 X-35.1919 Y60.8600 
G01 X-36.8313 Y60.8600 
G01 X-36.9054 Y60.8907 
G01 X-36.9621 Y60.9474 
G01 X-36.9928 Y61.0215 
G01 X-36.9928 Y61.1017 
G01 X-36.9928 Y63.4405 
G00 Z2.0000 
G00 X-23.4979 Y61.2632 
G01 Z-0.0250 F254.00 
G01 X-23.4238 Y61.2325 F508.00 
G01 X-23.3671 Y61.1758 
G01 X-23.3364 Y61.1017 
G01 X-23.3364 Y61.0215 
G01 X-23.3671 Y60.9474 
G01 X-23.4238 Y60.8907 
G01 X-23.4979 Y60.8600 
G01 X-25.1373 Y60.8600 
G01 X-25.2114 Y60.8907 
G01 X-25.2681 Y60.9474 
G01 X-25.2988 Y61.0215 
G01 X-25.2988 Y61.1017 
G01 X-25.2681 Y61.1758 
G01 X-23.7396 Y62.7043 
G01 X-23.7396 Y62.9271 
G01 X-24.0113 Y63.1988 
G01 X-24.6239 Y63.1988 
G01 X-24.9830 Y62.8397 
G01 X-25.0571 Y62.8090 
G01 X-25.1373 Y62.8090 
G01 X-25.2114 Y62.8397 
G01 X-25.2681 Y62.8964 
G01 X-25.2988 Y62.9705 
G01 X-25.2988 Y63.0507 
G01 X-25.2681 Y63.1248 
G01 X-24.8783 Y63.5146 
G01 X-24.8251 Y63.5679 
G01 X-24.8216 Y63.5713 
G01 X-24.7475 Y63.6020 
G01 X-23.8877 Y63.6020 
G01 X-23.8136 Y63.5713 
G01 X-23.7569 Y63.5146 
G01 X-23.3671 Y63.1248 
G01 X-23.3364 Y63.0507 
G01 X-23.3364 Y62.5807 
G01 X-23.3671 Y62.5066 
G01 X-23.4238 Y62.4499 
G01 X-24.6105 Y61.2632 
G01 X-23.4979 Y61.2632 
G00 Z2.0000 
G00 X-15.6036 Y46.5000 
G01 Z-0.0250 F254.00 
G01 X-36.0596 Y46.5000 F508.00 
G01 X-36.1210 Y46.4081 
G01 X-36.2481 Y46.2810 
G01 X-36.3976 Y46.1811 
G01 X-36.5637 Y46.1123 
G01 X-36.7401 Y46.0772 
G01 X-36.9199 Y46.0772 
G01 X-37.0963 Y46.1123 
G01 X-37.2624 Y46.1811 
G01 X-37.4119 Y46.2810 
G01 X-37.5390 Y46.4081 
G01 X-37.6389 Y46.5576 
G01 X-37.7077 Y46.7237 
G01 X-37.7428 Y46.9001 
G01 X-37.7428 Y47.0799 
G01 X-37.7077 Y47.2563 
G01 X-37.6389 Y47.4224 
G01 X-37.5390 Y47.5719 
G01 X-37.4119 Y47.6990 
G01 X-37.2624 Y47.7989 
G01 X-37.0963 Y47.8677 
G01 X-36.9199 Y47.9028 
G01 X-36.7401 Y47.9028 
G01 X-36.5637 Y47.8677 
G01 X-36.3976 Y47.7989 
G01 X-36.2481 Y47.6990 
G01 X-36.1210 Y47.5719 
G01 X-36.0211 Y47.4224 
G01 X-35.9523 Y47.2563 
G01 X-35.9172 Y47.0799 
G01 X-35.9172 Y47.0000 
G01 X-15.4503 Y47.0000 
G01 X-15.3584 Y46.9619 
G01 X-15.2881 Y46.8916 
G01 X-14.9653 Y46.5689 
G01 X-14.9273 Y46.5846 
G01 X-14.8099 Y46.6080 
G01 X-14.6901 Y46.6080 
G01 X-14.5727 Y46.5846 
G01 X-14.4620 Y46.5388 
G01 X-14.3624 Y46.4723 
G01 X-14.2777 Y46.3876 
G01 X-14.2112 Y46.2880 
G01 X-14.1654 Y46.1773 
G01 X-14.1420 Y46.0599 
G01 X-14.1420 Y45.9401 
G01 X-14.1654 Y45.8227 
G01 X-14.2112 Y45.7120 
G01 X-14.2777 Y45.6124 
G01 X-14.3624 Y45.5277 
G01 X-14.4620 Y45.4612 
G01 X-14.5727 Y45.4154 
G01 X-14.6901 Y45.3920 
G01 X-14.8099 Y45.3920 
G01 X-14.9273 Y45.4154 
G01 X-15.0380 Y45.4612 
G01 X-15.1376 Y45.5277 
G01 X-15.2223 Y45.6124 
G01 X-15.2888 Y45.7120 
G01 X-15.3346 Y45.8227 
G01 X-15.3580 Y45.9401 
G01 X-15.3580 Y46.0599 
G01 X-15.3346 Y46.1773 
G01 X-15.3189 Y46.2153 
G01 X-15.6036 Y46.5000 
G00 Z2.0000 
G00 X-25.2881 Y36.8584 
G01 Z-0.0250 F254.00 
G01 X-25.3584 Y36.7881 F508.00 
G01 X-25.4503 Y36.7500 
G01 X-35.9172 Y36.7500 
G01 X-35.9172 Y36.7401 
G01 X-35.9523 Y36.5637 
G01 X-36.0211 Y36.3976 
G01 X-36.1210 Y36.2481 
G01 X-36.2481 Y36.1210 
G01 X-36.3976 Y36.0211 
G01 X-36.5637 Y35.9523 
G01 X-36.7401 Y35.9172 
G01 X-36.9199 Y35.9172 
G01 X-37.0963 Y35.9523 
G01 X-37.2624 Y36.0211 
G01 X-37.4119 Y36.1210 
G01 X-37.5390 Y36.2481 
G01 X-37.6389 Y36.3976 
G01 X-37.7077 Y36.5637 
G01 X-37.7428 Y36.7401 
G01 X-37.7428 Y36.9199 
G01 X-37.7077 Y37.0963 
G01 X-37.6389 Y37.2624 
G01 X-37.5390 Y37.4119 
G01 X-37.4119 Y37.5390 
G01 X-37.2624 Y37.6389 
G01 X-37.0963 Y37.7077 
G01 X-36.9199 Y37.7428 
G01 X-36.7401 Y37.7428 
G01 X-36.5637 Y37.7077 
G01 X-36.3976 Y37.6389 
G01 X-36.2481 Y37.5390 
G01 X-36.1210 Y37.4119 
G01 X-36.0211 Y37.2624 
G01 X-36.0160 Y37.2500 
G01 X-25.6036 Y37.2500 
G01 X-17.3189 Y45.5347 
G01 X-17.3346 Y45.5727 
G01 X-17.3580 Y45.6901 
G01 X-17.3580 Y45.8099 
G01 X-17.3346 Y45.9273 
G01 X-17.2888 Y46.0380 
G01 X-17.2223 Y46.1376 
G01 X-17.1376 Y46.2223 
G01 X-17.0380 Y46.2888 
G01 X-16.9273 Y46.3346 
G01 X-16.8099 Y46.3580 
G01 X-16.6901 Y46.3580 
G01 X-16.5726 Y46.3346 
G01 X-16.4620 Y46.2888 
G01 X-16.3624 Y46.2223 
G01 X-16.2777 Y46.1376 
G01 X-16.2112 Y46.0380 
G01 X-16.1654 Y45.9273 
G01 X-16.1420 Y45.8099 
G01 X-16.1420 Y45.6901 
G01 X-16.1654 Y45.5727 
G01 X-16.2112 Y45.4620 
G01 X-16.2777 Y45.3624 
G01 X-16.3624 Y45.2777 
G01 X-16.4620 Y45.2112 
G01 X-16.5726 Y45.1654 
G01 X-16.6901 Y45.1420 
G01 X-16.8099 Y45.1420 
G01 X-16.9273 Y45.1654 
G01 X-16.9653 Y45.1811 
G01 X-25.2881 Y36.8584 
G00 Z2.0000 
G00 X-43.8536 Y28.7500 
G01 Z-0.0250 F254.00 
G01 X-51.2795 Y28.7500 F508.00 
G01 X-51.3610 Y28.6281 
G01 X-51.4881 Y28.5010 
G01 X-51.6376 Y28.4011 
G01 X-51.8037 Y28.3323 
G01 X-51.9801 Y28.2972 
G01 X-52.1599 Y28.2972 
G01 X-52.3363 Y28.3323 
G01 X-52.5024 Y28.4011 
G01 X-52.6519 Y28.5010 
G01 X-52.7790 Y28.6281 
G01 X-52.8789 Y28.7776 
G01 X-52.9477 Y28.9437 
G01 X-52.9828 Y29.1201 
G01 X-52.9828 Y29.2999 
G01 X-52.9477 Y29.4763 
G01 X-52.8789 Y29.6424 
G01 X-52.7790 Y29.7919 
G01 X-52.6519 Y29.9190 
G01 X-52.5024 Y30.0189 
G01 X-52.3363 Y30.0877 
G01 X-52.1599 Y30.1228 
G01 X-51.9801 Y30.1228 
G01 X-51.8037 Y30.0877 
G01 X-51.6376 Y30.0189 
G01 X-51.4881 Y29.9190 
G01 X-51.3610 Y29.7919 
G01 X-51.2611 Y29.6424 
G01 X-51.1923 Y29.4763 
G01 X-51.1572 Y29.2999 
G01 X-51.1572 Y29.2500 
G01 X-43.7003 Y29.2500 
G01 X-43.6084 Y29.2119 
G01 X-43.5381 Y29.1416 
G01 X-41.7153 Y27.3189 
G01 X-41.6773 Y27.3346 
G01 X-41.5599 Y27.3580 
G01 X-41.4401 Y27.3580 
G01 X-41.3227 Y27.3346 
G01 X-41.2120 Y27.2888 
G01 X-41.1124 Y27.2223 
G01 X-41.0277 Y27.1376 
G01 X-40.9612 Y27.0380 
G01 X-40.9154 Y26.9273 
G01 X-40.8920 Y26.8099 
G01 X-40.8920 Y26.6901 
G01 X-40.9154 Y26.5727 
G01 X-40.9612 Y26.4620 
G01 X-41.0277 Y26.3624 
G01 X-41.1124 Y26.2777 
G01 X-41.2120 Y26.2112 
G01 X-41.3227 Y26.1654 
G01 X-41.4401 Y26.1420 
G01 X-41.5599 Y26.1420 
G01 X-41.6773 Y26.1654 
G01 X-41.7880 Y26.2112 
G01 X-41.8876 Y26.2777 
G01 X-41.9723 Y26.3624 
G01 X-42.0388 Y26.4620 
G01 X-42.0846 Y26.5727 
G01 X-42.1080 Y26.6901 
G01 X-42.1080 Y26.8099 
G01 X-42.0846 Y26.9273 
G01 X-42.0689 Y26.9653 
G01 X-43.8536 Y28.7500 
G00 Z2.0000 
G00 X-23.3964 Y17.0000 
G01 Z-0.0250 F254.00 
G01 X-14.2500 Y17.0000 F508.00 
G01 X-14.2500 Y17.3999 
G01 X-14.2348 Y17.4366 
G01 X-14.2066 Y17.4648 
G01 X-14.1699 Y17.4800 
G01 X-13.1301 Y17.4800 
G01 X-13.0934 Y17.4648 
G01 X-13.0652 Y17.4366 
G01 X-13.0500 Y17.3999 
G01 X-13.0500 Y15.9601 
G01 X-13.0652 Y15.9234 
G01 X-13.0934 Y15.8952 
G01 X-13.1301 Y15.8800 
G01 X-14.1699 Y15.8800 
G01 X-14.2066 Y15.8952 
G01 X-14.2348 Y15.9234 
G01 X-14.2500 Y15.9601 
G01 X-14.2500 Y16.5000 
G01 X-23.5497 Y16.5000 
G01 X-23.6416 Y16.5381 
G01 X-23.7119 Y16.6084 
G01 X-24.2847 Y17.1811 
G01 X-24.3226 Y17.1654 
G01 X-24.4401 Y17.1420 
G01 X-24.5599 Y17.1420 
G01 X-24.6773 Y17.1654 
G01 X-24.7880 Y17.2112 
G01 X-24.8876 Y17.2777 
G01 X-24.9723 Y17.3624 
G01 X-25.0388 Y17.4620 
G01 X-25.0846 Y17.5726 
G01 X-25.1080 Y17.6901 
G01 X-25.1080 Y17.8099 
G01 X-25.0846 Y17.9273 
G01 X-25.0388 Y18.0380 
G01 X-24.9723 Y18.1376 
G01 X-24.8876 Y18.2223 
G01 X-24.7880 Y18.2888 
G01 X-24.6773 Y18.3346 
G01 X-24.5599 Y18.3580 
G01 X-24.4401 Y18.3580 
G01 X-24.3226 Y18.3346 
G01 X-24.2120 Y18.2888 
G01 X-24.1124 Y18.2223 
G01 X-24.0277 Y18.1376 
G01 X-23.9612 Y18.0380 
G01 X-23.9154 Y17.9273 
G01 X-23.8920 Y17.8099 
G01 X-23.8920 Y17.6901 
G01 X-23.9154 Y17.5726 
G01 X-23.9311 Y17.5347 
G01 X-23.3964 Y17.0000 
G00 Z2.0000 
G00 X-6.6800 Y4.9541 
G01 Z-0.0250 F254.00 
G01 X-6.6800 Y5.2059 F508.00 
G01 X-6.6406 Y5.4547 
G01 X-6.5628 Y5.6942 
G01 X-6.4484 Y5.9186 
G01 X-6.3004 Y6.1223 
G01 X-6.1223 Y6.3004 
G01 X-5.9186 Y6.4484 
G01 X-5.6942 Y6.5628 
G01 X-5.4547 Y6.6406 
G01 X-5.2059 Y6.6800 
G01 X-4.9541 Y6.6800 
G01 X-4.7053 Y6.6406 
G01 X-4.4658 Y6.5628 
G01 X-4.2414 Y6.4484 
G01 X-4.0377 Y6.3004 
G01 X-3.8596 Y6.1223 
G01 X-3.7116 Y5.9186 
G01 X-3.5972 Y5.6942 
G01 X-3.5194 Y5.4547 
G01 X-3.4800 Y5.2059 
G01 X-3.4800 Y4.9541 
G01 X-3.5194 Y4.7053 
G01 X-3.5972 Y4.4658 
G01 X-3.7116 Y4.2414 
G01 X-3.8596 Y4.0377 
G01 X-4.0377 Y3.8596 
G01 X-4.2414 Y3.7116 
G01 X-4.4658 Y3.5972 
G01 X-4.7053 Y3.5194 
G01 X-4.9541 Y3.4800 
G01 X-5.2059 Y3.4800 
G01 X-5.4547 Y3.5194 
G01 X-5.6942 Y3.5972 
G01 X-5.9186 Y3.7116 
G01 X-6.1223 Y3.8596 
G01 X-6.3004 Y4.0377 
G01 X-6.4484 Y4.2414 
G01 X-6.5628 Y4.4658 
G01 X-6.6406 Y4.7053 
G01 X-6.6800 Y4.9541 
G00 Z2.0000 
G00 X-54.9400 Y63.3741 
G01 Z-0.0250 F254.00 
G01 X-54.9400 Y63.6259 F508.00 
G01 X-54.9006 Y63.8747 
G01 X-54.8228 Y64.1142 
G01 X-54.7084 Y64.3386 
G01 X-54.5604 Y64.5423 
G01 X-54.3823 Y64.7204 
G01 X-54.1786 Y64.8684 
G01 X-53.9542 Y64.9828 
G01 X-53.7147 Y65.0606 
G01 X-53.4659 Y65.1000 
G01 X-53.2141 Y65.1000 
G01 X-52.9653 Y65.0606 
G01 X-52.7258 Y64.9828 
G01 X-52.5014 Y64.8684 
G01 X-52.2977 Y64.7204 
G01 X-52.1196 Y64.5423 
G01 X-51.9716 Y64.3386 
G01 X-51.8572 Y64.1142 
G01 X-51.7794 Y63.8747 
G01 X-51.7400 Y63.6259 
G01 X-51.7400 Y63.3741 
G01 X-51.7794 Y63.1253 
G01 X-51.8572 Y62.8858 
G01 X-51.9716 Y62.6614 
G01 X-52.1196 Y62.4577 
G01 X-52.2977 Y62.2796 
G01 X-52.5014 Y62.1316 
G01 X-52.7258 Y62.0172 
G01 X-52.9653 Y61.9394 
G01 X-53.2141 Y61.9000 
G01 X-53.4659 Y61.9000 
G01 X-53.7147 Y61.9394 
G01 X-53.9542 Y62.0172 
G01 X-54.1786 Y62.1316 
G01 X-54.3823 Y62.2796 
G01 X-54.5604 Y62.4577 
G01 X-54.7084 Y62.6614 
G01 X-54.8228 Y62.8858 
G01 X-54.9006 Y63.1253 
G01 X-54.9400 Y63.3741 
G00 Z2.0000 
G00 X-10.6000 Y59.1595 
G01 Z-0.0250 F254.00 
G01 X-10.9095 Y58.8500 F508.00 
G01 X-10.6000 Y58.8500 
G01 X-10.6000 Y59.1595 
G00 Z2.0000 
G00 X-52.3654 Y58.1239 
G01 Z-0.0250 F254.00 
G01 X-52.2341 Y58.1500 F508.00 
G01 X-52.3550 Y58.1500 
G01 X-52.3923 Y58.1128 
G01 X-52.3654 Y58.1239 
G00 Z2.0000 
G00 X-42.1000 Y31.8500 
G01 Z-0.0250 F254.00 
G01 X-42.1000 Y32.2192 F508.00 
G01 X-42.1226 Y32.1646 
G01 X-42.2001 Y32.0487 
G01 X-42.2987 Y31.9501 
G01 X-42.4146 Y31.8726 
G01 X-42.4692 Y31.8500 
G01 X-42.1000 Y31.8500 
G00 Z2.0000 
G00 X-28.1000 Y42.3550 
G01 Z-0.0250 F254.00 
G01 X-31.1450 Y45.4000 F508.00 
G01 X-36.4769 Y45.4000 
G01 X-36.3503 Y45.3475 
G01 X-36.1844 Y45.2367 
G01 X-36.0433 Y45.0956 
G01 X-35.9325 Y44.9297 
G01 X-35.8994 Y44.8500 
G01 X-31.2039 Y44.8500 
G01 X-31.1149 Y44.8261 
G01 X-31.0351 Y44.7801 
G01 X-28.9392 Y42.6842 
G01 X-28.8197 Y42.7080 
G01 X-28.6803 Y42.7080 
G01 X-28.5435 Y42.6808 
G01 X-28.4146 Y42.6274 
G01 X-28.2987 Y42.5499 
G01 X-28.2001 Y42.4513 
G01 X-28.1226 Y42.3354 
G01 X-28.1000 Y42.2808 
G01 X-28.1000 Y42.3550 
G00 Z2.0000 
G00 X-31.3594 Y44.1145 
G01 Z-0.0250 F254.00 
G01 X-31.3950 Y44.1500 F508.00 
G01 X-31.4452 Y44.1500 
G01 X-31.3594 Y44.1145 
G00 Z2.0000 
G00 X-38.3064 Y6.0273 
G01 Z-0.0250 F254.00 
G01 X-38.3064 Y4.5514 F508.00 
G01 X-37.8550 Y4.1000 
G01 X-33.2846 Y4.1000 
G01 X-33.3154 Y4.1061 
G01 X-33.4997 Y4.1825 
G01 X-33.6656 Y4.2933 
G01 X-33.8067 Y4.4344 
G01 X-33.9175 Y4.6003 
G01 X-33.9939 Y4.7846 
G01 X-34.0328 Y4.9802 
G01 X-34.0328 Y5.1798 
G01 X-33.9939 Y5.3754 
G01 X-33.9577 Y5.4627 
G01 X-35.3950 Y6.9000 
G01 X-38.9043 Y6.9000 
G01 X-38.8126 Y6.8533 
G01 X-38.6771 Y6.7549 
G01 X-38.5587 Y6.6365 
G01 X-38.4603 Y6.5010 
G01 X-38.3843 Y6.3519 
G01 X-38.3326 Y6.1927 
G01 X-38.3064 Y6.0273 
G00 Z2.0000 
G00 X-28.2961 Y6.1500 
G01 Z-0.0250 F254.00 
G01 X-28.8550 Y6.1500 F508.00 
G01 X-29.5423 Y5.4627 
G01 X-29.5061 Y5.3754 
G01 X-29.4672 Y5.1798 
G01 X-29.4672 Y4.9802 
G01 X-29.5061 Y4.7846 
G01 X-29.5825 Y4.6003 
G01 X-29.6933 Y4.4344 
G01 X-29.8344 Y4.2933 
G01 X-30.0003 Y4.1825 
G01 X-30.1846 Y4.1061 
G01 X-30.2154 Y4.1000 
G01 X-25.6646 Y4.1000 
G01 X-25.6954 Y4.1061 
G01 X-25.8797 Y4.1825 
G01 X-26.0456 Y4.2933 
G01 X-26.1867 Y4.4344 
G01 X-26.2975 Y4.6003 
G01 X-26.3739 Y4.7846 
G01 X-26.4128 Y4.9802 
G01 X-26.4128 Y5.1798 
G01 X-26.3739 Y5.3754 
G01 X-26.2975 Y5.5597 
