(.../pcb-gcode-3.6.0.4/pcb-gcode.ulp)
(Copyright 2005 - 2012 by John Johnson)
(See readme.txt for licensing terms.)
(This file generated from the board:)
(.../eagle/SulaMatikV2/SulaMatikV2.brd)
(Current profile is .../pcb-gcode-3.6.0.4/profiles/emc.pp  )
(This file generated 2/1/2015 11:56:44 PM)
(Settings from pcb-machine.h)
(  Tool Size)
(0.1000 )
(Z Axis Settings)
(  High     Up        Down     Drill)
(19.5000 	2.0000 	-0.0250 	-1.5000 )
(spindle on time = 1.0000)
(milling depth = -0.0500)
(text depth = -0.0500)
(tool change at 15.0000 15.0000 19.0000 )
(feed rate xy = F508.00 )
(feed rate z  = F254.00 )
(Settings from pcb-defaults.h)
(isolate min = 0.0500)
(isolate max = 1.0000)
(isolate step = 0.1000)
(Generated top outlines, top drill, bottom outlines, bottom drill, )
(Unit of measure: mm)
( Tool|       Size       |  Min Sub |  Max Sub |   Count )
( T01 | 0.508mm 0.0200in | 0.0000in | 0.0000in |       0 )
( T02 | 0.700mm 0.0276in | 0.0000in | 0.0000in |       0 )
( T03 | 0.813mm 0.0320in | 0.0000in | 0.0000in |       0 )
( T04 | 0.914mm 0.0360in | 0.0000in | 0.0000in |       0 )
( T05 | 1.016mm 0.0400in | 0.0000in | 0.0000in |       0 )
( T06 | 1.118mm 0.0440in | 0.0000in | 0.0000in |       0 )
( T07 | 2.000mm 0.0787in | 0.0000in | 0.0000in |       0 )
(Metric Mode)
G21
(Absolute Coordinates)
G90
M05
G00 Z19.0000 
G00 X15.0000 Y15.0000 
M06 T01 (0.5080 )
G01 Z0.0000 F254.00 
M06 T01 (0.5080 )
G00 Z2.0000 
M03
G04 P1.000000
G82 X-31.5000 Y20.2500 Z-1.5000 F254.00 R2.0000 P1.000000
G82 X-32.0000 Y8.7500 
G82 X-33.2500 Y49.5000 
G82 X-33.2500 Y51.0000 
G82 X-34.5000 Y29.5000 
G82 X-36.2500 Y10.7500 
G82 X-39.2500 Y46.0000 
G82 X-41.5000 Y26.7500 
G82 X-42.7500 Y32.5000 
G82 X-44.5000 Y36.7500 
G82 X-49.5000 Y36.7500 
G82 X-50.5000 Y16.5000 
G82 X-13.5000 Y38.0000 
G82 X-14.7500 Y46.0000 
G82 X-15.7500 Y18.7500 
G82 X-16.7500 Y45.7500 
G82 X-17.7500 Y40.2500 
G82 X-18.7500 Y37.7500 
G82 X-19.7500 Y41.2500 
G82 X-20.5000 Y5.5000 
G82 X-21.5000 Y26.2500 
G82 X-24.5000 Y59.2500 
G82 X-24.5000 Y17.7500 
G82 X-28.0000 Y11.7500 
G82 X-28.7500 Y42.0000 
M05
G00 Z19.0000 
M06 T02 (0.7000 )
G01 Z0.0000 F254.00 
M06 T02 (0.7000 )
G00 Z2.0000 
M03
G04 P1.000000
G82 X-44.0200 Y20.3200 Z-1.5000 F254.00 R2.0000 P1.000000
G82 X-47.4200 Y20.3200 
M05
G00 Z19.0000 
M06 T03 (0.8128 )
G01 Z0.0000 F254.00 
M06 T03 (0.8128 )
G00 Z2.0000 
M03
G04 P1.000000
G82 X-5.0800 Y8.8900 Z-1.5000 F254.00 R2.0000 P1.000000
G82 X-5.0800 Y11.4300 
G82 X-5.0800 Y13.9700 
G82 X-5.0800 Y16.5100 
G82 X-5.0800 Y19.0500 
G82 X-5.0800 Y21.5900 
G82 X-53.3400 Y12.7000 
G82 X-53.3400 Y15.2400 
G82 X-53.3400 Y17.7800 
G82 X-53.3400 Y20.3200 
G82 X-53.3400 Y22.8600 
G82 X-10.1600 Y63.5000 
G82 X-12.7000 Y63.5000 
G82 X-15.2400 Y63.5000 
G82 X-17.7800 Y63.5000 
G82 X-20.3200 Y63.5000 
M05
G00 Z19.0000 
M06 T04 (0.9144 )
G01 Z0.0000 F254.00 
M06 T04 (0.9144 )
G00 Z2.0000 
M03
G04 P1.000000
G82 X-8.8900 Y41.9100 Z-1.5000 F254.00 R2.0000 P1.000000
G82 X-8.8900 Y44.4500 
G82 X-8.8900 Y46.9900 
G82 X-8.8900 Y49.5300 
G82 X-8.8900 Y52.0700 
G82 X-8.8900 Y54.6100 
G82 X-8.8900 Y57.1500 
G82 X-8.8900 Y59.6900 
G82 X-11.4300 Y41.9100 
G82 X-11.4300 Y44.4500 
G82 X-11.4300 Y46.9900 
G82 X-11.4300 Y49.5300 
G82 X-11.4300 Y52.0700 
G82 X-11.4300 Y54.6100 
G82 X-11.4300 Y57.1500 
G82 X-11.4300 Y59.6900 
M05
G00 Z19.0000 
M06 T05 (1.0160 )
G01 Z0.0000 F254.00 
M06 T05 (1.0160 )
G00 Z2.0000 
M03
G04 P1.000000
G82 X-31.7500 Y40.6400 Z-1.5000 F254.00 R2.0000 P1.000000
G82 X-31.7500 Y43.1800 
G82 X-33.0200 Y5.0800 
G82 X-36.8300 Y31.7500 
G82 X-36.8300 Y34.2900 
G82 X-36.8300 Y36.8300 
G82 X-36.8300 Y39.3700 
G82 X-36.8300 Y41.9100 
G82 X-36.8300 Y44.4500 
G82 X-36.8300 Y46.9900 
G82 X-36.8300 Y49.5300 
G82 X-36.8300 Y52.0700 
G82 X-36.8300 Y54.6100 
G82 X-36.8300 Y57.1500 
G82 X-36.8300 Y29.2100 
G82 X-43.1800 Y12.7000 
G82 X-43.1800 Y25.4000 
G82 X-45.7200 Y12.7000 
G82 X-45.7200 Y25.4000 
G82 X-48.2600 Y12.7000 
G82 X-48.2600 Y25.4000 
G82 X-5.0800 Y33.0200 
G82 X-5.0800 Y30.4800 
G82 X-52.0700 Y31.7500 
G82 X-52.0700 Y34.2900 
G82 X-52.0700 Y36.8300 
G82 X-52.0700 Y39.3700 
G82 X-52.0700 Y41.9100 
G82 X-52.0700 Y44.4500 
G82 X-52.0700 Y46.9900 
G82 X-52.0700 Y49.5300 
G82 X-52.0700 Y52.0700 
G82 X-52.0700 Y54.6100 
G82 X-52.0700 Y57.1500 
G82 X-52.0700 Y29.2100 
G82 X-53.3400 Y5.0800 
G82 X-53.3400 Y7.6200 
G82 X-22.8600 Y5.0800 
G82 X-25.4000 Y5.0800 
G82 X-30.4800 Y5.0800 
M05
G00 Z19.0000 
M06 T06 (1.1176 )
G01 Z0.0000 F254.00 
M06 T06 (1.1176 )
G00 Z2.0000 
M03
G04 P1.000000
G82 X-39.3700 Y5.0800 Z-1.5000 F254.00 R2.0000 P1.000000
G82 X-43.1800 Y5.0800 
G82 X-46.9900 Y5.0800 
M05
G00 Z19.0000 
M06 T07 (2.0000 )
G01 Z0.0000 F254.00 
M06 T07 (2.0000 )
G00 Z2.0000 
M03
G04 P1.000000
G82 X-5.0800 Y5.0800 Z-1.5000 F254.00 R2.0000 P1.000000
G82 X-53.3400 Y63.5000 
T01 
G00 Z19.5000 
M05
M02
