(.../external_usr-lang-prog/pcbgcode/pcb-gcode.ulp)
(Copyright 2005 - 2012 by John Johnson)
(See readme.txt for licensing terms.)
(This file generated from the board:)
(.../KarasolBaxCont/KarasolboxCont.brd)
(Current profile is .../external_usr-lang-prog/pcbgcode/profiles/emc.pp  )
(This file generated 3/7/2017 10:37 PM)
(Settings from pcb-machine.h)
(spindle on time = 3.0000)
(  Tool Size)
(0.1778 )
(spindle speed = 30000.0000)
(tool change at 15.0000 15.0000 19.0000 )
(feed rate xy = F508.00 )
(feed rate z  = F254.00 )
(Z Axis Settings)
(  High     Up        Down     Drill)
(19.5000 	2.0000 	-0.0250 	-1.5000 )
(Settings from pcb-defaults.h)
(isolate min = 0.0500)
(isolate max = 1.0000)
(isolate step = 0.1000)
(Generated top outlines, top drill, bottom outlines, bottom drill, )
(Unit of measure: mm)
(Metric Mode)
G21
(Absolute Coordinates)
G90
S30000
G00 Z19.5000 
G00 X0.0000 Y0.0000 
M03
G04 P3.000000
G00 Z2.0000 
G00 X-1.7661 Y2.9634 
G01 Z-0.0250 F254.00 
G01 X-2.9634 Y1.7661 F508.00 
G01 X-4.6566 Y1.7661 
G01 X-5.8539 Y2.9634 
G01 X-5.8539 Y4.6566 
G01 X-4.6566 Y5.8539 
G01 X-2.9634 Y5.8539 
G01 X-1.7661 Y4.6566 
G01 X-1.7661 Y2.9634 
G00 Z2.0000 
G00 X-11.5445 Y3.0186 
G01 Z-0.0250 F254.00 
G01 X-11.4838 Y2.8320 F508.00 
G01 X-11.4531 Y2.6381 
G01 X-11.4531 Y2.4419 
G01 X-11.4838 Y2.2480 
G01 X-11.5445 Y2.0614 
G01 X-11.6336 Y1.8865 
G01 X-11.7489 Y1.7277 
G01 X-11.8877 Y1.5889 
G01 X-12.0465 Y1.4736 
G01 X-12.2214 Y1.3845 
G01 X-12.4080 Y1.3238 
G01 X-12.6019 Y1.2931 
G01 X-12.7981 Y1.2931 
G01 X-12.9920 Y1.3238 
G01 X-13.1786 Y1.3845 
G01 X-13.3535 Y1.4736 
G01 X-13.5123 Y1.5889 
G01 X-13.6511 Y1.7277 
G01 X-13.7664 Y1.8865 
G01 X-13.8555 Y2.0614 
G01 X-13.9162 Y2.2480 
G01 X-13.9469 Y2.4419 
G01 X-13.9469 Y2.6381 
G01 X-13.9162 Y2.8320 
G01 X-13.8555 Y3.0186 
G01 X-13.7664 Y3.1935 
G01 X-13.6511 Y3.3523 
G01 X-13.5123 Y3.4911 
G01 X-13.3535 Y3.6064 
G01 X-13.1786 Y3.6955 
G01 X-12.9920 Y3.7562 
G01 X-12.7981 Y3.7869 
G01 X-12.6019 Y3.7869 
G01 X-12.4080 Y3.7562 
G01 X-12.2214 Y3.6955 
G01 X-12.0465 Y3.6064 
G01 X-11.8877 Y3.4911 
G01 X-11.7489 Y3.3523 
G01 X-11.6336 Y3.1935 
G01 X-11.5445 Y3.0186 
G00 Z2.0000 
G00 X-11.7489 Y4.2677 
G01 Z-0.0250 F254.00 
G01 X-11.8877 Y4.1289 F508.00 
G01 X-12.0465 Y4.0136 
G01 X-12.2214 Y3.9245 
G01 X-12.4080 Y3.8638 
G01 X-12.6019 Y3.8331 
G01 X-12.7981 Y3.8331 
G01 X-12.9920 Y3.8638 
G01 X-13.1786 Y3.9245 
G01 X-13.3535 Y4.0136 
G01 X-13.5123 Y4.1289 
G01 X-13.6511 Y4.2677 
G01 X-13.7664 Y4.4265 
G01 X-13.8555 Y4.6014 
G01 X-13.9162 Y4.7880 
G01 X-13.9469 Y4.9819 
G01 X-13.9469 Y5.1781 
G01 X-13.9162 Y5.3720 
G01 X-13.8555 Y5.5586 
G01 X-13.7664 Y5.7335 
G01 X-13.6511 Y5.8923 
G01 X-13.5123 Y6.0311 
G01 X-13.3535 Y6.1464 
G01 X-13.1786 Y6.2355 
G01 X-12.9920 Y6.2962 
G01 X-12.7981 Y6.3269 
G01 X-12.6019 Y6.3269 
G01 X-12.4080 Y6.2962 
G01 X-12.2214 Y6.2355 
G01 X-12.0465 Y6.1464 
G01 X-11.8877 Y6.0311 
G01 X-11.7489 Y5.8923 
G01 X-11.6336 Y5.7335 
G01 X-11.5445 Y5.5586 
G01 X-11.4838 Y5.3720 
G01 X-11.4531 Y5.1781 
G01 X-11.4531 Y4.9819 
G01 X-11.4838 Y4.7880 
G01 X-11.5445 Y4.6014 
G01 X-11.6336 Y4.4265 
G01 X-11.7489 Y4.2677 
G00 Z2.0000 
G00 X-28.2589 Y4.2677 
G01 Z-0.0250 F254.00 
G01 X-28.3977 Y4.1289 F508.00 
G01 X-28.5565 Y4.0136 
G01 X-28.7314 Y3.9245 
G01 X-28.9180 Y3.8638 
G01 X-29.1119 Y3.8331 
G01 X-29.3081 Y3.8331 
G01 X-29.5020 Y3.8638 
G01 X-29.6886 Y3.9245 
G01 X-29.8635 Y4.0136 
G01 X-30.0223 Y4.1289 
G01 X-30.1611 Y4.2677 
G01 X-30.2764 Y4.4265 
G01 X-30.3655 Y4.6014 
G01 X-30.4262 Y4.7880 
G01 X-30.4569 Y4.9819 
G01 X-30.4569 Y5.1781 
G01 X-30.4262 Y5.3720 
G01 X-30.3655 Y5.5586 
G01 X-30.2764 Y5.7335 
G01 X-30.1611 Y5.8923 
G01 X-30.0223 Y6.0311 
G01 X-29.8635 Y6.1464 
G01 X-29.6886 Y6.2355 
G01 X-29.5020 Y6.2962 
G01 X-29.3081 Y6.3269 
G01 X-29.1119 Y6.3269 
G01 X-28.9180 Y6.2962 
G01 X-28.7314 Y6.2355 
G01 X-28.5565 Y6.1464 
G01 X-28.3977 Y6.0311 
G01 X-28.2589 Y5.8923 
G01 X-28.1436 Y5.7335 
G01 X-28.0545 Y5.5586 
G01 X-27.9938 Y5.3720 
G01 X-27.9631 Y5.1781 
G01 X-27.9631 Y4.9819 
G01 X-27.9938 Y4.7880 
G01 X-28.0545 Y4.6014 
G01 X-28.1436 Y4.4265 
G01 X-28.2589 Y4.2677 
G00 Z2.0000 
G00 X-28.3977 Y3.4911 
G01 Z-0.0250 F254.00 
G01 X-28.2589 Y3.3523 F508.00 
G01 X-28.1436 Y3.1935 
G01 X-28.0545 Y3.0186 
G01 X-27.9938 Y2.8320 
G01 X-27.9631 Y2.6381 
G01 X-27.9631 Y2.4419 
G01 X-27.9938 Y2.2480 
G01 X-28.0545 Y2.0614 
G01 X-28.1436 Y1.8865 
G01 X-28.2589 Y1.7277 
G01 X-28.3977 Y1.5889 
G01 X-28.5565 Y1.4736 
G01 X-28.7314 Y1.3845 
G01 X-28.9180 Y1.3238 
G01 X-29.1119 Y1.2931 
G01 X-29.3081 Y1.2931 
G01 X-29.5020 Y1.3238 
G01 X-29.6886 Y1.3845 
G01 X-29.8635 Y1.4736 
G01 X-30.0223 Y1.5889 
G01 X-30.1611 Y1.7277 
G01 X-30.2764 Y1.8865 
G01 X-30.3655 Y2.0614 
G01 X-30.4262 Y2.2480 
G01 X-30.4569 Y2.4419 
G01 X-30.4569 Y2.6381 
G01 X-30.4262 Y2.8320 
G01 X-30.3655 Y3.0186 
G01 X-30.2764 Y3.1935 
G01 X-30.1611 Y3.3523 
G01 X-30.0223 Y3.4911 
G01 X-29.8635 Y3.6064 
G01 X-29.6886 Y3.6955 
G01 X-29.5020 Y3.7562 
G01 X-29.3081 Y3.7869 
G01 X-29.1119 Y3.7869 
G01 X-28.9180 Y3.7562 
G01 X-28.7314 Y3.6955 
G01 X-28.5565 Y3.6064 
G01 X-28.3977 Y3.4911 
G00 Z2.0000 
G00 X-35.1313 Y12.8581 
G01 Z-0.0250 F254.00 
G01 X-35.2581 Y12.7313 F508.00 
G01 X-35.4031 Y12.6259 
G01 X-35.5628 Y12.5445 
G01 X-35.7333 Y12.4891 
G01 X-35.9104 Y12.4611 
G01 X-36.0896 Y12.4611 
G01 X-36.2667 Y12.4891 
G01 X-36.4372 Y12.5445 
G01 X-36.5969 Y12.6259 
G01 X-36.7419 Y12.7313 
G01 X-36.8687 Y12.8581 
G01 X-36.9741 Y13.0031 
G01 X-37.0036 Y13.0611 
G01 X-37.9290 Y13.0611 
G01 X-38.0709 Y13.0611 
G01 X-38.2080 Y13.0978 
G01 X-38.3309 Y13.1688 
G01 X-44.2000 Y19.0379 
G01 X-45.5688 Y17.6691 
G01 X-45.6691 Y17.5688 
G01 X-45.7703 Y17.5104 
G01 X-45.7738 Y17.4880 
G01 X-45.8345 Y17.3014 
G01 X-45.9236 Y17.1265 
G01 X-46.0389 Y16.9677 
G01 X-46.1777 Y16.8289 
G01 X-46.3365 Y16.7136 
G01 X-46.5114 Y16.6245 
G01 X-46.6980 Y16.5638 
G01 X-46.8919 Y16.5331 
G01 X-47.0881 Y16.5331 
G01 X-47.2820 Y16.5638 
G01 X-47.4686 Y16.6245 
G01 X-47.6435 Y16.7136 
G01 X-47.8023 Y16.8289 
G01 X-47.9411 Y16.9677 
G01 X-48.0564 Y17.1265 
G01 X-48.1455 Y17.3014 
G01 X-48.2062 Y17.4880 
G01 X-48.2369 Y17.6819 
G01 X-48.2369 Y17.8781 
G01 X-48.2062 Y18.0720 
G01 X-48.1455 Y18.2586 
G01 X-48.0564 Y18.4335 
G01 X-47.9411 Y18.5923 
G01 X-47.8023 Y18.7311 
G01 X-47.6435 Y18.8464 
G01 X-47.4686 Y18.9355 
G01 X-47.2820 Y18.9962 
G01 X-47.0881 Y19.0269 
G01 X-46.8919 Y19.0269 
G01 X-46.6980 Y18.9962 
G01 X-46.5114 Y18.9355 
G01 X-46.3365 Y18.8464 
G01 X-46.1777 Y18.7311 
G01 X-46.1044 Y18.6577 
G01 X-44.6312 Y20.1309 
G01 X-44.5389 Y20.2232 
G01 X-44.5389 Y28.5964 
G01 X-44.5969 Y28.6259 
G01 X-44.7419 Y28.7313 
G01 X-44.8687 Y28.8581 
G01 X-44.9741 Y29.0031 
G01 X-45.0555 Y29.1628 
G01 X-45.1109 Y29.3333 
G01 X-45.1389 Y29.5104 
G01 X-45.1389 Y29.6896 
G01 X-45.1109 Y29.8667 
G01 X-45.0555 Y30.0372 
G01 X-44.9741 Y30.1969 
G01 X-44.8687 Y30.3419 
G01 X-44.7419 Y30.4687 
G01 X-44.5969 Y30.5741 
G01 X-44.5389 Y30.6036 
G01 X-44.5389 Y37.2709 
G01 X-44.5022 Y37.4080 
G01 X-44.4312 Y37.5309 
G01 X-44.3309 Y37.6312 
G01 X-36.1389 Y45.8232 
G01 X-36.1389 Y46.9768 
G01 X-37.3045 Y48.1424 
G01 X-37.3431 Y48.1038 
G01 X-37.4881 Y47.9984 
G01 X-37.6478 Y47.9170 
G01 X-37.8183 Y47.8616 
G01 X-37.9954 Y47.8336 
G01 X-38.1746 Y47.8336 
G01 X-38.3517 Y47.8616 
G01 X-38.5222 Y47.9170 
G01 X-38.6819 Y47.9984 
G01 X-38.8269 Y48.1038 
G01 X-38.9537 Y48.2306 
G01 X-39.0591 Y48.3756 
G01 X-39.1405 Y48.5353 
G01 X-39.1959 Y48.7058 
G01 X-39.2239 Y48.8829 
G01 X-39.2239 Y49.0621 
G01 X-39.1959 Y49.2392 
G01 X-39.1405 Y49.4097 
G01 X-39.0591 Y49.5694 
G01 X-38.9537 Y49.7144 
G01 X-38.8269 Y49.8412 
G01 X-38.6819 Y49.9466 
G01 X-38.5222 Y50.0280 
G01 X-38.3517 Y50.0834 
G01 X-38.1746 Y50.1114 
G01 X-37.9954 Y50.1114 
G01 X-37.8705 Y50.0916 
G01 X-31.9309 Y56.0312 
G01 X-31.8080 Y56.1022 
G01 X-31.6709 Y56.1389 
G01 X-11.5290 Y56.1389 
G01 X-11.3920 Y56.1022 
G01 X-11.2691 Y56.0312 
G01 X-11.1688 Y55.9309 
G01 X-8.7688 Y53.5309 
G01 X-8.6978 Y53.4080 
G01 X-8.6611 Y53.2709 
G01 X-8.6611 Y44.7291 
G01 X-8.6978 Y44.5920 
G01 X-8.7688 Y44.4691 
G01 X-8.8691 Y44.3688 
G01 X-10.3181 Y42.9198 
G01 X-10.3191 Y42.9133 
G01 X-10.3745 Y42.7428 
G01 X-10.4559 Y42.5831 
G01 X-10.5613 Y42.4381 
G01 X-10.6881 Y42.3113 
G01 X-10.8331 Y42.2059 
G01 X-10.9928 Y42.1245 
G01 X-11.1633 Y42.0691 
G01 X-11.3404 Y42.0411 
G01 X-11.5196 Y42.0411 
G01 X-11.6967 Y42.0691 
G01 X-11.8672 Y42.1245 
G01 X-12.0269 Y42.2059 
G01 X-12.1719 Y42.3113 
G01 X-12.2987 Y42.4381 
G01 X-12.4041 Y42.5831 
G01 X-12.4855 Y42.7428 
G01 X-12.5409 Y42.9133 
G01 X-12.5689 Y43.0904 
G01 X-12.5689 Y43.2696 
G01 X-12.5409 Y43.4467 
G01 X-12.4855 Y43.6172 
G01 X-12.4041 Y43.7769 
G01 X-12.2987 Y43.9219 
G01 X-12.1719 Y44.0487 
G01 X-12.0269 Y44.1541 
G01 X-11.8672 Y44.2355 
G01 X-11.6967 Y44.2909 
G01 X-11.5196 Y44.3189 
G01 X-11.3404 Y44.3189 
G01 X-11.1633 Y44.2909 
G01 X-10.9928 Y44.2355 
G01 X-10.8331 Y44.1541 
G01 X-10.7027 Y44.0594 
G01 X-9.7389 Y45.0232 
G01 X-9.7389 Y52.9768 
G01 X-11.8232 Y55.0611 
G01 X-31.3768 Y55.0611 
G01 X-37.0292 Y49.4087 
G01 X-37.0209 Y49.3830 
G01 X-35.1688 Y47.5309 
G01 X-35.0978 Y47.4080 
G01 X-35.0611 Y47.2709 
G01 X-35.0611 Y45.5290 
G01 X-35.0978 Y45.3920 
G01 X-35.1688 Y45.2691 
G01 X-35.2691 Y45.1688 
G01 X-43.4611 Y36.9768 
G01 X-43.4611 Y30.6036 
G01 X-43.4031 Y30.5741 
G01 X-43.2581 Y30.4687 
G01 X-43.1313 Y30.3419 
G01 X-43.0259 Y30.1969 
G01 X-42.9445 Y30.0372 
G01 X-42.8891 Y29.8667 
G01 X-42.8611 Y29.6896 
G01 X-42.8611 Y29.5104 
G01 X-42.8891 Y29.3333 
G01 X-42.9445 Y29.1628 
G01 X-43.0259 Y29.0031 
G01 X-43.1313 Y28.8581 
G01 X-43.2581 Y28.7313 
G01 X-43.4031 Y28.6259 
G01 X-43.4611 Y28.5964 
G01 X-43.4611 Y19.9291 
G01 X-43.4835 Y19.8456 
G01 X-37.7768 Y14.1389 
G01 X-37.0036 Y14.1389 
G01 X-36.9741 Y14.1969 
G01 X-36.8687 Y14.3419 
G01 X-36.7419 Y14.4687 
G01 X-36.5969 Y14.5741 
G01 X-36.4372 Y14.6555 
G01 X-36.2667 Y14.7109 
G01 X-36.0896 Y14.7389 
G01 X-35.9104 Y14.7389 
G01 X-35.7333 Y14.7109 
G01 X-35.5628 Y14.6555 
G01 X-35.4031 Y14.5741 
G01 X-35.2581 Y14.4687 
G01 X-35.1313 Y14.3419 
G01 X-35.0259 Y14.1969 
G01 X-34.9445 Y14.0372 
G01 X-34.8891 Y13.8667 
G01 X-34.8611 Y13.6896 
G01 X-34.8611 Y13.5104 
G01 X-34.8891 Y13.3333 
G01 X-34.9445 Y13.1628 
G01 X-35.0259 Y13.0031 
G01 X-35.1313 Y12.8581 
G00 Z2.0000 
G00 X-46.0389 Y14.4277 
G01 Z-0.0250 F254.00 
G01 X-46.1777 Y14.2889 F508.00 
G01 X-46.3365 Y14.1736 
G01 X-46.5114 Y14.0845 
G01 X-46.6980 Y14.0238 
G01 X-46.8919 Y13.9931 
G01 X-47.0881 Y13.9931 
G01 X-47.2820 Y14.0238 
G01 X-47.4686 Y14.0845 
G01 X-47.6435 Y14.1736 
G01 X-47.8023 Y14.2889 
G01 X-47.9411 Y14.4277 
G01 X-48.0564 Y14.5865 
G01 X-48.1455 Y14.7614 
G01 X-48.2062 Y14.9480 
G01 X-48.2369 Y15.1419 
G01 X-48.2369 Y15.3381 
G01 X-48.2062 Y15.5320 
G01 X-48.1455 Y15.7186 
G01 X-48.0564 Y15.8935 
G01 X-47.9411 Y16.0523 
G01 X-47.8023 Y16.1911 
G01 X-47.6435 Y16.3064 
G01 X-47.4686 Y16.3955 
G01 X-47.2820 Y16.4562 
G01 X-47.0881 Y16.4869 
G01 X-46.8919 Y16.4869 
G01 X-46.6980 Y16.4562 
G01 X-46.5114 Y16.3955 
G01 X-46.3365 Y16.3064 
G01 X-46.1777 Y16.1911 
G01 X-46.0389 Y16.0523 
G01 X-45.9236 Y15.8935 
G01 X-45.8345 Y15.7186 
G01 X-45.7738 Y15.5320 
G01 X-45.7431 Y15.3381 
G01 X-45.7431 Y15.1419 
G01 X-45.7738 Y14.9480 
G01 X-45.8345 Y14.7614 
G01 X-45.9236 Y14.5865 
G01 X-46.0389 Y14.4277 
G00 Z2.0000 
G00 X-46.0389 Y19.5077 
G01 Z-0.0250 F254.00 
G01 X-46.1777 Y19.3689 F508.00 
G01 X-46.3365 Y19.2536 
G01 X-46.5114 Y19.1645 
G01 X-46.6980 Y19.1038 
G01 X-46.8919 Y19.0731 
G01 X-47.0881 Y19.0731 
G01 X-47.2820 Y19.1038 
G01 X-47.4686 Y19.1645 
G01 X-47.6435 Y19.2536 
G01 X-47.8023 Y19.3689 
G01 X-47.9411 Y19.5077 
G01 X-48.0564 Y19.6665 
G01 X-48.1455 Y19.8414 
G01 X-48.2062 Y20.0280 
G01 X-48.2369 Y20.2219 
G01 X-48.2369 Y20.4181 
G01 X-48.2062 Y20.6120 
G01 X-48.1455 Y20.7986 
G01 X-48.0564 Y20.9735 
G01 X-47.9411 Y21.1323 
G01 X-47.8023 Y21.2711 
G01 X-47.7389 Y21.3171 
G01 X-47.7389 Y25.7768 
G01 X-49.9309 Y27.9688 
G01 X-50.0312 Y28.0691 
G01 X-50.1022 Y28.1920 
G01 X-50.1389 Y28.3290 
G01 X-50.1389 Y42.8709 
G01 X-50.1022 Y43.0080 
G01 X-50.0312 Y43.1309 
G01 X-46.8405 Y46.3216 
G01 X-46.8439 Y46.3429 
G01 X-46.8439 Y46.5221 
G01 X-46.8159 Y46.6992 
G01 X-46.7605 Y46.8697 
G01 X-46.6791 Y47.0294 
G01 X-46.5737 Y47.1744 
G01 X-46.4469 Y47.3012 
G01 X-46.3019 Y47.4066 
G01 X-46.1422 Y47.4880 
G01 X-45.9717 Y47.5434 
G01 X-45.7946 Y47.5714 
G01 X-45.6154 Y47.5714 
G01 X-45.4383 Y47.5434 
G01 X-45.2678 Y47.4880 
G01 X-45.1081 Y47.4066 
G01 X-44.9631 Y47.3012 
G01 X-44.8363 Y47.1744 
G01 X-44.7309 Y47.0294 
G01 X-44.6495 Y46.8697 
G01 X-44.5941 Y46.6992 
G01 X-44.5661 Y46.5221 
G01 X-44.5661 Y46.3429 
G01 X-44.5941 Y46.1658 
G01 X-44.6495 Y45.9953 
G01 X-44.7309 Y45.8356 
G01 X-44.8363 Y45.6906 
G01 X-44.9631 Y45.5638 
G01 X-45.1081 Y45.4584 
G01 X-45.2678 Y45.3770 
G01 X-45.4383 Y45.3216 
G01 X-45.6154 Y45.2936 
G01 X-45.7946 Y45.2936 
G01 X-45.9717 Y45.3216 
G01 X-46.1422 Y45.3770 
G01 X-46.2208 Y45.4171 
G01 X-49.0611 Y42.5768 
G01 X-49.0611 Y28.6232 
G01 X-46.7688 Y26.3309 
G01 X-46.6978 Y26.2080 
G01 X-46.6611 Y26.0709 
G01 X-46.6611 Y21.5242 
G01 X-46.5114 Y21.4755 
G01 X-46.3365 Y21.3864 
G01 X-46.1777 Y21.2711 
G01 X-46.0389 Y21.1323 
G01 X-45.9236 Y20.9735 
G01 X-45.8345 Y20.7986 
G01 X-45.7738 Y20.6120 
G01 X-45.7431 Y20.4181 
G01 X-45.7431 Y20.2219 
G01 X-45.7738 Y20.0280 
G01 X-45.8345 Y19.8414 
G01 X-45.9236 Y19.6665 
G01 X-46.0389 Y19.5077 
G00 Z2.0000 
G00 X-46.0389 Y28.3977 
G01 Z-0.0250 F254.00 
G01 X-46.1777 Y28.2589 F508.00 
G01 X-46.3365 Y28.1436 
G01 X-46.5114 Y28.0545 
G01 X-46.6980 Y27.9938 
G01 X-46.8919 Y27.9631 
G01 X-47.0881 Y27.9631 
G01 X-47.2820 Y27.9938 
G01 X-47.4686 Y28.0545 
G01 X-47.6435 Y28.1436 
G01 X-47.8023 Y28.2589 
G01 X-47.9411 Y28.3977 
G01 X-48.0564 Y28.5565 
G01 X-48.1455 Y28.7314 
G01 X-48.2062 Y28.9180 
G01 X-48.2369 Y29.1119 
G01 X-48.2369 Y29.3081 
G01 X-48.2062 Y29.5020 
G01 X-48.1455 Y29.6886 
G01 X-48.0564 Y29.8635 
G01 X-47.9411 Y30.0223 
G01 X-47.8023 Y30.1611 
G01 X-47.6435 Y30.2764 
G01 X-47.4686 Y30.3655 
G01 X-47.2820 Y30.4262 
G01 X-47.0881 Y30.4569 
G01 X-46.8919 Y30.4569 
G01 X-46.6980 Y30.4262 
G01 X-46.5114 Y30.3655 
G01 X-46.3365 Y30.2764 
G01 X-46.1777 Y30.1611 
G01 X-46.0389 Y30.0223 
G01 X-45.9236 Y29.8635 
G01 X-45.8345 Y29.6886 
G01 X-45.7738 Y29.5020 
G01 X-45.7431 Y29.3081 
G01 X-45.7431 Y29.1119 
G01 X-45.7738 Y28.9180 
G01 X-45.8345 Y28.7314 
G01 X-45.9236 Y28.5565 
G01 X-46.0389 Y28.3977 
G00 Z2.0000 
G00 X-46.0389 Y30.9377 
G01 Z-0.0250 F254.00 
G01 X-46.1777 Y30.7989 F508.00 
G01 X-46.3365 Y30.6836 
G01 X-46.5114 Y30.5945 
G01 X-46.6980 Y30.5338 
G01 X-46.8919 Y30.5031 
G01 X-47.0881 Y30.5031 
G01 X-47.2820 Y30.5338 
G01 X-47.4686 Y30.5945 
G01 X-47.6435 Y30.6836 
G01 X-47.8023 Y30.7989 
G01 X-47.9411 Y30.9377 
G01 X-48.0564 Y31.0965 
G01 X-48.1455 Y31.2714 
G01 X-48.2062 Y31.4580 
G01 X-48.2369 Y31.6519 
G01 X-48.2369 Y31.8481 
G01 X-48.2062 Y32.0420 
G01 X-48.1455 Y32.2286 
G01 X-48.0564 Y32.4035 
G01 X-47.9411 Y32.5623 
G01 X-47.8023 Y32.7011 
G01 X-47.6435 Y32.8164 
G01 X-47.4686 Y32.9055 
G01 X-47.2820 Y32.9662 
G01 X-47.0881 Y32.9969 
G01 X-46.8919 Y32.9969 
G01 X-46.6980 Y32.9662 
G01 X-46.5114 Y32.9055 
G01 X-46.3365 Y32.8164 
G01 X-46.1777 Y32.7011 
G01 X-46.0389 Y32.5623 
G01 X-45.9236 Y32.4035 
G01 X-45.8345 Y32.2286 
G01 X-45.7738 Y32.0420 
G01 X-45.7431 Y31.8481 
G01 X-45.7431 Y31.6519 
G01 X-45.7738 Y31.4580 
G01 X-45.8345 Y31.2714 
G01 X-45.9236 Y31.0965 
G01 X-46.0389 Y30.9377 
G00 Z2.0000 
G00 X-43.9069 Y45.5638 
G01 Z-0.0250 F254.00 
G01 X-44.0337 Y45.6906 F508.00 
G01 X-44.1391 Y45.8356 
G01 X-44.2205 Y45.9953 
G01 X-44.2759 Y46.1658 
G01 X-44.3039 Y46.3429 
G01 X-44.3039 Y46.5221 
G01 X-44.2759 Y46.6992 
G01 X-44.2205 Y46.8697 
G01 X-44.1391 Y47.0294 
G01 X-44.0337 Y47.1744 
G01 X-43.9069 Y47.3012 
G01 X-43.7619 Y47.4066 
G01 X-43.6022 Y47.4880 
G01 X-43.4317 Y47.5434 
G01 X-43.2546 Y47.5714 
G01 X-43.0754 Y47.5714 
G01 X-42.8983 Y47.5434 
G01 X-42.7278 Y47.4880 
G01 X-42.5681 Y47.4066 
G01 X-42.4231 Y47.3012 
G01 X-42.2963 Y47.1744 
G01 X-42.1909 Y47.0294 
G01 X-42.1095 Y46.8697 
G01 X-42.0541 Y46.6992 
G01 X-42.0261 Y46.5221 
G01 X-42.0261 Y46.3429 
G01 X-42.0541 Y46.1658 
G01 X-42.1095 Y45.9953 
G01 X-42.1909 Y45.8356 
G01 X-42.2963 Y45.6906 
G01 X-42.4231 Y45.5638 
G01 X-42.5681 Y45.4584 
G01 X-42.7278 Y45.3770 
G01 X-42.8983 Y45.3216 
G01 X-43.0754 Y45.2936 
G01 X-43.2546 Y45.2936 
G01 X-43.4317 Y45.3216 
G01 X-43.6022 Y45.3770 
G01 X-43.7619 Y45.4584 
G01 X-43.9069 Y45.5638 
G00 Z2.0000 
G00 X-43.9069 Y48.1038 
G01 Z-0.0250 F254.00 
G01 X-44.0337 Y48.2306 F508.00 
G01 X-44.1391 Y48.3756 
G01 X-44.2205 Y48.5353 
G01 X-44.2759 Y48.7058 
G01 X-44.3039 Y48.8829 
G01 X-44.3039 Y49.0621 
G01 X-44.2759 Y49.2392 
G01 X-44.2205 Y49.4097 
G01 X-44.1391 Y49.5694 
G01 X-44.0337 Y49.7144 
G01 X-43.9069 Y49.8412 
G01 X-43.7619 Y49.9466 
G01 X-43.6022 Y50.0280 
G01 X-43.4317 Y50.0834 
G01 X-43.2546 Y50.1114 
G01 X-43.0754 Y50.1114 
G01 X-42.8983 Y50.0834 
G01 X-42.7278 Y50.0280 
G01 X-42.5681 Y49.9466 
G01 X-42.4231 Y49.8412 
G01 X-42.2963 Y49.7144 
G01 X-42.1909 Y49.5694 
G01 X-42.1095 Y49.4097 
G01 X-42.0541 Y49.2392 
G01 X-42.0261 Y49.0621 
G01 X-42.0261 Y48.8829 
G01 X-42.0541 Y48.7058 
G01 X-42.1095 Y48.5353 
G01 X-42.1909 Y48.3756 
G01 X-42.2963 Y48.2306 
G01 X-42.4231 Y48.1038 
G01 X-42.5681 Y47.9984 
G01 X-42.7278 Y47.9170 
G01 X-42.8983 Y47.8616 
G01 X-43.0754 Y47.8336 
G01 X-43.2546 Y47.8336 
G01 X-43.4317 Y47.8616 
G01 X-43.6022 Y47.9170 
G01 X-43.7619 Y47.9984 
G01 X-43.9069 Y48.1038 
G00 Z2.0000 
G00 X-44.8363 Y48.2306 
G01 Z-0.0250 F254.00 
G01 X-44.9631 Y48.1038 F508.00 
G01 X-45.1081 Y47.9984 
G01 X-45.2678 Y47.9170 
G01 X-45.4383 Y47.8616 
G01 X-45.6154 Y47.8336 
G01 X-45.7946 Y47.8336 
G01 X-45.9717 Y47.8616 
G01 X-46.1422 Y47.9170 
G01 X-46.3019 Y47.9984 
G01 X-46.4469 Y48.1038 
G01 X-46.5737 Y48.2306 
G01 X-46.6791 Y48.3756 
G01 X-46.7605 Y48.5353 
G01 X-46.8159 Y48.7058 
G01 X-46.8439 Y48.8829 
G01 X-46.8439 Y49.0621 
G01 X-46.8159 Y49.2392 
G01 X-46.7605 Y49.4097 
G01 X-46.6791 Y49.5694 
G01 X-46.5737 Y49.7144 
G01 X-46.4469 Y49.8412 
G01 X-46.3019 Y49.9466 
G01 X-46.1422 Y50.0280 
G01 X-46.1389 Y50.0290 
G01 X-46.1389 Y50.0709 
G01 X-46.1022 Y50.2080 
G01 X-46.0312 Y50.3309 
G01 X-45.9309 Y50.4312 
G01 X-38.7309 Y57.6312 
G01 X-38.6080 Y57.7022 
G01 X-38.4709 Y57.7389 
G01 X-10.7291 Y57.7389 
G01 X-10.5920 Y57.7022 
G01 X-10.4691 Y57.6312 
G01 X-10.3688 Y57.5309 
G01 X-7.1688 Y54.3309 
G01 X-7.0978 Y54.2080 
G01 X-7.0611 Y54.0709 
G01 X-7.0611 Y43.5290 
G01 X-7.0978 Y43.3920 
G01 X-7.1688 Y43.2691 
G01 X-7.2691 Y43.1688 
G01 X-10.0691 Y40.3688 
G01 X-10.1920 Y40.2978 
G01 X-10.3291 Y40.2611 
G01 X-10.3556 Y40.2611 
G01 X-10.3745 Y40.2028 
G01 X-10.4559 Y40.0431 
G01 X-10.5613 Y39.8981 
G01 X-10.6881 Y39.7713 
G01 X-10.8331 Y39.6659 
G01 X-10.9928 Y39.5845 
G01 X-11.1633 Y39.5291 
G01 X-11.3404 Y39.5011 
G01 X-11.5196 Y39.5011 
G01 X-11.6967 Y39.5291 
G01 X-11.8672 Y39.5845 
G01 X-12.0269 Y39.6659 
G01 X-12.1719 Y39.7713 
G01 X-12.2987 Y39.8981 
G01 X-12.4041 Y40.0431 
G01 X-12.4855 Y40.2028 
G01 X-12.5409 Y40.3733 
G01 X-12.5689 Y40.5504 
G01 X-12.5689 Y40.7296 
G01 X-12.5409 Y40.9067 
G01 X-12.4855 Y41.0772 
G01 X-12.4041 Y41.2369 
G01 X-12.2987 Y41.3819 
G01 X-12.1719 Y41.5087 
G01 X-12.0269 Y41.6141 
G01 X-11.8672 Y41.6955 
G01 X-11.6967 Y41.7509 
G01 X-11.5196 Y41.7789 
G01 X-11.3404 Y41.7789 
G01 X-11.1633 Y41.7509 
G01 X-10.9928 Y41.6955 
G01 X-10.8331 Y41.6141 
G01 X-10.6881 Y41.5087 
G01 X-10.5707 Y41.3914 
G01 X-8.1389 Y43.8232 
G01 X-8.1389 Y53.7768 
G01 X-11.0232 Y56.6611 
G01 X-38.1768 Y56.6611 
G01 X-44.9825 Y49.8554 
G01 X-44.9631 Y49.8412 
G01 X-44.8363 Y49.7144 
G01 X-44.7309 Y49.5694 
G01 X-44.6495 Y49.4097 
G01 X-44.5941 Y49.2392 
G01 X-44.5661 Y49.0621 
G01 X-44.5661 Y48.8829 
G01 X-44.5941 Y48.7058 
G01 X-44.6495 Y48.5353 
G01 X-44.7309 Y48.3756 
G01 X-44.8363 Y48.2306 
G00 Z2.0000 
G00 X-41.4937 Y48.2306 
G01 Z-0.0250 F254.00 
G01 X-41.5991 Y48.3756 F508.00 
G01 X-41.6805 Y48.5353 
G01 X-41.7359 Y48.7058 
G01 X-41.7639 Y48.8829 
G01 X-41.7639 Y49.0621 
G01 X-41.7359 Y49.2392 
G01 X-41.6805 Y49.4097 
G01 X-41.5991 Y49.5694 
G01 X-41.4937 Y49.7144 
G01 X-41.3669 Y49.8412 
G01 X-41.2219 Y49.9466 
G01 X-41.0622 Y50.0280 
G01 X-40.8917 Y50.0834 
G01 X-40.7146 Y50.1114 
G01 X-40.5354 Y50.1114 
G01 X-40.3583 Y50.0834 
G01 X-40.1878 Y50.0280 
G01 X-40.0281 Y49.9466 
G01 X-39.8831 Y49.8412 
G01 X-39.7563 Y49.7144 
G01 X-39.6509 Y49.5694 
G01 X-39.5695 Y49.4097 
G01 X-39.5141 Y49.2392 
G01 X-39.4861 Y49.0621 
G01 X-39.4861 Y48.8829 
G01 X-39.5141 Y48.7058 
G01 X-39.5695 Y48.5353 
G01 X-39.6509 Y48.3756 
G01 X-39.7563 Y48.2306 
G01 X-39.8831 Y48.1038 
G01 X-40.0281 Y47.9984 
G01 X-40.1878 Y47.9170 
G01 X-40.3583 Y47.8616 
G01 X-40.5354 Y47.8336 
G01 X-40.7146 Y47.8336 
G01 X-40.8917 Y47.8616 
G01 X-41.0622 Y47.9170 
G01 X-41.2219 Y47.9984 
G01 X-41.3669 Y48.1038 
G01 X-41.4937 Y48.2306 
G00 Z2.0000 
G00 X-41.4937 Y47.1744 
G01 Z-0.0250 F254.00 
G01 X-41.3669 Y47.3012 F508.00 
G01 X-41.2219 Y47.4066 
G01 X-41.0622 Y47.4880 
G01 X-40.8917 Y47.5434 
G01 X-40.7146 Y47.5714 
G01 X-40.5354 Y47.5714 
G01 X-40.3583 Y47.5434 
G01 X-40.1878 Y47.4880 
G01 X-40.0281 Y47.4066 
G01 X-39.8831 Y47.3012 
G01 X-39.7563 Y47.1744 
G01 X-39.6509 Y47.0294 
G01 X-39.5695 Y46.8697 
G01 X-39.5141 Y46.6992 
G01 X-39.4861 Y46.5221 
G01 X-39.4861 Y46.3429 
G01 X-39.5141 Y46.1658 
G01 X-39.5695 Y45.9953 
G01 X-39.6509 Y45.8356 
G01 X-39.7563 Y45.6906 
G01 X-39.8831 Y45.5638 
G01 X-40.0281 Y45.4584 
G01 X-40.1878 Y45.3770 
G01 X-40.3583 Y45.3216 
G01 X-40.5354 Y45.2936 
G01 X-40.7146 Y45.2936 
G01 X-40.8917 Y45.3216 
G01 X-41.0622 Y45.3770 
G01 X-41.2219 Y45.4584 
G01 X-41.3669 Y45.5638 
G01 X-41.4937 Y45.6906 
G01 X-41.5991 Y45.8356 
G01 X-41.6805 Y45.9953 
G01 X-41.7359 Y46.1658 
G01 X-41.7639 Y46.3429 
G01 X-41.7639 Y46.5221 
G01 X-41.7359 Y46.6992 
G01 X-41.6805 Y46.8697 
G01 X-41.5991 Y47.0294 
G01 X-41.4937 Y47.1744 
G00 Z2.0000 
G00 X-38.9537 Y47.1744 
G01 Z-0.0250 F254.00 
G01 X-38.8269 Y47.3012 F508.00 
G01 X-38.6819 Y47.4066 
G01 X-38.5222 Y47.4880 
G01 X-38.3517 Y47.5434 
G01 X-38.1746 Y47.5714 
G01 X-37.9954 Y47.5714 
G01 X-37.8183 Y47.5434 
G01 X-37.6478 Y47.4880 
G01 X-37.4881 Y47.4066 
G01 X-37.3431 Y47.3012 
G01 X-37.2163 Y47.1744 
G01 X-37.1109 Y47.0294 
G01 X-37.0295 Y46.8697 
G01 X-36.9741 Y46.6992 
G01 X-36.9461 Y46.5221 
G01 X-36.9461 Y46.3429 
G01 X-36.9741 Y46.1658 
G01 X-37.0295 Y45.9953 
G01 X-37.1109 Y45.8356 
G01 X-37.2163 Y45.6906 
G01 X-37.3431 Y45.5638 
G01 X-37.4881 Y45.4584 
G01 X-37.6478 Y45.3770 
G01 X-37.8183 Y45.3216 
G01 X-37.9954 Y45.2936 
G01 X-38.1746 Y45.2936 
G01 X-38.3517 Y45.3216 
G01 X-38.5222 Y45.3770 
G01 X-38.6819 Y45.4584 
G01 X-38.8269 Y45.5638 
G01 X-38.9537 Y45.6906 
G01 X-39.0591 Y45.8356 
G01 X-39.1405 Y45.9953 
G01 X-39.1959 Y46.1658 
G01 X-39.2239 Y46.3429 
G01 X-39.2239 Y46.5221 
G01 X-39.1959 Y46.6992 
G01 X-39.1405 Y46.8697 
G01 X-39.0591 Y47.0294 
G01 X-38.9537 Y47.1744 
G00 Z2.0000 
G00 X-27.4119 Y47.3913 
G01 Z-0.0250 F254.00 
G01 X-27.5387 Y47.5181 F508.00 
G01 X-27.6441 Y47.6631 
G01 X-27.7255 Y47.8228 
G01 X-27.7809 Y47.9933 
G01 X-27.8089 Y48.1704 
G01 X-27.8089 Y48.3496 
G01 X-27.7809 Y48.5267 
G01 X-27.7255 Y48.6972 
G01 X-27.6441 Y48.8569 
G01 X-27.5387 Y49.0019 
G01 X-27.4119 Y49.1287 
G01 X-27.2669 Y49.2341 
G01 X-27.1072 Y49.3155 
G01 X-26.9367 Y49.3709 
G01 X-26.7596 Y49.3989 
G01 X-26.5804 Y49.3989 
G01 X-26.4033 Y49.3709 
G01 X-26.2328 Y49.3155 
G01 X-26.0731 Y49.2341 
G01 X-25.9281 Y49.1287 
G01 X-25.8013 Y49.0019 
G01 X-25.6959 Y48.8569 
G01 X-25.6145 Y48.6972 
G01 X-25.5591 Y48.5267 
G01 X-25.5311 Y48.3496 
G01 X-25.5311 Y48.1704 
G01 X-25.5591 Y47.9933 
G01 X-25.6145 Y47.8228 
G01 X-25.6959 Y47.6631 
G01 X-25.8013 Y47.5181 
G01 X-25.9281 Y47.3913 
G01 X-26.0731 Y47.2859 
G01 X-26.2328 Y47.2045 
G01 X-26.4033 Y47.1491 
G01 X-26.5804 Y47.1211 
G01 X-26.7596 Y47.1211 
G01 X-26.9367 Y47.1491 
G01 X-27.1072 Y47.2045 
G01 X-27.2669 Y47.2859 
G01 X-27.4119 Y47.3913 
G00 Z2.0000 
G00 X-27.4119 Y46.5887 
G01 Z-0.0250 F254.00 
G01 X-27.2669 Y46.6941 F508.00 
G01 X-27.1072 Y46.7755 
G01 X-26.9367 Y46.8309 
G01 X-26.7596 Y46.8589 
G01 X-26.5804 Y46.8589 
G01 X-26.4033 Y46.8309 
G01 X-26.2328 Y46.7755 
G01 X-26.0731 Y46.6941 
G01 X-25.9281 Y46.5887 
G01 X-25.8013 Y46.4619 
G01 X-25.6959 Y46.3169 
G01 X-25.6145 Y46.1572 
G01 X-25.5591 Y45.9867 
G01 X-25.5311 Y45.8096 
G01 X-25.5311 Y45.6304 
G01 X-25.5591 Y45.4533 
G01 X-25.6145 Y45.2828 
G01 X-25.6959 Y45.1231 
G01 X-25.8013 Y44.9781 
G01 X-25.9281 Y44.8513 
G01 X-26.0731 Y44.7459 
G01 X-26.2328 Y44.6645 
G01 X-26.4033 Y44.6091 
G01 X-26.5804 Y44.5811 
G01 X-26.7596 Y44.5811 
G01 X-26.9367 Y44.6091 
G01 X-27.1072 Y44.6645 
G01 X-27.2669 Y44.7459 
G01 X-27.4119 Y44.8513 
G01 X-27.5387 Y44.9781 
G01 X-27.6441 Y45.1231 
G01 X-27.7255 Y45.2828 
G01 X-27.7809 Y45.4533 
G01 X-27.8089 Y45.6304 
G01 X-27.8089 Y45.8096 
G01 X-27.7809 Y45.9867 
G01 X-27.7255 Y46.1572 
G01 X-27.6441 Y46.3169 
G01 X-27.5387 Y46.4619 
G01 X-27.4119 Y46.5887 
G00 Z2.0000 
G00 X-27.4119 Y44.0487 
G01 Z-0.0250 F254.00 
G01 X-27.2669 Y44.1541 F508.00 
G01 X-27.1072 Y44.2355 
G01 X-26.9367 Y44.2909 
G01 X-26.7596 Y44.3189 
G01 X-26.5804 Y44.3189 
G01 X-26.4033 Y44.2909 
G01 X-26.2328 Y44.2355 
G01 X-26.0731 Y44.1541 
G01 X-25.9281 Y44.0487 
G01 X-25.8013 Y43.9219 
G01 X-25.6959 Y43.7769 
G01 X-25.6145 Y43.6172 
G01 X-25.5591 Y43.4467 
G01 X-25.5311 Y43.2696 
G01 X-25.5311 Y43.0904 
G01 X-25.5591 Y42.9133 
G01 X-25.6145 Y42.7428 
G01 X-25.6959 Y42.5831 
G01 X-25.8013 Y42.4381 
G01 X-25.9281 Y42.3113 
G01 X-26.0731 Y42.2059 
G01 X-26.2328 Y42.1245 
G01 X-26.4033 Y42.0691 
G01 X-26.5804 Y42.0411 
G01 X-26.7596 Y42.0411 
G01 X-26.9367 Y42.0691 
G01 X-27.1072 Y42.1245 
G01 X-27.2669 Y42.2059 
G01 X-27.4119 Y42.3113 
G01 X-27.5387 Y42.4381 
G01 X-27.6441 Y42.5831 
G01 X-27.7255 Y42.7428 
G01 X-27.7809 Y42.9133 
G01 X-27.8089 Y43.0904 
G01 X-27.8089 Y43.2696 
G01 X-27.7809 Y43.4467 
G01 X-27.7255 Y43.6172 
G01 X-27.6441 Y43.7769 
G01 X-27.5387 Y43.9219 
G01 X-27.4119 Y44.0487 
G00 Z2.0000 
G00 X-27.4119 Y41.5087 
G01 Z-0.0250 F254.00 
G01 X-27.2669 Y41.6141 F508.00 
G01 X-27.1072 Y41.6955 
G01 X-26.9367 Y41.7509 
G01 X-26.7596 Y41.7789 
G01 X-26.5804 Y41.7789 
G01 X-26.4033 Y41.7509 
G01 X-26.2328 Y41.6955 
G01 X-26.0731 Y41.6141 
G01 X-25.9281 Y41.5087 
G01 X-25.8013 Y41.3819 
G01 X-25.6959 Y41.2369 
G01 X-25.6145 Y41.0772 
G01 X-25.5591 Y40.9067 
G01 X-25.5311 Y40.7296 
G01 X-25.5311 Y40.5504 
G01 X-25.5591 Y40.3733 
G01 X-25.6145 Y40.2028 
G01 X-25.6959 Y40.0431 
G01 X-25.8013 Y39.8981 
G01 X-25.9281 Y39.7713 
G01 X-26.0731 Y39.6659 
G01 X-26.2328 Y39.5845 
G01 X-26.4033 Y39.5291 
G01 X-26.5804 Y39.5011 
G01 X-26.7596 Y39.5011 
G01 X-26.9367 Y39.5291 
G01 X-27.1072 Y39.5845 
G01 X-27.2669 Y39.6659 
G01 X-27.4119 Y39.7713 
G01 X-27.5387 Y39.8981 
G01 X-27.6441 Y40.0431 
G01 X-27.7255 Y40.2028 
G01 X-27.7809 Y40.3733 
G01 X-27.8089 Y40.5504 
G01 X-27.8089 Y40.7296 
G01 X-27.7809 Y40.9067 
G01 X-27.7255 Y41.0772 
G01 X-27.6441 Y41.2369 
G01 X-27.5387 Y41.3819 
G01 X-27.4119 Y41.5087 
G00 Z2.0000 
G00 X-27.4119 Y38.9687 
G01 Z-0.0250 F254.00 
G01 X-27.2669 Y39.0741 F508.00 
G01 X-27.1072 Y39.1555 
G01 X-26.9367 Y39.2109 
G01 X-26.7596 Y39.2389 
G01 X-26.5804 Y39.2389 
G01 X-26.4033 Y39.2109 
G01 X-26.2328 Y39.1555 
G01 X-26.0731 Y39.0741 
G01 X-25.9281 Y38.9687 
G01 X-25.8013 Y38.8419 
G01 X-25.6959 Y38.6969 
G01 X-25.6145 Y38.5372 
G01 X-25.5591 Y38.3667 
G01 X-25.5311 Y38.1896 
G01 X-25.5311 Y38.0104 
G01 X-25.5591 Y37.8333 
G01 X-25.6145 Y37.6628 
G01 X-25.6959 Y37.5031 
G01 X-25.8013 Y37.3581 
G01 X-25.9281 Y37.2313 
G01 X-26.0731 Y37.1259 
G01 X-26.2328 Y37.0445 
G01 X-26.4033 Y36.9891 
G01 X-26.5804 Y36.9611 
G01 X-26.7596 Y36.9611 
G01 X-26.9367 Y36.9891 
G01 X-27.1072 Y37.0445 
G01 X-27.2669 Y37.1259 
G01 X-27.4119 Y37.2313 
G01 X-27.5387 Y37.3581 
G01 X-27.6441 Y37.5031 
G01 X-27.7255 Y37.6628 
G01 X-27.7809 Y37.8333 
G01 X-27.8089 Y38.0104 
G01 X-27.8089 Y38.1896 
G01 X-27.7809 Y38.3667 
G01 X-27.7255 Y38.5372 
G01 X-27.6441 Y38.6969 
G01 X-27.5387 Y38.8419 
G01 X-27.4119 Y38.9687 
G00 Z2.0000 
G00 X-27.4119 Y36.4287 
G01 Z-0.0250 F254.00 
G01 X-27.2669 Y36.5341 F508.00 
G01 X-27.1072 Y36.6155 
G01 X-26.9367 Y36.6709 
G01 X-26.7596 Y36.6989 
G01 X-26.5804 Y36.6989 
G01 X-26.4033 Y36.6709 
G01 X-26.2328 Y36.6155 
G01 X-26.0731 Y36.5341 
G01 X-25.9281 Y36.4287 
G01 X-25.8013 Y36.3019 
G01 X-25.6959 Y36.1569 
G01 X-25.6145 Y35.9972 
G01 X-25.5591 Y35.8267 
G01 X-25.5311 Y35.6496 
G01 X-25.5311 Y35.4704 
G01 X-25.5591 Y35.2933 
G01 X-25.6145 Y35.1228 
G01 X-25.6959 Y34.9631 
G01 X-25.8013 Y34.8181 
G01 X-25.9281 Y34.6913 
G01 X-26.0731 Y34.5859 
G01 X-26.2328 Y34.5045 
G01 X-26.4033 Y34.4491 
G01 X-26.5804 Y34.4211 
G01 X-26.7596 Y34.4211 
G01 X-26.9367 Y34.4491 
G01 X-27.1072 Y34.5045 
G01 X-27.2669 Y34.5859 
G01 X-27.4119 Y34.6913 
G01 X-27.5387 Y34.8181 
G01 X-27.6441 Y34.9631 
G01 X-27.7255 Y35.1228 
G01 X-27.7809 Y35.2933 
G01 X-27.8089 Y35.4704 
G01 X-27.8089 Y35.6496 
G01 X-27.7809 Y35.8267 
G01 X-27.7255 Y35.9972 
G01 X-27.6441 Y36.1569 
G01 X-27.5387 Y36.3019 
G01 X-27.4119 Y36.4287 
G00 Z2.0000 
G00 X-27.4119 Y33.8887 
G01 Z-0.0250 F254.00 
G01 X-27.2669 Y33.9941 F508.00 
G01 X-27.1072 Y34.0755 
G01 X-26.9367 Y34.1309 
G01 X-26.7596 Y34.1589 
G01 X-26.5804 Y34.1589 
G01 X-26.4033 Y34.1309 
G01 X-26.2328 Y34.0755 
G01 X-26.0731 Y33.9941 
G01 X-25.9281 Y33.8887 
G01 X-25.8013 Y33.7619 
G01 X-25.6959 Y33.6169 
G01 X-25.6145 Y33.4572 
G01 X-25.5591 Y33.2867 
G01 X-25.5311 Y33.1096 
G01 X-25.5311 Y32.9304 
G01 X-25.5591 Y32.7533 
G01 X-25.6145 Y32.5828 
G01 X-25.6959 Y32.4231 
G01 X-25.8013 Y32.2781 
G01 X-25.9281 Y32.1513 
G01 X-26.0731 Y32.0459 
G01 X-26.2328 Y31.9645 
G01 X-26.4033 Y31.9091 
G01 X-26.5804 Y31.8811 
G01 X-26.7596 Y31.8811 
G01 X-26.9367 Y31.9091 
G01 X-27.1072 Y31.9645 
G01 X-27.2669 Y32.0459 
G01 X-27.4119 Y32.1513 
G01 X-27.5387 Y32.2781 
G01 X-27.6441 Y32.4231 
G01 X-27.7255 Y32.5828 
G01 X-27.7809 Y32.7533 
G01 X-27.8089 Y32.9304 
G01 X-27.8089 Y33.1096 
G01 X-27.7809 Y33.2867 
G01 X-27.7255 Y33.4572 
G01 X-27.6441 Y33.6169 
G01 X-27.5387 Y33.7619 
G01 X-27.4119 Y33.8887 
G00 Z2.0000 
G00 X-27.4119 Y31.3487 
G01 Z-0.0250 F254.00 
G01 X-27.2669 Y31.4541 F508.00 
G01 X-27.1072 Y31.5355 
G01 X-26.9367 Y31.5909 
G01 X-26.7596 Y31.6189 
G01 X-26.5804 Y31.6189 
G01 X-26.4033 Y31.5909 
G01 X-26.2328 Y31.5355 
G01 X-26.0731 Y31.4541 
G01 X-25.9281 Y31.3487 
G01 X-25.8013 Y31.2219 
G01 X-25.6959 Y31.0769 
G01 X-25.6145 Y30.9172 
G01 X-25.5591 Y30.7467 
G01 X-25.5311 Y30.5696 
G01 X-25.5311 Y30.3904 
G01 X-25.5591 Y30.2133 
G01 X-25.6145 Y30.0428 
G01 X-25.6959 Y29.8831 
G01 X-25.8013 Y29.7381 
G01 X-25.9281 Y29.6113 
G01 X-26.0731 Y29.5059 
G01 X-26.2328 Y29.4245 
G01 X-26.4033 Y29.3691 
G01 X-26.5804 Y29.3411 
G01 X-26.7596 Y29.3411 
G01 X-26.9367 Y29.3691 
G01 X-27.1072 Y29.4245 
G01 X-27.2669 Y29.5059 
G01 X-27.4119 Y29.6113 
G01 X-27.5387 Y29.7381 
G01 X-27.6441 Y29.8831 
G01 X-27.7255 Y30.0428 
G01 X-27.7809 Y30.2133 
G01 X-27.8089 Y30.3904 
G01 X-27.8089 Y30.5696 
G01 X-27.7809 Y30.7467 
G01 X-27.7255 Y30.9172 
G01 X-27.6441 Y31.0769 
G01 X-27.5387 Y31.2219 
G01 X-27.4119 Y31.3487 
G00 Z2.0000 
G00 X-27.4119 Y28.8087 
G01 Z-0.0250 F254.00 
G01 X-27.2669 Y28.9141 F508.00 
G01 X-27.1072 Y28.9955 
G01 X-26.9367 Y29.0509 
G01 X-26.7596 Y29.0789 
G01 X-26.5804 Y29.0789 
G01 X-26.4033 Y29.0509 
G01 X-26.2328 Y28.9955 
G01 X-26.0731 Y28.9141 
G01 X-25.9281 Y28.8087 
G01 X-25.8013 Y28.6819 
G01 X-25.6959 Y28.5369 
G01 X-25.6145 Y28.3772 
G01 X-25.5591 Y28.2067 
G01 X-25.5311 Y28.0296 
G01 X-25.5311 Y27.8504 
G01 X-25.5591 Y27.6733 
G01 X-25.6145 Y27.5028 
G01 X-25.6959 Y27.3431 
G01 X-25.8013 Y27.1981 
G01 X-25.9281 Y27.0713 
G01 X-26.0731 Y26.9659 
G01 X-26.2328 Y26.8845 
G01 X-26.4033 Y26.8291 
G01 X-26.5804 Y26.8011 
G01 X-26.7596 Y26.8011 
G01 X-26.9367 Y26.8291 
G01 X-27.1072 Y26.8845 
G01 X-27.2669 Y26.9659 
G01 X-27.4119 Y27.0713 
G01 X-27.5387 Y27.1981 
G01 X-27.6441 Y27.3431 
G01 X-27.7255 Y27.5028 
G01 X-27.7809 Y27.6733 
G01 X-27.8089 Y27.8504 
G01 X-27.8089 Y28.0296 
G01 X-27.7809 Y28.2067 
G01 X-27.7255 Y28.3772 
G01 X-27.6441 Y28.5369 
G01 X-27.5387 Y28.6819 
G01 X-27.4119 Y28.8087 
G00 Z2.0000 
G00 X-27.4119 Y26.2687 
G01 Z-0.0250 F254.00 
G01 X-27.2669 Y26.3741 F508.00 
G01 X-27.1072 Y26.4555 
G01 X-26.9367 Y26.5109 
G01 X-26.7596 Y26.5389 
G01 X-26.5804 Y26.5389 
G01 X-26.4033 Y26.5109 
G01 X-26.2328 Y26.4555 
G01 X-26.0731 Y26.3741 
G01 X-25.9281 Y26.2687 
G01 X-25.8013 Y26.1419 
G01 X-25.6959 Y25.9969 
G01 X-25.6145 Y25.8372 
G01 X-25.5591 Y25.6667 
G01 X-25.5311 Y25.4896 
G01 X-25.5311 Y25.3104 
G01 X-25.5591 Y25.1333 
G01 X-25.6145 Y24.9628 
G01 X-25.6959 Y24.8031 
G01 X-25.8013 Y24.6581 
G01 X-25.9281 Y24.5313 
G01 X-26.0731 Y24.4259 
G01 X-26.2328 Y24.3445 
G01 X-26.4033 Y24.2891 
G01 X-26.5804 Y24.2611 
G01 X-26.7596 Y24.2611 
G01 X-26.9367 Y24.2891 
G01 X-27.1072 Y24.3445 
G01 X-27.2669 Y24.4259 
G01 X-27.4119 Y24.5313 
G01 X-27.5387 Y24.6581 
G01 X-27.6441 Y24.8031 
G01 X-27.7255 Y24.9628 
G01 X-27.7809 Y25.1333 
G01 X-27.8089 Y25.3104 
G01 X-27.8089 Y25.4896 
G01 X-27.7809 Y25.6667 
G01 X-27.7255 Y25.8372 
G01 X-27.6441 Y25.9969 
G01 X-27.5387 Y26.1419 
G01 X-27.4119 Y26.2687 
G00 Z2.0000 
G00 X-27.4119 Y23.7287 
G01 Z-0.0250 F254.00 
G01 X-27.2669 Y23.8341 F508.00 
G01 X-27.1072 Y23.9155 
G01 X-26.9367 Y23.9709 
G01 X-26.7596 Y23.9989 
G01 X-26.5804 Y23.9989 
G01 X-26.4033 Y23.9709 
G01 X-26.2328 Y23.9155 
G01 X-26.0731 Y23.8341 
G01 X-25.9281 Y23.7287 
G01 X-25.8013 Y23.6019 
G01 X-25.6959 Y23.4569 
G01 X-25.6145 Y23.2972 
G01 X-25.5591 Y23.1267 
G01 X-25.5311 Y22.9496 
G01 X-25.5311 Y22.7704 
G01 X-25.5591 Y22.5933 
G01 X-25.6145 Y22.4228 
G01 X-25.6959 Y22.2631 
G01 X-25.8013 Y22.1181 
G01 X-25.9281 Y21.9913 
G01 X-26.0731 Y21.8859 
G01 X-26.2328 Y21.8045 
G01 X-26.4033 Y21.7491 
G01 X-26.5804 Y21.7211 
G01 X-26.7596 Y21.7211 
G01 X-26.9367 Y21.7491 
G01 X-27.1072 Y21.8045 
G01 X-27.2669 Y21.8859 
G01 X-27.4119 Y21.9913 
G01 X-27.5387 Y22.1181 
G01 X-27.6441 Y22.2631 
G01 X-27.7255 Y22.4228 
G01 X-27.7809 Y22.5933 
G01 X-27.8089 Y22.7704 
G01 X-27.8089 Y22.9496 
G01 X-27.7809 Y23.1267 
G01 X-27.7255 Y23.2972 
G01 X-27.6441 Y23.4569 
G01 X-27.5387 Y23.6019 
G01 X-27.4119 Y23.7287 
G00 Z2.0000 
G00 X-23.7287 Y23.6019 
G01 Z-0.0250 F254.00 
G01 X-23.6019 Y23.7287 F508.00 
G01 X-23.4569 Y23.8341 
G01 X-23.2972 Y23.9155 
G01 X-23.1267 Y23.9709 
G01 X-22.9496 Y23.9989 
G01 X-22.7704 Y23.9989 
G01 X-22.5933 Y23.9709 
G01 X-22.4228 Y23.9155 
G01 X-22.2631 Y23.8341 
G01 X-22.1181 Y23.7287 
G01 X-21.9913 Y23.6019 
G01 X-21.8859 Y23.4569 
G01 X-21.8045 Y23.2972 
G01 X-21.7491 Y23.1267 
G01 X-21.7211 Y22.9496 
G01 X-21.7211 Y22.7704 
G01 X-21.7491 Y22.5933 
G01 X-21.8045 Y22.4228 
G01 X-21.8859 Y22.2631 
G01 X-21.9913 Y22.1181 
G01 X-22.1181 Y21.9913 
G01 X-22.2631 Y21.8859 
G01 X-22.4228 Y21.8045 
G01 X-22.5933 Y21.7491 
G01 X-22.7704 Y21.7211 
G01 X-22.9496 Y21.7211 
G01 X-23.1267 Y21.7491 
G01 X-23.2972 Y21.8045 
G01 X-23.4569 Y21.8859 
G01 X-23.6019 Y21.9913 
G01 X-23.7287 Y22.1181 
G01 X-23.8341 Y22.2631 
G01 X-23.9155 Y22.4228 
G01 X-23.9709 Y22.5933 
G01 X-23.9989 Y22.7704 
G01 X-23.9989 Y22.9496 
G01 X-23.9709 Y23.1267 
G01 X-23.9155 Y23.2972 
G01 X-23.8341 Y23.4569 
G01 X-23.7287 Y23.6019 
G00 Z2.0000 
G00 X-21.1887 Y23.6019 
G01 Z-0.0250 F254.00 
G01 X-21.0619 Y23.7287 F508.00 
G01 X-20.9169 Y23.8341 
G01 X-20.7572 Y23.9155 
G01 X-20.5867 Y23.9709 
G01 X-20.4096 Y23.9989 
G01 X-20.2304 Y23.9989 
G01 X-20.0533 Y23.9709 
G01 X-19.8828 Y23.9155 
G01 X-19.7231 Y23.8341 
G01 X-19.5781 Y23.7287 
G01 X-19.4513 Y23.6019 
G01 X-19.3459 Y23.4569 
G01 X-19.2645 Y23.2972 
G01 X-19.2091 Y23.1267 
G01 X-19.1811 Y22.9496 
G01 X-19.1811 Y22.7704 
G01 X-19.2091 Y22.5933 
G01 X-19.2645 Y22.4228 
G01 X-19.3459 Y22.2631 
G01 X-19.4513 Y22.1181 
G01 X-19.5781 Y21.9913 
G01 X-19.7231 Y21.8859 
G01 X-19.8828 Y21.8045 
G01 X-20.0533 Y21.7491 
G01 X-20.2304 Y21.7211 
G01 X-20.4096 Y21.7211 
G01 X-20.5867 Y21.7491 
G01 X-20.7572 Y21.8045 
G01 X-20.9169 Y21.8859 
G01 X-21.0619 Y21.9913 
G01 X-21.1887 Y22.1181 
G01 X-21.2941 Y22.2631 
G01 X-21.3755 Y22.4228 
G01 X-21.4309 Y22.5933 
G01 X-21.4589 Y22.7704 
G01 X-21.4589 Y22.9496 
G01 X-21.4309 Y23.1267 
G01 X-21.3755 Y23.2972 
G01 X-21.2941 Y23.4569 
G01 X-21.1887 Y23.6019 
G00 Z2.0000 
G00 X-18.6487 Y23.6019 
G01 Z-0.0250 F254.00 
G01 X-18.5219 Y23.7287 F508.00 
G01 X-18.3769 Y23.8341 
G01 X-18.2172 Y23.9155 
G01 X-18.0467 Y23.9709 
G01 X-17.8696 Y23.9989 
G01 X-17.6904 Y23.9989 
G01 X-17.5133 Y23.9709 
G01 X-17.3428 Y23.9155 
G01 X-17.1831 Y23.8341 
G01 X-17.0381 Y23.7287 
G01 X-16.9113 Y23.6019 
G01 X-16.8059 Y23.4569 
G01 X-16.7245 Y23.2972 
G01 X-16.6691 Y23.1267 
G01 X-16.6411 Y22.9496 
G01 X-16.6411 Y22.7704 
G01 X-16.6691 Y22.5933 
G01 X-16.7245 Y22.4228 
G01 X-16.8059 Y22.2631 
G01 X-16.9113 Y22.1181 
G01 X-17.0381 Y21.9913 
G01 X-17.1831 Y21.8859 
G01 X-17.3428 Y21.8045 
G01 X-17.5133 Y21.7491 
G01 X-17.6904 Y21.7211 
G01 X-17.8696 Y21.7211 
G01 X-18.0467 Y21.7491 
G01 X-18.2172 Y21.8045 
G01 X-18.3769 Y21.8859 
G01 X-18.5219 Y21.9913 
G01 X-18.6487 Y22.1181 
G01 X-18.7541 Y22.2631 
G01 X-18.8355 Y22.4228 
G01 X-18.8909 Y22.5933 
G01 X-18.9189 Y22.7704 
G01 X-18.9189 Y22.9496 
G01 X-18.8909 Y23.1267 
G01 X-18.8355 Y23.2972 
G01 X-18.7541 Y23.4569 
G01 X-18.6487 Y23.6019 
G00 Z2.0000 
G00 X-12.2987 Y23.6019 
G01 Z-0.0250 F254.00 
G01 X-12.1719 Y23.7287 F508.00 
G01 X-12.0269 Y23.8341 
G01 X-11.8672 Y23.9155 
G01 X-11.6967 Y23.9709 
G01 X-11.5196 Y23.9989 
G01 X-11.3404 Y23.9989 
G01 X-11.1633 Y23.9709 
G01 X-10.9928 Y23.9155 
G01 X-10.8331 Y23.8341 
G01 X-10.6881 Y23.7287 
G01 X-10.5613 Y23.6019 
G01 X-10.4559 Y23.4569 
G01 X-10.3745 Y23.2972 
G01 X-10.3191 Y23.1267 
G01 X-10.2911 Y22.9496 
G01 X-10.2911 Y22.7704 
G01 X-10.3191 Y22.5933 
G01 X-10.3745 Y22.4228 
G01 X-10.4559 Y22.2631 
G01 X-10.5613 Y22.1181 
G01 X-10.6881 Y21.9913 
G01 X-10.8331 Y21.8859 
G01 X-10.9928 Y21.8045 
G01 X-11.1633 Y21.7491 
G01 X-11.3404 Y21.7211 
G01 X-11.5196 Y21.7211 
G01 X-11.6967 Y21.7491 
G01 X-11.8672 Y21.8045 
G01 X-12.0269 Y21.8859 
G01 X-12.1719 Y21.9913 
G01 X-12.2987 Y22.1181 
G01 X-12.4041 Y22.2631 
G01 X-12.4855 Y22.4228 
G01 X-12.5409 Y22.5933 
G01 X-12.5689 Y22.7704 
G01 X-12.5689 Y22.9496 
G01 X-12.5409 Y23.1267 
G01 X-12.4855 Y23.2972 
G01 X-12.4041 Y23.4569 
G01 X-12.2987 Y23.6019 
G00 Z2.0000 
G00 X-12.1719 Y24.5313 
G01 Z-0.0250 F254.00 
G01 X-12.2987 Y24.6581 F508.00 
G01 X-12.4041 Y24.8031 
G01 X-12.4855 Y24.9628 
G01 X-12.5409 Y25.1333 
G01 X-12.5689 Y25.3104 
G01 X-12.5689 Y25.4896 
G01 X-12.5409 Y25.6667 
G01 X-12.4855 Y25.8372 
G01 X-12.4041 Y25.9969 
G01 X-12.2987 Y26.1419 
G01 X-12.1719 Y26.2687 
G01 X-12.0269 Y26.3741 
G01 X-11.8672 Y26.4555 
G01 X-11.6967 Y26.5109 
G01 X-11.5196 Y26.5389 
G01 X-11.3404 Y26.5389 
G01 X-11.1633 Y26.5109 
G01 X-10.9928 Y26.4555 
G01 X-10.8331 Y26.3741 
G01 X-10.6881 Y26.2687 
G01 X-10.5613 Y26.1419 
G01 X-10.4559 Y25.9969 
G01 X-10.3745 Y25.8372 
G01 X-10.3191 Y25.6667 
G01 X-10.2911 Y25.4896 
G01 X-10.2911 Y25.3104 
G01 X-10.3191 Y25.1333 
G01 X-10.3745 Y24.9628 
G01 X-10.4559 Y24.8031 
G01 X-10.5613 Y24.6581 
G01 X-10.6881 Y24.5313 
G01 X-10.8331 Y24.4259 
G01 X-10.9928 Y24.3445 
G01 X-11.1633 Y24.2891 
G01 X-11.3404 Y24.2611 
G01 X-11.5196 Y24.2611 
G01 X-11.6967 Y24.2891 
G01 X-11.8672 Y24.3445 
G01 X-12.0269 Y24.4259 
G01 X-12.1719 Y24.5313 
G00 Z2.0000 
G00 X-12.1719 Y27.0713 
G01 Z-0.0250 F254.00 
G01 X-12.2987 Y27.1981 F508.00 
G01 X-12.4041 Y27.3431 
G01 X-12.4855 Y27.5028 
G01 X-12.5409 Y27.6733 
G01 X-12.5689 Y27.8504 
G01 X-12.5689 Y28.0296 
G01 X-12.5409 Y28.2067 
G01 X-12.4855 Y28.3772 
G01 X-12.4041 Y28.5369 
G01 X-12.2987 Y28.6819 
G01 X-12.1719 Y28.8087 
G01 X-12.0269 Y28.9141 
G01 X-11.8672 Y28.9955 
G01 X-11.6967 Y29.0509 
G01 X-11.5196 Y29.0789 
G01 X-11.3404 Y29.0789 
G01 X-11.1633 Y29.0509 
G01 X-10.9928 Y28.9955 
G01 X-10.8331 Y28.9141 
G01 X-10.6881 Y28.8087 
G01 X-10.5613 Y28.6819 
G01 X-10.4559 Y28.5369 
G01 X-10.3745 Y28.3772 
G01 X-10.3191 Y28.2067 
G01 X-10.2911 Y28.0296 
G01 X-10.2911 Y27.8504 
G01 X-10.3191 Y27.6733 
G01 X-10.3745 Y27.5028 
G01 X-10.4559 Y27.3431 
G01 X-10.5613 Y27.1981 
G01 X-10.6881 Y27.0713 
G01 X-10.8331 Y26.9659 
G01 X-10.9928 Y26.8845 
G01 X-11.1633 Y26.8291 
G01 X-11.3404 Y26.8011 
G01 X-11.5196 Y26.8011 
G01 X-11.6967 Y26.8291 
G01 X-11.8672 Y26.8845 
G01 X-12.0269 Y26.9659 
G01 X-12.1719 Y27.0713 
G00 Z2.0000 
G00 X-12.1719 Y29.6113 
G01 Z-0.0250 F254.00 
G01 X-12.2987 Y29.7381 F508.00 
G01 X-12.4041 Y29.8831 
G01 X-12.4855 Y30.0428 
G01 X-12.5409 Y30.2133 
G01 X-12.5689 Y30.3904 
G01 X-12.5689 Y30.5696 
G01 X-12.5409 Y30.7467 
G01 X-12.4855 Y30.9172 
G01 X-12.4041 Y31.0769 
G01 X-12.2987 Y31.2219 
G01 X-12.1719 Y31.3487 
G01 X-12.0269 Y31.4541 
G01 X-11.8672 Y31.5355 
G01 X-11.6967 Y31.5909 
G01 X-11.5196 Y31.6189 
G01 X-11.3404 Y31.6189 
G01 X-11.1633 Y31.5909 
G01 X-10.9928 Y31.5355 
G01 X-10.8331 Y31.4541 
G01 X-10.6881 Y31.3487 
G01 X-10.5613 Y31.2219 
G01 X-10.4559 Y31.0769 
G01 X-10.3745 Y30.9172 
G01 X-10.3191 Y30.7467 
G01 X-10.2911 Y30.5696 
G01 X-10.2911 Y30.3904 
G01 X-10.3191 Y30.2133 
G01 X-10.3745 Y30.0428 
G01 X-10.4559 Y29.8831 
G01 X-10.5613 Y29.7381 
G01 X-10.6881 Y29.6113 
G01 X-10.8331 Y29.5059 
G01 X-10.9928 Y29.4245 
G01 X-11.1633 Y29.3691 
G01 X-11.3404 Y29.3411 
G01 X-11.5196 Y29.3411 
G01 X-11.6967 Y29.3691 
G01 X-11.8672 Y29.4245 
G01 X-12.0269 Y29.5059 
G01 X-12.1719 Y29.6113 
G00 Z2.0000 
G00 X-12.1719 Y32.1513 
G01 Z-0.0250 F254.00 
G01 X-12.2987 Y32.2781 F508.00 
G01 X-12.4041 Y32.4231 
G01 X-12.4855 Y32.5828 
G01 X-12.5409 Y32.7533 
G01 X-12.5689 Y32.9304 
G01 X-12.5689 Y33.1096 
G01 X-12.5409 Y33.2867 
G01 X-12.4855 Y33.4572 
G01 X-12.4041 Y33.6169 
G01 X-12.2987 Y33.7619 
G01 X-12.1719 Y33.8887 
G01 X-12.0269 Y33.9941 
G01 X-11.8672 Y34.0755 
G01 X-11.6967 Y34.1309 
G01 X-11.5196 Y34.1589 
G01 X-11.3404 Y34.1589 
G01 X-11.1633 Y34.1309 
G01 X-10.9928 Y34.0755 
G01 X-10.8331 Y33.9941 
G01 X-10.6881 Y33.8887 
G01 X-10.5613 Y33.7619 
G01 X-10.4559 Y33.6169 
G01 X-10.3745 Y33.4572 
G01 X-10.3191 Y33.2867 
G01 X-10.2911 Y33.1096 
G01 X-10.2911 Y32.9304 
G01 X-10.3191 Y32.7533 
G01 X-10.3745 Y32.5828 
G01 X-10.4559 Y32.4231 
G01 X-10.5613 Y32.2781 
G01 X-10.6881 Y32.1513 
G01 X-10.8331 Y32.0459 
G01 X-10.9928 Y31.9645 
G01 X-11.1633 Y31.9091 
G01 X-11.3404 Y31.8811 
G01 X-11.5196 Y31.8811 
G01 X-11.6967 Y31.9091 
G01 X-11.8672 Y31.9645 
G01 X-12.0269 Y32.0459 
G01 X-12.1719 Y32.1513 
G00 Z2.0000 
G00 X-12.1719 Y34.6913 
G01 Z-0.0250 F254.00 
G01 X-12.2987 Y34.8181 F508.00 
G01 X-12.4041 Y34.9631 
G01 X-12.4855 Y35.1228 
G01 X-12.5409 Y35.2933 
G01 X-12.5689 Y35.4704 
G01 X-12.5689 Y35.6496 
G01 X-12.5409 Y35.8267 
G01 X-12.4855 Y35.9972 
G01 X-12.4041 Y36.1569 
G01 X-12.2987 Y36.3019 
G01 X-12.1719 Y36.4287 
G01 X-12.0269 Y36.5341 
G01 X-11.8672 Y36.6155 
G01 X-11.6967 Y36.6709 
G01 X-11.5196 Y36.6989 
G01 X-11.3404 Y36.6989 
G01 X-11.1633 Y36.6709 
G01 X-10.9928 Y36.6155 
G01 X-10.8331 Y36.5341 
G01 X-10.6881 Y36.4287 
G01 X-10.5613 Y36.3019 
G01 X-10.4559 Y36.1569 
G01 X-10.3745 Y35.9972 
G01 X-10.3191 Y35.8267 
G01 X-10.2911 Y35.6496 
G01 X-10.2911 Y35.4704 
G01 X-10.3191 Y35.2933 
G01 X-10.3745 Y35.1228 
G01 X-10.4559 Y34.9631 
G01 X-10.5613 Y34.8181 
G01 X-10.6881 Y34.6913 
G01 X-10.8331 Y34.5859 
G01 X-10.9928 Y34.5045 
G01 X-11.1633 Y34.4491 
G01 X-11.3404 Y34.4211 
G01 X-11.5196 Y34.4211 
G01 X-11.6967 Y34.4491 
G01 X-11.8672 Y34.5045 
G01 X-12.0269 Y34.5859 
G01 X-12.1719 Y34.6913 
G00 Z2.0000 
G00 X-12.1719 Y37.2313 
G01 Z-0.0250 F254.00 
G01 X-12.2987 Y37.3581 F508.00 
G01 X-12.4041 Y37.5031 
G01 X-12.4855 Y37.6628 
G01 X-12.5409 Y37.8333 
G01 X-12.5689 Y38.0104 
G01 X-12.5689 Y38.1896 
G01 X-12.5409 Y38.3667 
G01 X-12.4855 Y38.5372 
G01 X-12.4041 Y38.6969 
G01 X-12.2987 Y38.8419 
G01 X-12.1719 Y38.9687 
G01 X-12.0269 Y39.0741 
G01 X-11.8672 Y39.1555 
G01 X-11.6967 Y39.2109 
G01 X-11.5196 Y39.2389 
G01 X-11.3404 Y39.2389 
G01 X-11.1633 Y39.2109 
G01 X-10.9928 Y39.1555 
G01 X-10.8331 Y39.0741 
G01 X-10.6881 Y38.9687 
G01 X-10.5613 Y38.8419 
G01 X-10.4559 Y38.6969 
G01 X-10.3745 Y38.5372 
G01 X-10.3191 Y38.3667 
G01 X-10.2911 Y38.1896 
G01 X-10.2911 Y38.0104 
G01 X-10.3191 Y37.8333 
G01 X-10.3745 Y37.6628 
G01 X-10.4559 Y37.5031 
G01 X-10.5613 Y37.3581 
G01 X-10.6881 Y37.2313 
G01 X-10.8331 Y37.1259 
G01 X-10.9928 Y37.0445 
G01 X-11.1633 Y36.9891 
G01 X-11.3404 Y36.9611 
G01 X-11.5196 Y36.9611 
G01 X-11.6967 Y36.9891 
G01 X-11.8672 Y37.0445 
G01 X-12.0269 Y37.1259 
G01 X-12.1719 Y37.2313 
G00 Z2.0000 
G00 X-12.1719 Y44.8513 
G01 Z-0.0250 F254.00 
G01 X-12.2987 Y44.9781 F508.00 
G01 X-12.4041 Y45.1231 
G01 X-12.4855 Y45.2828 
G01 X-12.5409 Y45.4533 
G01 X-12.5689 Y45.6304 
G01 X-12.5689 Y45.8096 
G01 X-12.5409 Y45.9867 
G01 X-12.4855 Y46.1572 
G01 X-12.4041 Y46.3169 
G01 X-12.2987 Y46.4619 
G01 X-12.1719 Y46.5887 
G01 X-12.0269 Y46.6941 
G01 X-11.8672 Y46.7755 
G01 X-11.6967 Y46.8309 
G01 X-11.5196 Y46.8589 
G01 X-11.3404 Y46.8589 
G01 X-11.1633 Y46.8309 
G01 X-10.9928 Y46.7755 
G01 X-10.8331 Y46.6941 
G01 X-10.6881 Y46.5887 
G01 X-10.5613 Y46.4619 
G01 X-10.4559 Y46.3169 
G01 X-10.3745 Y46.1572 
G01 X-10.3191 Y45.9867 
G01 X-10.2911 Y45.8096 
G01 X-10.2911 Y45.6304 
G01 X-10.3191 Y45.4533 
G01 X-10.3745 Y45.2828 
G01 X-10.4559 Y45.1231 
G01 X-10.5613 Y44.9781 
G01 X-10.6881 Y44.8513 
G01 X-10.8331 Y44.7459 
G01 X-10.9928 Y44.6645 
G01 X-11.1633 Y44.6091 
G01 X-11.3404 Y44.5811 
G01 X-11.5196 Y44.5811 
G01 X-11.6967 Y44.6091 
G01 X-11.8672 Y44.6645 
G01 X-12.0269 Y44.7459 
G01 X-12.1719 Y44.8513 
G00 Z2.0000 
G00 X-12.1719 Y47.3913 
G01 Z-0.0250 F254.00 
G01 X-12.2987 Y47.5181 F508.00 
G01 X-12.4041 Y47.6631 
G01 X-12.4855 Y47.8228 
G01 X-12.5409 Y47.9933 
G01 X-12.5689 Y48.1704 
G01 X-12.5689 Y48.3496 
G01 X-12.5409 Y48.5267 
G01 X-12.4855 Y48.6972 
G01 X-12.4041 Y48.8569 
G01 X-12.2987 Y49.0019 
G01 X-12.1719 Y49.1287 
G01 X-12.0269 Y49.2341 
G01 X-11.8672 Y49.3155 
G01 X-11.6967 Y49.3709 
G01 X-11.5196 Y49.3989 
G01 X-11.3404 Y49.3989 
G01 X-11.1633 Y49.3709 
G01 X-10.9928 Y49.3155 
G01 X-10.8331 Y49.2341 
G01 X-10.6881 Y49.1287 
G01 X-10.5613 Y49.0019 
G01 X-10.4559 Y48.8569 
G01 X-10.3745 Y48.6972 
G01 X-10.3191 Y48.5267 
G01 X-10.2911 Y48.3496 
G01 X-10.2911 Y48.1704 
G01 X-10.3191 Y47.9933 
G01 X-10.3745 Y47.8228 
G01 X-10.4559 Y47.6631 
G01 X-10.5613 Y47.5181 
G01 X-10.6881 Y47.3913 
G01 X-10.8331 Y47.2859 
G01 X-10.9928 Y47.2045 
G01 X-11.1633 Y47.1491 
G01 X-11.3404 Y47.1211 
G01 X-11.5196 Y47.1211 
G01 X-11.6967 Y47.1491 
G01 X-11.8672 Y47.2045 
G01 X-12.0269 Y47.2859 
G01 X-12.1719 Y47.3913 
G00 Z2.0000 
G00 X-12.1719 Y49.9313 
G01 Z-0.0250 F254.00 
G01 X-12.2987 Y50.0581 F508.00 
G01 X-12.4041 Y50.2031 
G01 X-12.4855 Y50.3628 
G01 X-12.5409 Y50.5333 
G01 X-12.5689 Y50.7104 
G01 X-12.5689 Y50.8896 
G01 X-12.5409 Y51.0667 
G01 X-12.4855 Y51.2372 
G01 X-12.4041 Y51.3969 
G01 X-12.2987 Y51.5419 
G01 X-12.1719 Y51.6687 
G01 X-12.0269 Y51.7741 
G01 X-11.8672 Y51.8555 
G01 X-11.6967 Y51.9109 
G01 X-11.5196 Y51.9389 
G01 X-11.3404 Y51.9389 
G01 X-11.1633 Y51.9109 
G01 X-10.9928 Y51.8555 
G01 X-10.8331 Y51.7741 
G01 X-10.6881 Y51.6687 
G01 X-10.5613 Y51.5419 
G01 X-10.4559 Y51.3969 
G01 X-10.3745 Y51.2372 
G01 X-10.3191 Y51.0667 
G01 X-10.2911 Y50.8896 
G01 X-10.2911 Y50.7104 
G01 X-10.3191 Y50.5333 
G01 X-10.3745 Y50.3628 
G01 X-10.4559 Y50.2031 
G01 X-10.5613 Y50.0581 
G01 X-10.6881 Y49.9313 
G01 X-10.8331 Y49.8259 
G01 X-10.9928 Y49.7445 
G01 X-11.1633 Y49.6891 
G01 X-11.3404 Y49.6611 
G01 X-11.5196 Y49.6611 
G01 X-11.6967 Y49.6891 
G01 X-11.8672 Y49.7445 
G01 X-12.0269 Y49.8259 
G01 X-12.1719 Y49.9313 
G00 Z2.0000 
G00 X-12.2628 Y52.2845 
G01 Z-0.0250 F254.00 
G01 X-12.4333 Y52.2291 F508.00 
G01 X-12.6104 Y52.2011 
G01 X-12.7896 Y52.2011 
G01 X-12.9667 Y52.2291 
G01 X-13.1372 Y52.2845 
G01 X-13.2969 Y52.3659 
G01 X-13.4419 Y52.4713 
G01 X-13.5687 Y52.5981 
G01 X-13.6741 Y52.7431 
G01 X-13.7555 Y52.9028 
G01 X-13.8109 Y53.0733 
G01 X-13.8389 Y53.2504 
G01 X-13.8389 Y53.4296 
G01 X-13.8109 Y53.6067 
G01 X-13.7555 Y53.7772 
G01 X-13.6741 Y53.9369 
G01 X-13.5687 Y54.0819 
G01 X-13.4419 Y54.2087 
G01 X-13.2969 Y54.3141 
G01 X-13.1372 Y54.3955 
G01 X-12.9667 Y54.4509 
G01 X-12.7896 Y54.4789 
G01 X-12.6104 Y54.4789 
G01 X-12.4333 Y54.4509 
G01 X-12.2628 Y54.3955 
G01 X-12.1031 Y54.3141 
G01 X-11.9581 Y54.2087 
G01 X-11.8313 Y54.0819 
G01 X-11.7259 Y53.9369 
G01 X-11.6445 Y53.7772 
G01 X-11.5891 Y53.6067 
G01 X-11.5611 Y53.4296 
G01 X-11.5611 Y53.2504 
G01 X-11.5891 Y53.0733 
G01 X-11.6445 Y52.9028 
G01 X-11.7259 Y52.7431 
G01 X-11.8313 Y52.5981 
G01 X-11.9581 Y52.4713 
G01 X-12.1031 Y52.3659 
G01 X-12.2628 Y52.2845 
G00 Z2.0000 
G00 X-14.3713 Y52.5981 
G01 Z-0.0250 F254.00 
G01 X-14.4981 Y52.4713 F508.00 
G01 X-14.6431 Y52.3659 
G01 X-14.8028 Y52.2845 
G01 X-14.9733 Y52.2291 
G01 X-15.1504 Y52.2011 
G01 X-15.3296 Y52.2011 
G01 X-15.5067 Y52.2291 
G01 X-15.6772 Y52.2845 
G01 X-15.8369 Y52.3659 
G01 X-15.9819 Y52.4713 
G01 X-16.1087 Y52.5981 
G01 X-16.2141 Y52.7431 
G01 X-16.2955 Y52.9028 
G01 X-16.3509 Y53.0733 
G01 X-16.3789 Y53.2504 
G01 X-16.3789 Y53.4296 
G01 X-16.3509 Y53.6067 
G01 X-16.2955 Y53.7772 
G01 X-16.2141 Y53.9369 
G01 X-16.1087 Y54.0819 
G01 X-15.9819 Y54.2087 
G01 X-15.8369 Y54.3141 
G01 X-15.6772 Y54.3955 
G01 X-15.5067 Y54.4509 
G01 X-15.3296 Y54.4789 
G01 X-15.1504 Y54.4789 
G01 X-14.9733 Y54.4509 
G01 X-14.8028 Y54.3955 
G01 X-14.6431 Y54.3141 
G01 X-14.4981 Y54.2087 
G01 X-14.3713 Y54.0819 
G01 X-14.2659 Y53.9369 
G01 X-14.1845 Y53.7772 
G01 X-14.1291 Y53.6067 
G01 X-14.1011 Y53.4296 
G01 X-14.1011 Y53.2504 
G01 X-14.1291 Y53.0733 
G01 X-14.1845 Y52.9028 
G01 X-14.2659 Y52.7431 
G01 X-14.3713 Y52.5981 
G00 Z2.0000 
G00 X-16.9113 Y52.5981 
G01 Z-0.0250 F254.00 
G01 X-17.0381 Y52.4713 F508.00 
G01 X-17.1831 Y52.3659 
G01 X-17.3428 Y52.2845 
G01 X-17.5133 Y52.2291 
G01 X-17.6904 Y52.2011 
G01 X-17.8696 Y52.2011 
G01 X-18.0467 Y52.2291 
G01 X-18.2172 Y52.2845 
G01 X-18.3769 Y52.3659 
G01 X-18.5219 Y52.4713 
G01 X-18.6487 Y52.5981 
G01 X-18.7541 Y52.7431 
G01 X-18.8355 Y52.9028 
G01 X-18.8909 Y53.0733 
G01 X-18.9189 Y53.2504 
G01 X-18.9189 Y53.4296 
G01 X-18.8909 Y53.6067 
G01 X-18.8355 Y53.7772 
G01 X-18.7541 Y53.9369 
G01 X-18.6487 Y54.0819 
G01 X-18.5219 Y54.2087 
G01 X-18.3769 Y54.3141 
G01 X-18.2172 Y54.3955 
G01 X-18.0467 Y54.4509 
G01 X-17.8696 Y54.4789 
G01 X-17.6904 Y54.4789 
G01 X-17.5133 Y54.4509 
G01 X-17.3428 Y54.3955 
G01 X-17.1831 Y54.3141 
G01 X-17.0381 Y54.2087 
G01 X-16.9113 Y54.0819 
G01 X-16.8059 Y53.9369 
G01 X-16.7245 Y53.7772 
G01 X-16.6691 Y53.6067 
G01 X-16.6411 Y53.4296 
G01 X-16.6411 Y53.2504 
G01 X-16.6691 Y53.0733 
G01 X-16.7245 Y52.9028 
G01 X-16.8059 Y52.7431 
G01 X-16.9113 Y52.5981 
G00 Z2.0000 
G00 X-19.4513 Y52.5981 
G01 Z-0.0250 F254.00 
G01 X-19.5781 Y52.4713 F508.00 
G01 X-19.7231 Y52.3659 
G01 X-19.8828 Y52.2845 
G01 X-20.0533 Y52.2291 
G01 X-20.2304 Y52.2011 
G01 X-20.4096 Y52.2011 
G01 X-20.5867 Y52.2291 
G01 X-20.7572 Y52.2845 
G01 X-20.9169 Y52.3659 
G01 X-21.0619 Y52.4713 
G01 X-21.1887 Y52.5981 
G01 X-21.2941 Y52.7431 
G01 X-21.3755 Y52.9028 
G01 X-21.4309 Y53.0733 
G01 X-21.4589 Y53.2504 
G01 X-21.4589 Y53.4296 
G01 X-21.4309 Y53.6067 
G01 X-21.3755 Y53.7772 
G01 X-21.2941 Y53.9369 
G01 X-21.1887 Y54.0819 
G01 X-21.0619 Y54.2087 
G01 X-20.9169 Y54.3141 
G01 X-20.7572 Y54.3955 
G01 X-20.5867 Y54.4509 
G01 X-20.4096 Y54.4789 
G01 X-20.2304 Y54.4789 
G01 X-20.0533 Y54.4509 
G01 X-19.8828 Y54.3955 
G01 X-19.7231 Y54.3141 
G01 X-19.5781 Y54.2087 
G01 X-19.4513 Y54.0819 
G01 X-19.3459 Y53.9369 
G01 X-19.2645 Y53.7772 
G01 X-19.2091 Y53.6067 
G01 X-19.1811 Y53.4296 
G01 X-19.1811 Y53.2504 
G01 X-19.2091 Y53.0733 
G01 X-19.2645 Y52.9028 
G01 X-19.3459 Y52.7431 
G01 X-19.4513 Y52.5981 
G00 Z2.0000 
G00 X-21.9913 Y52.5981 
G01 Z-0.0250 F254.00 
G01 X-22.1181 Y52.4713 F508.00 
G01 X-22.2631 Y52.3659 
G01 X-22.4228 Y52.2845 
G01 X-22.5933 Y52.2291 
G01 X-22.7704 Y52.2011 
G01 X-22.9496 Y52.2011 
G01 X-23.1267 Y52.2291 
G01 X-23.2972 Y52.2845 
G01 X-23.4569 Y52.3659 
G01 X-23.6019 Y52.4713 
G01 X-23.7287 Y52.5981 
G01 X-23.8341 Y52.7431 
G01 X-23.9155 Y52.9028 
G01 X-23.9709 Y53.0733 
G01 X-23.9989 Y53.2504 
G01 X-23.9989 Y53.4296 
G01 X-23.9709 Y53.6067 
G01 X-23.9155 Y53.7772 
G01 X-23.8341 Y53.9369 
G01 X-23.7287 Y54.0819 
G01 X-23.6019 Y54.2087 
G01 X-23.4569 Y54.3141 
G01 X-23.2972 Y54.3955 
G01 X-23.1267 Y54.4509 
G01 X-22.9496 Y54.4789 
G01 X-22.7704 Y54.4789 
G01 X-22.5933 Y54.4509 
G01 X-22.4228 Y54.3955 
G01 X-22.2631 Y54.3141 
G01 X-22.1181 Y54.2087 
G01 X-21.9913 Y54.0819 
G01 X-21.8859 Y53.9369 
G01 X-21.8045 Y53.7772 
G01 X-21.7491 Y53.6067 
G01 X-21.7211 Y53.4296 
G01 X-21.7211 Y53.2504 
G01 X-21.7491 Y53.0733 
G01 X-21.8045 Y52.9028 
G01 X-21.8859 Y52.7431 
G01 X-21.9913 Y52.5981 
G00 Z2.0000 
G00 X-24.5313 Y52.5981 
G01 Z-0.0250 F254.00 
G01 X-24.6581 Y52.4713 F508.00 
G01 X-24.8031 Y52.3659 
G01 X-24.9628 Y52.2845 
G01 X-25.1333 Y52.2291 
G01 X-25.3104 Y52.2011 
G01 X-25.4896 Y52.2011 
G01 X-25.6667 Y52.2291 
G01 X-25.8372 Y52.2845 
G01 X-25.9969 Y52.3659 
G01 X-26.1419 Y52.4713 
G01 X-26.2687 Y52.5981 
G01 X-26.3741 Y52.7431 
G01 X-26.4555 Y52.9028 
G01 X-26.5109 Y53.0733 
G01 X-26.5389 Y53.2504 
G01 X-26.5389 Y53.4296 
G01 X-26.5109 Y53.6067 
G01 X-26.4555 Y53.7772 
G01 X-26.3741 Y53.9369 
G01 X-26.2687 Y54.0819 
G01 X-26.1419 Y54.2087 
G01 X-25.9969 Y54.3141 
G01 X-25.8372 Y54.3955 
G01 X-25.6667 Y54.4509 
G01 X-25.4896 Y54.4789 
G01 X-25.3104 Y54.4789 
G01 X-25.1333 Y54.4509 
G01 X-24.9628 Y54.3955 
G01 X-24.8031 Y54.3141 
G01 X-24.6581 Y54.2087 
G01 X-24.5313 Y54.0819 
G01 X-24.4259 Y53.9369 
G01 X-24.3445 Y53.7772 
G01 X-24.2891 Y53.6067 
G01 X-24.2611 Y53.4296 
G01 X-24.2611 Y53.2504 
G01 X-24.2891 Y53.0733 
G01 X-24.3445 Y52.9028 
G01 X-24.4259 Y52.7431 
G01 X-24.5313 Y52.5981 
G00 Z2.0000 
G00 X-25.9281 Y51.6687 
G01 Z-0.0250 F254.00 
G01 X-25.8013 Y51.5419 F508.00 
G01 X-25.6959 Y51.3969 
G01 X-25.6145 Y51.2372 
G01 X-25.5591 Y51.0667 
G01 X-25.5311 Y50.8896 
G01 X-25.5311 Y50.7104 
G01 X-25.5591 Y50.5333 
G01 X-25.6145 Y50.3628 
G01 X-25.6959 Y50.2031 
G01 X-25.8013 Y50.0581 
G01 X-25.9281 Y49.9313 
G01 X-26.0731 Y49.8259 
G01 X-26.2328 Y49.7445 
G01 X-26.4033 Y49.6891 
G01 X-26.5804 Y49.6611 
G01 X-26.7596 Y49.6611 
G01 X-26.9367 Y49.6891 
G01 X-27.1072 Y49.7445 
G01 X-27.2669 Y49.8259 
G01 X-27.4119 Y49.9313 
G01 X-27.5387 Y50.0581 
G01 X-27.6441 Y50.2031 
G01 X-27.7255 Y50.3628 
G01 X-27.7809 Y50.5333 
G01 X-27.8089 Y50.7104 
G01 X-27.8089 Y50.8896 
G01 X-27.7809 Y51.0667 
G01 X-27.7255 Y51.2372 
G01 X-27.6441 Y51.3969 
G01 X-27.5387 Y51.5419 
G01 X-27.4119 Y51.6687 
G01 X-27.2669 Y51.7741 
G01 X-27.1072 Y51.8555 
G01 X-26.9367 Y51.9109 
G01 X-26.7596 Y51.9389 
G01 X-26.5804 Y51.9389 
G01 X-26.4033 Y51.9109 
G01 X-26.2328 Y51.8555 
G01 X-26.0731 Y51.7741 
G01 X-25.9281 Y51.6687 
G00 Z2.0000 
G00 X-23.7287 Y42.6519 
G01 Z-0.0250 F254.00 
G01 X-23.6019 Y42.7787 F508.00 
G01 X-23.4569 Y42.8841 
G01 X-23.2972 Y42.9655 
G01 X-23.1267 Y43.0209 
G01 X-22.9496 Y43.0489 
G01 X-22.7704 Y43.0489 
G01 X-22.5933 Y43.0209 
G01 X-22.4228 Y42.9655 
G01 X-22.2631 Y42.8841 
G01 X-22.1181 Y42.7787 
G01 X-21.9913 Y42.6519 
G01 X-21.8859 Y42.5069 
G01 X-21.8045 Y42.3472 
G01 X-21.7491 Y42.1767 
G01 X-21.7211 Y41.9996 
G01 X-21.7211 Y41.8204 
G01 X-21.7491 Y41.6433 
G01 X-21.8045 Y41.4728 
G01 X-21.8859 Y41.3131 
G01 X-21.9913 Y41.1681 
G01 X-22.1181 Y41.0413 
G01 X-22.2631 Y40.9359 
G01 X-22.4228 Y40.8545 
G01 X-22.5933 Y40.7991 
G01 X-22.7704 Y40.7711 
G01 X-22.9496 Y40.7711 
G01 X-23.1267 Y40.7991 
G01 X-23.2972 Y40.8545 
G01 X-23.4569 Y40.9359 
G01 X-23.6019 Y41.0413 
G01 X-23.7287 Y41.1681 
G01 X-23.8341 Y41.3131 
G01 X-23.9155 Y41.4728 
G01 X-23.9709 Y41.6433 
G01 X-23.9989 Y41.8204 
G01 X-23.9989 Y41.9996 
G01 X-23.9709 Y42.1767 
G01 X-23.9155 Y42.3472 
G01 X-23.8341 Y42.5069 
G01 X-23.7287 Y42.6519 
G00 Z2.0000 
G00 X-23.7287 Y40.1119 
G01 Z-0.0250 F254.00 
G01 X-23.6019 Y40.2387 F508.00 
G01 X-23.4569 Y40.3441 
G01 X-23.2972 Y40.4255 
G01 X-23.1267 Y40.4809 
G01 X-22.9496 Y40.5089 
G01 X-22.7704 Y40.5089 
G01 X-22.5933 Y40.4809 
G01 X-22.4228 Y40.4255 
G01 X-22.2631 Y40.3441 
G01 X-22.1181 Y40.2387 
G01 X-21.9913 Y40.1119 
G01 X-21.8859 Y39.9669 
G01 X-21.8045 Y39.8072 
G01 X-21.7491 Y39.6367 
G01 X-21.7211 Y39.4596 
G01 X-21.7211 Y39.2804 
G01 X-21.7491 Y39.1033 
G01 X-21.8045 Y38.9328 
G01 X-21.8859 Y38.7731 
G01 X-21.9913 Y38.6281 
G01 X-22.1181 Y38.5013 
G01 X-22.2631 Y38.3959 
G01 X-22.4228 Y38.3145 
G01 X-22.5933 Y38.2591 
G01 X-22.7704 Y38.2311 
G01 X-22.9496 Y38.2311 
G01 X-23.1267 Y38.2591 
G01 X-23.2972 Y38.3145 
G01 X-23.4569 Y38.3959 
G01 X-23.6019 Y38.5013 
G01 X-23.7287 Y38.6281 
G01 X-23.8341 Y38.7731 
G01 X-23.9155 Y38.9328 
G01 X-23.9709 Y39.1033 
G01 X-23.9989 Y39.2804 
G01 X-23.9989 Y39.4596 
G01 X-23.9709 Y39.6367 
G01 X-23.9155 Y39.8072 
G01 X-23.8341 Y39.9669 
G01 X-23.7287 Y40.1119 
G00 Z2.0000 
G00 X-17.3223 Y70.1689 
G01 Z-0.0250 F254.00 
G01 X-17.4611 Y70.3077 F508.00 
G01 X-17.5764 Y70.4665 
G01 X-17.6655 Y70.6414 
G01 X-17.7262 Y70.8280 
G01 X-17.7569 Y71.0219 
G01 X-17.7569 Y71.2181 
G01 X-17.7262 Y71.4120 
G01 X-17.6655 Y71.5986 
G01 X-17.5764 Y71.7735 
G01 X-17.4611 Y71.9323 
G01 X-17.3223 Y72.0711 
G01 X-17.1635 Y72.1864 
G01 X-16.9886 Y72.2755 
G01 X-16.8020 Y72.3362 
G01 X-16.6081 Y72.3669 
G01 X-16.4119 Y72.3669 
G01 X-16.2180 Y72.3362 
G01 X-16.0314 Y72.2755 
G01 X-15.8565 Y72.1864 
G01 X-15.6977 Y72.0711 
G01 X-15.5589 Y71.9323 
G01 X-15.4436 Y71.7735 
G01 X-15.3545 Y71.5986 
G01 X-15.2938 Y71.4120 
G01 X-15.2631 Y71.2181 
G01 X-15.2631 Y71.0219 
G01 X-15.2938 Y70.8280 
G01 X-15.3545 Y70.6414 
G01 X-15.4436 Y70.4665 
G01 X-15.5589 Y70.3077 
G01 X-15.6977 Y70.1689 
G01 X-15.8565 Y70.0536 
G01 X-16.0314 Y69.9645 
G01 X-16.2180 Y69.9038 
G01 X-16.4119 Y69.8731 
G01 X-16.6081 Y69.8731 
G01 X-16.8020 Y69.9038 
G01 X-16.9886 Y69.9645 
G01 X-17.1635 Y70.0536 
G01 X-17.3223 Y70.1689 
G00 Z2.0000 
G00 X-14.7823 Y70.1689 
G01 Z-0.0250 F254.00 
G01 X-14.9211 Y70.3077 F508.00 
G01 X-15.0364 Y70.4665 
G01 X-15.1255 Y70.6414 
G01 X-15.1862 Y70.8280 
G01 X-15.2169 Y71.0219 
G01 X-15.2169 Y71.2181 
G01 X-15.1862 Y71.4120 
G01 X-15.1255 Y71.5986 
G01 X-15.0364 Y71.7735 
G01 X-14.9211 Y71.9323 
G01 X-14.7823 Y72.0711 
G01 X-14.6235 Y72.1864 
G01 X-14.4486 Y72.2755 
G01 X-14.2620 Y72.3362 
G01 X-14.0681 Y72.3669 
G01 X-13.8719 Y72.3669 
G01 X-13.6780 Y72.3362 
G01 X-13.4914 Y72.2755 
G01 X-13.3165 Y72.1864 
G01 X-13.1577 Y72.0711 
G01 X-13.0189 Y71.9323 
G01 X-12.9036 Y71.7735 
G01 X-12.8145 Y71.5986 
G01 X-12.7538 Y71.4120 
G01 X-12.7231 Y71.2181 
G01 X-12.7231 Y71.0219 
G01 X-12.7538 Y70.8280 
G01 X-12.8145 Y70.6414 
G01 X-12.9036 Y70.4665 
G01 X-13.0189 Y70.3077 
G01 X-13.0823 Y70.2444 
G01 X-12.1768 Y69.3389 
G01 X-10.6232 Y69.3389 
G01 X-8.7309 Y71.2312 
G01 X-8.6080 Y71.3022 
G01 X-8.4709 Y71.3389 
G01 X-7.5778 Y71.3389 
G01 X-7.5662 Y71.4120 
G01 X-7.5055 Y71.5986 
G01 X-7.4164 Y71.7735 
G01 X-7.3011 Y71.9323 
G01 X-7.1623 Y72.0711 
G01 X-7.0035 Y72.1864 
G01 X-6.8286 Y72.2755 
G01 X-6.6420 Y72.3362 
G01 X-6.4481 Y72.3669 
G01 X-6.2519 Y72.3669 
G01 X-6.0580 Y72.3362 
G01 X-5.8714 Y72.2755 
G01 X-5.6965 Y72.1864 
G01 X-5.5377 Y72.0711 
G01 X-5.3989 Y71.9323 
G01 X-5.2836 Y71.7735 
G01 X-5.1945 Y71.5986 
G01 X-5.1338 Y71.4120 
G01 X-5.1031 Y71.2181 
G01 X-5.1031 Y71.0219 
G01 X-5.1338 Y70.8280 
G01 X-5.1945 Y70.6414 
G01 X-5.2836 Y70.4665 
G01 X-5.3989 Y70.3077 
G01 X-5.5377 Y70.1689 
G01 X-5.6965 Y70.0536 
G01 X-5.8714 Y69.9645 
G01 X-6.0580 Y69.9038 
G01 X-6.2519 Y69.8731 
G01 X-6.4481 Y69.8731 
G01 X-6.6420 Y69.9038 
G01 X-6.8286 Y69.9645 
G01 X-7.0035 Y70.0536 
G01 X-7.1623 Y70.1689 
G01 X-7.2545 Y70.2611 
G01 X-8.1768 Y70.2611 
G01 X-9.9688 Y68.4691 
G01 X-10.0691 Y68.3688 
G01 X-10.1920 Y68.2978 
G01 X-10.3291 Y68.2611 
G01 X-12.4709 Y68.2611 
G01 X-12.6080 Y68.2978 
G01 X-12.7309 Y68.3688 
G01 X-14.2678 Y69.9057 
G01 X-14.4486 Y69.9645 
G01 X-14.6235 Y70.0536 
G01 X-14.7823 Y70.1689 
G00 Z2.0000 
G00 X-12.2423 Y70.1689 
G01 Z-0.0250 F254.00 
G01 X-12.3811 Y70.3077 F508.00 
G01 X-12.4964 Y70.4665 
G01 X-12.5855 Y70.6414 
G01 X-12.6462 Y70.8280 
G01 X-12.6769 Y71.0219 
G01 X-12.6769 Y71.2181 
G01 X-12.6462 Y71.4120 
G01 X-12.5855 Y71.5986 
G01 X-12.4964 Y71.7735 
G01 X-12.3811 Y71.9323 
G01 X-12.2423 Y72.0711 
G01 X-12.0835 Y72.1864 
G01 X-11.9086 Y72.2755 
G01 X-11.7220 Y72.3362 
G01 X-11.5281 Y72.3669 
G01 X-11.3319 Y72.3669 
G01 X-11.1380 Y72.3362 
G01 X-10.9514 Y72.2755 
G01 X-10.7765 Y72.1864 
G01 X-10.6177 Y72.0711 
G01 X-10.4789 Y71.9323 
G01 X-10.3636 Y71.7735 
G01 X-10.2745 Y71.5986 
G01 X-10.2138 Y71.4120 
G01 X-10.1831 Y71.2181 
G01 X-10.1831 Y71.0219 
G01 X-10.2138 Y70.8280 
G01 X-10.2745 Y70.6414 
G01 X-10.3636 Y70.4665 
G01 X-10.4789 Y70.3077 
G01 X-10.6177 Y70.1689 
G01 X-10.7765 Y70.0536 
G01 X-10.9514 Y69.9645 
G01 X-11.1380 Y69.9038 
G01 X-11.3319 Y69.8731 
G01 X-11.5281 Y69.8731 
G01 X-11.7220 Y69.9038 
G01 X-11.9086 Y69.9645 
G01 X-12.0835 Y70.0536 
G01 X-12.2423 Y70.1689 
G00 Z2.0000 
G00 X-4.6223 Y70.1689 
G01 Z-0.0250 F254.00 
G01 X-4.7611 Y70.3077 F508.00 
G01 X-4.8764 Y70.4665 
G01 X-4.9655 Y70.6414 
G01 X-5.0262 Y70.8280 
G01 X-5.0569 Y71.0219 
G01 X-5.0569 Y71.2181 
G01 X-5.0262 Y71.4120 
G01 X-4.9655 Y71.5986 
G01 X-4.8764 Y71.7735 
G01 X-4.7611 Y71.9323 
G01 X-4.6223 Y72.0711 
G01 X-4.4635 Y72.1864 
G01 X-4.2886 Y72.2755 
G01 X-4.1020 Y72.3362 
G01 X-3.9081 Y72.3669 
G01 X-3.7119 Y72.3669 
G01 X-3.5180 Y72.3362 
G01 X-3.3314 Y72.2755 
G01 X-3.1565 Y72.1864 
G01 X-2.9977 Y72.0711 
G01 X-2.8589 Y71.9323 
G01 X-2.7436 Y71.7735 
G01 X-2.6545 Y71.5986 
G01 X-2.5938 Y71.4120 
G01 X-2.5631 Y71.2181 
G01 X-2.5631 Y71.0219 
G01 X-2.5938 Y70.8280 
G01 X-2.6545 Y70.6414 
G01 X-2.7436 Y70.4665 
G01 X-2.8589 Y70.3077 
G01 X-2.9977 Y70.1689 
G01 X-3.1565 Y70.0536 
G01 X-3.3314 Y69.9645 
G01 X-3.5180 Y69.9038 
G01 X-3.7119 Y69.8731 
G01 X-3.9081 Y69.8731 
G01 X-4.1020 Y69.9038 
G01 X-4.2886 Y69.9645 
G01 X-4.4635 Y70.0536 
G01 X-4.6223 Y70.1689 
G00 Z2.0000 
G00 X-46.2161 Y71.5434 
G01 Z-0.0250 F254.00 
G01 X-47.4134 Y70.3461 F508.00 
G01 X-49.1066 Y70.3461 
G01 X-50.3039 Y71.5434 
G01 X-50.3039 Y73.2366 
G01 X-49.1066 Y74.4339 
G01 X-47.4134 Y74.4339 
G01 X-46.2161 Y73.2366 
G01 X-46.2161 Y71.5434 
G00 Z2.0000 
G00 X-47.4134 Y5.8539 
G01 Z-0.0250 F254.00 
G01 X-46.2161 Y4.6566 F508.00 
G01 X-46.2161 Y2.9634 
G01 X-47.4134 Y1.7661 
G01 X-49.1066 Y1.7661 
G01 X-50.3039 Y2.9634 
G01 X-50.3039 Y4.6566 
G01 X-49.1066 Y5.8539 
G01 X-47.4134 Y5.8539 
G00 Z2.0000 
G00 X-1.6661 Y2.9220 
G01 Z-0.0250 F254.00 
G01 X-2.9220 Y1.6661 F508.00 
G01 X-4.6980 Y1.6661 
G01 X-5.9539 Y2.9220 
G01 X-5.9539 Y4.6980 
G01 X-4.6980 Y5.9539 
G01 X-2.9220 Y5.9539 
G01 X-1.6661 Y4.6980 
G01 X-1.6661 Y2.9220 
G00 Z2.0000 
G00 X-11.3863 Y2.8554 
G01 Z-0.0250 F254.00 
G01 X-11.3531 Y2.6460 F508.00 
G01 X-11.3531 Y2.4340 
G01 X-11.3863 Y2.2246 
G01 X-11.4518 Y2.0230 
G01 X-11.5480 Y1.8341 
G01 X-11.6726 Y1.6626 
G01 X-11.8226 Y1.5126 
G01 X-11.9941 Y1.3880 
G01 X-12.1830 Y1.2918 
G01 X-12.3846 Y1.2263 
G01 X-12.5940 Y1.1931 
G01 X-12.8060 Y1.1931 
G01 X-13.0154 Y1.2263 
G01 X-13.2170 Y1.2918 
G01 X-13.4059 Y1.3880 
G01 X-13.5774 Y1.5126 
G01 X-13.7274 Y1.6626 
G01 X-13.8520 Y1.8341 
G01 X-13.9482 Y2.0230 
G01 X-14.0137 Y2.2246 
G01 X-14.0469 Y2.4340 
G01 X-14.0469 Y2.6460 
G01 X-14.0137 Y2.8554 
G01 X-13.9482 Y3.0570 
G01 X-13.8520 Y3.2459 
G01 X-13.7274 Y3.4174 
G01 X-13.5774 Y3.5674 
G01 X-13.4059 Y3.6920 
G01 X-13.2170 Y3.7882 
G01 X-13.1500 Y3.8100 
G01 X-13.2170 Y3.8318 
G01 X-13.4059 Y3.9280 
G01 X-13.5774 Y4.0526 
G01 X-13.7274 Y4.2026 
G01 X-13.8520 Y4.3741 
G01 X-13.9482 Y4.5630 
G01 X-14.0137 Y4.7646 
G01 X-14.0469 Y4.9740 
G01 X-14.0469 Y5.1860 
G01 X-14.0137 Y5.3954 
G01 X-13.9482 Y5.5970 
G01 X-13.8520 Y5.7859 
G01 X-13.7274 Y5.9574 
G01 X-13.5774 Y6.1074 
G01 X-13.4059 Y6.2320 
G01 X-13.2170 Y6.3282 
G01 X-13.0154 Y6.3937 
G01 X-12.8060 Y6.4269 
G01 X-12.5940 Y6.4269 
G01 X-12.3846 Y6.3937 
G01 X-12.1830 Y6.3282 
G01 X-11.9941 Y6.2320 
G01 X-11.8226 Y6.1074 
G01 X-11.6726 Y5.9574 
G01 X-11.5480 Y5.7859 
G01 X-11.4518 Y5.5970 
G01 X-11.3863 Y5.3954 
G01 X-11.3531 Y5.1860 
G01 X-11.3531 Y4.9740 
G01 X-11.3863 Y4.7646 
G01 X-11.4518 Y4.5630 
G01 X-11.5480 Y4.3741 
G01 X-11.6726 Y4.2026 
G01 X-11.8226 Y4.0526 
G01 X-11.9941 Y3.9280 
G01 X-12.1830 Y3.8318 
G01 X-12.2500 Y3.8100 
G01 X-12.1830 Y3.7882 
G01 X-11.9941 Y3.6920 
G01 X-11.8226 Y3.5674 
G01 X-11.6726 Y3.4174 
G01 X-11.5480 Y3.2459 
G01 X-11.4518 Y3.0570 
G01 X-11.3863 Y2.8554 
G00 Z2.0000 
G00 X-27.8963 Y2.8554 
G01 Z-0.0250 F254.00 
G01 X-27.8631 Y2.6460 F508.00 
G01 X-27.8631 Y2.4340 
G01 X-27.8963 Y2.2246 
G01 X-27.9618 Y2.0230 
G01 X-28.0580 Y1.8341 
G01 X-28.1826 Y1.6626 
G01 X-28.3326 Y1.5126 
G01 X-28.5041 Y1.3880 
G01 X-28.6930 Y1.2918 
G01 X-28.8946 Y1.2263 
G01 X-29.1040 Y1.1931 
G01 X-29.3160 Y1.1931 
G01 X-29.5254 Y1.2263 
G01 X-29.7270 Y1.2918 
G01 X-29.9159 Y1.3880 
G01 X-30.0874 Y1.5126 
G01 X-30.2374 Y1.6626 
G01 X-30.3620 Y1.8341 
G01 X-30.4582 Y2.0230 
G01 X-30.5237 Y2.2246 
G01 X-30.5569 Y2.4340 
G01 X-30.5569 Y2.6460 
G01 X-30.5237 Y2.8554 
G01 X-30.4582 Y3.0570 
G01 X-30.3620 Y3.2459 
G01 X-30.2374 Y3.4174 
G01 X-30.0874 Y3.5674 
G01 X-29.9159 Y3.6920 
G01 X-29.7270 Y3.7882 
G01 X-29.6600 Y3.8100 
G01 X-29.7270 Y3.8318 
G01 X-29.9159 Y3.9280 
G01 X-30.0874 Y4.0526 
G01 X-30.2374 Y4.2026 
G01 X-30.3620 Y4.3741 
G01 X-30.4582 Y4.5630 
G01 X-30.5237 Y4.7646 
G01 X-30.5569 Y4.9740 
G01 X-30.5569 Y5.1860 
G01 X-30.5237 Y5.3954 
G01 X-30.4582 Y5.5970 
G01 X-30.3620 Y5.7859 
G01 X-30.2374 Y5.9574 
G01 X-30.0874 Y6.1074 
G01 X-29.9159 Y6.2320 
G01 X-29.7270 Y6.3282 
G01 X-29.5254 Y6.3937 
G01 X-29.3160 Y6.4269 
G01 X-29.1040 Y6.4269 
G01 X-28.8946 Y6.3937 
G01 X-28.6930 Y6.3282 
G01 X-28.5041 Y6.2320 
G01 X-28.3326 Y6.1074 
G01 X-28.1826 Y5.9574 
G01 X-28.0580 Y5.7859 
G01 X-27.9618 Y5.5970 
G01 X-27.8963 Y5.3954 
G01 X-27.8631 Y5.1860 
G01 X-27.8631 Y4.9740 
G01 X-27.8963 Y4.7646 
G01 X-27.9618 Y4.5630 
G01 X-28.0580 Y4.3741 
G01 X-28.1826 Y4.2026 
G01 X-28.3326 Y4.0526 
G01 X-28.5041 Y3.9280 
G01 X-28.6930 Y3.8318 
G01 X-28.7600 Y3.8100 
G01 X-28.6930 Y3.7882 
G01 X-28.5041 Y3.6920 
G01 X-28.3326 Y3.5674 
G01 X-28.1826 Y3.4174 
G01 X-28.0580 Y3.2459 
G01 X-27.9618 Y3.0570 
G01 X-27.8963 Y2.8554 
G00 Z2.0000 
G00 X-35.0550 Y12.7929 
G01 Z-0.0250 F254.00 
G01 X-35.1929 Y12.6550 F508.00 
G01 X-35.3507 Y12.5404 
G01 X-35.5244 Y12.4519 
G01 X-35.7099 Y12.3916 
G01 X-35.9025 Y12.3611 
G01 X-36.0975 Y12.3611 
G01 X-36.2901 Y12.3916 
G01 X-36.4756 Y12.4519 
G01 X-36.6493 Y12.5404 
G01 X-36.8071 Y12.6550 
G01 X-36.9450 Y12.7929 
G01 X-37.0596 Y12.9507 
G01 X-37.0649 Y12.9611 
G01 X-37.9371 Y12.9611 
G01 X-38.0629 Y12.9611 
G01 X-38.1864 Y12.9857 
G01 X-38.3026 Y13.0338 
G01 X-38.4073 Y13.1037 
G01 X-44.2000 Y18.8965 
G01 X-45.5037 Y17.5927 
G01 X-45.5927 Y17.5037 
G01 X-45.6832 Y17.4433 
G01 X-45.7418 Y17.2630 
G01 X-45.8380 Y17.0741 
G01 X-45.9626 Y16.9026 
G01 X-46.1126 Y16.7526 
G01 X-46.2841 Y16.6280 
G01 X-46.4730 Y16.5318 
G01 X-46.5400 Y16.5100 
G01 X-46.4730 Y16.4882 
G01 X-46.2841 Y16.3920 
G01 X-46.1126 Y16.2674 
G01 X-45.9626 Y16.1174 
G01 X-45.8380 Y15.9459 
G01 X-45.7418 Y15.7570 
G01 X-45.6763 Y15.5554 
G01 X-45.6431 Y15.3460 
G01 X-45.6431 Y15.1340 
G01 X-45.6763 Y14.9246 
G01 X-45.7418 Y14.7230 
G01 X-45.8380 Y14.5341 
G01 X-45.9626 Y14.3626 
G01 X-46.1126 Y14.2126 
G01 X-46.2841 Y14.0880 
G01 X-46.4730 Y13.9918 
G01 X-46.6746 Y13.9263 
G01 X-46.8840 Y13.8931 
G01 X-47.0960 Y13.8931 
G01 X-47.3054 Y13.9263 
G01 X-47.5070 Y13.9918 
G01 X-47.6959 Y14.0880 
G01 X-47.8674 Y14.2126 
G01 X-48.0174 Y14.3626 
G01 X-48.1420 Y14.5341 
G01 X-48.2382 Y14.7230 
G01 X-48.3037 Y14.9246 
G01 X-48.3369 Y15.1340 
G01 X-48.3369 Y15.3460 
G01 X-48.3037 Y15.5554 
G01 X-48.2382 Y15.7570 
G01 X-48.1420 Y15.9459 
G01 X-48.0174 Y16.1174 
G01 X-47.8674 Y16.2674 
G01 X-47.6959 Y16.3920 
G01 X-47.5070 Y16.4882 
G01 X-47.4400 Y16.5100 
G01 X-47.5070 Y16.5318 
G01 X-47.6959 Y16.6280 
G01 X-47.8674 Y16.7526 
G01 X-48.0174 Y16.9026 
G01 X-48.1420 Y17.0741 
G01 X-48.2382 Y17.2630 
G01 X-48.3037 Y17.4646 
G01 X-48.3369 Y17.6740 
G01 X-48.3369 Y17.8860 
G01 X-48.3037 Y18.0954 
G01 X-48.2382 Y18.2970 
G01 X-48.1420 Y18.4859 
G01 X-48.0174 Y18.6574 
G01 X-47.8674 Y18.8074 
G01 X-47.6959 Y18.9320 
G01 X-47.5070 Y19.0282 
G01 X-47.4400 Y19.0500 
G01 X-47.5070 Y19.0718 
G01 X-47.6959 Y19.1680 
G01 X-47.8674 Y19.2926 
G01 X-48.0174 Y19.4426 
G01 X-48.1420 Y19.6141 
G01 X-48.2382 Y19.8030 
G01 X-48.3037 Y20.0046 
G01 X-48.3369 Y20.2140 
G01 X-48.3369 Y20.4260 
G01 X-48.3037 Y20.6354 
G01 X-48.2382 Y20.8370 
G01 X-48.1420 Y21.0259 
G01 X-48.0174 Y21.1974 
G01 X-47.8674 Y21.3474 
G01 X-47.8389 Y21.3681 
G01 X-47.8389 Y25.7354 
G01 X-50.0073 Y27.9037 
G01 X-50.0963 Y27.9927 
G01 X-50.1662 Y28.0974 
G01 X-50.2143 Y28.2136 
G01 X-50.2389 Y28.3371 
G01 X-50.2389 Y42.8629 
G01 X-50.2143 Y42.9864 
G01 X-50.1662 Y43.1026 
G01 X-50.0963 Y43.2073 
G01 X-46.9439 Y46.3596 
G01 X-46.9439 Y46.5300 
G01 X-46.9134 Y46.7226 
G01 X-46.8531 Y46.9081 
G01 X-46.7646 Y47.0818 
G01 X-46.6500 Y47.2396 
G01 X-46.5121 Y47.3775 
G01 X-46.3543 Y47.4921 
G01 X-46.1806 Y47.5806 
G01 X-45.9951 Y47.6409 
G01 X-45.8025 Y47.6714 
G01 X-45.6075 Y47.6714 
G01 X-45.4149 Y47.6409 
G01 X-45.2294 Y47.5806 
G01 X-45.0557 Y47.4921 
G01 X-44.8979 Y47.3775 
G01 X-44.7600 Y47.2396 
G01 X-44.6454 Y47.0818 
G01 X-44.5569 Y46.9081 
G01 X-44.4966 Y46.7226 
G01 X-44.4661 Y46.5300 
G01 X-44.4661 Y46.3350 
G01 X-44.4966 Y46.1424 
G01 X-44.5569 Y45.9569 
G01 X-44.6454 Y45.7832 
G01 X-44.7600 Y45.6254 
G01 X-44.8979 Y45.4875 
G01 X-45.0557 Y45.3729 
G01 X-45.2294 Y45.2844 
G01 X-45.4149 Y45.2241 
G01 X-45.6075 Y45.1936 
G01 X-45.8025 Y45.1936 
G01 X-45.9951 Y45.2241 
G01 X-46.1806 Y45.2844 
G01 X-46.2015 Y45.2950 
G01 X-48.9611 Y42.5354 
G01 X-48.9611 Y28.6646 
G01 X-46.7037 Y26.4073 
G01 X-46.6338 Y26.3026 
G01 X-46.5857 Y26.1864 
G01 X-46.5611 Y26.0629 
G01 X-46.5611 Y21.5969 
G01 X-46.4730 Y21.5682 
G01 X-46.2841 Y21.4720 
G01 X-46.1126 Y21.3474 
G01 X-45.9626 Y21.1974 
G01 X-45.8380 Y21.0259 
G01 X-45.7418 Y20.8370 
G01 X-45.6763 Y20.6354 
G01 X-45.6431 Y20.4260 
G01 X-45.6431 Y20.2140 
G01 X-45.6763 Y20.0046 
G01 X-45.7418 Y19.8030 
G01 X-45.8380 Y19.6141 
G01 X-45.9626 Y19.4426 
G01 X-46.1126 Y19.2926 
G01 X-46.2841 Y19.1680 
G01 X-46.4730 Y19.0718 
G01 X-46.5400 Y19.0500 
G01 X-46.4730 Y19.0282 
G01 X-46.2841 Y18.9320 
G01 X-46.1126 Y18.8074 
G01 X-46.1044 Y18.7992 
G01 X-44.6963 Y20.2073 
G01 X-44.6389 Y20.2646 
G01 X-44.6389 Y28.5351 
G01 X-44.6493 Y28.5404 
G01 X-44.8071 Y28.6550 
G01 X-44.9450 Y28.7929 
G01 X-45.0596 Y28.9507 
G01 X-45.1481 Y29.1244 
G01 X-45.2084 Y29.3099 
G01 X-45.2389 Y29.5025 
G01 X-45.2389 Y29.6975 
G01 X-45.2084 Y29.8901 
G01 X-45.1481 Y30.0756 
G01 X-45.0596 Y30.2493 
G01 X-44.9450 Y30.4071 
G01 X-44.8071 Y30.5450 
G01 X-44.6493 Y30.6596 
G01 X-44.6389 Y30.6649 
G01 X-44.6389 Y37.2629 
G01 X-44.6143 Y37.3864 
G01 X-44.5662 Y37.5026 
G01 X-44.4963 Y37.6073 
G01 X-44.4073 Y37.6963 
G01 X-36.2389 Y45.8646 
G01 X-36.2389 Y46.9354 
G01 X-37.3087 Y48.0052 
G01 X-37.4357 Y47.9129 
G01 X-37.6094 Y47.8244 
G01 X-37.7949 Y47.7641 
G01 X-37.9875 Y47.7336 
G01 X-38.1825 Y47.7336 
G01 X-38.3751 Y47.7641 
G01 X-38.5606 Y47.8244 
G01 X-38.7343 Y47.9129 
G01 X-38.8921 Y48.0275 
G01 X-39.0300 Y48.1654 
G01 X-39.1446 Y48.3232 
G01 X-39.2331 Y48.4969 
G01 X-39.2934 Y48.6824 
G01 X-39.3239 Y48.8750 
G01 X-39.3239 Y49.0700 
G01 X-39.2934 Y49.2626 
G01 X-39.2331 Y49.4481 
G01 X-39.1446 Y49.6218 
G01 X-39.0300 Y49.7796 
G01 X-38.8921 Y49.9175 
G01 X-38.7343 Y50.0321 
G01 X-38.5606 Y50.1206 
G01 X-38.3751 Y50.1809 
G01 X-38.1825 Y50.2114 
G01 X-37.9875 Y50.2114 
G01 X-37.9052 Y50.1984 
G01 X-32.0073 Y56.0963 
G01 X-31.9026 Y56.1662 
G01 X-31.7864 Y56.2143 
G01 X-31.6629 Y56.2389 
G01 X-11.5371 Y56.2389 
G01 X-11.4136 Y56.2143 
G01 X-11.2974 Y56.1662 
G01 X-11.1927 Y56.0963 
G01 X-11.1037 Y56.0073 
G01 X-8.7037 Y53.6073 
G01 X-8.6338 Y53.5026 
G01 X-8.5857 Y53.3864 
G01 X-8.5611 Y53.2629 
G01 X-8.5611 Y44.7371 
G01 X-8.5857 Y44.6136 
G01 X-8.6338 Y44.4974 
G01 X-8.7037 Y44.3927 
G01 X-8.7927 Y44.3037 
G01 X-10.2288 Y42.8676 
G01 X-10.2819 Y42.7044 
G01 X-10.3704 Y42.5307 
G01 X-10.4850 Y42.3729 
G01 X-10.6229 Y42.2350 
G01 X-10.7807 Y42.1204 
G01 X-10.9544 Y42.0319 
G01 X-11.1399 Y41.9716 
G01 X-11.3325 Y41.9411 
G01 X-11.5275 Y41.9411 
G01 X-11.7201 Y41.9716 
G01 X-11.9056 Y42.0319 
G01 X-12.0793 Y42.1204 
G01 X-12.2371 Y42.2350 
G01 X-12.3750 Y42.3729 
G01 X-12.4896 Y42.5307 
G01 X-12.5781 Y42.7044 
G01 X-12.6384 Y42.8899 
G01 X-12.6689 Y43.0825 
G01 X-12.6689 Y43.2775 
G01 X-12.6384 Y43.4701 
G01 X-12.5781 Y43.6556 
G01 X-12.4896 Y43.8293 
G01 X-12.3750 Y43.9871 
G01 X-12.2371 Y44.1250 
G01 X-12.0793 Y44.2396 
G01 X-11.9056 Y44.3281 
G01 X-11.7201 Y44.3884 
G01 X-11.5275 Y44.4189 
G01 X-11.3325 Y44.4189 
G01 X-11.1399 Y44.3884 
G01 X-10.9544 Y44.3281 
G01 X-10.7807 Y44.2396 
G01 X-10.7131 Y44.1905 
G01 X-9.8389 Y45.0646 
G01 X-9.8389 Y52.9354 
G01 X-11.8646 Y54.9611 
G01 X-31.3354 Y54.9611 
G01 X-36.8965 Y49.4000 
G01 X-35.1037 Y47.6073 
G01 X-35.0338 Y47.5026 
G01 X-34.9857 Y47.3864 
G01 X-34.9611 Y47.2629 
G01 X-34.9611 Y45.5371 
G01 X-34.9857 Y45.4136 
G01 X-35.0338 Y45.2974 
G01 X-35.1037 Y45.1927 
G01 X-35.1927 Y45.1037 
G01 X-43.3611 Y36.9354 
G01 X-43.3611 Y30.6649 
G01 X-43.3507 Y30.6596 
G01 X-43.1929 Y30.5450 
G01 X-43.0550 Y30.4071 
G01 X-42.9404 Y30.2493 
G01 X-42.8519 Y30.0756 
G01 X-42.7916 Y29.8901 
G01 X-42.7611 Y29.6975 
G01 X-42.7611 Y29.5025 
G01 X-42.7916 Y29.3099 
G01 X-42.8519 Y29.1244 
G01 X-42.9404 Y28.9507 
G01 X-43.0550 Y28.7929 
G01 X-43.1929 Y28.6550 
G01 X-43.3507 Y28.5404 
G01 X-43.3611 Y28.5351 
G01 X-43.3611 Y19.9371 
G01 X-43.3731 Y19.8767 
G01 X-37.7354 Y14.2389 
G01 X-37.0649 Y14.2389 
G01 X-37.0596 Y14.2493 
G01 X-36.9450 Y14.4071 
G01 X-36.8071 Y14.5450 
G01 X-36.6493 Y14.6596 
G01 X-36.4756 Y14.7481 
G01 X-36.2901 Y14.8084 
G01 X-36.0975 Y14.8389 
G01 X-35.9025 Y14.8389 
G01 X-35.7099 Y14.8084 
G01 X-35.5244 Y14.7481 
G01 X-35.3507 Y14.6596 
G01 X-35.1929 Y14.5450 
G01 X-35.0550 Y14.4071 
G01 X-34.9404 Y14.2493 
G01 X-34.8519 Y14.0756 
G01 X-34.7916 Y13.8901 
G01 X-34.7611 Y13.6975 
G01 X-34.7611 Y13.5025 
G01 X-34.7916 Y13.3099 
G01 X-34.8519 Y13.1244 
G01 X-34.9404 Y12.9507 
G01 X-35.0550 Y12.7929 
G00 Z2.0000 
G00 X-27.4771 Y21.9150 
G01 Z-0.0250 F254.00 
G01 X-27.6150 Y22.0529 F508.00 
G01 X-27.7296 Y22.2107 
G01 X-27.8181 Y22.3844 
G01 X-27.8784 Y22.5699 
G01 X-27.9089 Y22.7625 
G01 X-27.9089 Y22.9575 
G01 X-27.8784 Y23.1501 
G01 X-27.8181 Y23.3356 
G01 X-27.7296 Y23.5093 
G01 X-27.6150 Y23.6671 
G01 X-27.4771 Y23.8050 
G01 X-27.3193 Y23.9196 
G01 X-27.1456 Y24.0081 
G01 X-26.9601 Y24.0684 
G01 X-26.7675 Y24.0989 
G01 X-26.5725 Y24.0989 
G01 X-26.3799 Y24.0684 
G01 X-26.1944 Y24.0081 
G01 X-26.0207 Y23.9196 
G01 X-25.8629 Y23.8050 
G01 X-25.7250 Y23.6671 
G01 X-25.6104 Y23.5093 
G01 X-25.5219 Y23.3356 
G01 X-25.4616 Y23.1501 
G01 X-25.4311 Y22.9575 
G01 X-25.4311 Y22.7625 
G01 X-25.4616 Y22.5699 
G01 X-25.5219 Y22.3844 
G01 X-25.6104 Y22.2107 
G01 X-25.7250 Y22.0529 
G01 X-25.8629 Y21.9150 
G01 X-26.0207 Y21.8004 
G01 X-26.1944 Y21.7119 
G01 X-26.3799 Y21.6516 
G01 X-26.5725 Y21.6211 
G01 X-26.7675 Y21.6211 
G01 X-26.9601 Y21.6516 
G01 X-27.1456 Y21.7119 
G01 X-27.3193 Y21.8004 
G01 X-27.4771 Y21.9150 
G00 Z2.0000 
G00 X-27.4771 Y24.4550 
G01 Z-0.0250 F254.00 
G01 X-27.6150 Y24.5929 F508.00 
G01 X-27.7296 Y24.7507 
G01 X-27.8181 Y24.9244 
G01 X-27.8784 Y25.1099 
G01 X-27.9089 Y25.3025 
G01 X-27.9089 Y25.4975 
G01 X-27.8784 Y25.6901 
G01 X-27.8181 Y25.8756 
G01 X-27.7296 Y26.0493 
G01 X-27.6150 Y26.2071 
G01 X-27.4771 Y26.3450 
G01 X-27.3193 Y26.4596 
G01 X-27.1456 Y26.5481 
G01 X-26.9601 Y26.6084 
G01 X-26.7675 Y26.6389 
G01 X-26.5725 Y26.6389 
G01 X-26.3799 Y26.6084 
G01 X-26.1944 Y26.5481 
G01 X-26.0207 Y26.4596 
G01 X-25.8629 Y26.3450 
G01 X-25.7250 Y26.2071 
G01 X-25.6104 Y26.0493 
G01 X-25.5219 Y25.8756 
G01 X-25.4616 Y25.6901 
G01 X-25.4311 Y25.4975 
G01 X-25.4311 Y25.3025 
G01 X-25.4616 Y25.1099 
G01 X-25.5219 Y24.9244 
G01 X-25.6104 Y24.7507 
G01 X-25.7250 Y24.5929 
G01 X-25.8629 Y24.4550 
G01 X-26.0207 Y24.3404 
G01 X-26.1944 Y24.2519 
G01 X-26.3799 Y24.1916 
G01 X-26.5725 Y24.1611 
G01 X-26.7675 Y24.1611 
G01 X-26.9601 Y24.1916 
G01 X-27.1456 Y24.2519 
G01 X-27.3193 Y24.3404 
G01 X-27.4771 Y24.4550 
G00 Z2.0000 
G00 X-27.4771 Y26.9950 
G01 Z-0.0250 F254.00 
G01 X-27.6150 Y27.1329 F508.00 
G01 X-27.7296 Y27.2907 
G01 X-27.8181 Y27.4644 
G01 X-27.8784 Y27.6499 
G01 X-27.9089 Y27.8425 
G01 X-27.9089 Y28.0375 
G01 X-27.8784 Y28.2301 
G01 X-27.8181 Y28.4156 
G01 X-27.7296 Y28.5893 
G01 X-27.6150 Y28.7471 
G01 X-27.4771 Y28.8850 
G01 X-27.3193 Y28.9996 
G01 X-27.1456 Y29.0881 
G01 X-26.9601 Y29.1484 
G01 X-26.7675 Y29.1789 
G01 X-26.5725 Y29.1789 
G01 X-26.3799 Y29.1484 
G01 X-26.1944 Y29.0881 
G01 X-26.0207 Y28.9996 
G01 X-25.8629 Y28.8850 
G01 X-25.7250 Y28.7471 
G01 X-25.6104 Y28.5893 
G01 X-25.5219 Y28.4156 
G01 X-25.4616 Y28.2301 
G01 X-25.4311 Y28.0375 
G01 X-25.4311 Y27.8425 
G01 X-25.4616 Y27.6499 
G01 X-25.5219 Y27.4644 
G01 X-25.6104 Y27.2907 
G01 X-25.7250 Y27.1329 
G01 X-25.8629 Y26.9950 
G01 X-26.0207 Y26.8804 
G01 X-26.1944 Y26.7919 
G01 X-26.3799 Y26.7316 
G01 X-26.5725 Y26.7011 
G01 X-26.7675 Y26.7011 
G01 X-26.9601 Y26.7316 
G01 X-27.1456 Y26.7919 
G01 X-27.3193 Y26.8804 
G01 X-27.4771 Y26.9950 
G00 Z2.0000 
G00 X-27.4771 Y29.5350 
G01 Z-0.0250 F254.00 
G01 X-27.6150 Y29.6729 F508.00 
G01 X-27.7296 Y29.8307 
G01 X-27.8181 Y30.0044 
G01 X-27.8784 Y30.1899 
G01 X-27.9089 Y30.3825 
G01 X-27.9089 Y30.5775 
G01 X-27.8784 Y30.7701 
G01 X-27.8181 Y30.9556 
G01 X-27.7296 Y31.1293 
G01 X-27.6150 Y31.2871 
G01 X-27.4771 Y31.4250 
G01 X-27.3193 Y31.5396 
G01 X-27.1456 Y31.6281 
G01 X-26.9601 Y31.6884 
G01 X-26.7675 Y31.7189 
G01 X-26.5725 Y31.7189 
G01 X-26.3799 Y31.6884 
G01 X-26.1944 Y31.6281 
G01 X-26.0207 Y31.5396 
G01 X-25.8629 Y31.4250 
G01 X-25.7250 Y31.2871 
G01 X-25.6104 Y31.1293 
G01 X-25.5219 Y30.9556 
G01 X-25.4616 Y30.7701 
G01 X-25.4311 Y30.5775 
G01 X-25.4311 Y30.3825 
G01 X-25.4616 Y30.1899 
G01 X-25.5219 Y30.0044 
G01 X-25.6104 Y29.8307 
G01 X-25.7250 Y29.6729 
G01 X-25.8629 Y29.5350 
G01 X-26.0207 Y29.4204 
G01 X-26.1944 Y29.3319 
G01 X-26.3799 Y29.2716 
G01 X-26.5725 Y29.2411 
G01 X-26.7675 Y29.2411 
G01 X-26.9601 Y29.2716 
G01 X-27.1456 Y29.3319 
G01 X-27.3193 Y29.4204 
G01 X-27.4771 Y29.5350 
G00 Z2.0000 
G00 X-27.4771 Y32.0750 
G01 Z-0.0250 F254.00 
G01 X-27.6150 Y32.2129 F508.00 
G01 X-27.7296 Y32.3707 
G01 X-27.8181 Y32.5444 
G01 X-27.8784 Y32.7299 
G01 X-27.9089 Y32.9225 
G01 X-27.9089 Y33.1175 
G01 X-27.8784 Y33.3101 
G01 X-27.8181 Y33.4956 
G01 X-27.7296 Y33.6693 
G01 X-27.6150 Y33.8271 
G01 X-27.4771 Y33.9650 
G01 X-27.3193 Y34.0796 
G01 X-27.1456 Y34.1681 
G01 X-26.9601 Y34.2284 
G01 X-26.7675 Y34.2589 
G01 X-26.5725 Y34.2589 
G01 X-26.3799 Y34.2284 
G01 X-26.1944 Y34.1681 
G01 X-26.0207 Y34.0796 
G01 X-25.8629 Y33.9650 
G01 X-25.7250 Y33.8271 
G01 X-25.6104 Y33.6693 
G01 X-25.5219 Y33.4956 
G01 X-25.4616 Y33.3101 
G01 X-25.4311 Y33.1175 
G01 X-25.4311 Y32.9225 
G01 X-25.4616 Y32.7299 
G01 X-25.5219 Y32.5444 
G01 X-25.6104 Y32.3707 
G01 X-25.7250 Y32.2129 
G01 X-25.8629 Y32.0750 
G01 X-26.0207 Y31.9604 
G01 X-26.1944 Y31.8719 
G01 X-26.3799 Y31.8116 
G01 X-26.5725 Y31.7811 
G01 X-26.7675 Y31.7811 
G01 X-26.9601 Y31.8116 
G01 X-27.1456 Y31.8719 
G01 X-27.3193 Y31.9604 
G01 X-27.4771 Y32.0750 
G00 Z2.0000 
G00 X-27.4771 Y34.6150 
G01 Z-0.0250 F254.00 
G01 X-27.6150 Y34.7529 F508.00 
G01 X-27.7296 Y34.9107 
G01 X-27.8181 Y35.0844 
G01 X-27.8784 Y35.2699 
G01 X-27.9089 Y35.4625 
G01 X-27.9089 Y35.6575 
G01 X-27.8784 Y35.8501 
G01 X-27.8181 Y36.0356 
G01 X-27.7296 Y36.2093 
G01 X-27.6150 Y36.3671 
G01 X-27.4771 Y36.5050 
G01 X-27.3193 Y36.6196 
G01 X-27.1456 Y36.7081 
G01 X-26.9601 Y36.7684 
G01 X-26.7675 Y36.7989 
G01 X-26.5725 Y36.7989 
G01 X-26.3799 Y36.7684 
G01 X-26.1944 Y36.7081 
G01 X-26.0207 Y36.6196 
G01 X-25.8629 Y36.5050 
G01 X-25.7250 Y36.3671 
G01 X-25.6104 Y36.2093 
G01 X-25.5219 Y36.0356 
G01 X-25.4616 Y35.8501 
G01 X-25.4311 Y35.6575 
G01 X-25.4311 Y35.4625 
G01 X-25.4616 Y35.2699 
G01 X-25.5219 Y35.0844 
G01 X-25.6104 Y34.9107 
G01 X-25.7250 Y34.7529 
G01 X-25.8629 Y34.6150 
G01 X-26.0207 Y34.5004 
G01 X-26.1944 Y34.4119 
G01 X-26.3799 Y34.3516 
G01 X-26.5725 Y34.3211 
G01 X-26.7675 Y34.3211 
G01 X-26.9601 Y34.3516 
G01 X-27.1456 Y34.4119 
G01 X-27.3193 Y34.5004 
G01 X-27.4771 Y34.6150 
G00 Z2.0000 
G00 X-27.4771 Y37.1550 
G01 Z-0.0250 F254.00 
G01 X-27.6150 Y37.2929 F508.00 
G01 X-27.7296 Y37.4507 
G01 X-27.8181 Y37.6244 
G01 X-27.8784 Y37.8099 
G01 X-27.9089 Y38.0025 
G01 X-27.9089 Y38.1975 
G01 X-27.8784 Y38.3901 
G01 X-27.8181 Y38.5756 
G01 X-27.7296 Y38.7493 
G01 X-27.6150 Y38.9071 
G01 X-27.4771 Y39.0450 
G01 X-27.3193 Y39.1596 
G01 X-27.1456 Y39.2481 
G01 X-26.9601 Y39.3084 
G01 X-26.7675 Y39.3389 
G01 X-26.5725 Y39.3389 
G01 X-26.3799 Y39.3084 
G01 X-26.1944 Y39.2481 
G01 X-26.0207 Y39.1596 
G01 X-25.8629 Y39.0450 
G01 X-25.7250 Y38.9071 
G01 X-25.6104 Y38.7493 
G01 X-25.5219 Y38.5756 
G01 X-25.4616 Y38.3901 
G01 X-25.4311 Y38.1975 
G01 X-25.4311 Y38.0025 
G01 X-25.4616 Y37.8099 
G01 X-25.5219 Y37.6244 
G01 X-25.6104 Y37.4507 
G01 X-25.7250 Y37.2929 
G01 X-25.8629 Y37.1550 
G01 X-26.0207 Y37.0404 
G01 X-26.1944 Y36.9519 
G01 X-26.3799 Y36.8916 
G01 X-26.5725 Y36.8611 
G01 X-26.7675 Y36.8611 
G01 X-26.9601 Y36.8916 
G01 X-27.1456 Y36.9519 
G01 X-27.3193 Y37.0404 
G01 X-27.4771 Y37.1550 
G00 Z2.0000 
G00 X-27.4771 Y39.6950 
G01 Z-0.0250 F254.00 
G01 X-27.6150 Y39.8329 F508.00 
G01 X-27.7296 Y39.9907 
G01 X-27.8181 Y40.1644 
G01 X-27.8784 Y40.3499 
G01 X-27.9089 Y40.5425 
G01 X-27.9089 Y40.7375 
G01 X-27.8784 Y40.9301 
G01 X-27.8181 Y41.1156 
G01 X-27.7296 Y41.2893 
G01 X-27.6150 Y41.4471 
G01 X-27.4771 Y41.5850 
G01 X-27.3193 Y41.6996 
G01 X-27.1456 Y41.7881 
G01 X-26.9601 Y41.8484 
G01 X-26.7675 Y41.8789 
G01 X-26.5725 Y41.8789 
G01 X-26.3799 Y41.8484 
G01 X-26.1944 Y41.7881 
G01 X-26.0207 Y41.6996 
G01 X-25.8629 Y41.5850 
G01 X-25.7250 Y41.4471 
G01 X-25.6104 Y41.2893 
G01 X-25.5219 Y41.1156 
G01 X-25.4616 Y40.9301 
G01 X-25.4311 Y40.7375 
G01 X-25.4311 Y40.5425 
G01 X-25.4616 Y40.3499 
G01 X-25.5219 Y40.1644 
G01 X-25.6104 Y39.9907 
G01 X-25.7250 Y39.8329 
G01 X-25.8629 Y39.6950 
G01 X-26.0207 Y39.5804 
G01 X-26.1944 Y39.4919 
G01 X-26.3799 Y39.4316 
G01 X-26.5725 Y39.4011 
G01 X-26.7675 Y39.4011 
G01 X-26.9601 Y39.4316 
G01 X-27.1456 Y39.4919 
G01 X-27.3193 Y39.5804 
G01 X-27.4771 Y39.6950 
G00 Z2.0000 
G00 X-27.4771 Y42.2350 
G01 Z-0.0250 F254.00 
G01 X-27.6150 Y42.3729 F508.00 
G01 X-27.7296 Y42.5307 
G01 X-27.8181 Y42.7044 
G01 X-27.8784 Y42.8899 
G01 X-27.9089 Y43.0825 
G01 X-27.9089 Y43.2775 
G01 X-27.8784 Y43.4701 
G01 X-27.8181 Y43.6556 
G01 X-27.7296 Y43.8293 
G01 X-27.6150 Y43.9871 
G01 X-27.4771 Y44.1250 
G01 X-27.3193 Y44.2396 
G01 X-27.1456 Y44.3281 
G01 X-26.9601 Y44.3884 
G01 X-26.7675 Y44.4189 
G01 X-26.5725 Y44.4189 
G01 X-26.3799 Y44.3884 
G01 X-26.1944 Y44.3281 
G01 X-26.0207 Y44.2396 
G01 X-25.8629 Y44.1250 
G01 X-25.7250 Y43.9871 
G01 X-25.6104 Y43.8293 
G01 X-25.5219 Y43.6556 
G01 X-25.4616 Y43.4701 
G01 X-25.4311 Y43.2775 
G01 X-25.4311 Y43.0825 
G01 X-25.4616 Y42.8899 
G01 X-25.5219 Y42.7044 
G01 X-25.6104 Y42.5307 
G01 X-25.7250 Y42.3729 
G01 X-25.8629 Y42.2350 
G01 X-26.0207 Y42.1204 
G01 X-26.1944 Y42.0319 
G01 X-26.3799 Y41.9716 
G01 X-26.5725 Y41.9411 
G01 X-26.7675 Y41.9411 
G01 X-26.9601 Y41.9716 
G01 X-27.1456 Y42.0319 
G01 X-27.3193 Y42.1204 
G01 X-27.4771 Y42.2350 
G00 Z2.0000 
G00 X-27.4771 Y44.7750 
G01 Z-0.0250 F254.00 
G01 X-27.6150 Y44.9129 F508.00 
G01 X-27.7296 Y45.0707 
G01 X-27.8181 Y45.2444 
G01 X-27.8784 Y45.4299 
G01 X-27.9089 Y45.6225 
G01 X-27.9089 Y45.8175 
G01 X-27.8784 Y46.0101 
G01 X-27.8181 Y46.1956 
G01 X-27.7296 Y46.3693 
G01 X-27.6150 Y46.5271 
G01 X-27.4771 Y46.6650 
G01 X-27.3193 Y46.7796 
G01 X-27.1456 Y46.8681 
G01 X-26.9601 Y46.9284 
G01 X-26.7675 Y46.9589 
G01 X-26.5725 Y46.9589 
G01 X-26.3799 Y46.9284 
G01 X-26.1944 Y46.8681 
G01 X-26.0207 Y46.7796 
G01 X-25.8629 Y46.6650 
G01 X-25.7250 Y46.5271 
G01 X-25.6104 Y46.3693 
G01 X-25.5219 Y46.1956 
G01 X-25.4616 Y46.0101 
G01 X-25.4311 Y45.8175 
G01 X-25.4311 Y45.6225 
G01 X-25.4616 Y45.4299 
G01 X-25.5219 Y45.2444 
G01 X-25.6104 Y45.0707 
G01 X-25.7250 Y44.9129 
G01 X-25.8629 Y44.7750 
G01 X-26.0207 Y44.6604 
G01 X-26.1944 Y44.5719 
G01 X-26.3799 Y44.5116 
G01 X-26.5725 Y44.4811 
G01 X-26.7675 Y44.4811 
G01 X-26.9601 Y44.5116 
G01 X-27.1456 Y44.5719 
G01 X-27.3193 Y44.6604 
G01 X-27.4771 Y44.7750 
G00 Z2.0000 
G00 X-27.4771 Y47.3150 
G01 Z-0.0250 F254.00 
G01 X-27.6150 Y47.4529 F508.00 
G01 X-27.7296 Y47.6107 
G01 X-27.8181 Y47.7844 
G01 X-27.8784 Y47.9699 
G01 X-27.9089 Y48.1625 
G01 X-27.9089 Y48.3575 
G01 X-27.8784 Y48.5501 
G01 X-27.8181 Y48.7356 
G01 X-27.7296 Y48.9093 
G01 X-27.6150 Y49.0671 
G01 X-27.4771 Y49.2050 
G01 X-27.3193 Y49.3196 
G01 X-27.1456 Y49.4081 
G01 X-26.9601 Y49.4684 
G01 X-26.7675 Y49.4989 
G01 X-26.5725 Y49.4989 
G01 X-26.3799 Y49.4684 
G01 X-26.1944 Y49.4081 
G01 X-26.0207 Y49.3196 
G01 X-25.8629 Y49.2050 
G01 X-25.7250 Y49.0671 
G01 X-25.6104 Y48.9093 
G01 X-25.5219 Y48.7356 
G01 X-25.4616 Y48.5501 
G01 X-25.4311 Y48.3575 
G01 X-25.4311 Y48.1625 
G01 X-25.4616 Y47.9699 
G01 X-25.5219 Y47.7844 
G01 X-25.6104 Y47.6107 
G01 X-25.7250 Y47.4529 
G01 X-25.8629 Y47.3150 
G01 X-26.0207 Y47.2004 
G01 X-26.1944 Y47.1119 
G01 X-26.3799 Y47.0516 
G01 X-26.5725 Y47.0211 
G01 X-26.7675 Y47.0211 
G01 X-26.9601 Y47.0516 
G01 X-27.1456 Y47.1119 
G01 X-27.3193 Y47.2004 
G01 X-27.4771 Y47.3150 
G00 Z2.0000 
G00 X-27.4771 Y49.8550 
G01 Z-0.0250 F254.00 
G01 X-27.6150 Y49.9929 F508.00 
G01 X-27.7296 Y50.1507 
G01 X-27.8181 Y50.3244 
G01 X-27.8784 Y50.5099 
G01 X-27.9089 Y50.7025 
G01 X-27.9089 Y50.8975 
G01 X-27.8784 Y51.0901 
G01 X-27.8181 Y51.2756 
G01 X-27.7296 Y51.4493 
G01 X-27.6150 Y51.6071 
G01 X-27.4771 Y51.7450 
G01 X-27.3193 Y51.8596 
G01 X-27.1456 Y51.9481 
G01 X-26.9601 Y52.0084 
G01 X-26.7675 Y52.0389 
G01 X-26.5725 Y52.0389 
G01 X-26.3799 Y52.0084 
G01 X-26.1944 Y51.9481 
G01 X-26.0207 Y51.8596 
G01 X-25.8629 Y51.7450 
G01 X-25.7250 Y51.6071 
G01 X-25.6104 Y51.4493 
G01 X-25.5219 Y51.2756 
G01 X-25.4616 Y51.0901 
G01 X-25.4311 Y50.8975 
G01 X-25.4311 Y50.7025 
G01 X-25.4616 Y50.5099 
G01 X-25.5219 Y50.3244 
G01 X-25.6104 Y50.1507 
G01 X-25.7250 Y49.9929 
G01 X-25.8629 Y49.8550 
G01 X-26.0207 Y49.7404 
G01 X-26.1944 Y49.6519 
G01 X-26.3799 Y49.5916 
G01 X-26.5725 Y49.5611 
G01 X-26.7675 Y49.5611 
G01 X-26.9601 Y49.5916 
G01 X-27.1456 Y49.6519 
G01 X-27.3193 Y49.7404 
G01 X-27.4771 Y49.8550 
G00 Z2.0000 
G00 X-26.2071 Y52.3950 
G01 Z-0.0250 F254.00 
G01 X-26.3450 Y52.5329 F508.00 
G01 X-26.4596 Y52.6907 
G01 X-26.5481 Y52.8644 
G01 X-26.6084 Y53.0499 
G01 X-26.6389 Y53.2425 
G01 X-26.6389 Y53.4375 
G01 X-26.6084 Y53.6301 
G01 X-26.5481 Y53.8156 
G01 X-26.4596 Y53.9893 
G01 X-26.3450 Y54.1471 
G01 X-26.2071 Y54.2850 
G01 X-26.0493 Y54.3996 
G01 X-25.8756 Y54.4881 
G01 X-25.6901 Y54.5484 
G01 X-25.4975 Y54.5789 
G01 X-25.3025 Y54.5789 
G01 X-25.1099 Y54.5484 
G01 X-24.9244 Y54.4881 
G01 X-24.7507 Y54.3996 
G01 X-24.5929 Y54.2850 
G01 X-24.4550 Y54.1471 
G01 X-24.3404 Y53.9893 
G01 X-24.2519 Y53.8156 
G01 X-24.1916 Y53.6301 
G01 X-24.1611 Y53.4375 
G01 X-24.1611 Y53.2425 
G01 X-24.1916 Y53.0499 
G01 X-24.2519 Y52.8644 
G01 X-24.3404 Y52.6907 
G01 X-24.4550 Y52.5329 
G01 X-24.5929 Y52.3950 
G01 X-24.7507 Y52.2804 
G01 X-24.9244 Y52.1919 
G01 X-25.1099 Y52.1316 
G01 X-25.3025 Y52.1011 
G01 X-25.4975 Y52.1011 
G01 X-25.6901 Y52.1316 
G01 X-25.8756 Y52.1919 
G01 X-26.0493 Y52.2804 
G01 X-26.2071 Y52.3950 
G00 Z2.0000 
G00 X-23.6671 Y52.3950 
G01 Z-0.0250 F254.00 
G01 X-23.8050 Y52.5329 F508.00 
G01 X-23.9196 Y52.6907 
G01 X-24.0081 Y52.8644 
G01 X-24.0684 Y53.0499 
G01 X-24.0989 Y53.2425 
G01 X-24.0989 Y53.4375 
G01 X-24.0684 Y53.6301 
G01 X-24.0081 Y53.8156 
G01 X-23.9196 Y53.9893 
G01 X-23.8050 Y54.1471 
G01 X-23.6671 Y54.2850 
G01 X-23.5093 Y54.3996 
G01 X-23.3356 Y54.4881 
G01 X-23.1501 Y54.5484 
G01 X-22.9575 Y54.5789 
G01 X-22.7625 Y54.5789 
G01 X-22.5699 Y54.5484 
G01 X-22.3844 Y54.4881 
G01 X-22.2107 Y54.3996 
G01 X-22.0529 Y54.2850 
G01 X-21.9150 Y54.1471 
G01 X-21.8004 Y53.9893 
G01 X-21.7119 Y53.8156 
G01 X-21.6516 Y53.6301 
G01 X-21.6211 Y53.4375 
G01 X-21.6211 Y53.2425 
G01 X-21.6516 Y53.0499 
G01 X-21.7119 Y52.8644 
G01 X-21.8004 Y52.6907 
G01 X-21.9150 Y52.5329 
G01 X-22.0529 Y52.3950 
G01 X-22.2107 Y52.2804 
G01 X-22.3844 Y52.1919 
G01 X-22.5699 Y52.1316 
G01 X-22.7625 Y52.1011 
G01 X-22.9575 Y52.1011 
G01 X-23.1501 Y52.1316 
G01 X-23.3356 Y52.1919 
G01 X-23.5093 Y52.2804 
G01 X-23.6671 Y52.3950 
G00 Z2.0000 
G00 X-21.1271 Y52.3950 
G01 Z-0.0250 F254.00 
G01 X-21.2650 Y52.5329 F508.00 
G01 X-21.3796 Y52.6907 
G01 X-21.4681 Y52.8644 
G01 X-21.5284 Y53.0499 
G01 X-21.5589 Y53.2425 
G01 X-21.5589 Y53.4375 
G01 X-21.5284 Y53.6301 
G01 X-21.4681 Y53.8156 
G01 X-21.3796 Y53.9893 
G01 X-21.2650 Y54.1471 
G01 X-21.1271 Y54.2850 
G01 X-20.9693 Y54.3996 
G01 X-20.7956 Y54.4881 
G01 X-20.6101 Y54.5484 
G01 X-20.4175 Y54.5789 
G01 X-20.2225 Y54.5789 
G01 X-20.0299 Y54.5484 
G01 X-19.8444 Y54.4881 
G01 X-19.6707 Y54.3996 
G01 X-19.5129 Y54.2850 
G01 X-19.3750 Y54.1471 
G01 X-19.2604 Y53.9893 
G01 X-19.1719 Y53.8156 
G01 X-19.1116 Y53.6301 
G01 X-19.0811 Y53.4375 
G01 X-19.0811 Y53.2425 
G01 X-19.1116 Y53.0499 
G01 X-19.1719 Y52.8644 
G01 X-19.2604 Y52.6907 
G01 X-19.3750 Y52.5329 
G01 X-19.5129 Y52.3950 
G01 X-19.6707 Y52.2804 
G01 X-19.8444 Y52.1919 
G01 X-20.0299 Y52.1316 
G01 X-20.2225 Y52.1011 
G01 X-20.4175 Y52.1011 
G01 X-20.6101 Y52.1316 
G01 X-20.7956 Y52.1919 
G01 X-20.9693 Y52.2804 
G01 X-21.1271 Y52.3950 
G00 Z2.0000 
G00 X-18.5871 Y52.3950 
G01 Z-0.0250 F254.00 
G01 X-18.7250 Y52.5329 F508.00 
G01 X-18.8396 Y52.6907 
G01 X-18.9281 Y52.8644 
G01 X-18.9884 Y53.0499 
G01 X-19.0189 Y53.2425 
G01 X-19.0189 Y53.4375 
G01 X-18.9884 Y53.6301 
G01 X-18.9281 Y53.8156 
G01 X-18.8396 Y53.9893 
G01 X-18.7250 Y54.1471 
G01 X-18.5871 Y54.2850 
G01 X-18.4293 Y54.3996 
G01 X-18.2556 Y54.4881 
G01 X-18.0701 Y54.5484 
G01 X-17.8775 Y54.5789 
G01 X-17.6825 Y54.5789 
G01 X-17.4899 Y54.5484 
G01 X-17.3044 Y54.4881 
G01 X-17.1307 Y54.3996 
G01 X-16.9729 Y54.2850 
G01 X-16.8350 Y54.1471 
G01 X-16.7204 Y53.9893 
G01 X-16.6319 Y53.8156 
G01 X-16.5716 Y53.6301 
G01 X-16.5411 Y53.4375 
G01 X-16.5411 Y53.2425 
G01 X-16.5716 Y53.0499 
G01 X-16.6319 Y52.8644 
G01 X-16.7204 Y52.6907 
G01 X-16.8350 Y52.5329 
G01 X-16.9729 Y52.3950 
G01 X-17.1307 Y52.2804 
G01 X-17.3044 Y52.1919 
G01 X-17.4899 Y52.1316 
G01 X-17.6825 Y52.1011 
G01 X-17.8775 Y52.1011 
G01 X-18.0701 Y52.1316 
G01 X-18.2556 Y52.1919 
G01 X-18.4293 Y52.2804 
G01 X-18.5871 Y52.3950 
G00 Z2.0000 
G00 X-16.0471 Y52.3950 
G01 Z-0.0250 F254.00 
G01 X-16.1850 Y52.5329 F508.00 
G01 X-16.2996 Y52.6907 
G01 X-16.3881 Y52.8644 
G01 X-16.4484 Y53.0499 
G01 X-16.4789 Y53.2425 
G01 X-16.4789 Y53.4375 
G01 X-16.4484 Y53.6301 
G01 X-16.3881 Y53.8156 
G01 X-16.2996 Y53.9893 
G01 X-16.1850 Y54.1471 
G01 X-16.0471 Y54.2850 
G01 X-15.8893 Y54.3996 
G01 X-15.7156 Y54.4881 
G01 X-15.5301 Y54.5484 
G01 X-15.3375 Y54.5789 
G01 X-15.1425 Y54.5789 
G01 X-14.9499 Y54.5484 
G01 X-14.7644 Y54.4881 
G01 X-14.5907 Y54.3996 
G01 X-14.4329 Y54.2850 
G01 X-14.2950 Y54.1471 
G01 X-14.1804 Y53.9893 
G01 X-14.0919 Y53.8156 
G01 X-14.0316 Y53.6301 
G01 X-14.0011 Y53.4375 
G01 X-14.0011 Y53.2425 
G01 X-14.0316 Y53.0499 
G01 X-14.0919 Y52.8644 
G01 X-14.1804 Y52.6907 
G01 X-14.2950 Y52.5329 
G01 X-14.4329 Y52.3950 
G01 X-14.5907 Y52.2804 
G01 X-14.7644 Y52.1919 
G01 X-14.9499 Y52.1316 
G01 X-15.1425 Y52.1011 
G01 X-15.3375 Y52.1011 
G01 X-15.5301 Y52.1316 
G01 X-15.7156 Y52.1919 
G01 X-15.8893 Y52.2804 
G01 X-16.0471 Y52.3950 
G00 Z2.0000 
G00 X-13.5071 Y52.3950 
G01 Z-0.0250 F254.00 
G01 X-13.6450 Y52.5329 F508.00 
G01 X-13.7596 Y52.6907 
G01 X-13.8481 Y52.8644 
G01 X-13.9084 Y53.0499 
G01 X-13.9389 Y53.2425 
G01 X-13.9389 Y53.4375 
G01 X-13.9084 Y53.6301 
G01 X-13.8481 Y53.8156 
G01 X-13.7596 Y53.9893 
G01 X-13.6450 Y54.1471 
G01 X-13.5071 Y54.2850 
G01 X-13.3493 Y54.3996 
G01 X-13.1756 Y54.4881 
G01 X-12.9901 Y54.5484 
G01 X-12.7975 Y54.5789 
G01 X-12.6025 Y54.5789 
G01 X-12.4099 Y54.5484 
G01 X-12.2244 Y54.4881 
G01 X-12.0507 Y54.3996 
G01 X-11.8929 Y54.2850 
G01 X-11.7550 Y54.1471 
G01 X-11.6404 Y53.9893 
G01 X-11.5519 Y53.8156 
G01 X-11.4916 Y53.6301 
G01 X-11.4611 Y53.4375 
G01 X-11.4611 Y53.2425 
G01 X-11.4916 Y53.0499 
G01 X-11.5519 Y52.8644 
G01 X-11.6404 Y52.6907 
G01 X-11.7550 Y52.5329 
G01 X-11.8929 Y52.3950 
G01 X-12.0507 Y52.2804 
G01 X-12.2244 Y52.1919 
G01 X-12.4099 Y52.1316 
G01 X-12.6025 Y52.1011 
G01 X-12.7975 Y52.1011 
G01 X-12.9901 Y52.1316 
G01 X-13.1756 Y52.1919 
G01 X-13.3493 Y52.2804 
G01 X-13.5071 Y52.3950 
G00 Z2.0000 
G00 X-12.3750 Y51.6071 
G01 Z-0.0250 F254.00 
G01 X-12.2371 Y51.7450 F508.00 
G01 X-12.0793 Y51.8596 
G01 X-11.9056 Y51.9481 
G01 X-11.7201 Y52.0084 
G01 X-11.5275 Y52.0389 
G01 X-11.3325 Y52.0389 
G01 X-11.1399 Y52.0084 
G01 X-10.9544 Y51.9481 
G01 X-10.7807 Y51.8596 
G01 X-10.6229 Y51.7450 
G01 X-10.4850 Y51.6071 
G01 X-10.3704 Y51.4493 
G01 X-10.2819 Y51.2756 
G01 X-10.2216 Y51.0901 
G01 X-10.1911 Y50.8975 
G01 X-10.1911 Y50.7025 
G01 X-10.2216 Y50.5099 
G01 X-10.2819 Y50.3244 
G01 X-10.3704 Y50.1507 
G01 X-10.4850 Y49.9929 
G01 X-10.6229 Y49.8550 
G01 X-10.7807 Y49.7404 
G01 X-10.9544 Y49.6519 
G01 X-11.1399 Y49.5916 
G01 X-11.3325 Y49.5611 
G01 X-11.5275 Y49.5611 
G01 X-11.7201 Y49.5916 
G01 X-11.9056 Y49.6519 
G01 X-12.0793 Y49.7404 
G01 X-12.2371 Y49.8550 
G01 X-12.3750 Y49.9929 
G01 X-12.4896 Y50.1507 
G01 X-12.5781 Y50.3244 
G01 X-12.6384 Y50.5099 
G01 X-12.6689 Y50.7025 
G01 X-12.6689 Y50.8975 
G01 X-12.6384 Y51.0901 
G01 X-12.5781 Y51.2756 
G01 X-12.4896 Y51.4493 
G01 X-12.3750 Y51.6071 
G00 Z2.0000 
G00 X-12.3750 Y49.0671 
G01 Z-0.0250 F254.00 
G01 X-12.2371 Y49.2050 F508.00 
G01 X-12.0793 Y49.3196 
G01 X-11.9056 Y49.4081 
G01 X-11.7201 Y49.4684 
G01 X-11.5275 Y49.4989 
G01 X-11.3325 Y49.4989 
G01 X-11.1399 Y49.4684 
G01 X-10.9544 Y49.4081 
G01 X-10.7807 Y49.3196 
G01 X-10.6229 Y49.2050 
G01 X-10.4850 Y49.0671 
G01 X-10.3704 Y48.9093 
G01 X-10.2819 Y48.7356 
G01 X-10.2216 Y48.5501 
G01 X-10.1911 Y48.3575 
G01 X-10.1911 Y48.1625 
G01 X-10.2216 Y47.9699 
G01 X-10.2819 Y47.7844 
G01 X-10.3704 Y47.6107 
G01 X-10.4850 Y47.4529 
G01 X-10.6229 Y47.3150 
G01 X-10.7807 Y47.2004 
G01 X-10.9544 Y47.1119 
G01 X-11.1399 Y47.0516 
G01 X-11.3325 Y47.0211 
G01 X-11.5275 Y47.0211 
G01 X-11.7201 Y47.0516 
G01 X-11.9056 Y47.1119 
G01 X-12.0793 Y47.2004 
G01 X-12.2371 Y47.3150 
G01 X-12.3750 Y47.4529 
G01 X-12.4896 Y47.6107 
G01 X-12.5781 Y47.7844 
G01 X-12.6384 Y47.9699 
G01 X-12.6689 Y48.1625 
G01 X-12.6689 Y48.3575 
G01 X-12.6384 Y48.5501 
G01 X-12.5781 Y48.7356 
G01 X-12.4896 Y48.9093 
G01 X-12.3750 Y49.0671 
G00 Z2.0000 
G00 X-12.3750 Y46.5271 
G01 Z-0.0250 F254.00 
G01 X-12.2371 Y46.6650 F508.00 
G01 X-12.0793 Y46.7796 
G01 X-11.9056 Y46.8681 
G01 X-11.7201 Y46.9284 
G01 X-11.5275 Y46.9589 
G01 X-11.3325 Y46.9589 
G01 X-11.1399 Y46.9284 
G01 X-10.9544 Y46.8681 
G01 X-10.7807 Y46.7796 
G01 X-10.6229 Y46.6650 
G01 X-10.4850 Y46.5271 
G01 X-10.3704 Y46.3693 
G01 X-10.2819 Y46.1956 
G01 X-10.2216 Y46.0101 
G01 X-10.1911 Y45.8175 
G01 X-10.1911 Y45.6225 
G01 X-10.2216 Y45.4299 
G01 X-10.2819 Y45.2444 
G01 X-10.3704 Y45.0707 
G01 X-10.4850 Y44.9129 
G01 X-10.6229 Y44.7750 
G01 X-10.7807 Y44.6604 
G01 X-10.9544 Y44.5719 
G01 X-11.1399 Y44.5116 
G01 X-11.3325 Y44.4811 
G01 X-11.5275 Y44.4811 
G01 X-11.7201 Y44.5116 
G01 X-11.9056 Y44.5719 
G01 X-12.0793 Y44.6604 
G01 X-12.2371 Y44.7750 
G01 X-12.3750 Y44.9129 
G01 X-12.4896 Y45.0707 
G01 X-12.5781 Y45.2444 
G01 X-12.6384 Y45.4299 
G01 X-12.6689 Y45.6225 
G01 X-12.6689 Y45.8175 
G01 X-12.6384 Y46.0101 
G01 X-12.5781 Y46.1956 
G01 X-12.4896 Y46.3693 
G01 X-12.3750 Y46.5271 
G00 Z2.0000 
G00 X-12.3750 Y41.4471 
G01 Z-0.0250 F254.00 
G01 X-12.2371 Y41.5850 F508.00 
G01 X-12.0793 Y41.6996 
G01 X-11.9056 Y41.7881 
G01 X-11.7201 Y41.8484 
G01 X-11.5275 Y41.8789 
G01 X-11.3325 Y41.8789 
G01 X-11.1399 Y41.8484 
G01 X-10.9544 Y41.7881 
G01 X-10.7807 Y41.6996 
G01 X-10.6229 Y41.5850 
G01 X-10.5707 Y41.5328 
G01 X-8.2389 Y43.8646 
G01 X-8.2389 Y53.7354 
G01 X-11.0646 Y56.5611 
G01 X-38.1354 Y56.5611 
G01 X-44.8384 Y49.8580 
G01 X-44.7600 Y49.7796 
G01 X-44.6454 Y49.6218 
G01 X-44.5569 Y49.4481 
G01 X-44.4966 Y49.2626 
G01 X-44.4661 Y49.0700 
G01 X-44.4661 Y48.8750 
G01 X-44.4966 Y48.6824 
G01 X-44.5569 Y48.4969 
G01 X-44.6454 Y48.3232 
G01 X-44.7600 Y48.1654 
G01 X-44.8979 Y48.0275 
G01 X-45.0557 Y47.9129 
G01 X-45.2294 Y47.8244 
G01 X-45.4149 Y47.7641 
G01 X-45.6075 Y47.7336 
G01 X-45.8025 Y47.7336 
G01 X-45.9951 Y47.7641 
G01 X-46.1806 Y47.8244 
G01 X-46.3543 Y47.9129 
G01 X-46.5121 Y48.0275 
G01 X-46.6500 Y48.1654 
G01 X-46.7646 Y48.3232 
G01 X-46.8531 Y48.4969 
G01 X-46.9134 Y48.6824 
G01 X-46.9439 Y48.8750 
G01 X-46.9439 Y49.0700 
G01 X-46.9134 Y49.2626 
G01 X-46.8531 Y49.4481 
G01 X-46.7646 Y49.6218 
G01 X-46.6500 Y49.7796 
G01 X-46.5121 Y49.9175 
G01 X-46.3543 Y50.0321 
G01 X-46.2327 Y50.0941 
G01 X-46.2143 Y50.1864 
G01 X-46.1662 Y50.3026 
G01 X-46.0963 Y50.4073 
G01 X-46.0073 Y50.4963 
G01 X-38.8073 Y57.6963 
G01 X-38.7026 Y57.7662 
G01 X-38.5864 Y57.8143 
G01 X-38.4629 Y57.8389 
G01 X-10.7371 Y57.8389 
G01 X-10.6136 Y57.8143 
G01 X-10.4974 Y57.7662 
G01 X-10.3927 Y57.6963 
G01 X-10.3037 Y57.6073 
G01 X-7.1037 Y54.4073 
G01 X-7.0338 Y54.3026 
G01 X-6.9857 Y54.1864 
G01 X-6.9611 Y54.0629 
G01 X-6.9611 Y43.5371 
G01 X-6.9857 Y43.4136 
G01 X-7.0338 Y43.2974 
G01 X-7.1037 Y43.1927 
G01 X-7.1927 Y43.1037 
G01 X-9.9927 Y40.3037 
G01 X-10.0974 Y40.2338 
G01 X-10.2136 Y40.1857 
G01 X-10.2792 Y40.1726 
G01 X-10.2819 Y40.1644 
G01 X-10.3704 Y39.9907 
G01 X-10.4850 Y39.8329 
G01 X-10.6229 Y39.6950 
G01 X-10.7807 Y39.5804 
G01 X-10.9544 Y39.4919 
G01 X-11.1399 Y39.4316 
G01 X-11.3325 Y39.4011 
G01 X-11.5275 Y39.4011 
G01 X-11.7201 Y39.4316 
G01 X-11.9056 Y39.4919 
G01 X-12.0793 Y39.5804 
G01 X-12.2371 Y39.6950 
G01 X-12.3750 Y39.8329 
G01 X-12.4896 Y39.9907 
G01 X-12.5781 Y40.1644 
G01 X-12.6384 Y40.3499 
G01 X-12.6689 Y40.5425 
G01 X-12.6689 Y40.7375 
G01 X-12.6384 Y40.9301 
G01 X-12.5781 Y41.1156 
G01 X-12.4896 Y41.2893 
G01 X-12.3750 Y41.4471 
G00 Z2.0000 
G00 X-12.3750 Y38.9071 
G01 Z-0.0250 F254.00 
G01 X-12.2371 Y39.0450 F508.00 
G01 X-12.0793 Y39.1596 
G01 X-11.9056 Y39.2481 
G01 X-11.7201 Y39.3084 
G01 X-11.5275 Y39.3389 
G01 X-11.3325 Y39.3389 
G01 X-11.1399 Y39.3084 
G01 X-10.9544 Y39.2481 
G01 X-10.7807 Y39.1596 
G01 X-10.6229 Y39.0450 
G01 X-10.4850 Y38.9071 
G01 X-10.3704 Y38.7493 
G01 X-10.2819 Y38.5756 
G01 X-10.2216 Y38.3901 
G01 X-10.1911 Y38.1975 
G01 X-10.1911 Y38.0025 
G01 X-10.2216 Y37.8099 
G01 X-10.2819 Y37.6244 
G01 X-10.3704 Y37.4507 
G01 X-10.4850 Y37.2929 
G01 X-10.6229 Y37.1550 
G01 X-10.7807 Y37.0404 
G01 X-10.9544 Y36.9519 
G01 X-11.1399 Y36.8916 
G01 X-11.3325 Y36.8611 
G01 X-11.5275 Y36.8611 
G01 X-11.7201 Y36.8916 
G01 X-11.9056 Y36.9519 
G01 X-12.0793 Y37.0404 
G01 X-12.2371 Y37.1550 
G01 X-12.3750 Y37.2929 
G01 X-12.4896 Y37.4507 
G01 X-12.5781 Y37.6244 
G01 X-12.6384 Y37.8099 
G01 X-12.6689 Y38.0025 
G01 X-12.6689 Y38.1975 
G01 X-12.6384 Y38.3901 
G01 X-12.5781 Y38.5756 
G01 X-12.4896 Y38.7493 
G01 X-12.3750 Y38.9071 
G00 Z2.0000 
G00 X-12.3750 Y36.3671 
G01 Z-0.0250 F254.00 
G01 X-12.2371 Y36.5050 F508.00 
G01 X-12.0793 Y36.6196 
G01 X-11.9056 Y36.7081 
G01 X-11.7201 Y36.7684 
G01 X-11.5275 Y36.7989 
G01 X-11.3325 Y36.7989 
G01 X-11.1399 Y36.7684 
G01 X-10.9544 Y36.7081 
G01 X-10.7807 Y36.6196 
G01 X-10.6229 Y36.5050 
G01 X-10.4850 Y36.3671 
G01 X-10.3704 Y36.2093 
G01 X-10.2819 Y36.0356 
G01 X-10.2216 Y35.8501 
G01 X-10.1911 Y35.6575 
G01 X-10.1911 Y35.4625 
G01 X-10.2216 Y35.2699 
G01 X-10.2819 Y35.0844 
G01 X-10.3704 Y34.9107 
G01 X-10.4850 Y34.7529 
G01 X-10.6229 Y34.6150 
G01 X-10.7807 Y34.5004 
G01 X-10.9544 Y34.4119 
G01 X-11.1399 Y34.3516 
G01 X-11.3325 Y34.3211 
G01 X-11.5275 Y34.3211 
G01 X-11.7201 Y34.3516 
G01 X-11.9056 Y34.4119 
