(.../pcb-gcode-3.6.0.4/pcb-gcode.ulp)
(Copyright 2005 - 2012 by John Johnson)
(See readme.txt for licensing terms.)
(This file generated from the board:)
(.../Ozan/Documents/eagle/HS/HSIO.brd)
(Current profile is .../pcb-gcode-3.6.0.4/profiles/mach.pp  )
(This file generated 10/30/2013 1:24:04 PM)
(Settings from pcb-machine.h)
(  Tool Size)
(0.0070  )
(Z Axis Settings)
(  High     Up        Down     Drill)
(0.5000  	0.1000  	-0.0070 	-0.0320 )
(spindle on time = 3.0000)
(milling depth = -0.0100)
(text depth = -0.0050)
(tool change at 0.5000  0.6000  1.0000  )
(feed rate xy = F20    )
(feed rate z  = F10    )
(Settings from pcb-defaults.h)
(isolate min = 0.0010)
(isolate max = 0.0200)
(isolate step = 0.0050)
(Generated top outlines, top drill, bottom outlines, bottom drill, )
(Unit of measure: inch)
(Inch Mode)
G20
(Absolute Coordinates)
G90
G00 X0.0000  Y0.0000  
M03
G04 P3.000000
G00 Z0.1000  
G00 X5.4842  Y6.9466  
G01 Z-0.0070 F10    
G01 X5.4842  Y6.9534  F20    
G01 X5.4829  Y6.9600  
G01 X5.4803  Y6.9662  
G01 X5.4766  Y6.9718  
G01 X5.4718  Y6.9766  
G01 X5.4662  Y6.9803  
G01 X5.4600  Y6.9829  
G01 X5.4534  Y6.9842  
G01 X5.4466  Y6.9842  
G01 X5.4400  Y6.9829  
G01 X5.4338  Y6.9803  
G01 X5.4282  Y6.9766  
G01 X5.4234  Y6.9718  
G01 X5.4197  Y6.9662  
G01 X5.4171  Y6.9600  
G01 X5.4158  Y6.9534  
G01 X5.4158  Y6.9466  
G01 X5.4171  Y6.9400  
G01 X5.4197  Y6.9338  
G01 X5.4234  Y6.9282  
G01 X5.4282  Y6.9234  
G01 X5.4338  Y6.9197  
G01 X5.4400  Y6.9171  
G01 X5.4466  Y6.9158  
G01 X5.4534  Y6.9158  
G01 X5.4600  Y6.9171  
G01 X5.4662  Y6.9197  
G01 X5.4718  Y6.9234  
G01 X5.4766  Y6.9282  
G01 X5.4803  Y6.9338  
G01 X5.4829  Y6.9400  
G01 X5.4842  Y6.9466  
G00 Z0.1000  
G00 X5.4842  Y6.8466  
G01 Z-0.0070 F10    
G01 X5.4842  Y6.8534  F20    
G01 X5.4829  Y6.8600  
G01 X5.4803  Y6.8662  
G01 X5.4766  Y6.8718  
G01 X5.4718  Y6.8766  
G01 X5.4662  Y6.8803  
G01 X5.4600  Y6.8829  
G01 X5.4534  Y6.8842  
G01 X5.4466  Y6.8842  
G01 X5.4400  Y6.8829  
G01 X5.4338  Y6.8803  
G01 X5.4282  Y6.8766  
G01 X5.4234  Y6.8718  
G01 X5.4197  Y6.8662  
G01 X5.4171  Y6.8600  
G01 X5.4158  Y6.8534  
G01 X5.4158  Y6.8466  
G01 X5.4171  Y6.8400  
G01 X5.4197  Y6.8338  
G01 X5.4234  Y6.8282  
G01 X5.4282  Y6.8234  
G01 X5.4338  Y6.8197  
G01 X5.4400  Y6.8171  
G01 X5.4466  Y6.8158  
G01 X5.4534  Y6.8158  
G01 X5.4600  Y6.8171  
G01 X5.4662  Y6.8197  
G01 X5.4718  Y6.8234  
G01 X5.4766  Y6.8282  
G01 X5.4803  Y6.8338  
G01 X5.4829  Y6.8400  
G01 X5.4842  Y6.8466  
G00 Z0.1000  
G00 X5.3842  Y6.9466  
G01 Z-0.0070 F10    
G01 X5.3842  Y6.9534  F20    
G01 X5.3829  Y6.9600  
G01 X5.3803  Y6.9662  
G01 X5.3766  Y6.9718  
G01 X5.3718  Y6.9766  
G01 X5.3662  Y6.9803  
G01 X5.3600  Y6.9829  
G01 X5.3534  Y6.9842  
G01 X5.3466  Y6.9842  
G01 X5.3400  Y6.9829  
G01 X5.3338  Y6.9803  
G01 X5.3282  Y6.9766  
G01 X5.3234  Y6.9718  
G01 X5.3197  Y6.9662  
G01 X5.3171  Y6.9600  
G01 X5.3158  Y6.9534  
G01 X5.3158  Y6.9466  
G01 X5.3171  Y6.9400  
G01 X5.3197  Y6.9338  
G01 X5.3234  Y6.9282  
G01 X5.3282  Y6.9234  
G01 X5.3338  Y6.9197  
G01 X5.3400  Y6.9171  
G01 X5.3466  Y6.9158  
G01 X5.3534  Y6.9158  
G01 X5.3600  Y6.9171  
G01 X5.3662  Y6.9197  
G01 X5.3718  Y6.9234  
G01 X5.3766  Y6.9282  
G01 X5.3803  Y6.9338  
G01 X5.3829  Y6.9400  
G01 X5.3842  Y6.9466  
G00 Z0.1000  
G00 X5.3842  Y6.8466  
G01 Z-0.0070 F10    
G01 X5.3842  Y6.8534  F20    
G01 X5.3829  Y6.8600  
G01 X5.3803  Y6.8662  
G01 X5.3766  Y6.8718  
G01 X5.3718  Y6.8766  
G01 X5.3662  Y6.8803  
G01 X5.3600  Y6.8829  
G01 X5.3534  Y6.8842  
G01 X5.3466  Y6.8842  
G01 X5.3400  Y6.8829  
G01 X5.3338  Y6.8803  
G01 X5.3282  Y6.8766  
G01 X5.3234  Y6.8718  
G01 X5.3197  Y6.8662  
G01 X5.3171  Y6.8600  
G01 X5.3158  Y6.8534  
G01 X5.3158  Y6.8466  
G01 X5.3171  Y6.8400  
G01 X5.3197  Y6.8338  
G01 X5.3234  Y6.8282  
G01 X5.3282  Y6.8234  
G01 X5.3338  Y6.8197  
G01 X5.3400  Y6.8171  
G01 X5.3466  Y6.8158  
G01 X5.3534  Y6.8158  
G01 X5.3600  Y6.8171  
G01 X5.3662  Y6.8197  
G01 X5.3718  Y6.8234  
G01 X5.3766  Y6.8282  
G01 X5.3803  Y6.8338  
G01 X5.3829  Y6.8400  
G01 X5.3842  Y6.8466  
G00 Z0.1000  
G00 X5.2842  Y6.9466  
G01 Z-0.0070 F10    
G01 X5.2842  Y6.9534  F20    
G01 X5.2829  Y6.9600  
G01 X5.2803  Y6.9662  
G01 X5.2766  Y6.9718  
G01 X5.2718  Y6.9766  
G01 X5.2662  Y6.9803  
G01 X5.2600  Y6.9829  
G01 X5.2534  Y6.9842  
G01 X5.2466  Y6.9842  
G01 X5.2400  Y6.9829  
G01 X5.2338  Y6.9803  
G01 X5.2282  Y6.9766  
G01 X5.2234  Y6.9718  
G01 X5.2197  Y6.9662  
G01 X5.2171  Y6.9600  
G01 X5.2158  Y6.9534  
G01 X5.2158  Y6.9466  
G01 X5.2171  Y6.9400  
G01 X5.2197  Y6.9338  
G01 X5.2234  Y6.9282  
G01 X5.2282  Y6.9234  
G01 X5.2338  Y6.9197  
G01 X5.2400  Y6.9171  
G01 X5.2466  Y6.9158  
G01 X5.2534  Y6.9158  
G01 X5.2600  Y6.9171  
G01 X5.2662  Y6.9197  
G01 X5.2718  Y6.9234  
G01 X5.2766  Y6.9282  
G01 X5.2803  Y6.9338  
G01 X5.2829  Y6.9400  
G01 X5.2842  Y6.9466  
G00 Z0.1000  
G00 X5.2842  Y6.8466  
G01 Z-0.0070 F10    
G01 X5.2842  Y6.8534  F20    
G01 X5.2829  Y6.8600  
G01 X5.2803  Y6.8662  
G01 X5.2766  Y6.8718  
G01 X5.2718  Y6.8766  
G01 X5.2662  Y6.8803  
G01 X5.2600  Y6.8829  
G01 X5.2534  Y6.8842  
G01 X5.2466  Y6.8842  
G01 X5.2400  Y6.8829  
G01 X5.2338  Y6.8803  
G01 X5.2282  Y6.8766  
G01 X5.2234  Y6.8718  
G01 X5.2197  Y6.8662  
G01 X5.2171  Y6.8600  
G01 X5.2158  Y6.8534  
G01 X5.2158  Y6.8466  
G01 X5.2171  Y6.8400  
G01 X5.2197  Y6.8338  
G01 X5.2234  Y6.8282  
G01 X5.2282  Y6.8234  
G01 X5.2338  Y6.8197  
G01 X5.2400  Y6.8171  
G01 X5.2466  Y6.8158  
G01 X5.2534  Y6.8158  
G01 X5.2600  Y6.8171  
G01 X5.2662  Y6.8197  
G01 X5.2718  Y6.8234  
G01 X5.2766  Y6.8282  
G01 X5.2803  Y6.8338  
G01 X5.2829  Y6.8400  
G01 X5.2842  Y6.8466  
G00 Z0.1000  
G00 X5.1842  Y6.9466  
G01 Z-0.0070 F10    
G01 X5.1842  Y6.9534  F20    
G01 X5.1829  Y6.9600  
G01 X5.1803  Y6.9662  
G01 X5.1766  Y6.9718  
G01 X5.1718  Y6.9766  
G01 X5.1662  Y6.9803  
G01 X5.1600  Y6.9829  
G01 X5.1534  Y6.9842  
G01 X5.1466  Y6.9842  
G01 X5.1400  Y6.9829  
G01 X5.1338  Y6.9803  
G01 X5.1282  Y6.9766  
G01 X5.1234  Y6.9718  
G01 X5.1197  Y6.9662  
G01 X5.1171  Y6.9600  
G01 X5.1158  Y6.9534  
G01 X5.1158  Y6.9466  
G01 X5.1171  Y6.9400  
G01 X5.1197  Y6.9338  
G01 X5.1234  Y6.9282  
G01 X5.1282  Y6.9234  
G01 X5.1338  Y6.9197  
G01 X5.1400  Y6.9171  
G01 X5.1466  Y6.9158  
G01 X5.1534  Y6.9158  
G01 X5.1600  Y6.9171  
G01 X5.1662  Y6.9197  
G01 X5.1718  Y6.9234  
G01 X5.1766  Y6.9282  
G01 X5.1803  Y6.9338  
G01 X5.1829  Y6.9400  
G01 X5.1842  Y6.9466  
G00 Z0.1000  
G00 X5.1842  Y6.8466  
G01 Z-0.0070 F10    
G01 X5.1842  Y6.8534  F20    
G01 X5.1829  Y6.8600  
G01 X5.1803  Y6.8662  
G01 X5.1766  Y6.8718  
G01 X5.1718  Y6.8766  
G01 X5.1662  Y6.8803  
G01 X5.1600  Y6.8829  
G01 X5.1534  Y6.8842  
G01 X5.1466  Y6.8842  
G01 X5.1400  Y6.8829  
G01 X5.1338  Y6.8803  
G01 X5.1282  Y6.8766  
G01 X5.1234  Y6.8718  
G01 X5.1197  Y6.8662  
G01 X5.1171  Y6.8600  
G01 X5.1158  Y6.8534  
G01 X5.1158  Y6.8466  
G01 X5.1171  Y6.8400  
G01 X5.1197  Y6.8338  
G01 X5.1234  Y6.8282  
G01 X5.1282  Y6.8234  
G01 X5.1338  Y6.8197  
G01 X5.1400  Y6.8171  
G01 X5.1466  Y6.8158  
G01 X5.1534  Y6.8158  
G01 X5.1600  Y6.8171  
G01 X5.1662  Y6.8197  
G01 X5.1718  Y6.8234  
G01 X5.1766  Y6.8282  
G01 X5.1803  Y6.8338  
G01 X5.1829  Y6.8400  
G01 X5.1842  Y6.8466  
G00 Z0.1000  
G00 X5.0842  Y6.9466  
G01 Z-0.0070 F10    
G01 X5.0842  Y6.9534  F20    
G01 X5.0829  Y6.9600  
G01 X5.0803  Y6.9662  
G01 X5.0766  Y6.9718  
G01 X5.0718  Y6.9766  
G01 X5.0662  Y6.9803  
G01 X5.0600  Y6.9829  
G01 X5.0534  Y6.9842  
G01 X5.0466  Y6.9842  
G01 X5.0400  Y6.9829  
G01 X5.0338  Y6.9803  
G01 X5.0282  Y6.9766  
G01 X5.0234  Y6.9718  
G01 X5.0197  Y6.9662  
G01 X5.0171  Y6.9600  
G01 X5.0158  Y6.9534  
G01 X5.0158  Y6.9466  
G01 X5.0171  Y6.9400  
G01 X5.0197  Y6.9338  
G01 X5.0234  Y6.9282  
G01 X5.0282  Y6.9234  
G01 X5.0338  Y6.9197  
G01 X5.0400  Y6.9171  
G01 X5.0466  Y6.9158  
G01 X5.0534  Y6.9158  
G01 X5.0600  Y6.9171  
G01 X5.0662  Y6.9197  
G01 X5.0718  Y6.9234  
G01 X5.0766  Y6.9282  
G01 X5.0803  Y6.9338  
G01 X5.0829  Y6.9400  
G01 X5.0842  Y6.9466  
G00 Z0.1000  
G00 X5.0842  Y6.8466  
G01 Z-0.0070 F10    
G01 X5.0842  Y6.8534  F20    
G01 X5.0829  Y6.8600  
G01 X5.0803  Y6.8662  
G01 X5.0766  Y6.8718  
G01 X5.0718  Y6.8766  
G01 X5.0662  Y6.8803  
G01 X5.0600  Y6.8829  
G01 X5.0534  Y6.8842  
G01 X5.0466  Y6.8842  
G01 X5.0400  Y6.8829  
G01 X5.0338  Y6.8803  
G01 X5.0282  Y6.8766  
G01 X5.0234  Y6.8718  
G01 X5.0197  Y6.8662  
G01 X5.0171  Y6.8600  
G01 X5.0158  Y6.8534  
G01 X5.0158  Y6.8466  
G01 X5.0171  Y6.8400  
G01 X5.0197  Y6.8338  
G01 X5.0234  Y6.8282  
G01 X5.0282  Y6.8234  
G01 X5.0338  Y6.8197  
G01 X5.0400  Y6.8171  
G01 X5.0466  Y6.8158  
G01 X5.0534  Y6.8158  
G01 X5.0600  Y6.8171  
G01 X5.0662  Y6.8197  
G01 X5.0718  Y6.8234  
G01 X5.0766  Y6.8282  
G01 X5.0803  Y6.8338  
G01 X5.0829  Y6.8400  
G01 X5.0842  Y6.8466  
G00 Z0.1000  
G00 X4.9842  Y6.9466  
G01 Z-0.0070 F10    
G01 X4.9842  Y6.9534  F20    
G01 X4.9829  Y6.9600  
G01 X4.9803  Y6.9662  
G01 X4.9766  Y6.9718  
G01 X4.9718  Y6.9766  
G01 X4.9662  Y6.9803  
G01 X4.9600  Y6.9829  
G01 X4.9534  Y6.9842  
G01 X4.9466  Y6.9842  
G01 X4.9400  Y6.9829  
G01 X4.9338  Y6.9803  
G01 X4.9282  Y6.9766  
G01 X4.9234  Y6.9718  
G01 X4.9197  Y6.9662  
G01 X4.9171  Y6.9600  
G01 X4.9158  Y6.9534  
G01 X4.9158  Y6.9466  
G01 X4.9171  Y6.9400  
G01 X4.9197  Y6.9338  
G01 X4.9234  Y6.9282  
G01 X4.9282  Y6.9234  
G01 X4.9338  Y6.9197  
G01 X4.9400  Y6.9171  
G01 X4.9466  Y6.9158  
G01 X4.9534  Y6.9158  
G01 X4.9600  Y6.9171  
G01 X4.9662  Y6.9197  
G01 X4.9718  Y6.9234  
G01 X4.9766  Y6.9282  
G01 X4.9803  Y6.9338  
G01 X4.9829  Y6.9400  
G01 X4.9842  Y6.9466  
G00 Z0.1000  
G00 X4.9842  Y6.8466  
G01 Z-0.0070 F10    
G01 X4.9842  Y6.8534  F20    
G01 X4.9829  Y6.8600  
G01 X4.9803  Y6.8662  
G01 X4.9766  Y6.8718  
G01 X4.9718  Y6.8766  
G01 X4.9662  Y6.8803  
G01 X4.9600  Y6.8829  
G01 X4.9534  Y6.8842  
G01 X4.9466  Y6.8842  
G01 X4.9400  Y6.8829  
G01 X4.9338  Y6.8803  
G01 X4.9282  Y6.8766  
G01 X4.9234  Y6.8718  
G01 X4.9197  Y6.8662  
G01 X4.9171  Y6.8600  
G01 X4.9158  Y6.8534  
G01 X4.9158  Y6.8466  
G01 X4.9171  Y6.8400  
G01 X4.9197  Y6.8338  
G01 X4.9234  Y6.8282  
G01 X4.9282  Y6.8234  
G01 X4.9338  Y6.8197  
G01 X4.9400  Y6.8171  
G01 X4.9466  Y6.8158  
G01 X4.9534  Y6.8158  
G01 X4.9600  Y6.8171  
G01 X4.9662  Y6.8197  
G01 X4.9718  Y6.8234  
G01 X4.9766  Y6.8282  
G01 X4.9803  Y6.8338  
G01 X4.9829  Y6.8400  
G01 X4.9842  Y6.8466  
G00 Z0.1000  
G00 X4.8842  Y6.9466  
G01 Z-0.0070 F10    
G01 X4.8842  Y6.9534  F20    
G01 X4.8829  Y6.9600  
G01 X4.8803  Y6.9662  
G01 X4.8766  Y6.9718  
G01 X4.8718  Y6.9766  
G01 X4.8662  Y6.9803  
G01 X4.8600  Y6.9829  
G01 X4.8534  Y6.9842  
G01 X4.8466  Y6.9842  
G01 X4.8400  Y6.9829  
G01 X4.8338  Y6.9803  
G01 X4.8282  Y6.9766  
G01 X4.8234  Y6.9718  
G01 X4.8197  Y6.9662  
G01 X4.8171  Y6.9600  
G01 X4.8158  Y6.9534  
G01 X4.8158  Y6.9466  
G01 X4.8171  Y6.9400  
G01 X4.8197  Y6.9338  
G01 X4.8234  Y6.9282  
G01 X4.8282  Y6.9234  
G01 X4.8338  Y6.9197  
G01 X4.8400  Y6.9171  
G01 X4.8466  Y6.9158  
G01 X4.8534  Y6.9158  
G01 X4.8600  Y6.9171  
G01 X4.8662  Y6.9197  
G01 X4.8718  Y6.9234  
G01 X4.8766  Y6.9282  
G01 X4.8803  Y6.9338  
G01 X4.8829  Y6.9400  
G01 X4.8842  Y6.9466  
G00 Z0.1000  
G00 X4.8842  Y6.8466  
G01 Z-0.0070 F10    
G01 X4.8842  Y6.8534  F20    
G01 X4.8829  Y6.8600  
G01 X4.8803  Y6.8662  
G01 X4.8766  Y6.8718  
G01 X4.8718  Y6.8766  
G01 X4.8662  Y6.8803  
G01 X4.8600  Y6.8829  
G01 X4.8534  Y6.8842  
G01 X4.8466  Y6.8842  
G01 X4.8400  Y6.8829  
G01 X4.8338  Y6.8803  
G01 X4.8282  Y6.8766  
G01 X4.8234  Y6.8718  
G01 X4.8197  Y6.8662  
G01 X4.8171  Y6.8600  
G01 X4.8158  Y6.8534  
G01 X4.8158  Y6.8466  
G01 X4.8171  Y6.8400  
G01 X4.8197  Y6.8338  
G01 X4.8234  Y6.8282  
G01 X4.8282  Y6.8234  
G01 X4.8338  Y6.8197  
G01 X4.8400  Y6.8171  
G01 X4.8466  Y6.8158  
G01 X4.8534  Y6.8158  
G01 X4.8600  Y6.8171  
G01 X4.8662  Y6.8197  
G01 X4.8718  Y6.8234  
G01 X4.8766  Y6.8282  
G01 X4.8803  Y6.8338  
G01 X4.8829  Y6.8400  
G01 X4.8842  Y6.8466  
G00 Z0.1000  
G00 X3.8342  Y6.9358  
G01 Z-0.0070 F10    
G01 X3.8342  Y6.9642  F20    
G01 X3.8142  Y6.9842  
G01 X3.7858  Y6.9842  
G01 X3.7658  Y6.9642  
G01 X3.7658  Y6.9358  
G01 X3.7858  Y6.9158  
G01 X3.8142  Y6.9158  
G01 X3.8342  Y6.9358  
G00 Z0.1000  
G00 X3.8342  Y7.0358  
G01 Z-0.0070 F10    
G01 X3.8342  Y7.0642  F20    
G01 X3.8142  Y7.0842  
G01 X3.7858  Y7.0842  
G01 X3.7658  Y7.0642  
G01 X3.7658  Y7.0358  
G01 X3.7858  Y7.0158  
G01 X3.8142  Y7.0158  
G01 X3.8342  Y7.0358  
G00 Z0.1000  
G00 X3.9342  Y6.9358  
G01 Z-0.0070 F10    
G01 X3.9342  Y6.9642  F20    
G01 X3.9142  Y6.9842  
G01 X3.8858  Y6.9842  
G01 X3.8658  Y6.9642  
G01 X3.8658  Y6.9358  
G01 X3.8858  Y6.9158  
G01 X3.9142  Y6.9158  
G01 X3.9342  Y6.9358  
G00 Z0.1000  
G00 X3.9342  Y7.0358  
G01 Z-0.0070 F10    
G01 X3.9342  Y7.0642  F20    
G01 X3.9142  Y7.0842  
G01 X3.8858  Y7.0842  
G01 X3.8658  Y7.0642  
G01 X3.8658  Y7.0358  
G01 X3.8858  Y7.0158  
G01 X3.9142  Y7.0158  
G01 X3.9342  Y7.0358  
G00 Z0.1000  
G00 X4.0342  Y6.9358  
G01 Z-0.0070 F10    
G01 X4.0342  Y6.9642  F20    
G01 X4.0142  Y6.9842  
G01 X3.9858  Y6.9842  
G01 X3.9658  Y6.9642  
G01 X3.9658  Y6.9358  
G01 X3.9858  Y6.9158  
G01 X4.0142  Y6.9158  
G01 X4.0342  Y6.9358  
G00 Z0.1000  
G00 X4.0342  Y7.0358  
G01 Z-0.0070 F10    
G01 X4.0342  Y7.0642  F20    
G01 X4.0142  Y7.0842  
G01 X3.9858  Y7.0842  
G01 X3.9658  Y7.0642  
G01 X3.9658  Y7.0358  
G01 X3.9858  Y7.0158  
G01 X4.0142  Y7.0158  
G01 X4.0342  Y7.0358  
G00 Z0.1000  
G00 X4.1342  Y6.9358  
G01 Z-0.0070 F10    
G01 X4.1342  Y6.9642  F20    
G01 X4.1142  Y6.9842  
G01 X4.0858  Y6.9842  
G01 X4.0658  Y6.9642  
G01 X4.0658  Y6.9358  
G01 X4.0858  Y6.9158  
G01 X4.1142  Y6.9158  
G01 X4.1342  Y6.9358  
G00 Z0.1000  
G00 X4.1342  Y7.0358  
G01 Z-0.0070 F10    
G01 X4.1342  Y7.0642  F20    
G01 X4.1142  Y7.0842  
G01 X4.0858  Y7.0842  
G01 X4.0658  Y7.0642  
G01 X4.0658  Y7.0358  
G01 X4.0858  Y7.0158  
G01 X4.1142  Y7.0158  
G01 X4.1342  Y7.0358  
G00 Z0.1000  
G00 X4.2342  Y6.9358  
G01 Z-0.0070 F10    
G01 X4.2342  Y6.9642  F20    
G01 X4.2142  Y6.9842  
G01 X4.1858  Y6.9842  
G01 X4.1658  Y6.9642  
G01 X4.1658  Y6.9358  
G01 X4.1858  Y6.9158  
G01 X4.2142  Y6.9158  
G01 X4.2342  Y6.9358  
G00 Z0.1000  
G00 X4.2342  Y7.0358  
G01 Z-0.0070 F10    
G01 X4.2342  Y7.0642  F20    
G01 X4.2142  Y7.0842  
G01 X4.1858  Y7.0842  
G01 X4.1658  Y7.0642  
G01 X4.1658  Y7.0358  
G01 X4.1858  Y7.0158  
G01 X4.2142  Y7.0158  
G01 X4.2342  Y7.0358  
G00 Z0.1000  
G00 X4.3342  Y6.9358  
G01 Z-0.0070 F10    
G01 X4.3342  Y6.9642  F20    
G01 X4.3142  Y6.9842  
G01 X4.2858  Y6.9842  
G01 X4.2658  Y6.9642  
G01 X4.2658  Y6.9358  
G01 X4.2858  Y6.9158  
G01 X4.3142  Y6.9158  
G01 X4.3342  Y6.9358  
G00 Z0.1000  
G00 X4.3342  Y7.0358  
G01 Z-0.0070 F10    
G01 X4.3342  Y7.0642  F20    
G01 X4.3142  Y7.0842  
G01 X4.2858  Y7.0842  
G01 X4.2658  Y7.0642  
G01 X4.2658  Y7.0358  
G01 X4.2858  Y7.0158  
G01 X4.3142  Y7.0158  
G01 X4.3342  Y7.0358  
G00 Z0.1000  
G00 X4.4342  Y6.9358  
G01 Z-0.0070 F10    
G01 X4.4342  Y6.9642  F20    
G01 X4.4142  Y6.9842  
G01 X4.3858  Y6.9842  
G01 X4.3658  Y6.9642  
G01 X4.3658  Y6.9358  
G01 X4.3858  Y6.9158  
G01 X4.4142  Y6.9158  
G01 X4.4342  Y6.9358  
G00 Z0.1000  
G00 X4.4342  Y7.0358  
G01 Z-0.0070 F10    
G01 X4.4342  Y7.0642  F20    
G01 X4.4142  Y7.0842  
G01 X4.3858  Y7.0842  
G01 X4.3658  Y7.0642  
G01 X4.3658  Y7.0358  
G01 X4.3858  Y7.0158  
G01 X4.4142  Y7.0158  
G01 X4.4342  Y7.0358  
G00 Z0.1000  
G00 X3.3805  Y5.1374  
G01 Z-0.0070 F10    
G01 X3.3805  Y5.1626  F20    
G01 X3.3626  Y5.1805  
G01 X3.3374  Y5.1805  
G01 X3.3195  Y5.1626  
G01 X3.3195  Y5.1374  
G01 X3.3374  Y5.1195  
G01 X3.3626  Y5.1195  
G01 X3.3805  Y5.1374  
G00 Z0.1000  
G00 X3.7805  Y5.1374  
G01 Z-0.0070 F10    
G01 X3.7805  Y5.1626  F20    
G01 X3.7626  Y5.1805  
G01 X3.7374  Y5.1805  
G01 X3.7195  Y5.1626  
G01 X3.7195  Y5.1374  
G01 X3.7374  Y5.1195  
G01 X3.7626  Y5.1195  
G01 X3.7805  Y5.1374  
G00 Z0.1000  
G00 X3.7970  Y4.8805  
G01 Z-0.0070 F10    
G01 X3.7970  Y4.9195  F20    
G01 X3.7695  Y4.9470  
G01 X3.7305  Y4.9470  
G01 X3.7030  Y4.9195  
G01 X3.7030  Y4.8805  
G01 X3.7305  Y4.8530  
G01 X3.7695  Y4.8530  
G01 X3.7970  Y4.8805  
G00 Z0.1000  
G00 X3.7970  Y4.3805  
G01 Z-0.0070 F10    
G01 X3.7970  Y4.3905  F20    
G01 X3.9730  Y4.3905  
G01 X3.9763  Y4.3856  
G01 X3.9806  Y4.3813  
G01 X3.9856  Y4.3780  
G01 X3.9911  Y4.3757  
G01 X3.9970  Y4.3745  
G01 X4.0030  Y4.3745  
G01 X4.0089  Y4.3757  
G01 X4.0144  Y4.3780  
G01 X4.0194  Y4.3813  
G01 X4.0237  Y4.3856  
G01 X4.0270  Y4.3906  
G01 X4.0293  Y4.3961  
G01 X4.0305  Y4.4020  
G01 X4.0305  Y4.4080  
G01 X4.0293  Y4.4139  
G01 X4.0270  Y4.4194  
G01 X4.0237  Y4.4244  
G01 X4.0194  Y4.4287  
G01 X4.0144  Y4.4320  
G01 X4.0089  Y4.4343  
G01 X4.0030  Y4.4355  
G01 X3.9970  Y4.4355  
G01 X3.9911  Y4.4343  
G01 X3.9856  Y4.4320  
G01 X3.9806  Y4.4287  
G01 X3.9763  Y4.4244  
G01 X3.9730  Y4.4194  
G01 X3.9707  Y4.4139  
G01 X3.9698  Y4.4095  
G01 X3.7970  Y4.4095  
G01 X3.7970  Y4.4195  
G01 X3.7695  Y4.4470  
G01 X3.7305  Y4.4470  
G01 X3.7030  Y4.4195  
G01 X3.7030  Y4.3805  
G01 X3.7305  Y4.3530  
G01 X3.7695  Y4.3530  
G01 X3.7970  Y4.3805  
G00 Z0.1000  
G00 X3.7970  Y4.6305  
G01 Z-0.0070 F10    
G01 X3.7970  Y4.6695  F20    
G01 X3.7695  Y4.6970  
G01 X3.7305  Y4.6970  
G01 X3.7030  Y4.6695  
G01 X3.7030  Y4.6305  
G01 X3.7305  Y4.6030  
G01 X3.7695  Y4.6030  
G01 X3.7970  Y4.6305  
G00 Z0.1000  
G00 X4.0305  Y4.5920  
G01 Z-0.0070 F10    
G01 X4.0305  Y4.5980  F20    
G01 X4.0293  Y4.6039  
G01 X4.0270  Y4.6094  
G01 X4.0237  Y4.6144  
G01 X4.0194  Y4.6187  
G01 X4.0144  Y4.6220  
G01 X4.0089  Y4.6243  
G01 X4.0030  Y4.6255  
G01 X3.9970  Y4.6255  
G01 X3.9911  Y4.6243  
G01 X3.9856  Y4.6220  
G01 X3.9806  Y4.6187  
G01 X3.9763  Y4.6144  
G01 X3.9730  Y4.6094  
G01 X3.9707  Y4.6039  
G01 X3.9695  Y4.5980  
G01 X3.9695  Y4.5920  
G01 X3.9707  Y4.5861  
G01 X3.9730  Y4.5806  
G01 X3.9763  Y4.5756  
G01 X3.9806  Y4.5713  
G01 X3.9856  Y4.5680  
G01 X3.9911  Y4.5657  
G01 X3.9970  Y4.5645  
G01 X4.0030  Y4.5645  
G01 X4.0089  Y4.5657  
G01 X4.0144  Y4.5680  
G01 X4.0194  Y4.5713  
G01 X4.0237  Y4.5756  
G01 X4.0270  Y4.5806  
G01 X4.0293  Y4.5861  
G01 X4.0305  Y4.5920  
G00 Z0.1000  
G00 X3.0875  Y6.9463  
G01 Z-0.0070 F10    
G01 X3.0875  Y6.9537  F20    
G01 X3.0861  Y6.9609  
G01 X3.0832  Y6.9678  
G01 X3.0791  Y6.9739  
G01 X3.0739  Y6.9791  
G01 X3.0678  Y6.9832  
G01 X3.0609  Y6.9861  
G01 X3.0537  Y6.9875  
G01 X3.0463  Y6.9875  
G01 X3.0391  Y6.9861  
G01 X3.0322  Y6.9832  
G01 X3.0261  Y6.9791  
G01 X3.0209  Y6.9739  
G01 X3.0168  Y6.9678  
G01 X3.0139  Y6.9609  
G01 X3.0137  Y6.9595  
G01 X2.6915  Y6.9595  
G01 X2.6915  Y6.9924  
G01 X2.6904  Y6.9992  
G01 X2.6883  Y7.0057  
G01 X2.6852  Y7.0118  
G01 X2.6812  Y7.0173  
G01 X2.6763  Y7.0222  
G01 X2.6708  Y7.0262  
G01 X2.6647  Y7.0293  
G01 X2.6582  Y7.0314  
G01 X2.6514  Y7.0325  
G01 X2.6446  Y7.0325  
G01 X2.6378  Y7.0314  
G01 X2.6313  Y7.0293  
G01 X2.6252  Y7.0262  
G01 X2.6197  Y7.0222  
G01 X2.6148  Y7.0173  
G01 X2.6108  Y7.0118  
G01 X2.6077  Y7.0057  
G01 X2.6056  Y6.9992  
G01 X2.6045  Y6.9924  
G01 X2.6045  Y6.9076  
G01 X2.6056  Y6.9008  
G01 X2.6077  Y6.8943  
G01 X2.6108  Y6.8882  
G01 X2.6148  Y6.8827  
G01 X2.6197  Y6.8778  
G01 X2.6252  Y6.8738  
G01 X2.6313  Y6.8707  
G01 X2.6378  Y6.8686  
G01 X2.6446  Y6.8675  
G01 X2.6514  Y6.8675  
G01 X2.6582  Y6.8686  
G01 X2.6647  Y6.8707  
G01 X2.6708  Y6.8738  
G01 X2.6763  Y6.8778  
G01 X2.6812  Y6.8827  
G01 X2.6852  Y6.8882  
G01 X2.6883  Y6.8943  
G01 X2.6904  Y6.9008  
G01 X2.6915  Y6.9076  
G01 X2.6915  Y6.9405  
G01 X3.0137  Y6.9405  
G01 X3.0139  Y6.9391  
G01 X3.0168  Y6.9322  
G01 X3.0209  Y6.9261  
G01 X3.0261  Y6.9209  
G01 X3.0322  Y6.9168  
G01 X3.0391  Y6.9139  
G01 X3.0463  Y6.9125  
G01 X3.0537  Y6.9125  
G01 X3.0609  Y6.9139  
G01 X3.0678  Y6.9168  
G01 X3.0739  Y6.9209  
G01 X3.0791  Y6.9261  
G01 X3.0832  Y6.9322  
G01 X3.0861  Y6.9391  
G01 X3.0875  Y6.9463  
G00 Z0.1000  
G00 X2.9470  Y6.6805  
G01 Z-0.0070 F10    
G01 X2.9470  Y6.7195  F20    
G01 X2.9195  Y6.7470  
G01 X2.8805  Y6.7470  
G01 X2.8530  Y6.7195  
G01 X2.8530  Y6.6805  
G01 X2.8805  Y6.6530  
G01 X2.8905  Y6.6530  
G01 X2.8905  Y5.8481  
G01 X2.8919  Y5.8446  
G01 X2.8946  Y5.8419  
G01 X3.4366  Y5.3000  
G01 X3.3946  Y5.2581  
G01 X3.3919  Y5.2554  
G01 X3.3905  Y5.2519  
G01 X3.3905  Y4.9539  
G01 X3.3765  Y4.9400  
G01 X3.3695  Y4.9470  
G01 X3.3305  Y4.9470  
G01 X3.3030  Y4.9195  
G01 X3.3030  Y4.8805  
G01 X3.3305  Y4.8530  
G01 X3.3405  Y4.8530  
G01 X3.3405  Y4.6970  
G01 X3.3305  Y4.6970  
G01 X3.3030  Y4.6695  
G01 X3.3030  Y4.6305  
G01 X3.3305  Y4.6030  
G01 X3.3405  Y4.6030  
G01 X3.3405  Y4.4470  
G01 X3.3305  Y4.4470  
G01 X3.3030  Y4.4195  
G01 X3.3030  Y4.3805  
G01 X3.3305  Y4.3530  
G01 X3.3695  Y4.3530  
G01 X3.3970  Y4.3805  
G01 X3.3970  Y4.4195  
G01 X3.3695  Y4.4470  
G01 X3.3595  Y4.4470  
G01 X3.3595  Y4.6030  
G01 X3.3695  Y4.6030  
G01 X3.3970  Y4.6305  
G01 X3.3970  Y4.6695  
G01 X3.3695  Y4.6970  
G01 X3.3595  Y4.6970  
G01 X3.3595  Y4.8530  
G01 X3.3695  Y4.8530  
G01 X3.3970  Y4.8805  
G01 X3.3970  Y4.9195  
G01 X3.3900  Y4.9265  
G01 X3.4081  Y4.9446  
G01 X3.4095  Y4.9481  
G01 X3.4095  Y5.2461  
G01 X3.4554  Y5.2919  
G01 X3.5156  Y5.3521  
G01 X3.5168  Y5.3492  
G01 X3.5209  Y5.3431  
G01 X3.5261  Y5.3379  
G01 X3.5322  Y5.3338  
G01 X3.5391  Y5.3309  
G01 X3.5463  Y5.3295  
G01 X3.5537  Y5.3295  
G01 X3.5609  Y5.3309  
G01 X3.5678  Y5.3338  
G01 X3.5739  Y5.3379  
G01 X3.5791  Y5.3431  
G01 X3.5832  Y5.3492  
G01 X3.5861  Y5.3561  
G01 X3.5875  Y5.3633  
G01 X3.5875  Y5.4367  
G01 X3.5861  Y5.4439  
G01 X3.5832  Y5.4508  
G01 X3.5791  Y5.4569  
G01 X3.5739  Y5.4621  
G01 X3.5678  Y5.4662  
G01 X3.5609  Y5.4691  
G01 X3.5537  Y5.4705  
G01 X3.5463  Y5.4705  
G01 X3.5391  Y5.4691  
G01 X3.5322  Y5.4662  
G01 X3.5261  Y5.4621  
G01 X3.5209  Y5.4569  
G01 X3.5168  Y5.4508  
G01 X3.5139  Y5.4439  
G01 X3.5125  Y5.4367  
G01 X3.5125  Y5.3759  
G01 X3.4500  Y5.3134  
G01 X2.9095  Y5.8539  
G01 X2.9095  Y6.6530  
G01 X2.9195  Y6.6530  
G01 X2.9470  Y6.6805  
G00 Z0.1000  
G00 X3.6125  Y5.4367  
G01 Z-0.0070 F10    
G01 X3.6125  Y5.3633  F20    
G01 X3.6139  Y5.3561  
G01 X3.6168  Y5.3492  
G01 X3.6209  Y5.3431  
G01 X3.6261  Y5.3379  
G01 X3.6322  Y5.3338  
G01 X3.6391  Y5.3309  
G01 X3.6463  Y5.3295  
G01 X3.6537  Y5.3295  
G01 X3.6609  Y5.3309  
G01 X3.6678  Y5.3338  
G01 X3.6739  Y5.3379  
G01 X3.6791  Y5.3431  
G01 X3.6832  Y5.3492  
G01 X3.6861  Y5.3561  
G01 X3.6875  Y5.3633  
G01 X3.6875  Y5.4367  
G01 X3.6861  Y5.4439  
G01 X3.6832  Y5.4508  
G01 X3.6791  Y5.4569  
G01 X3.6739  Y5.4621  
G01 X3.6678  Y5.4662  
G01 X3.6609  Y5.4691  
G01 X3.6537  Y5.4705  
G01 X3.6463  Y5.4705  
G01 X3.6391  Y5.4691  
G01 X3.6322  Y5.4662  
G01 X3.6261  Y5.4621  
G01 X3.6209  Y5.4569  
G01 X3.6168  Y5.4508  
G01 X3.6139  Y5.4439  
G01 X3.6125  Y5.4367  
G00 Z0.1000  
G00 X3.4125  Y5.3633  
G01 Z-0.0070 F10    
G01 X3.4139  Y5.3561  F20    
G01 X3.4168  Y5.3492  
G01 X3.4209  Y5.3431  
G01 X3.4261  Y5.3379  
G01 X3.4322  Y5.3338  
G01 X3.4391  Y5.3309  
G01 X3.4463  Y5.3295  
G01 X3.4537  Y5.3295  
G01 X3.4609  Y5.3309  
G01 X3.4678  Y5.3338  
G01 X3.4739  Y5.3379  
G01 X3.4791  Y5.3431  
G01 X3.4832  Y5.3492  
G01 X3.4861  Y5.3561  
G01 X3.4875  Y5.3633  
G01 X3.4875  Y5.4367  
G01 X3.4861  Y5.4439  
G01 X3.4832  Y5.4508  
G01 X3.4791  Y5.4569  
G01 X3.4739  Y5.4621  
G01 X3.4678  Y5.4662  
G01 X3.4609  Y5.4691  
G01 X3.4537  Y5.4705  
G01 X3.4463  Y5.4705  
G01 X3.4391  Y5.4691  
G01 X3.4322  Y5.4662  
G01 X3.4261  Y5.4621  
G01 X3.4209  Y5.4569  
G01 X3.4168  Y5.4508  
G01 X3.4156  Y5.4479  
G01 X3.3095  Y5.5539  
G01 X3.3095  Y6.6530  
G01 X3.3195  Y6.6530  
G01 X3.3470  Y6.6805  
G01 X3.3470  Y6.7195  
G01 X3.3195  Y6.7470  
G01 X3.3095  Y6.7470  
G01 X3.3095  Y6.7961  
G01 X3.4310  Y6.9176  
G01 X3.4322  Y6.9168  
G01 X3.4391  Y6.9139  
G01 X3.4463  Y6.9125  
G01 X3.4537  Y6.9125  
G01 X3.4609  Y6.9139  
G01 X3.4678  Y6.9168  
G01 X3.4739  Y6.9209  
G01 X3.4791  Y6.9261  
G01 X3.4832  Y6.9322  
G01 X3.4861  Y6.9391  
G01 X3.4875  Y6.9463  
G01 X3.4875  Y6.9537  
G01 X3.4861  Y6.9609  
G01 X3.4832  Y6.9678  
G01 X3.4791  Y6.9739  
G01 X3.4739  Y6.9791  
G01 X3.4678  Y6.9832  
G01 X3.4609  Y6.9861  
G01 X3.4537  Y6.9875  
G01 X3.4463  Y6.9875  
G01 X3.4391  Y6.9861  
G01 X3.4322  Y6.9832  
G01 X3.4261  Y6.9791  
G01 X3.4209  Y6.9739  
G01 X3.4168  Y6.9678  
G01 X3.4139  Y6.9609  
G01 X3.4125  Y6.9537  
G01 X3.4125  Y6.9463  
G01 X3.4139  Y6.9391  
G01 X3.4168  Y6.9322  
G01 X3.4176  Y6.9310  
G01 X3.2946  Y6.8081  
G01 X3.2919  Y6.8054  
G01 X3.2905  Y6.8019  
G01 X3.2905  Y6.7470  
G01 X3.2805  Y6.7470  
G01 X3.2530  Y6.7195  
G01 X3.2530  Y6.6805  
G01 X3.2805  Y6.6530  
G01 X3.2905  Y6.6530  
G01 X3.2905  Y5.5481  
G01 X3.2919  Y5.5446  
G01 X3.2946  Y5.5419  
G01 X3.4125  Y5.4241  
G01 X3.4125  Y5.3633  
G00 Z0.1000  
G00 X4.5726  Y0.5915  
G01 Z-0.0070 F10    
G01 X4.6574  Y0.5915  F20    
G01 X4.6642  Y0.5926  
G01 X4.6707  Y0.5947  
G01 X4.6768  Y0.5978  
G01 X4.6823  Y0.6018  
G01 X4.6872  Y0.6067  
G01 X4.6912  Y0.6122  
G01 X4.6943  Y0.6183  
G01 X4.6964  Y0.6248  
G01 X4.6975  Y0.6316  
G01 X4.6975  Y0.6384  
G01 X4.6964  Y0.6452  
G01 X4.6943  Y0.6517  
G01 X4.6912  Y0.6578  
G01 X4.6872  Y0.6633  
G01 X4.6823  Y0.6682  
G01 X4.6768  Y0.6722  
G01 X4.6707  Y0.6753  
G01 X4.6642  Y0.6774  
G01 X4.6574  Y0.6785  
G01 X4.5726  Y0.6785  
G01 X4.5658  Y0.6774  
G01 X4.5593  Y0.6753  
G01 X4.5532  Y0.6722  
G01 X4.5477  Y0.6682  
G01 X4.5428  Y0.6633  
G01 X4.5388  Y0.6578  
G01 X4.5357  Y0.6517  
G01 X4.5336  Y0.6452  
G01 X4.5325  Y0.6384  
G01 X4.5325  Y0.6316  
G01 X4.5336  Y0.6248  
G01 X4.5357  Y0.6183  
G01 X4.5388  Y0.6122  
G01 X4.5428  Y0.6067  
G01 X4.5477  Y0.6018  
G01 X4.5532  Y0.5978  
G01 X4.5593  Y0.5947  
G01 X4.5658  Y0.5926  
G01 X4.5726  Y0.5915  
G00 Z0.1000  
G00 X4.5726  Y0.1215  
G01 Z-0.0070 F10    
G01 X4.6574  Y0.1215  F20    
G01 X4.6642  Y0.1226  
G01 X4.6707  Y0.1247  
G01 X4.6768  Y0.1278  
G01 X4.6823  Y0.1318  
G01 X4.6872  Y0.1367  
G01 X4.6912  Y0.1422  
G01 X4.6943  Y0.1483  
G01 X4.6964  Y0.1548  
G01 X4.6975  Y0.1616  
G01 X4.6975  Y0.1684  
G01 X4.6964  Y0.1752  
G01 X4.6943  Y0.1817  
G01 X4.6912  Y0.1878  
G01 X4.6872  Y0.1933  
G01 X4.6823  Y0.1982  
G01 X4.6768  Y0.2022  
G01 X4.6707  Y0.2053  
G01 X4.6642  Y0.2074  
G01 X4.6574  Y0.2085  
G01 X4.5726  Y0.2085  
G01 X4.5658  Y0.2074  
G01 X4.5593  Y0.2053  
G01 X4.5532  Y0.2022  
G01 X4.5477  Y0.1982  
G01 X4.5428  Y0.1933  
G01 X4.5388  Y0.1878  
G01 X4.5357  Y0.1817  
G01 X4.5336  Y0.1752  
G01 X4.5325  Y0.1684  
G01 X4.5325  Y0.1616  
G01 X4.5336  Y0.1548  
G01 X4.5357  Y0.1483  
G01 X4.5388  Y0.1422  
G01 X4.5428  Y0.1367  
G01 X4.5477  Y0.1318  
G01 X4.5532  Y0.1278  
G01 X4.5593  Y0.1247  
G01 X4.5658  Y0.1226  
G01 X4.5726  Y0.1215  
G00 Z0.1000  
G00 X5.0526  Y0.1215  
G01 Z-0.0070 F10    
G01 X5.1374  Y0.1215  F20    
G01 X5.1442  Y0.1226  
G01 X5.1507  Y0.1247  
G01 X5.1568  Y0.1278  
G01 X5.1623  Y0.1318  
G01 X5.1672  Y0.1367  
G01 X5.1712  Y0.1422  
G01 X5.1743  Y0.1483  
G01 X5.1764  Y0.1548  
G01 X5.1775  Y0.1616  
G01 X5.1775  Y0.1684  
G01 X5.1764  Y0.1752  
G01 X5.1743  Y0.1817  
G01 X5.1712  Y0.1878  
G01 X5.1672  Y0.1933  
G01 X5.1623  Y0.1982  
G01 X5.1568  Y0.2022  
G01 X5.1507  Y0.2053  
G01 X5.1442  Y0.2074  
G01 X5.1374  Y0.2085  
G01 X5.0526  Y0.2085  
G01 X5.0458  Y0.2074  
G01 X5.0393  Y0.2053  
G01 X5.0332  Y0.2022  
G01 X5.0277  Y0.1982  
G01 X5.0228  Y0.1933  
G01 X5.0188  Y0.1878  
G01 X5.0157  Y0.1817  
G01 X5.0136  Y0.1752  
G01 X5.0125  Y0.1684  
G01 X5.0125  Y0.1616  
G01 X5.0136  Y0.1548  
G01 X5.0157  Y0.1483  
G01 X5.0188  Y0.1422  
G01 X5.0228  Y0.1367  
G01 X5.0277  Y0.1318  
G01 X5.0332  Y0.1278  
G01 X5.0393  Y0.1247  
G01 X5.0458  Y0.1226  
G01 X5.0526  Y0.1215  
G00 Z0.1000  
G00 X5.0526  Y0.5915  
G01 Z-0.0070 F10    
G01 X5.1374  Y0.5915  F20    
G01 X5.1442  Y0.5926  
G01 X5.1507  Y0.5947  
G01 X5.1568  Y0.5978  
G01 X5.1623  Y0.6018  
G01 X5.1672  Y0.6067  
G01 X5.1712  Y0.6122  
G01 X5.1743  Y0.6183  
G01 X5.1764  Y0.6248  
G01 X5.1775  Y0.6316  
G01 X5.1775  Y0.6384  
G01 X5.1764  Y0.6452  
G01 X5.1743  Y0.6517  
G01 X5.1712  Y0.6578  
G01 X5.1672  Y0.6633  
G01 X5.1623  Y0.6682  
G01 X5.1568  Y0.6722  
G01 X5.1507  Y0.6753  
G01 X5.1442  Y0.6774  
G01 X5.1374  Y0.6785  
G01 X5.0526  Y0.6785  
G01 X5.0458  Y0.6774  
G01 X5.0393  Y0.6753  
G01 X5.0332  Y0.6722  
G01 X5.0277  Y0.6682  
G01 X5.0228  Y0.6633  
G01 X5.0188  Y0.6578  
G01 X5.0157  Y0.6517  
G01 X5.0136  Y0.6452  
G01 X5.0125  Y0.6384  
G01 X5.0125  Y0.6316  
G01 X5.0136  Y0.6248  
G01 X5.0157  Y0.6183  
G01 X5.0188  Y0.6122  
G01 X5.0228  Y0.6067  
G01 X5.0277  Y0.6018  
G01 X5.0332  Y0.5978  
G01 X5.0393  Y0.5947  
G01 X5.0458  Y0.5926  
G01 X5.0526  Y0.5915  
G00 Z0.1000  
G00 X5.1326  Y0.3565  
G01 Z-0.0070 F10    
G01 X5.2174  Y0.3565  F20    
G01 X5.2242  Y0.3576  
G01 X5.2307  Y0.3597  
G01 X5.2368  Y0.3628  
G01 X5.2423  Y0.3668  
G01 X5.2472  Y0.3717  
G01 X5.2512  Y0.3772  
G01 X5.2543  Y0.3833  
G01 X5.2564  Y0.3898  
G01 X5.2575  Y0.3966  
G01 X5.2575  Y0.4034  
G01 X5.2564  Y0.4102  
G01 X5.2543  Y0.4167  
G01 X5.2512  Y0.4228  
G01 X5.2472  Y0.4283  
G01 X5.2423  Y0.4332  
G01 X5.2368  Y0.4372  
G01 X5.2307  Y0.4403  
G01 X5.2242  Y0.4424  
G01 X5.2174  Y0.4435  
G01 X5.1326  Y0.4435  
G01 X5.1258  Y0.4424  
G01 X5.1193  Y0.4403  
G01 X5.1132  Y0.4372  
G01 X5.1077  Y0.4332  
G01 X5.1028  Y0.4283  
G01 X5.0988  Y0.4228  
G01 X5.0957  Y0.4167  
G01 X5.0936  Y0.4102  
G01 X5.0925  Y0.4034  
G01 X5.0925  Y0.3966  
G01 X5.0936  Y0.3898  
G01 X5.0957  Y0.3833  
G01 X5.0988  Y0.3772  
G01 X5.1028  Y0.3717  
G01 X5.1077  Y0.3668  
G01 X5.1132  Y0.3628  
G01 X5.1193  Y0.3597  
G01 X5.1258  Y0.3576  
G01 X5.1326  Y0.3565  
G00 Z0.1000  
G00 X1.2274  Y0.6085  
G01 Z-0.0070 F10    
G01 X1.1549  Y0.6085  F20    
G01 X1.0595  Y0.7039  
G01 X1.0595  Y1.1961  
G01 X1.1360  Y1.2725  
G01 X1.1426  Y1.2715  
G01 X1.2274  Y1.2715  
G01 X1.2342  Y1.2726  
G01 X1.2407  Y1.2747  
G01 X1.2468  Y1.2778  
G01 X1.2523  Y1.2818  
G01 X1.2572  Y1.2867  
G01 X1.2612  Y1.2922  
G01 X1.2643  Y1.2983  
G01 X1.2664  Y1.3048  
G01 X1.2675  Y1.3116  
G01 X1.2675  Y1.3184  
G01 X1.2664  Y1.3252  
G01 X1.2643  Y1.3317  
G01 X1.2612  Y1.3378  
G01 X1.2572  Y1.3433  
G01 X1.2523  Y1.3482  
G01 X1.2468  Y1.3522  
G01 X1.2407  Y1.3553  
G01 X1.2342  Y1.3574  
G01 X1.2274  Y1.3585  
G01 X1.2219  Y1.3585  
G01 X1.3054  Y1.4419  
G01 X1.3081  Y1.4446  
G01 X1.3095  Y1.4481  
G01 X1.3095  Y2.7019  
G01 X1.3081  Y2.7054  
G01 X1.2392  Y2.7742  
G01 X1.2407  Y2.7747  
G01 X1.2468  Y2.7778  
G01 X1.2523  Y2.7818  
G01 X1.2572  Y2.7867  
G01 X1.2612  Y2.7922  
G01 X1.2643  Y2.7983  
G01 X1.2664  Y2.8048  
G01 X1.2675  Y2.8116  
G01 X1.2675  Y2.8184  
G01 X1.2664  Y2.8252  
G01 X1.2643  Y2.8317  
G01 X1.2612  Y2.8378  
G01 X1.2572  Y2.8433  
G01 X1.2523  Y2.8482  
G01 X1.2468  Y2.8522  
G01 X1.2407  Y2.8553  
G01 X1.2342  Y2.8574  
G01 X1.2274  Y2.8585  
G01 X1.1426  Y2.8585  
G01 X1.1358  Y2.8574  
G01 X1.1293  Y2.8553  
G01 X1.1232  Y2.8522  
G01 X1.1177  Y2.8482  
G01 X1.1128  Y2.8433  
G01 X1.1088  Y2.8378  
G01 X1.1057  Y2.8317  
G01 X1.1036  Y2.8252  
G01 X1.1025  Y2.8184  
G01 X1.1025  Y2.8116  
G01 X1.1036  Y2.8048  
G01 X1.1057  Y2.7983  
G01 X1.1088  Y2.7922  
G01 X1.1128  Y2.7867  
G01 X1.1177  Y2.7818  
G01 X1.1232  Y2.7778  
G01 X1.1293  Y2.7747  
G01 X1.1358  Y2.7726  
G01 X1.1426  Y2.7715  
G01 X1.2151  Y2.7715  
G01 X1.2905  Y2.6961  
G01 X1.2905  Y2.2039  
G01 X1.1951  Y2.1085  
G01 X1.1426  Y2.1085  
G01 X1.1358  Y2.1074  
G01 X1.1293  Y2.1053  
G01 X1.1232  Y2.1022  
G01 X1.1177  Y2.0982  
G01 X1.1128  Y2.0933  
G01 X1.1088  Y2.0878  
G01 X1.1057  Y2.0817  
G01 X1.1036  Y2.0752  
G01 X1.1025  Y2.0684  
G01 X1.1025  Y2.0616  
G01 X1.1036  Y2.0548  
G01 X1.1057  Y2.0483  
G01 X1.1088  Y2.0422  
G01 X1.1128  Y2.0367  
G01 X1.1177  Y2.0318  
G01 X1.1232  Y2.0278  
G01 X1.1293  Y2.0247  
G01 X1.1358  Y2.0226  
G01 X1.1426  Y2.0215  
G01 X1.2274  Y2.0215  
G01 X1.2342  Y2.0226  
G01 X1.2407  Y2.0247  
G01 X1.2468  Y2.0278  
G01 X1.2523  Y2.0318  
G01 X1.2572  Y2.0367  
G01 X1.2612  Y2.0422  
G01 X1.2643  Y2.0483  
G01 X1.2664  Y2.0548  
G01 X1.2675  Y2.0616  
G01 X1.2675  Y2.0684  
G01 X1.2664  Y2.0752  
G01 X1.2643  Y2.0817  
G01 X1.2612  Y2.0878  
G01 X1.2572  Y2.0933  
G01 X1.2523  Y2.0982  
G01 X1.2468  Y2.1022  
G01 X1.2407  Y2.1053  
G01 X1.2342  Y2.1074  
G01 X1.2274  Y2.1085  
G01 X1.2219  Y2.1085  
G01 X1.2905  Y2.1771  
G01 X1.2905  Y1.4539  
G01 X1.1951  Y1.3585  
G01 X1.1426  Y1.3585  
G01 X1.1358  Y1.3574  
G01 X1.1293  Y1.3553  
G01 X1.1232  Y1.3522  
G01 X1.1177  Y1.3482  
G01 X1.1128  Y1.3433  
G01 X1.1088  Y1.3378  
G01 X1.1057  Y1.3317  
G01 X1.1036  Y1.3252  
G01 X1.1025  Y1.3184  
G01 X1.1025  Y1.3116  
G01 X1.1036  Y1.3048  
G01 X1.1057  Y1.2983  
G01 X1.1088  Y1.2922  
G01 X1.1128  Y1.2867  
G01 X1.1177  Y1.2818  
G01 X1.1181  Y1.2815  
G01 X1.0419  Y1.2054  
G01 X1.0405  Y1.2019  
G01 X1.0405  Y0.6981  
G01 X1.0419  Y0.6946  
G01 X1.0446  Y0.6919  
G01 X1.1308  Y0.6058  
G01 X1.1293  Y0.6053  
G01 X1.1232  Y0.6022  
G01 X1.1177  Y0.5982  
G01 X1.1128  Y0.5933  
G01 X1.1088  Y0.5878  
G01 X1.1057  Y0.5817  
G01 X1.1036  Y0.5752  
G01 X1.1025  Y0.5684  
G01 X1.1025  Y0.5616  
G01 X1.1036  Y0.5548  
G01 X1.1057  Y0.5483  
G01 X1.1088  Y0.5422  
G01 X1.1128  Y0.5367  
G01 X1.1177  Y0.5318  
G01 X1.1232  Y0.5278  
G01 X1.1293  Y0.5247  
G01 X1.1358  Y0.5226  
G01 X1.1426  Y0.5215  
G01 X1.2274  Y0.5215  
G01 X1.2342  Y0.5226  
G01 X1.2407  Y0.5247  
G01 X1.2468  Y0.5278  
G01 X1.2523  Y0.5318  
G01 X1.2572  Y0.5367  
G01 X1.2612  Y0.5422  
G01 X1.2643  Y0.5483  
G01 X1.2664  Y0.5548  
G01 X1.2675  Y0.5616  
G01 X1.2675  Y0.5684  
G01 X1.2664  Y0.5752  
G01 X1.2643  Y0.5817  
G01 X1.2612  Y0.5878  
G01 X1.2572  Y0.5933  
G01 X1.2523  Y0.5982  
G01 X1.2468  Y0.6022  
G01 X1.2407  Y0.6053  
G01 X1.2342  Y0.6074  
G01 X1.2274  Y0.6085  
G00 Z0.1000  
G00 X1.2274  Y1.0785  
G01 Z-0.0070 F10    
G01 X1.1426  Y1.0785  F20    
G01 X1.1358  Y1.0774  
G01 X1.1293  Y1.0753  
G01 X1.1232  Y1.0722  
G01 X1.1177  Y1.0682  
G01 X1.1128  Y1.0633  
G01 X1.1088  Y1.0578  
G01 X1.1057  Y1.0517  
G01 X1.1036  Y1.0452  
G01 X1.1025  Y1.0384  
G01 X1.1025  Y1.0316  
G01 X1.1036  Y1.0248  
G01 X1.1057  Y1.0183  
G01 X1.1088  Y1.0122  
G01 X1.1128  Y1.0067  
G01 X1.1177  Y1.0018  
G01 X1.1232  Y0.9978  
G01 X1.1293  Y0.9947  
G01 X1.1358  Y0.9926  
G01 X1.1426  Y0.9915  
G01 X1.2274  Y0.9915  
G01 X1.2342  Y0.9926  
G01 X1.2407  Y0.9947  
G01 X1.2468  Y0.9978  
G01 X1.2523  Y1.0018  
G01 X1.2572  Y1.0067  
G01 X1.2612  Y1.0122  
G01 X1.2643  Y1.0183  
G01 X1.2664  Y1.0248  
G01 X1.2675  Y1.0316  
G01 X1.2675  Y1.0384  
G01 X1.2664  Y1.0452  
G01 X1.2643  Y1.0517  
G01 X1.2612  Y1.0578  
G01 X1.2572  Y1.0633  
G01 X1.2523  Y1.0682  
G01 X1.2468  Y1.0722  
G01 X1.2407  Y1.0753  
G01 X1.2342  Y1.0774  
G01 X1.2274  Y1.0785  
G00 Z0.1000  
G00 X0.7474  Y0.6085  
G01 Z-0.0070 F10    
G01 X0.7049  Y0.6085  F20    
G01 X0.4595  Y0.8539  
G01 X0.4595  Y6.9269  
G01 X0.4626  Y6.9269  
G01 X0.4689  Y6.9282  
G01 X0.4748  Y6.9306  
G01 X0.4802  Y6.9342  
G01 X0.4847  Y6.9387  
G01 X0.4882  Y6.9441  
G01 X0.4907  Y6.9500  
G01 X0.4919  Y6.9562  
G01 X0.4919  Y6.9626  
G01 X0.4907  Y6.9689  
G01 X0.4882  Y6.9748  
G01 X0.4847  Y6.9802  
G01 X0.4802  Y6.9847  
G01 X0.4748  Y6.9882  
G01 X0.4689  Y6.9907  
G01 X0.4626  Y6.9919  
G01 X0.4562  Y6.9919  
G01 X0.4500  Y6.9907  
G01 X0.4441  Y6.9882  
G01 X0.4387  Y6.9847  
G01 X0.4342  Y6.9802  
G01 X0.4306  Y6.9748  
G01 X0.4282  Y6.9689  
G01 X0.4269  Y6.9626  
G01 X0.4269  Y6.9562  
G01 X0.4282  Y6.9500  
G01 X0.4306  Y6.9441  
G01 X0.4342  Y6.9387  
G01 X0.4387  Y6.9342  
G01 X0.4405  Y6.9330  
G01 X0.4405  Y0.8481  
G01 X0.4419  Y0.8446  
G01 X0.6781  Y0.6085  
G01 X0.6626  Y0.6085  
G01 X0.6558  Y0.6074  
G01 X0.6493  Y0.6053  
G01 X0.6432  Y0.6022  
G01 X0.6377  Y0.5982  
G01 X0.6328  Y0.5933  
G01 X0.6288  Y0.5878  
G01 X0.6257  Y0.5817  
G01 X0.6236  Y0.5752  
G01 X0.6225  Y0.5684  
G01 X0.6225  Y0.5616  
G01 X0.6236  Y0.5548  
G01 X0.6257  Y0.5483  
G01 X0.6288  Y0.5422  
G01 X0.6328  Y0.5367  
G01 X0.6377  Y0.5318  
G01 X0.6432  Y0.5278  
G01 X0.6493  Y0.5247  
G01 X0.6558  Y0.5226  
G01 X0.6626  Y0.5215  
G01 X0.7474  Y0.5215  
G01 X0.7542  Y0.5226  
G01 X0.7607  Y0.5247  
G01 X0.7668  Y0.5278  
G01 X0.7723  Y0.5318  
G01 X0.7772  Y0.5367  
G01 X0.7812  Y0.5422  
G01 X0.7843  Y0.5483  
G01 X0.7864  Y0.5548  
G01 X0.7875  Y0.5616  
G01 X0.7875  Y0.5684  
G01 X0.7864  Y0.5752  
G01 X0.7843  Y0.5817  
G01 X0.7812  Y0.5878  
G01 X0.7772  Y0.5933  
G01 X0.7723  Y0.5982  
G01 X0.7668  Y0.6022  
G01 X0.7607  Y0.6053  
G01 X0.7542  Y0.6074  
G01 X0.7474  Y0.6085  
G00 Z0.1000  
G00 X5.6424  Y0.2455  
G01 Z-0.0070 F10    
G01 X5.5576  Y0.2455  F20    
G01 X5.5508  Y0.2444  
G01 X5.5443  Y0.2423  
G01 X5.5382  Y0.2392  
G01 X5.5327  Y0.2352  
G01 X5.5278  Y0.2303  
G01 X5.5238  Y0.2248  
G01 X5.5207  Y0.2187  
G01 X5.5186  Y0.2122  
G01 X5.5175  Y0.2054  
G01 X5.5175  Y0.1986  
G01 X5.5186  Y0.1918  
G01 X5.5207  Y0.1853  
G01 X5.5238  Y0.1792  
G01 X5.5278  Y0.1737  
G01 X5.5327  Y0.1688  
G01 X5.5382  Y0.1648  
G01 X5.5443  Y0.1617  
G01 X5.5508  Y0.1596  
G01 X5.5576  Y0.1585  
G01 X5.6424  Y0.1585  
G01 X5.6492  Y0.1596  
G01 X5.6557  Y0.1617  
G01 X5.6618  Y0.1648  
G01 X5.6673  Y0.1688  
G01 X5.6722  Y0.1737  
G01 X5.6762  Y0.1792  
G01 X5.6793  Y0.1853  
G01 X5.6814  Y0.1918  
G01 X5.6825  Y0.1986  
G01 X5.6825  Y0.2054  
G01 X5.6814  Y0.2122  
G01 X5.6793  Y0.2187  
G01 X5.6762  Y0.2248  
G01 X5.6722  Y0.2303  
G01 X5.6673  Y0.2352  
G01 X5.6618  Y0.2392  
G01 X5.6557  Y0.2423  
G01 X5.6492  Y0.2444  
G01 X5.6424  Y0.2455  
G00 Z0.1000  
G00 X5.6424  Y0.4425  
G01 Z-0.0070 F10    
G01 X5.5576  Y0.4425  F20    
G01 X5.5508  Y0.4414  
G01 X5.5443  Y0.4393  
G01 X5.5382  Y0.4362  
G01 X5.5327  Y0.4322  
G01 X5.5278  Y0.4273  
G01 X5.5238  Y0.4218  
G01 X5.5207  Y0.4157  
G01 X5.5186  Y0.4092  
G01 X5.5175  Y0.4024  
G01 X5.5175  Y0.3956  
G01 X5.5186  Y0.3888  
G01 X5.5207  Y0.3823  
G01 X5.5238  Y0.3762  
G01 X5.5278  Y0.3707  
G01 X5.5327  Y0.3658  
G01 X5.5382  Y0.3618  
G01 X5.5443  Y0.3587  
G01 X5.5508  Y0.3566  
G01 X5.5576  Y0.3555  
G01 X5.6424  Y0.3555  
G01 X5.6492  Y0.3566  
G01 X5.6557  Y0.3587  
G01 X5.6618  Y0.3618  
G01 X5.6673  Y0.3658  
G01 X5.6722  Y0.3707  
G01 X5.6762  Y0.3762  
G01 X5.6793  Y0.3823  
G01 X5.6814  Y0.3888  
G01 X5.6825  Y0.3956  
G01 X5.6825  Y0.4024  
G01 X5.6814  Y0.4092  
G01 X5.6793  Y0.4157  
G01 X5.6762  Y0.4218  
G01 X5.6722  Y0.4273  
G01 X5.6673  Y0.4322  
G01 X5.6618  Y0.4362  
G01 X5.6557  Y0.4393  
G01 X5.6492  Y0.4414  
G01 X5.6424  Y0.4425  
G00 Z0.1000  
G00 X1.2274  Y1.8285  
G01 Z-0.0070 F10    
G01 X1.1426  Y1.8285  F20    
G01 X1.1358  Y1.8274  
G01 X1.1293  Y1.8253  
G01 X1.1232  Y1.8222  
G01 X1.1177  Y1.8182  
G01 X1.1128  Y1.8133  
G01 X1.1088  Y1.8078  
G01 X1.1057  Y1.8017  
G01 X1.1036  Y1.7952  
G01 X1.1025  Y1.7884  
G01 X1.1025  Y1.7816  
G01 X1.1036  Y1.7748  
G01 X1.1057  Y1.7683  
G01 X1.1088  Y1.7622  
G01 X1.1128  Y1.7567  
G01 X1.1177  Y1.7518  
G01 X1.1232  Y1.7478  
G01 X1.1293  Y1.7447  
G01 X1.1358  Y1.7426  
G01 X1.1426  Y1.7415  
G01 X1.2274  Y1.7415  
G01 X1.2342  Y1.7426  
G01 X1.2407  Y1.7447  
G01 X1.2468  Y1.7478  
G01 X1.2523  Y1.7518  
G01 X1.2572  Y1.7567  
G01 X1.2612  Y1.7622  
G01 X1.2643  Y1.7683  
G01 X1.2664  Y1.7748  
G01 X1.2675  Y1.7816  
G01 X1.2675  Y1.7884  
G01 X1.2664  Y1.7952  
G01 X1.2643  Y1.8017  
G01 X1.2612  Y1.8078  
G01 X1.2572  Y1.8133  
G01 X1.2523  Y1.8182  
G01 X1.2468  Y1.8222  
G01 X1.2407  Y1.8253  
G01 X1.2342  Y1.8274  
G01 X1.2274  Y1.8285  
G00 Z0.1000  
G00 X0.7474  Y1.3585  
G01 Z-0.0070 F10    
G01 X0.6626  Y1.3585  F20    
G01 X0.6558  Y1.3574  
G01 X0.6493  Y1.3553  
G01 X0.6432  Y1.3522  
G01 X0.6377  Y1.3482  
G01 X0.6328  Y1.3433  
G01 X0.6288  Y1.3378  
G01 X0.6257  Y1.3317  
G01 X0.6236  Y1.3252  
G01 X0.6225  Y1.3184  
G01 X0.6225  Y1.3116  
G01 X0.6236  Y1.3048  
G01 X0.6257  Y1.2983  
G01 X0.6288  Y1.2922  
G01 X0.6328  Y1.2867  
G01 X0.6377  Y1.2818  
G01 X0.6432  Y1.2778  
G01 X0.6493  Y1.2747  
G01 X0.6558  Y1.2726  
G01 X0.6626  Y1.2715  
G01 X0.7474  Y1.2715  
G01 X0.7542  Y1.2726  
G01 X0.7607  Y1.2747  
G01 X0.7668  Y1.2778  
G01 X0.7723  Y1.2818  
G01 X0.7772  Y1.2867  
G01 X0.7812  Y1.2922  
G01 X0.7843  Y1.2983  
G01 X0.7864  Y1.3048  
G01 X0.7875  Y1.3116  
G01 X0.7875  Y1.3184  
G01 X0.7864  Y1.3252  
G01 X0.7843  Y1.3317  
G01 X0.7812  Y1.3378  
G01 X0.7772  Y1.3433  
G01 X0.7723  Y1.3482  
G01 X0.7668  Y1.3522  
G01 X0.7607  Y1.3553  
G01 X0.7542  Y1.3574  
G01 X0.7474  Y1.3585  
G00 Z0.1000  
G00 X0.6674  Y1.5935  
G01 Z-0.0070 F10    
G01 X0.5826  Y1.5935  F20    
G01 X0.5758  Y1.5924  
G01 X0.5693  Y1.5903  
G01 X0.5632  Y1.5872  
G01 X0.5577  Y1.5832  
G01 X0.5528  Y1.5783  
G01 X0.5488  Y1.5728  
G01 X0.5457  Y1.5667  
G01 X0.5436  Y1.5602  
G01 X0.5425  Y1.5534  
G01 X0.5425  Y1.5466  
G01 X0.5436  Y1.5398  
G01 X0.5457  Y1.5333  
G01 X0.5488  Y1.5272  
G01 X0.5528  Y1.5217  
G01 X0.5577  Y1.5168  
G01 X0.5632  Y1.5128  
G01 X0.5693  Y1.5097  
G01 X0.5758  Y1.5076  
G01 X0.5826  Y1.5065  
G01 X0.6674  Y1.5065  
G01 X0.6742  Y1.5076  
G01 X0.6807  Y1.5097  
G01 X0.6868  Y1.5128  
G01 X0.6923  Y1.5168  
G01 X0.6972  Y1.5217  
G01 X0.7012  Y1.5272  
G01 X0.7043  Y1.5333  
G01 X0.7064  Y1.5398  
G01 X0.7075  Y1.5466  
G01 X0.7075  Y1.5534  
G01 X0.7064  Y1.5602  
G01 X0.7043  Y1.5667  
G01 X0.7012  Y1.5728  
G01 X0.6972  Y1.5783  
G01 X0.6923  Y1.5832  
G01 X0.6868  Y1.5872  
G01 X0.6807  Y1.5903  
G01 X0.6742  Y1.5924  
G01 X0.6674  Y1.5935  
G00 Z0.1000  
G00 X2.1045  Y6.9924  
G01 Z-0.0070 F10    
G01 X2.1045  Y6.9076  F20    
G01 X2.1056  Y6.9008  
G01 X2.1077  Y6.8943  
G01 X2.1108  Y6.8882  
G01 X2.1148  Y6.8827  
G01 X2.1197  Y6.8778  
G01 X2.1252  Y6.8738  
G01 X2.1313  Y6.8707  
G01 X2.1378  Y6.8686  
G01 X2.1446  Y6.8675  
G01 X2.1514  Y6.8675  
G01 X2.1582  Y6.8686  
G01 X2.1647  Y6.8707  
G01 X2.1708  Y6.8738  
G01 X2.1763  Y6.8778  
G01 X2.1812  Y6.8827  
G01 X2.1852  Y6.8882  
G01 X2.1883  Y6.8943  
G01 X2.1904  Y6.9008  
G01 X2.1915  Y6.9076  
G01 X2.1915  Y6.9924  
G01 X2.1904  Y6.9992  
G01 X2.1883  Y7.0057  
G01 X2.1852  Y7.0118  
G01 X2.1812  Y7.0173  
G01 X2.1763  Y7.0222  
G01 X2.1708  Y7.0262  
G01 X2.1647  Y7.0293  
G01 X2.1582  Y7.0314  
G01 X2.1514  Y7.0325  
G01 X2.1446  Y7.0325  
G01 X2.1378  Y7.0314  
G01 X2.1313  Y7.0293  
G01 X2.1252  Y7.0262  
G01 X2.1197  Y7.0222  
G01 X2.1148  Y7.0173  
G01 X2.1108  Y7.0118  
G01 X2.1077  Y7.0057  
G01 X2.1056  Y6.9992  
G01 X2.1045  Y6.9924  
G00 Z0.1000  
G00 X2.4075  Y6.9924  
G01 Z-0.0070 F10    
G01 X2.4075  Y6.9209  F20    
G01 X1.9595  Y6.4729  
G01 X1.9595  Y6.8683  
G01 X1.9612  Y6.8686  
G01 X1.9677  Y6.8707  
G01 X1.9738  Y6.8738  
G01 X1.9793  Y6.8778  
G01 X1.9842  Y6.8827  
G01 X1.9882  Y6.8882  
G01 X1.9913  Y6.8943  
G01 X1.9934  Y6.9008  
G01 X1.9945  Y6.9076  
G01 X1.9945  Y6.9924  
G01 X1.9934  Y6.9992  
G01 X1.9913  Y7.0057  
G01 X1.9882  Y7.0118  
G01 X1.9842  Y7.0173  
G01 X1.9793  Y7.0222  
G01 X1.9738  Y7.0262  
G01 X1.9677  Y7.0293  
G01 X1.9612  Y7.0314  
G01 X1.9544  Y7.0325  
G01 X1.9476  Y7.0325  
G01 X1.9408  Y7.0314  
G01 X1.9343  Y7.0293  
G01 X1.9282  Y7.0262  
G01 X1.9227  Y7.0222  
G01 X1.9178  Y7.0173  
G01 X1.9138  Y7.0118  
G01 X1.9107  Y7.0057  
G01 X1.9086  Y6.9992  
G01 X1.9075  Y6.9924  
G01 X1.9075  Y6.9076  
G01 X1.9086  Y6.9008  
G01 X1.9107  Y6.8943  
G01 X1.9138  Y6.8882  
G01 X1.9178  Y6.8827  
G01 X1.9227  Y6.8778  
G01 X1.9282  Y6.8738  
G01 X1.9343  Y6.8707  
G01 X1.9405  Y6.8687  
G01 X1.9405  Y6.4481  
G01 X1.9419  Y6.4446  
G01 X1.9446  Y6.4419  
G01 X2.0587  Y6.3279  
G01 X2.0558  Y6.3274  
G01 X2.0493  Y6.3253  
G01 X2.0432  Y6.3222  
G01 X2.0377  Y6.3182  
G01 X2.0328  Y6.3133  
G01 X2.0288  Y6.3078  
G01 X2.0257  Y6.3017  
G01 X2.0236  Y6.2952  
G01 X2.0225  Y6.2884  
G01 X2.0225  Y6.2816  
G01 X2.0236  Y6.2748  
G01 X2.0257  Y6.2683  
G01 X2.0288  Y6.2622  
G01 X2.0328  Y6.2567  
G01 X2.0377  Y6.2518  
G01 X2.0432  Y6.2478  
G01 X2.0493  Y6.2447  
G01 X2.0558  Y6.2426  
G01 X2.0626  Y6.2415  
G01 X2.1451  Y6.2415  
G01 X2.1905  Y6.1961  
G01 X2.1905  Y5.4729  
G01 X2.1660  Y5.4974  
G01 X2.1668  Y5.4978  
G01 X2.1723  Y5.5018  
G01 X2.1772  Y5.5067  
G01 X2.1812  Y5.5122  
G01 X2.1843  Y5.5183  
G01 X2.1864  Y5.5248  
G01 X2.1875  Y5.5316  
G01 X2.1875  Y5.5384  
G01 X2.1864  Y5.5452  
G01 X2.1843  Y5.5517  
G01 X2.1812  Y5.5578  
G01 X2.1772  Y5.5633  
G01 X2.1723  Y5.5682  
G01 X2.1668  Y5.5722  
G01 X2.1607  Y5.5753  
G01 X2.1542  Y5.5774  
G01 X2.1474  Y5.5785  
G01 X2.0626  Y5.5785  
G01 X2.0558  Y5.5774  
G01 X2.0493  Y5.5753  
G01 X2.0432  Y5.5722  
G01 X2.0377  Y5.5682  
G01 X2.0328  Y5.5633  
G01 X2.0288  Y5.5578  
G01 X2.0257  Y5.5517  
G01 X2.0236  Y5.5452  
G01 X2.0225  Y5.5384  
G01 X2.0225  Y5.5316  
G01 X2.0236  Y5.5248  
G01 X2.0257  Y5.5183  
G01 X2.0288  Y5.5122  
G01 X2.0328  Y5.5067  
G01 X2.0377  Y5.5018  
G01 X2.0432  Y5.4978  
G01 X2.0493  Y5.4947  
G01 X2.0558  Y5.4926  
G01 X2.0626  Y5.4915  
G01 X2.1451  Y5.4915  
G01 X2.1905  Y5.4461  
G01 X2.1905  Y4.7229  
G01 X2.1660  Y4.7474  
G01 X2.1668  Y4.7478  
G01 X2.1723  Y4.7518  
G01 X2.1772  Y4.7567  
G01 X2.1812  Y4.7622  
G01 X2.1843  Y4.7683  
G01 X2.1864  Y4.7748  
G01 X2.1875  Y4.7816  
G01 X2.1875  Y4.7884  
G01 X2.1864  Y4.7952  
G01 X2.1843  Y4.8017  
G01 X2.1812  Y4.8078  
G01 X2.1772  Y4.8133  
G01 X2.1723  Y4.8182  
G01 X2.1668  Y4.8222  
G01 X2.1607  Y4.8253  
G01 X2.1542  Y4.8274  
G01 X2.1474  Y4.8285  
G01 X2.0626  Y4.8285  
G01 X2.0558  Y4.8274  
G01 X2.0493  Y4.8253  
G01 X2.0432  Y4.8222  
G01 X2.0377  Y4.8182  
G01 X2.0328  Y4.8133  
G01 X2.0288  Y4.8078  
G01 X2.0257  Y4.8017  
G01 X2.0236  Y4.7952  
G01 X2.0225  Y4.7884  
G01 X2.0225  Y4.7816  
G01 X2.0236  Y4.7748  
G01 X2.0257  Y4.7683  
G01 X2.0288  Y4.7622  
G01 X2.0328  Y4.7567  
G01 X2.0377  Y4.7518  
G01 X2.0432  Y4.7478  
G01 X2.0493  Y4.7447  
G01 X2.0558  Y4.7426  
G01 X2.0626  Y4.7415  
G01 X2.1451  Y4.7415  
G01 X2.1905  Y4.6961  
G01 X2.1905  Y3.9729  
G01 X2.1660  Y3.9974  
G01 X2.1668  Y3.9978  
G01 X2.1723  Y4.0018  
G01 X2.1772  Y4.0067  
G01 X2.1812  Y4.0122  
G01 X2.1843  Y4.0183  
G01 X2.1864  Y4.0248  
G01 X2.1875  Y4.0316  
G01 X2.1875  Y4.0384  
G01 X2.1864  Y4.0452  
G01 X2.1843  Y4.0517  
G01 X2.1812  Y4.0578  
G01 X2.1772  Y4.0633  
G01 X2.1723  Y4.0682  
G01 X2.1668  Y4.0722  
G01 X2.1607  Y4.0753  
G01 X2.1542  Y4.0774  
G01 X2.1474  Y4.0785  
G01 X2.0626  Y4.0785  
G01 X2.0558  Y4.0774  
G01 X2.0493  Y4.0753  
G01 X2.0432  Y4.0722  
G01 X2.0377  Y4.0682  
G01 X2.0328  Y4.0633  
G01 X2.0288  Y4.0578  
G01 X2.0257  Y4.0517  
G01 X2.0236  Y4.0452  
G01 X2.0225  Y4.0384  
G01 X2.0225  Y4.0316  
G01 X2.0236  Y4.0248  
G01 X2.0257  Y4.0183  
G01 X2.0288  Y4.0122  
G01 X2.0328  Y4.0067  
G01 X2.0377  Y4.0018  
G01 X2.0432  Y3.9978  
G01 X2.0493  Y3.9947  
G01 X2.0558  Y3.9926  
G01 X2.0626  Y3.9915  
G01 X2.1451  Y3.9915  
G01 X2.1905  Y3.9461  
G01 X2.1905  Y3.2229  
G01 X2.1660  Y3.2474  
G01 X2.1668  Y3.2478  
G01 X2.1723  Y3.2518  
G01 X2.1772  Y3.2567  
G01 X2.1812  Y3.2622  
G01 X2.1843  Y3.2683  
G01 X2.1864  Y3.2748  
G01 X2.1875  Y3.2816  
G01 X2.1875  Y3.2884  
G01 X2.1864  Y3.2952  
G01 X2.1843  Y3.3017  
G01 X2.1812  Y3.3078  
G01 X2.1772  Y3.3133  
G01 X2.1723  Y3.3182  
G01 X2.1668  Y3.3222  
G01 X2.1607  Y3.3253  
G01 X2.1542  Y3.3274  
G01 X2.1474  Y3.3285  
G01 X2.0626  Y3.3285  
G01 X2.0558  Y3.3274  
G01 X2.0493  Y3.3253  
G01 X2.0432  Y3.3222  
G01 X2.0377  Y3.3182  
G01 X2.0328  Y3.3133  
G01 X2.0288  Y3.3078  
G01 X2.0257  Y3.3017  
G01 X2.0236  Y3.2952  
G01 X2.0225  Y3.2884  
G01 X2.0225  Y3.2816  
G01 X2.0236  Y3.2748  
G01 X2.0257  Y3.2683  
G01 X2.0288  Y3.2622  
G01 X2.0328  Y3.2567  
G01 X2.0377  Y3.2518  
G01 X2.0432  Y3.2478  
G01 X2.0493  Y3.2447  
G01 X2.0558  Y3.2426  
G01 X2.0626  Y3.2415  
G01 X2.1451  Y3.2415  
G01 X2.1905  Y3.1961  
G01 X2.1905  Y2.4729  
G01 X2.1660  Y2.4974  
G01 X2.1668  Y2.4978  
G01 X2.1723  Y2.5018  
G01 X2.1772  Y2.5067  
G01 X2.1812  Y2.5122  
G01 X2.1843  Y2.5183  
G01 X2.1864  Y2.5248  
G01 X2.1875  Y2.5316  
G01 X2.1875  Y2.5384  
G01 X2.1864  Y2.5452  
G01 X2.1843  Y2.5517  
G01 X2.1812  Y2.5578  
G01 X2.1772  Y2.5633  
G01 X2.1723  Y2.5682  
G01 X2.1668  Y2.5722  
G01 X2.1607  Y2.5753  
G01 X2.1542  Y2.5774  
G01 X2.1474  Y2.5785  
G01 X2.0626  Y2.5785  
G01 X2.0558  Y2.5774  
G01 X2.0493  Y2.5753  
G01 X2.0432  Y2.5722  
G01 X2.0377  Y2.5682  
G01 X2.0328  Y2.5633  
G01 X2.0288  Y2.5578  
G01 X2.0257  Y2.5517  
G01 X2.0236  Y2.5452  
G01 X2.0225  Y2.5384  
G01 X2.0225  Y2.5316  
G01 X2.0236  Y2.5248  
G01 X2.0257  Y2.5183  
G01 X2.0288  Y2.5122  
G01 X2.0328  Y2.5067  
G01 X2.0377  Y2.5018  
G01 X2.0432  Y2.4978  
G01 X2.0493  Y2.4947  
G01 X2.0558  Y2.4926  
G01 X2.0626  Y2.4915  
G01 X2.1451  Y2.4915  
G01 X2.1905  Y2.4461  
G01 X2.1905  Y1.7229  
G01 X2.1660  Y1.7474  
G01 X2.1668  Y1.7478  
G01 X2.1723  Y1.7518  
G01 X2.1772  Y1.7567  
G01 X2.1812  Y1.7622  
G01 X2.1843  Y1.7683  
G01 X2.1864  Y1.7748  
G01 X2.1875  Y1.7816  
G01 X2.1875  Y1.7884  
G01 X2.1864  Y1.7952  
G01 X2.1843  Y1.8017  
G01 X2.1812  Y1.8078  
G01 X2.1772  Y1.8133  
G01 X2.1723  Y1.8182  
G01 X2.1668  Y1.8222  
G01 X2.1607  Y1.8253  
G01 X2.1542  Y1.8274  
G01 X2.1474  Y1.8285  
G01 X2.0626  Y1.8285  
G01 X2.0558  Y1.8274  
G01 X2.0493  Y1.8253  
G01 X2.0432  Y1.8222  
G01 X2.0377  Y1.8182  
G01 X2.0328  Y1.8133  
G01 X2.0288  Y1.8078  
G01 X2.0257  Y1.8017  
G01 X2.0236  Y1.7952  
G01 X2.0225  Y1.7884  
G01 X2.0225  Y1.7816  
G01 X2.0236  Y1.7748  
G01 X2.0257  Y1.7683  
G01 X2.0288  Y1.7622  
G01 X2.0328  Y1.7567  
G01 X2.0377  Y1.7518  
G01 X2.0432  Y1.7478  
G01 X2.0493  Y1.7447  
G01 X2.0558  Y1.7426  
G01 X2.0626  Y1.7415  
G01 X2.1451  Y1.7415  
G01 X2.1905  Y1.6961  
G01 X2.1905  Y1.1039  
G01 X2.1615  Y1.0749  
G01 X2.1607  Y1.0753  
G01 X2.1542  Y1.0774  
G01 X2.1474  Y1.0785  
G01 X2.0626  Y1.0785  
G01 X2.0558  Y1.0774  
G01 X2.0493  Y1.0753  
G01 X2.0432  Y1.0722  
G01 X2.0377  Y1.0682  
G01 X2.0328  Y1.0633  
G01 X2.0288  Y1.0578  
G01 X2.0257  Y1.0517  
G01 X2.0236  Y1.0452  
G01 X2.0225  Y1.0384  
G01 X2.0225  Y1.0316  
G01 X2.0236  Y1.0248  
G01 X2.0257  Y1.0183  
G01 X2.0288  Y1.0122  
G01 X2.0328  Y1.0067  
G01 X2.0377  Y1.0018  
G01 X2.0432  Y0.9978  
G01 X2.0493  Y0.9947  
G01 X2.0558  Y0.9926  
G01 X2.0626  Y0.9915  
G01 X2.1474  Y0.9915  
G01 X2.1542  Y0.9926  
G01 X2.1607  Y0.9947  
G01 X2.1668  Y0.9978  
G01 X2.1723  Y1.0018  
G01 X2.1772  Y1.0067  
G01 X2.1812  Y1.0122  
G01 X2.1843  Y1.0183  
G01 X2.1864  Y1.0248  
G01 X2.1875  Y1.0316  
G01 X2.1875  Y1.0384  
G01 X2.1864  Y1.0452  
G01 X2.1843  Y1.0517  
G01 X2.1812  Y1.0578  
G01 X2.1772  Y1.0633  
G01 X2.1770  Y1.0635  
G01 X2.2054  Y1.0919  
G01 X2.2081  Y1.0946  
G01 X2.2095  Y1.0981  
G01 X2.2095  Y6.2019  
G01 X2.2081  Y6.2054  
G01 X2.1660  Y6.2474  
G01 X2.1668  Y6.2478  
G01 X2.1723  Y6.2518  
G01 X2.1772  Y6.2567  
G01 X2.1812  Y6.2622  
G01 X2.1843  Y6.2683  
G01 X2.1864  Y6.2748  
G01 X2.1875  Y6.2816  
G01 X2.1875  Y6.2884  
G01 X2.1864  Y6.2952  
G01 X2.1843  Y6.3017  
G01 X2.1812  Y6.3078  
G01 X2.1772  Y6.3133  
G01 X2.1723  Y6.3182  
G01 X2.1668  Y6.3222  
G01 X2.1607  Y6.3253  
G01 X2.1542  Y6.3274  
G01 X2.1474  Y6.3285  
G01 X2.0849  Y6.3285  
G01 X1.9634  Y6.4500  
G01 X2.4100  Y6.8965  
G01 X2.4107  Y6.8943  
G01 X2.4138  Y6.8882  
G01 X2.4178  Y6.8827  
G01 X2.4227  Y6.8778  
G01 X2.4282  Y6.8738  
G01 X2.4343  Y6.8707  
G01 X2.4408  Y6.8686  
G01 X2.4476  Y6.8675  
G01 X2.4544  Y6.8675  
G01 X2.4612  Y6.8686  
G01 X2.4677  Y6.8707  
G01 X2.4738  Y6.8738  
G01 X2.4793  Y6.8778  
G01 X2.4842  Y6.8827  
G01 X2.4882  Y6.8882  
G01 X2.4913  Y6.8943  
G01 X2.4934  Y6.9008  
G01 X2.4945  Y6.9076  
G01 X2.4945  Y6.9924  
G01 X2.4934  Y6.9992  
G01 X2.4913  Y7.0057  
G01 X2.4882  Y7.0118  
G01 X2.4842  Y7.0173  
G01 X2.4793  Y7.0222  
G01 X2.4738  Y7.0262  
G01 X2.4677  Y7.0293  
G01 X2.4612  Y7.0314  
G01 X2.4544  Y7.0325  
G01 X2.4476  Y7.0325  
G01 X2.4408  Y7.0314  
G01 X2.4343  Y7.0293  
G01 X2.4282  Y7.0262  
G01 X2.4227  Y7.0222  
G01 X2.4178  Y7.0173  
G01 X2.4138  Y7.0118  
G01 X2.4107  Y7.0057  
G01 X2.4086  Y6.9992  
G01 X2.4075  Y6.9924  
G00 Z0.1000  
G00 X0.9716  Y6.8554  
G01 Z-0.0070 F10    
G01 X0.9716  Y6.8635  F20    
G01 X0.9704  Y6.8716  
G01 X0.9678  Y6.8793  
G01 X0.9641  Y6.8866  
G01 X0.9594  Y6.8932  
G01 X0.9536  Y6.8989  
G01 X0.9470  Y6.9037  
G01 X0.9397  Y6.9074  
G01 X0.9320  Y6.9099  
G01 X0.9240  Y6.9112  
G01 X0.9158  Y6.9112  
G01 X0.9078  Y6.9099  
G01 X0.9000  Y6.9074  
G01 X0.8928  Y6.9037  
G01 X0.8862  Y6.8989  
G01 X0.8804  Y6.8932  
G01 X0.8756  Y6.8866  
G01 X0.8719  Y6.8793  
G01 X0.8694  Y6.8716  
G01 X0.8681  Y6.8635  
G01 X0.8681  Y6.8554  
G01 X0.8694  Y6.8473  
G01 X0.8719  Y6.8396  
G01 X0.8756  Y6.8323  
G01 X0.8804  Y6.8257  
G01 X0.8862  Y6.8200  
G01 X0.8928  Y6.8152  
G01 X0.9000  Y6.8115  
G01 X0.9078  Y6.8090  
G01 X0.9158  Y6.8077  
G01 X0.9240  Y6.8077  
G01 X0.9320  Y6.8090  
G01 X0.9397  Y6.8115  
G01 X0.9470  Y6.8152  
G01 X0.9536  Y6.8200  
G01 X0.9594  Y6.8257  
G01 X0.9641  Y6.8323  
G01 X0.9678  Y6.8396  
G01 X0.9704  Y6.8473  
G01 X0.9716  Y6.8554  
G00 Z0.1000  
G00 X0.3319  Y6.8554  
G01 Z-0.0070 F10    
G01 X0.3319  Y6.8635  F20    
G01 X0.3306  Y6.8716  
G01 X0.3281  Y6.8793  
G01 X0.3244  Y6.8866  
G01 X0.3196  Y6.8932  
G01 X0.3138  Y6.8989  
G01 X0.3072  Y6.9037  
G01 X0.3000  Y6.9074  
G01 X0.2922  Y6.9099  
G01 X0.2842  Y6.9112  
G01 X0.2760  Y6.9112  
G01 X0.2680  Y6.9099  
G01 X0.2603  Y6.9074  
G01 X0.2530  Y6.9037  
G01 X0.2464  Y6.8989  
G01 X0.2406  Y6.8932  
G01 X0.2359  Y6.8866  
G01 X0.2322  Y6.8793  
G01 X0.2296  Y6.8716  
G01 X0.2284  Y6.8635  
G01 X0.2284  Y6.8554  
G01 X0.2296  Y6.8473  
G01 X0.2322  Y6.8396  
G01 X0.2359  Y6.8323  
G01 X0.2406  Y6.8257  
G01 X0.2464  Y6.8200  
G01 X0.2530  Y6.8152  
G01 X0.2603  Y6.8115  
G01 X0.2680  Y6.8090  
G01 X0.2760  Y6.8077  
G01 X0.2842  Y6.8077  
G01 X0.2922  Y6.8090  
G01 X0.3000  Y6.8115  
G01 X0.3072  Y6.8152  
G01 X0.3138  Y6.8200  
G01 X0.3196  Y6.8257  
G01 X0.3244  Y6.8323  
G01 X0.3281  Y6.8396  
G01 X0.3306  Y6.8473  
G01 X0.3319  Y6.8554  
G00 Z0.1000  
G00 X0.7731  Y6.8562  
G01 Z-0.0070 F10    
G01 X0.7731  Y6.8626  F20    
G01 X0.7718  Y6.8689  
G01 X0.7694  Y6.8748  
G01 X0.7658  Y6.8802  
G01 X0.7613  Y6.8847  
G01 X0.7559  Y6.8882  
G01 X0.7500  Y6.8907  
G01 X0.7438  Y6.8919  
G01 X0.7374  Y6.8919  
G01 X0.7311  Y6.8907  
G01 X0.7252  Y6.8882  
G01 X0.7198  Y6.8847  
G01 X0.7153  Y6.8802  
G01 X0.7117  Y6.8748  
G01 X0.7093  Y6.8689  
G01 X0.7081  Y6.8626  
G01 X0.7081  Y6.8562  
G01 X0.7093  Y6.8500  
G01 X0.7117  Y6.8441  
G01 X0.7153  Y6.8387  
G01 X0.7198  Y6.8342  
G01 X0.7252  Y6.8306  
G01 X0.7311  Y6.8282  
G01 X0.7374  Y6.8269  
G01 X0.7438  Y6.8269  
G01 X0.7500  Y6.8282  
G01 X0.7559  Y6.8306  
G01 X0.7613  Y6.8342  
G01 X0.7658  Y6.8387  
G01 X0.7694  Y6.8441  
G01 X0.7718  Y6.8500  
G01 X0.7731  Y6.8562  
G00 Z0.1000  
G00 X0.7329  Y6.9626  
G01 Z-0.0070 F10    
G01 X0.7316  Y6.9689  F20    
G01 X0.7292  Y6.9748  
G01 X0.7256  Y6.9802  
G01 X0.7211  Y6.9847  
G01 X0.7158  Y6.9882  
G01 X0.7099  Y6.9907  
G01 X0.7036  Y6.9919  
G01 X0.6972  Y6.9919  
G01 X0.6909  Y6.9907  
G01 X0.6850  Y6.9882  
G01 X0.6797  Y6.9847  
G01 X0.6751  Y6.9802  
G01 X0.6716  Y6.9748  
G01 X0.6691  Y6.9689  
G01 X0.6679  Y6.9626  
G01 X0.6679  Y6.9562  
G01 X0.6691  Y6.9500  
G01 X0.6716  Y6.9441  
G01 X0.6751  Y6.9387  
G01 X0.6797  Y6.9342  
G01 X0.6850  Y6.9306  
G01 X0.6909  Y6.9282  
G01 X0.6972  Y6.9269  
G01 X0.7036  Y6.9269  
G01 X0.7099  Y6.9282  
G01 X0.7158  Y6.9306  
G01 X0.7211  Y6.9342  
G01 X0.7256  Y6.9387  
G01 X0.7268  Y6.9405  
G01 X0.7905  Y6.9405  
G01 X0.7905  Y6.5039  
G01 X0.5919  Y6.3054  
G01 X0.5905  Y6.3019  
G01 X0.5905  Y6.1981  
G01 X0.5919  Y6.1946  
G01 X0.7405  Y6.0461  
G01 X0.7405  Y6.0039  
G01 X0.5946  Y5.8581  
G01 X0.5919  Y5.8554  
G01 X0.5905  Y5.8519  
G01 X0.5905  Y5.4481  
G01 X0.5919  Y5.4446  
G01 X0.7405  Y5.2961  
G01 X0.7405  Y5.1085  
G01 X0.6626  Y5.1085  
G01 X0.6558  Y5.1074  
G01 X0.6493  Y5.1053  
G01 X0.6432  Y5.1022  
G01 X0.6377  Y5.0982  
G01 X0.6328  Y5.0933  
G01 X0.6288  Y5.0878  
G01 X0.6257  Y5.0817  
G01 X0.6236  Y5.0752  
G01 X0.6225  Y5.0684  
G01 X0.6225  Y5.0616  
G01 X0.6236  Y5.0548  
G01 X0.6257  Y5.0483  
G01 X0.6288  Y5.0422  
G01 X0.6328  Y5.0367  
G01 X0.6377  Y5.0318  
G01 X0.6432  Y5.0278  
G01 X0.6493  Y5.0247  
G01 X0.6558  Y5.0226  
G01 X0.6626  Y5.0215  
G01 X0.7474  Y5.0215  
G01 X0.7542  Y5.0226  
G01 X0.7607  Y5.0247  
G01 X0.7668  Y5.0278  
G01 X0.7723  Y5.0318  
G01 X0.7772  Y5.0367  
G01 X0.7812  Y5.0422  
G01 X0.7843  Y5.0483  
G01 X0.7864  Y5.0548  
G01 X0.7875  Y5.0616  
G01 X0.7875  Y5.0684  
G01 X0.7864  Y5.0752  
G01 X0.7843  Y5.0817  
G01 X0.7812  Y5.0878  
G01 X0.7772  Y5.0933  
G01 X0.7723  Y5.0982  
G01 X0.7668  Y5.1022  
G01 X0.7607  Y5.1053  
G01 X0.7595  Y5.1057  
G01 X0.7595  Y5.3019  
G01 X0.7581  Y5.3054  
G01 X0.7554  Y5.3081  
G01 X0.6095  Y5.4539  
G01 X0.6095  Y5.8461  
G01 X0.7581  Y5.9946  
G01 X0.7595  Y5.9981  
G01 X0.7595  Y6.0519  
G01 X0.7581  Y6.0554  
G01 X0.7554  Y6.0581  
G01 X0.6095  Y6.2039  
G01 X0.6095  Y6.2961  
G01 X0.8081  Y6.4946  
G01 X0.8095  Y6.4981  
G01 X0.8095  Y6.9519  
G01 X0.8081  Y6.9554  
G01 X0.8054  Y6.9581  
G01 X0.8019  Y6.9595  
G01 X0.7329  Y6.9595  
G01 X0.7329  Y6.9626  
G00 Z0.1000  
G00 X0.6927  Y6.8562  
G01 Z-0.0070 F10    
G01 X0.6927  Y6.8626  F20    
G01 X0.6915  Y6.8689  
G01 X0.6890  Y6.8748  
G01 X0.6855  Y6.8802  
G01 X0.6810  Y6.8847  
G01 X0.6756  Y6.8882  
G01 X0.6697  Y6.8907  
G01 X0.6634  Y6.8919  
G01 X0.6570  Y6.8919  
G01 X0.6508  Y6.8907  
G01 X0.6448  Y6.8882  
G01 X0.6395  Y6.8847  
G01 X0.6350  Y6.8802  
G01 X0.6314  Y6.8748  
G01 X0.6290  Y6.8689  
G01 X0.6277  Y6.8626  
G01 X0.6277  Y6.8562  
G01 X0.6290  Y6.8500  
G01 X0.6314  Y6.8441  
G01 X0.6350  Y6.8387  
G01 X0.6395  Y6.8342  
G01 X0.6448  Y6.8306  
G01 X0.6508  Y6.8282  
G01 X0.6570  Y6.8269  
G01 X0.6634  Y6.8269  
G01 X0.6697  Y6.8282  
G01 X0.6756  Y6.8306  
G01 X0.6810  Y6.8342  
G01 X0.6855  Y6.8387  
G01 X0.6890  Y6.8441  
G01 X0.6915  Y6.8500  
G01 X0.6927  Y6.8562  
G00 Z0.1000  
G00 X0.6526  Y6.9562  
G01 Z-0.0070 F10    
G01 X0.6526  Y6.9626  F20    
G01 X0.6513  Y6.9689  
G01 X0.6489  Y6.9748  
G01 X0.6453  Y6.9802  
G01 X0.6445  Y6.9810  
G01 X0.8039  Y7.1405  
G01 X0.9905  Y7.1405  
G01 X0.9905  Y3.7726  
G01 X0.9884  Y3.7717  
G01 X0.9844  Y3.7690  
G01 X0.9810  Y3.7656  
G01 X0.9783  Y3.7616  
G01 X0.9764  Y3.7571  
G01 X0.9755  Y3.7524  
G01 X0.9755  Y3.7476  
G01 X0.9764  Y3.7429  
G01 X0.9783  Y3.7384  
G01 X0.9810  Y3.7344  
G01 X0.9844  Y3.7310  
G01 X0.9884  Y3.7283  
G01 X0.9929  Y3.7264  
G01 X0.9976  Y3.7255  
G01 X1.0024  Y3.7255  
G01 X1.0071  Y3.7264  
G01 X1.0116  Y3.7283  
G01 X1.0156  Y3.7310  
G01 X1.0190  Y3.7344  
G01 X1.0217  Y3.7384  
G01 X1.0236  Y3.7429  
G01 X1.0245  Y3.7476  
G01 X1.0245  Y3.7524  
G01 X1.0236  Y3.7571  
G01 X1.0217  Y3.7616  
G01 X1.0190  Y3.7656  
G01 X1.0156  Y3.7690  
G01 X1.0116  Y3.7717  
G01 X1.0095  Y3.7726  
G01 X1.0095  Y7.1519  
G01 X1.0081  Y7.1554  
G01 X1.0054  Y7.1581  
G01 X1.0019  Y7.1595  
G01 X0.7981  Y7.1595  
G01 X0.7946  Y7.1581  
G01 X0.7919  Y7.1554  
G01 X0.6276  Y6.9911  
G01 X0.6233  Y6.9919  
G01 X0.6169  Y6.9919  
G01 X0.6106  Y6.9907  
G01 X0.6047  Y6.9882  
G01 X0.5994  Y6.9847  
G01 X0.5948  Y6.9802  
G01 X0.5913  Y6.9748  
G01 X0.5888  Y6.9689  
G01 X0.5876  Y6.9626  
G01 X0.5876  Y6.9562  
G01 X0.5888  Y6.9500  
G01 X0.5913  Y6.9441  
G01 X0.5948  Y6.9387  
G01 X0.5994  Y6.9342  
G01 X0.6047  Y6.9306  
G01 X0.6106  Y6.9282  
G01 X0.6169  Y6.9269  
G01 X0.6233  Y6.9269  
G01 X0.6296  Y6.9282  
G01 X0.6355  Y6.9306  
G01 X0.6408  Y6.9342  
G01 X0.6453  Y6.9387  
G01 X0.6489  Y6.9441  
G01 X0.6513  Y6.9500  
G01 X0.6526  Y6.9562  
G00 Z0.1000  
G00 X0.6124  Y6.8562  
G01 Z-0.0070 F10    
G01 X0.6124  Y6.8626  F20    
G01 X0.6112  Y6.8689  
G01 X0.6087  Y6.8748  
G01 X0.6052  Y6.8802  
G01 X0.6006  Y6.8847  
G01 X0.5953  Y6.8882  
G01 X0.5894  Y6.8907  
G01 X0.5831  Y6.8919  
G01 X0.5767  Y6.8919  
G01 X0.5704  Y6.8907  
G01 X0.5645  Y6.8882  
G01 X0.5592  Y6.8847  
G01 X0.5547  Y6.8802  
G01 X0.5511  Y6.8748  
G01 X0.5487  Y6.8689  
G01 X0.5474  Y6.8626  
G01 X0.5474  Y6.8562  
G01 X0.5487  Y6.8500  
G01 X0.5511  Y6.8441  
G01 X0.5547  Y6.8387  
G01 X0.5592  Y6.8342  
G01 X0.5645  Y6.8306  
G01 X0.5664  Y6.8299  
G01 X0.4946  Y6.7581  
G01 X0.4919  Y6.7554  
G01 X0.4905  Y6.7519  
G01 X0.4905  Y4.0481  
G01 X0.4919  Y4.0446  
G01 X0.7405  Y3.7961  
G01 X0.7405  Y3.7539  
G01 X0.5946  Y3.6081  
G01 X0.5919  Y3.6054  
G01 X0.5905  Y3.6019  
G01 X0.5905  Y3.1981  
G01 X0.5919  Y3.1946  
G01 X0.7405  Y3.0461  
G01 X0.7405  Y2.8585  
G01 X0.6626  Y2.8585  
G01 X0.6558  Y2.8574  
G01 X0.6493  Y2.8553  
G01 X0.6432  Y2.8522  
G01 X0.6377  Y2.8482  
G01 X0.6328  Y2.8433  
G01 X0.6288  Y2.8378  
G01 X0.6257  Y2.8317  
G01 X0.6236  Y2.8252  
G01 X0.6225  Y2.8184  
G01 X0.6225  Y2.8116  
G01 X0.6236  Y2.8048  
G01 X0.6257  Y2.7983  
G01 X0.6288  Y2.7922  
G01 X0.6328  Y2.7867  
G01 X0.6377  Y2.7818  
G01 X0.6432  Y2.7778  
G01 X0.6493  Y2.7747  
G01 X0.6558  Y2.7726  
G01 X0.6626  Y2.7715  
G01 X0.7474  Y2.7715  
G01 X0.7542  Y2.7726  
G01 X0.7607  Y2.7747  
G01 X0.7668  Y2.7778  
G01 X0.7723  Y2.7818  
G01 X0.7772  Y2.7867  
G01 X0.7812  Y2.7922  
G01 X0.7843  Y2.7983  
G01 X0.7864  Y2.8048  
G01 X0.7875  Y2.8116  
G01 X0.7875  Y2.8184  
G01 X0.7864  Y2.8252  
G01 X0.7843  Y2.8317  
G01 X0.7812  Y2.8378  
G01 X0.7772  Y2.8433  
G01 X0.7723  Y2.8482  
G01 X0.7668  Y2.8522  
G01 X0.7607  Y2.8553  
G01 X0.7595  Y2.8557  
G01 X0.7595  Y3.0519  
G01 X0.7581  Y3.0554  
G01 X0.7554  Y3.0581  
G01 X0.6095  Y3.2039  
G01 X0.6095  Y3.5961  
G01 X0.7581  Y3.7446  
G01 X0.7595  Y3.7481  
G01 X0.7595  Y3.8019  
G01 X0.7581  Y3.8054  
G01 X0.7554  Y3.8081  
G01 X0.5095  Y4.0539  
G01 X0.5095  Y6.7461  
G01 X0.5932  Y6.8298  
G01 X0.5953  Y6.8306  
G01 X0.6006  Y6.8342  
G01 X0.6052  Y6.8387  
G01 X0.6087  Y6.8441  
G01 X0.6112  Y6.8500  
G01 X0.6124  Y6.8562  
G00 Z0.1000  
G00 X0.5723  Y6.9562  
G01 Z-0.0070 F10    
G01 X0.5723  Y6.9626  F20    
G01 X0.5710  Y6.9689  
G01 X0.5686  Y6.9748  
G01 X0.5650  Y6.9802  
G01 X0.5605  Y6.9847  
G01 X0.5552  Y6.9882  
G01 X0.5492  Y6.9907  
G01 X0.5430  Y6.9919  
G01 X0.5366  Y6.9919  
G01 X0.5303  Y6.9907  
G01 X0.5249  Y6.9885  
G01 X0.4581  Y7.0554  
G01 X0.4554  Y7.0581  
G01 X0.4519  Y7.0595  
G01 X0.4481  Y7.0595  
G01 X0.4446  Y7.0581  
G01 X0.3946  Y7.0081  
G01 X0.3919  Y7.0054  
G01 X0.3905  Y7.0019  
G01 X0.3905  Y2.3726  
G01 X0.3884  Y2.3717  
G01 X0.3844  Y2.3690  
G01 X0.3810  Y2.3656  
G01 X0.3783  Y2.3616  
G01 X0.3764  Y2.3571  
G01 X0.3755  Y2.3524  
G01 X0.3755  Y2.3476  
G01 X0.3764  Y2.3429  
G01 X0.3783  Y2.3384  
G01 X0.3810  Y2.3344  
G01 X0.3844  Y2.3310  
G01 X0.3884  Y2.3283  
G01 X0.3929  Y2.3264  
G01 X0.3976  Y2.3255  
G01 X0.4024  Y2.3255  
G01 X0.4071  Y2.3264  
G01 X0.4116  Y2.3283  
G01 X0.4156  Y2.3310  
G01 X0.4190  Y2.3344  
G01 X0.4217  Y2.3384  
G01 X0.4236  Y2.3429  
G01 X0.4245  Y2.3476  
G01 X0.4245  Y2.3524  
G01 X0.4236  Y2.3571  
G01 X0.4217  Y2.3616  
G01 X0.4190  Y2.3656  
G01 X0.4156  Y2.3690  
G01 X0.4116  Y2.3717  
G01 X0.4095  Y2.3726  
G01 X0.4095  Y6.9961  
G01 X0.4500  Y7.0366  
G01 X0.5113  Y6.9753  
G01 X0.5110  Y6.9748  
G01 X0.5085  Y6.9689  
G01 X0.5073  Y6.9626  
G01 X0.5073  Y6.9562  
G01 X0.5085  Y6.9500  
G01 X0.5110  Y6.9441  
G01 X0.5145  Y6.9387  
G01 X0.5190  Y6.9342  
G01 X0.5244  Y6.9306  
G01 X0.5303  Y6.9282  
G01 X0.5366  Y6.9269  
G01 X0.5430  Y6.9269  
G01 X0.5492  Y6.9282  
G01 X0.5552  Y6.9306  
G01 X0.5605  Y6.9342  
G01 X0.5650  Y6.9387  
G01 X0.5686  Y6.9441  
G01 X0.5710  Y6.9500  
G01 X0.5723  Y6.9562  
G00 Z0.1000  
G00 X0.5321  Y6.8562  
G01 Z-0.0070 F10    
G01 X0.5321  Y6.8626  F20    
G01 X0.5309  Y6.8689  
G01 X0.5284  Y6.8748  
G01 X0.5249  Y6.8802  
G01 X0.5203  Y6.8847  
G01 X0.5150  Y6.8882  
G01 X0.5091  Y6.8907  
G01 X0.5028  Y6.8919  
G01 X0.4964  Y6.8919  
G01 X0.4901  Y6.8907  
G01 X0.4842  Y6.8882  
G01 X0.4789  Y6.8847  
G01 X0.4744  Y6.8802  
G01 X0.4708  Y6.8748  
G01 X0.4684  Y6.8689  
G01 X0.4671  Y6.8626  
G01 X0.4671  Y6.8562  
G01 X0.4684  Y6.8500  
G01 X0.4708  Y6.8441  
G01 X0.4744  Y6.8387  
G01 X0.4789  Y6.8342  
G01 X0.4842  Y6.8306  
G01 X0.4901  Y6.8282  
G01 X0.4964  Y6.8269  
G01 X0.5028  Y6.8269  
G01 X0.5091  Y6.8282  
G01 X0.5150  Y6.8306  
G01 X0.5203  Y6.8342  
G01 X0.5249  Y6.8387  
G01 X0.5284  Y6.8441  
G01 X0.5309  Y6.8500  
G01 X0.5321  Y6.8562  
G00 Z0.1000  
G00 X1.7716  Y6.8554  
G01 Z-0.0070 F10    
G01 X1.7716  Y6.8635  F20    
G01 X1.7704  Y6.8716  
G01 X1.7678  Y6.8793  
G01 X1.7641  Y6.8866  
G01 X1.7594  Y6.8932  
G01 X1.7536  Y6.8989  
G01 X1.7470  Y6.9037  
G01 X1.7397  Y6.9074  
G01 X1.7320  Y6.9099  
G01 X1.7240  Y6.9112  
G01 X1.7158  Y6.9112  
G01 X1.7078  Y6.9099  
G01 X1.7000  Y6.9074  
G01 X1.6928  Y6.9037  
G01 X1.6862  Y6.8989  
G01 X1.6804  Y6.8932  
G01 X1.6756  Y6.8866  
G01 X1.6719  Y6.8793  
G01 X1.6694  Y6.8716  
G01 X1.6681  Y6.8635  
G01 X1.6681  Y6.8554  
G01 X1.6694  Y6.8473  
G01 X1.6719  Y6.8396  
G01 X1.6756  Y6.8323  
G01 X1.6804  Y6.8257  
G01 X1.6862  Y6.8200  
G01 X1.6928  Y6.8152  
G01 X1.7000  Y6.8115  
G01 X1.7078  Y6.8090  
G01 X1.7158  Y6.8077  
G01 X1.7240  Y6.8077  
G01 X1.7320  Y6.8090  
G01 X1.7397  Y6.8115  
G01 X1.7470  Y6.8152  
G01 X1.7536  Y6.8200  
G01 X1.7594  Y6.8257  
G01 X1.7641  Y6.8323  
G01 X1.7678  Y6.8396  
G01 X1.7704  Y6.8473  
G01 X1.7716  Y6.8554  
G00 Z0.1000  
G00 X1.1319  Y6.8554  
G01 Z-0.0070 F10    
G01 X1.1319  Y6.8635  F20    
G01 X1.1306  Y6.8716  
G01 X1.1281  Y6.8793  
G01 X1.1244  Y6.8866  
G01 X1.1196  Y6.8932  
G01 X1.1138  Y6.8989  
G01 X1.1072  Y6.9037  
G01 X1.1000  Y6.9074  
G01 X1.0922  Y6.9099  
G01 X1.0842  Y6.9112  
G01 X1.0760  Y6.9112  
G01 X1.0680  Y6.9099  
G01 X1.0603  Y6.9074  
G01 X1.0530  Y6.9037  
G01 X1.0464  Y6.8989  
G01 X1.0406  Y6.8932  
G01 X1.0359  Y6.8866  
G01 X1.0322  Y6.8793  
G01 X1.0296  Y6.8716  
G01 X1.0284  Y6.8635  
G01 X1.0284  Y6.8554  
G01 X1.0296  Y6.8473  
G01 X1.0322  Y6.8396  
G01 X1.0359  Y6.8323  
G01 X1.0406  Y6.8257  
G01 X1.0464  Y6.8200  
G01 X1.0530  Y6.8152  
G01 X1.0603  Y6.8115  
G01 X1.0680  Y6.8090  
G01 X1.0760  Y6.8077  
G01 X1.0842  Y6.8077  
G01 X1.0922  Y6.8090  
G01 X1.1000  Y6.8115  
G01 X1.1072  Y6.8152  
G01 X1.1138  Y6.8200  
G01 X1.1196  Y6.8257  
G01 X1.1244  Y6.8323  
G01 X1.1281  Y6.8396  
G01 X1.1306  Y6.8473  
G01 X1.1319  Y6.8554  
G00 Z0.1000  
G00 X1.5731  Y6.8562  
G01 Z-0.0070 F10    
G01 X1.5731  Y6.8626  F20    
G01 X1.5718  Y6.8689  
G01 X1.5694  Y6.8748  
G01 X1.5658  Y6.8802  
G01 X1.5613  Y6.8847  
G01 X1.5559  Y6.8882  
G01 X1.5500  Y6.8907  
G01 X1.5438  Y6.8919  
G01 X1.5374  Y6.8919  
G01 X1.5311  Y6.8907  
G01 X1.5252  Y6.8882  
G01 X1.5198  Y6.8847  
G01 X1.5153  Y6.8802  
G01 X1.5117  Y6.8748  
G01 X1.5093  Y6.8689  
G01 X1.5081  Y6.8626  
G01 X1.5081  Y6.8562  
G01 X1.5093  Y6.8500  
G01 X1.5117  Y6.8441  
G01 X1.5153  Y6.8387  
G01 X1.5198  Y6.8342  
G01 X1.5252  Y6.8306  
G01 X1.5311  Y6.8282  
G01 X1.5374  Y6.8269  
G01 X1.5438  Y6.8269  
G01 X1.5500  Y6.8282  
G01 X1.5559  Y6.8306  
G01 X1.5613  Y6.8342  
G01 X1.5658  Y6.8387  
G01 X1.5694  Y6.8441  
G01 X1.5718  Y6.8500  
G01 X1.5731  Y6.8562  
G00 Z0.1000  
G00 X1.5329  Y6.9562  
G01 Z-0.0070 F10    
G01 X1.5329  Y6.9626  F20    
G01 X1.5316  Y6.9689  
G01 X1.5292  Y6.9748  
G01 X1.5256  Y6.9802  
G01 X1.5211  Y6.9847  
G01 X1.5158  Y6.9882  
G01 X1.5099  Y6.9907  
G01 X1.5036  Y6.9919  
G01 X1.4972  Y6.9919  
G01 X1.4909  Y6.9907  
G01 X1.4850  Y6.9882  
G01 X1.4797  Y6.9847  
G01 X1.4751  Y6.9802  
G01 X1.4716  Y6.9748  
G01 X1.4691  Y6.9689  
G01 X1.4679  Y6.9626  
G01 X1.4679  Y6.9562  
G01 X1.4691  Y6.9500  
G01 X1.4716  Y6.9441  
G01 X1.4751  Y6.9387  
G01 X1.4797  Y6.9342  
G01 X1.4850  Y6.9306  
G01 X1.4909  Y6.9282  
G01 X1.4972  Y6.9269  
G01 X1.5036  Y6.9269  
G01 X1.5099  Y6.9282  
G01 X1.5158  Y6.9306  
G01 X1.5211  Y6.9342  
G01 X1.5256  Y6.9387  
G01 X1.5292  Y6.9441  
G01 X1.5316  Y6.9500  
G01 X1.5329  Y6.9562  
G00 Z0.1000  
G00 X1.4927  Y6.8562  
G01 Z-0.0070 F10    
G01 X1.4927  Y6.8626  F20    
G01 X1.4915  Y6.8689  
G01 X1.4890  Y6.8748  
G01 X1.4855  Y6.8802  
G01 X1.4810  Y6.8847  
G01 X1.4756  Y6.8882  
G01 X1.4697  Y6.8907  
G01 X1.4634  Y6.8919  
G01 X1.4570  Y6.8919  
G01 X1.4508  Y6.8907  
G01 X1.4448  Y6.8882  
G01 X1.4395  Y6.8847  
G01 X1.4350  Y6.8802  
G01 X1.4314  Y6.8748  
G01 X1.4290  Y6.8689  
G01 X1.4277  Y6.8626  
G01 X1.4277  Y6.8562  
G01 X1.4290  Y6.8500  
G01 X1.4314  Y6.8441  
G01 X1.4350  Y6.8387  
G01 X1.4395  Y6.8342  
G01 X1.4448  Y6.8306  
G01 X1.4508  Y6.8282  
G01 X1.4570  Y6.8269  
G01 X1.4634  Y6.8269  
G01 X1.4697  Y6.8282  
G01 X1.4756  Y6.8306  
G01 X1.4810  Y6.8342  
G01 X1.4855  Y6.8387  
G01 X1.4890  Y6.8441  
G01 X1.4915  Y6.8500  
G01 X1.4927  Y6.8562  
G00 Z0.1000  
G00 X1.4526  Y6.9562  
G01 Z-0.0070 F10    
G01 X1.4526  Y6.9626  F20    
G01 X1.4513  Y6.9689  
G01 X1.4489  Y6.9748  
G01 X1.4453  Y6.9802  
G01 X1.4445  Y6.9810  
G01 X1.5039  Y7.0405  
G01 X1.5405  Y7.0405  
G01 X1.5405  Y6.9481  
G01 X1.5419  Y6.9446  
G01 X1.6405  Y6.8461  
G01 X1.6405  Y3.7726  
G01 X1.6384  Y3.7717  
G01 X1.6344  Y3.7690  
G01 X1.6310  Y3.7656  
G01 X1.6283  Y3.7616  
G01 X1.6264  Y3.7571  
G01 X1.6255  Y3.7524  
G01 X1.6255  Y3.7476  
G01 X1.6264  Y3.7429  
G01 X1.6283  Y3.7384  
G01 X1.6310  Y3.7344  
G01 X1.6344  Y3.7310  
G01 X1.6384  Y3.7283  
G01 X1.6429  Y3.7264  
G01 X1.6476  Y3.7255  
G01 X1.6524  Y3.7255  
G01 X1.6571  Y3.7264  
G01 X1.6616  Y3.7283  
G01 X1.6656  Y3.7310  
G01 X1.6690  Y3.7344  
G01 X1.6717  Y3.7384  
G01 X1.6736  Y3.7429  
G01 X1.6745  Y3.7476  
G01 X1.6745  Y3.7524  
G01 X1.6736  Y3.7571  
G01 X1.6717  Y3.7616  
G01 X1.6690  Y3.7656  
G01 X1.6656  Y3.7690  
G01 X1.6616  Y3.7717  
G01 X1.6595  Y3.7726  
G01 X1.6595  Y6.8519  
G01 X1.6581  Y6.8554  
G01 X1.6554  Y6.8581  
G01 X1.5595  Y6.9539  
G01 X1.5595  Y7.0519  
G01 X1.5581  Y7.0554  
G01 X1.5554  Y7.0581  
G01 X1.5519  Y7.0595  
G01 X1.4981  Y7.0595  
G01 X1.4946  Y7.0581  
G01 X1.4919  Y7.0554  
G01 X1.4276  Y6.9911  
G01 X1.4233  Y6.9919  
G01 X1.4169  Y6.9919  
G01 X1.4106  Y6.9907  
G01 X1.4047  Y6.9882  
G01 X1.3994  Y6.9847  
G01 X1.3948  Y6.9802  
G01 X1.3913  Y6.9748  
G01 X1.3888  Y6.9689  
G01 X1.3876  Y6.9626  
G01 X1.3876  Y6.9562  
G01 X1.3888  Y6.9500  
G01 X1.3913  Y6.9441  
G01 X1.3948  Y6.9387  
G01 X1.3994  Y6.9342  
G01 X1.4047  Y6.9306  
G01 X1.4106  Y6.9282  
G01 X1.4169  Y6.9269  
G01 X1.4233  Y6.9269  
G01 X1.4296  Y6.9282  
G01 X1.4355  Y6.9306  
G01 X1.4408  Y6.9342  
G01 X1.4453  Y6.9387  
G01 X1.4489  Y6.9441  
G01 X1.4513  Y6.9500  
G01 X1.4526  Y6.9562  
G00 Z0.1000  
G00 X1.4124  Y6.8562  
G01 Z-0.0070 F10    
G01 X1.4124  Y6.8626  F20    
G01 X1.4112  Y6.8689  
G01 X1.4087  Y6.8748  
G01 X1.4052  Y6.8802  
G01 X1.4006  Y6.8847  
G01 X1.3953  Y6.8882  
G01 X1.3894  Y6.8907  
G01 X1.3831  Y6.8919  
G01 X1.3767  Y6.8919  
G01 X1.3704  Y6.8907  
G01 X1.3645  Y6.8882  
G01 X1.3592  Y6.8847  
G01 X1.3547  Y6.8802  
G01 X1.3511  Y6.8748  
G01 X1.3487  Y6.8689  
G01 X1.3474  Y6.8626  
G01 X1.3474  Y6.8562  
G01 X1.3487  Y6.8500  
G01 X1.3511  Y6.8441  
G01 X1.3547  Y6.8387  
G01 X1.3592  Y6.8342  
G01 X1.3645  Y6.8306  
G01 X1.3704  Y6.8282  
G01 X1.3767  Y6.8269  
G01 X1.3831  Y6.8269  
G01 X1.3894  Y6.8282  
G01 X1.3953  Y6.8306  
G01 X1.4006  Y6.8342  
G01 X1.4015  Y6.8351  
G01 X1.5905  Y6.6461  
G01 X1.5905  Y3.0226  
G01 X1.5884  Y3.0217  
G01 X1.5844  Y3.0190  
G01 X1.5810  Y3.0156  
G01 X1.5783  Y3.0116  
G01 X1.5764  Y3.0071  
G01 X1.5755  Y3.0024  
G01 X1.5755  Y2.9976  
G01 X1.5764  Y2.9929  
G01 X1.5783  Y2.9884  
G01 X1.5810  Y2.9844  
G01 X1.5844  Y2.9810  
G01 X1.5884  Y2.9783  
G01 X1.5929  Y2.9764  
G01 X1.5976  Y2.9755  
G01 X1.6024  Y2.9755  
G01 X1.6071  Y2.9764  
G01 X1.6116  Y2.9783  
G01 X1.6156  Y2.9810  
G01 X1.6190  Y2.9844  
G01 X1.6217  Y2.9884  
G01 X1.6236  Y2.9929  
G01 X1.6245  Y2.9976  
G01 X1.6245  Y3.0024  
G01 X1.6236  Y3.0071  
G01 X1.6217  Y3.0116  
G01 X1.6190  Y3.0156  
G01 X1.6156  Y3.0190  
G01 X1.6116  Y3.0217  
G01 X1.6095  Y3.0226  
G01 X1.6095  Y6.6519  
G01 X1.6081  Y6.6554  
G01 X1.6054  Y6.6581  
G01 X1.4116  Y6.8519  
G01 X1.4124  Y6.8562  
G00 Z0.1000  
G00 X1.3723  Y6.9562  
G01 Z-0.0070 F10    
G01 X1.3723  Y6.9626  F20    
G01 X1.3710  Y6.9689  
G01 X1.3686  Y6.9748  
G01 X1.3650  Y6.9802  
G01 X1.3605  Y6.9847  
G01 X1.3595  Y6.9853  
G01 X1.3595  Y6.9961  
G01 X1.5039  Y7.1405  
G01 X1.8405  Y7.1405  
G01 X1.8405  Y2.1226  
G01 X1.8384  Y2.1217  
G01 X1.8344  Y2.1190  
G01 X1.8310  Y2.1156  
G01 X1.8283  Y2.1116  
G01 X1.8264  Y2.1071  
G01 X1.8255  Y2.1024  
G01 X1.8255  Y2.0976  
G01 X1.8264  Y2.0929  
G01 X1.8283  Y2.0884  
G01 X1.8310  Y2.0844  
G01 X1.8344  Y2.0810  
G01 X1.8384  Y2.0783  
G01 X1.8429  Y2.0764  
G01 X1.8476  Y2.0755  
G01 X1.8524  Y2.0755  
G01 X1.8571  Y2.0764  
G01 X1.8616  Y2.0783  
G01 X1.8656  Y2.0810  
G01 X1.8690  Y2.0844  
G01 X1.8717  Y2.0884  
G01 X1.8736  Y2.0929  
G01 X1.8745  Y2.0976  
G01 X1.8745  Y2.1024  
G01 X1.8736  Y2.1071  
G01 X1.8717  Y2.1116  
G01 X1.8690  Y2.1156  
G01 X1.8656  Y2.1190  
G01 X1.8616  Y2.1217  
G01 X1.8595  Y2.1226  
G01 X1.8595  Y7.1519  
G01 X1.8581  Y7.1554  
G01 X1.8554  Y7.1581  
G01 X1.8519  Y7.1595  
G01 X1.4981  Y7.1595  
G01 X1.4946  Y7.1581  
G01 X1.4919  Y7.1554  
G01 X1.3419  Y7.0054  
G01 X1.3405  Y7.0019  
G01 X1.3405  Y6.9919  
G01 X1.3366  Y6.9919  
G01 X1.3303  Y6.9907  
G01 X1.3244  Y6.9882  
G01 X1.3190  Y6.9847  
G01 X1.3145  Y6.9802  
G01 X1.3110  Y6.9748  
G01 X1.3085  Y6.9689  
G01 X1.3073  Y6.9626  
G01 X1.3073  Y6.9562  
G01 X1.3085  Y6.9500  
G01 X1.3110  Y6.9441  
G01 X1.3145  Y6.9387  
G01 X1.3190  Y6.9342  
G01 X1.3244  Y6.9306  
G01 X1.3303  Y6.9282  
G01 X1.3366  Y6.9269  
G01 X1.3430  Y6.9269  
G01 X1.3492  Y6.9282  
G01 X1.3552  Y6.9306  
G01 X1.3605  Y6.9342  
G01 X1.3650  Y6.9387  
G01 X1.3686  Y6.9441  
G01 X1.3710  Y6.9500  
G01 X1.3723  Y6.9562  
G00 Z0.1000  
G00 X1.2274  Y2.5785  
G01 Z-0.0070 F10    
G01 X1.1426  Y2.5785  F20    
G01 X1.1358  Y2.5774  
G01 X1.1293  Y2.5753  
G01 X1.1232  Y2.5722  
G01 X1.1177  Y2.5682  
G01 X1.1128  Y2.5633  
G01 X1.1088  Y2.5578  
G01 X1.1057  Y2.5517  
G01 X1.1036  Y2.5452  
G01 X1.1025  Y2.5384  
G01 X1.1025  Y2.5316  
G01 X1.1036  Y2.5248  
G01 X1.1057  Y2.5183  
G01 X1.1088  Y2.5122  
G01 X1.1128  Y2.5067  
G01 X1.1177  Y2.5018  
G01 X1.1232  Y2.4978  
G01 X1.1293  Y2.4947  
G01 X1.1358  Y2.4926  
G01 X1.1426  Y2.4915  
G01 X1.2274  Y2.4915  
G01 X1.2342  Y2.4926  
G01 X1.2407  Y2.4947  
G01 X1.2468  Y2.4978  
G01 X1.2523  Y2.5018  
G01 X1.2572  Y2.5067  
G01 X1.2612  Y2.5122  
G01 X1.2643  Y2.5183  
G01 X1.2664  Y2.5248  
G01 X1.2675  Y2.5316  
G01 X1.2675  Y2.5384  
G01 X1.2664  Y2.5452  
G01 X1.2643  Y2.5517  
G01 X1.2612  Y2.5578  
G01 X1.2572  Y2.5633  
G01 X1.2523  Y2.5682  
G01 X1.2468  Y2.5722  
G01 X1.2407  Y2.5753  
G01 X1.2342  Y2.5774  
G01 X1.2274  Y2.5785  
G00 Z0.1000  
G00 X0.7474  Y2.1085  
G01 Z-0.0070 F10    
G01 X0.6626  Y2.1085  F20    
G01 X0.6558  Y2.1074  
G01 X0.6493  Y2.1053  
G01 X0.6432  Y2.1022  
G01 X0.6377  Y2.0982  
G01 X0.6328  Y2.0933  
G01 X0.6288  Y2.0878  
G01 X0.6257  Y2.0817  
G01 X0.6236  Y2.0752  
G01 X0.6225  Y2.0684  
G01 X0.6225  Y2.0616  
G01 X0.6236  Y2.0548  
G01 X0.6257  Y2.0483  
G01 X0.6288  Y2.0422  
G01 X0.6328  Y2.0367  
G01 X0.6377  Y2.0318  
G01 X0.6432  Y2.0278  
G01 X0.6493  Y2.0247  
G01 X0.6558  Y2.0226  
G01 X0.6626  Y2.0215  
G01 X0.7474  Y2.0215  
G01 X0.7542  Y2.0226  
G01 X0.7607  Y2.0247  
G01 X0.7668  Y2.0278  
G01 X0.7723  Y2.0318  
G01 X0.7772  Y2.0367  
G01 X0.7812  Y2.0422  
G01 X0.7843  Y2.0483  
G01 X0.7864  Y2.0548  
G01 X0.7875  Y2.0616  
G01 X0.7875  Y2.0684  
G01 X0.7864  Y2.0752  
G01 X0.7843  Y2.0817  
G01 X0.7812  Y2.0878  
G01 X0.7772  Y2.0933  
G01 X0.7723  Y2.0982  
G01 X0.7668  Y2.1022  
G01 X0.7607  Y2.1053  
G01 X0.7542  Y2.1074  
G01 X0.7474  Y2.1085  
G00 Z0.1000  
G00 X0.6674  Y2.3435  
G01 Z-0.0070 F10    
G01 X0.5826  Y2.3435  F20    
G01 X0.5758  Y2.3424  
G01 X0.5693  Y2.3403  
G01 X0.5632  Y2.3372  
G01 X0.5577  Y2.3332  
G01 X0.5528  Y2.3283  
G01 X0.5488  Y2.3228  
G01 X0.5457  Y2.3167  
G01 X0.5436  Y2.3102  
G01 X0.5425  Y2.3034  
G01 X0.5425  Y2.2966  
G01 X0.5436  Y2.2898  
G01 X0.5457  Y2.2833  
G01 X0.5488  Y2.2772  
G01 X0.5528  Y2.2717  
G01 X0.5577  Y2.2668  
G01 X0.5632  Y2.2628  
G01 X0.5693  Y2.2597  
G01 X0.5758  Y2.2576  
G01 X0.5826  Y2.2565  
G01 X0.6674  Y2.2565  
G01 X0.6742  Y2.2576  
G01 X0.6807  Y2.2597  
G01 X0.6868  Y2.2628  
G01 X0.6923  Y2.2668  
G01 X0.6972  Y2.2717  
G01 X0.7012  Y2.2772  
G01 X0.7043  Y2.2833  
G01 X0.7064  Y2.2898  
G01 X0.7075  Y2.2966  
G01 X0.7075  Y2.3034  
G01 X0.7064  Y2.3102  
G01 X0.7043  Y2.3167  
G01 X0.7012  Y2.3228  
G01 X0.6972  Y2.3283  
G01 X0.6923  Y2.3332  
G01 X0.6868  Y2.3372  
G01 X0.6807  Y2.3403  
G01 X0.6742  Y2.3424  
G01 X0.6674  Y2.3435  
G00 Z0.1000  
G00 X1.2274  Y3.3285  
G01 Z-0.0070 F10    
G01 X1.1426  Y3.3285  F20    
G01 X1.1358  Y3.3274  
G01 X1.1293  Y3.3253  
G01 X1.1232  Y3.3222  
G01 X1.1177  Y3.3182  
G01 X1.1128  Y3.3133  
G01 X1.1088  Y3.3078  
G01 X1.1057  Y3.3017  
G01 X1.1036  Y3.2952  
G01 X1.1025  Y3.2884  
G01 X1.1025  Y3.2816  
G01 X1.1036  Y3.2748  
G01 X1.1057  Y3.2683  
G01 X1.1088  Y3.2622  
G01 X1.1128  Y3.2567  
G01 X1.1177  Y3.2518  
G01 X1.1232  Y3.2478  
G01 X1.1293  Y3.2447  
G01 X1.1358  Y3.2426  
G01 X1.1426  Y3.2415  
G01 X1.2274  Y3.2415  
G01 X1.2342  Y3.2426  
G01 X1.2407  Y3.2447  
G01 X1.2468  Y3.2478  
G01 X1.2523  Y3.2518  
G01 X1.2572  Y3.2567  
G01 X1.2612  Y3.2622  
G01 X1.2643  Y3.2683  
G01 X1.2664  Y3.2748  
G01 X1.2675  Y3.2816  
G01 X1.2675  Y3.2884  
G01 X1.2664  Y3.2952  
G01 X1.2643  Y3.3017  
G01 X1.2612  Y3.3078  
G01 X1.2572  Y3.3133  
G01 X1.2523  Y3.3182  
G01 X1.2468  Y3.3222  
G01 X1.2407  Y3.3253  
G01 X1.2342  Y3.3274  
G01 X1.2274  Y3.3285  
G00 Z0.1000  
G00 X0.6674  Y3.0935  
G01 Z-0.0070 F10    
G01 X0.5826  Y3.0935  F20    
G01 X0.5758  Y3.0924  
G01 X0.5693  Y3.0903  
G01 X0.5632  Y3.0872  
G01 X0.5577  Y3.0832  
G01 X0.5528  Y3.0783  
G01 X0.5488  Y3.0728  
G01 X0.5457  Y3.0667  
G01 X0.5436  Y3.0602  
G01 X0.5425  Y3.0534  
G01 X0.5425  Y3.0466  
G01 X0.5436  Y3.0398  
G01 X0.5457  Y3.0333  
G01 X0.5488  Y3.0272  
G01 X0.5528  Y3.0217  
G01 X0.5577  Y3.0168  
G01 X0.5632  Y3.0128  
G01 X0.5693  Y3.0097  
G01 X0.5758  Y3.0076  
G01 X0.5826  Y3.0065  
G01 X0.6674  Y3.0065  
G01 X0.6742  Y3.0076  
G01 X0.6807  Y3.0097  
G01 X0.6868  Y3.0128  
G01 X0.6923  Y3.0168  
G01 X0.6972  Y3.0217  
G01 X0.7012  Y3.0272  
G01 X0.7043  Y3.0333  
G01 X0.7064  Y3.0398  
G01 X0.7075  Y3.0466  
G01 X0.7075  Y3.0534  
G01 X0.7064  Y3.0602  
G01 X0.7043  Y3.0667  
G01 X0.7012  Y3.0728  
G01 X0.6972  Y3.0783  
G01 X0.6923  Y3.0832  
G01 X0.6868  Y3.0872  
G01 X0.6807  Y3.0903  
G01 X0.6742  Y3.0924  
G01 X0.6674  Y3.0935  
G00 Z0.1000  
G00 X1.2274  Y4.0785  
G01 Z-0.0070 F10    
G01 X1.1426  Y4.0785  F20    
G01 X1.1358  Y4.0774  
G01 X1.1293  Y4.0753  
G01 X1.1232  Y4.0722  
G01 X1.1177  Y4.0682  
G01 X1.1128  Y4.0633  
G01 X1.1088  Y4.0578  
G01 X1.1057  Y4.0517  
G01 X1.1036  Y4.0452  
G01 X1.1025  Y4.0384  
G01 X1.1025  Y4.0316  
G01 X1.1036  Y4.0248  
G01 X1.1057  Y4.0183  
G01 X1.1088  Y4.0122  
G01 X1.1128  Y4.0067  
G01 X1.1177  Y4.0018  
G01 X1.1232  Y3.9978  
G01 X1.1293  Y3.9947  
G01 X1.1358  Y3.9926  
G01 X1.1426  Y3.9915  
G01 X1.2274  Y3.9915  
G01 X1.2342  Y3.9926  
G01 X1.2407  Y3.9947  
G01 X1.2468  Y3.9978  
G01 X1.2523  Y4.0018  
G01 X1.2572  Y4.0067  
G01 X1.2612  Y4.0122  
G01 X1.2643  Y4.0183  
G01 X1.2664  Y4.0248  
G01 X1.2675  Y4.0316  
G01 X1.2675  Y4.0384  
G01 X1.2664  Y4.0452  
G01 X1.2643  Y4.0517  
G01 X1.2612  Y4.0578  
G01 X1.2572  Y4.0633  
G01 X1.2523  Y4.0682  
G01 X1.2468  Y4.0722  
G01 X1.2407  Y4.0753  
G01 X1.2342  Y4.0774  
G01 X1.2274  Y4.0785  
G00 Z0.1000  
G00 X0.7474  Y3.6085  
G01 Z-0.0070 F10    
G01 X0.6626  Y3.6085  F20    
G01 X0.6558  Y3.6074  
G01 X0.6493  Y3.6053  
G01 X0.6432  Y3.6022  
G01 X0.6377  Y3.5982  
G01 X0.6328  Y3.5933  
G01 X0.6288  Y3.5878  
G01 X0.6257  Y3.5817  
G01 X0.6236  Y3.5752  
G01 X0.6225  Y3.5684  
G01 X0.6225  Y3.5616  
G01 X0.6236  Y3.5548  
G01 X0.6257  Y3.5483  
G01 X0.6288  Y3.5422  
G01 X0.6328  Y3.5367  
G01 X0.6377  Y3.5318  
G01 X0.6432  Y3.5278  
G01 X0.6493  Y3.5247  
G01 X0.6558  Y3.5226  
G01 X0.6626  Y3.5215  
G01 X0.7474  Y3.5215  
G01 X0.7542  Y3.5226  
G01 X0.7607  Y3.5247  
G01 X0.7668  Y3.5278  
G01 X0.7723  Y3.5318  
G01 X0.7772  Y3.5367  
G01 X0.7812  Y3.5422  
G01 X0.7843  Y3.5483  
G01 X0.7864  Y3.5548  
G01 X0.7875  Y3.5616  
G01 X0.7875  Y3.5684  
G01 X0.7864  Y3.5752  
G01 X0.7843  Y3.5817  
G01 X0.7812  Y3.5878  
G01 X0.7772  Y3.5933  
G01 X0.7723  Y3.5982  
G01 X0.7668  Y3.6022  
G01 X0.7607  Y3.6053  
G01 X0.7542  Y3.6074  
G01 X0.7474  Y3.6085  
G00 Z0.1000  
G00 X0.6674  Y3.8435  
G01 Z-0.0070 F10    
G01 X0.5826  Y3.8435  F20    
G01 X0.5758  Y3.8424  
G01 X0.5693  Y3.8403  
G01 X0.5632  Y3.8372  
G01 X0.5577  Y3.8332  
G01 X0.5528  Y3.8283  
G01 X0.5488  Y3.8228  
G01 X0.5457  Y3.8167  
G01 X0.5436  Y3.8102  
G01 X0.5425  Y3.8034  
G01 X0.5425  Y3.7966  
G01 X0.5436  Y3.7898  
G01 X0.5457  Y3.7833  
G01 X0.5488  Y3.7772  
G01 X0.5528  Y3.7717  
G01 X0.5555  Y3.7690  
G01 X0.4919  Y3.7054  
G01 X0.4905  Y3.7019  
G01 X0.4905  Y0.8981  
G01 X0.4919  Y0.8946  
G01 X0.4946  Y0.8919  
G01 X0.5555  Y0.8310  
G01 X0.5528  Y0.8283  
G01 X0.5488  Y0.8228  
G01 X0.5457  Y0.8167  
G01 X0.5436  Y0.8102  
G01 X0.5425  Y0.8034  
G01 X0.5425  Y0.7966  
G01 X0.5436  Y0.7898  
G01 X0.5457  Y0.7833  
G01 X0.5488  Y0.7772  
G01 X0.5528  Y0.7717  
G01 X0.5577  Y0.7668  
G01 X0.5632  Y0.7628  
G01 X0.5693  Y0.7597  
G01 X0.5758  Y0.7576  
G01 X0.5826  Y0.7565  
G01 X0.6674  Y0.7565  
G01 X0.6742  Y0.7576  
G01 X0.6807  Y0.7597  
G01 X0.6868  Y0.7628  
G01 X0.6923  Y0.7668  
G01 X0.6972  Y0.7717  
G01 X0.7012  Y0.7772  
G01 X0.7043  Y0.7833  
G01 X0.7064  Y0.7898  
G01 X0.7075  Y0.7966  
G01 X0.7075  Y0.8034  
G01 X0.7064  Y0.8102  
G01 X0.7043  Y0.8167  
G01 X0.7012  Y0.8228  
G01 X0.6972  Y0.8283  
G01 X0.6923  Y0.8332  
G01 X0.6868  Y0.8372  
G01 X0.6807  Y0.8403  
G01 X0.6742  Y0.8424  
G01 X0.6674  Y0.8435  
G01 X0.5826  Y0.8435  
G01 X0.5758  Y0.8424  
G01 X0.5722  Y0.8412  
G01 X0.5095  Y0.9039  
G01 X0.5095  Y3.6961  
G01 X0.5722  Y3.7588  
G01 X0.5758  Y3.7576  
G01 X0.5826  Y3.7565  
G01 X0.6674  Y3.7565  
G01 X0.6742  Y3.7576  
G01 X0.6807  Y3.7597  
G01 X0.6868  Y3.7628  
G01 X0.6923  Y3.7668  
G01 X0.6972  Y3.7717  
G01 X0.7012  Y3.7772  
G01 X0.7043  Y3.7833  
G01 X0.7064  Y3.7898  
G01 X0.7075  Y3.7966  
G01 X0.7075  Y3.8034  
G01 X0.7064  Y3.8102  
G01 X0.7043  Y3.8167  
G01 X0.7012  Y3.8228  
G01 X0.6972  Y3.8283  
G01 X0.6923  Y3.8332  
G01 X0.6868  Y3.8372  
G01 X0.6807  Y3.8403  
G01 X0.6742  Y3.8424  
G01 X0.6674  Y3.8435  
G00 Z0.1000  
G00 X1.2274  Y4.8285  
G01 Z-0.0070 F10    
G01 X1.1426  Y4.8285  F20    
G01 X1.1358  Y4.8274  
G01 X1.1293  Y4.8253  
G01 X1.1232  Y4.8222  
G01 X1.1177  Y4.8182  
G01 X1.1128  Y4.8133  
G01 X1.1088  Y4.8078  
G01 X1.1057  Y4.8017  
G01 X1.1036  Y4.7952  
G01 X1.1025  Y4.7884  
G01 X1.1025  Y4.7816  
G01 X1.1036  Y4.7748  
G01 X1.1057  Y4.7683  
G01 X1.1088  Y4.7622  
G01 X1.1128  Y4.7567  
G01 X1.1177  Y4.7518  
G01 X1.1232  Y4.7478  
G01 X1.1293  Y4.7447  
G01 X1.1358  Y4.7426  
G01 X1.1426  Y4.7415  
G01 X1.2274  Y4.7415  
G01 X1.2342  Y4.7426  
G01 X1.2407  Y4.7447  
G01 X1.2468  Y4.7478  
G01 X1.2523  Y4.7518  
G01 X1.2572  Y4.7567  
G01 X1.2612  Y4.7622  
G01 X1.2643  Y4.7683  
G01 X1.2664  Y4.7748  
G01 X1.2675  Y4.7816  
G01 X1.2675  Y4.7884  
G01 X1.2664  Y4.7952  
G01 X1.2643  Y4.8017  
G01 X1.2612  Y4.8078  
G01 X1.2572  Y4.8133  
G01 X1.2523  Y4.8182  
G01 X1.2468  Y4.8222  
G01 X1.2407  Y4.8253  
G01 X1.2342  Y4.8274  
G01 X1.2274  Y4.8285  
G00 Z0.1000  
G00 X0.6674  Y4.5935  
G01 Z-0.0070 F10    
G01 X0.5826  Y4.5935  F20    
G01 X0.5758  Y4.5924  
G01 X0.5693  Y4.5903  
G01 X0.5632  Y4.5872  
G01 X0.5577  Y4.5832  
G01 X0.5528  Y4.5783  
G01 X0.5488  Y4.5728  
G01 X0.5457  Y4.5667  
G01 X0.5436  Y4.5602  
G01 X0.5425  Y4.5534  
G01 X0.5425  Y4.5466  
G01 X0.5436  Y4.5398  
G01 X0.5457  Y4.5333  
G01 X0.5488  Y4.5272  
G01 X0.5528  Y4.5217  
G01 X0.5577  Y4.5168  
G01 X0.5632  Y4.5128  
G01 X0.5693  Y4.5097  
G01 X0.5758  Y4.5076  
G01 X0.5826  Y4.5065  
G01 X0.6674  Y4.5065  
G01 X0.6742  Y4.5076  
G01 X0.6807  Y4.5097  
G01 X0.6868  Y4.5128  
G01 X0.6923  Y4.5168  
G01 X0.6972  Y4.5217  
G01 X0.7012  Y4.5272  
G01 X0.7043  Y4.5333  
G01 X0.7064  Y4.5398  
G01 X0.7075  Y4.5466  
G01 X0.7075  Y4.5534  
G01 X0.7064  Y4.5602  
G01 X0.7043  Y4.5667  
G01 X0.7012  Y4.5728  
G01 X0.6972  Y4.5783  
G01 X0.6923  Y4.5832  
G01 X0.6868  Y4.5872  
G01 X0.6807  Y4.5903  
G01 X0.6742  Y4.5924  
G01 X0.6674  Y4.5935  
G00 Z0.1000  
G00 X1.2274  Y5.5785  
G01 Z-0.0070 F10    
G01 X1.1426  Y5.5785  F20    
G01 X1.1358  Y5.5774  
G01 X1.1293  Y5.5753  
G01 X1.1232  Y5.5722  
G01 X1.1177  Y5.5682  
G01 X1.1128  Y5.5633  
G01 X1.1088  Y5.5578  
G01 X1.1057  Y5.5517  
G01 X1.1036  Y5.5452  
G01 X1.1025  Y5.5384  
G01 X1.1025  Y5.5316  
G01 X1.1036  Y5.5248  
G01 X1.1057  Y5.5183  
G01 X1.1088  Y5.5122  
G01 X1.1128  Y5.5067  
G01 X1.1177  Y5.5018  
G01 X1.1232  Y5.4978  
G01 X1.1293  Y5.4947  
G01 X1.1358  Y5.4926  
G01 X1.1426  Y5.4915  
G01 X1.2274  Y5.4915  
G01 X1.2342  Y5.4926  
G01 X1.2407  Y5.4947  
G01 X1.2468  Y5.4978  
G01 X1.2523  Y5.5018  
G01 X1.2572  Y5.5067  
G01 X1.2612  Y5.5122  
G01 X1.2643  Y5.5183  
G01 X1.2664  Y5.5248  
G01 X1.2675  Y5.5316  
G01 X1.2675  Y5.5384  
G01 X1.2664  Y5.5452  
G01 X1.2643  Y5.5517  
G01 X1.2612  Y5.5578  
G01 X1.2572  Y5.5633  
G01 X1.2523  Y5.5682  
G01 X1.2468  Y5.5722  
G01 X1.2407  Y5.5753  
G01 X1.2342  Y5.5774  
G01 X1.2274  Y5.5785  
G00 Z0.1000  
G00 X0.7474  Y5.5785  
G01 Z-0.0070 F10    
G01 X0.6626  Y5.5785  F20    
G01 X0.6558  Y5.5774  
G01 X0.6493  Y5.5753  
G01 X0.6432  Y5.5722  
G01 X0.6377  Y5.5682  
G01 X0.6328  Y5.5633  
G01 X0.6288  Y5.5578  
G01 X0.6257  Y5.5517  
G01 X0.6236  Y5.5452  
G01 X0.6225  Y5.5384  
G01 X0.6225  Y5.5316  
G01 X0.6236  Y5.5248  
G01 X0.6257  Y5.5183  
G01 X0.6288  Y5.5122  
G01 X0.6328  Y5.5067  
G01 X0.6377  Y5.5018  
G01 X0.6432  Y5.4978  
G01 X0.6493  Y5.4947  
G01 X0.6558  Y5.4926  
G01 X0.6626  Y5.4915  
G01 X0.7451  Y5.4915  
G01 X0.7905  Y5.4461  
G01 X0.7905  Y4.7229  
G01 X0.7660  Y4.7474  
G01 X0.7668  Y4.7478  
G01 X0.7723  Y4.7518  
G01 X0.7772  Y4.7567  
G01 X0.7812  Y4.7622  
G01 X0.7843  Y4.7683  
G01 X0.7864  Y4.7748  
G01 X0.7875  Y4.7816  
G01 X0.7875  Y4.7884  
G01 X0.7864  Y4.7952  
G01 X0.7843  Y4.8017  
G01 X0.7812  Y4.8078  
G01 X0.7772  Y4.8133  
G01 X0.7723  Y4.8182  
G01 X0.7668  Y4.8222  
G01 X0.7607  Y4.8253  
G01 X0.7542  Y4.8274  
G01 X0.7474  Y4.8285  
G01 X0.6626  Y4.8285  
G01 X0.6558  Y4.8274  
G01 X0.6493  Y4.8253  
G01 X0.6432  Y4.8222  
G01 X0.6377  Y4.8182  
G01 X0.6328  Y4.8133  
G01 X0.6288  Y4.8078  
G01 X0.6257  Y4.8017  
G01 X0.6236  Y4.7952  
G01 X0.6225  Y4.7884  
G01 X0.6225  Y4.7816  
G01 X0.6236  Y4.7748  
G01 X0.6257  Y4.7683  
G01 X0.6288  Y4.7622  
G01 X0.6328  Y4.7567  
G01 X0.6377  Y4.7518  
G01 X0.6432  Y4.7478  
G01 X0.6493  Y4.7447  
G01 X0.6558  Y4.7426  
G01 X0.6626  Y4.7415  
G01 X0.7451  Y4.7415  
G01 X0.7905  Y4.6961  
G01 X0.7905  Y3.9729  
G01 X0.7660  Y3.9974  
G01 X0.7668  Y3.9978  
G01 X0.7723  Y4.0018  
G01 X0.7772  Y4.0067  
G01 X0.7812  Y4.0122  
G01 X0.7843  Y4.0183  
G01 X0.7864  Y4.0248  
G01 X0.7875  Y4.0316  
G01 X0.7875  Y4.0384  
G01 X0.7864  Y4.0452  
G01 X0.7843  Y4.0517  
G01 X0.7812  Y4.0578  
G01 X0.7772  Y4.0633  
G01 X0.7723  Y4.0682  
G01 X0.7668  Y4.0722  
G01 X0.7607  Y4.0753  
G01 X0.7542  Y4.0774  
G01 X0.7474  Y4.0785  
G01 X0.6626  Y4.0785  
G01 X0.6558  Y4.0774  
G01 X0.6493  Y4.0753  
G01 X0.6432  Y4.0722  
G01 X0.6377  Y4.0682  
G01 X0.6328  Y4.0633  
G01 X0.6288  Y4.0578  
G01 X0.6257  Y4.0517  
G01 X0.6236  Y4.0452  
G01 X0.6225  Y4.0384  
G01 X0.6225  Y4.0316  
G01 X0.6236  Y4.0248  
G01 X0.6257  Y4.0183  
G01 X0.6288  Y4.0122  
G01 X0.6328  Y4.0067  
G01 X0.6377  Y4.0018  
G01 X0.6432  Y3.9978  
G01 X0.6493  Y3.9947  
G01 X0.6558  Y3.9926  
G01 X0.6626  Y3.9915  
G01 X0.7451  Y3.9915  
G01 X0.7905  Y3.9461  
G01 X0.7905  Y3.2229  
G01 X0.7660  Y3.2474  
G01 X0.7668  Y3.2478  
G01 X0.7723  Y3.2518  
G01 X0.7772  Y3.2567  
G01 X0.7812  Y3.2622  
G01 X0.7843  Y3.2683  
G01 X0.7864  Y3.2748  
G01 X0.7875  Y3.2816  
G01 X0.7875  Y3.2884  
G01 X0.7864  Y3.2952  
G01 X0.7843  Y3.3017  
G01 X0.7812  Y3.3078  
G01 X0.7772  Y3.3133  
G01 X0.7723  Y3.3182  
G01 X0.7668  Y3.3222  
G01 X0.7607  Y3.3253  
G01 X0.7542  Y3.3274  
G01 X0.7474  Y3.3285  
G01 X0.6626  Y3.3285  
G01 X0.6558  Y3.3274  
G01 X0.6493  Y3.3253  
G01 X0.6432  Y3.3222  
G01 X0.6377  Y3.3182  
G01 X0.6328  Y3.3133  
G01 X0.6288  Y3.3078  
G01 X0.6257  Y3.3017  
G01 X0.6236  Y3.2952  
G01 X0.6225  Y3.2884  
G01 X0.6225  Y3.2816  
G01 X0.6236  Y3.2748  
G01 X0.6257  Y3.2683  
G01 X0.6288  Y3.2622  
G01 X0.6328  Y3.2567  
G01 X0.6377  Y3.2518  
G01 X0.6432  Y3.2478  
G01 X0.6493  Y3.2447  
G01 X0.6558  Y3.2426  
G01 X0.6626  Y3.2415  
G01 X0.7451  Y3.2415  
G01 X0.7905  Y3.1961  
G01 X0.7905  Y2.4729  
G01 X0.7660  Y2.4974  
G01 X0.7668  Y2.4978  
G01 X0.7723  Y2.5018  
G01 X0.7772  Y2.5067  
G01 X0.7812  Y2.5122  
G01 X0.7843  Y2.5183  
G01 X0.7864  Y2.5248  
G01 X0.7875  Y2.5316  
G01 X0.7875  Y2.5384  
G01 X0.7864  Y2.5452  
G01 X0.7843  Y2.5517  
G01 X0.7812  Y2.5578  
G01 X0.7772  Y2.5633  
G01 X0.7723  Y2.5682  
G01 X0.7668  Y2.5722  
G01 X0.7607  Y2.5753  
G01 X0.7542  Y2.5774  
G01 X0.7474  Y2.5785  
G01 X0.6626  Y2.5785  
G01 X0.6558  Y2.5774  
G01 X0.6493  Y2.5753  
G01 X0.6432  Y2.5722  
G01 X0.6377  Y2.5682  
G01 X0.6328  Y2.5633  
G01 X0.6288  Y2.5578  
G01 X0.6257  Y2.5517  
G01 X0.6236  Y2.5452  
G01 X0.6225  Y2.5384  
G01 X0.6225  Y2.5316  
G01 X0.6236  Y2.5248  
G01 X0.6257  Y2.5183  
G01 X0.6288  Y2.5122  
G01 X0.6328  Y2.5067  
G01 X0.6377  Y2.5018  
G01 X0.6432  Y2.4978  
G01 X0.6493  Y2.4947  
G01 X0.6558  Y2.4926  
G01 X0.6626  Y2.4915  
G01 X0.7451  Y2.4915  
G01 X0.7905  Y2.4461  
G01 X0.7905  Y1.7229  
G01 X0.7660  Y1.7474  
G01 X0.7668  Y1.7478  
G01 X0.7723  Y1.7518  
G01 X0.7772  Y1.7567  
G01 X0.7812  Y1.7622  
G01 X0.7843  Y1.7683  
G01 X0.7864  Y1.7748  
G01 X0.7875  Y1.7816  
G01 X0.7875  Y1.7884  
G01 X0.7864  Y1.7952  
G01 X0.7843  Y1.8017  
G01 X0.7812  Y1.8078  
G01 X0.7772  Y1.8133  
G01 X0.7723  Y1.8182  
G01 X0.7668  Y1.8222  
G01 X0.7607  Y1.8253  
G01 X0.7542  Y1.8274  
G01 X0.7474  Y1.8285  
G01 X0.6626  Y1.8285  
G01 X0.6558  Y1.8274  
G01 X0.6493  Y1.8253  
G01 X0.6432  Y1.8222  
G01 X0.6377  Y1.8182  
G01 X0.6328  Y1.8133  
G01 X0.6288  Y1.8078  
G01 X0.6257  Y1.8017  
G01 X0.6236  Y1.7952  
G01 X0.6225  Y1.7884  
G01 X0.6225  Y1.7816  
G01 X0.6236  Y1.7748  
G01 X0.6257  Y1.7683  
G01 X0.6288  Y1.7622  
G01 X0.6328  Y1.7567  
G01 X0.6377  Y1.7518  
G01 X0.6432  Y1.7478  
G01 X0.6493  Y1.7447  
G01 X0.6558  Y1.7426  
G01 X0.6626  Y1.7415  
G01 X0.7451  Y1.7415  
G01 X0.7905  Y1.6961  
G01 X0.7905  Y1.1039  
G01 X0.7615  Y1.0749  
G01 X0.7607  Y1.0753  
G01 X0.7542  Y1.0774  
G01 X0.7474  Y1.0785  
G01 X0.6626  Y1.0785  
G01 X0.6558  Y1.0774  
G01 X0.6493  Y1.0753  
G01 X0.6432  Y1.0722  
G01 X0.6377  Y1.0682  
G01 X0.6328  Y1.0633  
G01 X0.6288  Y1.0578  
G01 X0.6257  Y1.0517  
G01 X0.6236  Y1.0452  
G01 X0.6225  Y1.0384  
G01 X0.6225  Y1.0316  
G01 X0.6236  Y1.0248  
G01 X0.6257  Y1.0183  
G01 X0.6288  Y1.0122  
G01 X0.6328  Y1.0067  
G01 X0.6377  Y1.0018  
G01 X0.6432  Y0.9978  
G01 X0.6493  Y0.9947  
G01 X0.6558  Y0.9926  
G01 X0.6626  Y0.9915  
G01 X0.7474  Y0.9915  
G01 X0.7542  Y0.9926  
G01 X0.7607  Y0.9947  
G01 X0.7668  Y0.9978  
G01 X0.7723  Y1.0018  
G01 X0.7772  Y1.0067  
G01 X0.7812  Y1.0122  
G01 X0.7843  Y1.0183  
G01 X0.7864  Y1.0248  
G01 X0.7875  Y1.0316  
G01 X0.7875  Y1.0384  
G01 X0.7864  Y1.0452  
G01 X0.7843  Y1.0517  
G01 X0.7812  Y1.0578  
G01 X0.7772  Y1.0633  
G01 X0.7770  Y1.0635  
G01 X0.8054  Y1.0919  
G01 X0.8081  Y1.0946  
G01 X0.8095  Y1.0981  
G01 X0.8095  Y6.2019  
G01 X0.8081  Y6.2054  
G01 X0.8054  Y6.2081  
G01 X0.7660  Y6.2474  
G01 X0.7668  Y6.2478  
G01 X0.7723  Y6.2518  
G01 X0.7772  Y6.2567  
G01 X0.7812  Y6.2622  
G01 X0.7843  Y6.2683  
G01 X0.7864  Y6.2748  
G01 X0.7875  Y6.2816  
G01 X0.7875  Y6.2884  
G01 X0.7864  Y6.2952  
G01 X0.7843  Y6.3017  
G01 X0.7812  Y6.3078  
G01 X0.7772  Y6.3133  
G01 X0.7723  Y6.3182  
G01 X0.7668  Y6.3222  
G01 X0.7607  Y6.3253  
G01 X0.7542  Y6.3274  
G01 X0.7474  Y6.3285  
G01 X0.6626  Y6.3285  
G01 X0.6558  Y6.3274  
G01 X0.6493  Y6.3253  
G01 X0.6432  Y6.3222  
G01 X0.6377  Y6.3182  
G01 X0.6328  Y6.3133  
G01 X0.6288  Y6.3078  
G01 X0.6257  Y6.3017  
G01 X0.6236  Y6.2952  
G01 X0.6225  Y6.2884  
G01 X0.6225  Y6.2816  
G01 X0.6236  Y6.2748  
G01 X0.6257  Y6.2683  
G01 X0.6288  Y6.2622  
G01 X0.6328  Y6.2567  
G01 X0.6377  Y6.2518  
G01 X0.6432  Y6.2478  
G01 X0.6493  Y6.2447  
G01 X0.6558  Y6.2426  
G01 X0.6626  Y6.2415  
G01 X0.7451  Y6.2415  
G01 X0.7905  Y6.1961  
G01 X0.7905  Y5.4729  
G01 X0.7660  Y5.4974  
G01 X0.7668  Y5.4978  
G01 X0.7723  Y5.5018  
G01 X0.7772  Y5.5067  
G01 X0.7812  Y5.5122  
G01 X0.7843  Y5.5183  
G01 X0.7864  Y5.5248  
G01 X0.7875  Y5.5316  
G01 X0.7875  Y5.5384  
G01 X0.7864  Y5.5452  
G01 X0.7843  Y5.5517  
G01 X0.7812  Y5.5578  
G01 X0.7772  Y5.5633  
G01 X0.7723  Y5.5682  
G01 X0.7668  Y5.5722  
G01 X0.7607  Y5.5753  
G01 X0.7542  Y5.5774  
G01 X0.7474  Y5.5785  
G00 Z0.1000  
G00 X0.6674  Y5.3435  
G01 Z-0.0070 F10    
G01 X0.5826  Y5.3435  F20    
G01 X0.5758  Y5.3424  
G01 X0.5693  Y5.3403  
G01 X0.5632  Y5.3372  
G01 X0.5577  Y5.3332  
G01 X0.5528  Y5.3283  
G01 X0.5488  Y5.3228  
G01 X0.5457  Y5.3167  
G01 X0.5436  Y5.3102  
G01 X0.5425  Y5.3034  
G01 X0.5425  Y5.2966  
G01 X0.5436  Y5.2898  
G01 X0.5457  Y5.2833  
G01 X0.5488  Y5.2772  
G01 X0.5528  Y5.2717  
G01 X0.5577  Y5.2668  
G01 X0.5632  Y5.2628  
G01 X0.5693  Y5.2597  
G01 X0.5758  Y5.2576  
G01 X0.5826  Y5.2565  
G01 X0.6674  Y5.2565  
G01 X0.6742  Y5.2576  
G01 X0.6807  Y5.2597  
G01 X0.6868  Y5.2628  
G01 X0.6923  Y5.2668  
G01 X0.6972  Y5.2717  
G01 X0.7012  Y5.2772  
G01 X0.7043  Y5.2833  
G01 X0.7064  Y5.2898  
G01 X0.7075  Y5.2966  
G01 X0.7075  Y5.3034  
G01 X0.7064  Y5.3102  
G01 X0.7043  Y5.3167  
G01 X0.7012  Y5.3228  
G01 X0.6972  Y5.3283  
G01 X0.6923  Y5.3332  
G01 X0.6868  Y5.3372  
G01 X0.6807  Y5.3403  
G01 X0.6742  Y5.3424  
G01 X0.6674  Y5.3435  
G00 Z0.1000  
G00 X1.2274  Y5.8585  
G01 Z-0.0070 F10    
G01 X1.1426  Y5.8585  F20    
G01 X1.1358  Y5.8574  
G01 X1.1293  Y5.8553  
G01 X1.1232  Y5.8522  
G01 X1.1177  Y5.8482  
G01 X1.1128  Y5.8433  
G01 X1.1088  Y5.8378  
G01 X1.1057  Y5.8317  
G01 X1.1036  Y5.8252  
G01 X1.1025  Y5.8184  
G01 X1.1025  Y5.8116  
G01 X1.1036  Y5.8048  
G01 X1.1057  Y5.7983  
G01 X1.1088  Y5.7922  
G01 X1.1128  Y5.7867  
G01 X1.1177  Y5.7818  
G01 X1.1232  Y5.7778  
G01 X1.1293  Y5.7747  
G01 X1.1358  Y5.7726  
G01 X1.1426  Y5.7715  
G01 X1.2151  Y5.7715  
G01 X1.2905  Y5.6961  
G01 X1.2905  Y4.9729  
G01 X1.2392  Y5.0242  
G01 X1.2407  Y5.0247  
G01 X1.2468  Y5.0278  
G01 X1.2523  Y5.0318  
G01 X1.2572  Y5.0367  
G01 X1.2612  Y5.0422  
G01 X1.2643  Y5.0483  
G01 X1.2664  Y5.0548  
G01 X1.2675  Y5.0616  
G01 X1.2675  Y5.0684  
G01 X1.2664  Y5.0752  
G01 X1.2643  Y5.0817  
G01 X1.2612  Y5.0878  
G01 X1.2572  Y5.0933  
G01 X1.2523  Y5.0982  
G01 X1.2468  Y5.1022  
G01 X1.2407  Y5.1053  
G01 X1.2342  Y5.1074  
G01 X1.2274  Y5.1085  
G01 X1.1426  Y5.1085  
G01 X1.1358  Y5.1074  
G01 X1.1293  Y5.1053  
G01 X1.1232  Y5.1022  
G01 X1.1177  Y5.0982  
G01 X1.1128  Y5.0933  
G01 X1.1088  Y5.0878  
G01 X1.1057  Y5.0817  
G01 X1.1036  Y5.0752  
G01 X1.1025  Y5.0684  
G01 X1.1025  Y5.0616  
G01 X1.1036  Y5.0548  
G01 X1.1057  Y5.0483  
G01 X1.1088  Y5.0422  
G01 X1.1128  Y5.0367  
G01 X1.1177  Y5.0318  
G01 X1.1232  Y5.0278  
G01 X1.1293  Y5.0247  
G01 X1.1358  Y5.0226  
G01 X1.1426  Y5.0215  
G01 X1.2151  Y5.0215  
G01 X1.2905  Y4.9461  
G01 X1.2905  Y4.2229  
G01 X1.2392  Y4.2742  
G01 X1.2407  Y4.2747  
G01 X1.2468  Y4.2778  
G01 X1.2523  Y4.2818  
G01 X1.2572  Y4.2867  
G01 X1.2612  Y4.2922  
G01 X1.2643  Y4.2983  
G01 X1.2664  Y4.3048  
G01 X1.2675  Y4.3116  
G01 X1.2675  Y4.3184  
G01 X1.2664  Y4.3252  
G01 X1.2643  Y4.3317  
G01 X1.2612  Y4.3378  
G01 X1.2572  Y4.3433  
G01 X1.2523  Y4.3482  
G01 X1.2468  Y4.3522  
G01 X1.2407  Y4.3553  
G01 X1.2342  Y4.3574  
G01 X1.2274  Y4.3585  
G01 X1.1426  Y4.3585  
G01 X1.1358  Y4.3574  
G01 X1.1293  Y4.3553  
G01 X1.1232  Y4.3522  
G01 X1.1177  Y4.3482  
G01 X1.1128  Y4.3433  
G01 X1.1088  Y4.3378  
G01 X1.1057  Y4.3317  
G01 X1.1036  Y4.3252  
G01 X1.1025  Y4.3184  
G01 X1.1025  Y4.3116  
G01 X1.1036  Y4.3048  
G01 X1.1057  Y4.2983  
G01 X1.1088  Y4.2922  
G01 X1.1128  Y4.2867  
G01 X1.1177  Y4.2818  
G01 X1.1232  Y4.2778  
G01 X1.1293  Y4.2747  
G01 X1.1358  Y4.2726  
G01 X1.1426  Y4.2715  
G01 X1.2151  Y4.2715  
G01 X1.2905  Y4.1961  
G01 X1.2905  Y3.7039  
G01 X1.1951  Y3.6085  
G01 X1.1426  Y3.6085  
G01 X1.1358  Y3.6074  
G01 X1.1293  Y3.6053  
G01 X1.1232  Y3.6022  
G01 X1.1177  Y3.5982  
G01 X1.1128  Y3.5933  
G01 X1.1088  Y3.5878  
G01 X1.1057  Y3.5817  
G01 X1.1036  Y3.5752  
G01 X1.1025  Y3.5684  
G01 X1.1025  Y3.5616  
G01 X1.1036  Y3.5548  
G01 X1.1057  Y3.5483  
G01 X1.1088  Y3.5422  
G01 X1.1128  Y3.5367  
G01 X1.1177  Y3.5318  
G01 X1.1232  Y3.5278  
G01 X1.1293  Y3.5247  
G01 X1.1358  Y3.5226  
G01 X1.1426  Y3.5215  
G01 X1.2274  Y3.5215  
G01 X1.2342  Y3.5226  
G01 X1.2407  Y3.5247  
G01 X1.2468  Y3.5278  
G01 X1.2523  Y3.5318  
G01 X1.2572  Y3.5367  
G01 X1.2612  Y3.5422  
G01 X1.2643  Y3.5483  
G01 X1.2664  Y3.5548  
G01 X1.2675  Y3.5616  
G01 X1.2675  Y3.5684  
G01 X1.2664  Y3.5752  
G01 X1.2643  Y3.5817  
G01 X1.2612  Y3.5878  
G01 X1.2572  Y3.5933  
G01 X1.2523  Y3.5982  
G01 X1.2468  Y3.6022  
G01 X1.2407  Y3.6053  
G01 X1.2342  Y3.6074  
G01 X1.2274  Y3.6085  
G01 X1.2219  Y3.6085  
G01 X1.3054  Y3.6919  
G01 X1.3081  Y3.6946  
G01 X1.3095  Y3.6981  
G01 X1.3095  Y5.7019  
G01 X1.3081  Y5.7054  
G01 X1.3054  Y5.7081  
G01 X1.2392  Y5.7742  
G01 X1.2407  Y5.7747  
G01 X1.2468  Y5.7778  
G01 X1.2523  Y5.7818  
G01 X1.2572  Y5.7867  
G01 X1.2612  Y5.7922  
G01 X1.2643  Y5.7983  
G01 X1.2664  Y5.8048  
G01 X1.2675  Y5.8116  
G01 X1.2675  Y5.8184  
G01 X1.2664  Y5.8252  
G01 X1.2643  Y5.8317  
G01 X1.2612  Y5.8378  
G01 X1.2572  Y5.8433  
G01 X1.2523  Y5.8482  
G01 X1.2468  Y5.8522  
G01 X1.2407  Y5.8553  
G01 X1.2342  Y5.8574  
G01 X1.2274  Y5.8585  
G00 Z0.1000  
G00 X1.2274  Y6.3285  
G01 Z-0.0070 F10    
G01 X1.1426  Y6.3285  F20    
G01 X1.1358  Y6.3274  
G01 X1.1293  Y6.3253  
G01 X1.1232  Y6.3222  
G01 X1.1177  Y6.3182  
G01 X1.1128  Y6.3133  
G01 X1.1088  Y6.3078  
G01 X1.1057  Y6.3017  
G01 X1.1036  Y6.2952  
G01 X1.1025  Y6.2884  
G01 X1.1025  Y6.2816  
G01 X1.1036  Y6.2748  
G01 X1.1057  Y6.2683  
G01 X1.1088  Y6.2622  
G01 X1.1128  Y6.2567  
G01 X1.1177  Y6.2518  
G01 X1.1232  Y6.2478  
G01 X1.1293  Y6.2447  
G01 X1.1358  Y6.2426  
G01 X1.1426  Y6.2415  
G01 X1.2274  Y6.2415  
G01 X1.2342  Y6.2426  
G01 X1.2407  Y6.2447  
G01 X1.2468  Y6.2478  
G01 X1.2523  Y6.2518  
G01 X1.2572  Y6.2567  
G01 X1.2612  Y6.2622  
G01 X1.2643  Y6.2683  
G01 X1.2664  Y6.2748  
G01 X1.2675  Y6.2816  
G01 X1.2675  Y6.2884  
G01 X1.2664  Y6.2952  
G01 X1.2643  Y6.3017  
G01 X1.2612  Y6.3078  
