(.../pcb-gcode-3.6.0.4/pcb-gcode.ulp)
(Copyright 2005 - 2012 by John Johnson)
(See readme.txt for licensing terms.)
(This file generated from the board:)
(.../Ozan/Documents/eagle/HS/HSIO.brd)
(Current profile is .../pcb-gcode-3.6.0.4/profiles/mach.pp  )
(This file generated 10/30/2013 1:24:42 PM)
(Settings from pcb-machine.h)
(  Tool Size)
(0.0070  )
(Z Axis Settings)
(  High     Up        Down     Drill)
(0.5000  	0.1000  	-0.0070 	-0.0320 )
(spindle on time = 3.0000)
(milling depth = -0.0100)
(text depth = -0.0050)
(tool change at 0.5000  0.6000  1.0000  )
(feed rate xy = F20    )
(feed rate z  = F10    )
(Settings from pcb-defaults.h)
(isolate min = 0.0010)
(isolate max = 0.0200)
(isolate step = 0.0050)
(Generated top outlines, top drill, bottom outlines, bottom drill, )
(Unit of measure: inch)
( Tool|       Size       |  Min Sub |  Max Sub |   Count )
( T01 | 3.302mm 0.1300in | 0.0000in | 0.0000in |       0 )
( T02 | 0.610mm 0.0240in | 0.0000in | 0.0000in |       0 )
( T03 | 0.813mm 0.0320in | 0.0000in | 0.0000in |       0 )
( T04 | 0.900mm 0.0354in | 0.0000in | 0.0000in |       0 )
( T05 | 0.991mm 0.0390in | 0.0000in | 0.0000in |       0 )
( T06 | 1.000mm 0.0394in | 0.0000in | 0.0000in |       0 )
( T07 | 1.016mm 0.0400in | 0.0000in | 0.0000in |       0 )
( T08 | 1.118mm 0.0440in | 0.0000in | 0.0000in |       0 )
( T09 | 1.321mm 0.0520in | 0.0000in | 0.0000in |       0 )
( T10 | 1.600mm 0.0630in | 0.0000in | 0.0000in |       0 )
( T11 | 2.200mm 0.0866in | 0.0000in | 0.0000in |       0 )
( T12 | 2.550mm 0.1004in | 0.0000in | 0.0000in |       0 )
(Inch Mode)
G20
(Absolute Coordinates)
G90
M05
G00 Z1.0000  
G00 X0.5000  Y0.6000  
M06 T01  ; 0.1300  
G01 Z0.0000  F10    
M06 T01  ; 0.1300  
G00 Z0.1000  
M03
G04 P3.000000
G82 X3.5500  Y5.9900  Z-0.0320 F10    R0.1000  P1.000000
M05
G00 Z1.0000  
M06 T02  ; 0.0240  
G01 Z0.0000  F10    
M06 T02  ; 0.0240  
G00 Z0.1000  
M03
G04 P3.000000
G82 X1.6000  Y3.0000  Z-0.0320 F10    R0.1000  P1.000000
G82 X1.6500  Y3.7500  
G82 X1.8500  Y2.1000  
G82 X0.4000  Y2.3500  
G82 X0.5500  Y4.7500  
G82 X1.0000  Y3.7500  
M05
G00 Z1.0000  
M06 T03  ; 0.0320  
G01 Z0.0000  F10    
M06 T03  ; 0.0320  
G00 Z0.1000  
M03
G04 P3.000000
G82 X3.3500  Y5.1500  Z-0.0320 F10    R0.1000  P1.000000
G82 X3.7500  Y5.1500  
G82 X4.0000  Y4.4050  
G82 X4.0000  Y4.5950  
M05
G00 Z1.0000  
M06 T04  ; 0.0354  
G01 Z0.0000  F10    
M06 T04  ; 0.0354  
G00 Z0.1000  
M03
G04 P3.000000
G82 X1.2594  Y6.9594  Z-0.0320 F10    R0.1000  P1.000000
G82 X1.2996  Y6.8594  
G82 X1.3398  Y6.9594  
G82 X1.3799  Y6.8594  
G82 X1.4201  Y6.9594  
G82 X1.4602  Y6.8594  
G82 X1.5004  Y6.9594  
G82 X1.5406  Y6.8594  
G82 X0.4594  Y6.9594  
G82 X0.4996  Y6.8594  
G82 X0.5398  Y6.9594  
G82 X0.5799  Y6.8594  
G82 X0.6201  Y6.9594  
G82 X0.6602  Y6.8594  
G82 X0.7004  Y6.9594  
G82 X0.7406  Y6.8594  
M05
G00 Z1.0000  
M06 T05  ; 0.0390  
G01 Z0.0000  F10    
M06 T05  ; 0.0390  
G00 Z0.1000  
M03
G04 P3.000000
G82 X4.2500  Y3.8500  Z-0.0320 F10    R0.1000  P1.000000
G82 X4.2500  Y3.9500  
G82 X4.2500  Y4.0500  
G82 X4.2500  Y4.1500  
G82 X4.2500  Y4.2500  
G82 X4.2500  Y4.3500  
G82 X4.2500  Y4.4500  
G82 X4.2500  Y4.5500  
G82 X4.2500  Y4.6500  
G82 X4.2500  Y4.7500  
G82 X4.2500  Y4.8500  
G82 X4.2500  Y4.9500  
G82 X4.2500  Y5.0500  
G82 X4.2500  Y5.1500  
G82 X4.2500  Y5.2500  
G82 X4.2500  Y5.3500  
G82 X4.2500  Y5.4500  
G82 X4.2500  Y5.5500  
G82 X4.2500  Y5.6500  
G82 X4.2500  Y5.7500  
G82 X4.8500  Y3.8500  
G82 X4.8500  Y3.9500  
G82 X4.8500  Y4.0500  
G82 X4.8500  Y4.1500  
G82 X4.8500  Y4.2500  
G82 X4.8500  Y4.3500  
G82 X4.8500  Y4.4500  
G82 X4.8500  Y4.5500  
G82 X4.8500  Y4.6500  
G82 X4.8500  Y4.7500  
G82 X4.8500  Y4.8500  
G82 X4.8500  Y4.9500  
G82 X4.8500  Y5.0500  
G82 X4.8500  Y5.1500  
G82 X4.8500  Y5.2500  
G82 X4.8500  Y5.3500  
G82 X4.8500  Y5.4500  
G82 X4.8500  Y5.5500  
G82 X4.8500  Y5.6500  
G82 X4.8500  Y5.7500  
M05
G00 Z1.0000  
M06 T06  ; 0.0394  
G01 Z0.0000  F10    
M06 T06  ; 0.0394  
G00 Z0.1000  
M03
G04 P3.000000
G82 X3.8000  Y6.9500  Z-0.0320 F10    R0.1000  P1.000000
G82 X3.8000  Y7.0500  
G82 X3.9000  Y6.9500  
G82 X3.9000  Y7.0500  
G82 X4.0000  Y6.9500  
G82 X4.0000  Y7.0500  
G82 X4.1000  Y6.9500  
G82 X4.1000  Y7.0500  
G82 X4.2000  Y6.9500  
G82 X4.2000  Y7.0500  
G82 X4.3000  Y6.9500  
G82 X4.3000  Y7.0500  
G82 X4.4000  Y6.9500  
G82 X4.4000  Y7.0500  
G82 X4.8500  Y6.8500  
G82 X4.8500  Y6.9500  
G82 X4.9500  Y6.8500  
G82 X4.9500  Y6.9500  
G82 X5.0500  Y6.8500  
G82 X5.0500  Y6.9500  
G82 X5.1500  Y6.8500  
G82 X5.1500  Y6.9500  
G82 X5.2500  Y6.8500  
G82 X5.2500  Y6.9500  
G82 X5.3500  Y6.8500  
G82 X5.3500  Y6.9500  
G82 X5.4500  Y6.8500  
G82 X5.4500  Y6.9500  
M05
G00 Z1.0000  
M06 T07  ; 0.0400  
G01 Z0.0000  F10    
M06 T07  ; 0.0400  
G00 Z0.1000  
M03
G04 P3.000000
G82 X2.9000  Y6.7000  Z-0.0320 F10    R0.1000  P1.000000
G82 X3.3000  Y6.7000  
G82 X3.3500  Y4.4000  
G82 X3.3500  Y4.6500  
G82 X3.3500  Y4.9000  
G82 X3.7500  Y4.4000  
G82 X3.7500  Y4.6500  
G82 X3.7500  Y4.9000  
M05
G00 Z1.0000  
M06 T08  ; 0.0440  
G01 Z0.0000  F10    
M06 T08  ; 0.0440  
G00 Z0.1000  
M03
G04 P3.000000
G82 X3.0500  Y6.9500  Z-0.0320 F10    R0.1000  P1.000000
G82 X3.4500  Y5.4000  
G82 X3.4500  Y6.9500  
G82 X3.5500  Y5.4000  
G82 X3.6500  Y5.4000  
M05
G00 Z1.0000  
M06 T09  ; 0.0520  
G01 Z0.0000  F10    
M06 T09  ; 0.0520  
G00 Z0.1000  
M03
G04 P3.000000
G82 X1.9510  Y6.9500  Z-0.0320 F10    R0.1000  P1.000000
G82 X2.0250  Y1.5500  
G82 X2.0250  Y2.3000  
G82 X2.0250  Y3.0500  
G82 X2.0250  Y3.8000  
G82 X2.0250  Y4.5500  
G82 X2.0250  Y5.3000  
G82 X2.0250  Y6.0500  
G82 X2.0250  Y0.8000  
G82 X2.1050  Y1.3150  
G82 X2.1050  Y1.7850  
G82 X2.1050  Y2.0650  
G82 X2.1050  Y2.5350  
G82 X2.1050  Y2.8150  
G82 X2.1050  Y3.2850  
G82 X2.1050  Y3.5650  
G82 X2.1050  Y4.0350  
G82 X2.1050  Y4.3150  
G82 X2.1050  Y4.7850  
G82 X2.1050  Y5.0650  
G82 X2.1050  Y5.5350  
G82 X2.1050  Y0.5650  
G82 X2.1050  Y5.8150  
G82 X2.1050  Y6.2850  
G82 X2.1050  Y1.0350  
G82 X2.1480  Y6.9500  
G82 X2.4510  Y6.9500  
G82 X2.5850  Y1.3150  
G82 X2.5850  Y1.7850  
G82 X2.5850  Y2.0650  
G82 X2.5850  Y2.5350  
G82 X2.5850  Y2.8150  
G82 X2.5850  Y3.2850  
G82 X2.5850  Y3.5650  
G82 X2.5850  Y4.0350  
G82 X2.5850  Y4.3150  
G82 X2.5850  Y4.7850  
G82 X2.5850  Y5.0650  
G82 X2.5850  Y5.5350  
G82 X2.5850  Y0.5650  
G82 X2.5850  Y5.8150  
G82 X2.5850  Y6.2850  
G82 X2.5850  Y1.0350  
G82 X2.6480  Y6.9500  
G82 X4.6150  Y0.1650  
G82 X4.6150  Y0.6350  
G82 X5.0950  Y0.1650  
G82 X5.0950  Y0.6350  
G82 X5.1750  Y0.4000  
G82 X5.6000  Y0.2020  
G82 X5.6000  Y0.3990  
G82 X0.6250  Y1.5500  
G82 X0.6250  Y2.3000  
G82 X0.6250  Y3.0500  
G82 X0.6250  Y3.8000  
G82 X0.6250  Y4.5500  
G82 X0.6250  Y5.3000  
G82 X0.6250  Y6.0500  
G82 X0.6250  Y0.8000  
G82 X0.7050  Y1.3150  
G82 X0.7050  Y1.7850  
G82 X0.7050  Y2.0650  
G82 X0.7050  Y2.5350  
G82 X0.7050  Y2.8150  
G82 X0.7050  Y3.2850  
G82 X0.7050  Y3.5650  
G82 X0.7050  Y4.0350  
G82 X0.7050  Y4.3150  
G82 X0.7050  Y4.7850  
G82 X0.7050  Y5.0650  
G82 X0.7050  Y5.5350  
G82 X0.7050  Y0.5650  
G82 X0.7050  Y5.8150  
G82 X0.7050  Y6.2850  
G82 X0.7050  Y1.0350  
G82 X1.1850  Y1.3150  
G82 X1.1850  Y1.7850  
G82 X1.1850  Y2.0650  
G82 X1.1850  Y2.5350  
G82 X1.1850  Y2.8150  
G82 X1.1850  Y3.2850  
G82 X1.1850  Y3.5650  
G82 X1.1850  Y4.0350  
G82 X1.1850  Y4.3150  
G82 X1.1850  Y4.7850  
G82 X1.1850  Y5.0650  
G82 X1.1850  Y5.5350  
G82 X1.1850  Y0.5650  
G82 X1.1850  Y5.8150  
G82 X1.1850  Y6.2850  
G82 X1.1850  Y1.0350  
M05
G00 Z1.0000  
M06 T10  ; 0.0630  
G01 Z0.0000  F10    
M06 T10  ; 0.0630  
G00 Z0.1000  
M03
G04 P3.000000
G82 X1.7199  Y6.8594  Z-0.0320 F10    R0.1000  P1.000000
G82 X0.2801  Y6.8594  
G82 X0.9199  Y6.8594  
G82 X1.0801  Y6.8594  
M05
G00 Z1.0000  
M06 T11  ; 0.0866  
G01 Z0.0000  F10    
M06 T11  ; 0.0866  
G00 Z0.1000  
M03
G04 P3.000000
G82 X0.1500  Y0.1500  Z-0.0320 F10    R0.1000  P1.000000
G82 X5.6500  Y6.5500  
G82 X5.7000  Y0.7000  
G82 X0.1000  Y7.0500  
M05
G00 Z1.0000  
M06 T12  ; 0.1004  
G01 Z0.0000  F10    
M06 T12  ; 0.1004  
G00 Z0.1000  
M03
G04 P3.000000
G82 X1.6929  Y7.0500  Z-0.0320 F10    R0.1000  P1.000000
G82 X0.3071  Y7.0500  
G82 X0.8929  Y7.0500  
G82 X1.1071  Y7.0500  
T01 
G00 Z0.5000  
M05
M02
