(.../02_pcbgcode/pcbgcode/pcb-gcode.ulp)
(Copyright 2005 - 2012 by John Johnson)
(See readme.txt for licensing terms.)
(This file generated from the board:)
(.../KarasolBaxCont/KarasolboxCont.brd)
(Current profile is .../02_pcbgcode/pcbgcode/profiles/emc.pp  )
(This file generated 4/23/2017 7:21 PM)
(Settings from pcb-machine.h)
(spindle on time = 3.0000)
(  Tool Size)
(0.1778 )
(spindle speed = 30000.0000)
(tool change at 0.0000 0.0000 19.0000 )
(feed rate xy = F508.00 )
(feed rate z  = F254.00 )
(Z Axis Settings)
(  High     Up        Down     Drill)
(19.5000 	2.0000 	-0.0250 	-1.5000 )
(Settings from pcb-defaults.h)
(isolate min = 0.0500)
(isolate max = 0.5000)
(isolate step = 0.1000)
(Generated top outlines, top drill, bottom outlines, bottom drill, )
(Unit of measure: mm)
(Metric Mode)
G21
(Absolute Coordinates)
G90
S30000
G00 Z19.5000 
G00 X0.0000 Y0.0000 
M03
G04 P3.000000
G00 Z2.0000 
G00 X-4.0381 Y1.6284 
G01 Z-0.0250 F254.00 
G01 X-4.1938 Y1.4727 F508.00 
G01 X-4.3720 Y1.3432 
G01 X-4.5683 Y1.2432 
G01 X-4.7777 Y1.1752 
G01 X-4.9953 Y1.1407 
G01 X-5.2155 Y1.1407 
G01 X-5.4331 Y1.1752 
G01 X-5.6425 Y1.2432 
G01 X-5.8388 Y1.3432 
G01 X-6.0170 Y1.4727 
G01 X-6.1727 Y1.6284 
G01 X-6.3022 Y1.8066 
G01 X-6.4022 Y2.0029 
G01 X-6.4702 Y2.2123 
G01 X-6.5047 Y2.4299 
G01 X-6.5047 Y2.6501 
G01 X-6.4702 Y2.8677 
G01 X-6.4022 Y3.0771 
G01 X-6.3022 Y3.2734 
G01 X-6.1727 Y3.4516 
G01 X-6.0170 Y3.6073 
G01 X-5.8388 Y3.7368 
G01 X-5.7389 Y3.7877 
G01 X-5.7389 Y47.7768 
G01 X-20.6232 Y62.6611 
G01 X-21.7964 Y62.6611 
G01 X-21.8259 Y62.6031 
G01 X-21.9313 Y62.4581 
G01 X-22.0581 Y62.3313 
G01 X-22.2031 Y62.2259 
G01 X-22.3628 Y62.1445 
G01 X-22.5333 Y62.0891 
G01 X-22.7104 Y62.0611 
G01 X-22.8896 Y62.0611 
G01 X-23.0667 Y62.0891 
G01 X-23.2372 Y62.1445 
G01 X-23.3969 Y62.2259 
G01 X-23.5419 Y62.3313 
G01 X-23.6687 Y62.4581 
G01 X-23.7741 Y62.6031 
G01 X-23.8555 Y62.7628 
G01 X-23.9109 Y62.9333 
G01 X-23.9389 Y63.1104 
G01 X-23.9389 Y63.2896 
G01 X-23.9109 Y63.4667 
G01 X-23.8555 Y63.6372 
G01 X-23.7741 Y63.7969 
G01 X-23.6687 Y63.9419 
G01 X-23.5419 Y64.0687 
G01 X-23.3969 Y64.1741 
G01 X-23.2372 Y64.2555 
G01 X-23.0667 Y64.3109 
G01 X-22.8896 Y64.3389 
G01 X-22.7104 Y64.3389 
G01 X-22.5333 Y64.3109 
G01 X-22.3628 Y64.2555 
G01 X-22.2031 Y64.1741 
G01 X-22.0581 Y64.0687 
G01 X-21.9313 Y63.9419 
G01 X-21.8259 Y63.7969 
G01 X-21.7964 Y63.7389 
G01 X-20.3291 Y63.7389 
G01 X-20.1920 Y63.7022 
G01 X-20.0691 Y63.6312 
G01 X-4.8691 Y48.4312 
G01 X-4.7688 Y48.3309 
G01 X-4.6978 Y48.2080 
G01 X-4.6611 Y48.0709 
G01 X-4.6611 Y3.8669 
G01 X-4.5683 Y3.8368 
G01 X-4.3720 Y3.7368 
G01 X-4.1938 Y3.6073 
G01 X-4.0381 Y3.4516 
G01 X-3.9086 Y3.2734 
G01 X-3.8086 Y3.0771 
G01 X-3.7406 Y2.8677 
G01 X-3.7061 Y2.6501 
G01 X-3.7061 Y2.4299 
G01 X-3.7406 Y2.2123 
G01 X-3.8086 Y2.0029 
G01 X-3.9086 Y1.8066 
G01 X-4.0381 Y1.6284 
G00 Z2.0000 
G00 X-9.0419 Y1.6284 
G01 Z-0.0250 F254.00 
G01 X-9.1976 Y1.4727 F508.00 
G01 X-9.3758 Y1.3432 
G01 X-9.5721 Y1.2432 
G01 X-9.7815 Y1.1752 
G01 X-9.9991 Y1.1407 
G01 X-10.2193 Y1.1407 
G01 X-10.4369 Y1.1752 
G01 X-10.6463 Y1.2432 
G01 X-10.8426 Y1.3432 
G01 X-11.0208 Y1.4727 
G01 X-11.1765 Y1.6284 
G01 X-11.3060 Y1.8066 
G01 X-11.4060 Y2.0029 
G01 X-11.4740 Y2.2123 
G01 X-11.5085 Y2.4299 
G01 X-11.5085 Y2.6501 
G01 X-11.4740 Y2.8677 
G01 X-11.4060 Y3.0771 
G01 X-11.3060 Y3.2734 
G01 X-11.1765 Y3.4516 
G01 X-11.0208 Y3.6073 
G01 X-10.9389 Y3.6668 
G01 X-10.9389 Y4.9768 
G01 X-11.5382 Y5.5761 
G01 X-20.9826 Y5.5761 
G01 X-21.0337 Y5.5972 
G01 X-21.0728 Y5.6363 
G01 X-21.0939 Y5.6874 
G01 X-21.0939 Y14.6326 
G01 X-21.0728 Y14.6837 
G01 X-21.0337 Y14.7228 
G01 X-20.9826 Y14.7439 
G01 X-9.4974 Y14.7439 
G01 X-9.4463 Y14.7228 
G01 X-9.4072 Y14.6837 
G01 X-9.3861 Y14.6326 
G01 X-9.3861 Y5.6874 
G01 X-9.4072 Y5.6363 
G01 X-9.4463 Y5.5972 
G01 X-9.4974 Y5.5761 
G01 X-10.0140 Y5.5761 
G01 X-9.9688 Y5.5309 
G01 X-9.8978 Y5.4080 
G01 X-9.8611 Y5.2709 
G01 X-9.8611 Y3.9174 
G01 X-9.7815 Y3.9048 
G01 X-9.5721 Y3.8368 
G01 X-9.3758 Y3.7368 
G01 X-9.1976 Y3.6073 
G01 X-9.0419 Y3.4516 
G01 X-8.9124 Y3.2734 
G01 X-8.8124 Y3.0771 
G01 X-8.7444 Y2.8677 
G01 X-8.7099 Y2.6501 
G01 X-8.7099 Y2.4299 
G01 X-8.7444 Y2.2123 
G01 X-8.8124 Y2.0029 
G01 X-8.9124 Y1.8066 
G01 X-9.0419 Y1.6284 
G00 Z2.0000 
G00 X-15.4681 Y1.6284 
G01 Z-0.0250 F254.00 
G01 X-15.6238 Y1.4727 F508.00 
G01 X-15.8020 Y1.3432 
G01 X-15.9983 Y1.2432 
G01 X-16.2077 Y1.1752 
G01 X-16.4253 Y1.1407 
G01 X-16.6455 Y1.1407 
G01 X-16.8631 Y1.1752 
G01 X-17.0725 Y1.2432 
G01 X-17.2688 Y1.3432 
G01 X-17.4470 Y1.4727 
G01 X-17.6027 Y1.6284 
G01 X-17.7322 Y1.8066 
G01 X-17.8322 Y2.0029 
G01 X-17.9002 Y2.2123 
G01 X-17.9347 Y2.4299 
G01 X-17.9347 Y2.6501 
G01 X-17.9002 Y2.8677 
G01 X-17.8322 Y3.0771 
G01 X-17.7322 Y3.2734 
G01 X-17.6027 Y3.4516 
G01 X-17.4470 Y3.6073 
G01 X-17.2688 Y3.7368 
G01 X-17.0725 Y3.8368 
G01 X-16.8631 Y3.9048 
G01 X-16.6455 Y3.9393 
G01 X-16.4253 Y3.9393 
G01 X-16.2077 Y3.9048 
G01 X-15.9983 Y3.8368 
G01 X-15.8020 Y3.7368 
G01 X-15.6238 Y3.6073 
G01 X-15.4681 Y3.4516 
G01 X-15.3386 Y3.2734 
G01 X-15.2386 Y3.0771 
G01 X-15.1706 Y2.8677 
G01 X-15.1361 Y2.6501 
G01 X-15.1361 Y2.4299 
G01 X-15.1706 Y2.2123 
G01 X-15.2386 Y2.0029 
G01 X-15.3386 Y1.8066 
G01 X-15.4681 Y1.6284 
G00 Z2.0000 
G00 X-20.4719 Y1.6284 
G01 Z-0.0250 F254.00 
G01 X-20.6276 Y1.4727 F508.00 
G01 X-20.8058 Y1.3432 
G01 X-21.0021 Y1.2432 
G01 X-21.2115 Y1.1752 
G01 X-21.4291 Y1.1407 
G01 X-21.6493 Y1.1407 
G01 X-21.8669 Y1.1752 
G01 X-22.0763 Y1.2432 
G01 X-22.2726 Y1.3432 
G01 X-22.4508 Y1.4727 
G01 X-22.6065 Y1.6284 
G01 X-22.7360 Y1.8066 
G01 X-22.8360 Y2.0029 
G01 X-22.9040 Y2.2123 
G01 X-22.9385 Y2.4299 
G01 X-22.9385 Y2.6501 
G01 X-22.9040 Y2.8677 
G01 X-22.8360 Y3.0771 
G01 X-22.7360 Y3.2734 
G01 X-22.6065 Y3.4516 
G01 X-22.4508 Y3.6073 
G01 X-22.2726 Y3.7368 
G01 X-22.0763 Y3.8368 
G01 X-21.8669 Y3.9048 
G01 X-21.6493 Y3.9393 
G01 X-21.4291 Y3.9393 
G01 X-21.2115 Y3.9048 
G01 X-21.0021 Y3.8368 
G01 X-20.8058 Y3.7368 
G01 X-20.6276 Y3.6073 
G01 X-20.4719 Y3.4516 
G01 X-20.3424 Y3.2734 
G01 X-20.2424 Y3.0771 
G01 X-20.1744 Y2.8677 
G01 X-20.1399 Y2.6501 
G01 X-20.1399 Y2.4299 
G01 X-20.1744 Y2.2123 
G01 X-20.2424 Y2.0029 
G01 X-20.3424 Y1.8066 
G01 X-20.4719 Y1.6284 
G00 Z2.0000 
G00 X-21.2691 Y16.3688 
G01 Z-0.0250 F254.00 
G01 X-21.3920 Y16.2978 F508.00 
G01 X-21.5291 Y16.2611 
G01 X-24.0709 Y16.2611 
G01 X-24.2080 Y16.2978 
G01 X-24.3309 Y16.3688 
G01 X-24.4312 Y16.4691 
G01 X-26.2232 Y18.2611 
G01 X-39.7055 Y18.2611 
G01 X-39.8277 Y18.1389 
G01 X-39.9865 Y18.0236 
G01 X-40.1614 Y17.9345 
G01 X-40.3480 Y17.8738 
G01 X-40.5419 Y17.8431 
G01 X-40.7381 Y17.8431 
G01 X-40.9320 Y17.8738 
G01 X-41.1186 Y17.9345 
G01 X-41.2935 Y18.0236 
G01 X-41.4523 Y18.1389 
G01 X-41.5911 Y18.2777 
G01 X-41.7064 Y18.4365 
G01 X-41.7955 Y18.6114 
G01 X-41.8562 Y18.7980 
G01 X-41.8869 Y18.9919 
G01 X-41.8869 Y19.1881 
G01 X-41.8562 Y19.3820 
G01 X-41.7955 Y19.5686 
G01 X-41.7064 Y19.7435 
G01 X-41.5911 Y19.9023 
G01 X-41.4523 Y20.0411 
G01 X-41.2935 Y20.1564 
G01 X-41.1186 Y20.2455 
G01 X-40.9320 Y20.3062 
G01 X-40.7381 Y20.3369 
G01 X-40.5419 Y20.3369 
G01 X-40.3480 Y20.3062 
G01 X-40.1614 Y20.2455 
G01 X-39.9865 Y20.1564 
G01 X-39.8277 Y20.0411 
G01 X-39.6889 Y19.9023 
G01 X-39.5736 Y19.7435 
G01 X-39.4845 Y19.5686 
G01 X-39.4238 Y19.3820 
G01 X-39.4170 Y19.3389 
G01 X-25.9291 Y19.3389 
G01 X-25.7920 Y19.3022 
G01 X-25.6691 Y19.2312 
G01 X-23.7768 Y17.3389 
G01 X-21.8232 Y17.3389 
G01 X-18.9603 Y20.2018 
G01 X-18.9603 Y23.5226 
G01 X-18.9392 Y23.5737 
G01 X-18.9001 Y23.6128 
G01 X-18.8490 Y23.6339 
G01 X-16.9389 Y23.6339 
G01 X-16.9389 Y26.3949 
G01 X-16.9401 Y26.4608 
G01 X-16.9389 Y26.4658 
G01 X-16.9389 Y26.4709 
G01 X-16.9219 Y26.5345 
G01 X-16.9060 Y26.5985 
G01 X-16.9035 Y26.6030 
G01 X-16.9022 Y26.6080 
G01 X-16.8692 Y26.6650 
G01 X-16.8374 Y26.7227 
G01 X-16.8338 Y26.7264 
G01 X-16.8312 Y26.7309 
G01 X-16.7847 Y26.7775 
G01 X-16.6789 Y26.8873 
G01 X-16.6789 Y27.2976 
G01 X-16.6578 Y27.3487 
G01 X-16.6187 Y27.3878 
G01 X-16.5676 Y27.4089 
G01 X-16.5389 Y27.4089 
G01 X-16.5389 Y31.6709 
G01 X-16.5022 Y31.8080 
G01 X-16.4312 Y31.9309 
G01 X-16.3309 Y32.0312 
G01 X-9.3621 Y39.0000 
G01 X-10.4312 Y40.0691 
G01 X-10.5022 Y40.1920 
G01 X-10.5389 Y40.3291 
G01 X-10.5389 Y42.1768 
G01 X-24.2232 Y55.8611 
G01 X-25.3768 Y55.8611 
G01 X-30.0691 Y51.1688 
G01 X-30.1920 Y51.0978 
G01 X-30.3291 Y51.0611 
G01 X-30.6868 Y51.0611 
G01 X-30.7609 Y50.9156 
G01 X-30.8663 Y50.7706 
G01 X-30.9931 Y50.6438 
G01 X-31.1381 Y50.5384 
G01 X-31.2978 Y50.4570 
G01 X-31.4683 Y50.4016 
G01 X-31.6454 Y50.3736 
G01 X-31.8246 Y50.3736 
G01 X-32.0017 Y50.4016 
G01 X-32.1722 Y50.4570 
G01 X-32.3319 Y50.5384 
G01 X-32.4769 Y50.6438 
G01 X-32.6037 Y50.7706 
G01 X-32.7091 Y50.9156 
G01 X-32.7905 Y51.0753 
G01 X-32.8459 Y51.2458 
G01 X-32.8739 Y51.4229 
G01 X-32.8739 Y51.6021 
G01 X-32.8459 Y51.7792 
G01 X-32.7905 Y51.9497 
G01 X-32.7091 Y52.1094 
G01 X-32.6037 Y52.2544 
G01 X-32.4769 Y52.3812 
G01 X-32.3319 Y52.4866 
G01 X-32.1722 Y52.5680 
G01 X-32.0017 Y52.6234 
G01 X-31.8246 Y52.6514 
G01 X-31.6454 Y52.6514 
G01 X-31.4683 Y52.6234 
G01 X-31.2978 Y52.5680 
G01 X-31.1381 Y52.4866 
G01 X-30.9931 Y52.3812 
G01 X-30.8663 Y52.2544 
G01 X-30.7824 Y52.1389 
G01 X-30.6232 Y52.1389 
G01 X-26.0312 Y56.7309 
G01 X-25.9309 Y56.8312 
G01 X-25.8080 Y56.9022 
G01 X-25.6709 Y56.9389 
G01 X-23.9291 Y56.9389 
G01 X-23.7920 Y56.9022 
G01 X-23.6691 Y56.8312 
G01 X-9.6691 Y42.8312 
G01 X-9.5688 Y42.7309 
G01 X-9.4978 Y42.6080 
G01 X-9.4611 Y42.4709 
G01 X-9.4611 Y40.6232 
G01 X-8.6652 Y39.8273 
G01 X-8.5941 Y39.9669 
G01 X-8.4887 Y40.1119 
G01 X-8.3619 Y40.2387 
G01 X-8.2169 Y40.3441 
G01 X-8.0572 Y40.4255 
G01 X-7.8867 Y40.4809 
G01 X-7.7096 Y40.5089 
G01 X-7.5304 Y40.5089 
G01 X-7.3533 Y40.4809 
G01 X-7.1828 Y40.4255 
G01 X-7.0231 Y40.3441 
G01 X-6.8781 Y40.2387 
G01 X-6.7513 Y40.1119 
G01 X-6.6459 Y39.9669 
G01 X-6.5645 Y39.8072 
G01 X-6.5091 Y39.6367 
G01 X-6.4811 Y39.4596 
G01 X-6.4811 Y39.2804 
G01 X-6.5091 Y39.1033 
G01 X-6.5645 Y38.9328 
G01 X-6.6459 Y38.7731 
G01 X-6.7513 Y38.6281 
G01 X-6.8781 Y38.5013 
G01 X-7.0231 Y38.3959 
G01 X-7.1828 Y38.3145 
G01 X-7.3533 Y38.2591 
G01 X-7.5304 Y38.2311 
G01 X-7.7096 Y38.2311 
G01 X-7.8867 Y38.2591 
G01 X-8.0572 Y38.3145 
G01 X-8.2169 Y38.3959 
G01 X-8.3473 Y38.4906 
G01 X-15.4611 Y31.3768 
G01 X-15.4611 Y26.8608 
G01 X-15.4588 Y26.8510 
G01 X-15.4611 Y26.7900 
G01 X-15.4611 Y26.7291 
G01 X-15.4637 Y26.7193 
G01 X-15.4641 Y26.7092 
G01 X-15.4820 Y26.6509 
G01 X-15.4978 Y26.5920 
G01 X-15.5029 Y26.5832 
G01 X-15.5059 Y26.5735 
G01 X-15.5383 Y26.5219 
G01 X-15.5688 Y26.4691 
G01 X-15.5759 Y26.4619 
G01 X-15.5813 Y26.4534 
G01 X-15.6011 Y26.4350 
G01 X-15.6011 Y26.0424 
G01 X-15.6222 Y25.9913 
G01 X-15.6613 Y25.9522 
G01 X-15.7124 Y25.9311 
G01 X-15.8611 Y25.9311 
G01 X-15.8611 Y22.7291 
G01 X-15.8978 Y22.5920 
G01 X-15.9688 Y22.4691 
G01 X-16.5997 Y21.8382 
G01 X-16.5997 Y19.6574 
G01 X-16.6208 Y19.6063 
G01 X-16.6599 Y19.5672 
G01 X-16.7110 Y19.5461 
G01 X-18.0918 Y19.5461 
G01 X-21.2691 Y16.3688 
G00 Z2.0000 
G00 X-21.9913 Y18.3081 
G01 Z-0.0250 F254.00 
G01 X-22.1181 Y18.1813 F508.00 
G01 X-22.2631 Y18.0759 
G01 X-22.4228 Y17.9945 
G01 X-22.5933 Y17.9391 
G01 X-22.7704 Y17.9111 
G01 X-22.9496 Y17.9111 
G01 X-23.1267 Y17.9391 
G01 X-23.2972 Y17.9945 
G01 X-23.4569 Y18.0759 
G01 X-23.6019 Y18.1813 
G01 X-23.7287 Y18.3081 
G01 X-23.8341 Y18.4531 
G01 X-23.9155 Y18.6128 
G01 X-23.9709 Y18.7833 
G01 X-23.9989 Y18.9604 
G01 X-23.9989 Y19.1396 
G01 X-23.9709 Y19.3167 
G01 X-23.9155 Y19.4872 
G01 X-23.8341 Y19.6469 
G01 X-23.7287 Y19.7919 
G01 X-23.6019 Y19.9187 
G01 X-23.4569 Y20.0241 
G01 X-23.2972 Y20.1055 
G01 X-23.1267 Y20.1609 
G01 X-22.9496 Y20.1889 
G01 X-22.7704 Y20.1889 
G01 X-22.5933 Y20.1609 
G01 X-22.4228 Y20.1055 
G01 X-22.2631 Y20.0241 
G01 X-22.1181 Y19.9187 
G01 X-21.9913 Y19.7919 
G01 X-21.8859 Y19.6469 
G01 X-21.8045 Y19.4872 
G01 X-21.7491 Y19.3167 
G01 X-21.7211 Y19.1396 
G01 X-21.7211 Y18.9604 
G01 X-21.7491 Y18.7833 
G01 X-21.8045 Y18.6128 
G01 X-21.8859 Y18.4531 
G01 X-21.9913 Y18.3081 
G00 Z2.0000 
G00 X-21.9913 Y20.8481 
G01 Z-0.0250 F254.00 
G01 X-22.1181 Y20.7213 F508.00 
G01 X-22.2631 Y20.6159 
G01 X-22.4228 Y20.5345 
G01 X-22.5933 Y20.4791 
G01 X-22.7704 Y20.4511 
G01 X-22.9496 Y20.4511 
G01 X-23.1267 Y20.4791 
G01 X-23.2972 Y20.5345 
G01 X-23.4569 Y20.6159 
G01 X-23.6019 Y20.7213 
G01 X-23.7287 Y20.8481 
G01 X-23.8341 Y20.9931 
G01 X-23.8687 Y21.0611 
G01 X-39.5101 Y21.0611 
G01 X-39.5736 Y20.9365 
G01 X-39.6889 Y20.7777 
G01 X-39.8277 Y20.6389 
G01 X-39.9865 Y20.5236 
G01 X-40.1614 Y20.4345 
G01 X-40.3480 Y20.3738 
G01 X-40.5419 Y20.3431 
G01 X-40.7381 Y20.3431 
G01 X-40.9320 Y20.3738 
G01 X-41.1186 Y20.4345 
G01 X-41.2935 Y20.5236 
G01 X-41.4523 Y20.6389 
G01 X-41.5911 Y20.7777 
G01 X-41.7064 Y20.9365 
G01 X-41.7955 Y21.1114 
G01 X-41.8562 Y21.2980 
G01 X-41.8869 Y21.4919 
G01 X-41.8869 Y21.6881 
G01 X-41.8562 Y21.8820 
G01 X-41.7955 Y22.0686 
G01 X-41.7064 Y22.2435 
G01 X-41.5911 Y22.4023 
G01 X-41.4523 Y22.5411 
G01 X-41.2935 Y22.6564 
G01 X-41.1186 Y22.7455 
G01 X-40.9320 Y22.8062 
G01 X-40.7381 Y22.8369 
G01 X-40.5419 Y22.8369 
G01 X-40.3480 Y22.8062 
G01 X-40.1614 Y22.7455 
G01 X-39.9865 Y22.6564 
G01 X-39.8277 Y22.5411 
G01 X-39.6889 Y22.4023 
G01 X-39.5736 Y22.2435 
G01 X-39.5203 Y22.1389 
G01 X-23.8585 Y22.1389 
G01 X-23.8341 Y22.1869 
G01 X-23.7287 Y22.3319 
G01 X-23.6019 Y22.4587 
G01 X-23.4569 Y22.5641 
G01 X-23.2972 Y22.6455 
G01 X-23.1267 Y22.7009 
G01 X-22.9496 Y22.7289 
G01 X-22.7704 Y22.7289 
G01 X-22.5933 Y22.7009 
G01 X-22.4228 Y22.6455 
G01 X-22.2631 Y22.5641 
G01 X-22.1181 Y22.4587 
G01 X-21.9913 Y22.3319 
G01 X-21.8859 Y22.1869 
G01 X-21.8045 Y22.0272 
G01 X-21.7491 Y21.8567 
G01 X-21.7211 Y21.6796 
G01 X-21.7211 Y21.5004 
G01 X-21.7491 Y21.3233 
G01 X-21.8045 Y21.1528 
G01 X-21.8859 Y20.9931 
G01 X-21.9913 Y20.8481 
G00 Z2.0000 
G00 X-21.9913 Y23.3881 
G01 Z-0.0250 F254.00 
G01 X-22.1181 Y23.2613 F508.00 
G01 X-22.2631 Y23.1559 
G01 X-22.4228 Y23.0745 
G01 X-22.5933 Y23.0191 
G01 X-22.7704 Y22.9911 
G01 X-22.9496 Y22.9911 
G01 X-23.1267 Y23.0191 
G01 X-23.2972 Y23.0745 
G01 X-23.4569 Y23.1559 
G01 X-23.6019 Y23.2613 
G01 X-23.7287 Y23.3881 
G01 X-23.8341 Y23.5331 
G01 X-23.9155 Y23.6928 
G01 X-23.9709 Y23.8633 
G01 X-23.9989 Y24.0404 
G01 X-23.9989 Y24.2196 
G01 X-23.9709 Y24.3967 
G01 X-23.9155 Y24.5672 
G01 X-23.8341 Y24.7269 
G01 X-23.7287 Y24.8719 
G01 X-23.6019 Y24.9987 
G01 X-23.4569 Y25.1041 
G01 X-23.2972 Y25.1855 
G01 X-23.1267 Y25.2409 
G01 X-22.9496 Y25.2689 
G01 X-22.7704 Y25.2689 
G01 X-22.5933 Y25.2409 
G01 X-22.4228 Y25.1855 
G01 X-22.2631 Y25.1041 
G01 X-22.1181 Y24.9987 
G01 X-21.9913 Y24.8719 
G01 X-21.8859 Y24.7269 
G01 X-21.8045 Y24.5672 
G01 X-21.7491 Y24.3967 
G01 X-21.7211 Y24.2196 
G01 X-21.7211 Y24.0404 
G01 X-21.7491 Y23.8633 
G01 X-21.8045 Y23.6928 
G01 X-21.8859 Y23.5331 
G01 X-21.9913 Y23.3881 
G00 Z2.0000 
G00 X-21.9913 Y25.9281 
G01 Z-0.0250 F254.00 
G01 X-22.1181 Y25.8013 F508.00 
G01 X-22.2631 Y25.6959 
G01 X-22.4228 Y25.6145 
G01 X-22.5933 Y25.5591 
G01 X-22.7704 Y25.5311 
G01 X-22.9496 Y25.5311 
G01 X-23.1267 Y25.5591 
G01 X-23.2972 Y25.6145 
G01 X-23.4569 Y25.6959 
G01 X-23.6019 Y25.8013 
G01 X-23.7287 Y25.9281 
G01 X-23.8341 Y26.0731 
G01 X-23.9155 Y26.2328 
G01 X-23.9709 Y26.4033 
G01 X-23.9989 Y26.5804 
G01 X-23.9989 Y26.7596 
G01 X-23.9709 Y26.9367 
G01 X-23.9155 Y27.1072 
G01 X-23.8341 Y27.2669 
G01 X-23.7287 Y27.4119 
G01 X-23.6019 Y27.5387 
G01 X-23.4569 Y27.6441 
G01 X-23.2972 Y27.7255 
G01 X-23.1267 Y27.7809 
G01 X-22.9496 Y27.8089 
G01 X-22.7704 Y27.8089 
G01 X-22.5933 Y27.7809 
G01 X-22.4228 Y27.7255 
G01 X-22.2631 Y27.6441 
G01 X-22.1181 Y27.5387 
G01 X-21.9913 Y27.4119 
G01 X-21.8859 Y27.2669 
G01 X-21.8045 Y27.1072 
G01 X-21.7491 Y26.9367 
G01 X-21.7211 Y26.7596 
G01 X-21.7211 Y26.5804 
G01 X-21.7491 Y26.4033 
G01 X-21.8045 Y26.2328 
G01 X-21.8859 Y26.0731 
G01 X-21.9913 Y25.9281 
G00 Z2.0000 
G00 X-21.9913 Y28.4681 
G01 Z-0.0250 F254.00 
G01 X-22.1181 Y28.3413 F508.00 
G01 X-22.2631 Y28.2359 
G01 X-22.4228 Y28.1545 
G01 X-22.5933 Y28.0991 
G01 X-22.7704 Y28.0711 
G01 X-22.9496 Y28.0711 
G01 X-23.1267 Y28.0991 
G01 X-23.2972 Y28.1545 
G01 X-23.4569 Y28.2359 
G01 X-23.6019 Y28.3413 
G01 X-23.7287 Y28.4681 
G01 X-23.8341 Y28.6131 
G01 X-23.9155 Y28.7728 
G01 X-23.9709 Y28.9433 
G01 X-23.9989 Y29.1204 
G01 X-23.9989 Y29.2996 
G01 X-23.9709 Y29.4767 
G01 X-23.9155 Y29.6472 
G01 X-23.8341 Y29.8069 
G01 X-23.7287 Y29.9519 
G01 X-23.6019 Y30.0787 
G01 X-23.4569 Y30.1841 
G01 X-23.2972 Y30.2655 
G01 X-23.1267 Y30.3209 
G01 X-22.9496 Y30.3489 
G01 X-22.7704 Y30.3489 
G01 X-22.5933 Y30.3209 
G01 X-22.4228 Y30.2655 
G01 X-22.2631 Y30.1841 
G01 X-22.1181 Y30.0787 
G01 X-21.9913 Y29.9519 
G01 X-21.8859 Y29.8069 
G01 X-21.8045 Y29.6472 
G01 X-21.7491 Y29.4767 
G01 X-21.7211 Y29.2996 
G01 X-21.7211 Y29.1204 
G01 X-21.7491 Y28.9433 
G01 X-21.8045 Y28.7728 
G01 X-21.8859 Y28.6131 
G01 X-21.9913 Y28.4681 
G00 Z2.0000 
G00 X-21.9913 Y31.0081 
G01 Z-0.0250 F254.00 
G01 X-22.1181 Y30.8813 F508.00 
G01 X-22.2631 Y30.7759 
G01 X-22.4228 Y30.6945 
G01 X-22.5933 Y30.6391 
G01 X-22.7704 Y30.6111 
G01 X-22.9496 Y30.6111 
G01 X-23.1267 Y30.6391 
G01 X-23.2972 Y30.6945 
G01 X-23.4569 Y30.7759 
G01 X-23.6019 Y30.8813 
G01 X-23.7287 Y31.0081 
G01 X-23.8341 Y31.1531 
G01 X-23.9155 Y31.3128 
G01 X-23.9709 Y31.4833 
G01 X-23.9989 Y31.6604 
G01 X-23.9989 Y31.8396 
G01 X-23.9709 Y32.0167 
G01 X-23.9155 Y32.1872 
G01 X-23.8341 Y32.3469 
G01 X-23.7287 Y32.4919 
G01 X-23.6019 Y32.6187 
G01 X-23.4569 Y32.7241 
G01 X-23.2972 Y32.8055 
G01 X-23.1267 Y32.8609 
G01 X-22.9496 Y32.8889 
G01 X-22.7704 Y32.8889 
G01 X-22.5933 Y32.8609 
G01 X-22.4228 Y32.8055 
G01 X-22.2631 Y32.7241 
G01 X-22.1181 Y32.6187 
G01 X-21.9913 Y32.4919 
G01 X-21.8859 Y32.3469 
G01 X-21.8045 Y32.1872 
G01 X-21.7491 Y32.0167 
G01 X-21.7211 Y31.8396 
G01 X-21.7211 Y31.6604 
G01 X-21.7491 Y31.4833 
G01 X-21.8045 Y31.3128 
G01 X-21.8859 Y31.1531 
G01 X-21.9913 Y31.0081 
G00 Z2.0000 
G00 X-21.9913 Y33.5481 
G01 Z-0.0250 F254.00 
G01 X-22.1181 Y33.4213 F508.00 
G01 X-22.2631 Y33.3159 
G01 X-22.4228 Y33.2345 
G01 X-22.5933 Y33.1791 
G01 X-22.7704 Y33.1511 
G01 X-22.9496 Y33.1511 
G01 X-23.1267 Y33.1791 
G01 X-23.2972 Y33.2345 
G01 X-23.4569 Y33.3159 
G01 X-23.6019 Y33.4213 
G01 X-23.7287 Y33.5481 
G01 X-23.8341 Y33.6931 
G01 X-23.9155 Y33.8528 
G01 X-23.9709 Y34.0233 
G01 X-23.9989 Y34.2004 
G01 X-23.9989 Y34.3796 
G01 X-23.9709 Y34.5567 
G01 X-23.9155 Y34.7272 
G01 X-23.8341 Y34.8869 
G01 X-23.7287 Y35.0319 
G01 X-23.6019 Y35.1587 
G01 X-23.4569 Y35.2641 
G01 X-23.2972 Y35.3455 
G01 X-23.1267 Y35.4009 
G01 X-22.9496 Y35.4289 
G01 X-22.7704 Y35.4289 
G01 X-22.5933 Y35.4009 
G01 X-22.4228 Y35.3455 
G01 X-22.2631 Y35.2641 
G01 X-22.1181 Y35.1587 
G01 X-21.9913 Y35.0319 
G01 X-21.8859 Y34.8869 
G01 X-21.8045 Y34.7272 
G01 X-21.7491 Y34.5567 
G01 X-21.7211 Y34.3796 
G01 X-21.7211 Y34.2004 
G01 X-21.7491 Y34.0233 
G01 X-21.8045 Y33.8528 
G01 X-21.8859 Y33.6931 
G01 X-21.9913 Y33.5481 
G00 Z2.0000 
G00 X-21.9913 Y36.0881 
G01 Z-0.0250 F254.00 
G01 X-22.1181 Y35.9613 F508.00 
G01 X-22.2631 Y35.8559 
G01 X-22.4228 Y35.7745 
G01 X-22.5933 Y35.7191 
G01 X-22.7704 Y35.6911 
G01 X-22.9496 Y35.6911 
G01 X-23.1267 Y35.7191 
G01 X-23.2972 Y35.7745 
G01 X-23.4569 Y35.8559 
G01 X-23.6019 Y35.9613 
G01 X-23.7287 Y36.0881 
G01 X-23.8341 Y36.2331 
G01 X-23.9155 Y36.3928 
G01 X-23.9709 Y36.5633 
G01 X-23.9989 Y36.7404 
G01 X-23.9989 Y36.9196 
G01 X-23.9709 Y37.0967 
G01 X-23.9155 Y37.2672 
G01 X-23.8341 Y37.4269 
G01 X-23.7287 Y37.5719 
G01 X-23.6019 Y37.6987 
G01 X-23.4569 Y37.8041 
G01 X-23.2972 Y37.8855 
G01 X-23.1267 Y37.9409 
G01 X-22.9496 Y37.9689 
G01 X-22.7704 Y37.9689 
G01 X-22.5933 Y37.9409 
G01 X-22.4228 Y37.8855 
G01 X-22.2631 Y37.8041 
G01 X-22.1181 Y37.6987 
G01 X-21.9913 Y37.5719 
G01 X-21.8859 Y37.4269 
G01 X-21.8045 Y37.2672 
G01 X-21.7491 Y37.0967 
G01 X-21.7211 Y36.9196 
G01 X-21.7211 Y36.7404 
G01 X-21.7491 Y36.5633 
G01 X-21.8045 Y36.3928 
G01 X-21.8859 Y36.2331 
G01 X-21.9913 Y36.0881 
G00 Z2.0000 
G00 X-21.9913 Y38.6281 
G01 Z-0.0250 F254.00 
G01 X-22.1181 Y38.5013 F508.00 
G01 X-22.2631 Y38.3959 
G01 X-22.4228 Y38.3145 
G01 X-22.5933 Y38.2591 
G01 X-22.7704 Y38.2311 
G01 X-22.9496 Y38.2311 
G01 X-23.1267 Y38.2591 
G01 X-23.2972 Y38.3145 
G01 X-23.4569 Y38.3959 
G01 X-23.6019 Y38.5013 
G01 X-23.7287 Y38.6281 
G01 X-23.7527 Y38.6611 
G01 X-23.7768 Y38.6611 
G01 X-38.4691 Y23.9688 
G01 X-38.5920 Y23.8978 
G01 X-38.7291 Y23.8611 
G01 X-39.4138 Y23.8611 
G01 X-39.4238 Y23.7980 
G01 X-39.4845 Y23.6114 
G01 X-39.5736 Y23.4365 
G01 X-39.6889 Y23.2777 
G01 X-39.8277 Y23.1389 
G01 X-39.9865 Y23.0236 
G01 X-40.1614 Y22.9345 
G01 X-40.3480 Y22.8738 
G01 X-40.5419 Y22.8431 
G01 X-40.7381 Y22.8431 
G01 X-40.9320 Y22.8738 
G01 X-41.1186 Y22.9345 
G01 X-41.2935 Y23.0236 
G01 X-41.4523 Y23.1389 
G01 X-41.5911 Y23.2777 
G01 X-41.7064 Y23.4365 
G01 X-41.7955 Y23.6114 
G01 X-41.8562 Y23.7980 
G01 X-41.8869 Y23.9919 
G01 X-41.8869 Y24.1881 
G01 X-41.8562 Y24.3820 
G01 X-41.7955 Y24.5686 
G01 X-41.7064 Y24.7435 
G01 X-41.5911 Y24.9023 
G01 X-41.4523 Y25.0411 
G01 X-41.2935 Y25.1564 
G01 X-41.1186 Y25.2455 
G01 X-40.9320 Y25.3062 
G01 X-40.7381 Y25.3369 
G01 X-40.5419 Y25.3369 
G01 X-40.3480 Y25.3062 
G01 X-40.1614 Y25.2455 
G01 X-39.9865 Y25.1564 
G01 X-39.8277 Y25.0411 
G01 X-39.7255 Y24.9389 
G01 X-39.0232 Y24.9389 
G01 X-24.4312 Y39.5309 
G01 X-24.3309 Y39.6312 
G01 X-24.2080 Y39.7022 
G01 X-24.0709 Y39.7389 
G01 X-23.9376 Y39.7389 
G01 X-23.9155 Y39.8072 
G01 X-23.8341 Y39.9669 
G01 X-23.7287 Y40.1119 
G01 X-23.6019 Y40.2387 
G01 X-23.4569 Y40.3441 
G01 X-23.2972 Y40.4255 
G01 X-23.1267 Y40.4809 
G01 X-22.9496 Y40.5089 
G01 X-22.7704 Y40.5089 
G01 X-22.5933 Y40.4809 
G01 X-22.4228 Y40.4255 
G01 X-22.2631 Y40.3441 
G01 X-22.1181 Y40.2387 
G01 X-21.9913 Y40.1119 
G01 X-21.8859 Y39.9669 
G01 X-21.8045 Y39.8072 
G01 X-21.7491 Y39.6367 
G01 X-21.7211 Y39.4596 
G01 X-21.7211 Y39.2804 
G01 X-21.7491 Y39.1033 
G01 X-21.8045 Y38.9328 
G01 X-21.8859 Y38.7731 
G01 X-21.9913 Y38.6281 
G00 Z2.0000 
G00 X-21.9913 Y41.1681 
G01 Z-0.0250 F254.00 
G01 X-22.1181 Y41.0413 F508.00 
G01 X-22.2631 Y40.9359 
G01 X-22.4228 Y40.8545 
G01 X-22.5933 Y40.7991 
G01 X-22.7704 Y40.7711 
G01 X-22.9496 Y40.7711 
G01 X-23.1267 Y40.7991 
G01 X-23.2972 Y40.8545 
G01 X-23.4569 Y40.9359 
G01 X-23.6019 Y41.0413 
G01 X-23.7287 Y41.1681 
G01 X-23.8341 Y41.3131 
G01 X-23.9155 Y41.4728 
G01 X-23.9709 Y41.6433 
G01 X-23.9989 Y41.8204 
G01 X-23.9989 Y41.9996 
G01 X-23.9709 Y42.1767 
G01 X-23.9155 Y42.3472 
G01 X-23.8341 Y42.5069 
G01 X-23.7287 Y42.6519 
G01 X-23.6019 Y42.7787 
G01 X-23.4569 Y42.8841 
G01 X-23.2972 Y42.9655 
G01 X-23.1267 Y43.0209 
G01 X-22.9496 Y43.0489 
G01 X-22.7704 Y43.0489 
G01 X-22.5933 Y43.0209 
G01 X-22.4228 Y42.9655 
G01 X-22.2631 Y42.8841 
G01 X-22.1181 Y42.7787 
G01 X-21.9913 Y42.6519 
G01 X-21.8859 Y42.5069 
G01 X-21.8045 Y42.3472 
G01 X-21.7491 Y42.1767 
G01 X-21.7211 Y41.9996 
G01 X-21.7211 Y41.8204 
G01 X-21.7491 Y41.6433 
G01 X-21.8045 Y41.4728 
G01 X-21.8859 Y41.3131 
G01 X-21.9913 Y41.1681 
G00 Z2.0000 
G00 X-21.9913 Y43.7081 
G01 Z-0.0250 F254.00 
G01 X-22.1181 Y43.5813 F508.00 
G01 X-22.2631 Y43.4759 
G01 X-22.4228 Y43.3945 
G01 X-22.5933 Y43.3391 
G01 X-22.7704 Y43.3111 
G01 X-22.9496 Y43.3111 
G01 X-23.1267 Y43.3391 
G01 X-23.2972 Y43.3945 
G01 X-23.4569 Y43.4759 
G01 X-23.6019 Y43.5813 
G01 X-23.7287 Y43.7081 
G01 X-23.8341 Y43.8531 
G01 X-23.9155 Y44.0128 
G01 X-23.9709 Y44.1833 
G01 X-23.9989 Y44.3604 
G01 X-23.9989 Y44.5396 
G01 X-23.9709 Y44.7167 
G01 X-23.9155 Y44.8872 
G01 X-23.8341 Y45.0469 
G01 X-23.7287 Y45.1919 
G01 X-23.6019 Y45.3187 
G01 X-23.4569 Y45.4241 
G01 X-23.2972 Y45.5055 
G01 X-23.1267 Y45.5609 
G01 X-22.9496 Y45.5889 
G01 X-22.7704 Y45.5889 
G01 X-22.5933 Y45.5609 
G01 X-22.4228 Y45.5055 
G01 X-22.2631 Y45.4241 
G01 X-22.1181 Y45.3187 
G01 X-21.9913 Y45.1919 
G01 X-21.8859 Y45.0469 
G01 X-21.8045 Y44.8872 
G01 X-21.7491 Y44.7167 
G01 X-21.7211 Y44.5396 
G01 X-21.7211 Y44.3604 
G01 X-21.7491 Y44.1833 
G01 X-21.8045 Y44.0128 
G01 X-21.8859 Y43.8531 
G01 X-21.9913 Y43.7081 
G00 Z2.0000 
G00 X-21.9913 Y46.2481 
G01 Z-0.0250 F254.00 
G01 X-22.1181 Y46.1213 F508.00 
G01 X-22.2631 Y46.0159 
G01 X-22.4228 Y45.9345 
G01 X-22.5933 Y45.8791 
G01 X-22.7704 Y45.8511 
G01 X-22.9496 Y45.8511 
G01 X-23.1267 Y45.8791 
G01 X-23.2972 Y45.9345 
G01 X-23.4569 Y46.0159 
G01 X-23.6019 Y46.1213 
G01 X-23.7287 Y46.2481 
G01 X-23.8341 Y46.3931 
G01 X-23.9155 Y46.5528 
G01 X-23.9709 Y46.7233 
G01 X-23.9989 Y46.9004 
G01 X-23.9989 Y47.0796 
G01 X-23.9709 Y47.2567 
G01 X-23.9155 Y47.4272 
G01 X-23.8341 Y47.5869 
G01 X-23.7287 Y47.7319 
G01 X-23.6019 Y47.8587 
G01 X-23.4569 Y47.9641 
G01 X-23.2972 Y48.0455 
G01 X-23.1267 Y48.1009 
G01 X-22.9496 Y48.1289 
G01 X-22.7704 Y48.1289 
G01 X-22.5933 Y48.1009 
G01 X-22.4228 Y48.0455 
G01 X-22.2631 Y47.9641 
G01 X-22.1181 Y47.8587 
G01 X-21.9913 Y47.7319 
G01 X-21.8859 Y47.5869 
G01 X-21.8045 Y47.4272 
G01 X-21.7491 Y47.2567 
G01 X-21.7211 Y47.0796 
G01 X-21.7211 Y46.9004 
G01 X-21.7491 Y46.7233 
G01 X-21.8045 Y46.5528 
G01 X-21.8859 Y46.3931 
G01 X-21.9913 Y46.2481 
G00 Z2.0000 
G00 X-24.3688 Y52.0691 
G01 Z-0.0250 F254.00 
G01 X-30.3688 Y46.0691 F508.00 
G01 X-30.4691 Y45.9688 
G01 X-30.5920 Y45.8978 
G01 X-30.7291 Y45.8611 
G01 X-32.4709 Y45.8611 
G01 X-32.6080 Y45.8978 
G01 X-32.7309 Y45.9688 
G01 X-34.3309 Y47.5688 
G01 X-34.4312 Y47.6691 
G01 X-34.5022 Y47.7920 
G01 X-34.5199 Y47.8582 
G01 X-34.5417 Y47.8616 
G01 X-34.7122 Y47.9170 
G01 X-34.8719 Y47.9984 
G01 X-35.0169 Y48.1038 
G01 X-35.1437 Y48.2306 
G01 X-35.2491 Y48.3756 
G01 X-35.3305 Y48.5353 
G01 X-35.3859 Y48.7058 
G01 X-35.4139 Y48.8829 
G01 X-35.4139 Y49.0621 
G01 X-35.3859 Y49.2392 
G01 X-35.3305 Y49.4097 
G01 X-35.2491 Y49.5694 
G01 X-35.1437 Y49.7144 
G01 X-35.0169 Y49.8412 
G01 X-34.8719 Y49.9466 
G01 X-34.7122 Y50.0280 
G01 X-34.5417 Y50.0834 
G01 X-34.3646 Y50.1114 
G01 X-34.1854 Y50.1114 
G01 X-34.0083 Y50.0834 
G01 X-33.8378 Y50.0280 
G01 X-33.6781 Y49.9466 
G01 X-33.5331 Y49.8412 
G01 X-33.4063 Y49.7144 
G01 X-33.3009 Y49.5694 
G01 X-33.2195 Y49.4097 
G01 X-33.1641 Y49.2392 
G01 X-33.1361 Y49.0621 
G01 X-33.1361 Y48.8829 
G01 X-33.1641 Y48.7058 
G01 X-33.2195 Y48.5353 
G01 X-33.3009 Y48.3756 
G01 X-33.4063 Y48.2306 
G01 X-33.4374 Y48.1995 
G01 X-32.1768 Y46.9389 
G01 X-31.0232 Y46.9389 
G01 X-25.3389 Y52.6232 
G01 X-25.3389 Y52.9964 
G01 X-25.3969 Y53.0259 
G01 X-25.5419 Y53.1313 
G01 X-25.6687 Y53.2581 
G01 X-25.7741 Y53.4031 
G01 X-25.8555 Y53.5628 
G01 X-25.9109 Y53.7333 
G01 X-25.9389 Y53.9104 
G01 X-25.9389 Y54.0896 
G01 X-25.9109 Y54.2667 
G01 X-25.8555 Y54.4372 
G01 X-25.7741 Y54.5969 
G01 X-25.6687 Y54.7419 
G01 X-25.5419 Y54.8687 
G01 X-25.3969 Y54.9741 
G01 X-25.2372 Y55.0555 
G01 X-25.0667 Y55.1109 
G01 X-24.8896 Y55.1389 
G01 X-24.7104 Y55.1389 
G01 X-24.5333 Y55.1109 
G01 X-24.3628 Y55.0555 
G01 X-24.2031 Y54.9741 
G01 X-24.0581 Y54.8687 
G01 X-23.9313 Y54.7419 
G01 X-23.8259 Y54.5969 
G01 X-23.7445 Y54.4372 
G01 X-23.6891 Y54.2667 
G01 X-23.6611 Y54.0896 
G01 X-23.6611 Y53.9104 
G01 X-23.6891 Y53.7333 
G01 X-23.7445 Y53.5628 
G01 X-23.8259 Y53.4031 
G01 X-23.9313 Y53.2581 
G01 X-24.0581 Y53.1313 
G01 X-24.2031 Y53.0259 
G01 X-24.2611 Y52.9964 
G01 X-24.2611 Y52.4709 
G01 X-24.2611 Y52.3291 
G01 X-24.2978 Y52.1920 
G01 X-24.3688 Y52.0691 
G00 Z2.0000 
G00 X-30.9931 Y49.8412 
G01 Z-0.0250 F254.00 
G01 X-30.8663 Y49.7144 F508.00 
G01 X-30.7609 Y49.5694 
G01 X-30.6795 Y49.4097 
G01 X-30.6241 Y49.2392 
G01 X-30.5961 Y49.0621 
G01 X-30.5961 Y48.8829 
G01 X-30.6241 Y48.7058 
G01 X-30.6795 Y48.5353 
G01 X-30.7609 Y48.3756 
G01 X-30.8663 Y48.2306 
G01 X-30.9931 Y48.1038 
G01 X-31.1381 Y47.9984 
G01 X-31.2978 Y47.9170 
G01 X-31.4683 Y47.8616 
G01 X-31.6454 Y47.8336 
G01 X-31.8246 Y47.8336 
G01 X-32.0017 Y47.8616 
G01 X-32.1722 Y47.9170 
G01 X-32.3319 Y47.9984 
G01 X-32.4769 Y48.1038 
G01 X-32.6037 Y48.2306 
G01 X-32.7091 Y48.3756 
G01 X-32.7905 Y48.5353 
G01 X-32.8459 Y48.7058 
G01 X-32.8739 Y48.8829 
G01 X-32.8739 Y49.0621 
G01 X-32.8459 Y49.2392 
G01 X-32.7905 Y49.4097 
G01 X-32.7091 Y49.5694 
G01 X-32.6037 Y49.7144 
G01 X-32.4769 Y49.8412 
G01 X-32.3319 Y49.9466 
G01 X-32.1722 Y50.0280 
G01 X-32.0017 Y50.0834 
G01 X-31.8246 Y50.1114 
G01 X-31.6454 Y50.1114 
G01 X-31.4683 Y50.0834 
G01 X-31.2978 Y50.0280 
G01 X-31.1381 Y49.9466 
G01 X-30.9931 Y49.8412 
G00 Z2.0000 
G00 X-33.4063 Y50.7706 
G01 Z-0.0250 F254.00 
G01 X-33.5331 Y50.6438 F508.00 
G01 X-33.6781 Y50.5384 
G01 X-33.8378 Y50.4570 
G01 X-34.0083 Y50.4016 
G01 X-34.1854 Y50.3736 
G01 X-34.3646 Y50.3736 
G01 X-34.5417 Y50.4016 
G01 X-34.7122 Y50.4570 
G01 X-34.8719 Y50.5384 
G01 X-35.0169 Y50.6438 
G01 X-35.1437 Y50.7706 
G01 X-35.2491 Y50.9156 
G01 X-35.3305 Y51.0753 
G01 X-35.3859 Y51.2458 
G01 X-35.4139 Y51.4229 
G01 X-35.4139 Y51.6021 
G01 X-35.3859 Y51.7792 
G01 X-35.3305 Y51.9497 
G01 X-35.2491 Y52.1094 
G01 X-35.1437 Y52.2544 
G01 X-35.0169 Y52.3812 
G01 X-34.8719 Y52.4866 
G01 X-34.7122 Y52.5680 
G01 X-34.5417 Y52.6234 
G01 X-34.3646 Y52.6514 
G01 X-34.1854 Y52.6514 
G01 X-34.0083 Y52.6234 
G01 X-33.8378 Y52.5680 
G01 X-33.6781 Y52.4866 
G01 X-33.5331 Y52.3812 
G01 X-33.4063 Y52.2544 
G01 X-33.3009 Y52.1094 
G01 X-33.2195 Y51.9497 
G01 X-33.1641 Y51.7792 
G01 X-33.1361 Y51.6021 
G01 X-33.1361 Y51.4229 
G01 X-33.1641 Y51.2458 
G01 X-33.2195 Y51.0753 
G01 X-33.3009 Y50.9156 
G01 X-33.4063 Y50.7706 
G00 Z2.0000 
G00 X-35.9463 Y50.7706 
G01 Z-0.0250 F254.00 
G01 X-36.0731 Y50.6438 F508.00 
G01 X-36.2181 Y50.5384 
G01 X-36.3778 Y50.4570 
G01 X-36.5483 Y50.4016 
G01 X-36.7254 Y50.3736 
G01 X-36.9046 Y50.3736 
G01 X-37.0817 Y50.4016 
G01 X-37.2522 Y50.4570 
G01 X-37.4119 Y50.5384 
G01 X-37.5569 Y50.6438 
G01 X-37.6837 Y50.7706 
G01 X-37.7891 Y50.9156 
G01 X-37.8705 Y51.0753 
G01 X-37.9259 Y51.2458 
G01 X-37.9539 Y51.4229 
G01 X-37.9539 Y51.6021 
G01 X-37.9259 Y51.7792 
G01 X-37.8705 Y51.9497 
G01 X-37.7891 Y52.1094 
G01 X-37.6837 Y52.2544 
G01 X-37.5569 Y52.3812 
G01 X-37.4119 Y52.4866 
G01 X-37.2522 Y52.5680 
G01 X-37.0817 Y52.6234 
G01 X-36.9046 Y52.6514 
G01 X-36.7254 Y52.6514 
G01 X-36.5483 Y52.6234 
G01 X-36.3778 Y52.5680 
G01 X-36.2181 Y52.4866 
G01 X-36.0731 Y52.3812 
G01 X-35.9463 Y52.2544 
G01 X-35.8409 Y52.1094 
G01 X-35.7595 Y51.9497 
G01 X-35.7041 Y51.7792 
G01 X-35.6761 Y51.6021 
G01 X-35.6761 Y51.4229 
G01 X-35.7041 Y51.2458 
G01 X-35.7595 Y51.0753 
G01 X-35.8409 Y50.9156 
G01 X-35.9463 Y50.7706 
G00 Z2.0000 
G00 X-36.0731 Y49.8412 
G01 Z-0.0250 F254.00 
G01 X-35.9463 Y49.7144 F508.00 
G01 X-35.8409 Y49.5694 
G01 X-35.7595 Y49.4097 
G01 X-35.7041 Y49.2392 
G01 X-35.6761 Y49.0621 
G01 X-35.6761 Y48.8829 
G01 X-35.7041 Y48.7058 
G01 X-35.7595 Y48.5353 
G01 X-35.8409 Y48.3756 
G01 X-35.9463 Y48.2306 
G01 X-36.0731 Y48.1038 
G01 X-36.2181 Y47.9984 
G01 X-36.3778 Y47.9170 
G01 X-36.5483 Y47.8616 
G01 X-36.7254 Y47.8336 
G01 X-36.9046 Y47.8336 
G01 X-37.0817 Y47.8616 
G01 X-37.2522 Y47.9170 
G01 X-37.4119 Y47.9984 
G01 X-37.5569 Y48.1038 
G01 X-37.6837 Y48.2306 
G01 X-37.7891 Y48.3756 
G01 X-37.8705 Y48.5353 
G01 X-37.9259 Y48.7058 
G01 X-37.9539 Y48.8829 
G01 X-37.9539 Y49.0621 
G01 X-37.9259 Y49.2392 
G01 X-37.8705 Y49.4097 
G01 X-37.7891 Y49.5694 
G01 X-37.6837 Y49.7144 
G01 X-37.5569 Y49.8412 
G01 X-37.4119 Y49.9466 
G01 X-37.2522 Y50.0280 
G01 X-37.0817 Y50.0834 
G01 X-36.9046 Y50.1114 
G01 X-36.7254 Y50.1114 
G01 X-36.5483 Y50.0834 
G01 X-36.3778 Y50.0280 
G01 X-36.2181 Y49.9466 
G01 X-36.0731 Y49.8412 
G00 Z2.0000 
G00 X-38.6131 Y49.8412 
G01 Z-0.0250 F254.00 
G01 X-38.4863 Y49.7144 F508.00 
G01 X-38.3809 Y49.5694 
G01 X-38.2995 Y49.4097 
G01 X-38.2441 Y49.2392 
G01 X-38.2161 Y49.0621 
G01 X-38.2161 Y48.8829 
G01 X-38.2441 Y48.7058 
G01 X-38.2995 Y48.5353 
G01 X-38.3809 Y48.3756 
G01 X-38.4863 Y48.2306 
G01 X-38.6131 Y48.1038 
G01 X-38.7581 Y47.9984 
G01 X-38.9178 Y47.9170 
G01 X-39.0883 Y47.8616 
G01 X-39.2654 Y47.8336 
G01 X-39.4446 Y47.8336 
G01 X-39.6217 Y47.8616 
G01 X-39.7922 Y47.9170 
G01 X-39.9519 Y47.9984 
G01 X-40.0969 Y48.1038 
G01 X-40.2237 Y48.2306 
G01 X-40.3291 Y48.3756 
G01 X-40.4105 Y48.5353 
G01 X-40.4659 Y48.7058 
G01 X-40.4939 Y48.8829 
G01 X-40.4939 Y49.0621 
G01 X-40.4659 Y49.2392 
G01 X-40.4105 Y49.4097 
G01 X-40.3291 Y49.5694 
G01 X-40.2237 Y49.7144 
G01 X-40.0969 Y49.8412 
G01 X-39.9519 Y49.9466 
G01 X-39.7922 Y50.0280 
G01 X-39.6217 Y50.0834 
G01 X-39.4446 Y50.1114 
G01 X-39.2654 Y50.1114 
G01 X-39.0883 Y50.0834 
G01 X-38.9178 Y50.0280 
G01 X-38.7581 Y49.9466 
G01 X-38.6131 Y49.8412 
G00 Z2.0000 
G00 X-38.6131 Y50.6438 
G01 Z-0.0250 F254.00 
G01 X-38.7581 Y50.5384 F508.00 
G01 X-38.9178 Y50.4570 
G01 X-39.0883 Y50.4016 
G01 X-39.2654 Y50.3736 
G01 X-39.4446 Y50.3736 
G01 X-39.6217 Y50.4016 
G01 X-39.7922 Y50.4570 
G01 X-39.9519 Y50.5384 
G01 X-40.0969 Y50.6438 
G01 X-40.2237 Y50.7706 
G01 X-40.3291 Y50.9156 
G01 X-40.4105 Y51.0753 
G01 X-40.4659 Y51.2458 
G01 X-40.4939 Y51.4229 
G01 X-40.4939 Y51.6021 
G01 X-40.4659 Y51.7792 
G01 X-40.4105 Y51.9497 
G01 X-40.3291 Y52.1094 
G01 X-40.2237 Y52.2544 
G01 X-40.0969 Y52.3812 
G01 X-39.9519 Y52.4866 
G01 X-39.7922 Y52.5680 
G01 X-39.6217 Y52.6234 
G01 X-39.4446 Y52.6514 
G01 X-39.2654 Y52.6514 
G01 X-39.0883 Y52.6234 
G01 X-38.9178 Y52.5680 
G01 X-38.7581 Y52.4866 
G01 X-38.6131 Y52.3812 
G01 X-38.4863 Y52.2544 
G01 X-38.3809 Y52.1094 
G01 X-38.2995 Y51.9497 
G01 X-38.2441 Y51.7792 
G01 X-38.2161 Y51.6021 
G01 X-38.2161 Y51.4229 
G01 X-38.2441 Y51.2458 
G01 X-38.2995 Y51.0753 
G01 X-38.3809 Y50.9156 
G01 X-38.4863 Y50.7706 
G01 X-38.6131 Y50.6438 
G00 Z2.0000 
G00 X-37.0793 Y60.7656 
G01 Z-0.0250 F254.00 
G01 X-37.0793 Y60.7656 F508.00 
G01 X-37.3341 Y61.0618 
G01 X-37.5585 Y61.3816 
G01 X-37.7501 Y61.7221 
G01 X-37.9071 Y62.0798 
G01 X-38.0280 Y62.4513 
G01 X-38.1117 Y62.8329 
G01 X-38.1572 Y63.2209 
G01 X-38.1642 Y63.6115 
G01 X-38.1326 Y64.0009 
G01 X-38.0627 Y64.3853 
G01 X-37.9551 Y64.7609 
G01 X-37.8109 Y65.1240 
G01 X-37.6316 Y65.4711 
G01 X-37.4189 Y65.7987 
G01 X-37.1749 Y66.1038 
G01 X-37.0640 Y66.2174 
G01 X-37.0372 Y66.2448 
G01 X-37.0116 Y66.2710 
G01 X-37.0089 Y66.2731 
G01 X-36.9770 Y66.2915 
G01 X-36.9456 Y66.3101 
G01 X-36.9424 Y66.3114 
G01 X-36.9070 Y66.3209 
G01 X-36.8718 Y66.3308 
G01 X-36.8683 Y66.3313 
G01 X-36.8317 Y66.3313 
G01 X-36.7951 Y66.3317 
G01 X-36.7916 Y66.3313 
G01 X-36.7561 Y66.3218 
G01 X-36.7208 Y66.3127 
G01 X-36.7176 Y66.3114 
G01 X-36.6857 Y66.2930 
G01 X-36.6539 Y66.2752 
G01 X-36.6511 Y66.2731 
G01 X-36.6252 Y66.2471 
G01 X-36.5990 Y66.2216 
G01 X-35.0893 Y64.7113 
G01 X-35.0893 Y66.4594 
G01 X-35.0694 Y66.5334 
G01 X-35.0378 Y66.5882 
G01 X-35.3025 Y66.5171 
G01 X-35.6077 Y66.4018 
G01 X-35.9001 Y66.2570 
G01 X-36.0406 Y66.1740 
G01 X-36.0731 Y66.1537 
G01 X-36.1465 Y66.1312 
G01 X-36.2231 Y66.1285 
G01 X-36.2979 Y66.1458 
G01 X-36.3656 Y66.1818 
G01 X-36.4217 Y66.2341 
G01 X-36.4623 Y66.2991 
G01 X-36.4848 Y66.3725 
G01 X-36.4875 Y66.4491 
G01 X-36.4702 Y66.5239 
G01 X-36.4342 Y66.5916 
G01 X-36.3819 Y66.6477 
G01 X-36.3494 Y66.6680 
G01 X-36.1865 Y66.7699 
G01 X-35.8421 Y66.9404 
G01 X-35.4826 Y67.0762 
G01 X-35.1115 Y67.1758 
G01 X-34.7323 Y67.2383 
G01 X-34.3489 Y67.2632 
G01 X-33.9648 Y67.2501 
G01 X-33.5839 Y67.1992 
G01 X-33.2099 Y67.1110 
G01 X-32.8464 Y66.9863 
G01 X-32.4970 Y66.8264 
G01 X-32.1651 Y66.6327 
G01 X-31.8538 Y66.4073 
G01 X-31.5664 Y66.1523 
G01 X-31.3054 Y65.8702 
G01 X-31.0736 Y65.5638 
G01 X-30.8731 Y65.2359 
G01 X-30.7060 Y64.8899 
G01 X-30.5737 Y64.5291 
G01 X-30.4777 Y64.1570 
G01 X-30.4189 Y63.7773 
G01 X-30.3978 Y63.3936 
G01 X-30.4147 Y63.0097 
G01 X-30.4693 Y62.6293 
G01 X-30.5612 Y62.2562 
G01 X-30.6894 Y61.8939 
G01 X-30.8528 Y61.5461 
G01 X-31.0496 Y61.2161 
G01 X-31.2781 Y60.9071 
G01 X-31.4070 Y60.7646 
G01 X-31.4327 Y60.7361 
G01 X-31.4971 Y60.6945 
G01 X-31.5701 Y60.6710 
G01 X-31.6467 Y60.6671 
G01 X-31.7217 Y60.6833 
G01 X-31.7900 Y60.7183 
G01 X-31.8469 Y60.7697 
G01 X-31.8848 Y60.8285 
G01 X-31.9289 Y60.8539 
G01 X-33.4907 Y62.4157 
G01 X-33.4907 Y60.6676 
G01 X-33.5106 Y60.5936 
G01 X-33.5489 Y60.5271 
G01 X-33.6031 Y60.4729 
G01 X-33.6696 Y60.4346 
G01 X-33.7436 Y60.4147 
G01 X-33.8204 Y60.4147 
G01 X-33.8944 Y60.4346 
G01 X-33.9609 Y60.4729 
G01 X-34.0151 Y60.5271 
G01 X-34.0360 Y60.5633 
G01 X-34.0569 Y60.5271 
G01 X-34.1111 Y60.4729 
G01 X-34.1776 Y60.4346 
G01 X-34.2516 Y60.4147 
G01 X-34.3284 Y60.4147 
G01 X-34.4024 Y60.4346 
G01 X-34.4689 Y60.4729 
G01 X-34.5231 Y60.5271 
G01 X-34.5614 Y60.5936 
G01 X-34.5813 Y60.6676 
G01 X-34.5813 Y63.8127 
G01 X-34.6191 Y63.7749 
G01 X-34.6856 Y63.7366 
G01 X-34.7596 Y63.7167 
G01 X-34.8364 Y63.7167 
G01 X-34.9104 Y63.7366 
G01 X-34.9769 Y63.7749 
G01 X-36.8156 Y65.6137 
G01 X-36.9426 Y65.4549 
G01 X-37.1237 Y65.1760 
G01 X-37.2764 Y64.8805 
G01 X-37.3991 Y64.5714 
G01 X-37.4906 Y64.2517 
G01 X-37.5502 Y63.9245 
G01 X-37.5771 Y63.5930 
G01 X-37.5711 Y63.2605 
G01 X-37.5324 Y62.9302 
G01 X-37.4612 Y62.6053 
G01 X-37.3582 Y62.2891 
G01 X-37.2245 Y61.9845 
G01 X-37.0614 Y61.6947 
G01 X-36.8705 Y61.4224 
G01 X-36.6535 Y61.1703 
G01 X-36.4128 Y60.9409 
G01 X-36.1505 Y60.7363 
G01 X-35.8694 Y60.5587 
G01 X-35.5720 Y60.4097 
G01 X-35.2614 Y60.2909 
G01 X-34.9406 Y60.2032 
G01 X-34.6127 Y60.1477 
G01 X-34.2809 Y60.1249 
G01 X-33.9485 Y60.1350 
G01 X-33.6187 Y60.1778 
G01 X-33.2947 Y60.2530 
G01 X-32.9798 Y60.3599 
G01 X-32.6769 Y60.4973 
G01 X-32.5310 Y60.5771 
G01 X-32.4978 Y60.5963 
G01 X-32.4237 Y60.6162 
G01 X-32.3470 Y60.6164 
G01 X-32.2729 Y60.5966 
G01 X-32.2065 Y60.5583 
G01 X-32.1521 Y60.5042 
G01 X-32.1137 Y60.4378 
G01 X-32.0938 Y60.3637 
G01 X-32.0936 Y60.2870 
G01 X-32.1134 Y60.2129 
G01 X-32.1517 Y60.1465 
G01 X-32.2058 Y60.0921 
G01 X-32.2390 Y60.0729 
G01 X-32.4080 Y59.9750 
G01 X-32.7638 Y59.8136 
G01 X-33.1338 Y59.6881 
G01 X-33.5143 Y59.5997 
G01 X-33.9017 Y59.5494 
G01 X-34.2922 Y59.5376 
G01 X-34.6820 Y59.5644 
G01 X-35.0672 Y59.6296 
G01 X-35.4440 Y59.7325 
G01 X-35.8089 Y59.8722 
G01 X-36.1582 Y60.0472 
G01 X-36.4885 Y60.2558 
G01 X-36.7965 Y60.4961 
G01 X-37.0793 Y60.7656 
G00 Z2.0000 
G00 X-33.9987 Y63.3143 
G01 Z-0.0250 F254.00 
G01 X-33.9609 Y63.3521 F508.00 
G01 X-33.8944 Y63.3904 
G01 X-33.8204 Y63.4103 
G01 X-33.7436 Y63.4103 
G01 X-33.6696 Y63.3904 
G01 X-33.6031 Y63.3521 
G01 X-31.6465 Y61.3955 
G01 X-31.5386 Y61.5415 
G01 X-31.3715 Y61.8217 
G01 X-31.2328 Y62.1170 
G01 X-31.1239 Y62.4246 
G01 X-31.0459 Y62.7414 
G01 X-30.9995 Y63.0644 
G01 X-30.9852 Y63.3903 
G01 X-31.0031 Y63.7161 
G01 X-31.0530 Y64.0386 
G01 X-31.1345 Y64.3545 
G01 X-31.2468 Y64.6608 
G01 X-31.3887 Y64.9546 
G01 X-31.5589 Y65.2330 
G01 X-31.7558 Y65.4932 
G01 X-31.9773 Y65.7327 
G01 X-32.2214 Y65.9492 
G01 X-32.4857 Y66.1406 
G01 X-32.7675 Y66.3050 
G01 X-33.0642 Y66.4408 
G01 X-33.3728 Y66.5467 
G01 X-33.6904 Y66.6216 
G01 X-34.0138 Y66.6648 
G01 X-34.1369 Y66.6690 
G01 X-34.1111 Y66.6541 
G01 X-34.0569 Y66.5999 
G01 X-34.0186 Y66.5334 
G01 X-33.9987 Y66.4594 
G01 X-33.9987 Y63.3143 
G00 Z2.0000 
G00 X-34.5440 Y66.5637 
G01 Z-0.0250 F254.00 
G01 X-34.5231 Y66.5999 F508.00 
G01 X-34.4689 Y66.6541 
G01 X-34.4426 Y66.6693 
G01 X-34.6249 Y66.6574 
G01 X-34.6191 Y66.6541 
G01 X-34.5649 Y66.5999 
G01 X-34.5440 Y66.5637 
G00 Z2.0000 
G00 X-40.2984 Y72.2467 
G01 Z-0.0250 F254.00 
G01 X-40.4967 Y72.0484 F508.00 
G01 X-40.7191 Y71.8778 
G01 X-40.9620 Y71.7376 
G01 X-41.2210 Y71.6303 
G01 X-41.4918 Y71.5577 
G01 X-41.7698 Y71.5211 
G01 X-42.0502 Y71.5211 
G01 X-42.3282 Y71.5577 
G01 X-42.5990 Y71.6303 
G01 X-42.8580 Y71.7376 
G01 X-43.1009 Y71.8778 
G01 X-43.3233 Y72.0484 
G01 X-43.5216 Y72.2467 
G01 X-43.6922 Y72.4691 
G01 X-43.8324 Y72.7120 
G01 X-43.9397 Y72.9710 
G01 X-44.0123 Y73.2418 
G01 X-44.0489 Y73.5198 
G01 X-44.0489 Y73.8002 
G01 X-44.0123 Y74.0782 
G01 X-43.9397 Y74.3490 
G01 X-43.8324 Y74.6080 
G01 X-43.6922 Y74.8509 
G01 X-43.5216 Y75.0733 
G01 X-43.3233 Y75.2716 
G01 X-43.1009 Y75.4422 
G01 X-42.8580 Y75.5824 
G01 X-42.5990 Y75.6897 
G01 X-42.3282 Y75.7623 
G01 X-42.0502 Y75.7989 
G01 X-41.7698 Y75.7989 
G01 X-41.4918 Y75.7623 
G01 X-41.2210 Y75.6897 
G01 X-40.9620 Y75.5824 
G01 X-40.7191 Y75.4422 
G01 X-40.4967 Y75.2716 
G01 X-40.2984 Y75.0733 
G01 X-40.1278 Y74.8509 
G01 X-39.9876 Y74.6080 
G01 X-39.8803 Y74.3490 
G01 X-39.8077 Y74.0782 
G01 X-39.7711 Y73.8002 
G01 X-39.7711 Y73.5198 
G01 X-39.8077 Y73.2418 
G01 X-39.8803 Y72.9710 
G01 X-39.9876 Y72.7120 
G01 X-40.1278 Y72.4691 
G01 X-40.2984 Y72.2467 
G00 Z2.0000 
G00 X-22.9639 Y72.2799 
G01 Z-0.0250 F254.00 
G01 X-22.9639 Y72.5001 F508.00 
G01 X-22.9294 Y72.7177 
G01 X-22.8614 Y72.9271 
G01 X-22.7614 Y73.1234 
G01 X-22.6319 Y73.3016 
G01 X-22.4762 Y73.4573 
G01 X-22.2980 Y73.5868 
G01 X-22.1017 Y73.6868 
G01 X-21.8923 Y73.7548 
G01 X-21.6747 Y73.7893 
G01 X-21.4545 Y73.7893 
G01 X-21.2369 Y73.7548 
G01 X-21.0275 Y73.6868 
G01 X-20.8312 Y73.5868 
G01 X-20.6530 Y73.4573 
G01 X-20.4973 Y73.3016 
G01 X-20.3678 Y73.1234 
G01 X-20.2678 Y72.9271 
G01 X-20.1998 Y72.7177 
G01 X-20.1653 Y72.5001 
G01 X-20.1653 Y72.2799 
G01 X-20.1998 Y72.0623 
G01 X-20.2678 Y71.8529 
G01 X-20.3678 Y71.6566 
G01 X-20.4973 Y71.4784 
G01 X-20.6530 Y71.3227 
G01 X-20.8312 Y71.1932 
G01 X-21.0275 Y71.0932 
G01 X-21.2369 Y71.0252 
G01 X-21.4545 Y70.9907 
G01 X-21.6747 Y70.9907 
G01 X-21.8923 Y71.0252 
G01 X-22.1017 Y71.0932 
G01 X-22.2980 Y71.1932 
G01 X-22.4762 Y71.3227 
G01 X-22.6319 Y71.4784 
G01 X-22.7614 Y71.6566 
G01 X-22.8614 Y71.8529 
G01 X-22.9294 Y72.0623 
G01 X-22.9639 Y72.2799 
G00 Z2.0000 
G00 X-17.9601 Y72.2799 
G01 Z-0.0250 F254.00 
G01 X-17.9601 Y72.5001 F508.00 
G01 X-17.9256 Y72.7177 
G01 X-17.8576 Y72.9271 
G01 X-17.7576 Y73.1234 
G01 X-17.6281 Y73.3016 
G01 X-17.4724 Y73.4573 
G01 X-17.2942 Y73.5868 
G01 X-17.0979 Y73.6868 
G01 X-16.8885 Y73.7548 
G01 X-16.6709 Y73.7893 
G01 X-16.4507 Y73.7893 
G01 X-16.2331 Y73.7548 
G01 X-16.0237 Y73.6868 
G01 X-15.8274 Y73.5868 
G01 X-15.6492 Y73.4573 
G01 X-15.4935 Y73.3016 
G01 X-15.3640 Y73.1234 
G01 X-15.2640 Y72.9271 
G01 X-15.1960 Y72.7177 
G01 X-15.1615 Y72.5001 
G01 X-15.1615 Y72.2799 
G01 X-15.1960 Y72.0623 
G01 X-15.2640 Y71.8529 
G01 X-15.3640 Y71.6566 
G01 X-15.4935 Y71.4784 
G01 X-15.6492 Y71.3227 
G01 X-15.8274 Y71.1932 
G01 X-16.0237 Y71.0932 
G01 X-16.2331 Y71.0252 
G01 X-16.4507 Y70.9907 
G01 X-16.6709 Y70.9907 
G01 X-16.8885 Y71.0252 
G01 X-17.0979 Y71.0932 
G01 X-17.2942 Y71.1932 
G01 X-17.4724 Y71.3227 
G01 X-17.6281 Y71.4784 
G01 X-17.7576 Y71.6566 
G01 X-17.8576 Y71.8529 
G01 X-17.9256 Y72.0623 
G01 X-17.9601 Y72.2799 
G00 Z2.0000 
G00 X-17.9233 Y38.4416 
G01 Z-0.0250 F254.00 
G01 X-17.7009 Y38.6122 F508.00 
G01 X-17.4580 Y38.7524 
G01 X-17.1990 Y38.8597 
G01 X-16.9282 Y38.9323 
G01 X-16.6502 Y38.9689 
G01 X-16.3698 Y38.9689 
G01 X-16.0918 Y38.9323 
G01 X-15.8210 Y38.8597 
G01 X-15.5620 Y38.7524 
G01 X-15.3191 Y38.6122 
G01 X-15.0967 Y38.4416 
G01 X-14.8984 Y38.2433 
G01 X-14.7278 Y38.0209 
G01 X-14.5876 Y37.7780 
G01 X-14.4803 Y37.5190 
G01 X-14.4077 Y37.2482 
G01 X-14.3711 Y36.9702 
G01 X-14.3711 Y36.6898 
G01 X-14.4077 Y36.4118 
G01 X-14.4803 Y36.1410 
G01 X-14.5876 Y35.8820 
G01 X-14.7278 Y35.6391 
G01 X-14.8984 Y35.4167 
G01 X-15.0967 Y35.2184 
G01 X-15.3191 Y35.0478 
G01 X-15.5620 Y34.9076 
G01 X-15.8210 Y34.8003 
G01 X-16.0918 Y34.7277 
G01 X-16.3698 Y34.6911 
G01 X-16.6502 Y34.6911 
G01 X-16.9282 Y34.7277 
G01 X-17.1990 Y34.8003 
G01 X-17.4580 Y34.9076 
G01 X-17.7009 Y35.0478 
G01 X-17.9233 Y35.2184 
G01 X-18.1216 Y35.4167 
G01 X-18.2922 Y35.6391 
G01 X-18.4324 Y35.8820 
G01 X-18.5397 Y36.1410 
G01 X-18.6123 Y36.4118 
G01 X-18.6489 Y36.6898 
G01 X-18.6489 Y36.9702 
G01 X-18.6123 Y37.2482 
G01 X-18.5397 Y37.5190 
G01 X-18.4324 Y37.7780 
G01 X-18.2922 Y38.0209 
G01 X-18.1216 Y38.2433 
G01 X-17.9233 Y38.4416 
G00 Z2.0000 
G00 X-8.4887 Y37.5719 
G01 Z-0.0250 F254.00 
G01 X-8.3619 Y37.6987 F508.00 
G01 X-8.2169 Y37.8041 
G01 X-8.0572 Y37.8855 
G01 X-7.8867 Y37.9409 
G01 X-7.7096 Y37.9689 
G01 X-7.5304 Y37.9689 
G01 X-7.3533 Y37.9409 
G01 X-7.1828 Y37.8855 
G01 X-7.0231 Y37.8041 
G01 X-6.8781 Y37.6987 
G01 X-6.7513 Y37.5719 
G01 X-6.6459 Y37.4269 
G01 X-6.5645 Y37.2672 
G01 X-6.5091 Y37.0967 
G01 X-6.4811 Y36.9196 
G01 X-6.4811 Y36.7404 
G01 X-6.5091 Y36.5633 
G01 X-6.5645 Y36.3928 
G01 X-6.6459 Y36.2331 
G01 X-6.7513 Y36.0881 
G01 X-6.8781 Y35.9613 
G01 X-7.0231 Y35.8559 
G01 X-7.1828 Y35.7745 
G01 X-7.3533 Y35.7191 
G01 X-7.5304 Y35.6911 
G01 X-7.7096 Y35.6911 
G01 X-7.8867 Y35.7191 
G01 X-8.0572 Y35.7745 
G01 X-8.2169 Y35.8559 
G01 X-8.3619 Y35.9613 
G01 X-8.4887 Y36.0881 
G01 X-8.5941 Y36.2331 
G01 X-8.6755 Y36.3928 
G01 X-8.7309 Y36.5633 
G01 X-8.7589 Y36.7404 
G01 X-8.7589 Y36.9196 
G01 X-8.7309 Y37.0967 
G01 X-8.6755 Y37.2672 
G01 X-8.5941 Y37.4269 
G01 X-8.4887 Y37.5719 
G00 Z2.0000 
G00 X-8.4887 Y35.0319 
G01 Z-0.0250 F254.00 
G01 X-8.3619 Y35.1587 F508.00 
G01 X-8.2169 Y35.2641 
G01 X-8.0572 Y35.3455 
G01 X-7.8867 Y35.4009 
G01 X-7.7096 Y35.4289 
G01 X-7.5304 Y35.4289 
G01 X-7.3533 Y35.4009 
G01 X-7.1828 Y35.3455 
G01 X-7.0231 Y35.2641 
G01 X-6.8781 Y35.1587 
G01 X-6.7513 Y35.0319 
G01 X-6.6459 Y34.8869 
G01 X-6.5645 Y34.7272 
G01 X-6.5091 Y34.5567 
G01 X-6.4811 Y34.3796 
G01 X-6.4811 Y34.2004 
G01 X-6.5091 Y34.0233 
G01 X-6.5645 Y33.8528 
G01 X-6.6459 Y33.6931 
G01 X-6.7513 Y33.5481 
G01 X-6.8781 Y33.4213 
G01 X-7.0231 Y33.3159 
G01 X-7.1828 Y33.2345 
G01 X-7.3533 Y33.1791 
G01 X-7.5304 Y33.1511 
G01 X-7.7096 Y33.1511 
G01 X-7.8867 Y33.1791 
G01 X-8.0572 Y33.2345 
G01 X-8.2169 Y33.3159 
G01 X-8.3619 Y33.4213 
G01 X-8.4887 Y33.5481 
G01 X-8.5941 Y33.6931 
G01 X-8.6755 Y33.8528 
G01 X-8.7309 Y34.0233 
G01 X-8.7589 Y34.2004 
G01 X-8.7589 Y34.3796 
G01 X-8.7309 Y34.5567 
G01 X-8.6755 Y34.7272 
G01 X-8.5941 Y34.8869 
G01 X-8.4887 Y35.0319 
G00 Z2.0000 
G00 X-8.4887 Y32.4919 
G01 Z-0.0250 F254.00 
G01 X-8.3619 Y32.6187 F508.00 
G01 X-8.2169 Y32.7241 
G01 X-8.0572 Y32.8055 
G01 X-7.8867 Y32.8609 
G01 X-7.7096 Y32.8889 
G01 X-7.5304 Y32.8889 
G01 X-7.3533 Y32.8609 
G01 X-7.1828 Y32.8055 
G01 X-7.0231 Y32.7241 
G01 X-6.8781 Y32.6187 
G01 X-6.7513 Y32.4919 
G01 X-6.6459 Y32.3469 
G01 X-6.5645 Y32.1872 
G01 X-6.5091 Y32.0167 
G01 X-6.4811 Y31.8396 
G01 X-6.4811 Y31.6604 
G01 X-6.5091 Y31.4833 
G01 X-6.5645 Y31.3128 
G01 X-6.6459 Y31.1531 
G01 X-6.7513 Y31.0081 
G01 X-6.8781 Y30.8813 
G01 X-7.0231 Y30.7759 
G01 X-7.1828 Y30.6945 
G01 X-7.3533 Y30.6391 
G01 X-7.5304 Y30.6111 
G01 X-7.7096 Y30.6111 
G01 X-7.8867 Y30.6391 
G01 X-8.0572 Y30.6945 
G01 X-8.2169 Y30.7759 
G01 X-8.3619 Y30.8813 
G01 X-8.4887 Y31.0081 
G01 X-8.5941 Y31.1531 
G01 X-8.6755 Y31.3128 
G01 X-8.7309 Y31.4833 
G01 X-8.7589 Y31.6604 
G01 X-8.7589 Y31.8396 
G01 X-8.7309 Y32.0167 
G01 X-8.6755 Y32.1872 
G01 X-8.5941 Y32.3469 
G01 X-8.4887 Y32.4919 
G00 Z2.0000 
G00 X-8.4887 Y29.9519 
G01 Z-0.0250 F254.00 
G01 X-8.3619 Y30.0787 F508.00 
G01 X-8.2169 Y30.1841 
G01 X-8.0572 Y30.2655 
G01 X-7.8867 Y30.3209 
G01 X-7.7096 Y30.3489 
G01 X-7.5304 Y30.3489 
G01 X-7.3533 Y30.3209 
G01 X-7.1828 Y30.2655 
G01 X-7.0231 Y30.1841 
G01 X-6.8781 Y30.0787 
G01 X-6.7513 Y29.9519 
G01 X-6.6459 Y29.8069 
G01 X-6.5645 Y29.6472 
G01 X-6.5091 Y29.4767 
G01 X-6.4811 Y29.2996 
G01 X-6.4811 Y29.1204 
G01 X-6.5091 Y28.9433 
G01 X-6.5645 Y28.7728 
G01 X-6.6459 Y28.6131 
G01 X-6.7513 Y28.4681 
G01 X-6.8781 Y28.3413 
G01 X-7.0231 Y28.2359 
G01 X-7.1828 Y28.1545 
G01 X-7.3533 Y28.0991 
G01 X-7.5304 Y28.0711 
G01 X-7.7096 Y28.0711 
G01 X-7.8867 Y28.0991 
G01 X-8.0572 Y28.1545 
G01 X-8.2169 Y28.2359 
G01 X-8.3619 Y28.3413 
G01 X-8.4887 Y28.4681 
G01 X-8.5941 Y28.6131 
G01 X-8.6755 Y28.7728 
G01 X-8.7309 Y28.9433 
G01 X-8.7589 Y29.1204 
G01 X-8.7589 Y29.2996 
G01 X-8.7309 Y29.4767 
G01 X-8.6755 Y29.6472 
G01 X-8.5941 Y29.8069 
G01 X-8.4887 Y29.9519 
G00 Z2.0000 
G00 X-8.4887 Y27.4119 
G01 Z-0.0250 F254.00 
G01 X-8.3619 Y27.5387 F508.00 
G01 X-8.2169 Y27.6441 
G01 X-8.0572 Y27.7255 
G01 X-7.8867 Y27.7809 
G01 X-7.7096 Y27.8089 
G01 X-7.5304 Y27.8089 
G01 X-7.3533 Y27.7809 
G01 X-7.1828 Y27.7255 
G01 X-7.0231 Y27.6441 
G01 X-6.8781 Y27.5387 
G01 X-6.7513 Y27.4119 
G01 X-6.6459 Y27.2669 
G01 X-6.5645 Y27.1072 
G01 X-6.5091 Y26.9367 
G01 X-6.4811 Y26.7596 
G01 X-6.4811 Y26.5804 
G01 X-6.5091 Y26.4033 
G01 X-6.5645 Y26.2328 
G01 X-6.6459 Y26.0731 
G01 X-6.7513 Y25.9281 
G01 X-6.8781 Y25.8013 
G01 X-7.0231 Y25.6959 
G01 X-7.1828 Y25.6145 
G01 X-7.3533 Y25.5591 
G01 X-7.5304 Y25.5311 
G01 X-7.7096 Y25.5311 
G01 X-7.8867 Y25.5591 
G01 X-8.0572 Y25.6145 
G01 X-8.2169 Y25.6959 
G01 X-8.3619 Y25.8013 
G01 X-8.4887 Y25.9281 
G01 X-8.5941 Y26.0731 
G01 X-8.6755 Y26.2328 
G01 X-8.7309 Y26.4033 
G01 X-8.7589 Y26.5804 
G01 X-8.7589 Y26.7596 
G01 X-8.7309 Y26.9367 
G01 X-8.6755 Y27.1072 
G01 X-8.5941 Y27.2669 
G01 X-8.4887 Y27.4119 
G00 Z2.0000 
G00 X-8.4887 Y24.8719 
G01 Z-0.0250 F254.00 
G01 X-8.3619 Y24.9987 F508.00 
G01 X-8.2169 Y25.1041 
G01 X-8.0572 Y25.1855 
G01 X-7.8867 Y25.2409 
G01 X-7.7096 Y25.2689 
G01 X-7.5304 Y25.2689 
G01 X-7.3533 Y25.2409 
G01 X-7.1828 Y25.1855 
G01 X-7.0231 Y25.1041 
G01 X-6.8781 Y24.9987 
G01 X-6.7513 Y24.8719 
G01 X-6.6459 Y24.7269 
G01 X-6.5645 Y24.5672 
G01 X-6.5091 Y24.3967 
G01 X-6.4811 Y24.2196 
G01 X-6.4811 Y24.0404 
G01 X-6.5091 Y23.8633 
G01 X-6.5645 Y23.6928 
G01 X-6.6459 Y23.5331 
G01 X-6.7513 Y23.3881 
G01 X-6.8781 Y23.2613 
G01 X-7.0231 Y23.1559 
G01 X-7.1828 Y23.0745 
G01 X-7.3533 Y23.0191 
G01 X-7.5304 Y22.9911 
G01 X-7.7096 Y22.9911 
G01 X-7.8867 Y23.0191 
G01 X-8.0572 Y23.0745 
G01 X-8.2169 Y23.1559 
G01 X-8.3619 Y23.2613 
G01 X-8.4887 Y23.3881 
G01 X-8.5941 Y23.5331 
G01 X-8.6755 Y23.6928 
G01 X-8.7309 Y23.8633 
G01 X-8.7589 Y24.0404 
G01 X-8.7589 Y24.2196 
G01 X-8.7309 Y24.3967 
G01 X-8.6755 Y24.5672 
G01 X-8.5941 Y24.7269 
G01 X-8.4887 Y24.8719 
G00 Z2.0000 
G00 X-8.4887 Y22.3319 
G01 Z-0.0250 F254.00 
G01 X-8.3619 Y22.4587 F508.00 
G01 X-8.2169 Y22.5641 
G01 X-8.0572 Y22.6455 
G01 X-7.8867 Y22.7009 
G01 X-7.7096 Y22.7289 
G01 X-7.5304 Y22.7289 
G01 X-7.3533 Y22.7009 
G01 X-7.1828 Y22.6455 
G01 X-7.0231 Y22.5641 
G01 X-6.8781 Y22.4587 
G01 X-6.7513 Y22.3319 
G01 X-6.6459 Y22.1869 
G01 X-6.5645 Y22.0272 
G01 X-6.5091 Y21.8567 
G01 X-6.4811 Y21.6796 
G01 X-6.4811 Y21.5004 
G01 X-6.5091 Y21.3233 
G01 X-6.5645 Y21.1528 
G01 X-6.6459 Y20.9931 
G01 X-6.7513 Y20.8481 
G01 X-6.8781 Y20.7213 
G01 X-7.0231 Y20.6159 
G01 X-7.1828 Y20.5345 
G01 X-7.3533 Y20.4791 
G01 X-7.5304 Y20.4511 
G01 X-7.7096 Y20.4511 
G01 X-7.8867 Y20.4791 
G01 X-8.0572 Y20.5345 
G01 X-8.2169 Y20.6159 
G01 X-8.3619 Y20.7213 
G01 X-8.4887 Y20.8481 
G01 X-8.5941 Y20.9931 
G01 X-8.6755 Y21.1528 
G01 X-8.7309 Y21.3233 
G01 X-8.7589 Y21.5004 
G01 X-8.7589 Y21.6796 
G01 X-8.7309 Y21.8567 
G01 X-8.6755 Y22.0272 
G01 X-8.5941 Y22.1869 
G01 X-8.4887 Y22.3319 
G00 Z2.0000 
G00 X-8.4887 Y19.7919 
G01 Z-0.0250 F254.00 
G01 X-8.3619 Y19.9187 F508.00 
G01 X-8.2169 Y20.0241 
G01 X-8.0572 Y20.1055 
G01 X-7.8867 Y20.1609 
G01 X-7.7096 Y20.1889 
G01 X-7.5304 Y20.1889 
G01 X-7.3533 Y20.1609 
G01 X-7.1828 Y20.1055 
G01 X-7.0231 Y20.0241 
G01 X-6.8781 Y19.9187 
G01 X-6.7513 Y19.7919 
G01 X-6.6459 Y19.6469 
G01 X-6.5645 Y19.4872 
G01 X-6.5091 Y19.3167 
G01 X-6.4811 Y19.1396 
G01 X-6.4811 Y18.9604 
G01 X-6.5091 Y18.7833 
G01 X-6.5645 Y18.6128 
G01 X-6.6459 Y18.4531 
G01 X-6.7513 Y18.3081 
G01 X-6.8781 Y18.1813 
G01 X-7.0231 Y18.0759 
G01 X-7.1828 Y17.9945 
G01 X-7.3533 Y17.9391 
G01 X-7.5304 Y17.9111 
G01 X-7.7096 Y17.9111 
G01 X-7.8867 Y17.9391 
G01 X-8.0572 Y17.9945 
G01 X-8.2169 Y18.0759 
G01 X-8.3619 Y18.1813 
G01 X-8.4887 Y18.3081 
G01 X-8.5941 Y18.4531 
G01 X-8.6755 Y18.6128 
G01 X-8.6911 Y18.6611 
G01 X-10.4709 Y18.6611 
G01 X-10.6080 Y18.6978 
G01 X-10.7309 Y18.7688 
G01 X-11.5546 Y19.5925 
G01 X-11.5799 Y19.5672 
G01 X-11.6310 Y19.5461 
G01 X-13.7690 Y19.5461 
G01 X-13.8201 Y19.5672 
G01 X-13.8592 Y19.6063 
G01 X-13.8803 Y19.6574 
G01 X-13.8803 Y21.9182 
G01 X-14.4312 Y22.4691 
G01 X-14.5022 Y22.5920 
G01 X-14.5389 Y22.7291 
G01 X-14.5389 Y25.9311 
G01 X-14.7676 Y25.9311 
G01 X-14.8187 Y25.9522 
G01 X-14.8578 Y25.9913 
G01 X-14.8789 Y26.0424 
G01 X-14.8789 Y26.6392 
G01 X-14.8835 Y26.6790 
G01 X-14.8789 Y26.7098 
G01 X-14.8789 Y27.2976 
G01 X-14.8578 Y27.3487 
G01 X-14.8187 Y27.3878 
G01 X-14.7676 Y27.4089 
G01 X-13.9124 Y27.4089 
G01 X-13.8613 Y27.3878 
G01 X-13.8222 Y27.3487 
G01 X-13.8011 Y27.2976 
G01 X-13.8011 Y26.9302 
G01 X-13.6961 Y26.8468 
G01 X-13.6691 Y26.8312 
G01 X-13.6407 Y26.8028 
G01 X-13.6093 Y26.7779 
G01 X-13.5908 Y26.7529 
G01 X-13.5688 Y26.7309 
G01 X-13.5487 Y26.6961 
G01 X-13.5248 Y26.6639 
G01 X-13.5134 Y26.6350 
G01 X-13.4978 Y26.6080 
G01 X-13.4874 Y26.5692 
G01 X-13.4727 Y26.5319 
G01 X-13.4692 Y26.5010 
G01 X-13.4611 Y26.4709 
G01 X-13.4611 Y26.4308 
G01 X-13.4565 Y26.3910 
G01 X-13.4611 Y26.3602 
G01 X-13.4611 Y23.6339 
G01 X-11.6310 Y23.6339 
G01 X-11.5799 Y23.6128 
G01 X-11.5408 Y23.5737 
G01 X-11.5197 Y23.5226 
G01 X-11.5197 Y21.0818 
G01 X-10.1768 Y19.7389 
G01 X-8.5272 Y19.7389 
G01 X-8.4887 Y19.7919 
G00 Z2.0000 
G00 X-8.3619 Y41.0413 
G01 Z-0.0250 F254.00 
G01 X-8.4887 Y41.1681 F508.00 
G01 X-8.5941 Y41.3131 
G01 X-8.6755 Y41.4728 
G01 X-8.7309 Y41.6433 
G01 X-8.7589 Y41.8204 
G01 X-8.7589 Y41.9996 
G01 X-8.7309 Y42.1767 
G01 X-8.6755 Y42.3472 
G01 X-8.5941 Y42.5069 
G01 X-8.4887 Y42.6519 
G01 X-8.3619 Y42.7787 
G01 X-8.2169 Y42.8841 
G01 X-8.0572 Y42.9655 
G01 X-7.8867 Y43.0209 
G01 X-7.7096 Y43.0489 
G01 X-7.5304 Y43.0489 
G01 X-7.3533 Y43.0209 
G01 X-7.1828 Y42.9655 
G01 X-7.0231 Y42.8841 
G01 X-6.8781 Y42.7787 
G01 X-6.7513 Y42.6519 
G01 X-6.6459 Y42.5069 
G01 X-6.5645 Y42.3472 
G01 X-6.5091 Y42.1767 
G01 X-6.4811 Y41.9996 
G01 X-6.4811 Y41.8204 
G01 X-6.5091 Y41.6433 
G01 X-6.5645 Y41.4728 
G01 X-6.6459 Y41.3131 
G01 X-6.7513 Y41.1681 
G01 X-6.8781 Y41.0413 
G01 X-7.0231 Y40.9359 
G01 X-7.1828 Y40.8545 
G01 X-7.3533 Y40.7991 
G01 X-7.5304 Y40.7711 
G01 X-7.7096 Y40.7711 
G01 X-7.8867 Y40.7991 
G01 X-8.0572 Y40.8545 
G01 X-8.2169 Y40.9359 
G01 X-8.3619 Y41.0413 
G00 Z2.0000 
G00 X-8.3619 Y43.5813 
G01 Z-0.0250 F254.00 
G01 X-8.4887 Y43.7081 F508.00 
G01 X-8.5941 Y43.8531 
G01 X-8.6755 Y44.0128 
G01 X-8.7309 Y44.1833 
G01 X-8.7589 Y44.3604 
G01 X-8.7589 Y44.5396 
G01 X-8.7309 Y44.7167 
G01 X-8.6755 Y44.8872 
G01 X-8.5941 Y45.0469 
G01 X-8.4887 Y45.1919 
G01 X-8.3619 Y45.3187 
G01 X-8.2169 Y45.4241 
G01 X-8.0572 Y45.5055 
G01 X-7.8867 Y45.5609 
G01 X-7.7096 Y45.5889 
G01 X-7.5304 Y45.5889 
G01 X-7.3533 Y45.5609 
G01 X-7.1828 Y45.5055 
G01 X-7.0231 Y45.4241 
G01 X-6.8781 Y45.3187 
G01 X-6.7513 Y45.1919 
G01 X-6.6459 Y45.0469 
G01 X-6.5645 Y44.8872 
G01 X-6.5091 Y44.7167 
G01 X-6.4811 Y44.5396 
G01 X-6.4811 Y44.3604 
G01 X-6.5091 Y44.1833 
G01 X-6.5645 Y44.0128 
G01 X-6.6459 Y43.8531 
G01 X-6.7513 Y43.7081 
G01 X-6.8781 Y43.5813 
G01 X-7.0231 Y43.4759 
G01 X-7.1828 Y43.3945 
G01 X-7.3533 Y43.3391 
G01 X-7.5304 Y43.3111 
G01 X-7.7096 Y43.3111 
G01 X-7.8867 Y43.3391 
G01 X-8.0572 Y43.3945 
G01 X-8.2169 Y43.4759 
G01 X-8.3619 Y43.5813 
G00 Z2.0000 
G00 X-8.3619 Y46.1213 
G01 Z-0.0250 F254.00 
G01 X-8.4887 Y46.2481 F508.00 
G01 X-8.5941 Y46.3931 
G01 X-8.6755 Y46.5528 
G01 X-8.7309 Y46.7233 
G01 X-8.7589 Y46.9004 
G01 X-8.7589 Y47.0796 
G01 X-8.7309 Y47.2567 
G01 X-8.6755 Y47.4272 
G01 X-8.5941 Y47.5869 
G01 X-8.4887 Y47.7319 
G01 X-8.3619 Y47.8587 
G01 X-8.2169 Y47.9641 
G01 X-8.0572 Y48.0455 
G01 X-7.8867 Y48.1009 
G01 X-7.7096 Y48.1289 
G01 X-7.5304 Y48.1289 
G01 X-7.3533 Y48.1009 
G01 X-7.1828 Y48.0455 
G01 X-7.0231 Y47.9641 
G01 X-6.8781 Y47.8587 
G01 X-6.7513 Y47.7319 
G01 X-6.6459 Y47.5869 
G01 X-6.5645 Y47.4272 
G01 X-6.5091 Y47.2567 
G01 X-6.4811 Y47.0796 
G01 X-6.4811 Y46.9004 
G01 X-6.5091 Y46.7233 
G01 X-6.5645 Y46.5528 
G01 X-6.6459 Y46.3931 
G01 X-6.7513 Y46.2481 
G01 X-6.8781 Y46.1213 
G01 X-7.0231 Y46.0159 
G01 X-7.1828 Y45.9345 
G01 X-7.3533 Y45.8791 
G01 X-7.5304 Y45.8511 
G01 X-7.7096 Y45.8511 
G01 X-7.8867 Y45.8791 
G01 X-8.0572 Y45.9345 
G01 X-8.2169 Y46.0159 
G01 X-8.3619 Y46.1213 
G00 Z2.0000 
G00 X-39.8277 Y35.2211 
G01 Z-0.0250 F254.00 
G01 X-39.6889 Y35.0823 F508.00 
G01 X-39.5736 Y34.9235 
G01 X-39.4845 Y34.7486 
G01 X-39.4238 Y34.5620 
G01 X-39.3931 Y34.3681 
G01 X-39.3931 Y34.1719 
G01 X-39.4238 Y33.9780 
G01 X-39.4845 Y33.7914 
G01 X-39.5736 Y33.6165 
G01 X-39.6889 Y33.4577 
G01 X-39.8277 Y33.3189 
G01 X-39.9865 Y33.2036 
G01 X-40.1614 Y33.1145 
G01 X-40.3480 Y33.0538 
G01 X-40.5419 Y33.0231 
G01 X-40.7381 Y33.0231 
G01 X-40.9320 Y33.0538 
G01 X-41.1186 Y33.1145 
G01 X-41.2935 Y33.2036 
G01 X-41.4523 Y33.3189 
G01 X-41.5911 Y33.4577 
G01 X-41.7064 Y33.6165 
G01 X-41.7955 Y33.7914 
G01 X-41.8562 Y33.9780 
G01 X-41.8869 Y34.1719 
G01 X-41.8869 Y34.3681 
G01 X-41.8562 Y34.5620 
G01 X-41.7955 Y34.7486 
G01 X-41.7064 Y34.9235 
G01 X-41.5911 Y35.0823 
G01 X-41.4523 Y35.2211 
G01 X-41.2935 Y35.3364 
G01 X-41.1186 Y35.4255 
G01 X-40.9320 Y35.4862 
G01 X-40.7381 Y35.5169 
G01 X-40.5419 Y35.5169 
G01 X-40.3480 Y35.4862 
G01 X-40.1614 Y35.4255 
G01 X-39.9865 Y35.3364 
G01 X-39.8277 Y35.2211 
G00 Z2.0000 
G00 X-39.8277 Y32.7211 
G01 Z-0.0250 F254.00 
G01 X-39.6889 Y32.5823 F508.00 
G01 X-39.5736 Y32.4235 
G01 X-39.4845 Y32.2486 
G01 X-39.4238 Y32.0620 
G01 X-39.3931 Y31.8681 
G01 X-39.3931 Y31.6719 
G01 X-39.4238 Y31.4780 
G01 X-39.4845 Y31.2914 
G01 X-39.5736 Y31.1165 
G01 X-39.6889 Y30.9577 
G01 X-39.8277 Y30.8189 
G01 X-39.9865 Y30.7036 
G01 X-40.1614 Y30.6145 
G01 X-40.3480 Y30.5538 
G01 X-40.5419 Y30.5231 
G01 X-40.7381 Y30.5231 
G01 X-40.9320 Y30.5538 
G01 X-41.1186 Y30.6145 
G01 X-41.2935 Y30.7036 
G01 X-41.4523 Y30.8189 
G01 X-41.5911 Y30.9577 
G01 X-41.7064 Y31.1165 
G01 X-41.7955 Y31.2914 
G01 X-41.8562 Y31.4780 
G01 X-41.8869 Y31.6719 
G01 X-41.8869 Y31.8681 
G01 X-41.8562 Y32.0620 
G01 X-41.7955 Y32.2486 
G01 X-41.7064 Y32.4235 
G01 X-41.5911 Y32.5823 
G01 X-41.4523 Y32.7211 
G01 X-41.2935 Y32.8364 
G01 X-41.1186 Y32.9255 
G01 X-40.9320 Y32.9862 
G01 X-40.7381 Y33.0169 
G01 X-40.5419 Y33.0169 
G01 X-40.3480 Y32.9862 
G01 X-40.1614 Y32.9255 
G01 X-39.9865 Y32.8364 
G01 X-39.8277 Y32.7211 
G00 Z2.0000 
G00 X-40.4967 Y5.4216 
G01 Z-0.0250 F254.00 
G01 X-40.2984 Y5.2233 F508.00 
G01 X-40.1278 Y5.0009 
G01 X-39.9876 Y4.7580 
G01 X-39.8803 Y4.4990 
G01 X-39.8077 Y4.2282 
G01 X-39.7711 Y3.9502 
G01 X-39.7711 Y3.6698 
G01 X-39.8077 Y3.3918 
G01 X-39.8803 Y3.1210 
G01 X-39.9876 Y2.8620 
G01 X-40.1278 Y2.6191 
G01 X-40.2984 Y2.3967 
G01 X-40.4967 Y2.1984 
G01 X-40.7191 Y2.0278 
G01 X-40.9620 Y1.8876 
G01 X-41.2210 Y1.7803 
G01 X-41.4918 Y1.7077 
G01 X-41.7698 Y1.6711 
G01 X-42.0502 Y1.6711 
G01 X-42.3282 Y1.7077 
G01 X-42.5990 Y1.7803 
G01 X-42.8580 Y1.8876 
G01 X-43.1009 Y2.0278 
G01 X-43.3233 Y2.1984 
G01 X-43.5216 Y2.3967 
G01 X-43.6922 Y2.6191 
G01 X-43.8324 Y2.8620 
G01 X-43.9397 Y3.1210 
G01 X-44.0123 Y3.3918 
G01 X-44.0489 Y3.6698 
G01 X-44.0489 Y3.9502 
G01 X-44.0123 Y4.2282 
G01 X-43.9397 Y4.4990 
G01 X-43.8324 Y4.7580 
G01 X-43.6922 Y5.0009 
G01 X-43.5216 Y5.2233 
G01 X-43.3233 Y5.4216 
G01 X-43.1009 Y5.5922 
G01 X-42.8580 Y5.7324 
G01 X-42.5990 Y5.8397 
G01 X-42.3282 Y5.9123 
G01 X-42.0502 Y5.9489 
G01 X-41.7698 Y5.9489 
G01 X-41.4918 Y5.9123 
G01 X-41.2210 Y5.8397 
G01 X-40.9620 Y5.7324 
G01 X-40.7191 Y5.5922 
G01 X-40.4967 Y5.4216 
G00 Z2.0000 
G00 X-3.9618 Y1.5633 
G01 Z-0.0250 F254.00 
G01 X-4.1287 Y1.3964 F508.00 
G01 X-4.3196 Y1.2577 
G01 X-4.5299 Y1.1505 
G01 X-4.7543 Y1.0776 
G01 X-4.9874 Y1.0407 
G01 X-5.2234 Y1.0407 
G01 X-5.4565 Y1.0776 
G01 X-5.6809 Y1.1505 
G01 X-5.8912 Y1.2577 
G01 X-6.0821 Y1.3964 
G01 X-6.2490 Y1.5633 
G01 X-6.3877 Y1.7542 
G01 X-6.4949 Y1.9645 
G01 X-6.5678 Y2.1889 
G01 X-6.6047 Y2.4220 
G01 X-6.6047 Y2.6580 
G01 X-6.5678 Y2.8911 
G01 X-6.4949 Y3.1155 
G01 X-6.3877 Y3.3258 
G01 X-6.2490 Y3.5167 
G01 X-6.0821 Y3.6836 
G01 X-5.8912 Y3.8223 
G01 X-5.8389 Y3.8490 
G01 X-5.8389 Y47.7354 
G01 X-20.6646 Y62.5611 
G01 X-21.7351 Y62.5611 
G01 X-21.7404 Y62.5507 
G01 X-21.8550 Y62.3929 
G01 X-21.9929 Y62.2550 
G01 X-22.1507 Y62.1404 
G01 X-22.3244 Y62.0519 
G01 X-22.5099 Y61.9916 
G01 X-22.7025 Y61.9611 
G01 X-22.8975 Y61.9611 
G01 X-23.0901 Y61.9916 
G01 X-23.2756 Y62.0519 
G01 X-23.4493 Y62.1404 
G01 X-23.6071 Y62.2550 
G01 X-23.7450 Y62.3929 
G01 X-23.8596 Y62.5507 
G01 X-23.9481 Y62.7244 
G01 X-24.0084 Y62.9099 
G01 X-24.0389 Y63.1025 
G01 X-24.0389 Y63.2975 
G01 X-24.0084 Y63.4901 
G01 X-23.9481 Y63.6756 
G01 X-23.8596 Y63.8493 
G01 X-23.7450 Y64.0071 
G01 X-23.6071 Y64.1450 
G01 X-23.4493 Y64.2596 
G01 X-23.2756 Y64.3481 
G01 X-23.0901 Y64.4084 
G01 X-22.8975 Y64.4389 
G01 X-22.7025 Y64.4389 
G01 X-22.5099 Y64.4084 
G01 X-22.3244 Y64.3481 
G01 X-22.1507 Y64.2596 
G01 X-21.9929 Y64.1450 
G01 X-21.8550 Y64.0071 
G01 X-21.7404 Y63.8493 
G01 X-21.7351 Y63.8389 
G01 X-20.3371 Y63.8389 
G01 X-20.2136 Y63.8143 
G01 X-20.0974 Y63.7662 
G01 X-19.9927 Y63.6963 
G01 X-4.7927 Y48.4963 
G01 X-4.7037 Y48.4073 
G01 X-4.6338 Y48.3026 
G01 X-4.5857 Y48.1864 
G01 X-4.5611 Y48.0629 
G01 X-4.5611 Y3.9396 
G01 X-4.5299 Y3.9295 
G01 X-4.3196 Y3.8223 
G01 X-4.1287 Y3.6836 
G01 X-3.9618 Y3.5167 
G01 X-3.8231 Y3.3258 
G01 X-3.7159 Y3.1155 
G01 X-3.6430 Y2.8911 
G01 X-3.6061 Y2.6580 
G01 X-3.6061 Y2.4220 
G01 X-3.6430 Y2.1889 
G01 X-3.7159 Y1.9645 
G01 X-3.8231 Y1.7542 
G01 X-3.9618 Y1.5633 
G00 Z2.0000 
G00 X-8.9656 Y1.5633 
G01 Z-0.0250 F254.00 
G01 X-9.1325 Y1.3964 F508.00 
G01 X-9.3234 Y1.2577 
G01 X-9.5337 Y1.1505 
G01 X-9.7581 Y1.0776 
G01 X-9.9912 Y1.0407 
G01 X-10.2272 Y1.0407 
G01 X-10.4603 Y1.0776 
G01 X-10.6847 Y1.1505 
G01 X-10.8950 Y1.2577 
G01 X-11.0859 Y1.3964 
G01 X-11.2528 Y1.5633 
G01 X-11.3915 Y1.7542 
G01 X-11.4987 Y1.9645 
G01 X-11.5716 Y2.1889 
G01 X-11.6085 Y2.4220 
G01 X-11.6085 Y2.6580 
G01 X-11.5716 Y2.8911 
G01 X-11.4987 Y3.1155 
G01 X-11.3915 Y3.3258 
G01 X-11.2528 Y3.5167 
G01 X-11.0859 Y3.6836 
G01 X-11.0389 Y3.7178 
G01 X-11.0389 Y4.9354 
G01 X-11.5796 Y5.4761 
G01 X-21.0025 Y5.4761 
G01 X-21.0903 Y5.5125 
G01 X-21.1575 Y5.5797 
G01 X-21.1939 Y5.6675 
G01 X-21.1939 Y14.6525 
G01 X-21.1575 Y14.7403 
G01 X-21.0903 Y14.8075 
G01 X-21.0025 Y14.8439 
G01 X-9.4775 Y14.8439 
G01 X-9.3897 Y14.8075 
G01 X-9.3225 Y14.7403 
G01 X-9.2861 Y14.6525 
G01 X-9.2861 Y5.6675 
G01 X-9.3225 Y5.5797 
G01 X-9.3897 Y5.5125 
G01 X-9.4775 Y5.4761 
G01 X-9.8228 Y5.4761 
G01 X-9.7857 Y5.3864 
G01 X-9.7611 Y5.2629 
G01 X-9.7611 Y4.0029 
G01 X-9.7581 Y4.0024 
G01 X-9.5337 Y3.9295 
G01 X-9.3234 Y3.8223 
G01 X-9.1325 Y3.6836 
G01 X-8.9656 Y3.5167 
G01 X-8.8269 Y3.3258 
G01 X-8.7197 Y3.1155 
G01 X-8.6468 Y2.8911 
G01 X-8.6099 Y2.6580 
G01 X-8.6099 Y2.4220 
G01 X-8.6468 Y2.1889 
G01 X-8.7197 Y1.9645 
G01 X-8.8269 Y1.7542 
G01 X-8.9656 Y1.5633 
G00 Z2.0000 
G00 X-15.3918 Y1.5633 
G01 Z-0.0250 F254.00 
G01 X-15.5587 Y1.3964 F508.00 
G01 X-15.7496 Y1.2577 
G01 X-15.9599 Y1.1505 
G01 X-16.1843 Y1.0776 
G01 X-16.4174 Y1.0407 
G01 X-16.6534 Y1.0407 
G01 X-16.8865 Y1.0776 
G01 X-17.1109 Y1.1505 
G01 X-17.3212 Y1.2577 
G01 X-17.5121 Y1.3964 
G01 X-17.6790 Y1.5633 
G01 X-17.8177 Y1.7542 
G01 X-17.9249 Y1.9645 
G01 X-17.9978 Y2.1889 
G01 X-18.0347 Y2.4220 
G01 X-18.0347 Y2.6580 
G01 X-17.9978 Y2.8911 
G01 X-17.9249 Y3.1155 
G01 X-17.8177 Y3.3258 
G01 X-17.6790 Y3.5167 
G01 X-17.5121 Y3.6836 
G01 X-17.3212 Y3.8223 
G01 X-17.1109 Y3.9295 
G01 X-16.8865 Y4.0024 
G01 X-16.6534 Y4.0393 
G01 X-16.4174 Y4.0393 
G01 X-16.1843 Y4.0024 
G01 X-15.9599 Y3.9295 
G01 X-15.7496 Y3.8223 
G01 X-15.5587 Y3.6836 
G01 X-15.3918 Y3.5167 
G01 X-15.2531 Y3.3258 
G01 X-15.1459 Y3.1155 
G01 X-15.0730 Y2.8911 
G01 X-15.0361 Y2.6580 
G01 X-15.0361 Y2.4220 
G01 X-15.0730 Y2.1889 
G01 X-15.1459 Y1.9645 
G01 X-15.2531 Y1.7542 
G01 X-15.3918 Y1.5633 
G00 Z2.0000 
G00 X-20.3956 Y1.5633 
G01 Z-0.0250 F254.00 
G01 X-20.5625 Y1.3964 F508.00 
G01 X-20.7534 Y1.2577 
G01 X-20.9637 Y1.1505 
G01 X-21.1881 Y1.0776 
G01 X-21.4212 Y1.0407 
G01 X-21.6572 Y1.0407 
G01 X-21.8903 Y1.0776 
G01 X-22.1147 Y1.1505 
G01 X-22.3250 Y1.2577 
G01 X-22.5159 Y1.3964 
G01 X-22.6828 Y1.5633 
G01 X-22.8215 Y1.7542 
G01 X-22.9287 Y1.9645 
G01 X-23.0016 Y2.1889 
G01 X-23.0385 Y2.4220 
G01 X-23.0385 Y2.6580 
G01 X-23.0016 Y2.8911 
G01 X-22.9287 Y3.1155 
G01 X-22.8215 Y3.3258 
G01 X-22.6828 Y3.5167 
G01 X-22.5159 Y3.6836 
G01 X-22.3250 Y3.8223 
G01 X-22.1147 Y3.9295 
G01 X-21.8903 Y4.0024 
G01 X-21.6572 Y4.0393 
G01 X-21.4212 Y4.0393 
G01 X-21.1881 Y4.0024 
G01 X-20.9637 Y3.9295 
G01 X-20.7534 Y3.8223 
G01 X-20.5625 Y3.6836 
G01 X-20.3956 Y3.5167 
G01 X-20.2569 Y3.3258 
G01 X-20.1497 Y3.1155 
G01 X-20.0768 Y2.8911 
G01 X-20.0399 Y2.6580 
G01 X-20.0399 Y2.4220 
G01 X-20.0768 Y2.1889 
G01 X-20.1497 Y1.9645 
G01 X-20.2569 Y1.7542 
G01 X-20.3956 Y1.5633 
G00 Z2.0000 
G00 X-21.1927 Y16.3037 
G01 Z-0.0250 F254.00 
G01 X-21.2974 Y16.2338 F508.00 
G01 X-21.4136 Y16.1857 
G01 X-21.5371 Y16.1611 
G01 X-24.0629 Y16.1611 
G01 X-24.1864 Y16.1857 
G01 X-24.3026 Y16.2338 
G01 X-24.4073 Y16.3037 
G01 X-24.4963 Y16.3927 
G01 X-26.2646 Y18.1611 
G01 X-39.6641 Y18.1611 
G01 X-39.7626 Y18.0626 
G01 X-39.9341 Y17.9380 
G01 X-40.1230 Y17.8418 
G01 X-40.3246 Y17.7763 
G01 X-40.5340 Y17.7431 
G01 X-40.7460 Y17.7431 
G01 X-40.9554 Y17.7763 
G01 X-41.1570 Y17.8418 
G01 X-41.3459 Y17.9380 
G01 X-41.5174 Y18.0626 
G01 X-41.6674 Y18.2126 
G01 X-41.7920 Y18.3841 
G01 X-41.8882 Y18.5730 
G01 X-41.9537 Y18.7746 
G01 X-41.9869 Y18.9840 
G01 X-41.9869 Y19.1960 
G01 X-41.9537 Y19.4054 
G01 X-41.8882 Y19.6070 
G01 X-41.7920 Y19.7959 
G01 X-41.6674 Y19.9674 
G01 X-41.5174 Y20.1174 
G01 X-41.3459 Y20.2420 
G01 X-41.1570 Y20.3382 
G01 X-41.1515 Y20.3400 
G01 X-41.1570 Y20.3418 
G01 X-41.3459 Y20.4380 
G01 X-41.5174 Y20.5626 
G01 X-41.6674 Y20.7126 
G01 X-41.7920 Y20.8841 
G01 X-41.8882 Y21.0730 
G01 X-41.9537 Y21.2746 
G01 X-41.9869 Y21.4840 
G01 X-41.9869 Y21.6960 
G01 X-41.9537 Y21.9054 
G01 X-41.8882 Y22.1070 
G01 X-41.7920 Y22.2959 
G01 X-41.6674 Y22.4674 
G01 X-41.5174 Y22.6174 
G01 X-41.3459 Y22.7420 
G01 X-41.1570 Y22.8382 
G01 X-41.1515 Y22.8400 
G01 X-41.1570 Y22.8418 
G01 X-41.3459 Y22.9380 
G01 X-41.5174 Y23.0626 
G01 X-41.6674 Y23.2126 
G01 X-41.7920 Y23.3841 
G01 X-41.8882 Y23.5730 
G01 X-41.9537 Y23.7746 
G01 X-41.9869 Y23.9840 
G01 X-41.9869 Y24.1960 
G01 X-41.9537 Y24.4054 
G01 X-41.8882 Y24.6070 
G01 X-41.7920 Y24.7959 
G01 X-41.6674 Y24.9674 
G01 X-41.5174 Y25.1174 
G01 X-41.3459 Y25.2420 
G01 X-41.1570 Y25.3382 
G01 X-40.9554 Y25.4037 
G01 X-40.7460 Y25.4369 
G01 X-40.5340 Y25.4369 
G01 X-40.3246 Y25.4037 
G01 X-40.1230 Y25.3382 
G01 X-39.9341 Y25.2420 
G01 X-39.7626 Y25.1174 
G01 X-39.6841 Y25.0389 
G01 X-39.0646 Y25.0389 
G01 X-24.4963 Y39.6073 
G01 X-24.4073 Y39.6963 
G01 X-24.3026 Y39.7662 
G01 X-24.1864 Y39.8143 
G01 X-24.0629 Y39.8389 
G01 X-24.0103 Y39.8389 
G01 X-24.0081 Y39.8456 
G01 X-23.9196 Y40.0193 
G01 X-23.8050 Y40.1771 
G01 X-23.6671 Y40.3150 
G01 X-23.5093 Y40.4296 
G01 X-23.3356 Y40.5181 
G01 X-23.1501 Y40.5784 
G01 X-22.9575 Y40.6089 
G01 X-22.7625 Y40.6089 
G01 X-22.5699 Y40.5784 
G01 X-22.3844 Y40.5181 
G01 X-22.2107 Y40.4296 
G01 X-22.0529 Y40.3150 
G01 X-21.9150 Y40.1771 
G01 X-21.8004 Y40.0193 
G01 X-21.7119 Y39.8456 
G01 X-21.6516 Y39.6601 
G01 X-21.6211 Y39.4675 
G01 X-21.6211 Y39.2725 
G01 X-21.6516 Y39.0799 
G01 X-21.7119 Y38.8944 
G01 X-21.8004 Y38.7207 
G01 X-21.9150 Y38.5629 
G01 X-22.0529 Y38.4250 
G01 X-22.2107 Y38.3104 
G01 X-22.3844 Y38.2219 
G01 X-22.5699 Y38.1616 
G01 X-22.7625 Y38.1311 
G01 X-22.9575 Y38.1311 
G01 X-23.1501 Y38.1616 
G01 X-23.3356 Y38.2219 
G01 X-23.5093 Y38.3104 
G01 X-23.6671 Y38.4250 
G01 X-23.7693 Y38.5272 
G01 X-38.3927 Y23.9037 
G01 X-38.4974 Y23.8338 
G01 X-38.6136 Y23.7857 
G01 X-38.7371 Y23.7611 
G01 X-39.3307 Y23.7611 
G01 X-39.3918 Y23.5730 
G01 X-39.4880 Y23.3841 
G01 X-39.6126 Y23.2126 
G01 X-39.7626 Y23.0626 
G01 X-39.9341 Y22.9380 
G01 X-40.1230 Y22.8418 
G01 X-40.1285 Y22.8400 
G01 X-40.1230 Y22.8382 
G01 X-39.9341 Y22.7420 
G01 X-39.7626 Y22.6174 
G01 X-39.6126 Y22.4674 
G01 X-39.4880 Y22.2959 
G01 X-39.4590 Y22.2389 
G01 X-23.9198 Y22.2389 
G01 X-23.8050 Y22.3971 
G01 X-23.6671 Y22.5350 
G01 X-23.5093 Y22.6496 
G01 X-23.3356 Y22.7381 
G01 X-23.1501 Y22.7984 
G01 X-22.9575 Y22.8289 
G01 X-22.7625 Y22.8289 
G01 X-22.5699 Y22.7984 
G01 X-22.3844 Y22.7381 
G01 X-22.2107 Y22.6496 
G01 X-22.0529 Y22.5350 
G01 X-21.9150 Y22.3971 
G01 X-21.8004 Y22.2393 
G01 X-21.7119 Y22.0656 
G01 X-21.6516 Y21.8801 
G01 X-21.6211 Y21.6875 
G01 X-21.6211 Y21.4925 
G01 X-21.6516 Y21.2999 
G01 X-21.7119 Y21.1144 
G01 X-21.8004 Y20.9407 
G01 X-21.9150 Y20.7829 
G01 X-22.0529 Y20.6450 
G01 X-22.2107 Y20.5304 
G01 X-22.3844 Y20.4419 
G01 X-22.5699 Y20.3816 
G01 X-22.7625 Y20.3511 
G01 X-22.9575 Y20.3511 
G01 X-23.1501 Y20.3816 
G01 X-23.3356 Y20.4419 
G01 X-23.5093 Y20.5304 
G01 X-23.6671 Y20.6450 
G01 X-23.8050 Y20.7829 
G01 X-23.9196 Y20.9407 
G01 X-23.9300 Y20.9611 
G01 X-39.4488 Y20.9611 
G01 X-39.4880 Y20.8841 
G01 X-39.6126 Y20.7126 
G01 X-39.7626 Y20.5626 
G01 X-39.9341 Y20.4380 
G01 X-40.1230 Y20.3418 
G01 X-40.1285 Y20.3400 
G01 X-40.1230 Y20.3382 
G01 X-39.9341 Y20.2420 
G01 X-39.7626 Y20.1174 
G01 X-39.6126 Y19.9674 
G01 X-39.4880 Y19.7959 
G01 X-39.3918 Y19.6070 
G01 X-39.3372 Y19.4389 
G01 X-25.9371 Y19.4389 
G01 X-25.8136 Y19.4143 
G01 X-25.6974 Y19.3662 
G01 X-25.5927 Y19.2963 
G01 X-23.7354 Y17.4389 
G01 X-21.8646 Y17.4389 
G01 X-19.0603 Y20.2432 
G01 X-19.0603 Y23.5425 
G01 X-19.0239 Y23.6303 
G01 X-18.9567 Y23.6975 
G01 X-18.8689 Y23.7339 
G01 X-17.0389 Y23.7339 
G01 X-17.0389 Y26.3940 
G01 X-17.0400 Y26.4509 
G01 X-17.0389 Y26.4568 
G01 X-17.0389 Y26.4629 
G01 X-17.0278 Y26.5188 
G01 X-17.0177 Y26.5747 
G01 X-17.0155 Y26.5804 
G01 X-17.0143 Y26.5864 
G01 X-16.9926 Y26.6390 
G01 X-16.9718 Y26.6919 
G01 X-16.9685 Y26.6970 
G01 X-16.9662 Y26.7026 
G01 X-16.9346 Y26.7499 
G01 X-16.9039 Y26.7978 
G01 X-16.8996 Y26.8022 
G01 X-16.8963 Y26.8073 
G01 X-16.8561 Y26.8474 
G01 X-16.7789 Y26.9276 
G01 X-16.7789 Y27.3175 
G01 X-16.7425 Y27.4053 
G01 X-16.6753 Y27.4725 
G01 X-16.6389 Y27.4876 
G01 X-16.6389 Y31.6629 
G01 X-16.6143 Y31.7864 
G01 X-16.5662 Y31.9026 
G01 X-16.4963 Y32.0073 
G01 X-16.4073 Y32.0963 
G01 X-9.5035 Y39.0000 
G01 X-10.4963 Y39.9927 
G01 X-10.5662 Y40.0974 
G01 X-10.6143 Y40.2136 
G01 X-10.6389 Y40.3371 
G01 X-10.6389 Y42.1354 
G01 X-24.2646 Y55.7611 
G01 X-25.3354 Y55.7611 
G01 X-29.9927 Y51.1037 
G01 X-30.0974 Y51.0338 
G01 X-30.2136 Y50.9857 
G01 X-30.3371 Y50.9611 
G01 X-30.6255 Y50.9611 
G01 X-30.6754 Y50.8632 
G01 X-30.7900 Y50.7054 
G01 X-30.9279 Y50.5675 
G01 X-31.0857 Y50.4529 
G01 X-31.2594 Y50.3644 
G01 X-31.4449 Y50.3041 
G01 X-31.6375 Y50.2736 
G01 X-31.8325 Y50.2736 
G01 X-32.0251 Y50.3041 
G01 X-32.2106 Y50.3644 
G01 X-32.3843 Y50.4529 
G01 X-32.5421 Y50.5675 
G01 X-32.6800 Y50.7054 
G01 X-32.7946 Y50.8632 
G01 X-32.8831 Y51.0369 
G01 X-32.9434 Y51.2224 
G01 X-32.9739 Y51.4150 
G01 X-32.9739 Y51.6100 
G01 X-32.9434 Y51.8026 
G01 X-32.8831 Y51.9881 
G01 X-32.7946 Y52.1618 
G01 X-32.6800 Y52.3196 
G01 X-32.5421 Y52.4575 
G01 X-32.3843 Y52.5721 
G01 X-32.2106 Y52.6606 
G01 X-32.0251 Y52.7209 
G01 X-31.8325 Y52.7514 
G01 X-31.6375 Y52.7514 
G01 X-31.4449 Y52.7209 
G01 X-31.2594 Y52.6606 
G01 X-31.0857 Y52.5721 
G01 X-30.9279 Y52.4575 
G01 X-30.7900 Y52.3196 
G01 X-30.7314 Y52.2389 
G01 X-30.6646 Y52.2389 
G01 X-26.0963 Y56.8073 
G01 X-26.0073 Y56.8963 
G01 X-25.9026 Y56.9662 
G01 X-25.7864 Y57.0143 
G01 X-25.6629 Y57.0389 
G01 X-23.9371 Y57.0389 
G01 X-23.8136 Y57.0143 
G01 X-23.6974 Y56.9662 
G01 X-23.5927 Y56.8963 
G01 X-9.5927 Y42.8963 
G01 X-9.5037 Y42.8073 
G01 X-9.4338 Y42.7026 
G01 X-9.3857 Y42.5864 
G01 X-9.3611 Y42.4629 
G01 X-9.3611 Y40.6646 
G01 X-8.6918 Y39.9954 
G01 X-8.6796 Y40.0193 
G01 X-8.5650 Y40.1771 
G01 X-8.4271 Y40.3150 
G01 X-8.2693 Y40.4296 
G01 X-8.0956 Y40.5181 
G01 X-7.9101 Y40.5784 
G01 X-7.7175 Y40.6089 
G01 X-7.5225 Y40.6089 
G01 X-7.3299 Y40.5784 
G01 X-7.1444 Y40.5181 
G01 X-6.9707 Y40.4296 
G01 X-6.8129 Y40.3150 
G01 X-6.6750 Y40.1771 
G01 X-6.5604 Y40.0193 
G01 X-6.4719 Y39.8456 
G01 X-6.4116 Y39.6601 
G01 X-6.3811 Y39.4675 
G01 X-6.3811 Y39.2725 
G01 X-6.4116 Y39.0799 
G01 X-6.4719 Y38.8944 
G01 X-6.5604 Y38.7207 
G01 X-6.6750 Y38.5629 
G01 X-6.8129 Y38.4250 
G01 X-6.9707 Y38.3104 
G01 X-7.1444 Y38.2219 
G01 X-7.3299 Y38.1616 
G01 X-7.5225 Y38.1311 
G01 X-7.7175 Y38.1311 
G01 X-7.9101 Y38.1616 
G01 X-8.0956 Y38.2219 
G01 X-8.2693 Y38.3104 
G01 X-8.3369 Y38.3595 
G01 X-15.3611 Y31.3354 
G01 X-15.3611 Y26.8510 
G01 X-15.3592 Y26.8392 
G01 X-15.3611 Y26.7882 
G01 X-15.3611 Y26.7371 
G01 X-15.3634 Y26.7254 
G01 X-15.3639 Y26.7135 
G01 X-15.3757 Y26.6637 
G01 X-15.3857 Y26.6136 
G01 X-15.3902 Y26.6026 
G01 X-15.3930 Y26.5910 
G01 X-15.4142 Y26.5446 
G01 X-15.4338 Y26.4974 
G01 X-15.4404 Y26.4874 
G01 X-15.4454 Y26.4766 
G01 X-15.4754 Y26.4352 
G01 X-15.5011 Y26.3967 
G01 X-15.5011 Y26.0225 
G01 X-15.5375 Y25.9347 
G01 X-15.6047 Y25.8675 
G01 X-15.6925 Y25.8311 
G01 X-15.7611 Y25.8311 
G01 X-15.7611 Y22.7371 
G01 X-15.7857 Y22.6136 
G01 X-15.8338 Y22.4974 
G01 X-15.9037 Y22.3927 
G01 X-16.4997 Y21.7968 
G01 X-16.4997 Y19.6375 
G01 X-16.5361 Y19.5497 
G01 X-16.6033 Y19.4825 
G01 X-16.6911 Y19.4461 
G01 X-18.0504 Y19.4461 
G01 X-21.1927 Y16.3037 
G00 Z2.0000 
G00 X-21.9150 Y18.2429 
G01 Z-0.0250 F254.00 
G01 X-22.0529 Y18.1050 F508.00 
G01 X-22.2107 Y17.9904 
G01 X-22.3844 Y17.9019 
G01 X-22.5699 Y17.8416 
G01 X-22.7625 Y17.8111 
G01 X-22.9575 Y17.8111 
G01 X-23.1501 Y17.8416 
G01 X-23.3356 Y17.9019 
G01 X-23.5093 Y17.9904 
G01 X-23.6671 Y18.1050 
G01 X-23.8050 Y18.2429 
G01 X-23.9196 Y18.4007 
G01 X-24.0081 Y18.5744 
G01 X-24.0684 Y18.7599 
G01 X-24.0989 Y18.9525 
G01 X-24.0989 Y19.1475 
G01 X-24.0684 Y19.3401 
G01 X-24.0081 Y19.5256 
G01 X-23.9196 Y19.6993 
G01 X-23.8050 Y19.8571 
G01 X-23.6671 Y19.9950 
G01 X-23.5093 Y20.1096 
G01 X-23.3356 Y20.1981 
G01 X-23.1501 Y20.2584 
G01 X-22.9575 Y20.2889 
G01 X-22.7625 Y20.2889 
G01 X-22.5699 Y20.2584 
G01 X-22.3844 Y20.1981 
G01 X-22.2107 Y20.1096 
G01 X-22.0529 Y19.9950 
G01 X-21.9150 Y19.8571 
G01 X-21.8004 Y19.6993 
G01 X-21.7119 Y19.5256 
G01 X-21.6516 Y19.3401 
G01 X-21.6211 Y19.1475 
G01 X-21.6211 Y18.9525 
G01 X-21.6516 Y18.7599 
G01 X-21.7119 Y18.5744 
G01 X-21.8004 Y18.4007 
G01 X-21.9150 Y18.2429 
G00 Z2.0000 
G00 X-21.9150 Y23.3229 
G01 Z-0.0250 F254.00 
G01 X-22.0529 Y23.1850 F508.00 
G01 X-22.2107 Y23.0704 
G01 X-22.3844 Y22.9819 
G01 X-22.5699 Y22.9216 
G01 X-22.7625 Y22.8911 
G01 X-22.9575 Y22.8911 
G01 X-23.1501 Y22.9216 
G01 X-23.3356 Y22.9819 
G01 X-23.5093 Y23.0704 
G01 X-23.6671 Y23.1850 
G01 X-23.8050 Y23.3229 
G01 X-23.9196 Y23.4807 
G01 X-24.0081 Y23.6544 
G01 X-24.0684 Y23.8399 
G01 X-24.0989 Y24.0325 
G01 X-24.0989 Y24.2275 
G01 X-24.0684 Y24.4201 
G01 X-24.0081 Y24.6056 
G01 X-23.9196 Y24.7793 
G01 X-23.8050 Y24.9371 
G01 X-23.6671 Y25.0750 
G01 X-23.5093 Y25.1896 
G01 X-23.3356 Y25.2781 
G01 X-23.1501 Y25.3384 
G01 X-22.9575 Y25.3689 
G01 X-22.7625 Y25.3689 
G01 X-22.5699 Y25.3384 
G01 X-22.3844 Y25.2781 
G01 X-22.2107 Y25.1896 
G01 X-22.0529 Y25.0750 
G01 X-21.9150 Y24.9371 
G01 X-21.8004 Y24.7793 
G01 X-21.7119 Y24.6056 
G01 X-21.6516 Y24.4201 
G01 X-21.6211 Y24.2275 
G01 X-21.6211 Y24.0325 
G01 X-21.6516 Y23.8399 
G01 X-21.7119 Y23.6544 
G01 X-21.8004 Y23.4807 
G01 X-21.9150 Y23.3229 
G00 Z2.0000 
G00 X-21.9150 Y25.8629 
G01 Z-0.0250 F254.00 
G01 X-22.0529 Y25.7250 F508.00 
G01 X-22.2107 Y25.6104 
G01 X-22.3844 Y25.5219 
G01 X-22.5699 Y25.4616 
G01 X-22.7625 Y25.4311 
G01 X-22.9575 Y25.4311 
G01 X-23.1501 Y25.4616 
G01 X-23.3356 Y25.5219 
G01 X-23.5093 Y25.6104 
G01 X-23.6671 Y25.7250 
G01 X-23.8050 Y25.8629 
G01 X-23.9196 Y26.0207 
G01 X-24.0081 Y26.1944 
G01 X-24.0684 Y26.3799 
G01 X-24.0989 Y26.5725 
G01 X-24.0989 Y26.7675 
G01 X-24.0684 Y26.9601 
G01 X-24.0081 Y27.1456 
G01 X-23.9196 Y27.3193 
G01 X-23.8050 Y27.4771 
G01 X-23.6671 Y27.6150 
G01 X-23.5093 Y27.7296 
G01 X-23.3356 Y27.8181 
G01 X-23.1501 Y27.8784 
G01 X-22.9575 Y27.9089 
G01 X-22.7625 Y27.9089 
G01 X-22.5699 Y27.8784 
G01 X-22.3844 Y27.8181 
G01 X-22.2107 Y27.7296 
G01 X-22.0529 Y27.6150 
G01 X-21.9150 Y27.4771 
G01 X-21.8004 Y27.3193 
G01 X-21.7119 Y27.1456 
G01 X-21.6516 Y26.9601 
G01 X-21.6211 Y26.7675 
G01 X-21.6211 Y26.5725 
G01 X-21.6516 Y26.3799 
G01 X-21.7119 Y26.1944 
G01 X-21.8004 Y26.0207 
G01 X-21.9150 Y25.8629 
G00 Z2.0000 
G00 X-21.9150 Y28.4029 
G01 Z-0.0250 F254.00 
G01 X-22.0529 Y28.2650 F508.00 
G01 X-22.2107 Y28.1504 
G01 X-22.3844 Y28.0619 
G01 X-22.5699 Y28.0016 
G01 X-22.7625 Y27.9711 
G01 X-22.9575 Y27.9711 
G01 X-23.1501 Y28.0016 
G01 X-23.3356 Y28.0619 
G01 X-23.5093 Y28.1504 
G01 X-23.6671 Y28.2650 
G01 X-23.8050 Y28.4029 
G01 X-23.9196 Y28.5607 
G01 X-24.0081 Y28.7344 
G01 X-24.0684 Y28.9199 
G01 X-24.0989 Y29.1125 
G01 X-24.0989 Y29.3075 
G01 X-24.0684 Y29.5001 
G01 X-24.0081 Y29.6856 
G01 X-23.9196 Y29.8593 
G01 X-23.8050 Y30.0171 
G01 X-23.6671 Y30.1550 
G01 X-23.5093 Y30.2696 
G01 X-23.3356 Y30.3581 
G01 X-23.1501 Y30.4184 
G01 X-22.9575 Y30.4489 
G01 X-22.7625 Y30.4489 
G01 X-22.5699 Y30.4184 
G01 X-22.3844 Y30.3581 
G01 X-22.2107 Y30.2696 
G01 X-22.0529 Y30.1550 
G01 X-21.9150 Y30.0171 
G01 X-21.8004 Y29.8593 
G01 X-21.7119 Y29.6856 
G01 X-21.6516 Y29.5001 
G01 X-21.6211 Y29.3075 
G01 X-21.6211 Y29.1125 
G01 X-21.6516 Y28.9199 
G01 X-21.7119 Y28.7344 
G01 X-21.8004 Y28.5607 
G01 X-21.9150 Y28.4029 
G00 Z2.0000 
G00 X-21.9150 Y30.9429 
G01 Z-0.0250 F254.00 
G01 X-22.0529 Y30.8050 F508.00 
G01 X-22.2107 Y30.6904 
G01 X-22.3844 Y30.6019 
G01 X-22.5699 Y30.5416 
G01 X-22.7625 Y30.5111 
G01 X-22.9575 Y30.5111 
G01 X-23.1501 Y30.5416 
G01 X-23.3356 Y30.6019 
G01 X-23.5093 Y30.6904 
G01 X-23.6671 Y30.8050 
G01 X-23.8050 Y30.9429 
G01 X-23.9196 Y31.1007 
G01 X-24.0081 Y31.2744 
G01 X-24.0684 Y31.4599 
G01 X-24.0989 Y31.6525 
G01 X-24.0989 Y31.8475 
G01 X-24.0684 Y32.0401 
G01 X-24.0081 Y32.2256 
G01 X-23.9196 Y32.3993 
G01 X-23.8050 Y32.5571 
G01 X-23.6671 Y32.6950 
G01 X-23.5093 Y32.8096 
G01 X-23.3356 Y32.8981 
G01 X-23.1501 Y32.9584 
G01 X-22.9575 Y32.9889 
G01 X-22.7625 Y32.9889 
G01 X-22.5699 Y32.9584 
G01 X-22.3844 Y32.8981 
G01 X-22.2107 Y32.8096 
G01 X-22.0529 Y32.6950 
G01 X-21.9150 Y32.5571 
G01 X-21.8004 Y32.3993 
G01 X-21.7119 Y32.2256 
G01 X-21.6516 Y32.0401 
G01 X-21.6211 Y31.8475 
G01 X-21.6211 Y31.6525 
G01 X-21.6516 Y31.4599 
G01 X-21.7119 Y31.2744 
G01 X-21.8004 Y31.1007 
G01 X-21.9150 Y30.9429 
G00 Z2.0000 
G00 X-21.9150 Y33.4829 
G01 Z-0.0250 F254.00 
G01 X-22.0529 Y33.3450 F508.00 
G01 X-22.2107 Y33.2304 
G01 X-22.3844 Y33.1419 
G01 X-22.5699 Y33.0816 
G01 X-22.7625 Y33.0511 
G01 X-22.9575 Y33.0511 
G01 X-23.1501 Y33.0816 
G01 X-23.3356 Y33.1419 
G01 X-23.5093 Y33.2304 
G01 X-23.6671 Y33.3450 
G01 X-23.8050 Y33.4829 
G01 X-23.9196 Y33.6407 
G01 X-24.0081 Y33.8144 
G01 X-24.0684 Y33.9999 
G01 X-24.0989 Y34.1925 
G01 X-24.0989 Y34.3875 
G01 X-24.0684 Y34.5801 
G01 X-24.0081 Y34.7656 
G01 X-23.9196 Y34.9393 
G01 X-23.8050 Y35.0971 
G01 X-23.6671 Y35.2350 
G01 X-23.5093 Y35.3496 
G01 X-23.3356 Y35.4381 
G01 X-23.1501 Y35.4984 
G01 X-22.9575 Y35.5289 
G01 X-22.7625 Y35.5289 
G01 X-22.5699 Y35.4984 
G01 X-22.3844 Y35.4381 
G01 X-22.2107 Y35.3496 
G01 X-22.0529 Y35.2350 
G01 X-21.9150 Y35.0971 
G01 X-21.8004 Y34.9393 
G01 X-21.7119 Y34.7656 
G01 X-21.6516 Y34.5801 
G01 X-21.6211 Y34.3875 
G01 X-21.6211 Y34.1925 
G01 X-21.6516 Y33.9999 
G01 X-21.7119 Y33.8144 
G01 X-21.8004 Y33.6407 
G01 X-21.9150 Y33.4829 
G00 Z2.0000 
G00 X-21.9150 Y36.0229 
G01 Z-0.0250 F254.00 
G01 X-22.0529 Y35.8850 F508.00 
G01 X-22.2107 Y35.7704 
G01 X-22.3844 Y35.6819 
G01 X-22.5699 Y35.6216 
G01 X-22.7625 Y35.5911 
G01 X-22.9575 Y35.5911 
G01 X-23.1501 Y35.6216 
G01 X-23.3356 Y35.6819 
G01 X-23.5093 Y35.7704 
G01 X-23.6671 Y35.8850 
G01 X-23.8050 Y36.0229 
G01 X-23.9196 Y36.1807 
G01 X-24.0081 Y36.3544 
G01 X-24.0684 Y36.5399 
G01 X-24.0989 Y36.7325 
G01 X-24.0989 Y36.9275 
G01 X-24.0684 Y37.1201 
G01 X-24.0081 Y37.3056 
G01 X-23.9196 Y37.4793 
G01 X-23.8050 Y37.6371 
G01 X-23.6671 Y37.7750 
G01 X-23.5093 Y37.8896 
G01 X-23.3356 Y37.9781 
G01 X-23.1501 Y38.0384 
G01 X-22.9575 Y38.0689 
G01 X-22.7625 Y38.0689 
G01 X-22.5699 Y38.0384 
G01 X-22.3844 Y37.9781 
G01 X-22.2107 Y37.8896 
G01 X-22.0529 Y37.7750 
G01 X-21.9150 Y37.6371 
G01 X-21.8004 Y37.4793 
G01 X-21.7119 Y37.3056 
G01 X-21.6516 Y37.1201 
G01 X-21.6211 Y36.9275 
G01 X-21.6211 Y36.7325 
G01 X-21.6516 Y36.5399 
G01 X-21.7119 Y36.3544 
G01 X-21.8004 Y36.1807 
G01 X-21.9150 Y36.0229 
G00 Z2.0000 
G00 X-18.6346 Y36.1088 
G01 Z-0.0250 F254.00 
G01 X-18.7106 Y36.3923 F508.00 
G01 X-18.7489 Y36.6833 
G01 X-18.7489 Y36.9767 
G01 X-18.7106 Y37.2677 
G01 X-18.6346 Y37.5512 
G01 X-18.5223 Y37.8224 
G01 X-18.3756 Y38.0765 
G01 X-18.1969 Y38.3094 
G01 X-17.9894 Y38.5169 
G01 X-17.7565 Y38.6956 
G01 X-17.5024 Y38.8423 
G01 X-17.2312 Y38.9546 
G01 X-16.9477 Y39.0306 
G01 X-16.6567 Y39.0689 
G01 X-16.3633 Y39.0689 
G01 X-16.0723 Y39.0306 
G01 X-15.7888 Y38.9546 
G01 X-15.5176 Y38.8423 
G01 X-15.2635 Y38.6956 
G01 X-15.0306 Y38.5169 
G01 X-14.8231 Y38.3094 
G01 X-14.6444 Y38.0765 
G01 X-14.4977 Y37.8224 
G01 X-14.3854 Y37.5512 
G01 X-14.3094 Y37.2677 
G01 X-14.2711 Y36.9767 
G01 X-14.2711 Y36.6833 
G01 X-14.3094 Y36.3923 
G01 X-14.3854 Y36.1088 
G01 X-14.4977 Y35.8376 
G01 X-14.6444 Y35.5835 
G01 X-14.8231 Y35.3506 
G01 X-15.0306 Y35.1431 
G01 X-15.2635 Y34.9644 
G01 X-15.5176 Y34.8177 
G01 X-15.7888 Y34.7054 
G01 X-16.0723 Y34.6294 
G01 X-16.3633 Y34.5911 
G01 X-16.6567 Y34.5911 
G01 X-16.9477 Y34.6294 
G01 X-17.2312 Y34.7054 
G01 X-17.5024 Y34.8177 
G01 X-17.7565 Y34.9644 
G01 X-17.9894 Y35.1431 
G01 X-18.1969 Y35.3506 
G01 X-18.3756 Y35.5835 
G01 X-18.5223 Y35.8376 
G01 X-18.6346 Y36.1088 
G00 Z2.0000 
G00 X-21.9150 Y41.1029 
G01 Z-0.0250 F254.00 
G01 X-22.0529 Y40.9650 F508.00 
G01 X-22.2107 Y40.8504 
G01 X-22.3844 Y40.7619 
G01 X-22.5699 Y40.7016 
G01 X-22.7625 Y40.6711 
G01 X-22.9575 Y40.6711 
G01 X-23.1501 Y40.7016 
G01 X-23.3356 Y40.7619 
G01 X-23.5093 Y40.8504 
G01 X-23.6671 Y40.9650 
G01 X-23.8050 Y41.1029 
G01 X-23.9196 Y41.2607 
G01 X-24.0081 Y41.4344 
G01 X-24.0684 Y41.6199 
G01 X-24.0989 Y41.8125 
G01 X-24.0989 Y42.0075 
G01 X-24.0684 Y42.2001 
G01 X-24.0081 Y42.3856 
G01 X-23.9196 Y42.5593 
G01 X-23.8050 Y42.7171 
G01 X-23.6671 Y42.8550 
G01 X-23.5093 Y42.9696 
G01 X-23.3356 Y43.0581 
G01 X-23.1501 Y43.1184 
G01 X-22.9575 Y43.1489 
G01 X-22.7625 Y43.1489 
G01 X-22.5699 Y43.1184 
G01 X-22.3844 Y43.0581 
G01 X-22.2107 Y42.9696 
G01 X-22.0529 Y42.8550 
G01 X-21.9150 Y42.7171 
G01 X-21.8004 Y42.5593 
G01 X-21.7119 Y42.3856 
G01 X-21.6516 Y42.2001 
G01 X-21.6211 Y42.0075 
G01 X-21.6211 Y41.8125 
G01 X-21.6516 Y41.6199 
G01 X-21.7119 Y41.4344 
G01 X-21.8004 Y41.2607 
G01 X-21.9150 Y41.1029 
G00 Z2.0000 
G00 X-21.9150 Y43.6429 
G01 Z-0.0250 F254.00 
G01 X-22.0529 Y43.5050 F508.00 
G01 X-22.2107 Y43.3904 
G01 X-22.3844 Y43.3019 
G01 X-22.5699 Y43.2416 
G01 X-22.7625 Y43.2111 
G01 X-22.9575 Y43.2111 
G01 X-23.1501 Y43.2416 
G01 X-23.3356 Y43.3019 
G01 X-23.5093 Y43.3904 
G01 X-23.6671 Y43.5050 
G01 X-23.8050 Y43.6429 
G01 X-23.9196 Y43.8007 
G01 X-24.0081 Y43.9744 
G01 X-24.0684 Y44.1599 
G01 X-24.0989 Y44.3525 
G01 X-24.0989 Y44.5475 
G01 X-24.0684 Y44.7401 
G01 X-24.0081 Y44.9256 
G01 X-23.9196 Y45.0993 
G01 X-23.8050 Y45.2571 
G01 X-23.6671 Y45.3950 
G01 X-23.5093 Y45.5096 
G01 X-23.3356 Y45.5981 
G01 X-23.1501 Y45.6584 
G01 X-22.9575 Y45.6889 
G01 X-22.7625 Y45.6889 
G01 X-22.5699 Y45.6584 
G01 X-22.3844 Y45.5981 
G01 X-22.2107 Y45.5096 
G01 X-22.0529 Y45.3950 
G01 X-21.9150 Y45.2571 
G01 X-21.8004 Y45.0993 
G01 X-21.7119 Y44.9256 
G01 X-21.6516 Y44.7401 
G01 X-21.6211 Y44.5475 
G01 X-21.6211 Y44.3525 
G01 X-21.6516 Y44.1599 
G01 X-21.7119 Y43.9744 
G01 X-21.8004 Y43.8007 
G01 X-21.9150 Y43.6429 
G00 Z2.0000 
G00 X-21.9150 Y46.1829 
G01 Z-0.0250 F254.00 
G01 X-22.0529 Y46.0450 F508.00 
G01 X-22.2107 Y45.9304 
G01 X-22.3844 Y45.8419 
G01 X-22.5699 Y45.7816 
G01 X-22.7625 Y45.7511 
G01 X-22.9575 Y45.7511 
G01 X-23.1501 Y45.7816 
G01 X-23.3356 Y45.8419 
G01 X-23.5093 Y45.9304 
G01 X-23.6671 Y46.0450 
G01 X-23.8050 Y46.1829 
G01 X-23.9196 Y46.3407 
G01 X-24.0081 Y46.5144 
G01 X-24.0684 Y46.6999 
G01 X-24.0989 Y46.8925 
G01 X-24.0989 Y47.0875 
G01 X-24.0684 Y47.2801 
G01 X-24.0081 Y47.4656 
G01 X-23.9196 Y47.6393 
G01 X-23.8050 Y47.7971 
G01 X-23.6671 Y47.9350 
G01 X-23.5093 Y48.0496 
G01 X-23.3356 Y48.1381 
G01 X-23.1501 Y48.1984 
G01 X-22.9575 Y48.2289 
G01 X-22.7625 Y48.2289 
G01 X-22.5699 Y48.1984 
G01 X-22.3844 Y48.1381 
G01 X-22.2107 Y48.0496 
G01 X-22.0529 Y47.9350 
G01 X-21.9150 Y47.7971 
G01 X-21.8004 Y47.6393 
G01 X-21.7119 Y47.4656 
G01 X-21.6516 Y47.2801 
G01 X-21.6211 Y47.0875 
G01 X-21.6211 Y46.8925 
G01 X-21.6516 Y46.6999 
G01 X-21.7119 Y46.5144 
G01 X-21.8004 Y46.3407 
G01 X-21.9150 Y46.1829 
G00 Z2.0000 
G00 X-24.3037 Y51.9927 
G01 Z-0.0250 F254.00 
G01 X-30.3037 Y45.9927 F508.00 
G01 X-30.3927 Y45.9037 
G01 X-30.4974 Y45.8338 
G01 X-30.6136 Y45.7857 
G01 X-30.7371 Y45.7611 
G01 X-32.4629 Y45.7611 
G01 X-32.5864 Y45.7857 
G01 X-32.7026 Y45.8338 
G01 X-32.8073 Y45.9037 
G01 X-34.4073 Y47.5037 
G01 X-34.4963 Y47.5927 
G01 X-34.5662 Y47.6974 
G01 X-34.5983 Y47.7749 
G01 X-34.7506 Y47.8244 
G01 X-34.9243 Y47.9129 
G01 X-35.0821 Y48.0275 
G01 X-35.2200 Y48.1654 
G01 X-35.3346 Y48.3232 
G01 X-35.4231 Y48.4969 
G01 X-35.4834 Y48.6824 
G01 X-35.5139 Y48.8750 
G01 X-35.5139 Y49.0700 
G01 X-35.4834 Y49.2626 
G01 X-35.4231 Y49.4481 
G01 X-35.3346 Y49.6218 
G01 X-35.2200 Y49.7796 
G01 X-35.0821 Y49.9175 
G01 X-34.9243 Y50.0321 
G01 X-34.7506 Y50.1206 
G01 X-34.5651 Y50.1809 
G01 X-34.3725 Y50.2114 
G01 X-34.1775 Y50.2114 
G01 X-33.9849 Y50.1809 
G01 X-33.7994 Y50.1206 
G01 X-33.6257 Y50.0321 
G01 X-33.4679 Y49.9175 
G01 X-33.3300 Y49.7796 
G01 X-33.2154 Y49.6218 
G01 X-33.1269 Y49.4481 
G01 X-33.0666 Y49.2626 
G01 X-33.0361 Y49.0700 
G01 X-33.0361 Y48.8750 
G01 X-33.0666 Y48.6824 
G01 X-33.1269 Y48.4969 
G01 X-33.2154 Y48.3232 
G01 X-33.3013 Y48.2049 
G01 X-32.1354 Y47.0389 
G01 X-31.0646 Y47.0389 
G01 X-25.4389 Y52.6646 
G01 X-25.4389 Y52.9351 
G01 X-25.4493 Y52.9404 
G01 X-25.6071 Y53.0550 
G01 X-25.7450 Y53.1929 
G01 X-25.8596 Y53.3507 
G01 X-25.9481 Y53.5244 
G01 X-26.0084 Y53.7099 
G01 X-26.0389 Y53.9025 
G01 X-26.0389 Y54.0975 
G01 X-26.0084 Y54.2901 
G01 X-25.9481 Y54.4756 
G01 X-25.8596 Y54.6493 
G01 X-25.7450 Y54.8071 
G01 X-25.6071 Y54.9450 
G01 X-25.4493 Y55.0596 
G01 X-25.2756 Y55.1481 
G01 X-25.0901 Y55.2084 
G01 X-24.8975 Y55.2389 
G01 X-24.7025 Y55.2389 
G01 X-24.5099 Y55.2084 
G01 X-24.3244 Y55.1481 
G01 X-24.1507 Y55.0596 
G01 X-23.9929 Y54.9450 
G01 X-23.8550 Y54.8071 
G01 X-23.7404 Y54.6493 
G01 X-23.6519 Y54.4756 
G01 X-23.5916 Y54.2901 
G01 X-23.5611 Y54.0975 
G01 X-23.5611 Y53.9025 
G01 X-23.5916 Y53.7099 
G01 X-23.6519 Y53.5244 
G01 X-23.7404 Y53.3507 
G01 X-23.8550 Y53.1929 
G01 X-23.9929 Y53.0550 
G01 X-24.1507 Y52.9404 
G01 X-24.1611 Y52.9351 
G01 X-24.1611 Y52.4629 
G01 X-24.1611 Y52.3371 
G01 X-24.1857 Y52.2136 
G01 X-24.2338 Y52.0974 
G01 X-24.3037 Y51.9927 
G00 Z2.0000 
G00 X-30.9279 Y49.9175 
G01 Z-0.0250 F254.00 
G01 X-30.7900 Y49.7796 F508.00 
G01 X-30.6754 Y49.6218 
G01 X-30.5869 Y49.4481 
G01 X-30.5266 Y49.2626 
G01 X-30.4961 Y49.0700 
G01 X-30.4961 Y48.8750 
G01 X-30.5266 Y48.6824 
G01 X-30.5869 Y48.4969 
G01 X-30.6754 Y48.3232 
G01 X-30.7900 Y48.1654 
G01 X-30.9279 Y48.0275 
G01 X-31.0857 Y47.9129 
G01 X-31.2594 Y47.8244 
G01 X-31.4449 Y47.7641 
G01 X-31.6375 Y47.7336 
G01 X-31.8325 Y47.7336 
G01 X-32.0251 Y47.7641 
G01 X-32.2106 Y47.8244 
G01 X-32.3843 Y47.9129 
G01 X-32.5421 Y48.0275 
G01 X-32.6800 Y48.1654 
G01 X-32.7946 Y48.3232 
G01 X-32.8831 Y48.4969 
G01 X-32.9434 Y48.6824 
G01 X-32.9739 Y48.8750 
G01 X-32.9739 Y49.0700 
G01 X-32.9434 Y49.2626 
G01 X-32.8831 Y49.4481 
G01 X-32.7946 Y49.6218 
G01 X-32.6800 Y49.7796 
G01 X-32.5421 Y49.9175 
G01 X-32.3843 Y50.0321 
G01 X-32.2106 Y50.1206 
G01 X-32.0251 Y50.1809 
G01 X-31.8325 Y50.2114 
G01 X-31.6375 Y50.2114 
G01 X-31.4449 Y50.1809 
G01 X-31.2594 Y50.1206 
G01 X-31.0857 Y50.0321 
G01 X-30.9279 Y49.9175 
G00 Z2.0000 
G00 X-33.3300 Y50.7054 
G01 Z-0.0250 F254.00 
G01 X-33.4679 Y50.5675 F508.00 
G01 X-33.6257 Y50.4529 
G01 X-33.7994 Y50.3644 
G01 X-33.9849 Y50.3041 
G01 X-34.1775 Y50.2736 
G01 X-34.3725 Y50.2736 
G01 X-34.5651 Y50.3041 
G01 X-34.7506 Y50.3644 
G01 X-34.9243 Y50.4529 
G01 X-35.0821 Y50.5675 
G01 X-35.2200 Y50.7054 
G01 X-35.3346 Y50.8632 
G01 X-35.4231 Y51.0369 
G01 X-35.4834 Y51.2224 
G01 X-35.5139 Y51.4150 
G01 X-35.5139 Y51.6100 
G01 X-35.4834 Y51.8026 
G01 X-35.4231 Y51.9881 
G01 X-35.3346 Y52.1618 
G01 X-35.2200 Y52.3196 
G01 X-35.0821 Y52.4575 
G01 X-34.9243 Y52.5721 
G01 X-34.7506 Y52.6606 
G01 X-34.5651 Y52.7209 
G01 X-34.3725 Y52.7514 
G01 X-34.1775 Y52.7514 
G01 X-33.9849 Y52.7209 
G01 X-33.7994 Y52.6606 
G01 X-33.6257 Y52.5721 
G01 X-33.4679 Y52.4575 
G01 X-33.3300 Y52.3196 
G01 X-33.2154 Y52.1618 
G01 X-33.1269 Y51.9881 
G01 X-33.0666 Y51.8026 
G01 X-33.0361 Y51.6100 
G01 X-33.0361 Y51.4150 
G01 X-33.0666 Y51.2224 
G01 X-33.1269 Y51.0369 
G01 X-33.2154 Y50.8632 
G01 X-33.3300 Y50.7054 
G00 Z2.0000 
G00 X-35.8700 Y50.7054 
G01 Z-0.0250 F254.00 
G01 X-36.0079 Y50.5675 F508.00 
G01 X-36.1657 Y50.4529 
G01 X-36.3394 Y50.3644 
G01 X-36.5249 Y50.3041 
G01 X-36.7175 Y50.2736 
G01 X-36.9125 Y50.2736 
G01 X-37.1051 Y50.3041 
G01 X-37.2906 Y50.3644 
G01 X-37.4643 Y50.4529 
G01 X-37.6221 Y50.5675 
G01 X-37.7600 Y50.7054 
G01 X-37.8746 Y50.8632 
G01 X-37.9631 Y51.0369 
G01 X-38.0234 Y51.2224 
G01 X-38.0539 Y51.4150 
G01 X-38.0539 Y51.6100 
G01 X-38.0234 Y51.8026 
G01 X-37.9631 Y51.9881 
G01 X-37.8746 Y52.1618 
G01 X-37.7600 Y52.3196 
G01 X-37.6221 Y52.4575 
G01 X-37.4643 Y52.5721 
G01 X-37.2906 Y52.6606 
G01 X-37.1051 Y52.7209 
G01 X-36.9125 Y52.7514 
G01 X-36.7175 Y52.7514 
G01 X-36.5249 Y52.7209 
G01 X-36.3394 Y52.6606 
G01 X-36.1657 Y52.5721 
G01 X-36.0079 Y52.4575 
G01 X-35.8700 Y52.3196 
G01 X-35.7554 Y52.1618 
G01 X-35.6669 Y51.9881 
G01 X-35.6066 Y51.8026 
G01 X-35.5761 Y51.6100 
G01 X-35.5761 Y51.4150 
G01 X-35.6066 Y51.2224 
G01 X-35.6669 Y51.0369 
G01 X-35.7554 Y50.8632 
G01 X-35.8700 Y50.7054 
G00 Z2.0000 
G00 X-36.0079 Y49.9175 
G01 Z-0.0250 F254.00 
G01 X-35.8700 Y49.7796 F508.00 
G01 X-35.7554 Y49.6218 
G01 X-35.6669 Y49.4481 
G01 X-35.6066 Y49.2626 
G01 X-35.5761 Y49.0700 
G01 X-35.5761 Y48.8750 
G01 X-35.6066 Y48.6824 
G01 X-35.6669 Y48.4969 
G01 X-35.7554 Y48.3232 
G01 X-35.8700 Y48.1654 
G01 X-36.0079 Y48.0275 
G01 X-36.1657 Y47.9129 
G01 X-36.3394 Y47.8244 
G01 X-36.5249 Y47.7641 
G01 X-36.7175 Y47.7336 
G01 X-36.9125 Y47.7336 
G01 X-37.1051 Y47.7641 
G01 X-37.2906 Y47.8244 
G01 X-37.4643 Y47.9129 
G01 X-37.6221 Y48.0275 
G01 X-37.7600 Y48.1654 
G01 X-37.8746 Y48.3232 
G01 X-37.9631 Y48.4969 
G01 X-38.0234 Y48.6824 
G01 X-38.0539 Y48.8750 
G01 X-38.0539 Y49.0700 
G01 X-38.0234 Y49.2626 
G01 X-37.9631 Y49.4481 
G01 X-37.8746 Y49.6218 
G01 X-37.7600 Y49.7796 
G01 X-37.6221 Y49.9175 
G01 X-37.4643 Y50.0321 
G01 X-37.2906 Y50.1206 
G01 X-37.1051 Y50.1809 
G01 X-36.9125 Y50.2114 
G01 X-36.7175 Y50.2114 
G01 X-36.5249 Y50.1809 
G01 X-36.3394 Y50.1206 
G01 X-36.1657 Y50.0321 
G01 X-36.0079 Y49.9175 
G00 Z2.0000 
G00 X-38.5479 Y49.9175 
G01 Z-0.0250 F254.00 
G01 X-38.4100 Y49.7796 F508.00 
G01 X-38.2954 Y49.6218 
G01 X-38.2069 Y49.4481 
G01 X-38.1466 Y49.2626 
G01 X-38.1161 Y49.0700 
G01 X-38.1161 Y48.8750 
G01 X-38.1466 Y48.6824 
G01 X-38.2069 Y48.4969 
G01 X-38.2954 Y48.3232 
G01 X-38.4100 Y48.1654 
G01 X-38.5479 Y48.0275 
G01 X-38.7057 Y47.9129 
G01 X-38.8794 Y47.8244 
G01 X-39.0649 Y47.7641 
G01 X-39.2575 Y47.7336 
G01 X-39.4525 Y47.7336 
G01 X-39.6451 Y47.7641 
G01 X-39.8306 Y47.8244 
G01 X-40.0043 Y47.9129 
G01 X-40.1621 Y48.0275 
G01 X-40.3000 Y48.1654 
G01 X-40.4146 Y48.3232 
G01 X-40.5031 Y48.4969 
G01 X-40.5634 Y48.6824 
G01 X-40.5939 Y48.8750 
G01 X-40.5939 Y49.0700 
G01 X-40.5634 Y49.2626 
G01 X-40.5031 Y49.4481 
G01 X-40.4146 Y49.6218 
G01 X-40.3000 Y49.7796 
G01 X-40.1621 Y49.9175 
G01 X-40.0043 Y50.0321 
G01 X-39.8306 Y50.1206 
G01 X-39.6451 Y50.1809 
G01 X-39.4525 Y50.2114 
G01 X-39.2575 Y50.2114 
G01 X-39.0649 Y50.1809 
G01 X-38.8794 Y50.1206 
G01 X-38.7057 Y50.0321 
G01 X-38.5479 Y49.9175 
G00 Z2.0000 
G00 X-38.5479 Y50.5675 
G01 Z-0.0250 F254.00 
G01 X-38.7057 Y50.4529 F508.00 
G01 X-38.8794 Y50.3644 
G01 X-39.0649 Y50.3041 
G01 X-39.2575 Y50.2736 
G01 X-39.4525 Y50.2736 
G01 X-39.6451 Y50.3041 
G01 X-39.8306 Y50.3644 
G01 X-40.0043 Y50.4529 
G01 X-40.1621 Y50.5675 
G01 X-40.3000 Y50.7054 
G01 X-40.4146 Y50.8632 
G01 X-40.5031 Y51.0369 
G01 X-40.5634 Y51.2224 
G01 X-40.5939 Y51.4150 
G01 X-40.5939 Y51.6100 
G01 X-40.5634 Y51.8026 
G01 X-40.5031 Y51.9881 
G01 X-40.4146 Y52.1618 
G01 X-40.3000 Y52.3196 
G01 X-40.1621 Y52.4575 
G01 X-40.0043 Y52.5721 
G01 X-39.8306 Y52.6606 
G01 X-39.6451 Y52.7209 
G01 X-39.4525 Y52.7514 
G01 X-39.2575 Y52.7514 
G01 X-39.0649 Y52.7209 
G01 X-38.8794 Y52.6606 
G01 X-38.7057 Y52.5721 
G01 X-38.5479 Y52.4575 
G01 X-38.4100 Y52.3196 
G01 X-38.2954 Y52.1618 
G01 X-38.2069 Y51.9881 
G01 X-38.1466 Y51.8026 
G01 X-38.1161 Y51.6100 
G01 X-38.1161 Y51.4150 
G01 X-38.1466 Y51.2224 
G01 X-38.2069 Y51.0369 
G01 X-38.2954 Y50.8632 
G01 X-38.4100 Y50.7054 
G01 X-38.5479 Y50.5675 
G00 Z2.0000 
G00 X-37.0246 Y60.5690 
G01 Z-0.0250 F254.00 
G01 X-37.2904 Y60.8505 F508.00 
G01 X-37.5281 Y61.1562 
G01 X-37.7356 Y61.4831 
G01 X-37.9108 Y61.8284 
G01 X-38.0523 Y62.1888 
G01 X-38.1588 Y62.5611 
G01 X-38.2292 Y62.9418 
G01 X-38.2629 Y63.3276 
G01 X-38.2596 Y63.7148 
G01 X-38.2193 Y64.0999 
G01 X-38.1425 Y64.4794 
G01 X-38.0297 Y64.8498 
G01 X-37.8821 Y65.2078 
G01 X-37.7010 Y65.5500 
G01 X-37.4881 Y65.8734 
G01 X-37.2452 Y66.1749 
G01 X-37.1443 Y66.2782 
G01 X-37.1082 Y66.3152 
G01 X-37.0739 Y66.3503 
G01 X-37.0703 Y66.3531 
G01 X-37.0276 Y66.3777 
G01 X-36.9853 Y66.4028 
G01 X-36.9810 Y66.4046 
G01 X-36.9334 Y66.4174 
G01 X-36.8861 Y66.4307 
G01 X-36.8815 Y66.4313 
G01 X-36.8323 Y66.4313 
G01 X-36.7831 Y66.4319 
G01 X-36.7785 Y66.4313 
G01 X-36.7309 Y66.4185 
G01 X-36.6832 Y66.4064 
G01 X-36.6790 Y66.4046 
G01 X-36.6362 Y66.3800 
G01 X-36.5934 Y66.3559 
G01 X-36.5897 Y66.3531 
G01 X-36.5806 Y66.3440 
G01 X-36.5843 Y66.3558 
G01 X-36.5879 Y66.4588 
G01 X-36.5647 Y66.5592 
G01 X-36.5163 Y66.6501 
G01 X-36.4461 Y66.7255 
G01 X-36.4024 Y66.7528 
G01 X-36.2353 Y66.8573 
G01 X-35.8821 Y67.0322 
G01 X-35.5133 Y67.1715 
G01 X-35.1326 Y67.2737 
G01 X-34.7437 Y67.3378 
G01 X-34.3504 Y67.3633 
G01 X-33.9565 Y67.3499 
G01 X-33.5658 Y67.2976 
G01 X-33.1821 Y67.2072 
G01 X-32.8093 Y67.0793 
G01 X-32.4509 Y66.9152 
G01 X-32.1104 Y66.7166 
G01 X-31.7912 Y66.4854 
G01 X-31.4963 Y66.2239 
G01 X-31.2287 Y65.9345 
G01 X-30.9909 Y65.6202 
G01 X-30.7852 Y65.2839 
G01 X-30.6138 Y64.9290 
G01 X-30.4781 Y64.5589 
G01 X-30.3797 Y64.1772 
G01 X-30.3193 Y63.7877 
G01 X-30.2977 Y63.3941 
G01 X-30.3150 Y63.0003 
G01 X-30.3710 Y62.6102 
G01 X-30.4653 Y62.2275 
G01 X-30.5968 Y61.8559 
G01 X-30.7644 Y61.4991 
G01 X-30.9663 Y61.1606 
G01 X-31.2006 Y60.8436 
G01 X-31.3328 Y60.6975 
G01 X-31.3674 Y60.6593 
G01 X-31.4539 Y60.6034 
G01 X-31.5520 Y60.5718 
G01 X-31.6549 Y60.5666 
G01 X-31.7556 Y60.5883 
G01 X-31.8473 Y60.6353 
G01 X-31.9237 Y60.7044 
G01 X-31.9557 Y60.7539 
G01 X-31.9903 Y60.7739 
G01 X-33.3907 Y62.1743 
G01 X-33.3907 Y60.6545 
G01 X-33.4174 Y60.5550 
G01 X-33.4689 Y60.4657 
G01 X-33.5417 Y60.3929 
G01 X-33.6310 Y60.3414 
G01 X-33.7305 Y60.3147 
G01 X-33.8335 Y60.3147 
G01 X-33.9330 Y60.3414 
G01 X-34.0223 Y60.3929 
G01 X-34.0360 Y60.4066 
G01 X-34.0497 Y60.3929 
G01 X-34.1390 Y60.3414 
G01 X-34.2385 Y60.3147 
G01 X-34.3415 Y60.3147 
G01 X-34.4410 Y60.3414 
G01 X-34.5303 Y60.3929 
G01 X-34.6031 Y60.4657 
G01 X-34.6546 Y60.5550 
G01 X-34.6813 Y60.6545 
G01 X-34.6813 Y63.6342 
G01 X-34.7465 Y63.6167 
G01 X-34.8495 Y63.6167 
G01 X-34.9490 Y63.6434 
G01 X-35.0383 Y63.6949 
G01 X-36.8078 Y65.4644 
G01 X-36.8521 Y65.4095 
G01 X-37.0236 Y65.1489 
G01 X-37.1695 Y64.8732 
G01 X-37.2884 Y64.5848 
G01 X-37.3793 Y64.2864 
G01 X-37.4412 Y63.9807 
G01 X-37.4736 Y63.6704 
G01 X-37.4762 Y63.3585 
G01 X-37.4491 Y63.0478 
G01 X-37.3924 Y62.7410 
G01 X-37.3067 Y62.4411 
G01 X-37.1927 Y62.1508 
G01 X-37.0515 Y61.8726 
G01 X-36.8843 Y61.6092 
G01 X-36.6928 Y61.3630 
G01 X-36.4787 Y61.1362 
G01 X-36.2438 Y60.9309 
G01 X-35.9905 Y60.7489 
G01 X-35.7209 Y60.5920 
G01 X-35.4375 Y60.4615 
G01 X-35.1430 Y60.3587 
G01 X-34.8401 Y60.2845 
G01 X-34.5314 Y60.2395 
G01 X-34.2198 Y60.2243 
G01 X-33.9082 Y60.2388 
G01 X-33.5994 Y60.2831 
G01 X-33.2963 Y60.3567 
G01 X-33.0016 Y60.4588 
G01 X-32.7179 Y60.5887 
G01 X-32.5811 Y60.6636 
G01 X-32.5365 Y60.6894 
G01 X-32.4370 Y60.7162 
G01 X-32.3340 Y60.7164 
G01 X-32.2345 Y60.6898 
G01 X-32.1452 Y60.6384 
G01 X-32.0722 Y60.5657 
G01 X-32.0206 Y60.4765 
G01 X-31.9938 Y60.3771 
G01 X-31.9936 Y60.2740 
G01 X-32.0202 Y60.1745 
G01 X-32.0716 Y60.0852 
G01 X-32.1443 Y60.0122 
G01 X-32.1889 Y59.9864 
G01 X-32.3564 Y59.8894 
G01 X-32.7085 Y59.7282 
G01 X-33.0743 Y59.6014 
G01 X-33.4506 Y59.5101 
G01 X-33.8339 Y59.4551 
G01 X-34.2207 Y59.4371 
G01 X-34.6074 Y59.4560 
G01 X-34.9906 Y59.5118 
G01 X-35.3667 Y59.6039 
G01 X-35.7322 Y59.7315 
G01 X-36.0840 Y59.8935 
G01 X-36.4186 Y60.0883 
G01 X-36.7331 Y60.3141 
G01 X-37.0246 Y60.5690 
G00 Z2.0000 
G00 X-33.8987 Y63.4928 
G01 Z-0.0250 F254.00 
G01 X-33.8335 Y63.5103 F508.00 
G01 X-33.7305 Y63.5103 
G01 X-33.6310 Y63.4836 
G01 X-33.5417 Y63.4321 
G01 X-31.6578 Y61.5482 
G01 X-31.6218 Y61.5969 
G01 X-31.4598 Y61.8686 
G01 X-31.3253 Y62.1550 
G01 X-31.2197 Y62.4533 
G01 X-31.1440 Y62.7605 
G01 X-31.0990 Y63.0737 
G01 X-31.0852 Y63.3898 
G01 X-31.1025 Y63.7057 
G01 X-31.1510 Y64.0184 
G01 X-31.2300 Y64.3248 
G01 X-31.3389 Y64.6218 
G01 X-31.4765 Y64.9067 
G01 X-31.6416 Y65.1767 
G01 X-31.8325 Y65.4290 
G01 X-32.0473 Y65.6613 
G01 X-32.2840 Y65.8712 
G01 X-32.5403 Y66.0568 
G01 X-32.8136 Y66.2162 
G01 X-33.1013 Y66.3479 
G01 X-33.4005 Y66.4506 
G01 X-33.7085 Y66.5232 
G01 X-33.9199 Y66.5515 
G01 X-33.8987 Y66.4725 
G01 X-33.8987 Y63.4928 
G00 Z2.0000 
G00 X-35.1893 Y64.9527 
G01 Z-0.0250 F254.00 
G01 X-35.1893 Y66.4441 F508.00 
G01 X-35.2718 Y66.4219 
G01 X-35.5678 Y66.3102 
G01 X-35.8514 Y66.1697 
G01 X-35.9876 Y66.0892 
G01 X-36.0313 Y66.0619 
G01 X-36.1298 Y66.0317 
G01 X-36.2328 Y66.0281 
G01 X-36.2743 Y66.0377 
G01 X-35.1893 Y64.9527 
G00 Z2.0000 
G00 X-40.2231 Y72.1806 
G01 Z-0.0250 F254.00 
G01 X-40.4306 Y71.9731 F508.00 
G01 X-40.6635 Y71.7944 
G01 X-40.9176 Y71.6477 
G01 X-41.1888 Y71.5354 
G01 X-41.4723 Y71.4594 
G01 X-41.7633 Y71.4211 
G01 X-42.0567 Y71.4211 
G01 X-42.3477 Y71.4594 
G01 X-42.6312 Y71.5354 
G01 X-42.9024 Y71.6477 
G01 X-43.1565 Y71.7944 
G01 X-43.3894 Y71.9731 
G01 X-43.5969 Y72.1806 
G01 X-43.7756 Y72.4135 
G01 X-43.9223 Y72.6676 
G01 X-44.0346 Y72.9388 
G01 X-44.1106 Y73.2223 
G01 X-44.1489 Y73.5133 
G01 X-44.1489 Y73.8067 
G01 X-44.1106 Y74.0977 
G01 X-44.0346 Y74.3812 
G01 X-43.9223 Y74.6524 
G01 X-43.7756 Y74.9065 
G01 X-43.5969 Y75.1394 
G01 X-43.3894 Y75.3469 
G01 X-43.1565 Y75.5256 
G01 X-42.9024 Y75.6723 
G01 X-42.6312 Y75.7846 
G01 X-42.3477 Y75.8606 
G01 X-42.0567 Y75.8989 
G01 X-41.7633 Y75.8989 
G01 X-41.4723 Y75.8606 
G01 X-41.1888 Y75.7846 
G01 X-40.9176 Y75.6723 
G01 X-40.6635 Y75.5256 
G01 X-40.4306 Y75.3469 
G01 X-40.2231 Y75.1394 
G01 X-40.0444 Y74.9065 
G01 X-39.8977 Y74.6524 
G01 X-39.7854 Y74.3812 
G01 X-39.7094 Y74.0977 
G01 X-39.6711 Y73.8067 
G01 X-39.6711 Y73.5133 
G01 X-39.7094 Y73.2223 
G01 X-39.7854 Y72.9388 
G01 X-39.8977 Y72.6676 
G01 X-40.0444 Y72.4135 
G01 X-40.2231 Y72.1806 
G00 Z2.0000 
G00 X-23.0639 Y72.2720 
G01 Z-0.0250 F254.00 
G01 X-23.0639 Y72.5080 F508.00 
G01 X-23.0270 Y72.7411 
G01 X-22.9541 Y72.9655 
G01 X-22.8469 Y73.1758 
G01 X-22.7082 Y73.3667 
G01 X-22.5413 Y73.5336 
G01 X-22.3504 Y73.6723 
G01 X-22.1401 Y73.7795 
G01 X-21.9157 Y73.8524 
G01 X-21.6826 Y73.8893 
G01 X-21.4466 Y73.8893 
G01 X-21.2135 Y73.8524 
G01 X-20.9891 Y73.7795 
G01 X-20.7788 Y73.6723 
G01 X-20.5879 Y73.5336 
G01 X-20.4210 Y73.3667 
G01 X-20.2823 Y73.1758 
G01 X-20.1751 Y72.9655 
G01 X-20.1022 Y72.7411 
G01 X-20.0653 Y72.5080 
G01 X-20.0653 Y72.2720 
G01 X-20.1022 Y72.0389 
G01 X-20.1751 Y71.8145 
G01 X-20.2823 Y71.6042 
G01 X-20.4210 Y71.4133 
G01 X-20.5879 Y71.2464 
G01 X-20.7788 Y71.1077 
G01 X-20.9891 Y71.0005 
G01 X-21.2135 Y70.9276 
G01 X-21.4466 Y70.8907 
G01 X-21.6826 Y70.8907 
G01 X-21.9157 Y70.9276 
G01 X-22.1401 Y71.0005 
G01 X-22.3504 Y71.1077 
G01 X-22.5413 Y71.2464 
G01 X-22.7082 Y71.4133 
G01 X-22.8469 Y71.6042 
G01 X-22.9541 Y71.8145 
G01 X-23.0270 Y72.0389 
G01 X-23.0639 Y72.2720 
G00 Z2.0000 
G00 X-18.0601 Y72.2720 
G01 Z-0.0250 F254.00 
G01 X-18.0601 Y72.5080 F508.00 
G01 X-18.0232 Y72.7411 
G01 X-17.9503 Y72.9655 
