(.../external_usr-lang-prog/pcbgcode/pcb-gcode.ulp)
(Copyright 2005 - 2012 by John Johnson)
(See readme.txt for licensing terms.)
(This file generated from the board:)
(.../KarasolBaxCont/KarasolboxCont.brd)
(Current profile is .../external_usr-lang-prog/pcbgcode/profiles/emc.pp  )
(This file generated 3/5/2017 11:28 PM)
(Settings from pcb-machine.h)
(spindle on time = 3.0000)
(  Tool Size)
(0.1778 )
(spindle speed = 30000.0000)
(tool change at 15.0000 15.0000 19.0000 )
(feed rate xy = F508.00 )
(feed rate z  = F254.00 )
(Z Axis Settings)
(  High     Up        Down     Drill)
(19.5000 	2.0000 	-0.0250 	-1.5000 )
(Settings from pcb-defaults.h)
(isolate min = 0.0500)
(isolate max = 1.0000)
(isolate step = 0.1000)
(Generated top outlines, top drill, bottom outlines, bottom drill, )
(Unit of measure: mm)
(Metric Mode)
G21
(Absolute Coordinates)
G90
S30000
G00 Z19.5000 
G00 X0.0000 Y0.0000 
M03
G04 P3.000000
G00 Z2.0000 
G00 X12.0002 Y1.9657 
G01 Z-0.0250 F254.00 
G01 X11.9016 Y2.1133 F508.00 
G01 X11.8337 Y2.2772 
G01 X11.7991 Y2.4513 
G01 X11.7991 Y2.6287 
G01 X11.8337 Y2.8028 
G01 X11.9016 Y2.9667 
G01 X11.9039 Y2.9701 
G01 X6.5372 Y8.3367 
G01 X6.5022 Y8.3974 
G01 X6.4841 Y8.4650 
G01 X6.4841 Y9.2861 
G01 X6.0774 Y9.2861 
G01 X6.0263 Y9.3072 
G01 X5.9872 Y9.3463 
G01 X5.9661 Y9.3974 
G01 X5.9661 Y10.9226 
G01 X5.9872 Y10.9737 
G01 X6.0263 Y11.0128 
G01 X6.0774 Y11.0339 
G01 X6.4841 Y11.0339 
G01 X6.4841 Y62.8077 
G01 X6.4587 Y62.7822 
G01 X6.4076 Y62.7611 
G01 X5.5524 Y62.7611 
G01 X5.5013 Y62.7822 
G01 X5.4622 Y62.8213 
G01 X5.4411 Y62.8724 
G01 X5.4411 Y64.1276 
G01 X5.4622 Y64.1787 
G01 X5.5013 Y64.2177 
G01 X5.5524 Y64.2389 
G01 X6.4076 Y64.2389 
G01 X6.4587 Y64.2177 
G01 X6.4977 Y64.1787 
G01 X6.5189 Y64.1276 
G01 X6.5189 Y63.7659 
G01 X10.5561 Y63.7659 
G01 X10.5561 Y64.5526 
G01 X10.5772 Y64.6037 
G01 X10.6163 Y64.6428 
G01 X10.6674 Y64.6639 
G01 X12.1926 Y64.6639 
G01 X12.2437 Y64.6428 
G01 X12.2828 Y64.6037 
G01 X12.3039 Y64.5526 
G01 X12.3039 Y63.7659 
G01 X14.2611 Y63.7659 
G01 X14.2611 Y65.1276 
G01 X14.2822 Y65.1787 
G01 X14.3213 Y65.2177 
G01 X14.3724 Y65.2389 
G01 X16.2076 Y65.2389 
G01 X16.2587 Y65.2177 
G01 X16.2978 Y65.1787 
G01 X16.3189 Y65.1276 
G01 X16.3189 Y61.8724 
G01 X16.2978 Y61.8213 
G01 X16.2587 Y61.7822 
G01 X16.2076 Y61.7611 
G01 X14.3724 Y61.7611 
G01 X14.3213 Y61.7822 
G01 X14.2822 Y61.8213 
G01 X14.2611 Y61.8724 
G01 X14.2611 Y63.2341 
G01 X12.3039 Y63.2341 
G01 X12.3039 Y63.2274 
G01 X12.2828 Y63.1763 
G01 X12.2437 Y63.1372 
G01 X12.1926 Y63.1161 
G01 X10.6674 Y63.1161 
G01 X10.6163 Y63.1372 
G01 X10.5772 Y63.1763 
G01 X10.5561 Y63.2274 
G01 X10.5561 Y63.2341 
G01 X7.0159 Y63.2341 
G01 X7.0159 Y11.0339 
G01 X7.4026 Y11.0339 
G01 X7.4537 Y11.0128 
G01 X7.4928 Y10.9737 
G01 X7.5139 Y10.9226 
G01 X7.5139 Y9.3974 
G01 X7.4928 Y9.3463 
G01 X7.4537 Y9.3072 
G01 X7.4026 Y9.2861 
G01 X7.0159 Y9.2861 
G01 X7.0159 Y8.6101 
G01 X8.7283 Y6.8977 
G01 X8.7111 Y6.9620 
G01 X8.7111 Y13.8011 
G01 X8.2624 Y13.8011 
G01 X8.2113 Y13.8222 
G01 X8.1722 Y13.8613 
G01 X8.1511 Y13.9124 
G01 X8.1511 Y14.7676 
G01 X8.1722 Y14.8187 
G01 X8.2113 Y14.8577 
G01 X8.2624 Y14.8789 
G01 X9.5176 Y14.8789 
G01 X9.5687 Y14.8577 
G01 X9.6077 Y14.8187 
G01 X9.6289 Y14.7676 
G01 X9.6289 Y13.9124 
G01 X9.6077 Y13.8613 
G01 X9.5687 Y13.8222 
G01 X9.5176 Y13.8011 
G01 X9.2889 Y13.8011 
G01 X9.2889 Y7.1197 
G01 X12.3697 Y4.0389 
G01 X13.3803 Y4.0389 
G01 X18.0411 Y8.6997 
G01 X18.0411 Y9.7376 
G01 X18.0622 Y9.7887 
G01 X18.1013 Y9.8277 
G01 X18.1524 Y9.8489 
G01 X19.6076 Y9.8489 
G01 X19.6587 Y9.8277 
G01 X19.6977 Y9.7887 
G01 X19.7189 Y9.7376 
G01 X19.7189 Y8.6824 
G01 X19.6977 Y8.6313 
G01 X19.6587 Y8.5922 
G01 X19.6076 Y8.5711 
G01 X18.7297 Y8.5711 
G01 X13.6774 Y3.5188 
G01 X13.6115 Y3.4808 
G01 X13.5380 Y3.4611 
G01 X12.2120 Y3.4611 
G01 X12.1477 Y3.4783 
G01 X12.2835 Y3.3426 
G01 X12.4372 Y3.4063 
G01 X12.6113 Y3.4409 
G01 X12.7887 Y3.4409 
G01 X12.9628 Y3.4063 
G01 X13.1267 Y3.3384 
G01 X13.2743 Y3.2398 
G01 X13.3998 Y3.1143 
G01 X13.4655 Y3.0159 
G01 X14.1399 Y3.0159 
G01 X19.8367 Y8.7128 
G01 X19.8974 Y8.7478 
G01 X19.9650 Y8.7659 
G01 X22.9841 Y8.7659 
G01 X22.9841 Y9.2861 
G01 X22.5874 Y9.2861 
G01 X22.5363 Y9.3072 
G01 X22.4972 Y9.3463 
G01 X22.4761 Y9.3974 
G01 X22.4761 Y10.9226 
G01 X22.4972 Y10.9737 
G01 X22.5363 Y11.0128 
G01 X22.5874 Y11.0339 
G01 X23.9126 Y11.0339 
G01 X23.9637 Y11.0128 
G01 X24.0027 Y10.9737 
G01 X24.0239 Y10.9226 
G01 X24.0239 Y9.3974 
G01 X24.0027 Y9.3463 
G01 X23.9637 Y9.3072 
G01 X23.9126 Y9.2861 
G01 X23.5159 Y9.2861 
G01 X23.5159 Y8.6101 
G01 X25.2283 Y6.8977 
G01 X25.2111 Y6.9620 
G01 X25.2111 Y13.8011 
G01 X24.7724 Y13.8011 
G01 X24.7213 Y13.8222 
G01 X24.6822 Y13.8613 
G01 X24.6611 Y13.9124 
G01 X24.6611 Y14.7676 
G01 X24.6822 Y14.8187 
G01 X24.7213 Y14.8577 
G01 X24.7724 Y14.8789 
G01 X26.0276 Y14.8789 
G01 X26.0787 Y14.8577 
G01 X26.1178 Y14.8187 
G01 X26.1389 Y14.7676 
G01 X26.1389 Y13.9124 
G01 X26.1178 Y13.8613 
G01 X26.0787 Y13.8222 
G01 X26.0276 Y13.8011 
G01 X25.7889 Y13.8011 
G01 X25.7889 Y7.1197 
G01 X28.8697 Y4.0389 
G01 X29.8803 Y4.0389 
G01 X34.5511 Y8.7097 
G01 X34.5511 Y9.7376 
G01 X34.5722 Y9.7887 
G01 X34.6113 Y9.8277 
G01 X34.6624 Y9.8489 
G01 X36.1176 Y9.8489 
G01 X36.1687 Y9.8277 
G01 X36.2077 Y9.7887 
G01 X36.2289 Y9.7376 
G01 X36.2289 Y8.6824 
G01 X36.2077 Y8.6313 
G01 X36.1687 Y8.5922 
G01 X36.1176 Y8.5711 
G01 X35.2297 Y8.5711 
G01 X30.1774 Y3.5188 
G01 X30.1115 Y3.4808 
G01 X30.0380 Y3.4611 
G01 X28.7120 Y3.4611 
G01 X28.6477 Y3.4783 
G01 X28.7864 Y3.3397 
G01 X28.9472 Y3.4063 
G01 X29.1213 Y3.4409 
G01 X29.2987 Y3.4409 
G01 X29.4728 Y3.4063 
G01 X29.6367 Y3.3384 
G01 X29.7843 Y3.2398 
G01 X29.9098 Y3.1143 
G01 X30.0084 Y2.9667 
G01 X30.0763 Y2.8028 
G01 X30.1109 Y2.6287 
G01 X30.1109 Y2.4513 
G01 X30.0763 Y2.2772 
G01 X30.0084 Y2.1133 
G01 X29.9098 Y1.9657 
G01 X29.7843 Y1.8402 
G01 X29.6367 Y1.7416 
G01 X29.4728 Y1.6737 
G01 X29.2987 Y1.6391 
G01 X29.1213 Y1.6391 
G01 X28.9472 Y1.6737 
G01 X28.7833 Y1.7416 
G01 X28.6357 Y1.8402 
G01 X28.5102 Y1.9657 
G01 X28.4116 Y2.1133 
G01 X28.3437 Y2.2772 
G01 X28.3091 Y2.4513 
G01 X28.3091 Y2.6287 
G01 X28.3437 Y2.8028 
G01 X28.4103 Y2.9636 
G01 X23.1399 Y8.2341 
G01 X20.1101 Y8.2341 
G01 X14.4628 Y2.5867 
G01 X14.4133 Y2.5372 
G01 X14.3526 Y2.5022 
G01 X14.2850 Y2.4841 
G01 X13.6009 Y2.4841 
G01 X13.6009 Y2.4513 
G01 X13.5663 Y2.2772 
G01 X13.4984 Y2.1133 
G01 X13.3998 Y1.9657 
G01 X13.2743 Y1.8402 
G01 X13.1267 Y1.7416 
G01 X12.9628 Y1.6737 
G01 X12.7887 Y1.6391 
G01 X12.6113 Y1.6391 
G01 X12.4372 Y1.6737 
G01 X12.2733 Y1.7416 
G01 X12.1257 Y1.8402 
G01 X12.0002 Y1.9657 
G00 Z2.0000 
G00 X12.0002 Y4.5057 
G01 Z-0.0250 F254.00 
G01 X11.9016 Y4.6533 F508.00 
G01 X11.8337 Y4.8172 
G01 X11.7991 Y4.9913 
G01 X11.7991 Y5.1687 
G01 X11.8337 Y5.3428 
G01 X11.9016 Y5.5067 
G01 X12.0002 Y5.6543 
G01 X12.1257 Y5.7798 
G01 X12.2733 Y5.8784 
G01 X12.4372 Y5.9463 
G01 X12.4611 Y5.9510 
G01 X12.4611 Y9.9611 
G01 X11.8139 Y9.9611 
G01 X11.8139 Y9.3974 
G01 X11.7927 Y9.3463 
G01 X11.7537 Y9.3072 
G01 X11.7026 Y9.2861 
G01 X10.3774 Y9.2861 
G01 X10.3263 Y9.3072 
G01 X10.2872 Y9.3463 
G01 X10.2661 Y9.3974 
G01 X10.2661 Y10.9226 
G01 X10.2872 Y10.9737 
G01 X10.3263 Y11.0128 
G01 X10.3774 Y11.0339 
G01 X11.7026 Y11.0339 
G01 X11.7537 Y11.0128 
G01 X11.7927 Y10.9737 
G01 X11.8139 Y10.9226 
G01 X11.8139 Y10.5389 
G01 X15.8411 Y10.5389 
G01 X15.8411 Y10.6876 
G01 X15.8622 Y10.7387 
G01 X15.9013 Y10.7777 
G01 X15.9524 Y10.7989 
G01 X17.4076 Y10.7989 
G01 X17.4587 Y10.7777 
G01 X17.4977 Y10.7387 
G01 X17.5189 Y10.6876 
G01 X17.5189 Y9.6324 
G01 X17.4977 Y9.5813 
G01 X17.4587 Y9.5422 
G01 X17.4076 Y9.5211 
G01 X15.9524 Y9.5211 
G01 X15.9013 Y9.5422 
G01 X15.8622 Y9.5813 
G01 X15.8411 Y9.6324 
G01 X15.8411 Y9.9611 
G01 X13.0389 Y9.9611 
G01 X13.0389 Y5.9147 
G01 X13.1267 Y5.8784 
G01 X13.2743 Y5.7798 
G01 X13.3998 Y5.6543 
G01 X13.4984 Y5.5067 
G01 X13.5663 Y5.3428 
G01 X13.6009 Y5.1687 
G01 X13.6009 Y4.9913 
G01 X13.5663 Y4.8172 
G01 X13.4984 Y4.6533 
G01 X13.3998 Y4.5057 
G01 X13.2743 Y4.3802 
G01 X13.1267 Y4.2816 
G01 X12.9628 Y4.2137 
G01 X12.7887 Y4.1791 
G01 X12.6113 Y4.1791 
G01 X12.4372 Y4.2137 
G01 X12.2733 Y4.2816 
G01 X12.1257 Y4.3802 
G01 X12.0002 Y4.5057 
G00 Z2.0000 
G00 X18.0622 Y10.5313 
G01 Z-0.0250 F254.00 
G01 X18.0411 Y10.5824 F508.00 
G01 X18.0411 Y11.6376 
G01 X18.0622 Y11.6887 
G01 X18.1013 Y11.7278 
G01 X18.1524 Y11.7489 
G01 X19.6076 Y11.7489 
G01 X19.6587 Y11.7278 
G01 X19.6977 Y11.6887 
G01 X19.7189 Y11.6376 
G01 X19.7189 Y11.5389 
G01 X20.3803 Y11.5389 
G01 X24.2688 Y15.4274 
G01 X24.3226 Y15.4812 
G01 X24.3885 Y15.5192 
G01 X24.4620 Y15.5389 
G01 X31.2880 Y15.5389 
G01 X31.3615 Y15.5192 
G01 X31.4274 Y15.4812 
G01 X35.1597 Y11.7489 
G01 X36.1176 Y11.7489 
G01 X36.1687 Y11.7278 
G01 X36.2077 Y11.6887 
G01 X36.2289 Y11.6376 
G01 X36.2289 Y11.5389 
G01 X44.8803 Y11.5389 
G01 X48.2111 Y14.8697 
G01 X48.2111 Y16.1303 
G01 X47.5081 Y16.8333 
G01 X47.4041 Y16.7803 
G01 X47.2426 Y16.7279 
G01 X47.0749 Y16.7013 
G01 X46.9051 Y16.7013 
G01 X46.7374 Y16.7279 
G01 X46.5759 Y16.7803 
G01 X46.4246 Y16.8574 
G01 X46.2873 Y16.9572 
G01 X46.1672 Y17.0773 
G01 X46.0674 Y17.2146 
G01 X45.9903 Y17.3659 
G01 X45.9379 Y17.5274 
G01 X45.9113 Y17.6951 
G01 X45.9113 Y17.8649 
G01 X45.9379 Y18.0326 
G01 X45.9903 Y18.1941 
G01 X46.0674 Y18.3454 
G01 X46.1672 Y18.4827 
G01 X46.2873 Y18.6028 
G01 X46.4246 Y18.7026 
G01 X46.5759 Y18.7797 
G01 X46.7374 Y18.8321 
G01 X46.9051 Y18.8587 
G01 X47.0749 Y18.8587 
G01 X47.2426 Y18.8321 
G01 X47.3792 Y18.7878 
G01 X48.2111 Y19.6197 
G01 X48.2111 Y29.3803 
G01 X47.3803 Y30.2111 
G01 X46.6197 Y30.2111 
G01 X43.9274 Y27.5188 
G01 X43.8615 Y27.4808 
G01 X43.7880 Y27.4611 
G01 X42.6489 Y27.4611 
G01 X42.6489 Y27.1424 
G01 X42.6277 Y27.0913 
G01 X42.5887 Y27.0522 
G01 X42.5376 Y27.0311 
G01 X41.2824 Y27.0311 
G01 X41.2313 Y27.0522 
G01 X41.1922 Y27.0913 
G01 X41.1711 Y27.1424 
G01 X41.1711 Y27.9976 
G01 X41.1922 Y28.0487 
G01 X41.2313 Y28.0877 
G01 X41.2824 Y28.1089 
G01 X42.5376 Y28.1089 
G01 X42.5887 Y28.0877 
G01 X42.6277 Y28.0487 
G01 X42.6318 Y28.0389 
G01 X43.6303 Y28.0389 
G01 X46.2688 Y30.6774 
G01 X46.3226 Y30.7312 
G01 X46.3885 Y30.7692 
G01 X46.4620 Y30.7889 
G01 X47.3803 Y30.7889 
G01 X47.9611 Y31.3697 
G01 X47.9611 Y32.1303 
G01 X45.3803 Y34.7111 
G01 X42.6275 Y34.7111 
G01 X42.5887 Y34.6722 
G01 X42.5376 Y34.6511 
G01 X41.2824 Y34.6511 
G01 X41.2313 Y34.6722 
G01 X41.1922 Y34.7113 
G01 X41.1711 Y34.7624 
G01 X41.1711 Y35.4203 
G01 X39.2688 Y37.3226 
G01 X39.2308 Y37.3885 
G01 X39.2111 Y37.4620 
G01 X39.2111 Y46.6303 
G01 X38.0188 Y47.8226 
G01 X37.9808 Y47.8885 
G01 X37.9611 Y47.9620 
G01 X37.9611 Y48.1796 
G01 X37.4034 Y48.1796 
G01 X37.3523 Y48.2007 
G01 X37.3132 Y48.2398 
G01 X37.2921 Y48.2909 
G01 X37.2921 Y49.2111 
G01 X16.7889 Y49.2111 
G01 X16.7889 Y48.2120 
G01 X16.7692 Y48.1385 
G01 X16.7312 Y48.0726 
G01 X16.6774 Y48.0188 
G01 X12.5085 Y43.8500 
G01 X12.5894 Y43.7959 
G01 X12.6999 Y43.6854 
G01 X12.7867 Y43.5556 
G01 X12.8464 Y43.4113 
G01 X12.8769 Y43.2581 
G01 X12.8769 Y43.1019 
G01 X12.8464 Y42.9487 
G01 X12.7867 Y42.8044 
G01 X12.6999 Y42.6746 
G01 X12.5894 Y42.5641 
G01 X12.4596 Y42.4773 
G01 X12.3153 Y42.4176 
G01 X12.1621 Y42.3871 
G01 X10.6979 Y42.3871 
G01 X10.5447 Y42.4176 
G01 X10.4004 Y42.4773 
G01 X10.2706 Y42.5641 
G01 X10.1601 Y42.6746 
G01 X10.0733 Y42.8044 
G01 X10.0136 Y42.9487 
G01 X9.9831 Y43.1019 
G01 X9.9831 Y43.2581 
G01 X10.0136 Y43.4113 
G01 X10.0733 Y43.5556 
G01 X10.1601 Y43.6854 
G01 X10.2706 Y43.7959 
G01 X10.4004 Y43.8827 
G01 X10.5447 Y43.9424 
G01 X10.6979 Y43.9729 
G01 X11.8143 Y43.9729 
G01 X16.2111 Y48.3697 
G01 X16.2111 Y58.0380 
G01 X16.2308 Y58.1115 
G01 X16.2688 Y58.1774 
G01 X17.6111 Y59.5197 
G01 X17.6111 Y60.3176 
G01 X17.6322 Y60.3687 
G01 X17.6713 Y60.4078 
G01 X17.7224 Y60.4289 
G01 X17.9611 Y60.4289 
G01 X17.9611 Y65.4611 
G01 X4.2889 Y65.4611 
G01 X4.2889 Y64.2389 
G01 X4.6076 Y64.2389 
G01 X4.6587 Y64.2177 
G01 X4.6978 Y64.1787 
G01 X4.7189 Y64.1276 
G01 X4.7189 Y62.8724 
G01 X4.6978 Y62.8213 
G01 X4.6587 Y62.7822 
G01 X4.6076 Y62.7611 
G01 X3.7524 Y62.7611 
G01 X3.7013 Y62.7822 
G01 X3.6622 Y62.8213 
G01 X3.6411 Y62.8724 
G01 X3.6411 Y64.1276 
G01 X3.6622 Y64.1787 
G01 X3.7013 Y64.2177 
G01 X3.7111 Y64.2218 
G01 X3.7111 Y70.2211 
G01 X3.5472 Y70.2537 
G01 X3.3833 Y70.3216 
G01 X3.2357 Y70.4202 
G01 X3.1102 Y70.5457 
G01 X3.0116 Y70.6933 
G01 X2.9437 Y70.8572 
G01 X2.9091 Y71.0313 
G01 X2.9091 Y71.2087 
G01 X2.9437 Y71.3828 
G01 X3.0116 Y71.5467 
G01 X3.1102 Y71.6943 
G01 X3.2357 Y71.8198 
G01 X3.3833 Y71.9184 
G01 X3.5472 Y71.9863 
G01 X3.7213 Y72.0209 
G01 X3.8987 Y72.0209 
G01 X4.0728 Y71.9863 
G01 X4.2367 Y71.9184 
G01 X4.3843 Y71.8198 
G01 X4.5098 Y71.6943 
G01 X4.6084 Y71.5467 
G01 X4.6763 Y71.3828 
G01 X4.7109 Y71.2087 
G01 X4.7109 Y71.0313 
G01 X4.6763 Y70.8572 
G01 X4.6084 Y70.6933 
G01 X4.5098 Y70.5457 
G01 X4.3843 Y70.4202 
G01 X4.2889 Y70.3565 
G01 X4.2889 Y66.0389 
G01 X18.1303 Y66.0389 
G01 X23.6482 Y71.5568 
G01 X23.6482 Y72.8875 
G01 X23.6693 Y72.9386 
G01 X23.7084 Y72.9776 
G01 X23.7595 Y72.9988 
G01 X25.8213 Y72.9988 
G01 X25.8724 Y72.9776 
G01 X25.9114 Y72.9386 
G01 X25.9326 Y72.8875 
G01 X25.9326 Y71.4760 
G01 X29.2312 Y68.1774 
G01 X29.2692 Y68.1115 
G01 X29.2889 Y68.0380 
G01 X29.2889 Y62.7489 
G01 X29.8376 Y62.7489 
G01 X29.8887 Y62.7278 
G01 X29.9277 Y62.6887 
G01 X29.9489 Y62.6376 
G01 X29.9489 Y61.3824 
G01 X29.9277 Y61.3313 
G01 X29.8887 Y61.2922 
G01 X29.8806 Y61.2889 
G01 X30.0380 Y61.2889 
G01 X30.1115 Y61.2692 
G01 X30.1774 Y61.2312 
G01 X39.6774 Y51.7312 
G01 X39.7312 Y51.6774 
G01 X39.7692 Y51.6115 
G01 X39.7889 Y51.5380 
G01 X39.7889 Y47.8697 
G01 X40.4520 Y47.2065 
G01 X40.5469 Y47.2254 
G01 X40.7031 Y47.2254 
G01 X40.8563 Y47.1949 
G01 X41.0006 Y47.1352 
G01 X41.1304 Y47.0484 
G01 X41.2409 Y46.9379 
G01 X41.3277 Y46.8081 
G01 X41.3874 Y46.6638 
G01 X41.4179 Y46.5106 
G01 X41.4179 Y46.3544 
G01 X41.3874 Y46.2012 
G01 X41.3347 Y46.0739 
G01 X41.8697 Y45.5389 
G01 X43.3803 Y45.5389 
G01 X43.6331 Y45.7917 
G01 X43.5406 Y45.7298 
G01 X43.3963 Y45.6701 
G01 X43.2431 Y45.6396 
G01 X43.0869 Y45.6396 
G01 X42.9337 Y45.6701 
G01 X42.7894 Y45.7298 
G01 X42.6596 Y45.8166 
G01 X42.5491 Y45.9271 
G01 X42.4623 Y46.0569 
G01 X42.4026 Y46.2012 
G01 X42.3721 Y46.3544 
G01 X42.3721 Y46.5106 
G01 X42.4026 Y46.6638 
G01 X42.4623 Y46.8081 
G01 X42.5491 Y46.9379 
G01 X42.6596 Y47.0484 
G01 X42.7894 Y47.1352 
G01 X42.9337 Y47.1949 
G01 X43.0869 Y47.2254 
G01 X43.2431 Y47.2254 
G01 X43.3963 Y47.1949 
G01 X43.5406 Y47.1352 
G01 X43.6704 Y47.0484 
G01 X43.7809 Y46.9379 
G01 X43.8677 Y46.8081 
G01 X43.9274 Y46.6638 
G01 X43.9579 Y46.5106 
G01 X43.9579 Y46.3544 
G01 X43.9274 Y46.2012 
G01 X43.8677 Y46.0569 
G01 X43.8058 Y45.9644 
G01 X44.3226 Y46.4812 
G01 X44.3885 Y46.5192 
G01 X44.4620 Y46.5389 
G01 X44.9177 Y46.5389 
G01 X44.9426 Y46.6638 
G01 X45.0023 Y46.8081 
G01 X45.0891 Y46.9379 
G01 X45.1996 Y47.0484 
G01 X45.3294 Y47.1352 
G01 X45.4737 Y47.1949 
G01 X45.6269 Y47.2254 
G01 X45.7831 Y47.2254 
G01 X45.9363 Y47.1949 
G01 X46.0806 Y47.1352 
G01 X46.2104 Y47.0484 
G01 X46.3209 Y46.9379 
G01 X46.4077 Y46.8081 
G01 X46.4674 Y46.6638 
G01 X46.4979 Y46.5106 
G01 X46.4979 Y46.3544 
G01 X46.4674 Y46.2012 
G01 X46.4077 Y46.0569 
G01 X46.3209 Y45.9271 
G01 X46.2104 Y45.8166 
G01 X46.0806 Y45.7298 
G01 X45.9363 Y45.6701 
G01 X45.7831 Y45.6396 
G01 X45.6269 Y45.6396 
G01 X45.4737 Y45.6701 
G01 X45.3294 Y45.7298 
G01 X45.1996 Y45.8166 
G01 X45.0891 Y45.9271 
G01 X45.0664 Y45.9611 
G01 X44.6197 Y45.9611 
G01 X43.7312 Y45.0726 
G01 X43.6774 Y45.0188 
G01 X43.6115 Y44.9808 
G01 X43.5380 Y44.9611 
G01 X41.7120 Y44.9611 
G01 X41.6385 Y44.9808 
G01 X41.5726 Y45.0188 
G01 X40.9023 Y45.6891 
G01 X40.8563 Y45.6701 
G01 X40.7031 Y45.6396 
G01 X40.5469 Y45.6396 
G01 X40.3937 Y45.6701 
G01 X40.2494 Y45.7298 
G01 X40.1196 Y45.8166 
G01 X40.0091 Y45.9271 
G01 X39.9223 Y46.0569 
G01 X39.8626 Y46.2012 
G01 X39.8321 Y46.3544 
G01 X39.8321 Y46.5106 
G01 X39.8626 Y46.6638 
G01 X39.9223 Y46.8081 
G01 X39.9668 Y46.8746 
G01 X39.2688 Y47.5726 
G01 X39.2308 Y47.6385 
G01 X39.2111 Y47.7120 
G01 X39.2111 Y51.3803 
G01 X29.8803 Y60.7111 
G01 X27.9620 Y60.7111 
G01 X27.8885 Y60.7308 
G01 X27.8226 Y60.7688 
G01 X27.7688 Y60.8226 
G01 X26.2500 Y62.3414 
G01 X23.7689 Y59.8603 
G01 X23.7689 Y59.0624 
G01 X23.7477 Y59.0113 
G01 X23.7087 Y58.9722 
G01 X23.6576 Y58.9511 
G01 X22.8024 Y58.9511 
G01 X22.7513 Y58.9722 
G01 X22.7122 Y59.0113 
G01 X22.6911 Y59.0624 
G01 X22.6911 Y59.4611 
G01 X20.4889 Y59.4611 
G01 X20.4889 Y59.0624 
G01 X20.4677 Y59.0113 
G01 X20.4287 Y58.9722 
G01 X20.3776 Y58.9511 
G01 X19.5224 Y58.9511 
G01 X19.4713 Y58.9722 
G01 X19.4322 Y59.0113 
G01 X19.4111 Y59.0624 
G01 X19.4111 Y60.3176 
G01 X19.4322 Y60.3687 
G01 X19.4713 Y60.4078 
G01 X19.5224 Y60.4289 
G01 X20.3776 Y60.4289 
G01 X20.4287 Y60.4078 
G01 X20.4677 Y60.3687 
G01 X20.4889 Y60.3176 
G01 X20.4889 Y60.0389 
G01 X22.6911 Y60.0389 
G01 X22.6911 Y60.3176 
G01 X22.7122 Y60.3687 
G01 X22.7513 Y60.4078 
G01 X22.8024 Y60.4289 
G01 X23.5203 Y60.4289 
G01 X25.9611 Y62.8697 
G01 X25.9611 Y68.3803 
G01 X25.4050 Y68.9364 
G01 X23.7595 Y68.9364 
G01 X23.7084 Y68.9575 
G01 X23.6693 Y68.9966 
G01 X23.6482 Y69.0477 
G01 X23.6482 Y70.6015 
G01 X23.6693 Y70.6526 
G01 X23.7084 Y70.6916 
G01 X23.7595 Y70.7128 
G01 X25.8213 Y70.7128 
G01 X25.8724 Y70.6916 
G01 X25.9114 Y70.6526 
G01 X25.9326 Y70.6015 
G01 X25.9326 Y69.2260 
G01 X26.4274 Y68.7312 
G01 X26.4812 Y68.6774 
G01 X26.5192 Y68.6115 
G01 X26.5389 Y68.5380 
G01 X26.5389 Y62.8697 
G01 X28.1197 Y61.2889 
G01 X28.5394 Y61.2889 
G01 X28.5313 Y61.2922 
G01 X28.4922 Y61.3313 
G01 X28.4711 Y61.3824 
G01 X28.4711 Y62.6376 
G01 X28.4922 Y62.6887 
G01 X28.5313 Y62.7278 
G01 X28.5824 Y62.7489 
G01 X28.7111 Y62.7489 
G01 X28.7111 Y67.8803 
G01 X25.3690 Y71.2224 
G01 X24.1310 Y71.2224 
G01 X18.5389 Y65.6303 
G01 X18.5389 Y60.4289 
G01 X18.5776 Y60.4289 
G01 X18.6287 Y60.4078 
G01 X18.6678 Y60.3687 
G01 X18.6889 Y60.3176 
G01 X18.6889 Y59.0624 
G01 X18.6678 Y59.0113 
G01 X18.6287 Y58.9722 
G01 X18.5776 Y58.9511 
G01 X17.8597 Y58.9511 
G01 X16.7889 Y57.8803 
G01 X16.7889 Y49.7889 
G01 X37.5380 Y49.7889 
G01 X37.6115 Y49.7692 
G01 X37.6181 Y49.7654 
G01 X38.7666 Y49.7654 
G01 X38.8177 Y49.7443 
G01 X38.8567 Y49.7052 
G01 X38.8779 Y49.6541 
G01 X38.8779 Y48.2909 
G01 X38.8567 Y48.2398 
G01 X38.8177 Y48.2007 
G01 X38.7666 Y48.1796 
G01 X38.5389 Y48.1796 
G01 X38.5389 Y48.1197 
G01 X39.6774 Y46.9812 
G01 X39.7312 Y46.9274 
G01 X39.7692 Y46.8615 
G01 X39.7889 Y46.7880 
G01 X39.7889 Y37.6197 
G01 X41.6797 Y35.7289 
G01 X42.5376 Y35.7289 
G01 X42.5887 Y35.7077 
G01 X42.6277 Y35.6687 
G01 X42.6489 Y35.6176 
G01 X42.6489 Y35.2889 
G01 X45.5380 Y35.2889 
G01 X45.6115 Y35.2692 
G01 X45.6774 Y35.2312 
G01 X45.7312 Y35.1774 
G01 X48.4812 Y32.4274 
G01 X48.5192 Y32.3615 
G01 X48.5389 Y32.2880 
G01 X48.5389 Y31.2120 
G01 X48.5192 Y31.1385 
G01 X48.4812 Y31.0726 
G01 X48.4274 Y31.0188 
G01 X47.9086 Y30.5000 
G01 X48.7312 Y29.6774 
G01 X48.7692 Y29.6115 
G01 X48.7889 Y29.5380 
G01 X48.7889 Y19.4620 
G01 X48.7692 Y19.3885 
G01 X48.7312 Y19.3226 
G01 X48.6774 Y19.2688 
G01 X47.8458 Y18.4373 
G01 X47.9126 Y18.3454 
G01 X47.9897 Y18.1941 
G01 X48.0421 Y18.0326 
G01 X48.0687 Y17.8649 
G01 X48.0687 Y17.6951 
G01 X48.0421 Y17.5274 
G01 X47.9897 Y17.3659 
G01 X47.9232 Y17.2354 
G01 X48.7312 Y16.4274 
G01 X48.7692 Y16.3615 
G01 X48.7889 Y16.2880 
G01 X48.7889 Y14.7120 
G01 X48.7692 Y14.6385 
G01 X48.7312 Y14.5726 
G01 X48.6774 Y14.5188 
G01 X45.1774 Y11.0188 
G01 X45.1115 Y10.9808 
G01 X45.0380 Y10.9611 
G01 X36.2289 Y10.9611 
G01 X36.2289 Y10.5824 
G01 X36.2077 Y10.5313 
G01 X36.1687 Y10.4922 
G01 X36.1176 Y10.4711 
G01 X34.6624 Y10.4711 
G01 X34.6113 Y10.4922 
G01 X34.5722 Y10.5313 
G01 X34.5511 Y10.5824 
G01 X34.5511 Y11.5403 
G01 X31.1303 Y14.9611 
G01 X24.6197 Y14.9611 
G01 X20.6774 Y11.0188 
G01 X20.6115 Y10.9808 
G01 X20.5380 Y10.9611 
G01 X19.7189 Y10.9611 
G01 X19.7189 Y10.5824 
G01 X19.6977 Y10.5313 
G01 X19.6587 Y10.4922 
G01 X19.6076 Y10.4711 
G01 X18.1524 Y10.4711 
G01 X18.1013 Y10.4922 
G01 X18.0622 Y10.5313 
G00 Z2.0000 
G00 X26.7761 Y10.9226 
G01 Z-0.0250 F254.00 
G01 X26.7972 Y10.9737 F508.00 
G01 X26.8363 Y11.0128 
G01 X26.8874 Y11.0339 
G01 X28.2126 Y11.0339 
G01 X28.2637 Y11.0128 
G01 X28.3027 Y10.9737 
G01 X28.3239 Y10.9226 
G01 X28.3239 Y10.5389 
G01 X32.3511 Y10.5389 
G01 X32.3511 Y10.6876 
G01 X32.3722 Y10.7387 
G01 X32.4113 Y10.7777 
G01 X32.4624 Y10.7989 
G01 X33.9176 Y10.7989 
G01 X33.9687 Y10.7777 
G01 X34.0078 Y10.7387 
G01 X34.0289 Y10.6876 
G01 X34.0289 Y9.6324 
G01 X34.0078 Y9.5813 
G01 X33.9687 Y9.5422 
G01 X33.9176 Y9.5211 
G01 X32.4624 Y9.5211 
G01 X32.4113 Y9.5422 
G01 X32.3722 Y9.5813 
G01 X32.3511 Y9.6324 
G01 X32.3511 Y9.9611 
G01 X29.5389 Y9.9611 
G01 X29.5389 Y5.9189 
G01 X29.6367 Y5.8784 
G01 X29.7843 Y5.7798 
G01 X29.9098 Y5.6543 
G01 X30.0084 Y5.5067 
G01 X30.0763 Y5.3428 
G01 X30.1109 Y5.1687 
G01 X30.1109 Y4.9913 
G01 X30.0763 Y4.8172 
G01 X30.0084 Y4.6533 
G01 X29.9098 Y4.5057 
G01 X29.7843 Y4.3802 
G01 X29.6367 Y4.2816 
G01 X29.4728 Y4.2137 
G01 X29.2987 Y4.1791 
G01 X29.1213 Y4.1791 
G01 X28.9472 Y4.2137 
G01 X28.7833 Y4.2816 
G01 X28.6357 Y4.3802 
G01 X28.5102 Y4.5057 
G01 X28.4116 Y4.6533 
G01 X28.3437 Y4.8172 
G01 X28.3091 Y4.9913 
G01 X28.3091 Y5.1687 
G01 X28.3437 Y5.3428 
G01 X28.4116 Y5.5067 
G01 X28.5102 Y5.6543 
G01 X28.6357 Y5.7798 
G01 X28.7833 Y5.8784 
G01 X28.9472 Y5.9463 
G01 X28.9611 Y5.9490 
G01 X28.9611 Y9.9611 
G01 X28.3239 Y9.9611 
G01 X28.3239 Y9.3974 
G01 X28.3027 Y9.3463 
G01 X28.2637 Y9.3072 
G01 X28.2126 Y9.2861 
G01 X26.8874 Y9.2861 
G01 X26.8363 Y9.3072 
G01 X26.7972 Y9.3463 
G01 X26.7761 Y9.3974 
G01 X26.7761 Y10.9226 
G00 Z2.0000 
G00 X26.0787 Y15.6222 
G01 Z-0.0250 F254.00 
G01 X26.0276 Y15.6011 F508.00 
G01 X24.7724 Y15.6011 
G01 X24.7213 Y15.6222 
G01 X24.6822 Y15.6613 
G01 X24.6611 Y15.7124 
G01 X24.6611 Y16.5676 
G01 X24.6822 Y16.6187 
G01 X24.7213 Y16.6578 
G01 X24.7724 Y16.6789 
G01 X25.2111 Y16.6789 
G01 X25.2111 Y21.7880 
G01 X25.2308 Y21.8615 
G01 X25.2688 Y21.9274 
G01 X25.5555 Y22.2141 
G01 X25.5106 Y22.2441 
G01 X25.4001 Y22.3546 
G01 X25.3133 Y22.4844 
G01 X25.2536 Y22.6287 
G01 X25.2231 Y22.7819 
G01 X25.2231 Y22.9381 
G01 X25.2536 Y23.0913 
G01 X25.3133 Y23.2356 
G01 X25.4001 Y23.3654 
G01 X25.5106 Y23.4759 
G01 X25.6404 Y23.5627 
G01 X25.7847 Y23.6224 
G01 X25.9379 Y23.6529 
G01 X27.4021 Y23.6529 
G01 X27.5553 Y23.6224 
G01 X27.6996 Y23.5627 
G01 X27.8294 Y23.4759 
G01 X27.9399 Y23.3654 
G01 X28.0267 Y23.2356 
G01 X28.0864 Y23.0913 
G01 X28.1169 Y22.9381 
G01 X28.1169 Y22.7819 
G01 X28.0864 Y22.6287 
G01 X28.0267 Y22.4844 
G01 X27.9399 Y22.3546 
G01 X27.8294 Y22.2441 
G01 X27.6996 Y22.1573 
G01 X27.5553 Y22.0976 
G01 X27.4021 Y22.0671 
G01 X26.2257 Y22.0671 
G01 X25.7889 Y21.6303 
G01 X25.7889 Y16.6789 
G01 X26.0276 Y16.6789 
G01 X26.0787 Y16.6578 
G01 X26.1178 Y16.6187 
G01 X26.1389 Y16.5676 
G01 X26.1389 Y15.7124 
G01 X26.1178 Y15.6613 
G01 X26.0787 Y15.6222 
G00 Z2.0000 
G00 X23.3654 Y21.5901 
G01 Z-0.0250 F254.00 
G01 X23.2356 Y21.5033 F508.00 
G01 X23.0913 Y21.4436 
G01 X22.9381 Y21.4131 
G01 X22.7819 Y21.4131 
G01 X22.6287 Y21.4436 
G01 X22.4844 Y21.5033 
G01 X22.3546 Y21.5901 
G01 X22.2441 Y21.7006 
G01 X22.1573 Y21.8304 
G01 X22.0976 Y21.9747 
G01 X22.0671 Y22.1279 
G01 X22.0671 Y23.5921 
G01 X22.0976 Y23.7453 
G01 X22.1573 Y23.8896 
G01 X22.2441 Y24.0194 
G01 X22.3546 Y24.1299 
G01 X22.4844 Y24.2167 
G01 X22.6287 Y24.2764 
G01 X22.7819 Y24.3069 
G01 X22.9381 Y24.3069 
G01 X23.0913 Y24.2764 
G01 X23.2356 Y24.2167 
G01 X23.3654 Y24.1299 
G01 X23.4759 Y24.0194 
G01 X23.5627 Y23.8896 
G01 X23.6224 Y23.7453 
G01 X23.6529 Y23.5921 
G01 X23.6529 Y22.1279 
G01 X23.6224 Y21.9747 
G01 X23.5627 Y21.8304 
G01 X23.4759 Y21.7006 
G01 X23.3654 Y21.5901 
G00 Z2.0000 
G00 X20.8254 Y21.5901 
G01 Z-0.0250 F254.00 
G01 X20.6956 Y21.5033 F508.00 
G01 X20.5513 Y21.4436 
G01 X20.3981 Y21.4131 
G01 X20.2419 Y21.4131 
G01 X20.0887 Y21.4436 
G01 X19.9444 Y21.5033 
G01 X19.8146 Y21.5901 
G01 X19.7041 Y21.7006 
G01 X19.6173 Y21.8304 
G01 X19.5576 Y21.9747 
G01 X19.5271 Y22.1279 
G01 X19.5271 Y23.5921 
G01 X19.5576 Y23.7453 
G01 X19.6173 Y23.8896 
G01 X19.7041 Y24.0194 
G01 X19.8146 Y24.1299 
G01 X19.9444 Y24.2167 
G01 X20.0887 Y24.2764 
G01 X20.2419 Y24.3069 
G01 X20.3981 Y24.3069 
G01 X20.5513 Y24.2764 
G01 X20.6956 Y24.2167 
G01 X20.8254 Y24.1299 
G01 X20.9359 Y24.0194 
G01 X21.0227 Y23.8896 
G01 X21.0824 Y23.7453 
G01 X21.1129 Y23.5921 
G01 X21.1129 Y22.1279 
G01 X21.0824 Y21.9747 
G01 X21.0227 Y21.8304 
G01 X20.9359 Y21.7006 
G01 X20.8254 Y21.5901 
G00 Z2.0000 
G00 X18.2854 Y21.5901 
G01 Z-0.0250 F254.00 
G01 X18.1556 Y21.5033 F508.00 
G01 X18.0113 Y21.4436 
G01 X17.8581 Y21.4131 
G01 X17.7019 Y21.4131 
G01 X17.5487 Y21.4436 
G01 X17.4044 Y21.5033 
G01 X17.2746 Y21.5901 
G01 X17.1641 Y21.7006 
G01 X17.0773 Y21.8304 
G01 X17.0176 Y21.9747 
G01 X16.9871 Y22.1279 
G01 X16.9871 Y23.5921 
G01 X17.0176 Y23.7453 
G01 X17.0773 Y23.8896 
G01 X17.1641 Y24.0194 
G01 X17.2746 Y24.1299 
G01 X17.4044 Y24.2167 
G01 X17.5487 Y24.2764 
G01 X17.7019 Y24.3069 
G01 X17.8581 Y24.3069 
G01 X18.0113 Y24.2764 
G01 X18.1556 Y24.2167 
G01 X18.2854 Y24.1299 
G01 X18.3959 Y24.0194 
G01 X18.4827 Y23.8896 
G01 X18.5424 Y23.7453 
G01 X18.5729 Y23.5921 
G01 X18.5729 Y22.1279 
G01 X18.5424 Y21.9747 
G01 X18.4827 Y21.8304 
G01 X18.3959 Y21.7006 
G01 X18.2854 Y21.5901 
G00 Z2.0000 
G00 X12.5894 Y22.2441 
G01 Z-0.0250 F254.00 
G01 X12.4596 Y22.1573 F508.00 
G01 X12.3153 Y22.0976 
G01 X12.1621 Y22.0671 
G01 X10.9757 Y22.0671 
G01 X9.2889 Y20.3803 
G01 X9.2889 Y16.6789 
G01 X9.5176 Y16.6789 
G01 X9.5687 Y16.6578 
G01 X9.6077 Y16.6187 
G01 X9.6289 Y16.5676 
G01 X9.6289 Y15.7124 
G01 X9.6077 Y15.6613 
G01 X9.5687 Y15.6222 
G01 X9.5176 Y15.6011 
G01 X8.2624 Y15.6011 
G01 X8.2113 Y15.6222 
G01 X8.1722 Y15.6613 
G01 X8.1511 Y15.7124 
G01 X8.1511 Y16.5676 
G01 X8.1722 Y16.6187 
G01 X8.2113 Y16.6578 
G01 X8.2624 Y16.6789 
G01 X8.7111 Y16.6789 
G01 X8.7111 Y20.5380 
G01 X8.7308 Y20.6115 
G01 X8.7688 Y20.6774 
G01 X10.3095 Y22.2181 
G01 X10.2706 Y22.2441 
G01 X10.1601 Y22.3546 
G01 X10.0733 Y22.4844 
G01 X10.0136 Y22.6287 
G01 X9.9831 Y22.7819 
G01 X9.9831 Y22.9381 
G01 X10.0136 Y23.0913 
G01 X10.0733 Y23.2356 
G01 X10.1601 Y23.3654 
G01 X10.2706 Y23.4759 
G01 X10.4004 Y23.5627 
G01 X10.5447 Y23.6224 
G01 X10.6979 Y23.6529 
G01 X12.1621 Y23.6529 
G01 X12.3153 Y23.6224 
G01 X12.4596 Y23.5627 
G01 X12.5894 Y23.4759 
G01 X12.6999 Y23.3654 
G01 X12.7867 Y23.2356 
G01 X12.8464 Y23.0913 
G01 X12.8769 Y22.9381 
G01 X12.8769 Y22.7819 
G01 X12.8464 Y22.6287 
G01 X12.7867 Y22.4844 
G01 X12.6999 Y22.3546 
G01 X12.5894 Y22.2441 
G00 Z2.0000 
G00 X12.5894 Y24.7841 
G01 Z-0.0250 F254.00 
G01 X12.4596 Y24.6973 F508.00 
G01 X12.3153 Y24.6376 
G01 X12.1621 Y24.6071 
G01 X10.6979 Y24.6071 
G01 X10.5447 Y24.6376 
G01 X10.4004 Y24.6973 
G01 X10.2706 Y24.7841 
G01 X10.1601 Y24.8946 
G01 X10.0733 Y25.0244 
G01 X10.0136 Y25.1687 
G01 X9.9831 Y25.3219 
G01 X9.9831 Y25.4781 
G01 X10.0136 Y25.6313 
G01 X10.0733 Y25.7756 
G01 X10.1601 Y25.9054 
G01 X10.2706 Y26.0159 
G01 X10.4004 Y26.1027 
G01 X10.5447 Y26.1624 
G01 X10.6979 Y26.1929 
G01 X12.1621 Y26.1929 
G01 X12.3153 Y26.1624 
G01 X12.4596 Y26.1027 
G01 X12.5894 Y26.0159 
G01 X12.6999 Y25.9054 
G01 X12.7867 Y25.7756 
G01 X12.8464 Y25.6313 
G01 X12.8769 Y25.4781 
G01 X12.8769 Y25.3219 
G01 X12.8464 Y25.1687 
G01 X12.7867 Y25.0244 
G01 X12.6999 Y24.8946 
G01 X12.5894 Y24.7841 
G00 Z2.0000 
G00 X12.5894 Y27.3241 
G01 Z-0.0250 F254.00 
G01 X12.4596 Y27.2373 F508.00 
G01 X12.3153 Y27.1776 
G01 X12.1621 Y27.1471 
G01 X10.6979 Y27.1471 
G01 X10.5447 Y27.1776 
G01 X10.4004 Y27.2373 
G01 X10.2706 Y27.3241 
G01 X10.1601 Y27.4346 
G01 X10.0733 Y27.5644 
G01 X10.0136 Y27.7087 
G01 X9.9831 Y27.8619 
G01 X9.9831 Y28.0181 
G01 X10.0136 Y28.1713 
G01 X10.0733 Y28.3156 
G01 X10.1601 Y28.4454 
G01 X10.2706 Y28.5559 
G01 X10.4004 Y28.6427 
G01 X10.5447 Y28.7024 
G01 X10.6979 Y28.7329 
G01 X12.1621 Y28.7329 
G01 X12.3153 Y28.7024 
G01 X12.4596 Y28.6427 
G01 X12.5894 Y28.5559 
G01 X12.6999 Y28.4454 
G01 X12.7867 Y28.3156 
G01 X12.8464 Y28.1713 
G01 X12.8769 Y28.0181 
G01 X12.8769 Y27.8619 
G01 X12.8464 Y27.7087 
G01 X12.7867 Y27.5644 
G01 X12.6999 Y27.4346 
G01 X12.5894 Y27.3241 
G00 Z2.0000 
G00 X12.5894 Y29.8641 
G01 Z-0.0250 F254.00 
G01 X12.4596 Y29.7773 F508.00 
G01 X12.3153 Y29.7176 
G01 X12.1621 Y29.6871 
G01 X10.6979 Y29.6871 
G01 X10.5447 Y29.7176 
G01 X10.4004 Y29.7773 
G01 X10.2706 Y29.8641 
G01 X10.1601 Y29.9746 
G01 X10.0733 Y30.1044 
G01 X10.0136 Y30.2487 
G01 X9.9831 Y30.4019 
G01 X9.9831 Y30.5581 
G01 X10.0136 Y30.7113 
G01 X10.0733 Y30.8556 
G01 X10.1601 Y30.9854 
G01 X10.2706 Y31.0959 
G01 X10.4004 Y31.1827 
G01 X10.5447 Y31.2424 
G01 X10.6979 Y31.2729 
G01 X12.1621 Y31.2729 
G01 X12.3153 Y31.2424 
G01 X12.4596 Y31.1827 
G01 X12.5894 Y31.0959 
G01 X12.6999 Y30.9854 
G01 X12.7867 Y30.8556 
G01 X12.8464 Y30.7113 
G01 X12.8769 Y30.5581 
G01 X12.8769 Y30.4019 
G01 X12.8464 Y30.2487 
G01 X12.7867 Y30.1044 
G01 X12.6999 Y29.9746 
G01 X12.5894 Y29.8641 
G00 Z2.0000 
G00 X12.5894 Y32.4041 
G01 Z-0.0250 F254.00 
G01 X12.4596 Y32.3173 F508.00 
G01 X12.3153 Y32.2576 
G01 X12.1621 Y32.2271 
G01 X10.6979 Y32.2271 
G01 X10.5447 Y32.2576 
G01 X10.4004 Y32.3173 
G01 X10.2706 Y32.4041 
G01 X10.1601 Y32.5146 
G01 X10.0733 Y32.6444 
G01 X10.0136 Y32.7887 
G01 X9.9831 Y32.9419 
G01 X9.9831 Y33.0981 
G01 X10.0136 Y33.2513 
G01 X10.0733 Y33.3956 
G01 X10.1601 Y33.5254 
G01 X10.2706 Y33.6359 
G01 X10.4004 Y33.7227 
G01 X10.5447 Y33.7824 
G01 X10.6979 Y33.8129 
G01 X12.1621 Y33.8129 
G01 X12.3153 Y33.7824 
G01 X12.4596 Y33.7227 
G01 X12.5894 Y33.6359 
G01 X12.6999 Y33.5254 
G01 X12.7867 Y33.3956 
G01 X12.8464 Y33.2513 
G01 X12.8769 Y33.0981 
G01 X12.8769 Y32.9419 
G01 X12.8464 Y32.7887 
G01 X12.7867 Y32.6444 
G01 X12.6999 Y32.5146 
G01 X12.5894 Y32.4041 
G00 Z2.0000 
G00 X12.5894 Y34.9441 
G01 Z-0.0250 F254.00 
G01 X12.4596 Y34.8573 F508.00 
G01 X12.3153 Y34.7976 
G01 X12.1621 Y34.7671 
G01 X10.6979 Y34.7671 
G01 X10.5447 Y34.7976 
G01 X10.4004 Y34.8573 
G01 X10.2706 Y34.9441 
G01 X10.1601 Y35.0546 
G01 X10.0733 Y35.1844 
G01 X10.0136 Y35.3287 
G01 X9.9831 Y35.4819 
G01 X9.9831 Y35.6381 
G01 X10.0136 Y35.7913 
G01 X10.0733 Y35.9356 
G01 X10.1601 Y36.0654 
G01 X10.2706 Y36.1759 
G01 X10.4004 Y36.2627 
G01 X10.5447 Y36.3224 
G01 X10.6979 Y36.3529 
G01 X12.1621 Y36.3529 
G01 X12.3153 Y36.3224 
G01 X12.4596 Y36.2627 
G01 X12.5894 Y36.1759 
G01 X12.6999 Y36.0654 
G01 X12.7867 Y35.9356 
G01 X12.8464 Y35.7913 
G01 X12.8769 Y35.6381 
G01 X12.8769 Y35.4819 
G01 X12.8464 Y35.3287 
G01 X12.7867 Y35.1844 
G01 X12.6999 Y35.0546 
G01 X12.5894 Y34.9441 
G00 Z2.0000 
G00 X12.5894 Y37.4841 
G01 Z-0.0250 F254.00 
G01 X12.4596 Y37.3973 F508.00 
G01 X12.3153 Y37.3376 
G01 X12.1621 Y37.3071 
G01 X10.6979 Y37.3071 
G01 X10.5447 Y37.3376 
G01 X10.4004 Y37.3973 
G01 X10.2706 Y37.4841 
G01 X10.1601 Y37.5946 
G01 X10.0733 Y37.7244 
G01 X10.0136 Y37.8687 
G01 X9.9831 Y38.0219 
G01 X9.9831 Y38.1781 
G01 X10.0136 Y38.3313 
G01 X10.0733 Y38.4756 
G01 X10.1601 Y38.6054 
G01 X10.2706 Y38.7159 
G01 X10.4004 Y38.8027 
G01 X10.5447 Y38.8624 
G01 X10.6979 Y38.8929 
G01 X12.1621 Y38.8929 
G01 X12.3153 Y38.8624 
G01 X12.4596 Y38.8027 
G01 X12.5894 Y38.7159 
G01 X12.6999 Y38.6054 
G01 X12.7443 Y38.5389 
G01 X17.3803 Y38.5389 
G01 X23.5188 Y44.6774 
G01 X23.5726 Y44.7312 
G01 X23.6385 Y44.7692 
G01 X23.7120 Y44.7889 
G01 X36.1303 Y44.7889 
G01 X37.3888 Y46.0473 
G01 X37.3823 Y46.0569 
G01 X37.3226 Y46.2012 
G01 X37.2921 Y46.3544 
G01 X37.2921 Y46.5106 
G01 X37.3226 Y46.6638 
G01 X37.3823 Y46.8081 
G01 X37.4691 Y46.9379 
G01 X37.5796 Y47.0484 
G01 X37.7094 Y47.1352 
G01 X37.8537 Y47.1949 
G01 X38.0069 Y47.2254 
G01 X38.1631 Y47.2254 
G01 X38.3163 Y47.1949 
G01 X38.4606 Y47.1352 
G01 X38.5904 Y47.0484 
G01 X38.7009 Y46.9379 
G01 X38.7877 Y46.8081 
G01 X38.8474 Y46.6638 
G01 X38.8779 Y46.5106 
G01 X38.8779 Y46.3544 
G01 X38.8474 Y46.2012 
G01 X38.7877 Y46.0569 
G01 X38.7009 Y45.9271 
G01 X38.5904 Y45.8166 
G01 X38.4606 Y45.7298 
G01 X38.3163 Y45.6701 
G01 X38.1631 Y45.6396 
G01 X38.0069 Y45.6396 
G01 X37.8537 Y45.6701 
G01 X37.8360 Y45.6774 
G01 X36.4274 Y44.2688 
G01 X36.3615 Y44.2308 
G01 X36.2880 Y44.2111 
G01 X23.8697 Y44.2111 
G01 X17.6774 Y38.0188 
G01 X17.6115 Y37.9808 
G01 X17.5380 Y37.9611 
G01 X12.8648 Y37.9611 
G01 X12.8464 Y37.8687 
G01 X12.7867 Y37.7244 
G01 X12.6999 Y37.5946 
G01 X12.5894 Y37.4841 
G00 Z2.0000 
G00 X12.5894 Y40.0241 
G01 Z-0.0250 F254.00 
G01 X12.4596 Y39.9373 F508.00 
G01 X12.3153 Y39.8776 
G01 X12.1621 Y39.8471 
G01 X10.6979 Y39.8471 
G01 X10.5447 Y39.8776 
G01 X10.4004 Y39.9373 
G01 X10.2706 Y40.0241 
G01 X10.1601 Y40.1346 
G01 X10.0733 Y40.2644 
G01 X10.0136 Y40.4087 
G01 X9.9831 Y40.5619 
G01 X9.9831 Y40.7181 
G01 X10.0136 Y40.8713 
G01 X10.0733 Y41.0156 
G01 X10.1601 Y41.1454 
G01 X10.2706 Y41.2559 
G01 X10.4004 Y41.3427 
G01 X10.5447 Y41.4024 
G01 X10.6979 Y41.4329 
G01 X12.1621 Y41.4329 
G01 X12.3153 Y41.4024 
G01 X12.4596 Y41.3427 
G01 X12.5894 Y41.2559 
G01 X12.6999 Y41.1454 
G01 X12.7867 Y41.0156 
G01 X12.8464 Y40.8713 
G01 X12.8769 Y40.7181 
G01 X12.8769 Y40.5619 
G01 X12.8464 Y40.4087 
G01 X12.7867 Y40.2644 
G01 X12.6999 Y40.1346 
G01 X12.5894 Y40.0241 
G00 Z2.0000 
G00 X12.5894 Y45.1041 
G01 Z-0.0250 F254.00 
G01 X12.4596 Y45.0173 F508.00 
G01 X12.3153 Y44.9576 
G01 X12.1621 Y44.9271 
G01 X10.6979 Y44.9271 
G01 X10.5447 Y44.9576 
G01 X10.4004 Y45.0173 
G01 X10.2706 Y45.1041 
G01 X10.1601 Y45.2146 
G01 X10.0733 Y45.3444 
G01 X10.0136 Y45.4887 
G01 X9.9831 Y45.6419 
G01 X9.9831 Y45.7981 
G01 X10.0136 Y45.9513 
G01 X10.0733 Y46.0956 
G01 X10.1601 Y46.2254 
G01 X10.2706 Y46.3359 
G01 X10.4004 Y46.4227 
G01 X10.5447 Y46.4824 
G01 X10.6979 Y46.5129 
G01 X12.1621 Y46.5129 
G01 X12.3153 Y46.4824 
G01 X12.4596 Y46.4227 
G01 X12.5894 Y46.3359 
G01 X12.6999 Y46.2254 
G01 X12.7867 Y46.0956 
G01 X12.8464 Y45.9513 
G01 X12.8769 Y45.7981 
G01 X12.8769 Y45.6419 
G01 X12.8464 Y45.4887 
G01 X12.7867 Y45.3444 
G01 X12.6999 Y45.2146 
G01 X12.5894 Y45.1041 
G00 Z2.0000 
G00 X12.5894 Y47.6441 
G01 Z-0.0250 F254.00 
G01 X12.4596 Y47.5573 F508.00 
G01 X12.3153 Y47.4976 
G01 X12.1621 Y47.4671 
G01 X10.6979 Y47.4671 
G01 X10.5447 Y47.4976 
G01 X10.4004 Y47.5573 
G01 X10.2706 Y47.6441 
G01 X10.1601 Y47.7546 
G01 X10.0733 Y47.8844 
G01 X10.0136 Y48.0287 
G01 X9.9831 Y48.1819 
G01 X9.9831 Y48.3381 
G01 X10.0136 Y48.4913 
G01 X10.0733 Y48.6356 
G01 X10.1601 Y48.7654 
G01 X10.2706 Y48.8759 
G01 X10.4004 Y48.9627 
G01 X10.5447 Y49.0224 
G01 X10.6979 Y49.0529 
G01 X12.1621 Y49.0529 
G01 X12.3153 Y49.0224 
G01 X12.4596 Y48.9627 
G01 X12.5894 Y48.8759 
G01 X12.6999 Y48.7654 
G01 X12.7867 Y48.6356 
G01 X12.8464 Y48.4913 
G01 X12.8769 Y48.3381 
G01 X12.8769 Y48.1819 
G01 X12.8464 Y48.0287 
G01 X12.7867 Y47.8844 
G01 X12.6999 Y47.7546 
G01 X12.5894 Y47.6441 
G00 Z2.0000 
G00 X12.5894 Y50.1841 
G01 Z-0.0250 F254.00 
G01 X12.4596 Y50.0973 F508.00 
G01 X12.3153 Y50.0376 
G01 X12.1621 Y50.0071 
G01 X10.6979 Y50.0071 
G01 X10.5447 Y50.0376 
G01 X10.4004 Y50.0973 
G01 X10.2706 Y50.1841 
G01 X10.1601 Y50.2946 
G01 X10.0733 Y50.4244 
G01 X10.0136 Y50.5687 
G01 X9.9831 Y50.7219 
G01 X9.9831 Y50.8781 
G01 X10.0136 Y51.0313 
G01 X10.0733 Y51.1756 
G01 X10.1601 Y51.3054 
G01 X10.2706 Y51.4159 
G01 X10.4004 Y51.5027 
G01 X10.5447 Y51.5624 
G01 X10.6979 Y51.5929 
G01 X12.1621 Y51.5929 
G01 X12.3153 Y51.5624 
G01 X12.4596 Y51.5027 
G01 X12.5894 Y51.4159 
G01 X12.6999 Y51.3054 
G01 X12.7867 Y51.1756 
G01 X12.8464 Y51.0313 
G01 X12.8769 Y50.8781 
G01 X12.8769 Y50.7219 
G01 X12.8464 Y50.5687 
G01 X12.7867 Y50.4244 
G01 X12.6999 Y50.2946 
G01 X12.5894 Y50.1841 
G00 Z2.0000 
G00 X12.6219 Y51.8931 
G01 Z-0.0250 F254.00 
G01 X12.4687 Y51.9236 F508.00 
G01 X12.3244 Y51.9833 
G01 X12.1946 Y52.0701 
G01 X12.0841 Y52.1806 
G01 X11.9973 Y52.3104 
G01 X11.9376 Y52.4547 
G01 X11.9071 Y52.6079 
G01 X11.9071 Y54.0721 
G01 X11.9376 Y54.2253 
G01 X11.9973 Y54.3696 
G01 X12.0841 Y54.4994 
G01 X12.1946 Y54.6099 
G01 X12.3244 Y54.6967 
G01 X12.4687 Y54.7564 
G01 X12.6219 Y54.7869 
G01 X12.7781 Y54.7869 
G01 X12.9313 Y54.7564 
G01 X13.0756 Y54.6967 
G01 X13.2054 Y54.6099 
G01 X13.3159 Y54.4994 
G01 X13.4027 Y54.3696 
G01 X13.4624 Y54.2253 
G01 X13.4929 Y54.0721 
G01 X13.4929 Y52.6079 
G01 X13.4624 Y52.4547 
G01 X13.4027 Y52.3104 
G01 X13.3159 Y52.1806 
G01 X13.2054 Y52.0701 
G01 X13.0756 Y51.9833 
G01 X12.9313 Y51.9236 
G01 X12.7781 Y51.8931 
G01 X12.6219 Y51.8931 
G00 Z2.0000 
G00 X14.6241 Y52.1806 
G01 Z-0.0250 F254.00 
G01 X14.5373 Y52.3104 F508.00 
G01 X14.4776 Y52.4547 
G01 X14.4471 Y52.6079 
G01 X14.4471 Y54.0721 
G01 X14.4776 Y54.2253 
G01 X14.5373 Y54.3696 
G01 X14.6241 Y54.4994 
G01 X14.7346 Y54.6099 
G01 X14.8644 Y54.6967 
G01 X15.0087 Y54.7564 
G01 X15.1619 Y54.7869 
G01 X15.3181 Y54.7869 
G01 X15.4713 Y54.7564 
G01 X15.6156 Y54.6967 
G01 X15.7454 Y54.6099 
G01 X15.8559 Y54.4994 
G01 X15.9427 Y54.3696 
G01 X16.0024 Y54.2253 
G01 X16.0329 Y54.0721 
G01 X16.0329 Y52.6079 
G01 X16.0024 Y52.4547 
G01 X15.9427 Y52.3104 
G01 X15.8559 Y52.1806 
G01 X15.7454 Y52.0701 
G01 X15.6156 Y51.9833 
G01 X15.4713 Y51.9236 
G01 X15.3181 Y51.8931 
G01 X15.1619 Y51.8931 
G01 X15.0087 Y51.9236 
G01 X14.8644 Y51.9833 
G01 X14.7346 Y52.0701 
G01 X14.6241 Y52.1806 
G00 Z2.0000 
G00 X17.1641 Y52.1806 
G01 Z-0.0250 F254.00 
G01 X17.0773 Y52.3104 F508.00 
G01 X17.0176 Y52.4547 
G01 X16.9871 Y52.6079 
G01 X16.9871 Y54.0721 
G01 X17.0176 Y54.2253 
G01 X17.0773 Y54.3696 
G01 X17.1641 Y54.4994 
G01 X17.2746 Y54.6099 
G01 X17.4044 Y54.6967 
G01 X17.5487 Y54.7564 
G01 X17.7019 Y54.7869 
G01 X17.8581 Y54.7869 
G01 X18.0113 Y54.7564 
G01 X18.1556 Y54.6967 
G01 X18.2854 Y54.6099 
G01 X18.3959 Y54.4994 
G01 X18.4827 Y54.3696 
G01 X18.5424 Y54.2253 
G01 X18.5729 Y54.0721 
G01 X18.5729 Y52.6079 
G01 X18.5424 Y52.4547 
G01 X18.4827 Y52.3104 
G01 X18.3959 Y52.1806 
G01 X18.2854 Y52.0701 
G01 X18.1556 Y51.9833 
G01 X18.0113 Y51.9236 
G01 X17.8581 Y51.8931 
G01 X17.7019 Y51.8931 
G01 X17.5487 Y51.9236 
G01 X17.4044 Y51.9833 
G01 X17.2746 Y52.0701 
G01 X17.1641 Y52.1806 
G00 Z2.0000 
G00 X19.7041 Y52.1806 
G01 Z-0.0250 F254.00 
G01 X19.6173 Y52.3104 F508.00 
G01 X19.5576 Y52.4547 
G01 X19.5271 Y52.6079 
G01 X19.5271 Y54.0721 
G01 X19.5576 Y54.2253 
G01 X19.6173 Y54.3696 
G01 X19.7041 Y54.4994 
G01 X19.8146 Y54.6099 
G01 X19.9444 Y54.6967 
G01 X20.0887 Y54.7564 
G01 X20.2419 Y54.7869 
G01 X20.3981 Y54.7869 
G01 X20.5513 Y54.7564 
G01 X20.6956 Y54.6967 
G01 X20.8254 Y54.6099 
G01 X20.9359 Y54.4994 
G01 X21.0227 Y54.3696 
G01 X21.0824 Y54.2253 
G01 X21.1129 Y54.0721 
G01 X21.1129 Y52.6079 
G01 X21.0824 Y52.4547 
G01 X21.0227 Y52.3104 
G01 X20.9359 Y52.1806 
G01 X20.8254 Y52.0701 
G01 X20.6956 Y51.9833 
G01 X20.5513 Y51.9236 
G01 X20.3981 Y51.8931 
G01 X20.2419 Y51.8931 
G01 X20.0887 Y51.9236 
G01 X19.9444 Y51.9833 
G01 X19.8146 Y52.0701 
G01 X19.7041 Y52.1806 
G00 Z2.0000 
G00 X22.2441 Y52.1806 
G01 Z-0.0250 F254.00 
G01 X22.1573 Y52.3104 F508.00 
G01 X22.0976 Y52.4547 
G01 X22.0671 Y52.6079 
G01 X22.0671 Y54.0721 
G01 X22.0976 Y54.2253 
G01 X22.1573 Y54.3696 
G01 X22.2441 Y54.4994 
G01 X22.3546 Y54.6099 
G01 X22.4844 Y54.6967 
G01 X22.6287 Y54.7564 
G01 X22.7819 Y54.7869 
G01 X22.9381 Y54.7869 
G01 X23.0913 Y54.7564 
G01 X23.2356 Y54.6967 
G01 X23.3654 Y54.6099 
G01 X23.4759 Y54.4994 
G01 X23.5627 Y54.3696 
G01 X23.6224 Y54.2253 
G01 X23.6529 Y54.0721 
G01 X23.6529 Y52.6079 
G01 X23.6224 Y52.4547 
G01 X23.5627 Y52.3104 
G01 X23.4759 Y52.1806 
G01 X23.3654 Y52.0701 
G01 X23.2356 Y51.9833 
G01 X23.0913 Y51.9236 
G01 X22.9381 Y51.8931 
G01 X22.7819 Y51.8931 
G01 X22.6287 Y51.9236 
G01 X22.4844 Y51.9833 
G01 X22.3546 Y52.0701 
G01 X22.2441 Y52.1806 
G00 Z2.0000 
G00 X24.7841 Y52.1806 
G01 Z-0.0250 F254.00 
G01 X24.6973 Y52.3104 F508.00 
G01 X24.6376 Y52.4547 
G01 X24.6071 Y52.6079 
G01 X24.6071 Y54.0721 
G01 X24.6376 Y54.2253 
G01 X24.6973 Y54.3696 
G01 X24.7841 Y54.4994 
G01 X24.8946 Y54.6099 
G01 X25.0244 Y54.6967 
G01 X25.1687 Y54.7564 
G01 X25.3219 Y54.7869 
G01 X25.4781 Y54.7869 
G01 X25.6313 Y54.7564 
G01 X25.7756 Y54.6967 
G01 X25.9054 Y54.6099 
G01 X26.0159 Y54.4994 
G01 X26.1027 Y54.3696 
G01 X26.1624 Y54.2253 
G01 X26.1929 Y54.0721 
G01 X26.1929 Y52.6079 
G01 X26.1624 Y52.4547 
G01 X26.1027 Y52.3104 
G01 X26.0159 Y52.1806 
G01 X25.9054 Y52.0701 
G01 X25.7756 Y51.9833 
G01 X25.6313 Y51.9236 
G01 X25.4781 Y51.8931 
G01 X25.3219 Y51.8931 
G01 X25.1687 Y51.9236 
G01 X25.0244 Y51.9833 
G01 X24.8946 Y52.0701 
G01 X24.7841 Y52.1806 
G00 Z2.0000 
G00 X25.5106 Y51.4159 
G01 Z-0.0250 F254.00 
G01 X25.6404 Y51.5027 F508.00 
G01 X25.7847 Y51.5624 
G01 X25.9379 Y51.5929 
G01 X27.4021 Y51.5929 
G01 X27.5553 Y51.5624 
G01 X27.6996 Y51.5027 
G01 X27.8294 Y51.4159 
G01 X27.9399 Y51.3054 
G01 X28.0267 Y51.1756 
G01 X28.0864 Y51.0313 
G01 X28.1169 Y50.8781 
G01 X28.1169 Y50.7219 
G01 X28.0864 Y50.5687 
G01 X28.0267 Y50.4244 
G01 X27.9399 Y50.2946 
G01 X27.8294 Y50.1841 
G01 X27.6996 Y50.0973 
G01 X27.5553 Y50.0376 
G01 X27.4021 Y50.0071 
G01 X25.9379 Y50.0071 
G01 X25.7847 Y50.0376 
G01 X25.6404 Y50.0973 
G01 X25.5106 Y50.1841 
G01 X25.4001 Y50.2946 
G01 X25.3133 Y50.4244 
G01 X25.2536 Y50.5687 
G01 X25.2231 Y50.7219 
G01 X25.2231 Y50.8781 
G01 X25.2536 Y51.0313 
G01 X25.3133 Y51.1756 
G01 X25.4001 Y51.3054 
G01 X25.5106 Y51.4159 
G00 Z2.0000 
G00 X25.5106 Y48.8759 
G01 Z-0.0250 F254.00 
G01 X25.6404 Y48.9627 F508.00 
G01 X25.7847 Y49.0224 
G01 X25.9379 Y49.0529 
G01 X27.4021 Y49.0529 
G01 X27.5553 Y49.0224 
G01 X27.6996 Y48.9627 
G01 X27.8294 Y48.8759 
G01 X27.9399 Y48.7654 
G01 X28.0267 Y48.6356 
G01 X28.0864 Y48.4913 
G01 X28.1169 Y48.3381 
G01 X28.1169 Y48.1819 
G01 X28.0864 Y48.0287 
G01 X28.0267 Y47.8844 
G01 X27.9399 Y47.7546 
G01 X27.8294 Y47.6441 
G01 X27.6996 Y47.5573 
G01 X27.5553 Y47.4976 
G01 X27.4021 Y47.4671 
G01 X25.9379 Y47.4671 
G01 X25.7847 Y47.4976 
G01 X25.6404 Y47.5573 
G01 X25.5106 Y47.6441 
G01 X25.4001 Y47.7546 
G01 X25.3133 Y47.8844 
G01 X25.2536 Y48.0287 
G01 X25.2231 Y48.1819 
G01 X25.2231 Y48.3381 
G01 X25.2536 Y48.4913 
G01 X25.3133 Y48.6356 
G01 X25.4001 Y48.7654 
G01 X25.5106 Y48.8759 
G00 Z2.0000 
G00 X25.5106 Y46.3359 
G01 Z-0.0250 F254.00 
G01 X25.6404 Y46.4227 F508.00 
G01 X25.7847 Y46.4824 
G01 X25.9379 Y46.5129 
G01 X27.4021 Y46.5129 
G01 X27.5553 Y46.4824 
G01 X27.6996 Y46.4227 
G01 X27.8294 Y46.3359 
G01 X27.9399 Y46.2254 
G01 X28.0267 Y46.0956 
G01 X28.0864 Y45.9513 
G01 X28.1169 Y45.7981 
G01 X28.1169 Y45.6419 
G01 X28.0864 Y45.4887 
G01 X28.0267 Y45.3444 
G01 X27.9399 Y45.2146 
G01 X27.8294 Y45.1041 
G01 X27.6996 Y45.0173 
G01 X27.5553 Y44.9576 
G01 X27.4021 Y44.9271 
G01 X25.9379 Y44.9271 
G01 X25.7847 Y44.9576 
G01 X25.6404 Y45.0173 
G01 X25.5106 Y45.1041 
G01 X25.4001 Y45.2146 
G01 X25.3133 Y45.3444 
G01 X25.2536 Y45.4887 
G01 X25.2231 Y45.6419 
G01 X25.2231 Y45.7981 
G01 X25.2536 Y45.9513 
G01 X25.3133 Y46.0956 
G01 X25.4001 Y46.2254 
G01 X25.5106 Y46.3359 
G00 Z2.0000 
G00 X25.5106 Y43.7959 
G01 Z-0.0250 F254.00 
G01 X25.6404 Y43.8827 F508.00 
G01 X25.7847 Y43.9424 
G01 X25.9379 Y43.9729 
G01 X27.4021 Y43.9729 
G01 X27.5553 Y43.9424 
G01 X27.6996 Y43.8827 
G01 X27.8294 Y43.7959 
G01 X27.9399 Y43.6854 
G01 X28.0267 Y43.5556 
G01 X28.0864 Y43.4113 
G01 X28.1169 Y43.2581 
G01 X28.1169 Y43.1019 
G01 X28.0864 Y42.9487 
G01 X28.0267 Y42.8044 
G01 X27.9399 Y42.6746 
G01 X27.8294 Y42.5641 
G01 X27.6996 Y42.4773 
G01 X27.5553 Y42.4176 
G01 X27.4021 Y42.3871 
G01 X25.9379 Y42.3871 
G01 X25.7847 Y42.4176 
G01 X25.6404 Y42.4773 
G01 X25.5106 Y42.5641 
G01 X25.4001 Y42.6746 
G01 X25.3133 Y42.8044 
G01 X25.2536 Y42.9487 
G01 X25.2231 Y43.1019 
G01 X25.2231 Y43.2581 
G01 X25.2536 Y43.4113 
G01 X25.3133 Y43.5556 
G01 X25.4001 Y43.6854 
G01 X25.5106 Y43.7959 
G00 Z2.0000 
G00 X25.5106 Y41.2559 
G01 Z-0.0250 F254.00 
G01 X25.6404 Y41.3427 F508.00 
G01 X25.7847 Y41.4024 
G01 X25.9379 Y41.4329 
G01 X27.4021 Y41.4329 
G01 X27.5553 Y41.4024 
G01 X27.6996 Y41.3427 
G01 X27.8294 Y41.2559 
G01 X27.9399 Y41.1454 
G01 X28.0267 Y41.0156 
G01 X28.0864 Y40.8713 
G01 X28.1028 Y40.7889 
G01 X31.5380 Y40.7889 
G01 X31.6115 Y40.7692 
G01 X31.6774 Y40.7312 
G01 X37.2447 Y35.1639 
G01 X38.3726 Y35.1639 
G01 X38.4237 Y35.1427 
G01 X38.4627 Y35.1037 
G01 X38.4839 Y35.0526 
G01 X38.4839 Y33.9247 
G01 X38.6197 Y33.7889 
G01 X41.1711 Y33.7889 
G01 X41.1711 Y33.8176 
G01 X41.1922 Y33.8687 
G01 X41.2313 Y33.9078 
G01 X41.2824 Y33.9289 
G01 X42.5376 Y33.9289 
G01 X42.5887 Y33.9078 
G01 X42.6277 Y33.8687 
G01 X42.6489 Y33.8176 
G01 X42.6489 Y33.0097 
G01 X43.6197 Y32.0389 
G01 X46.1345 Y32.0389 
G01 X46.1916 Y32.1767 
G01 X46.2902 Y32.3243 
G01 X46.4157 Y32.4498 
G01 X46.5633 Y32.5484 
G01 X46.7272 Y32.6163 
G01 X46.9013 Y32.6509 
G01 X47.0787 Y32.6509 
G01 X47.2528 Y32.6163 
G01 X47.4167 Y32.5484 
G01 X47.5643 Y32.4498 
G01 X47.6898 Y32.3243 
G01 X47.7884 Y32.1767 
G01 X47.8563 Y32.0128 
G01 X47.8909 Y31.8387 
G01 X47.8909 Y31.6613 
G01 X47.8563 Y31.4872 
G01 X47.7884 Y31.3233 
G01 X47.6898 Y31.1757 
G01 X47.5643 Y31.0502 
G01 X47.4167 Y30.9516 
G01 X47.2528 Y30.8837 
G01 X47.0787 Y30.8491 
G01 X46.9013 Y30.8491 
G01 X46.7272 Y30.8837 
G01 X46.5633 Y30.9516 
G01 X46.4157 Y31.0502 
G01 X46.2902 Y31.1757 
G01 X46.1916 Y31.3233 
G01 X46.1345 Y31.4611 
G01 X43.4620 Y31.4611 
G01 X43.3885 Y31.4808 
G01 X43.3226 Y31.5188 
G01 X41.9903 Y32.8511 
G01 X41.2824 Y32.8511 
G01 X41.2313 Y32.8722 
G01 X41.1922 Y32.9113 
G01 X41.1711 Y32.9624 
G01 X41.1711 Y33.2111 
G01 X38.4620 Y33.2111 
G01 X38.3885 Y33.2308 
G01 X38.3226 Y33.2688 
G01 X38.1753 Y33.4161 
G01 X37.0474 Y33.4161 
G01 X36.9963 Y33.4372 
G01 X36.9572 Y33.4763 
G01 X36.9361 Y33.5274 
G01 X36.9361 Y34.6553 
G01 X31.3803 Y40.2111 
G01 X27.9910 Y40.2111 
G01 X27.9399 Y40.1346 
G01 X27.8294 Y40.0241 
G01 X27.6996 Y39.9373 
G01 X27.5553 Y39.8776 
G01 X27.4021 Y39.8471 
G01 X25.9379 Y39.8471 
G01 X25.7847 Y39.8776 
G01 X25.6404 Y39.9373 
G01 X25.5106 Y40.0241 
G01 X25.4001 Y40.1346 
G01 X25.3133 Y40.2644 
G01 X25.2536 Y40.4087 
G01 X25.2231 Y40.5619 
G01 X25.2231 Y40.7181 
G01 X25.2536 Y40.8713 
G01 X25.3133 Y41.0156 
G01 X25.4001 Y41.1454 
G01 X25.5106 Y41.2559 
G00 Z2.0000 
G00 X23.3654 Y41.2941 
G01 Z-0.0250 F254.00 
G01 X23.2356 Y41.2073 F508.00 
G01 X23.0913 Y41.1476 
G01 X22.9381 Y41.1171 
G01 X22.7819 Y41.1171 
G01 X22.6287 Y41.1476 
G01 X22.4844 Y41.2073 
G01 X22.3546 Y41.2941 
G01 X22.2441 Y41.4046 
G01 X22.1573 Y41.5344 
G01 X22.0976 Y41.6787 
G01 X22.0671 Y41.8319 
G01 X22.0671 Y41.9881 
G01 X22.0976 Y42.1413 
G01 X22.1573 Y42.2856 
G01 X22.2441 Y42.4154 
G01 X22.3546 Y42.5259 
G01 X22.4844 Y42.6127 
G01 X22.6287 Y42.6724 
G01 X22.7819 Y42.7029 
G01 X22.9381 Y42.7029 
G01 X23.0913 Y42.6724 
G01 X23.2356 Y42.6127 
G01 X23.3654 Y42.5259 
G01 X23.4759 Y42.4154 
G01 X23.5627 Y42.2856 
G01 X23.6224 Y42.1413 
G01 X23.6529 Y41.9881 
G01 X23.6529 Y41.8319 
G01 X23.6224 Y41.6787 
G01 X23.5627 Y41.5344 
G01 X23.4759 Y41.4046 
G01 X23.3654 Y41.2941 
G00 Z2.0000 
G00 X23.3654 Y39.9859 
G01 Z-0.0250 F254.00 
G01 X23.4759 Y39.8754 F508.00 
G01 X23.5627 Y39.7456 
G01 X23.6224 Y39.6013 
G01 X23.6529 Y39.4481 
G01 X23.6529 Y39.2919 
G01 X23.6224 Y39.1387 
G01 X23.5627 Y38.9944 
G01 X23.4759 Y38.8646 
G01 X23.3654 Y38.7541 
G01 X23.2356 Y38.6673 
G01 X23.0913 Y38.6076 
G01 X22.9381 Y38.5771 
G01 X22.7819 Y38.5771 
G01 X22.6287 Y38.6076 
G01 X22.4844 Y38.6673 
G01 X22.3546 Y38.7541 
G01 X22.2441 Y38.8646 
G01 X22.1573 Y38.9944 
G01 X22.0976 Y39.1387 
G01 X22.0671 Y39.2919 
G01 X22.0671 Y39.4481 
G01 X22.0976 Y39.6013 
G01 X22.1573 Y39.7456 
G01 X22.2441 Y39.8754 
G01 X22.3546 Y39.9859 
G01 X22.4844 Y40.0727 
G01 X22.6287 Y40.1324 
G01 X22.7819 Y40.1629 
G01 X22.9381 Y40.1629 
G01 X23.0913 Y40.1324 
G01 X23.2356 Y40.0727 
G01 X23.3654 Y39.9859 
G00 Z2.0000 
G00 X25.5106 Y38.7159 
G01 Z-0.0250 F254.00 
G01 X25.6404 Y38.8027 F508.00 
G01 X25.7847 Y38.8624 
G01 X25.9379 Y38.8929 
G01 X27.4021 Y38.8929 
G01 X27.5553 Y38.8624 
G01 X27.6996 Y38.8027 
G01 X27.8294 Y38.7159 
G01 X27.9399 Y38.6054 
G01 X28.0267 Y38.4756 
G01 X28.0864 Y38.3313 
G01 X28.0949 Y38.2889 
G01 X31.7880 Y38.2889 
G01 X31.8615 Y38.2692 
G01 X31.9274 Y38.2312 
G01 X37.6774 Y32.4812 
G01 X37.7312 Y32.4274 
G01 X37.7692 Y32.3615 
G01 X37.7889 Y32.2880 
G01 X37.7889 Y27.5439 
G01 X38.3726 Y27.5439 
G01 X38.4237 Y27.5227 
G01 X38.4627 Y27.4837 
G01 X38.4839 Y27.4326 
G01 X38.4839 Y26.2889 
G01 X41.2341 Y26.2889 
G01 X41.2824 Y26.3089 
G01 X42.5376 Y26.3089 
G01 X42.5859 Y26.2889 
G01 X42.8803 Y26.2889 
G01 X45.7688 Y29.1774 
G01 X45.8226 Y29.2312 
G01 X45.8885 Y29.2692 
G01 X45.9620 Y29.2889 
G01 X46.0891 Y29.2889 
G01 X46.0891 Y29.2987 
G01 X46.1237 Y29.4728 
G01 X46.1916 Y29.6367 
G01 X46.2902 Y29.7843 
G01 X46.4157 Y29.9098 
G01 X46.5633 Y30.0084 
G01 X46.7272 Y30.0763 
G01 X46.9013 Y30.1109 
G01 X47.0787 Y30.1109 
G01 X47.2528 Y30.0763 
G01 X47.4167 Y30.0084 
G01 X47.5643 Y29.9098 
G01 X47.6898 Y29.7843 
G01 X47.7884 Y29.6367 
G01 X47.8563 Y29.4728 
G01 X47.8909 Y29.2987 
G01 X47.8909 Y29.1213 
G01 X47.8563 Y28.9472 
G01 X47.7884 Y28.7833 
G01 X47.6898 Y28.6357 
G01 X47.5643 Y28.5102 
G01 X47.4167 Y28.4116 
G01 X47.2528 Y28.3437 
G01 X47.0787 Y28.3091 
G01 X46.9013 Y28.3091 
G01 X46.7272 Y28.3437 
G01 X46.5633 Y28.4116 
G01 X46.4157 Y28.5102 
G01 X46.2902 Y28.6357 
G01 X46.2399 Y28.7111 
G01 X46.1197 Y28.7111 
G01 X43.2312 Y25.8226 
G01 X43.1774 Y25.7688 
G01 X43.1115 Y25.7308 
G01 X43.0380 Y25.7111 
G01 X42.6489 Y25.7111 
G01 X42.6489 Y25.3424 
G01 X42.6277 Y25.2913 
G01 X42.5887 Y25.2522 
G01 X42.5376 Y25.2311 
G01 X41.2824 Y25.2311 
G01 X41.2313 Y25.2522 
G01 X41.1922 Y25.2913 
G01 X41.1711 Y25.3424 
G01 X41.1711 Y25.7111 
G01 X38.2120 Y25.7111 
G01 X38.1385 Y25.7308 
G01 X38.0726 Y25.7688 
G01 X38.0453 Y25.7961 
G01 X37.0474 Y25.7961 
G01 X36.9963 Y25.8172 
G01 X36.9572 Y25.8563 
G01 X36.9361 Y25.9074 
G01 X36.9361 Y27.4326 
G01 X36.9572 Y27.4837 
G01 X36.9963 Y27.5227 
G01 X37.0474 Y27.5439 
G01 X37.2111 Y27.5439 
G01 X37.2111 Y32.1303 
G01 X31.6303 Y37.7111 
G01 X28.0178 Y37.7111 
G01 X27.9399 Y37.5946 
G01 X27.8294 Y37.4841 
G01 X27.6996 Y37.3973 
G01 X27.5553 Y37.3376 
G01 X27.4021 Y37.3071 
G01 X25.9379 Y37.3071 
G01 X25.7847 Y37.3376 
G01 X25.6404 Y37.3973 
G01 X25.5106 Y37.4841 
G01 X25.4001 Y37.5946 
G01 X25.3133 Y37.7244 
G01 X25.2536 Y37.8687 
G01 X25.2231 Y38.0219 
G01 X25.2231 Y38.1781 
G01 X25.2536 Y38.3313 
G01 X25.3133 Y38.4756 
G01 X25.4001 Y38.6054 
G01 X25.5106 Y38.7159 
G00 Z2.0000 
G00 X25.5106 Y36.1759 
G01 Z-0.0250 F254.00 
G01 X25.6404 Y36.2627 F508.00 
G01 X25.7847 Y36.3224 
G01 X25.9379 Y36.3529 
G01 X27.4021 Y36.3529 
G01 X27.5553 Y36.3224 
G01 X27.6996 Y36.2627 
G01 X27.8294 Y36.1759 
G01 X27.9399 Y36.0654 
G01 X28.0267 Y35.9356 
G01 X28.0864 Y35.7913 
G01 X28.1169 Y35.6381 
G01 X28.1169 Y35.4819 
G01 X28.0864 Y35.3287 
G01 X28.0267 Y35.1844 
G01 X27.9399 Y35.0546 
G01 X27.8294 Y34.9441 
G01 X27.6996 Y34.8573 
G01 X27.5553 Y34.7976 
G01 X27.4021 Y34.7671 
G01 X25.9379 Y34.7671 
G01 X25.7847 Y34.7976 
G01 X25.6404 Y34.8573 
G01 X25.5106 Y34.9441 
G01 X25.4001 Y35.0546 
G01 X25.3133 Y35.1844 
G01 X25.2536 Y35.3287 
G01 X25.2231 Y35.4819 
G01 X25.2231 Y35.6381 
G01 X25.2536 Y35.7913 
G01 X25.3133 Y35.9356 
G01 X25.4001 Y36.0654 
G01 X25.5106 Y36.1759 
G00 Z2.0000 
G00 X25.5106 Y33.6359 
G01 Z-0.0250 F254.00 
G01 X25.6404 Y33.7227 F508.00 
G01 X25.7847 Y33.7824 
G01 X25.9379 Y33.8129 
G01 X27.4021 Y33.8129 
G01 X27.5553 Y33.7824 
G01 X27.6996 Y33.7227 
G01 X27.8294 Y33.6359 
G01 X27.9399 Y33.5254 
G01 X28.0267 Y33.3956 
G01 X28.0864 Y33.2513 
G01 X28.1169 Y33.0981 
G01 X28.1169 Y32.9419 
G01 X28.0864 Y32.7887 
G01 X28.0267 Y32.6444 
G01 X27.9399 Y32.5146 
G01 X27.8294 Y32.4041 
G01 X27.6996 Y32.3173 
G01 X27.5553 Y32.2576 
G01 X27.4021 Y32.2271 
G01 X25.9379 Y32.2271 
G01 X25.7847 Y32.2576 
G01 X25.6404 Y32.3173 
G01 X25.5106 Y32.4041 
G01 X25.4001 Y32.5146 
G01 X25.3133 Y32.6444 
G01 X25.2536 Y32.7887 
G01 X25.2231 Y32.9419 
G01 X25.2231 Y33.0981 
G01 X25.2536 Y33.2513 
G01 X25.3133 Y33.3956 
G01 X25.4001 Y33.5254 
G01 X25.5106 Y33.6359 
G00 Z2.0000 
G00 X25.5726 Y31.9812 
G01 Z-0.0250 F254.00 
G01 X25.6385 Y32.0192 F508.00 
G01 X25.7120 Y32.0389 
G01 X27.6303 Y32.0389 
G01 X30.0726 Y34.4812 
G01 X30.1385 Y34.5192 
G01 X30.2120 Y34.5389 
G01 X32.6361 Y34.5389 
G01 X32.6361 Y35.0526 
G01 X32.6572 Y35.1037 
G01 X32.6963 Y35.1427 
G01 X32.7474 Y35.1639 
G01 X34.0726 Y35.1639 
G01 X34.1237 Y35.1427 
G01 X34.1628 Y35.1037 
G01 X34.1839 Y35.0526 
G01 X34.1839 Y33.5274 
G01 X34.1628 Y33.4763 
G01 X34.1237 Y33.4372 
G01 X34.0726 Y33.4161 
G01 X32.7474 Y33.4161 
G01 X32.6963 Y33.4372 
G01 X32.6572 Y33.4763 
G01 X32.6361 Y33.5274 
G01 X32.6361 Y33.9611 
G01 X30.3697 Y33.9611 
G01 X27.9812 Y31.5726 
G01 X27.9274 Y31.5188 
G01 X27.8615 Y31.4808 
G01 X27.7880 Y31.4611 
G01 X25.8697 Y31.4611 
G01 X25.0389 Y30.6303 
G01 X25.0389 Y29.8697 
G01 X26.1757 Y28.7329 
G01 X27.4021 Y28.7329 
G01 X27.5553 Y28.7024 
G01 X27.6996 Y28.6427 
G01 X27.8294 Y28.5559 
G01 X27.9399 Y28.4454 
G01 X28.0267 Y28.3156 
G01 X28.0864 Y28.1713 
G01 X28.1169 Y28.0181 
G01 X28.1169 Y27.8619 
G01 X28.0864 Y27.7087 
G01 X28.0267 Y27.5644 
G01 X27.9399 Y27.4346 
G01 X27.8294 Y27.3241 
G01 X27.6996 Y27.2373 
G01 X27.5553 Y27.1776 
G01 X27.4021 Y27.1471 
G01 X25.9379 Y27.1471 
G01 X25.7847 Y27.1776 
G01 X25.6404 Y27.2373 
G01 X25.5106 Y27.3241 
G01 X25.4001 Y27.4346 
G01 X25.3133 Y27.5644 
G01 X25.2536 Y27.7087 
G01 X25.2231 Y27.8619 
G01 X25.2231 Y28.0181 
G01 X25.2536 Y28.1713 
G01 X25.3133 Y28.3156 
G01 X25.4001 Y28.4454 
G01 X25.5106 Y28.5559 
G01 X25.5255 Y28.5659 
G01 X24.5188 Y29.5726 
G01 X24.4808 Y29.6385 
G01 X24.4611 Y29.7120 
G01 X24.4611 Y30.7880 
G01 X24.4808 Y30.8615 
G01 X24.5188 Y30.9274 
G01 X24.5726 Y30.9812 
G01 X25.5726 Y31.9812 
G00 Z2.0000 
G00 X25.6404 Y31.1827 
G01 Z-0.0250 F254.00 
G01 X25.7847 Y31.2424 F508.00 
G01 X25.9379 Y31.2729 
G01 X27.4021 Y31.2729 
G01 X27.5553 Y31.2424 
G01 X27.6996 Y31.1827 
G01 X27.8294 Y31.0959 
G01 X27.9399 Y30.9854 
G01 X28.0267 Y30.8556 
G01 X28.0864 Y30.7113 
G01 X28.1169 Y30.5581 
G01 X28.1169 Y30.4019 
G01 X28.0864 Y30.2487 
G01 X28.0267 Y30.1044 
G01 X27.9399 Y29.9746 
G01 X27.8294 Y29.8641 
G01 X27.6996 Y29.7773 
G01 X27.6512 Y29.7573 
G01 X30.3697 Y27.0389 
G01 X32.6361 Y27.0389 
G01 X32.6361 Y27.4326 
G01 X32.6572 Y27.4837 
G01 X32.6963 Y27.5227 
G01 X32.7474 Y27.5439 
G01 X34.0726 Y27.5439 
G01 X34.1237 Y27.5227 
G01 X34.1628 Y27.4837 
G01 X34.1839 Y27.4326 
G01 X34.1839 Y25.9074 
G01 X34.1628 Y25.8563 
G01 X34.1237 Y25.8172 
G01 X34.0726 Y25.7961 
G01 X32.7474 Y25.7961 
G01 X32.6963 Y25.8172 
G01 X32.6572 Y25.8563 
G01 X32.6361 Y25.9074 
G01 X32.6361 Y26.4611 
G01 X30.2120 Y26.4611 
G01 X30.1385 Y26.4808 
G01 X30.0726 Y26.5188 
G01 X26.9043 Y29.6871 
G01 X25.9379 Y29.6871 
G01 X25.7847 Y29.7176 
G01 X25.6404 Y29.7773 
G01 X25.5106 Y29.8641 
G01 X25.4001 Y29.9746 
G01 X25.3133 Y30.1044 
G01 X25.2536 Y30.2487 
G01 X25.2231 Y30.4019 
G01 X25.2231 Y30.5581 
G01 X25.2536 Y30.7113 
G01 X25.3133 Y30.8556 
G01 X25.4001 Y30.9854 
G01 X25.5106 Y31.0959 
G01 X25.6404 Y31.1827 
G00 Z2.0000 
G00 X25.6404 Y26.1027 
G01 Z-0.0250 F254.00 
G01 X25.7847 Y26.1624 F508.00 
G01 X25.9379 Y26.1929 
G01 X27.4021 Y26.1929 
G01 X27.5553 Y26.1624 
G01 X27.6996 Y26.1027 
G01 X27.8294 Y26.0159 
G01 X27.9399 Y25.9054 
G01 X28.0267 Y25.7756 
G01 X28.0864 Y25.6313 
G01 X28.1048 Y25.5389 
G01 X33.5380 Y25.5389 
G01 X33.6115 Y25.5192 
G01 X33.6774 Y25.4812 
G01 X41.7397 Y17.4189 
G01 X42.5376 Y17.4189 
G01 X42.5887 Y17.3977 
G01 X42.6277 Y17.3587 
G01 X42.6489 Y17.3076 
G01 X42.6489 Y17.0389 
G01 X45.2880 Y17.0389 
G01 X45.3615 Y17.0192 
G01 X45.4274 Y16.9812 
G01 X46.3212 Y16.0874 
G01 X46.4246 Y16.1626 
G01 X46.5759 Y16.2397 
G01 X46.7374 Y16.2921 
G01 X46.9051 Y16.3187 
G01 X47.0749 Y16.3187 
G01 X47.2426 Y16.2921 
G01 X47.4041 Y16.2397 
G01 X47.5554 Y16.1626 
G01 X47.6927 Y16.0628 
G01 X47.8128 Y15.9427 
G01 X47.9126 Y15.8054 
G01 X47.9897 Y15.6541 
G01 X48.0421 Y15.4926 
G01 X48.0687 Y15.3249 
G01 X48.0687 Y15.1551 
G01 X48.0421 Y14.9874 
G01 X47.9897 Y14.8259 
G01 X47.9126 Y14.6746 
G01 X47.8128 Y14.5373 
G01 X47.6927 Y14.4172 
G01 X47.5554 Y14.3174 
G01 X47.4041 Y14.2403 
G01 X47.2426 Y14.1879 
G01 X47.0749 Y14.1613 
G01 X46.9051 Y14.1613 
G01 X46.7374 Y14.1879 
G01 X46.5759 Y14.2403 
G01 X46.4246 Y14.3174 
G01 X46.2873 Y14.4172 
G01 X46.1672 Y14.5373 
G01 X46.0674 Y14.6746 
G01 X45.9903 Y14.8259 
G01 X45.9379 Y14.9874 
G01 X45.9113 Y15.1551 
G01 X45.9113 Y15.3249 
G01 X45.9379 Y15.4926 
G01 X45.9773 Y15.6141 
G01 X45.1303 Y16.4611 
G01 X42.6489 Y16.4611 
G01 X42.6489 Y16.4524 
G01 X42.6277 Y16.4013 
G01 X42.5887 Y16.3622 
G01 X42.5376 Y16.3411 
G01 X41.2824 Y16.3411 
G01 X41.2313 Y16.3622 
G01 X41.1922 Y16.4013 
G01 X41.1711 Y16.4524 
G01 X41.1711 Y17.1703 
G01 X33.3803 Y24.9611 
G01 X27.9843 Y24.9611 
G01 X27.9399 Y24.8946 
G01 X27.8294 Y24.7841 
G01 X27.6996 Y24.6973 
G01 X27.5553 Y24.6376 
G01 X27.4021 Y24.6071 
G01 X25.9379 Y24.6071 
G01 X25.7847 Y24.6376 
G01 X25.6404 Y24.6973 
G01 X25.5106 Y24.7841 
G01 X25.4001 Y24.8946 
G01 X25.3133 Y25.0244 
G01 X25.2536 Y25.1687 
G01 X25.2231 Y25.3219 
G01 X25.2231 Y25.4781 
G01 X25.2536 Y25.6313 
G01 X25.3133 Y25.7756 
G01 X25.4001 Y25.9054 
G01 X25.5106 Y26.0159 
G01 X25.6404 Y26.1027 
G00 Z2.0000 
G00 X41.2313 Y19.1977 
G01 Z-0.0250 F254.00 
G01 X41.2824 Y19.2189 F508.00 
G01 X42.5376 Y19.2189 
G01 X42.5887 Y19.1977 
G01 X42.6277 Y19.1587 
G01 X42.6489 Y19.1076 
G01 X42.6489 Y19.0389 
G01 X45.1303 Y19.0389 
G01 X45.9927 Y19.9013 
G01 X45.9903 Y19.9059 
G01 X45.9379 Y20.0674 
G01 X45.9113 Y20.2351 
G01 X45.9113 Y20.4049 
G01 X45.9379 Y20.5726 
G01 X45.9903 Y20.7341 
G01 X46.0674 Y20.8854 
G01 X46.1672 Y21.0227 
G01 X46.2873 Y21.1428 
G01 X46.4246 Y21.2426 
G01 X46.5759 Y21.3197 
G01 X46.7374 Y21.3721 
G01 X46.9051 Y21.3987 
G01 X47.0749 Y21.3987 
G01 X47.2426 Y21.3721 
G01 X47.4041 Y21.3197 
G01 X47.5554 Y21.2426 
G01 X47.6927 Y21.1428 
G01 X47.8128 Y21.0227 
G01 X47.9126 Y20.8854 
G01 X47.9897 Y20.7341 
G01 X48.0421 Y20.5726 
G01 X48.0687 Y20.4049 
G01 X48.0687 Y20.2351 
G01 X48.0421 Y20.0674 
G01 X47.9897 Y19.9059 
G01 X47.9126 Y19.7546 
G01 X47.8128 Y19.6173 
G01 X47.6927 Y19.4972 
G01 X47.5554 Y19.3974 
G01 X47.4041 Y19.3203 
G01 X47.2426 Y19.2679 
G01 X47.0749 Y19.2413 
G01 X46.9051 Y19.2413 
G01 X46.7374 Y19.2679 
G01 X46.5759 Y19.3203 
G01 X46.4246 Y19.3974 
G01 X46.3559 Y19.4473 
G01 X45.4274 Y18.5188 
G01 X45.3615 Y18.4808 
G01 X45.2880 Y18.4611 
G01 X42.6489 Y18.4611 
G01 X42.6489 Y18.2524 
G01 X42.6277 Y18.2013 
G01 X42.5887 Y18.1622 
G01 X42.5376 Y18.1411 
G01 X41.2824 Y18.1411 
G01 X41.2313 Y18.1622 
G01 X41.1922 Y18.2013 
G01 X41.1711 Y18.2524 
G01 X41.1711 Y19.1076 
G01 X41.1922 Y19.1587 
G01 X41.2313 Y19.1977 
G00 Z2.0000 
G00 X41.1304 Y48.3566 
G01 Z-0.0250 F254.00 
G01 X41.0006 Y48.2698 F508.00 
G01 X40.8563 Y48.2101 
G01 X40.7031 Y48.1796 
G01 X40.5469 Y48.1796 
G01 X40.3937 Y48.2101 
G01 X40.2494 Y48.2698 
G01 X40.1196 Y48.3566 
G01 X40.0091 Y48.4671 
G01 X39.9223 Y48.5969 
G01 X39.8626 Y48.7412 
G01 X39.8321 Y48.8944 
G01 X39.8321 Y49.0506 
G01 X39.8626 Y49.2038 
G01 X39.9223 Y49.3481 
G01 X40.0091 Y49.4779 
G01 X40.1196 Y49.5884 
G01 X40.2494 Y49.6752 
G01 X40.3937 Y49.7349 
G01 X40.5469 Y49.7654 
G01 X40.7031 Y49.7654 
G01 X40.8563 Y49.7349 
G01 X41.0006 Y49.6752 
G01 X41.1304 Y49.5884 
G01 X41.2409 Y49.4779 
G01 X41.3277 Y49.3481 
G01 X41.3874 Y49.2038 
G01 X41.4179 Y49.0506 
G01 X41.4179 Y48.8944 
G01 X41.3874 Y48.7412 
G01 X41.3277 Y48.5969 
G01 X41.2409 Y48.4671 
G01 X41.1304 Y48.3566 
G00 Z2.0000 
G00 X42.5491 Y48.4671 
G01 Z-0.0250 F254.00 
G01 X42.4623 Y48.5969 F508.00 
G01 X42.4026 Y48.7412 
G01 X42.3721 Y48.8944 
G01 X42.3721 Y49.0506 
G01 X42.4026 Y49.2038 
G01 X42.4623 Y49.3481 
G01 X42.5491 Y49.4779 
G01 X42.6596 Y49.5884 
G01 X42.7894 Y49.6752 
G01 X42.9337 Y49.7349 
G01 X43.0869 Y49.7654 
G01 X43.2431 Y49.7654 
G01 X43.3963 Y49.7349 
G01 X43.5406 Y49.6752 
G01 X43.6704 Y49.5884 
G01 X43.7809 Y49.4779 
G01 X43.8677 Y49.3481 
G01 X43.9274 Y49.2038 
G01 X43.9579 Y49.0506 
G01 X43.9579 Y48.8944 
G01 X43.9274 Y48.7412 
G01 X43.8677 Y48.5969 
G01 X43.7809 Y48.4671 
G01 X43.6704 Y48.3566 
G01 X43.5406 Y48.2698 
G01 X43.3963 Y48.2101 
G01 X43.2431 Y48.1796 
G01 X43.0869 Y48.1796 
G01 X42.9337 Y48.2101 
G01 X42.7894 Y48.2698 
G01 X42.6596 Y48.3566 
G01 X42.5491 Y48.4671 
G00 Z2.0000 
G00 X44.9121 Y48.2909 
G01 Z-0.0250 F254.00 
G01 X44.9121 Y49.6541 F508.00 
G01 X44.9332 Y49.7052 
G01 X44.9723 Y49.7443 
G01 X45.0234 Y49.7654 
G01 X46.3866 Y49.7654 
G01 X46.4377 Y49.7443 
G01 X46.4768 Y49.7052 
G01 X46.4979 Y49.6541 
G01 X46.4979 Y48.2909 
G01 X46.4768 Y48.2398 
G01 X46.4377 Y48.2007 
G01 X46.3866 Y48.1796 
G01 X45.0234 Y48.1796 
G01 X44.9723 Y48.2007 
G01 X44.9332 Y48.2398 
G01 X44.9121 Y48.2909 
G00 Z2.0000 
G00 X29.8887 Y59.1922 
G01 Z-0.0250 F254.00 
G01 X29.8376 Y59.1711 F508.00 
G01 X28.5824 Y59.1711 
G01 X28.5313 Y59.1922 
G01 X28.4922 Y59.2313 
G01 X28.4711 Y59.2824 
G01 X28.4711 Y59.4611 
G01 X25.5689 Y59.4611 
G01 X25.5689 Y59.0624 
G01 X25.5478 Y59.0113 
G01 X25.5087 Y58.9722 
G01 X25.4576 Y58.9511 
G01 X24.6024 Y58.9511 
G01 X24.5513 Y58.9722 
G01 X24.5122 Y59.0113 
G01 X24.4911 Y59.0624 
G01 X24.4911 Y60.3176 
G01 X24.5122 Y60.3687 
G01 X24.5513 Y60.4078 
G01 X24.6024 Y60.4289 
G01 X25.4576 Y60.4289 
G01 X25.5087 Y60.4078 
G01 X25.5478 Y60.3687 
G01 X25.5689 Y60.3176 
G01 X25.5689 Y60.0389 
G01 X28.4711 Y60.0389 
G01 X28.4711 Y60.5376 
G01 X28.4922 Y60.5887 
G01 X28.5313 Y60.6277 
G01 X28.5824 Y60.6489 
G01 X29.8376 Y60.6489 
G01 X29.8887 Y60.6277 
G01 X29.9277 Y60.5887 
G01 X29.9489 Y60.5376 
G01 X29.9489 Y59.2824 
G01 X29.9277 Y59.2313 
G01 X29.8887 Y59.1922 
G00 Z2.0000 
G00 X29.9685 Y67.8663 
G01 Z-0.0250 F254.00 
G01 X29.9474 Y67.9174 F508.00 
G01 X29.9474 Y71.7826 
G01 X29.9685 Y71.8337 
G01 X30.0076 Y71.8727 
G01 X30.0587 Y71.8939 
G01 X32.1205 Y71.8939 
G01 X32.1716 Y71.8727 
G01 X32.2107 Y71.8337 
G01 X32.2318 Y71.7826 
G01 X32.2318 Y67.9174 
G01 X32.2107 Y67.8663 
G01 X32.1716 Y67.8272 
G01 X32.1205 Y67.8061 
G01 X30.0587 Y67.8061 
G01 X30.0076 Y67.8272 
G01 X29.9685 Y67.8663 
G00 Z2.0000 
G00 X25.9326 Y68.3155 
G01 Z-0.0250 F254.00 
G01 X25.9326 Y66.7617 F508.00 
G01 X25.9114 Y66.7106 
G01 X25.8724 Y66.6715 
G01 X25.8213 Y66.6504 
G01 X24.3090 Y66.6504 
G01 X21.2989 Y63.6403 
G01 X21.2989 Y61.8724 
G01 X21.2778 Y61.8213 
G01 X21.2387 Y61.7822 
G01 X21.1876 Y61.7611 
G01 X19.3524 Y61.7611 
G01 X19.3013 Y61.7822 
G01 X19.2622 Y61.8213 
G01 X19.2411 Y61.8724 
G01 X19.2411 Y65.1276 
G01 X19.2622 Y65.1787 
G01 X19.3013 Y65.2177 
G01 X19.3524 Y65.2389 
G01 X21.1876 Y65.2389 
G01 X21.2387 Y65.2177 
G01 X21.2778 Y65.1787 
G01 X21.2989 Y65.1276 
G01 X21.2989 Y64.4575 
G01 X23.6482 Y66.8068 
G01 X23.6482 Y68.3155 
G01 X23.6693 Y68.3666 
G01 X23.7084 Y68.4056 
G01 X23.7595 Y68.4268 
G01 X25.8213 Y68.4268 
G01 X25.8724 Y68.4056 
G01 X25.9114 Y68.3666 
G01 X25.9326 Y68.3155 
G00 Z2.0000 
G00 X17.2127 Y70.2972 
G01 Z-0.0250 F254.00 
G01 X17.0754 Y70.1974 F508.00 
G01 X16.9241 Y70.1203 
G01 X16.7626 Y70.0679 
G01 X16.5949 Y70.0413 
G01 X16.4251 Y70.0413 
G01 X16.2574 Y70.0679 
G01 X16.0959 Y70.1203 
G01 X15.9446 Y70.1974 
G01 X15.8073 Y70.2972 
G01 X15.6872 Y70.4173 
G01 X15.5874 Y70.5546 
G01 X15.5103 Y70.7059 
G01 X15.4579 Y70.8674 
G01 X15.4313 Y71.0351 
G01 X15.4313 Y71.2049 
G01 X15.4579 Y71.3726 
G01 X15.5103 Y71.5341 
G01 X15.5874 Y71.6854 
G01 X15.6872 Y71.8227 
G01 X15.8073 Y71.9428 
G01 X15.9446 Y72.0426 
G01 X16.0959 Y72.1197 
G01 X16.2574 Y72.1721 
G01 X16.4251 Y72.1987 
G01 X16.5949 Y72.1987 
G01 X16.7626 Y72.1721 
G01 X16.9241 Y72.1197 
G01 X17.0754 Y72.0426 
G01 X17.2127 Y71.9428 
G01 X17.3328 Y71.8227 
G01 X17.4326 Y71.6854 
G01 X17.5097 Y71.5341 
G01 X17.5621 Y71.3726 
G01 X17.5887 Y71.2049 
G01 X17.5887 Y71.0351 
G01 X17.5621 Y70.8674 
G01 X17.5097 Y70.7059 
G01 X17.4326 Y70.5546 
G01 X17.3328 Y70.4173 
G01 X17.2127 Y70.2972 
G00 Z2.0000 
G00 X14.6727 Y70.2972 
G01 Z-0.0250 F254.00 
G01 X14.5354 Y70.1974 F508.00 
G01 X14.3841 Y70.1203 
G01 X14.2226 Y70.0679 
G01 X14.0549 Y70.0413 
G01 X13.8851 Y70.0413 
G01 X13.7174 Y70.0679 
G01 X13.5559 Y70.1203 
G01 X13.4046 Y70.1974 
G01 X13.2673 Y70.2972 
G01 X13.1472 Y70.4173 
G01 X13.0474 Y70.5546 
G01 X12.9703 Y70.7059 
G01 X12.9179 Y70.8674 
G01 X12.8913 Y71.0351 
G01 X12.8913 Y71.2049 
G01 X12.9179 Y71.3726 
G01 X12.9703 Y71.5341 
G01 X12.9997 Y71.5917 
G01 X12.3803 Y72.2111 
G01 X10.8697 Y72.2111 
G01 X9.6774 Y71.0188 
G01 X9.6115 Y70.9808 
G01 X9.5380 Y70.9611 
G01 X7.2369 Y70.9611 
G01 X7.2163 Y70.8572 
G01 X7.1484 Y70.6933 
G01 X7.0498 Y70.5457 
G01 X6.9243 Y70.4202 
G01 X6.7767 Y70.3216 
G01 X6.6128 Y70.2537 
G01 X6.4387 Y70.2191 
G01 X6.2613 Y70.2191 
G01 X6.0872 Y70.2537 
G01 X5.9233 Y70.3216 
G01 X5.7757 Y70.4202 
G01 X5.6502 Y70.5457 
G01 X5.5516 Y70.6933 
G01 X5.4837 Y70.8572 
G01 X5.4491 Y71.0313 
G01 X5.4491 Y71.2087 
G01 X5.4837 Y71.3828 
G01 X5.5516 Y71.5467 
G01 X5.6502 Y71.6943 
G01 X5.7757 Y71.8198 
G01 X5.9233 Y71.9184 
G01 X6.0872 Y71.9863 
G01 X6.2613 Y72.0209 
G01 X6.4387 Y72.0209 
G01 X6.6128 Y71.9863 
G01 X6.7767 Y71.9184 
G01 X6.9243 Y71.8198 
G01 X7.0498 Y71.6943 
G01 X7.1484 Y71.5467 
G01 X7.1516 Y71.5389 
G01 X9.3803 Y71.5389 
G01 X10.5726 Y72.7312 
G01 X10.6385 Y72.7692 
G01 X10.7120 Y72.7889 
G01 X12.5380 Y72.7889 
G01 X12.6115 Y72.7692 
G01 X12.6774 Y72.7312 
G01 X13.3822 Y72.0263 
G01 X13.4046 Y72.0426 
G01 X13.5559 Y72.1197 
G01 X13.7174 Y72.1721 
G01 X13.8851 Y72.1987 
G01 X14.0549 Y72.1987 
G01 X14.2226 Y72.1721 
G01 X14.3841 Y72.1197 
G01 X14.5354 Y72.0426 
G01 X14.6727 Y71.9428 
G01 X14.7928 Y71.8227 
G01 X14.8926 Y71.6854 
G01 X14.9697 Y71.5341 
G01 X15.0221 Y71.3726 
G01 X15.0487 Y71.2049 
G01 X15.0487 Y71.0351 
G01 X15.0221 Y70.8674 
G01 X14.9697 Y70.7059 
G01 X14.8926 Y70.5546 
G01 X14.7928 Y70.4173 
G01 X14.6727 Y70.2972 
G00 Z2.0000 
G00 X12.1327 Y70.2972 
G01 Z-0.0250 F254.00 
G01 X11.9954 Y70.1974 F508.00 
G01 X11.8441 Y70.1203 
G01 X11.7889 Y70.1024 
G01 X11.7889 Y68.9639 
G01 X12.1926 Y68.9639 
G01 X12.2437 Y68.9428 
G01 X12.2828 Y68.9037 
G01 X12.3039 Y68.8526 
G01 X12.3039 Y67.5274 
G01 X12.2828 Y67.4763 
G01 X12.2437 Y67.4372 
G01 X12.1926 Y67.4161 
G01 X10.6674 Y67.4161 
G01 X10.6163 Y67.4372 
G01 X10.5772 Y67.4763 
G01 X10.5561 Y67.5274 
G01 X10.5561 Y68.8526 
G01 X10.5772 Y68.9037 
G01 X10.6163 Y68.9428 
G01 X10.6674 Y68.9639 
G01 X11.2111 Y68.9639 
G01 X11.2111 Y70.0625 
G01 X11.1774 Y70.0679 
G01 X11.0159 Y70.1203 
G01 X10.8646 Y70.1974 
G01 X10.7273 Y70.2972 
G01 X10.6072 Y70.4173 
G01 X10.5074 Y70.5546 
G01 X10.4303 Y70.7059 
G01 X10.3779 Y70.8674 
G01 X10.3513 Y71.0351 
G01 X10.3513 Y71.2049 
G01 X10.3779 Y71.3726 
G01 X10.4303 Y71.5341 
G01 X10.5074 Y71.6854 
G01 X10.6072 Y71.8227 
G01 X10.7273 Y71.9428 
G01 X10.8646 Y72.0426 
G01 X11.0159 Y72.1197 
G01 X11.1774 Y72.1721 
G01 X11.3451 Y72.1987 
G01 X11.5149 Y72.1987 
G01 X11.6826 Y72.1721 
G01 X11.8441 Y72.1197 
G01 X11.9954 Y72.0426 
G01 X12.1327 Y71.9428 
G01 X12.2528 Y71.8227 
G01 X12.3526 Y71.6854 
G01 X12.4297 Y71.5341 
G01 X12.4821 Y71.3726 
G01 X12.5087 Y71.2049 
G01 X12.5087 Y71.0351 
G01 X12.4821 Y70.8674 
G01 X12.4297 Y70.7059 
G01 X12.3526 Y70.5546 
G01 X12.2528 Y70.4173 
G01 X12.1327 Y70.2972 
G00 Z2.0000 
G00 X11.9225 Y1.9020 
G01 Z-0.0250 F254.00 
G01 X11.8130 Y2.0659 F508.00 
G01 X11.7376 Y2.2480 
G01 X11.6991 Y2.4414 
G01 X11.6991 Y2.6386 
G01 X11.7376 Y2.8319 
G01 X11.7853 Y2.9472 
G01 X6.4572 Y8.2753 
G01 X6.4090 Y8.3588 
G01 X6.3841 Y8.4518 
G01 X6.3841 Y9.1861 
G01 X6.0575 Y9.1861 
G01 X5.9697 Y9.2225 
G01 X5.9025 Y9.2897 
G01 X5.8661 Y9.3775 
G01 X5.8661 Y10.9425 
G01 X5.9025 Y11.0303 
G01 X5.9697 Y11.0975 
G01 X6.0575 Y11.1339 
G01 X6.3841 Y11.1339 
G01 X6.3841 Y62.6611 
G01 X5.5325 Y62.6611 
G01 X5.4447 Y62.6975 
G01 X5.3775 Y62.7647 
G01 X5.3411 Y62.8525 
G01 X5.3411 Y64.1475 
G01 X5.3775 Y64.2353 
G01 X5.4447 Y64.3025 
G01 X5.5325 Y64.3389 
G01 X6.4275 Y64.3389 
G01 X6.5153 Y64.3025 
G01 X6.5825 Y64.2353 
G01 X6.6189 Y64.1475 
G01 X6.6189 Y63.8659 
G01 X10.4561 Y63.8659 
G01 X10.4561 Y64.5725 
G01 X10.4925 Y64.6603 
G01 X10.5597 Y64.7275 
G01 X10.6475 Y64.7639 
G01 X12.2125 Y64.7639 
G01 X12.3003 Y64.7275 
G01 X12.3675 Y64.6603 
G01 X12.4039 Y64.5725 
G01 X12.4039 Y63.8659 
G01 X14.1611 Y63.8659 
G01 X14.1611 Y65.1475 
G01 X14.1975 Y65.2353 
G01 X14.2647 Y65.3025 
G01 X14.3525 Y65.3389 
G01 X16.2275 Y65.3389 
G01 X16.3153 Y65.3025 
G01 X16.3825 Y65.2353 
G01 X16.4189 Y65.1475 
G01 X16.4189 Y61.8525 
G01 X16.3825 Y61.7647 
G01 X16.3153 Y61.6975 
G01 X16.2275 Y61.6611 
G01 X14.3525 Y61.6611 
G01 X14.2647 Y61.6975 
G01 X14.1975 Y61.7647 
G01 X14.1611 Y61.8525 
G01 X14.1611 Y63.1341 
G01 X12.3735 Y63.1341 
G01 X12.3675 Y63.1197 
G01 X12.3003 Y63.0525 
G01 X12.2125 Y63.0161 
G01 X10.6475 Y63.0161 
G01 X10.5597 Y63.0525 
G01 X10.4925 Y63.1197 
G01 X10.4865 Y63.1341 
G01 X7.1159 Y63.1341 
G01 X7.1159 Y11.1339 
G01 X7.4225 Y11.1339 
G01 X7.5103 Y11.0975 
G01 X7.5775 Y11.0303 
G01 X7.6139 Y10.9425 
G01 X7.6139 Y9.3775 
G01 X7.5775 Y9.2897 
G01 X7.5103 Y9.2225 
G01 X7.4225 Y9.1861 
G01 X7.1159 Y9.1861 
G01 X7.1159 Y8.6516 
G01 X8.6111 Y7.1564 
G01 X8.6111 Y13.7011 
G01 X8.2425 Y13.7011 
G01 X8.1547 Y13.7375 
G01 X8.0875 Y13.8047 
G01 X8.0511 Y13.8925 
G01 X8.0511 Y14.7875 
G01 X8.0875 Y14.8753 
G01 X8.1547 Y14.9425 
G01 X8.2425 Y14.9789 
G01 X9.5375 Y14.9789 
G01 X9.6253 Y14.9425 
G01 X9.6925 Y14.8753 
G01 X9.7289 Y14.7875 
G01 X9.7289 Y13.8925 
G01 X9.6925 Y13.8047 
G01 X9.6253 Y13.7375 
G01 X9.5375 Y13.7011 
G01 X9.3889 Y13.7011 
G01 X9.3889 Y7.1611 
G01 X11.7315 Y4.8185 
G01 X11.6991 Y4.9814 
G01 X11.6991 Y5.1786 
G01 X11.7376 Y5.3720 
G01 X11.8130 Y5.5541 
G01 X11.9225 Y5.7180 
G01 X12.0620 Y5.8574 
G01 X12.2259 Y5.9670 
G01 X12.3611 Y6.0230 
G01 X12.3611 Y9.8611 
G01 X11.9139 Y9.8611 
G01 X11.9139 Y9.3775 
G01 X11.8775 Y9.2897 
G01 X11.8103 Y9.2225 
G01 X11.7225 Y9.1861 
G01 X10.3575 Y9.1861 
G01 X10.2697 Y9.2225 
G01 X10.2025 Y9.2897 
G01 X10.1661 Y9.3775 
G01 X10.1661 Y10.9425 
G01 X10.2025 Y11.0303 
G01 X10.2697 Y11.0975 
G01 X10.3575 Y11.1339 
G01 X11.7225 Y11.1339 
G01 X11.8103 Y11.0975 
G01 X11.8775 Y11.0303 
G01 X11.9139 Y10.9425 
G01 X11.9139 Y10.6389 
G01 X15.7411 Y10.6389 
G01 X15.7411 Y10.7075 
G01 X15.7775 Y10.7953 
G01 X15.8447 Y10.8625 
G01 X15.9325 Y10.8989 
G01 X17.4275 Y10.8989 
G01 X17.5153 Y10.8625 
G01 X17.5825 Y10.7953 
G01 X17.6189 Y10.7075 
G01 X17.6189 Y9.6125 
G01 X17.5825 Y9.5247 
G01 X17.5153 Y9.4575 
G01 X17.4275 Y9.4211 
G01 X15.9325 Y9.4211 
G01 X15.8447 Y9.4575 
G01 X15.7775 Y9.5247 
G01 X15.7411 Y9.6125 
G01 X15.7411 Y9.8611 
G01 X13.1389 Y9.8611 
G01 X13.1389 Y5.9816 
G01 X13.1741 Y5.9670 
G01 X13.3380 Y5.8574 
G01 X13.4774 Y5.7180 
G01 X13.5870 Y5.5541 
G01 X13.6624 Y5.3720 
G01 X13.7009 Y5.1786 
G01 X13.7009 Y4.9814 
G01 X13.6624 Y4.7880 
G01 X13.5870 Y4.6059 
G01 X13.4774 Y4.4420 
G01 X13.3380 Y4.3026 
G01 X13.1741 Y4.1930 
G01 X13.0435 Y4.1389 
G01 X13.3389 Y4.1389 
G01 X17.9411 Y8.7411 
G01 X17.9411 Y9.7575 
G01 X17.9775 Y9.8453 
G01 X18.0447 Y9.9125 
G01 X18.1325 Y9.9489 
G01 X19.6275 Y9.9489 
G01 X19.7153 Y9.9125 
G01 X19.7825 Y9.8453 
G01 X19.8189 Y9.7575 
G01 X19.8189 Y8.8179 
G01 X19.8588 Y8.8410 
G01 X19.9518 Y8.8659 
G01 X22.8841 Y8.8659 
G01 X22.8841 Y9.1861 
G01 X22.5675 Y9.1861 
G01 X22.4797 Y9.2225 
G01 X22.4125 Y9.2897 
G01 X22.3761 Y9.3775 
G01 X22.3761 Y10.9425 
G01 X22.4125 Y11.0303 
G01 X22.4797 Y11.0975 
G01 X22.5675 Y11.1339 
G01 X23.9325 Y11.1339 
G01 X24.0203 Y11.0975 
G01 X24.0875 Y11.0303 
G01 X24.1239 Y10.9425 
G01 X24.1239 Y9.3775 
G01 X24.0875 Y9.2897 
G01 X24.0203 Y9.2225 
G01 X23.9325 Y9.1861 
G01 X23.6159 Y9.1861 
G01 X23.6159 Y8.6516 
G01 X25.1111 Y7.1564 
G01 X25.1111 Y13.7011 
G01 X24.7525 Y13.7011 
G01 X24.6647 Y13.7375 
G01 X24.5975 Y13.8047 
G01 X24.5611 Y13.8925 
G01 X24.5611 Y14.7611 
G01 X20.7388 Y10.9388 
G01 X20.6501 Y10.8876 
G01 X20.5512 Y10.8611 
G01 X19.8189 Y10.8611 
G01 X19.8189 Y10.5625 
G01 X19.7825 Y10.4747 
G01 X19.7153 Y10.4075 
G01 X19.6275 Y10.3711 
G01 X18.1325 Y10.3711 
G01 X18.0447 Y10.4075 
G01 X17.9775 Y10.4747 
G01 X17.9411 Y10.5625 
G01 X17.9411 Y11.6575 
G01 X17.9775 Y11.7453 
G01 X18.0447 Y11.8125 
G01 X18.1325 Y11.8489 
G01 X19.6275 Y11.8489 
G01 X19.7153 Y11.8125 
G01 X19.7825 Y11.7453 
G01 X19.8189 Y11.6575 
G01 X19.8189 Y11.6389 
G01 X20.3389 Y11.6389 
G01 X24.1888 Y15.4888 
G01 X24.2612 Y15.5612 
G01 X24.3499 Y15.6124 
G01 X24.4488 Y15.6389 
G01 X24.5833 Y15.6389 
G01 X24.5611 Y15.6925 
G01 X24.5611 Y16.5875 
G01 X24.5975 Y16.6753 
G01 X24.6647 Y16.7425 
G01 X24.7525 Y16.7789 
G01 X25.1111 Y16.7789 
G01 X25.1111 Y21.8012 
G01 X25.1376 Y21.9001 
G01 X25.1888 Y21.9888 
G01 X25.4066 Y22.2066 
G01 X25.3224 Y22.2908 
G01 X25.2247 Y22.4371 
G01 X25.1574 Y22.5996 
G01 X25.1231 Y22.7721 
G01 X25.1231 Y22.9479 
G01 X25.1574 Y23.1204 
G01 X25.2247 Y23.2829 
G01 X25.3224 Y23.4292 
G01 X25.4468 Y23.5536 
G01 X25.5931 Y23.6513 
G01 X25.7555 Y23.7186 
G01 X25.9281 Y23.7529 
G01 X27.4119 Y23.7529 
G01 X27.5844 Y23.7186 
G01 X27.7469 Y23.6513 
G01 X27.8932 Y23.5536 
G01 X28.0176 Y23.4292 
G01 X28.1153 Y23.2829 
G01 X28.1826 Y23.1204 
G01 X28.2169 Y22.9479 
G01 X28.2169 Y22.7721 
G01 X28.1826 Y22.5996 
G01 X28.1153 Y22.4371 
G01 X28.0176 Y22.2908 
G01 X27.8932 Y22.1664 
G01 X27.7469 Y22.0687 
G01 X27.5844 Y22.0014 
G01 X27.4119 Y21.9671 
G01 X26.2671 Y21.9671 
G01 X25.8889 Y21.5889 
G01 X25.8889 Y16.7789 
G01 X26.0475 Y16.7789 
G01 X26.1353 Y16.7425 
G01 X26.2025 Y16.6753 
G01 X26.2389 Y16.5875 
G01 X26.2389 Y15.6925 
G01 X26.2167 Y15.6389 
G01 X31.3012 Y15.6389 
G01 X31.4001 Y15.6124 
G01 X31.4888 Y15.5612 
G01 X35.2011 Y11.8489 
G01 X36.1375 Y11.8489 
G01 X36.2253 Y11.8125 
G01 X36.2925 Y11.7453 
G01 X36.3289 Y11.6575 
G01 X36.3289 Y11.6389 
G01 X44.8389 Y11.6389 
G01 X47.3021 Y14.1020 
G01 X47.2660 Y14.0903 
G01 X47.0828 Y14.0613 
G01 X46.8972 Y14.0613 
G01 X46.7140 Y14.0903 
G01 X46.5375 Y14.1477 
G01 X46.3722 Y14.2319 
G01 X46.2221 Y14.3409 
G01 X46.0909 Y14.4721 
G01 X45.9819 Y14.6222 
G01 X45.8977 Y14.7875 
G01 X45.8403 Y14.9640 
G01 X45.8113 Y15.1472 
G01 X45.8113 Y15.3328 
G01 X45.8403 Y15.5160 
G01 X45.8633 Y15.5867 
G01 X45.0889 Y16.3611 
G01 X42.7193 Y16.3611 
G01 X42.7125 Y16.3447 
G01 X42.6453 Y16.2775 
G01 X42.5575 Y16.2411 
G01 X41.2625 Y16.2411 
G01 X41.1747 Y16.2775 
G01 X41.1075 Y16.3447 
G01 X41.0711 Y16.4325 
G01 X41.0711 Y17.1289 
G01 X33.3389 Y24.8611 
G01 X28.0378 Y24.8611 
G01 X28.0176 Y24.8308 
G01 X27.8932 Y24.7064 
G01 X27.7469 Y24.6087 
G01 X27.5844 Y24.5414 
G01 X27.4119 Y24.5071 
G01 X25.9281 Y24.5071 
G01 X25.7555 Y24.5414 
G01 X25.5931 Y24.6087 
G01 X25.4468 Y24.7064 
G01 X25.3224 Y24.8308 
G01 X25.2247 Y24.9771 
G01 X25.1574 Y25.1395 
G01 X25.1231 Y25.3121 
G01 X25.1231 Y25.4879 
G01 X25.1574 Y25.6604 
G01 X25.2247 Y25.8229 
G01 X25.3224 Y25.9692 
G01 X25.4468 Y26.0936 
G01 X25.5931 Y26.1913 
G01 X25.7555 Y26.2586 
G01 X25.9281 Y26.2929 
G01 X27.4119 Y26.2929 
G01 X27.5844 Y26.2586 
G01 X27.7469 Y26.1913 
G01 X27.8932 Y26.0936 
G01 X28.0176 Y25.9692 
G01 X28.1153 Y25.8229 
G01 X28.1826 Y25.6604 
G01 X28.1869 Y25.6389 
G01 X33.5512 Y25.6389 
G01 X33.6501 Y25.6124 
G01 X33.7388 Y25.5612 
G01 X41.0736 Y18.2263 
G01 X41.0711 Y18.2325 
G01 X41.0711 Y19.1275 
G01 X41.1075 Y19.2153 
G01 X41.1747 Y19.2825 
G01 X41.2625 Y19.3189 
G01 X42.5575 Y19.3189 
G01 X42.6453 Y19.2825 
G01 X42.7125 Y19.2153 
G01 X42.7442 Y19.1389 
G01 X45.0889 Y19.1389 
G01 X45.8780 Y19.9280 
G01 X45.8403 Y20.0440 
G01 X45.8113 Y20.2272 
G01 X45.8113 Y20.4128 
G01 X45.8403 Y20.5960 
G01 X45.8977 Y20.7725 
G01 X45.9819 Y20.9378 
G01 X46.0909 Y21.0879 
G01 X46.2221 Y21.2191 
G01 X46.3722 Y21.3281 
G01 X46.5375 Y21.4123 
G01 X46.7140 Y21.4697 
G01 X46.8972 Y21.4987 
G01 X47.0828 Y21.4987 
G01 X47.2660 Y21.4697 
G01 X47.4425 Y21.4123 
G01 X47.6078 Y21.3281 
G01 X47.7579 Y21.2191 
G01 X47.8891 Y21.0879 
G01 X47.9981 Y20.9378 
G01 X48.0823 Y20.7725 
G01 X48.1111 Y20.6839 
G01 X48.1111 Y29.3389 
G01 X47.9535 Y29.4965 
G01 X47.9909 Y29.3086 
G01 X47.9909 Y29.1114 
G01 X47.9524 Y28.9180 
G01 X47.8770 Y28.7359 
G01 X47.7674 Y28.5720 
G01 X47.6280 Y28.4325 
G01 X47.4641 Y28.3230 
G01 X47.2820 Y28.2476 
G01 X47.0886 Y28.2091 
G01 X46.8914 Y28.2091 
G01 X46.6980 Y28.2476 
G01 X46.5159 Y28.3230 
G01 X46.3520 Y28.4325 
G01 X46.2126 Y28.5720 
G01 X46.1864 Y28.6111 
G01 X46.1611 Y28.6111 
G01 X43.3112 Y25.7612 
G01 X43.2388 Y25.6888 
G01 X43.1501 Y25.6376 
G01 X43.0512 Y25.6111 
G01 X42.7489 Y25.6111 
G01 X42.7489 Y25.3225 
G01 X42.7125 Y25.2347 
G01 X42.6453 Y25.1675 
G01 X42.5575 Y25.1311 
G01 X41.2625 Y25.1311 
G01 X41.1747 Y25.1675 
G01 X41.1075 Y25.2347 
G01 X41.0711 Y25.3225 
G01 X41.0711 Y25.6111 
G01 X38.1988 Y25.6111 
G01 X38.0999 Y25.6376 
G01 X38.0112 Y25.6888 
G01 X38.0039 Y25.6961 
G01 X37.0275 Y25.6961 
G01 X36.9397 Y25.7325 
G01 X36.8725 Y25.7997 
G01 X36.8361 Y25.8875 
G01 X36.8361 Y27.4525 
G01 X36.8725 Y27.5403 
G01 X36.9397 Y27.6075 
G01 X37.0275 Y27.6439 
G01 X37.1111 Y27.6439 
G01 X37.1111 Y32.0889 
G01 X34.2839 Y34.9161 
G01 X34.2839 Y33.5075 
G01 X34.2475 Y33.4197 
G01 X34.1803 Y33.3525 
G01 X34.0925 Y33.3161 
G01 X32.7275 Y33.3161 
G01 X32.6397 Y33.3525 
G01 X32.5725 Y33.4197 
G01 X32.5361 Y33.5075 
G01 X32.5361 Y33.8611 
G01 X30.4111 Y33.8611 
G01 X28.0612 Y31.5112 
G01 X27.9888 Y31.4388 
G01 X27.9001 Y31.3876 
G01 X27.8012 Y31.3611 
G01 X27.4712 Y31.3611 
G01 X27.5844 Y31.3386 
G01 X27.7469 Y31.2713 
G01 X27.8932 Y31.1736 
G01 X28.0176 Y31.0492 
G01 X28.1153 Y30.9029 
G01 X28.1826 Y30.7404 
G01 X28.2169 Y30.5679 
G01 X28.2169 Y30.3921 
G01 X28.1826 Y30.2196 
G01 X28.1153 Y30.0571 
G01 X28.0176 Y29.9108 
G01 X27.8932 Y29.7864 
G01 X27.8155 Y29.7345 
G01 X30.4111 Y27.1389 
G01 X32.5361 Y27.1389 
G01 X32.5361 Y27.4525 
G01 X32.5725 Y27.5403 
G01 X32.6397 Y27.6075 
G01 X32.7275 Y27.6439 
G01 X34.0925 Y27.6439 
G01 X34.1803 Y27.6075 
G01 X34.2475 Y27.5403 
G01 X34.2839 Y27.4525 
G01 X34.2839 Y25.8875 
G01 X34.2475 Y25.7997 
G01 X34.1803 Y25.7325 
G01 X34.0925 Y25.6961 
G01 X32.7275 Y25.6961 
G01 X32.6397 Y25.7325 
G01 X32.5725 Y25.7997 
G01 X32.5361 Y25.8875 
G01 X32.5361 Y26.3611 
G01 X30.1988 Y26.3611 
G01 X30.0999 Y26.3876 
G01 X30.0112 Y26.4388 
G01 X28.1352 Y28.3148 
G01 X28.1826 Y28.2004 
G01 X28.2169 Y28.0279 
G01 X28.2169 Y27.8521 
G01 X28.1826 Y27.6795 
G01 X28.1153 Y27.5171 
G01 X28.0176 Y27.3708 
G01 X27.8932 Y27.2464 
G01 X27.7469 Y27.1487 
G01 X27.5844 Y27.0814 
G01 X27.4119 Y27.0471 
G01 X25.9281 Y27.0471 
G01 X25.7555 Y27.0814 
G01 X25.5931 Y27.1487 
G01 X25.4468 Y27.2464 
G01 X25.3224 Y27.3708 
G01 X25.2247 Y27.5171 
G01 X25.1574 Y27.6795 
G01 X25.1231 Y27.8521 
G01 X25.1231 Y28.0279 
G01 X25.1574 Y28.2004 
G01 X25.2247 Y28.3629 
G01 X25.3224 Y28.5092 
G01 X25.3816 Y28.5684 
G01 X24.4388 Y29.5112 
G01 X24.3876 Y29.5999 
G01 X24.3611 Y29.6988 
G01 X24.3611 Y30.8012 
G01 X24.3876 Y30.9001 
G01 X24.4388 Y30.9888 
G01 X24.5112 Y31.0612 
G01 X25.5112 Y32.0612 
G01 X25.5999 Y32.1124 
G01 X25.6988 Y32.1389 
G01 X25.8688 Y32.1389 
G01 X25.7555 Y32.1614 
G01 X25.5931 Y32.2287 
G01 X25.4468 Y32.3264 
G01 X25.3224 Y32.4508 
G01 X25.2247 Y32.5971 
G01 X25.1574 Y32.7595 
G01 X25.1231 Y32.9321 
G01 X25.1231 Y33.1079 
G01 X25.1574 Y33.2804 
G01 X25.2247 Y33.4429 
G01 X25.3224 Y33.5892 
G01 X25.4468 Y33.7136 
G01 X25.5931 Y33.8113 
G01 X25.7555 Y33.8786 
G01 X25.9281 Y33.9129 
G01 X27.4119 Y33.9129 
G01 X27.5844 Y33.8786 
G01 X27.7469 Y33.8113 
G01 X27.8932 Y33.7136 
G01 X28.0176 Y33.5892 
G01 X28.1153 Y33.4429 
G01 X28.1826 Y33.2804 
G01 X28.2169 Y33.1079 
G01 X28.2169 Y32.9321 
G01 X28.1826 Y32.7595 
G01 X28.1635 Y32.7135 
G01 X30.0112 Y34.5612 
G01 X30.0999 Y34.6124 
G01 X30.1988 Y34.6389 
G01 X32.5361 Y34.6389 
G01 X32.5361 Y35.0725 
G01 X32.5725 Y35.1603 
G01 X32.6397 Y35.2275 
G01 X32.7275 Y35.2639 
G01 X33.9361 Y35.2639 
G01 X31.5889 Y37.6111 
G01 X28.0712 Y37.6111 
G01 X28.0176 Y37.5308 
G01 X27.8932 Y37.4064 
G01 X27.7469 Y37.3087 
G01 X27.5844 Y37.2414 
G01 X27.4119 Y37.2071 
G01 X25.9281 Y37.2071 
G01 X25.7555 Y37.2414 
G01 X25.5931 Y37.3087 
G01 X25.4468 Y37.4064 
G01 X25.3224 Y37.5308 
G01 X25.2247 Y37.6771 
G01 X25.1574 Y37.8396 
G01 X25.1231 Y38.0121 
G01 X25.1231 Y38.1879 
G01 X25.1574 Y38.3604 
G01 X25.2247 Y38.5229 
G01 X25.3224 Y38.6692 
G01 X25.4468 Y38.7936 
G01 X25.5931 Y38.8913 
G01 X25.7555 Y38.9586 
G01 X25.9281 Y38.9929 
G01 X27.4119 Y38.9929 
G01 X27.5844 Y38.9586 
G01 X27.7469 Y38.8913 
G01 X27.8932 Y38.7936 
G01 X28.0176 Y38.6692 
G01 X28.1153 Y38.5229 
G01 X28.1708 Y38.3889 
G01 X31.8012 Y38.3889 
G01 X31.9001 Y38.3624 
G01 X31.9888 Y38.3112 
G01 X36.8669 Y33.4331 
G01 X36.8361 Y33.5075 
G01 X36.8361 Y34.6139 
G01 X31.3389 Y40.1111 
G01 X28.0445 Y40.1111 
G01 X28.0176 Y40.0708 
G01 X27.8932 Y39.9464 
G01 X27.7469 Y39.8487 
G01 X27.5844 Y39.7814 
G01 X27.4119 Y39.7471 
G01 X25.9281 Y39.7471 
G01 X25.7555 Y39.7814 
G01 X25.5931 Y39.8487 
G01 X25.4468 Y39.9464 
G01 X25.3224 Y40.0708 
G01 X25.2247 Y40.2171 
G01 X25.1574 Y40.3796 
G01 X25.1231 Y40.5521 
G01 X25.1231 Y40.7279 
G01 X25.1574 Y40.9004 
G01 X25.2247 Y41.0629 
G01 X25.3224 Y41.2092 
G01 X25.4468 Y41.3336 
G01 X25.5931 Y41.4313 
G01 X25.7555 Y41.4986 
G01 X25.9281 Y41.5329 
G01 X27.4119 Y41.5329 
G01 X27.5844 Y41.4986 
G01 X27.7469 Y41.4313 
G01 X27.8932 Y41.3336 
G01 X28.0176 Y41.2092 
G01 X28.1153 Y41.0629 
G01 X28.1826 Y40.9004 
G01 X28.1849 Y40.8889 
G01 X31.5512 Y40.8889 
G01 X31.6501 Y40.8624 
G01 X31.7388 Y40.8112 
G01 X37.2861 Y35.2639 
G01 X38.3925 Y35.2639 
G01 X38.4803 Y35.2275 
G01 X38.5475 Y35.1603 
G01 X38.5839 Y35.0725 
G01 X38.5839 Y33.9661 
G01 X38.6611 Y33.8889 
G01 X41.0924 Y33.8889 
G01 X41.1075 Y33.9253 
G01 X41.1747 Y33.9925 
G01 X41.2625 Y34.0289 
G01 X42.5575 Y34.0289 
G01 X42.6453 Y33.9925 
G01 X42.7125 Y33.9253 
G01 X42.7489 Y33.8375 
G01 X42.7489 Y33.0511 
G01 X43.6611 Y32.1389 
G01 X46.0677 Y32.1389 
G01 X46.1030 Y32.2241 
G01 X46.2126 Y32.3880 
G01 X46.3520 Y32.5274 
G01 X46.5159 Y32.6370 
G01 X46.6980 Y32.7124 
G01 X46.8914 Y32.7509 
G01 X47.0886 Y32.7509 
G01 X47.2266 Y32.7234 
G01 X45.3389 Y34.6111 
G01 X42.6690 Y34.6111 
G01 X42.6453 Y34.5875 
G01 X42.5575 Y34.5511 
G01 X41.2625 Y34.5511 
G01 X41.1747 Y34.5875 
G01 X41.1075 Y34.6547 
G01 X41.0711 Y34.7425 
G01 X41.0711 Y35.3789 
G01 X39.1888 Y37.2612 
G01 X39.1376 Y37.3499 
G01 X39.1111 Y37.4488 
G01 X39.1111 Y46.5889 
G01 X38.8987 Y46.8013 
G01 X38.9436 Y46.6929 
G01 X38.9779 Y46.5204 
G01 X38.9779 Y46.3446 
G01 X38.9436 Y46.1720 
G01 X38.8763 Y46.0096 
G01 X38.7786 Y45.8633 
G01 X38.6542 Y45.7389 
G01 X38.5079 Y45.6412 
G01 X38.3454 Y45.5739 
G01 X38.1729 Y45.5396 
G01 X37.9971 Y45.5396 
G01 X37.8657 Y45.5657 
G01 X36.4888 Y44.1888 
G01 X36.4001 Y44.1376 
G01 X36.3012 Y44.1111 
G01 X23.9111 Y44.1111 
G01 X22.5467 Y42.7467 
G01 X22.5996 Y42.7686 
G01 X22.7721 Y42.8029 
G01 X22.9479 Y42.8029 
G01 X23.1204 Y42.7686 
G01 X23.2829 Y42.7013 
G01 X23.4292 Y42.6036 
G01 X23.5536 Y42.4792 
G01 X23.6513 Y42.3329 
G01 X23.7186 Y42.1704 
G01 X23.7529 Y41.9979 
G01 X23.7529 Y41.8221 
G01 X23.7186 Y41.6495 
G01 X23.6513 Y41.4871 
G01 X23.5536 Y41.3408 
G01 X23.4292 Y41.2164 
G01 X23.2829 Y41.1187 
G01 X23.1204 Y41.0514 
G01 X22.9479 Y41.0171 
G01 X22.7721 Y41.0171 
G01 X22.5996 Y41.0514 
G01 X22.4371 Y41.1187 
G01 X22.2908 Y41.2164 
G01 X22.1664 Y41.3408 
G01 X22.0687 Y41.4871 
G01 X22.0014 Y41.6495 
G01 X21.9671 Y41.8221 
G01 X21.9671 Y41.9979 
G01 X22.0014 Y42.1704 
G01 X22.0233 Y42.2233 
G01 X17.7388 Y37.9388 
G01 X17.6501 Y37.8876 
G01 X17.5512 Y37.8611 
G01 X12.9469 Y37.8611 
G01 X12.9426 Y37.8396 
G01 X12.8753 Y37.6771 
G01 X12.7776 Y37.5308 
G01 X12.6532 Y37.4064 
G01 X12.5069 Y37.3087 
G01 X12.3444 Y37.2414 
G01 X12.1719 Y37.2071 
G01 X10.6881 Y37.2071 
G01 X10.5155 Y37.2414 
G01 X10.3531 Y37.3087 
G01 X10.2068 Y37.4064 
G01 X10.0824 Y37.5308 
G01 X9.9847 Y37.6771 
G01 X9.9174 Y37.8396 
G01 X9.8831 Y38.0121 
G01 X9.8831 Y38.1879 
G01 X9.9174 Y38.3604 
G01 X9.9847 Y38.5229 
G01 X10.0824 Y38.6692 
G01 X10.2068 Y38.7936 
G01 X10.3531 Y38.8913 
G01 X10.5155 Y38.9586 
G01 X10.6881 Y38.9929 
G01 X12.1719 Y38.9929 
G01 X12.3444 Y38.9586 
G01 X12.5069 Y38.8913 
G01 X12.6532 Y38.7936 
G01 X12.7776 Y38.6692 
G01 X12.7978 Y38.6389 
G01 X17.3389 Y38.6389 
G01 X23.4388 Y44.7388 
G01 X23.5112 Y44.8112 
G01 X23.5999 Y44.8624 
G01 X23.6988 Y44.8889 
G01 X25.6892 Y44.8889 
G01 X25.5931 Y44.9287 
G01 X25.4468 Y45.0264 
G01 X25.3224 Y45.1508 
G01 X25.2247 Y45.2971 
G01 X25.1574 Y45.4596 
G01 X25.1231 Y45.6321 
G01 X25.1231 Y45.8079 
G01 X25.1574 Y45.9804 
G01 X25.2247 Y46.1429 
G01 X25.3224 Y46.2892 
G01 X25.4468 Y46.4136 
G01 X25.5931 Y46.5113 
G01 X25.7555 Y46.5786 
G01 X25.9281 Y46.6129 
G01 X27.4119 Y46.6129 
G01 X27.5844 Y46.5786 
G01 X27.7469 Y46.5113 
G01 X27.8932 Y46.4136 
G01 X28.0176 Y46.2892 
G01 X28.1153 Y46.1429 
G01 X28.1826 Y45.9804 
G01 X28.2169 Y45.8079 
G01 X28.2169 Y45.6321 
G01 X28.1826 Y45.4596 
G01 X28.1153 Y45.2971 
G01 X28.0176 Y45.1508 
G01 X27.8932 Y45.0264 
G01 X27.7469 Y44.9287 
G01 X27.6508 Y44.8889 
G01 X36.0889 Y44.8889 
G01 X37.2691 Y46.0691 
G01 X37.2264 Y46.1720 
G01 X37.1921 Y46.3446 
G01 X37.1921 Y46.5204 
G01 X37.2264 Y46.6929 
G01 X37.2937 Y46.8554 
G01 X37.3914 Y47.0017 
G01 X37.5158 Y47.1261 
G01 X37.6621 Y47.2238 
G01 X37.8246 Y47.2911 
G01 X37.9971 Y47.3254 
G01 X38.1729 Y47.3254 
G01 X38.3454 Y47.2911 
G01 X38.4538 Y47.2462 
G01 X37.9388 Y47.7612 
G01 X37.8876 Y47.8499 
G01 X37.8611 Y47.9488 
G01 X37.8611 Y48.0796 
G01 X37.3835 Y48.0796 
G01 X37.2957 Y48.1160 
G01 X37.2285 Y48.1832 
G01 X37.1921 Y48.2710 
G01 X37.1921 Y49.1111 
G01 X27.6025 Y49.1111 
G01 X27.7469 Y49.0513 
G01 X27.8932 Y48.9536 
G01 X28.0176 Y48.8292 
G01 X28.1153 Y48.6829 
G01 X28.1826 Y48.5204 
G01 X28.2169 Y48.3479 
G01 X28.2169 Y48.1721 
G01 X28.1826 Y47.9995 
G01 X28.1153 Y47.8371 
G01 X28.0176 Y47.6908 
G01 X27.8932 Y47.5664 
G01 X27.7469 Y47.4687 
G01 X27.5844 Y47.4014 
G01 X27.4119 Y47.3671 
G01 X25.9281 Y47.3671 
G01 X25.7555 Y47.4014 
G01 X25.5931 Y47.4687 
G01 X25.4468 Y47.5664 
G01 X25.3224 Y47.6908 
G01 X25.2247 Y47.8371 
G01 X25.1574 Y47.9995 
G01 X25.1231 Y48.1721 
G01 X25.1231 Y48.3479 
G01 X25.1574 Y48.5204 
G01 X25.2247 Y48.6829 
G01 X25.3224 Y48.8292 
G01 X25.4468 Y48.9536 
G01 X25.5931 Y49.0513 
G01 X25.7375 Y49.1111 
G01 X16.8889 Y49.1111 
G01 X16.8889 Y48.1988 
G01 X16.8624 Y48.0999 
G01 X16.8112 Y48.0112 
G01 X16.7388 Y47.9388 
G01 X12.6634 Y43.8634 
G01 X12.7776 Y43.7492 
G01 X12.8753 Y43.6029 
G01 X12.9426 Y43.4404 
G01 X12.9769 Y43.2679 
G01 X12.9769 Y43.0921 
G01 X12.9426 Y42.9196 
G01 X12.8753 Y42.7571 
G01 X12.7776 Y42.6108 
G01 X12.6532 Y42.4864 
G01 X12.5069 Y42.3887 
G01 X12.3444 Y42.3214 
G01 X12.1719 Y42.2871 
G01 X10.6881 Y42.2871 
G01 X10.5155 Y42.3214 
G01 X10.3531 Y42.3887 
G01 X10.2068 Y42.4864 
G01 X10.0824 Y42.6108 
G01 X9.9847 Y42.7571 
G01 X9.9174 Y42.9196 
G01 X9.8831 Y43.0921 
G01 X9.8831 Y43.2679 
G01 X9.9174 Y43.4404 
G01 X9.9847 Y43.6029 
G01 X10.0824 Y43.7492 
G01 X10.2068 Y43.8736 
G01 X10.3531 Y43.9713 
G01 X10.5155 Y44.0386 
G01 X10.6881 Y44.0729 
G01 X11.7729 Y44.0729 
G01 X16.1111 Y48.4111 
G01 X16.1111 Y52.4885 
G01 X16.0986 Y52.4256 
G01 X16.0313 Y52.2631 
G01 X15.9336 Y52.1168 
G01 X15.8092 Y51.9924 
G01 X15.6629 Y51.8947 
G01 X15.5004 Y51.8274 
G01 X15.3279 Y51.7931 
G01 X15.1521 Y51.7931 
G01 X14.9795 Y51.8274 
G01 X14.8171 Y51.8947 
G01 X14.6708 Y51.9924 
G01 X14.5464 Y52.1168 
G01 X14.4487 Y52.2631 
G01 X14.3814 Y52.4256 
G01 X14.3471 Y52.5981 
G01 X14.3471 Y54.0819 
G01 X14.3814 Y54.2544 
G01 X14.4487 Y54.4169 
G01 X14.5464 Y54.5632 
G01 X14.6708 Y54.6876 
G01 X14.8171 Y54.7853 
G01 X14.9795 Y54.8526 
G01 X15.1521 Y54.8869 
G01 X15.3279 Y54.8869 
G01 X15.5004 Y54.8526 
G01 X15.6629 Y54.7853 
G01 X15.8092 Y54.6876 
G01 X15.9336 Y54.5632 
G01 X16.0313 Y54.4169 
G01 X16.0986 Y54.2544 
G01 X16.1111 Y54.1915 
G01 X16.1111 Y58.0512 
G01 X16.1376 Y58.1501 
G01 X16.1888 Y58.2388 
G01 X17.5111 Y59.5611 
G01 X17.5111 Y60.3375 
G01 X17.5475 Y60.4253 
G01 X17.6147 Y60.4925 
G01 X17.7025 Y60.5289 
G01 X17.8611 Y60.5289 
G01 X17.8611 Y65.3611 
G01 X4.3889 Y65.3611 
G01 X4.3889 Y64.3389 
G01 X4.6275 Y64.3389 
G01 X4.7153 Y64.3025 
G01 X4.7825 Y64.2353 
G01 X4.8189 Y64.1475 
G01 X4.8189 Y62.8525 
G01 X4.7825 Y62.7647 
G01 X4.7153 Y62.6975 
G01 X4.6275 Y62.6611 
G01 X3.7325 Y62.6611 
G01 X3.6447 Y62.6975 
G01 X3.5775 Y62.7647 
G01 X3.5411 Y62.8525 
G01 X3.5411 Y64.1475 
G01 X3.5775 Y64.2353 
G01 X3.6111 Y64.2690 
G01 X3.6111 Y70.1391 
G01 X3.5180 Y70.1576 
G01 X3.3359 Y70.2330 
G01 X3.1720 Y70.3426 
G01 X3.0326 Y70.4820 
G01 X2.9230 Y70.6459 
G01 X2.8476 Y70.8280 
G01 X2.8091 Y71.0214 
G01 X2.8091 Y71.2186 
G01 X2.8476 Y71.4120 
G01 X2.9230 Y71.5941 
G01 X3.0326 Y71.7580 
G01 X3.1720 Y71.8974 
G01 X3.3359 Y72.0070 
G01 X3.5180 Y72.0824 
G01 X3.7114 Y72.1209 
G01 X3.9086 Y72.1209 
G01 X4.1020 Y72.0824 
G01 X4.2841 Y72.0070 
G01 X4.4480 Y71.8974 
G01 X4.5874 Y71.7580 
G01 X4.6970 Y71.5941 
G01 X4.7724 Y71.4120 
G01 X4.8109 Y71.2186 
G01 X4.8109 Y71.0214 
G01 X4.7724 Y70.8280 
G01 X4.6970 Y70.6459 
G01 X4.5874 Y70.4820 
G01 X4.4480 Y70.3426 
G01 X4.3889 Y70.3030 
G01 X4.3889 Y66.1389 
G01 X18.0889 Y66.1389 
G01 X23.5482 Y71.5982 
G01 X23.5482 Y72.9074 
G01 X23.5846 Y72.9952 
G01 X23.6518 Y73.0624 
G01 X23.7396 Y73.0988 
G01 X25.8412 Y73.0988 
G01 X25.9290 Y73.0624 
G01 X25.9962 Y72.9952 
G01 X26.0326 Y72.9074 
G01 X26.0326 Y71.5174 
G01 X29.3112 Y68.2388 
G01 X29.3624 Y68.1501 
G01 X29.3889 Y68.0512 
G01 X29.3889 Y62.8489 
G01 X29.8575 Y62.8489 
G01 X29.9453 Y62.8125 
G01 X30.0125 Y62.7453 
G01 X30.0489 Y62.6575 
G01 X30.0489 Y61.3889 
G01 X30.1501 Y61.3624 
G01 X30.2388 Y61.3112 
G01 X39.7388 Y51.8112 
G01 X39.8112 Y51.7388 
G01 X39.8624 Y51.6501 
G01 X39.8889 Y51.5512 
G01 X39.8889 Y49.4780 
G01 X39.9314 Y49.5417 
G01 X40.0558 Y49.6661 
G01 X40.2021 Y49.7638 
G01 X40.3646 Y49.8311 
G01 X40.5371 Y49.8654 
G01 X40.7129 Y49.8654 
G01 X40.8854 Y49.8311 
G01 X41.0479 Y49.7638 
G01 X41.1942 Y49.6661 
G01 X41.3186 Y49.5417 
G01 X41.4163 Y49.3954 
G01 X41.4836 Y49.2329 
G01 X41.5179 Y49.0604 
G01 X41.5179 Y48.8846 
G01 X41.4836 Y48.7120 
G01 X41.4163 Y48.5496 
G01 X41.3186 Y48.4033 
G01 X41.1942 Y48.2789 
G01 X41.0479 Y48.1812 
G01 X40.8854 Y48.1139 
G01 X40.7129 Y48.0796 
G01 X40.5371 Y48.0796 
G01 X40.3646 Y48.1139 
G01 X40.2021 Y48.1812 
G01 X40.0558 Y48.2789 
G01 X39.9314 Y48.4033 
G01 X39.8889 Y48.4670 
G01 X39.8889 Y47.9111 
G01 X40.4849 Y47.3150 
G01 X40.5371 Y47.3254 
G01 X40.7129 Y47.3254 
G01 X40.8854 Y47.2911 
G01 X41.0479 Y47.2238 
G01 X41.1942 Y47.1261 
G01 X41.3186 Y47.0017 
G01 X41.4163 Y46.8554 
G01 X41.4836 Y46.6929 
G01 X41.5179 Y46.5204 
G01 X41.5179 Y46.3446 
G01 X41.4836 Y46.1720 
G01 X41.4526 Y46.0973 
G01 X41.9111 Y45.6389 
G01 X42.7477 Y45.6389 
G01 X42.7421 Y45.6412 
G01 X42.5958 Y45.7389 
G01 X42.4714 Y45.8633 
G01 X42.3737 Y46.0096 
G01 X42.3064 Y46.1720 
G01 X42.2721 Y46.3446 
G01 X42.2721 Y46.5204 
G01 X42.3064 Y46.6929 
G01 X42.3737 Y46.8554 
G01 X42.4714 Y47.0017 
G01 X42.5958 Y47.1261 
G01 X42.7421 Y47.2238 
G01 X42.9046 Y47.2911 
G01 X43.0771 Y47.3254 
G01 X43.2529 Y47.3254 
G01 X43.4254 Y47.2911 
G01 X43.5879 Y47.2238 
G01 X43.7342 Y47.1261 
G01 X43.8586 Y47.0017 
G01 X43.9563 Y46.8554 
G01 X44.0236 Y46.6929 
G01 X44.0579 Y46.5204 
G01 X44.0579 Y46.3579 
G01 X44.2612 Y46.5612 
G01 X44.3499 Y46.6124 
G01 X44.4488 Y46.6389 
G01 X44.8357 Y46.6389 
G01 X44.8464 Y46.6929 
G01 X44.9137 Y46.8554 
G01 X45.0114 Y47.0017 
G01 X45.1358 Y47.1261 
G01 X45.2821 Y47.2238 
G01 X45.4445 Y47.2911 
G01 X45.6171 Y47.3254 
G01 X45.7929 Y47.3254 
G01 X45.9654 Y47.2911 
G01 X46.1279 Y47.2238 
G01 X46.2742 Y47.1261 
G01 X46.3986 Y47.0017 
G01 X46.4963 Y46.8554 
G01 X46.5636 Y46.6929 
G01 X46.5979 Y46.5204 
G01 X46.5979 Y46.3446 
G01 X46.5636 Y46.1720 
G01 X46.4963 Y46.0096 
G01 X46.3986 Y45.8633 
G01 X46.2742 Y45.7389 
G01 X46.1279 Y45.6412 
G01 X45.9654 Y45.5739 
G01 X45.7929 Y45.5396 
G01 X45.6171 Y45.5396 
G01 X45.4445 Y45.5739 
G01 X45.2821 Y45.6412 
G01 X45.1358 Y45.7389 
G01 X45.0136 Y45.8611 
G01 X44.6611 Y45.8611 
G01 X43.8112 Y45.0112 
G01 X43.7388 Y44.9388 
G01 X43.6501 Y44.8876 
G01 X43.5512 Y44.8611 
G01 X41.6988 Y44.8611 
G01 X41.5999 Y44.8876 
G01 X41.5112 Y44.9388 
G01 X40.8777 Y45.5724 
G01 X40.7129 Y45.5396 
G01 X40.5371 Y45.5396 
G01 X40.3646 Y45.5739 
G01 X40.2021 Y45.6412 
G01 X40.0558 Y45.7389 
G01 X39.9314 Y45.8633 
G01 X39.8889 Y45.9270 
G01 X39.8889 Y37.6611 
G01 X41.7211 Y35.8289 
G01 X42.5575 Y35.8289 
G01 X42.6453 Y35.7925 
G01 X42.7125 Y35.7253 
G01 X42.7489 Y35.6375 
G01 X42.7489 Y35.3889 
G01 X45.5512 Y35.3889 
G01 X45.6501 Y35.3624 
G01 X45.7388 Y35.3112 
G01 X45.8112 Y35.2388 
G01 X48.5612 Y32.4888 
G01 X48.6124 Y32.4001 
G01 X48.6389 Y32.3012 
G01 X48.6389 Y31.1988 
G01 X48.6124 Y31.0999 
G01 X48.5612 Y31.0112 
G01 X48.4888 Y30.9388 
G01 X48.0500 Y30.5000 
G01 X48.8112 Y29.7388 
G01 X48.8624 Y29.6501 
G01 X48.8889 Y29.5512 
G01 X48.8889 Y19.4488 
G01 X48.8624 Y19.3499 
G01 X48.8112 Y19.2612 
G01 X48.7388 Y19.1888 
G01 X47.9769 Y18.4269 
G01 X47.9981 Y18.3978 
G01 X48.0823 Y18.2325 
G01 X48.1397 Y18.0560 
G01 X48.1687 Y17.8728 
G01 X48.1687 Y17.6872 
G01 X48.1397 Y17.5040 
G01 X48.0823 Y17.3275 
G01 X48.0452 Y17.2547 
G01 X48.8112 Y16.4888 
G01 X48.8624 Y16.4001 
G01 X48.8889 Y16.3012 
G01 X48.8889 Y14.6988 
G01 X48.8624 Y14.5999 
G01 X48.8112 Y14.5112 
G01 X48.7388 Y14.4388 
G01 X45.2388 Y10.9388 
G01 X45.1501 Y10.8876 
G01 X45.0512 Y10.8611 
G01 X36.3289 Y10.8611 
G01 X36.3289 Y10.5625 
G01 X36.2925 Y10.4747 
G01 X36.2253 Y10.4075 
G01 X36.1375 Y10.3711 
G01 X34.6425 Y10.3711 
G01 X34.5547 Y10.4075 
G01 X34.4875 Y10.4747 
G01 X34.4511 Y10.5625 
G01 X34.4511 Y11.4989 
G01 X31.0889 Y14.8611 
G01 X26.2084 Y14.8611 
G01 X26.2389 Y14.7875 
G01 X26.2389 Y13.8925 
G01 X26.2025 Y13.8047 
G01 X26.1353 Y13.7375 
G01 X26.0475 Y13.7011 
G01 X25.8889 Y13.7011 
G01 X25.8889 Y7.1611 
G01 X28.2440 Y4.8060 
G01 X28.2091 Y4.9814 
G01 X28.2091 Y5.1786 
G01 X28.2476 Y5.3720 
G01 X28.3230 Y5.5541 
G01 X28.4325 Y5.7180 
G01 X28.5720 Y5.8574 
G01 X28.7359 Y5.9670 
G01 X28.8611 Y6.0188 
G01 X28.8611 Y9.8611 
G01 X28.4239 Y9.8611 
G01 X28.4239 Y9.3775 
G01 X28.3875 Y9.2897 
G01 X28.3203 Y9.2225 
G01 X28.2325 Y9.1861 
G01 X26.8675 Y9.1861 
G01 X26.7797 Y9.2225 
G01 X26.7125 Y9.2897 
G01 X26.6761 Y9.3775 
G01 X26.6761 Y10.9425 
G01 X26.7125 Y11.0303 
G01 X26.7797 Y11.0975 
G01 X26.8675 Y11.1339 
G01 X28.2325 Y11.1339 
G01 X28.3203 Y11.0975 
G01 X28.3875 Y11.0303 
G01 X28.4239 Y10.9425 
G01 X28.4239 Y10.6389 
G01 X32.2511 Y10.6389 
G01 X32.2511 Y10.7075 
G01 X32.2875 Y10.7953 
G01 X32.3547 Y10.8625 
G01 X32.4425 Y10.8989 
G01 X33.9375 Y10.8989 
G01 X34.0253 Y10.8625 
G01 X34.0925 Y10.7953 
G01 X34.1289 Y10.7075 
G01 X34.1289 Y9.6125 
G01 X34.0925 Y9.5247 
G01 X34.0253 Y9.4575 
G01 X33.9375 Y9.4211 
G01 X32.4425 Y9.4211 
G01 X32.3547 Y9.4575 
G01 X32.2875 Y9.5247 
G01 X32.2511 Y9.6125 
G01 X32.2511 Y9.8611 
G01 X29.6389 Y9.8611 
G01 X29.6389 Y5.9857 
G01 X29.6841 Y5.9670 
G01 X29.8480 Y5.8574 
G01 X29.9874 Y5.7180 
G01 X30.0970 Y5.5541 
G01 X30.1724 Y5.3720 
G01 X30.2109 Y5.1786 
G01 X30.2109 Y4.9814 
G01 X30.1724 Y4.7880 
G01 X30.0970 Y4.6059 
G01 X29.9874 Y4.4420 
G01 X29.8480 Y4.3026 
G01 X29.6841 Y4.1930 
G01 X29.5535 Y4.1389 
G01 X29.8389 Y4.1389 
G01 X34.4511 Y8.7511 
G01 X34.4511 Y9.7575 
G01 X34.4875 Y9.8453 
G01 X34.5547 Y9.9125 
G01 X34.6425 Y9.9489 
G01 X36.1375 Y9.9489 
G01 X36.2253 Y9.9125 
G01 X36.2925 Y9.8453 
G01 X36.3289 Y9.7575 
G01 X36.3289 Y8.6625 
G01 X36.2925 Y8.5747 
G01 X36.2253 Y8.5075 
G01 X36.1375 Y8.4711 
G01 X35.2711 Y8.4711 
G01 X30.2388 Y3.4388 
G01 X30.1501 Y3.3876 
G01 X30.0512 Y3.3611 
G01 X29.7827 Y3.3611 
G01 X29.8480 Y3.3174 
G01 X29.9874 Y3.1780 
G01 X30.0970 Y3.0141 
G01 X30.1724 Y2.8319 
G01 X30.2109 Y2.6386 
G01 X30.2109 Y2.4414 
G01 X30.1724 Y2.2480 
G01 X30.0970 Y2.0659 
G01 X29.9874 Y1.9020 
G01 X29.8480 Y1.7626 
G01 X29.6841 Y1.6530 
G01 X29.5020 Y1.5776 
G01 X29.3086 Y1.5391 
G01 X29.1114 Y1.5391 
G01 X28.9180 Y1.5776 
G01 X28.7359 Y1.6530 
G01 X28.5720 Y1.7626 
G01 X28.4325 Y1.9020 
G01 X28.3230 Y2.0659 
G01 X28.2476 Y2.2480 
G01 X28.2091 Y2.4414 
G01 X28.2091 Y2.6386 
G01 X28.2476 Y2.8319 
G01 X28.2924 Y2.9402 
G01 X23.0984 Y8.1341 
G01 X20.1516 Y8.1341 
G01 X14.5428 Y2.5253 
G01 X14.4747 Y2.4572 
G01 X14.3912 Y2.4090 
G01 X14.2982 Y2.3841 
G01 X13.6895 Y2.3841 
G01 X13.6624 Y2.2480 
G01 X13.5870 Y2.0659 
G01 X13.4774 Y1.9020 
G01 X13.3380 Y1.7626 
G01 X13.1741 Y1.6530 
G01 X12.9919 Y1.5776 
G01 X12.7986 Y1.5391 
G01 X12.6014 Y1.5391 
G01 X12.4080 Y1.5776 
G01 X12.2259 Y1.6530 
G01 X12.0620 Y1.7626 
G01 X11.9225 Y1.9020 
G00 Z2.0000 
G00 X13.2727 Y3.3611 
G01 Z-0.0250 F254.00 
G01 X13.3380 Y3.3174 F508.00 
G01 X13.4774 Y3.1780 
G01 X13.5190 Y3.1159 
G01 X14.0984 Y3.1159 
G01 X19.4536 Y8.4711 
G01 X18.7711 Y8.4711 
G01 X13.7388 Y3.4388 
G01 X13.6501 Y3.3876 
G01 X13.5512 Y3.3611 
G01 X13.2727 Y3.3611 
G00 Z2.0000 
G00 X9.6253 Y15.5375 
G01 Z-0.0250 F254.00 
G01 X9.5375 Y15.5011 F508.00 
G01 X8.2425 Y15.5011 
G01 X8.1547 Y15.5375 
G01 X8.0875 Y15.6047 
G01 X8.0511 Y15.6925 
G01 X8.0511 Y16.5875 
G01 X8.0875 Y16.6753 
G01 X8.1547 Y16.7425 
G01 X8.2425 Y16.7789 
G01 X8.6111 Y16.7789 
G01 X8.6111 Y20.5512 
G01 X8.6376 Y20.6501 
G01 X8.6888 Y20.7388 
G01 X10.1616 Y22.2116 
G01 X10.0824 Y22.2908 
G01 X9.9847 Y22.4371 
G01 X9.9174 Y22.5996 
G01 X9.8831 Y22.7721 
G01 X9.8831 Y22.9479 
G01 X9.9174 Y23.1204 
G01 X9.9847 Y23.2829 
G01 X10.0824 Y23.4292 
G01 X10.2068 Y23.5536 
G01 X10.3531 Y23.6513 
G01 X10.5155 Y23.7186 
G01 X10.6881 Y23.7529 
G01 X12.1719 Y23.7529 
G01 X12.3444 Y23.7186 
G01 X12.5069 Y23.6513 
G01 X12.6532 Y23.5536 
G01 X12.7776 Y23.4292 
G01 X12.8753 Y23.2829 
G01 X12.9426 Y23.1204 
G01 X12.9769 Y22.9479 
G01 X12.9769 Y22.7721 
G01 X12.9426 Y22.5996 
G01 X12.8753 Y22.4371 
G01 X12.7776 Y22.2908 
G01 X12.6532 Y22.1664 
G01 X12.5069 Y22.0687 
G01 X12.3444 Y22.0014 
G01 X12.1719 Y21.9671 
G01 X11.0171 Y21.9671 
G01 X9.3889 Y20.3389 
G01 X9.3889 Y16.7789 
G01 X9.5375 Y16.7789 
G01 X9.6253 Y16.7425 
G01 X9.6925 Y16.6753 
G01 X9.7289 Y16.5875 
G01 X9.7289 Y15.6925 
G01 X9.6925 Y15.6047 
G01 X9.6253 Y15.5375 
G00 Z2.0000 
G00 X10.0824 Y24.8308 
G01 Z-0.0250 F254.00 
G01 X9.9847 Y24.9771 F508.00 
G01 X9.9174 Y25.1395 
G01 X9.8831 Y25.3121 
G01 X9.8831 Y25.4879 
G01 X9.9174 Y25.6604 
G01 X9.9847 Y25.8229 
G01 X10.0824 Y25.9692 
G01 X10.2068 Y26.0936 
G01 X10.3531 Y26.1913 
G01 X10.5155 Y26.2586 
G01 X10.6881 Y26.2929 
G01 X12.1719 Y26.2929 
G01 X12.3444 Y26.2586 
G01 X12.5069 Y26.1913 
G01 X12.6532 Y26.0936 
G01 X12.7776 Y25.9692 
G01 X12.8753 Y25.8229 
G01 X12.9426 Y25.6604 
G01 X12.9769 Y25.4879 
G01 X12.9769 Y25.3121 
G01 X12.9426 Y25.1395 
G01 X12.8753 Y24.9771 
G01 X12.7776 Y24.8308 
G01 X12.6532 Y24.7064 
G01 X12.5069 Y24.6087 
G01 X12.3444 Y24.5414 
G01 X12.1719 Y24.5071 
G01 X10.6881 Y24.5071 
G01 X10.5155 Y24.5414 
G01 X10.3531 Y24.6087 
G01 X10.2068 Y24.7064 
G01 X10.0824 Y24.8308 
G00 Z2.0000 
G00 X10.0824 Y27.3708 
G01 Z-0.0250 F254.00 
G01 X9.9847 Y27.5171 F508.00 
G01 X9.9174 Y27.6795 
G01 X9.8831 Y27.8521 
G01 X9.8831 Y28.0279 
G01 X9.9174 Y28.2004 
G01 X9.9847 Y28.3629 
G01 X10.0824 Y28.5092 
G01 X10.2068 Y28.6336 
G01 X10.3531 Y28.7313 
G01 X10.5155 Y28.7986 
G01 X10.6881 Y28.8329 
G01 X12.1719 Y28.8329 
G01 X12.3444 Y28.7986 
G01 X12.5069 Y28.7313 
G01 X12.6532 Y28.6336 
G01 X12.7776 Y28.5092 
G01 X12.8753 Y28.3629 
G01 X12.9426 Y28.2004 
G01 X12.9769 Y28.0279 
G01 X12.9769 Y27.8521 
G01 X12.9426 Y27.6795 
G01 X12.8753 Y27.5171 
G01 X12.7776 Y27.3708 
G01 X12.6532 Y27.2464 
G01 X12.5069 Y27.1487 
G01 X12.3444 Y27.0814 
G01 X12.1719 Y27.0471 
G01 X10.6881 Y27.0471 
G01 X10.5155 Y27.0814 
G01 X10.3531 Y27.1487 
G01 X10.2068 Y27.2464 
G01 X10.0824 Y27.3708 
G00 Z2.0000 
G00 X10.0824 Y29.9108 
G01 Z-0.0250 F254.00 
G01 X9.9847 Y30.0571 F508.00 
G01 X9.9174 Y30.2196 
G01 X9.8831 Y30.3921 
G01 X9.8831 Y30.5679 
G01 X9.9174 Y30.7404 
G01 X9.9847 Y30.9029 
G01 X10.0824 Y31.0492 
G01 X10.2068 Y31.1736 
G01 X10.3531 Y31.2713 
G01 X10.5155 Y31.3386 
G01 X10.6881 Y31.3729 
G01 X12.1719 Y31.3729 
G01 X12.3444 Y31.3386 
G01 X12.5069 Y31.2713 
G01 X12.6532 Y31.1736 
G01 X12.7776 Y31.0492 
G01 X12.8753 Y30.9029 
G01 X12.9426 Y30.7404 
G01 X12.9769 Y30.5679 
G01 X12.9769 Y30.3921 
G01 X12.9426 Y30.2196 
G01 X12.8753 Y30.0571 
G01 X12.7776 Y29.9108 
G01 X12.6532 Y29.7864 
G01 X12.5069 Y29.6887 
G01 X12.3444 Y29.6214 
G01 X12.1719 Y29.5871 
G01 X10.6881 Y29.5871 
G01 X10.5155 Y29.6214 
G01 X10.3531 Y29.6887 
G01 X10.2068 Y29.7864 
G01 X10.0824 Y29.9108 
G00 Z2.0000 
