(.../external_usr-lang-prog/pcbgcode/pcb-gcode.ulp)
(Copyright 2005 - 2012 by John Johnson)
(See readme.txt for licensing terms.)
(This file generated from the board:)
(.../KarasolBaxCont/KarasolboxCont.brd)
(Current profile is .../external_usr-lang-prog/pcbgcode/profiles/emc.pp  )
(This file generated 3/5/2017 11:28 PM)
(Settings from pcb-machine.h)
(spindle on time = 3.0000)
(  Tool Size)
(0.1778 )
(spindle speed = 30000.0000)
(tool change at 15.0000 15.0000 19.0000 )
(feed rate xy = F508.00 )
(feed rate z  = F254.00 )
(Z Axis Settings)
(  High     Up        Down     Drill)
(19.5000 	2.0000 	-0.0250 	-1.5000 )
(Settings from pcb-defaults.h)
(isolate min = 0.0500)
(isolate max = 1.0000)
(isolate step = 0.1000)
(Generated top outlines, top drill, bottom outlines, bottom drill, )
(Unit of measure: mm)
(Metric Mode)
G21
(Absolute Coordinates)
G90
S30000
G00 Z19.5000 
G00 X0.0000 Y0.0000 
M03
G04 P3.000000
G00 Z2.0000 
G00 X-12.0002 Y1.9657 
G01 Z-0.0250 F254.00 
G01 X-12.1257 Y1.8402 F508.00 
G01 X-12.2733 Y1.7416 
G01 X-12.4372 Y1.6737 
G01 X-12.6113 Y1.6391 
G01 X-12.7887 Y1.6391 
G01 X-12.9628 Y1.6737 
G01 X-13.1267 Y1.7416 
G01 X-13.2743 Y1.8402 
G01 X-13.3998 Y1.9657 
G01 X-13.4984 Y2.1133 
G01 X-13.5663 Y2.2772 
G01 X-13.6009 Y2.4513 
G01 X-13.6009 Y2.6287 
G01 X-13.5663 Y2.8028 
G01 X-13.4984 Y2.9667 
G01 X-13.3998 Y3.1143 
G01 X-13.2743 Y3.2398 
G01 X-13.1267 Y3.3384 
G01 X-12.9628 Y3.4063 
G01 X-12.7887 Y3.4409 
G01 X-12.6113 Y3.4409 
G01 X-12.4372 Y3.4063 
G01 X-12.2733 Y3.3384 
G01 X-12.1257 Y3.2398 
G01 X-12.0002 Y3.1143 
G01 X-11.9016 Y2.9667 
G01 X-11.8337 Y2.8028 
G01 X-11.7991 Y2.6287 
G01 X-11.7991 Y2.4513 
G01 X-11.8337 Y2.2772 
G01 X-11.9016 Y2.1133 
G01 X-12.0002 Y1.9657 
G00 Z2.0000 
G00 X-12.0002 Y4.5057 
G01 Z-0.0250 F254.00 
G01 X-12.1257 Y4.3802 F508.00 
G01 X-12.2733 Y4.2816 
G01 X-12.4372 Y4.2137 
G01 X-12.6113 Y4.1791 
G01 X-12.7887 Y4.1791 
G01 X-12.9628 Y4.2137 
G01 X-13.1267 Y4.2816 
G01 X-13.2743 Y4.3802 
G01 X-13.3998 Y4.5057 
G01 X-13.4984 Y4.6533 
G01 X-13.5663 Y4.8172 
G01 X-13.6009 Y4.9913 
G01 X-13.6009 Y5.1687 
G01 X-13.5663 Y5.3428 
G01 X-13.4984 Y5.5067 
G01 X-13.3998 Y5.6543 
G01 X-13.2743 Y5.7798 
G01 X-13.1267 Y5.8784 
G01 X-12.9628 Y5.9463 
G01 X-12.7887 Y5.9809 
G01 X-12.6113 Y5.9809 
G01 X-12.4372 Y5.9463 
G01 X-12.2733 Y5.8784 
G01 X-12.1257 Y5.7798 
G01 X-12.0002 Y5.6543 
G01 X-11.9016 Y5.5067 
G01 X-11.8337 Y5.3428 
G01 X-11.7991 Y5.1687 
G01 X-11.7991 Y4.9913 
G01 X-11.8337 Y4.8172 
G01 X-11.9016 Y4.6533 
G01 X-12.0002 Y4.5057 
G00 Z2.0000 
G00 X-28.5102 Y4.5057 
G01 Z-0.0250 F254.00 
G01 X-28.6357 Y4.3802 F508.00 
G01 X-28.7833 Y4.2816 
G01 X-28.9472 Y4.2137 
G01 X-29.1213 Y4.1791 
G01 X-29.2987 Y4.1791 
G01 X-29.4728 Y4.2137 
G01 X-29.6367 Y4.2816 
G01 X-29.7843 Y4.3802 
G01 X-29.9098 Y4.5057 
G01 X-30.0084 Y4.6533 
G01 X-30.0763 Y4.8172 
G01 X-30.1109 Y4.9913 
G01 X-30.1109 Y5.1687 
G01 X-30.0763 Y5.3428 
G01 X-30.0084 Y5.5067 
G01 X-29.9098 Y5.6543 
G01 X-29.7843 Y5.7798 
G01 X-29.6367 Y5.8784 
G01 X-29.4728 Y5.9463 
G01 X-29.2987 Y5.9809 
G01 X-29.1213 Y5.9809 
G01 X-28.9472 Y5.9463 
G01 X-28.7833 Y5.8784 
G01 X-28.6357 Y5.7798 
G01 X-28.5102 Y5.6543 
G01 X-28.4116 Y5.5067 
G01 X-28.3437 Y5.3428 
G01 X-28.3091 Y5.1687 
G01 X-28.3091 Y4.9913 
G01 X-28.3437 Y4.8172 
G01 X-28.4116 Y4.6533 
G01 X-28.5102 Y4.5057 
G00 Z2.0000 
G00 X-28.6357 Y3.2398 
G01 Z-0.0250 F254.00 
G01 X-28.5102 Y3.1143 F508.00 
G01 X-28.4116 Y2.9667 
G01 X-28.3437 Y2.8028 
G01 X-28.3091 Y2.6287 
G01 X-28.3091 Y2.4513 
G01 X-28.3437 Y2.2772 
G01 X-28.4116 Y2.1133 
G01 X-28.5102 Y1.9657 
G01 X-28.6357 Y1.8402 
G01 X-28.7833 Y1.7416 
G01 X-28.9472 Y1.6737 
G01 X-29.1213 Y1.6391 
G01 X-29.2987 Y1.6391 
G01 X-29.4728 Y1.6737 
G01 X-29.6367 Y1.7416 
G01 X-29.7843 Y1.8402 
G01 X-29.9098 Y1.9657 
G01 X-30.0084 Y2.1133 
G01 X-30.0763 Y2.2772 
G01 X-30.1109 Y2.4513 
G01 X-30.1109 Y2.6287 
G01 X-30.0763 Y2.8028 
G01 X-30.0084 Y2.9667 
G01 X-29.9098 Y3.1143 
G01 X-29.7843 Y3.2398 
G01 X-29.6367 Y3.3384 
G01 X-29.4728 Y3.4063 
G01 X-29.2987 Y3.4409 
G01 X-29.1213 Y3.4409 
G01 X-28.9472 Y3.4063 
G01 X-28.7833 Y3.3384 
G01 X-28.6357 Y3.2398 
G00 Z2.0000 
G00 X-27.8294 Y22.2441 
G01 Z-0.0250 F254.00 
G01 X-27.9399 Y22.3546 F508.00 
G01 X-28.0267 Y22.4844 
G01 X-28.0864 Y22.6287 
G01 X-28.1169 Y22.7819 
G01 X-28.1169 Y22.9381 
G01 X-28.0864 Y23.0913 
G01 X-28.0267 Y23.2356 
G01 X-27.9399 Y23.3654 
G01 X-27.8294 Y23.4759 
G01 X-27.6996 Y23.5627 
G01 X-27.5553 Y23.6224 
G01 X-27.4021 Y23.6529 
G01 X-25.9379 Y23.6529 
G01 X-25.7847 Y23.6224 
G01 X-25.6404 Y23.5627 
G01 X-25.5106 Y23.4759 
G01 X-25.4001 Y23.3654 
G01 X-25.3133 Y23.2356 
G01 X-25.2536 Y23.0913 
G01 X-25.2231 Y22.9381 
G01 X-25.2231 Y22.7819 
G01 X-25.2536 Y22.6287 
G01 X-25.3133 Y22.4844 
G01 X-25.4001 Y22.3546 
G01 X-25.5106 Y22.2441 
G01 X-25.6404 Y22.1573 
G01 X-25.7847 Y22.0976 
G01 X-25.9379 Y22.0671 
G01 X-27.4021 Y22.0671 
G01 X-27.5553 Y22.0976 
G01 X-27.6996 Y22.1573 
G01 X-27.8294 Y22.2441 
G00 Z2.0000 
G00 X-27.8294 Y24.7841 
G01 Z-0.0250 F254.00 
G01 X-27.9399 Y24.8946 F508.00 
G01 X-28.0267 Y25.0244 
G01 X-28.0864 Y25.1687 
G01 X-28.1169 Y25.3219 
G01 X-28.1169 Y25.4781 
G01 X-28.0864 Y25.6313 
G01 X-28.0267 Y25.7756 
G01 X-27.9399 Y25.9054 
G01 X-27.8294 Y26.0159 
G01 X-27.6996 Y26.1027 
G01 X-27.5553 Y26.1624 
G01 X-27.4021 Y26.1929 
G01 X-25.9379 Y26.1929 
G01 X-25.7847 Y26.1624 
G01 X-25.6404 Y26.1027 
G01 X-25.5106 Y26.0159 
G01 X-25.4001 Y25.9054 
G01 X-25.3133 Y25.7756 
G01 X-25.2536 Y25.6313 
G01 X-25.2231 Y25.4781 
G01 X-25.2231 Y25.3219 
G01 X-25.2536 Y25.1687 
G01 X-25.3133 Y25.0244 
G01 X-25.4001 Y24.8946 
G01 X-25.5106 Y24.7841 
G01 X-25.6404 Y24.6973 
G01 X-25.7847 Y24.6376 
G01 X-25.9379 Y24.6071 
G01 X-27.4021 Y24.6071 
G01 X-27.5553 Y24.6376 
G01 X-27.6996 Y24.6973 
G01 X-27.8294 Y24.7841 
G00 Z2.0000 
G00 X-27.8294 Y27.3241 
G01 Z-0.0250 F254.00 
G01 X-27.9399 Y27.4346 F508.00 
G01 X-28.0267 Y27.5644 
G01 X-28.0864 Y27.7087 
G01 X-28.1169 Y27.8619 
G01 X-28.1169 Y28.0181 
G01 X-28.0864 Y28.1713 
G01 X-28.0267 Y28.3156 
G01 X-27.9399 Y28.4454 
G01 X-27.8294 Y28.5559 
G01 X-27.6996 Y28.6427 
G01 X-27.5553 Y28.7024 
G01 X-27.4021 Y28.7329 
G01 X-25.9379 Y28.7329 
G01 X-25.7847 Y28.7024 
G01 X-25.6404 Y28.6427 
G01 X-25.5106 Y28.5559 
G01 X-25.4001 Y28.4454 
G01 X-25.3133 Y28.3156 
G01 X-25.2536 Y28.1713 
G01 X-25.2231 Y28.0181 
G01 X-25.2231 Y27.8619 
G01 X-25.2536 Y27.7087 
G01 X-25.3133 Y27.5644 
G01 X-25.4001 Y27.4346 
G01 X-25.5106 Y27.3241 
G01 X-25.6404 Y27.2373 
G01 X-25.7847 Y27.1776 
G01 X-25.9379 Y27.1471 
G01 X-27.4021 Y27.1471 
G01 X-27.5553 Y27.1776 
G01 X-27.6996 Y27.2373 
G01 X-27.8294 Y27.3241 
G00 Z2.0000 
G00 X-27.8294 Y29.8641 
G01 Z-0.0250 F254.00 
G01 X-27.9399 Y29.9746 F508.00 
G01 X-28.0267 Y30.1044 
G01 X-28.0864 Y30.2487 
G01 X-28.1169 Y30.4019 
G01 X-28.1169 Y30.5581 
G01 X-28.0864 Y30.7113 
G01 X-28.0267 Y30.8556 
G01 X-27.9399 Y30.9854 
G01 X-27.8294 Y31.0959 
G01 X-27.6996 Y31.1827 
G01 X-27.5553 Y31.2424 
G01 X-27.4021 Y31.2729 
G01 X-25.9379 Y31.2729 
G01 X-25.7847 Y31.2424 
G01 X-25.6404 Y31.1827 
G01 X-25.5106 Y31.0959 
G01 X-25.4001 Y30.9854 
G01 X-25.3133 Y30.8556 
G01 X-25.2536 Y30.7113 
G01 X-25.2231 Y30.5581 
G01 X-25.2231 Y30.4019 
G01 X-25.2536 Y30.2487 
G01 X-25.3133 Y30.1044 
G01 X-25.4001 Y29.9746 
G01 X-25.5106 Y29.8641 
G01 X-25.6404 Y29.7773 
G01 X-25.7847 Y29.7176 
G01 X-25.9379 Y29.6871 
G01 X-27.4021 Y29.6871 
G01 X-27.5553 Y29.7176 
G01 X-27.6996 Y29.7773 
G01 X-27.8294 Y29.8641 
G00 Z2.0000 
G00 X-27.8294 Y32.4041 
G01 Z-0.0250 F254.00 
G01 X-27.9399 Y32.5146 F508.00 
G01 X-28.0267 Y32.6444 
G01 X-28.0864 Y32.7887 
G01 X-28.1169 Y32.9419 
G01 X-28.1169 Y33.0981 
G01 X-28.0864 Y33.2513 
G01 X-28.0267 Y33.3956 
G01 X-27.9399 Y33.5254 
G01 X-27.8294 Y33.6359 
G01 X-27.6996 Y33.7227 
G01 X-27.5553 Y33.7824 
G01 X-27.4021 Y33.8129 
G01 X-25.9379 Y33.8129 
G01 X-25.7847 Y33.7824 
G01 X-25.6404 Y33.7227 
G01 X-25.5106 Y33.6359 
G01 X-25.4001 Y33.5254 
G01 X-25.3133 Y33.3956 
G01 X-25.2536 Y33.2513 
G01 X-25.2231 Y33.0981 
G01 X-25.2231 Y32.9419 
G01 X-25.2536 Y32.7887 
G01 X-25.3133 Y32.6444 
G01 X-25.4001 Y32.5146 
G01 X-25.5106 Y32.4041 
G01 X-25.6404 Y32.3173 
G01 X-25.7847 Y32.2576 
G01 X-25.9379 Y32.2271 
G01 X-27.4021 Y32.2271 
G01 X-27.5553 Y32.2576 
G01 X-27.6996 Y32.3173 
G01 X-27.8294 Y32.4041 
G00 Z2.0000 
G00 X-27.8294 Y34.9441 
G01 Z-0.0250 F254.00 
G01 X-27.9399 Y35.0546 F508.00 
G01 X-28.0267 Y35.1844 
G01 X-28.0864 Y35.3287 
G01 X-28.1169 Y35.4819 
G01 X-28.1169 Y35.6381 
G01 X-28.0864 Y35.7913 
G01 X-28.0267 Y35.9356 
G01 X-27.9399 Y36.0654 
G01 X-27.8294 Y36.1759 
G01 X-27.6996 Y36.2627 
G01 X-27.5553 Y36.3224 
G01 X-27.4021 Y36.3529 
G01 X-25.9379 Y36.3529 
G01 X-25.7847 Y36.3224 
G01 X-25.6404 Y36.2627 
G01 X-25.5106 Y36.1759 
G01 X-25.4001 Y36.0654 
G01 X-25.3133 Y35.9356 
G01 X-25.2536 Y35.7913 
G01 X-25.2231 Y35.6381 
G01 X-25.2231 Y35.4819 
G01 X-25.2536 Y35.3287 
G01 X-25.3133 Y35.1844 
G01 X-25.4001 Y35.0546 
G01 X-25.5106 Y34.9441 
G01 X-25.6404 Y34.8573 
G01 X-25.7847 Y34.7976 
G01 X-25.9379 Y34.7671 
G01 X-27.4021 Y34.7671 
G01 X-27.5553 Y34.7976 
G01 X-27.6996 Y34.8573 
G01 X-27.8294 Y34.9441 
G00 Z2.0000 
G00 X-27.8294 Y37.4841 
G01 Z-0.0250 F254.00 
G01 X-27.9399 Y37.5946 F508.00 
G01 X-28.0267 Y37.7244 
G01 X-28.0864 Y37.8687 
G01 X-28.1169 Y38.0219 
G01 X-28.1169 Y38.1781 
G01 X-28.0864 Y38.3313 
G01 X-28.0267 Y38.4756 
G01 X-27.9399 Y38.6054 
G01 X-27.8294 Y38.7159 
G01 X-27.6996 Y38.8027 
G01 X-27.5553 Y38.8624 
G01 X-27.4021 Y38.8929 
G01 X-25.9379 Y38.8929 
G01 X-25.7847 Y38.8624 
G01 X-25.6404 Y38.8027 
G01 X-25.5106 Y38.7159 
G01 X-25.4001 Y38.6054 
G01 X-25.3133 Y38.4756 
G01 X-25.2536 Y38.3313 
G01 X-25.2231 Y38.1781 
G01 X-25.2231 Y38.0219 
G01 X-25.2536 Y37.8687 
G01 X-25.3133 Y37.7244 
G01 X-25.4001 Y37.5946 
G01 X-25.5106 Y37.4841 
G01 X-25.6404 Y37.3973 
G01 X-25.7847 Y37.3376 
G01 X-25.9379 Y37.3071 
G01 X-27.4021 Y37.3071 
G01 X-27.5553 Y37.3376 
G01 X-27.6996 Y37.3973 
G01 X-27.8294 Y37.4841 
G00 Z2.0000 
G00 X-27.8294 Y40.0241 
G01 Z-0.0250 F254.00 
G01 X-27.9399 Y40.1346 F508.00 
G01 X-28.0267 Y40.2644 
G01 X-28.0864 Y40.4087 
G01 X-28.1169 Y40.5619 
G01 X-28.1169 Y40.7181 
G01 X-28.0864 Y40.8713 
G01 X-28.0267 Y41.0156 
G01 X-27.9399 Y41.1454 
G01 X-27.8294 Y41.2559 
G01 X-27.6996 Y41.3427 
G01 X-27.5553 Y41.4024 
G01 X-27.4021 Y41.4329 
G01 X-25.9379 Y41.4329 
G01 X-25.7847 Y41.4024 
G01 X-25.6404 Y41.3427 
G01 X-25.5106 Y41.2559 
G01 X-25.4001 Y41.1454 
G01 X-25.3133 Y41.0156 
G01 X-25.2536 Y40.8713 
G01 X-25.2231 Y40.7181 
G01 X-25.2231 Y40.5619 
G01 X-25.2536 Y40.4087 
G01 X-25.3133 Y40.2644 
G01 X-25.4001 Y40.1346 
G01 X-25.5106 Y40.0241 
G01 X-25.6404 Y39.9373 
G01 X-25.7847 Y39.8776 
G01 X-25.9379 Y39.8471 
G01 X-27.4021 Y39.8471 
G01 X-27.5553 Y39.8776 
G01 X-27.6996 Y39.9373 
G01 X-27.8294 Y40.0241 
G00 Z2.0000 
G00 X-27.8294 Y42.5641 
G01 Z-0.0250 F254.00 
G01 X-27.9399 Y42.6746 F508.00 
G01 X-28.0267 Y42.8044 
G01 X-28.0864 Y42.9487 
G01 X-28.0889 Y42.9611 
G01 X-37.5380 Y42.9611 
G01 X-37.6115 Y42.9808 
G01 X-37.6774 Y43.0188 
G01 X-40.3477 Y45.6891 
G01 X-40.3937 Y45.6701 
G01 X-40.5469 Y45.6396 
G01 X-40.7031 Y45.6396 
G01 X-40.8563 Y45.6701 
G01 X-41.0006 Y45.7298 
G01 X-41.1304 Y45.8166 
G01 X-41.2409 Y45.9271 
G01 X-41.3277 Y46.0569 
G01 X-41.3874 Y46.2012 
G01 X-41.4179 Y46.3544 
G01 X-41.4179 Y46.5106 
G01 X-41.3874 Y46.6638 
G01 X-41.3277 Y46.8081 
G01 X-41.2409 Y46.9379 
G01 X-41.1304 Y47.0484 
G01 X-41.0006 Y47.1352 
G01 X-40.8563 Y47.1949 
G01 X-40.7031 Y47.2254 
G01 X-40.5469 Y47.2254 
G01 X-40.3937 Y47.1949 
G01 X-40.2494 Y47.1352 
G01 X-40.1196 Y47.0484 
G01 X-40.0091 Y46.9379 
G01 X-39.9223 Y46.8081 
G01 X-39.8626 Y46.6638 
G01 X-39.8321 Y46.5106 
G01 X-39.8321 Y46.3544 
G01 X-39.8626 Y46.2012 
G01 X-39.9153 Y46.0739 
G01 X-37.3803 Y43.5389 
G01 X-28.0336 Y43.5389 
G01 X-28.0267 Y43.5556 
G01 X-27.9399 Y43.6854 
G01 X-27.8294 Y43.7959 
G01 X-27.6996 Y43.8827 
G01 X-27.5553 Y43.9424 
G01 X-27.4021 Y43.9729 
G01 X-25.9379 Y43.9729 
G01 X-25.7847 Y43.9424 
G01 X-25.6404 Y43.8827 
G01 X-25.5106 Y43.7959 
G01 X-25.4001 Y43.6854 
G01 X-25.3133 Y43.5556 
G01 X-25.2536 Y43.4113 
G01 X-25.2231 Y43.2581 
G01 X-25.2231 Y43.1019 
G01 X-25.2536 Y42.9487 
G01 X-25.3133 Y42.8044 
G01 X-25.4001 Y42.6746 
G01 X-25.5106 Y42.5641 
G01 X-25.6404 Y42.4773 
G01 X-25.7847 Y42.4176 
G01 X-25.9379 Y42.3871 
G01 X-27.4021 Y42.3871 
G01 X-27.5553 Y42.4176 
G01 X-27.6996 Y42.4773 
G01 X-27.8294 Y42.5641 
G00 Z2.0000 
G00 X-27.8294 Y45.1041 
G01 Z-0.0250 F254.00 
G01 X-27.9399 Y45.2146 F508.00 
G01 X-28.0267 Y45.3444 
G01 X-28.0864 Y45.4887 
G01 X-28.1169 Y45.6419 
G01 X-28.1169 Y45.7981 
G01 X-28.0864 Y45.9513 
G01 X-28.0267 Y46.0956 
G01 X-27.9399 Y46.2254 
G01 X-27.8294 Y46.3359 
G01 X-27.6996 Y46.4227 
G01 X-27.5553 Y46.4824 
G01 X-27.4021 Y46.5129 
G01 X-25.9379 Y46.5129 
G01 X-25.7847 Y46.4824 
G01 X-25.6404 Y46.4227 
G01 X-25.5106 Y46.3359 
G01 X-25.4001 Y46.2254 
G01 X-25.3133 Y46.0956 
G01 X-25.2536 Y45.9513 
G01 X-25.2231 Y45.7981 
G01 X-25.2231 Y45.6419 
G01 X-25.2536 Y45.4887 
G01 X-25.3133 Y45.3444 
G01 X-25.4001 Y45.2146 
G01 X-25.5106 Y45.1041 
G01 X-25.6404 Y45.0173 
G01 X-25.7847 Y44.9576 
G01 X-25.9379 Y44.9271 
G01 X-27.4021 Y44.9271 
G01 X-27.5553 Y44.9576 
G01 X-27.6996 Y45.0173 
G01 X-27.8294 Y45.1041 
G00 Z2.0000 
G00 X-27.8294 Y47.6441 
G01 Z-0.0250 F254.00 
G01 X-27.9399 Y47.7546 F508.00 
G01 X-28.0267 Y47.8844 
G01 X-28.0864 Y48.0287 
G01 X-28.1169 Y48.1819 
G01 X-28.1169 Y48.3381 
G01 X-28.0864 Y48.4913 
G01 X-28.0267 Y48.6356 
G01 X-27.9399 Y48.7654 
G01 X-27.8294 Y48.8759 
G01 X-27.6996 Y48.9627 
G01 X-27.5553 Y49.0224 
G01 X-27.4021 Y49.0529 
G01 X-25.9379 Y49.0529 
G01 X-25.7847 Y49.0224 
G01 X-25.6404 Y48.9627 
G01 X-25.5106 Y48.8759 
G01 X-25.4001 Y48.7654 
G01 X-25.3133 Y48.6356 
G01 X-25.2536 Y48.4913 
G01 X-25.2231 Y48.3381 
G01 X-25.2231 Y48.1819 
G01 X-25.2536 Y48.0287 
G01 X-25.3133 Y47.8844 
G01 X-25.4001 Y47.7546 
G01 X-25.5106 Y47.6441 
G01 X-25.6404 Y47.5573 
G01 X-25.7847 Y47.4976 
G01 X-25.9379 Y47.4671 
G01 X-27.4021 Y47.4671 
G01 X-27.5553 Y47.4976 
G01 X-27.6996 Y47.5573 
G01 X-27.8294 Y47.6441 
G00 Z2.0000 
G00 X-25.7120 Y47.2889 
G01 Z-0.0250 F254.00 
G01 X-25.6385 Y47.2692 F508.00 
G01 X-25.5726 Y47.2312 
G01 X-25.5188 Y47.1774 
G01 X-19.3803 Y41.0389 
G01 X-12.7711 Y41.0389 
G01 X-12.6999 Y41.1454 
G01 X-12.5894 Y41.2559 
G01 X-12.4596 Y41.3427 
G01 X-12.3153 Y41.4024 
G01 X-12.1621 Y41.4329 
G01 X-10.6979 Y41.4329 
G01 X-10.5447 Y41.4024 
G01 X-10.4004 Y41.3427 
G01 X-10.2706 Y41.2559 
G01 X-10.1601 Y41.1454 
G01 X-10.0733 Y41.0156 
G01 X-10.0136 Y40.8713 
G01 X-9.9831 Y40.7181 
G01 X-9.9831 Y40.5619 
G01 X-10.0136 Y40.4087 
G01 X-10.0733 Y40.2644 
G01 X-10.1601 Y40.1346 
G01 X-10.2706 Y40.0241 
G01 X-10.4004 Y39.9373 
G01 X-10.5447 Y39.8776 
G01 X-10.6979 Y39.8471 
G01 X-12.1621 Y39.8471 
G01 X-12.3153 Y39.8776 
G01 X-12.4596 Y39.9373 
G01 X-12.5894 Y40.0241 
G01 X-12.6999 Y40.1346 
G01 X-12.7867 Y40.2644 
G01 X-12.8464 Y40.4087 
G01 X-12.8568 Y40.4611 
G01 X-19.5380 Y40.4611 
G01 X-19.6115 Y40.4808 
G01 X-19.6774 Y40.5188 
G01 X-25.8697 Y46.7111 
G01 X-37.0380 Y46.7111 
G01 X-37.1115 Y46.7308 
G01 X-37.1774 Y46.7688 
G01 X-37.8697 Y47.4611 
G01 X-44.5380 Y47.4611 
G01 X-44.6115 Y47.4808 
G01 X-44.6774 Y47.5188 
G01 X-45.3382 Y48.1796 
G01 X-46.3866 Y48.1796 
G01 X-46.4377 Y48.2007 
G01 X-46.4768 Y48.2398 
G01 X-46.4979 Y48.2909 
G01 X-46.4979 Y49.6541 
G01 X-46.4768 Y49.7052 
G01 X-46.4377 Y49.7443 
G01 X-46.3866 Y49.7654 
G01 X-45.0234 Y49.7654 
G01 X-44.9723 Y49.7443 
G01 X-44.9332 Y49.7052 
G01 X-44.9121 Y49.6541 
G01 X-44.9121 Y48.5707 
G01 X-44.3803 Y48.0389 
G01 X-37.7120 Y48.0389 
G01 X-37.6385 Y48.0192 
G01 X-37.5726 Y47.9812 
G01 X-37.5188 Y47.9274 
G01 X-36.8803 Y47.2889 
G01 X-25.7120 Y47.2889 
G00 Z2.0000 
G00 X-25.7847 Y50.0376 
G01 Z-0.0250 F254.00 
G01 X-25.9379 Y50.0071 F508.00 
G01 X-27.4021 Y50.0071 
G01 X-27.5553 Y50.0376 
G01 X-27.6996 Y50.0973 
G01 X-27.8294 Y50.1841 
G01 X-27.9399 Y50.2946 
G01 X-28.0267 Y50.4244 
G01 X-28.0864 Y50.5687 
G01 X-28.1169 Y50.7219 
G01 X-28.1169 Y50.8781 
G01 X-28.0864 Y51.0313 
G01 X-28.0267 Y51.1756 
G01 X-27.9399 Y51.3054 
G01 X-27.8294 Y51.4159 
G01 X-27.6996 Y51.5027 
G01 X-27.5553 Y51.5624 
G01 X-27.4021 Y51.5929 
G01 X-25.9379 Y51.5929 
G01 X-25.7847 Y51.5624 
G01 X-25.6404 Y51.5027 
G01 X-25.5106 Y51.4159 
G01 X-25.4001 Y51.3054 
G01 X-25.3133 Y51.1756 
G01 X-25.2536 Y51.0313 
G01 X-25.2231 Y50.8781 
G01 X-25.2231 Y50.7219 
G01 X-25.2536 Y50.5687 
G01 X-25.3133 Y50.4244 
G01 X-25.4001 Y50.2946 
G01 X-25.5106 Y50.1841 
G01 X-25.6404 Y50.0973 
G01 X-25.7847 Y50.0376 
G00 Z2.0000 
G00 X-25.7756 Y51.9833 
G01 Z-0.0250 F254.00 
G01 X-25.9054 Y52.0701 F508.00 
G01 X-26.0159 Y52.1806 
G01 X-26.1027 Y52.3104 
G01 X-26.1624 Y52.4547 
G01 X-26.1929 Y52.6079 
G01 X-26.1929 Y54.0721 
G01 X-26.1624 Y54.2253 
G01 X-26.1027 Y54.3696 
G01 X-26.0159 Y54.4994 
G01 X-25.9054 Y54.6099 
G01 X-25.7756 Y54.6967 
G01 X-25.6313 Y54.7564 
G01 X-25.4781 Y54.7869 
G01 X-25.3219 Y54.7869 
G01 X-25.1687 Y54.7564 
G01 X-25.0244 Y54.6967 
G01 X-24.8946 Y54.6099 
G01 X-24.7841 Y54.4994 
G01 X-24.6973 Y54.3696 
G01 X-24.6376 Y54.2253 
G01 X-24.6071 Y54.0721 
G01 X-24.6071 Y52.6079 
G01 X-24.6376 Y52.4547 
G01 X-24.6973 Y52.3104 
G01 X-24.7841 Y52.1806 
G01 X-24.8946 Y52.0701 
G01 X-25.0244 Y51.9833 
G01 X-25.1687 Y51.9236 
G01 X-25.3219 Y51.8931 
G01 X-25.4781 Y51.8931 
G01 X-25.6313 Y51.9236 
G01 X-25.7756 Y51.9833 
G00 Z2.0000 
G00 X-23.3654 Y52.0701 
G01 Z-0.0250 F254.00 
G01 X-23.4759 Y52.1806 F508.00 
G01 X-23.5627 Y52.3104 
G01 X-23.6224 Y52.4547 
G01 X-23.6529 Y52.6079 
G01 X-23.6529 Y54.0721 
G01 X-23.6224 Y54.2253 
G01 X-23.5627 Y54.3696 
G01 X-23.4759 Y54.4994 
G01 X-23.3654 Y54.6099 
G01 X-23.2356 Y54.6967 
G01 X-23.0913 Y54.7564 
G01 X-22.9381 Y54.7869 
G01 X-22.7819 Y54.7869 
G01 X-22.6287 Y54.7564 
G01 X-22.4844 Y54.6967 
G01 X-22.3546 Y54.6099 
G01 X-22.2441 Y54.4994 
G01 X-22.1573 Y54.3696 
G01 X-22.0976 Y54.2253 
G01 X-22.0671 Y54.0721 
G01 X-22.0671 Y52.6079 
G01 X-22.0976 Y52.4547 
G01 X-22.1573 Y52.3104 
G01 X-22.2441 Y52.1806 
G01 X-22.3546 Y52.0701 
G01 X-22.4844 Y51.9833 
G01 X-22.6287 Y51.9236 
G01 X-22.7819 Y51.8931 
G01 X-22.9381 Y51.8931 
G01 X-23.0913 Y51.9236 
G01 X-23.2356 Y51.9833 
G01 X-23.3654 Y52.0701 
G00 Z2.0000 
G00 X-20.8254 Y52.0701 
G01 Z-0.0250 F254.00 
G01 X-20.9359 Y52.1806 F508.00 
G01 X-21.0227 Y52.3104 
G01 X-21.0824 Y52.4547 
G01 X-21.1129 Y52.6079 
G01 X-21.1129 Y54.0721 
G01 X-21.0824 Y54.2253 
G01 X-21.0227 Y54.3696 
G01 X-20.9359 Y54.4994 
G01 X-20.8254 Y54.6099 
G01 X-20.6956 Y54.6967 
G01 X-20.5513 Y54.7564 
G01 X-20.3981 Y54.7869 
G01 X-20.2419 Y54.7869 
G01 X-20.0887 Y54.7564 
G01 X-19.9444 Y54.6967 
G01 X-19.8146 Y54.6099 
G01 X-19.7041 Y54.4994 
G01 X-19.6173 Y54.3696 
G01 X-19.5576 Y54.2253 
G01 X-19.5271 Y54.0721 
G01 X-19.5271 Y52.6079 
G01 X-19.5576 Y52.4547 
G01 X-19.6173 Y52.3104 
G01 X-19.7041 Y52.1806 
G01 X-19.8146 Y52.0701 
G01 X-19.9444 Y51.9833 
G01 X-20.0887 Y51.9236 
G01 X-20.2419 Y51.8931 
G01 X-20.3981 Y51.8931 
G01 X-20.5513 Y51.9236 
G01 X-20.6956 Y51.9833 
G01 X-20.8254 Y52.0701 
G00 Z2.0000 
G00 X-18.2854 Y52.0701 
G01 Z-0.0250 F254.00 
G01 X-18.3959 Y52.1806 F508.00 
G01 X-18.4827 Y52.3104 
G01 X-18.5424 Y52.4547 
G01 X-18.5729 Y52.6079 
G01 X-18.5729 Y54.0721 
G01 X-18.5424 Y54.2253 
G01 X-18.4827 Y54.3696 
G01 X-18.3959 Y54.4994 
G01 X-18.2854 Y54.6099 
G01 X-18.1556 Y54.6967 
G01 X-18.0113 Y54.7564 
G01 X-17.8581 Y54.7869 
G01 X-17.7019 Y54.7869 
G01 X-17.5487 Y54.7564 
G01 X-17.4044 Y54.6967 
G01 X-17.2746 Y54.6099 
G01 X-17.1641 Y54.4994 
G01 X-17.0773 Y54.3696 
G01 X-17.0176 Y54.2253 
G01 X-16.9871 Y54.0721 
G01 X-16.9871 Y52.6079 
G01 X-17.0176 Y52.4547 
G01 X-17.0773 Y52.3104 
G01 X-17.1641 Y52.1806 
G01 X-17.2746 Y52.0701 
G01 X-17.4044 Y51.9833 
G01 X-17.5487 Y51.9236 
G01 X-17.7019 Y51.8931 
G01 X-17.8581 Y51.8931 
G01 X-18.0113 Y51.9236 
G01 X-18.1556 Y51.9833 
G01 X-18.2854 Y52.0701 
G00 Z2.0000 
G00 X-15.7454 Y52.0701 
G01 Z-0.0250 F254.00 
G01 X-15.8559 Y52.1806 F508.00 
G01 X-15.9427 Y52.3104 
G01 X-16.0024 Y52.4547 
G01 X-16.0329 Y52.6079 
G01 X-16.0329 Y54.0721 
G01 X-16.0024 Y54.2253 
G01 X-15.9427 Y54.3696 
G01 X-15.8559 Y54.4994 
G01 X-15.7454 Y54.6099 
G01 X-15.6156 Y54.6967 
G01 X-15.4713 Y54.7564 
G01 X-15.3181 Y54.7869 
G01 X-15.1619 Y54.7869 
G01 X-15.0087 Y54.7564 
G01 X-14.8644 Y54.6967 
G01 X-14.7346 Y54.6099 
G01 X-14.6241 Y54.4994 
G01 X-14.5373 Y54.3696 
G01 X-14.4776 Y54.2253 
G01 X-14.4471 Y54.0721 
G01 X-14.4471 Y52.6079 
G01 X-14.4776 Y52.4547 
G01 X-14.5373 Y52.3104 
G01 X-14.6241 Y52.1806 
G01 X-14.7346 Y52.0701 
G01 X-14.8644 Y51.9833 
G01 X-15.0087 Y51.9236 
G01 X-15.1619 Y51.8931 
G01 X-15.3181 Y51.8931 
G01 X-15.4713 Y51.9236 
G01 X-15.6156 Y51.9833 
G01 X-15.7454 Y52.0701 
G00 Z2.0000 
G00 X-13.2054 Y52.0701 
G01 Z-0.0250 F254.00 
G01 X-13.3159 Y52.1806 F508.00 
G01 X-13.4027 Y52.3104 
G01 X-13.4624 Y52.4547 
G01 X-13.4929 Y52.6079 
G01 X-13.4929 Y54.0721 
G01 X-13.4624 Y54.2253 
G01 X-13.4027 Y54.3696 
G01 X-13.3159 Y54.4994 
G01 X-13.2054 Y54.6099 
G01 X-13.0756 Y54.6967 
G01 X-12.9313 Y54.7564 
G01 X-12.7781 Y54.7869 
G01 X-12.6219 Y54.7869 
G01 X-12.4687 Y54.7564 
G01 X-12.3244 Y54.6967 
G01 X-12.1946 Y54.6099 
G01 X-12.0841 Y54.4994 
G01 X-11.9973 Y54.3696 
G01 X-11.9376 Y54.2253 
G01 X-11.9071 Y54.0721 
G01 X-11.9071 Y52.6079 
G01 X-11.9376 Y52.4547 
G01 X-11.9973 Y52.3104 
G01 X-12.0841 Y52.1806 
G01 X-12.1946 Y52.0701 
G01 X-12.3244 Y51.9833 
G01 X-12.4687 Y51.9236 
G01 X-12.6219 Y51.8931 
G01 X-12.7781 Y51.8931 
G01 X-12.9313 Y51.9236 
G01 X-13.0756 Y51.9833 
G01 X-13.2054 Y52.0701 
G00 Z2.0000 
G00 X-12.6999 Y51.3054 
G01 Z-0.0250 F254.00 
G01 X-12.5894 Y51.4159 F508.00 
G01 X-12.4596 Y51.5027 
G01 X-12.3153 Y51.5624 
G01 X-12.1621 Y51.5929 
G01 X-10.6979 Y51.5929 
G01 X-10.5447 Y51.5624 
G01 X-10.4004 Y51.5027 
G01 X-10.2706 Y51.4159 
G01 X-10.1601 Y51.3054 
G01 X-10.0733 Y51.1756 
G01 X-10.0136 Y51.0313 
G01 X-9.9831 Y50.8781 
G01 X-9.9831 Y50.7219 
G01 X-10.0136 Y50.5687 
G01 X-10.0733 Y50.4244 
G01 X-10.1601 Y50.2946 
G01 X-10.2706 Y50.1841 
G01 X-10.4004 Y50.0973 
G01 X-10.5447 Y50.0376 
G01 X-10.6979 Y50.0071 
G01 X-12.1621 Y50.0071 
G01 X-12.3153 Y50.0376 
G01 X-12.4596 Y50.0973 
G01 X-12.5894 Y50.1841 
G01 X-12.6999 Y50.2946 
G01 X-12.7867 Y50.4244 
G01 X-12.8464 Y50.5687 
G01 X-12.8769 Y50.7219 
G01 X-12.8769 Y50.8781 
G01 X-12.8464 Y51.0313 
G01 X-12.7867 Y51.1756 
G01 X-12.6999 Y51.3054 
G00 Z2.0000 
G00 X-12.6999 Y48.7654 
G01 Z-0.0250 F254.00 
G01 X-12.5894 Y48.8759 F508.00 
G01 X-12.4596 Y48.9627 
G01 X-12.3153 Y49.0224 
G01 X-12.1621 Y49.0529 
G01 X-10.6979 Y49.0529 
G01 X-10.5447 Y49.0224 
G01 X-10.4004 Y48.9627 
G01 X-10.2706 Y48.8759 
G01 X-10.1601 Y48.7654 
G01 X-10.0733 Y48.6356 
G01 X-10.0136 Y48.4913 
G01 X-9.9831 Y48.3381 
G01 X-9.9831 Y48.1819 
G01 X-10.0136 Y48.0287 
G01 X-10.0733 Y47.8844 
G01 X-10.1601 Y47.7546 
G01 X-10.2706 Y47.6441 
G01 X-10.4004 Y47.5573 
G01 X-10.5447 Y47.4976 
G01 X-10.6979 Y47.4671 
G01 X-12.1621 Y47.4671 
G01 X-12.3153 Y47.4976 
G01 X-12.4596 Y47.5573 
G01 X-12.5894 Y47.6441 
G01 X-12.6999 Y47.7546 
G01 X-12.7867 Y47.8844 
G01 X-12.8464 Y48.0287 
G01 X-12.8769 Y48.1819 
G01 X-12.8769 Y48.3381 
G01 X-12.8464 Y48.4913 
G01 X-12.7867 Y48.6356 
G01 X-12.6999 Y48.7654 
G00 Z2.0000 
G00 X-12.6999 Y46.2254 
G01 Z-0.0250 F254.00 
G01 X-12.5894 Y46.3359 F508.00 
G01 X-12.4596 Y46.4227 
G01 X-12.3153 Y46.4824 
G01 X-12.1621 Y46.5129 
G01 X-10.6979 Y46.5129 
G01 X-10.5447 Y46.4824 
G01 X-10.4004 Y46.4227 
G01 X-10.2706 Y46.3359 
G01 X-10.1601 Y46.2254 
G01 X-10.0733 Y46.0956 
G01 X-10.0136 Y45.9513 
G01 X-9.9831 Y45.7981 
G01 X-9.9831 Y45.6419 
G01 X-10.0136 Y45.4887 
G01 X-10.0733 Y45.3444 
G01 X-10.1601 Y45.2146 
G01 X-10.2706 Y45.1041 
G01 X-10.4004 Y45.0173 
G01 X-10.5447 Y44.9576 
G01 X-10.6979 Y44.9271 
G01 X-12.1621 Y44.9271 
G01 X-12.3153 Y44.9576 
G01 X-12.4596 Y45.0173 
G01 X-12.5894 Y45.1041 
G01 X-12.6999 Y45.2146 
G01 X-12.7867 Y45.3444 
G01 X-12.8464 Y45.4887 
G01 X-12.8769 Y45.6419 
G01 X-12.8769 Y45.7981 
G01 X-12.8464 Y45.9513 
G01 X-12.7867 Y46.0956 
G01 X-12.6999 Y46.2254 
G00 Z2.0000 
G00 X-12.6999 Y43.6854 
G01 Z-0.0250 F254.00 
G01 X-12.5894 Y43.7959 F508.00 
G01 X-12.4596 Y43.8827 
G01 X-12.3153 Y43.9424 
G01 X-12.1621 Y43.9729 
G01 X-10.6979 Y43.9729 
G01 X-10.5447 Y43.9424 
G01 X-10.4004 Y43.8827 
G01 X-10.2706 Y43.7959 
G01 X-10.1601 Y43.6854 
G01 X-10.0733 Y43.5556 
G01 X-10.0136 Y43.4113 
G01 X-9.9831 Y43.2581 
G01 X-9.9831 Y43.1019 
G01 X-10.0136 Y42.9487 
G01 X-10.0733 Y42.8044 
G01 X-10.1601 Y42.6746 
G01 X-10.2706 Y42.5641 
G01 X-10.4004 Y42.4773 
G01 X-10.5447 Y42.4176 
G01 X-10.6979 Y42.3871 
G01 X-12.1621 Y42.3871 
G01 X-12.3153 Y42.4176 
G01 X-12.4596 Y42.4773 
G01 X-12.5894 Y42.5641 
G01 X-12.6999 Y42.6746 
G01 X-12.7867 Y42.8044 
G01 X-12.8464 Y42.9487 
G01 X-12.8769 Y43.1019 
G01 X-12.8769 Y43.2581 
G01 X-12.8464 Y43.4113 
G01 X-12.7867 Y43.5556 
G01 X-12.6999 Y43.6854 
G00 Z2.0000 
G00 X-12.6999 Y38.6054 
G01 Z-0.0250 F254.00 
G01 X-12.5894 Y38.7159 F508.00 
G01 X-12.4596 Y38.8027 
G01 X-12.3153 Y38.8624 
G01 X-12.1621 Y38.8929 
G01 X-10.6979 Y38.8929 
G01 X-10.5447 Y38.8624 
G01 X-10.4004 Y38.8027 
G01 X-10.2706 Y38.7159 
G01 X-10.1601 Y38.6054 
G01 X-10.0733 Y38.4756 
G01 X-10.0136 Y38.3313 
G01 X-9.9831 Y38.1781 
G01 X-9.9831 Y38.0219 
G01 X-10.0136 Y37.8687 
G01 X-10.0733 Y37.7244 
G01 X-10.1601 Y37.5946 
G01 X-10.2706 Y37.4841 
G01 X-10.4004 Y37.3973 
G01 X-10.5447 Y37.3376 
G01 X-10.6979 Y37.3071 
G01 X-12.1621 Y37.3071 
G01 X-12.3153 Y37.3376 
G01 X-12.4596 Y37.3973 
G01 X-12.5894 Y37.4841 
G01 X-12.6999 Y37.5946 
G01 X-12.7867 Y37.7244 
G01 X-12.8464 Y37.8687 
G01 X-12.8769 Y38.0219 
G01 X-12.8769 Y38.1781 
G01 X-12.8464 Y38.3313 
G01 X-12.7867 Y38.4756 
G01 X-12.6999 Y38.6054 
G00 Z2.0000 
G00 X-12.6999 Y36.0654 
G01 Z-0.0250 F254.00 
G01 X-12.5894 Y36.1759 F508.00 
G01 X-12.4596 Y36.2627 
G01 X-12.3153 Y36.3224 
G01 X-12.1621 Y36.3529 
G01 X-10.6979 Y36.3529 
G01 X-10.5447 Y36.3224 
G01 X-10.4004 Y36.2627 
G01 X-10.2706 Y36.1759 
G01 X-10.1601 Y36.0654 
G01 X-10.0733 Y35.9356 
G01 X-10.0136 Y35.7913 
G01 X-9.9831 Y35.6381 
G01 X-9.9831 Y35.4819 
G01 X-10.0136 Y35.3287 
G01 X-10.0733 Y35.1844 
G01 X-10.1601 Y35.0546 
G01 X-10.2706 Y34.9441 
G01 X-10.4004 Y34.8573 
G01 X-10.5447 Y34.7976 
G01 X-10.6979 Y34.7671 
G01 X-12.1621 Y34.7671 
G01 X-12.3153 Y34.7976 
G01 X-12.4596 Y34.8573 
G01 X-12.5894 Y34.9441 
G01 X-12.6999 Y35.0546 
G01 X-12.7867 Y35.1844 
G01 X-12.8464 Y35.3287 
G01 X-12.8769 Y35.4819 
G01 X-12.8769 Y35.6381 
G01 X-12.8464 Y35.7913 
G01 X-12.7867 Y35.9356 
G01 X-12.6999 Y36.0654 
G00 Z2.0000 
G00 X-12.6999 Y33.5254 
G01 Z-0.0250 F254.00 
G01 X-12.5894 Y33.6359 F508.00 
G01 X-12.4596 Y33.7227 
G01 X-12.3153 Y33.7824 
G01 X-12.1621 Y33.8129 
G01 X-10.6979 Y33.8129 
G01 X-10.5447 Y33.7824 
G01 X-10.4004 Y33.7227 
G01 X-10.2706 Y33.6359 
G01 X-10.1601 Y33.5254 
G01 X-10.0733 Y33.3956 
G01 X-10.0136 Y33.2513 
G01 X-9.9831 Y33.0981 
G01 X-9.9831 Y32.9419 
G01 X-10.0136 Y32.7887 
G01 X-10.0733 Y32.6444 
G01 X-10.1601 Y32.5146 
G01 X-10.2706 Y32.4041 
G01 X-10.4004 Y32.3173 
G01 X-10.5447 Y32.2576 
G01 X-10.6979 Y32.2271 
G01 X-12.1621 Y32.2271 
G01 X-12.3153 Y32.2576 
G01 X-12.4596 Y32.3173 
G01 X-12.5894 Y32.4041 
G01 X-12.6999 Y32.5146 
G01 X-12.7867 Y32.6444 
G01 X-12.8464 Y32.7887 
G01 X-12.8769 Y32.9419 
G01 X-12.8769 Y33.0981 
G01 X-12.8464 Y33.2513 
G01 X-12.7867 Y33.3956 
G01 X-12.6999 Y33.5254 
G00 Z2.0000 
G00 X-12.6999 Y30.9854 
G01 Z-0.0250 F254.00 
G01 X-12.5894 Y31.0959 F508.00 
G01 X-12.4596 Y31.1827 
G01 X-12.3153 Y31.2424 
G01 X-12.1621 Y31.2729 
G01 X-10.6979 Y31.2729 
G01 X-10.5447 Y31.2424 
G01 X-10.4004 Y31.1827 
G01 X-10.2706 Y31.0959 
G01 X-10.1601 Y30.9854 
G01 X-10.0733 Y30.8556 
G01 X-10.0136 Y30.7113 
G01 X-9.9831 Y30.5581 
G01 X-9.9831 Y30.4019 
G01 X-10.0136 Y30.2487 
G01 X-10.0733 Y30.1044 
G01 X-10.1601 Y29.9746 
G01 X-10.2706 Y29.8641 
G01 X-10.4004 Y29.7773 
G01 X-10.5447 Y29.7176 
G01 X-10.6979 Y29.6871 
G01 X-12.1621 Y29.6871 
G01 X-12.3153 Y29.7176 
G01 X-12.4596 Y29.7773 
G01 X-12.5894 Y29.8641 
G01 X-12.6999 Y29.9746 
G01 X-12.7867 Y30.1044 
G01 X-12.8464 Y30.2487 
G01 X-12.8769 Y30.4019 
G01 X-12.8769 Y30.5581 
G01 X-12.8464 Y30.7113 
G01 X-12.7867 Y30.8556 
G01 X-12.6999 Y30.9854 
G00 Z2.0000 
G00 X-12.6999 Y28.4454 
G01 Z-0.0250 F254.00 
G01 X-12.5894 Y28.5559 F508.00 
G01 X-12.4596 Y28.6427 
G01 X-12.3153 Y28.7024 
G01 X-12.1621 Y28.7329 
G01 X-10.6979 Y28.7329 
G01 X-10.5447 Y28.7024 
G01 X-10.4004 Y28.6427 
G01 X-10.2706 Y28.5559 
G01 X-10.1601 Y28.4454 
G01 X-10.0733 Y28.3156 
G01 X-10.0136 Y28.1713 
G01 X-9.9831 Y28.0181 
G01 X-9.9831 Y27.8619 
G01 X-10.0136 Y27.7087 
G01 X-10.0733 Y27.5644 
G01 X-10.1601 Y27.4346 
G01 X-10.2706 Y27.3241 
G01 X-10.4004 Y27.2373 
G01 X-10.5447 Y27.1776 
G01 X-10.6979 Y27.1471 
G01 X-12.1621 Y27.1471 
G01 X-12.3153 Y27.1776 
G01 X-12.4596 Y27.2373 
G01 X-12.5894 Y27.3241 
G01 X-12.6999 Y27.4346 
G01 X-12.7867 Y27.5644 
G01 X-12.8464 Y27.7087 
G01 X-12.8769 Y27.8619 
G01 X-12.8769 Y28.0181 
G01 X-12.8464 Y28.1713 
G01 X-12.7867 Y28.3156 
G01 X-12.6999 Y28.4454 
G00 Z2.0000 
G00 X-12.6999 Y25.9054 
G01 Z-0.0250 F254.00 
G01 X-12.5894 Y26.0159 F508.00 
G01 X-12.4596 Y26.1027 
G01 X-12.3153 Y26.1624 
G01 X-12.1621 Y26.1929 
G01 X-10.6979 Y26.1929 
G01 X-10.5447 Y26.1624 
G01 X-10.4004 Y26.1027 
G01 X-10.2706 Y26.0159 
G01 X-10.1601 Y25.9054 
G01 X-10.0733 Y25.7756 
G01 X-10.0136 Y25.6313 
G01 X-9.9831 Y25.4781 
G01 X-9.9831 Y25.3219 
G01 X-10.0136 Y25.1687 
G01 X-10.0733 Y25.0244 
G01 X-10.1601 Y24.8946 
G01 X-10.2706 Y24.7841 
G01 X-10.4004 Y24.6973 
G01 X-10.5447 Y24.6376 
G01 X-10.6979 Y24.6071 
G01 X-12.1621 Y24.6071 
G01 X-12.3153 Y24.6376 
G01 X-12.4596 Y24.6973 
G01 X-12.5894 Y24.7841 
G01 X-12.6999 Y24.8946 
G01 X-12.7867 Y25.0244 
G01 X-12.8464 Y25.1687 
G01 X-12.8769 Y25.3219 
G01 X-12.8769 Y25.4781 
G01 X-12.8464 Y25.6313 
G01 X-12.7867 Y25.7756 
G01 X-12.6999 Y25.9054 
G00 Z2.0000 
G00 X-12.6999 Y23.3654 
G01 Z-0.0250 F254.00 
G01 X-12.5894 Y23.4759 F508.00 
G01 X-12.4596 Y23.5627 
G01 X-12.3153 Y23.6224 
G01 X-12.1621 Y23.6529 
G01 X-10.6979 Y23.6529 
G01 X-10.5447 Y23.6224 
G01 X-10.4004 Y23.5627 
G01 X-10.2706 Y23.4759 
G01 X-10.1601 Y23.3654 
G01 X-10.0733 Y23.2356 
G01 X-10.0136 Y23.0913 
G01 X-9.9831 Y22.9381 
G01 X-9.9831 Y22.7819 
G01 X-10.0136 Y22.6287 
G01 X-10.0733 Y22.4844 
G01 X-10.1601 Y22.3546 
G01 X-10.2706 Y22.2441 
G01 X-10.4004 Y22.1573 
G01 X-10.5447 Y22.0976 
G01 X-10.6979 Y22.0671 
G01 X-12.1621 Y22.0671 
G01 X-12.3153 Y22.0976 
G01 X-12.4596 Y22.1573 
G01 X-12.5894 Y22.2441 
G01 X-12.6999 Y22.3546 
G01 X-12.7867 Y22.4844 
G01 X-12.8464 Y22.6287 
G01 X-12.8769 Y22.7819 
G01 X-12.8769 Y22.9381 
G01 X-12.8464 Y23.0913 
G01 X-12.7867 Y23.2356 
G01 X-12.6999 Y23.3654 
G00 Z2.0000 
G00 X-16.9871 Y23.5921 
G01 Z-0.0250 F254.00 
G01 X-16.9871 Y22.1279 F508.00 
G01 X-17.0176 Y21.9747 
G01 X-17.0773 Y21.8304 
G01 X-17.1641 Y21.7006 
G01 X-17.2746 Y21.5901 
G01 X-17.4044 Y21.5033 
G01 X-17.5487 Y21.4436 
G01 X-17.7019 Y21.4131 
G01 X-17.8581 Y21.4131 
G01 X-18.0113 Y21.4436 
G01 X-18.1556 Y21.5033 
G01 X-18.2854 Y21.5901 
G01 X-18.3959 Y21.7006 
G01 X-18.4827 Y21.8304 
G01 X-18.5424 Y21.9747 
G01 X-18.5729 Y22.1279 
G01 X-18.5729 Y23.5921 
G01 X-18.5424 Y23.7453 
G01 X-18.4827 Y23.8896 
G01 X-18.3959 Y24.0194 
G01 X-18.2854 Y24.1299 
G01 X-18.1556 Y24.2167 
G01 X-18.0113 Y24.2764 
G01 X-17.8581 Y24.3069 
G01 X-17.7019 Y24.3069 
G01 X-17.5487 Y24.2764 
G01 X-17.4044 Y24.2167 
G01 X-17.2746 Y24.1299 
G01 X-17.1641 Y24.0194 
G01 X-17.0773 Y23.8896 
G01 X-17.0176 Y23.7453 
G01 X-16.9871 Y23.5921 
G00 Z2.0000 
G00 X-19.5271 Y23.5921 
G01 Z-0.0250 F254.00 
G01 X-19.5271 Y22.1279 F508.00 
G01 X-19.5576 Y21.9747 
G01 X-19.6173 Y21.8304 
G01 X-19.7041 Y21.7006 
G01 X-19.8146 Y21.5901 
G01 X-19.9444 Y21.5033 
G01 X-20.0887 Y21.4436 
G01 X-20.2419 Y21.4131 
G01 X-20.3981 Y21.4131 
G01 X-20.5513 Y21.4436 
G01 X-20.6956 Y21.5033 
G01 X-20.8254 Y21.5901 
G01 X-20.9359 Y21.7006 
G01 X-21.0227 Y21.8304 
G01 X-21.0824 Y21.9747 
G01 X-21.1129 Y22.1279 
G01 X-21.1129 Y23.5921 
G01 X-21.0824 Y23.7453 
G01 X-21.0227 Y23.8896 
G01 X-20.9359 Y24.0194 
G01 X-20.8254 Y24.1299 
G01 X-20.6956 Y24.2167 
G01 X-20.5513 Y24.2764 
G01 X-20.3981 Y24.3069 
G01 X-20.2419 Y24.3069 
G01 X-20.0887 Y24.2764 
G01 X-19.9444 Y24.2167 
G01 X-19.8146 Y24.1299 
G01 X-19.7041 Y24.0194 
G01 X-19.6173 Y23.8896 
G01 X-19.5576 Y23.7453 
G01 X-19.5271 Y23.5921 
G00 Z2.0000 
G00 X-22.0671 Y23.5921 
G01 Z-0.0250 F254.00 
G01 X-22.0671 Y22.1279 F508.00 
G01 X-22.0976 Y21.9747 
G01 X-22.1573 Y21.8304 
G01 X-22.2441 Y21.7006 
G01 X-22.3546 Y21.5901 
G01 X-22.4844 Y21.5033 
G01 X-22.6287 Y21.4436 
G01 X-22.7819 Y21.4131 
G01 X-22.9381 Y21.4131 
G01 X-23.0913 Y21.4436 
G01 X-23.2356 Y21.5033 
G01 X-23.3654 Y21.5901 
G01 X-23.4759 Y21.7006 
G01 X-23.5627 Y21.8304 
G01 X-23.6224 Y21.9747 
G01 X-23.6529 Y22.1279 
G01 X-23.6529 Y23.5921 
G01 X-23.6224 Y23.7453 
G01 X-23.5627 Y23.8896 
G01 X-23.4759 Y24.0194 
G01 X-23.3654 Y24.1299 
G01 X-23.2356 Y24.2167 
G01 X-23.0913 Y24.2764 
G01 X-22.9381 Y24.3069 
G01 X-22.7819 Y24.3069 
G01 X-22.6287 Y24.2764 
G01 X-22.4844 Y24.2167 
G01 X-22.3546 Y24.1299 
G01 X-22.2441 Y24.0194 
G01 X-22.1573 Y23.8896 
G01 X-22.0976 Y23.7453 
G01 X-22.0671 Y23.5921 
G00 Z2.0000 
G00 X-22.2441 Y38.8646 
G01 Z-0.0250 F254.00 
G01 X-22.3546 Y38.7541 F508.00 
G01 X-22.4844 Y38.6673 
G01 X-22.6287 Y38.6076 
G01 X-22.7819 Y38.5771 
G01 X-22.9381 Y38.5771 
G01 X-23.0913 Y38.6076 
G01 X-23.2356 Y38.6673 
G01 X-23.3654 Y38.7541 
G01 X-23.4759 Y38.8646 
G01 X-23.5627 Y38.9944 
G01 X-23.6224 Y39.1387 
G01 X-23.6529 Y39.2919 
G01 X-23.6529 Y39.4481 
G01 X-23.6224 Y39.6013 
G01 X-23.5627 Y39.7456 
G01 X-23.4759 Y39.8754 
G01 X-23.3654 Y39.9859 
G01 X-23.2356 Y40.0727 
G01 X-23.0913 Y40.1324 
G01 X-22.9381 Y40.1629 
G01 X-22.7819 Y40.1629 
G01 X-22.6287 Y40.1324 
G01 X-22.4844 Y40.0727 
G01 X-22.3546 Y39.9859 
G01 X-22.2441 Y39.8754 
G01 X-22.1573 Y39.7456 
G01 X-22.0976 Y39.6013 
G01 X-22.0671 Y39.4481 
G01 X-22.0671 Y39.2919 
G01 X-22.0976 Y39.1387 
G01 X-22.1573 Y38.9944 
G01 X-22.2441 Y38.8646 
G00 Z2.0000 
G00 X-22.2441 Y41.4046 
G01 Z-0.0250 F254.00 
G01 X-22.3546 Y41.2941 F508.00 
G01 X-22.4844 Y41.2073 
G01 X-22.6287 Y41.1476 
G01 X-22.7819 Y41.1171 
G01 X-22.9381 Y41.1171 
G01 X-23.0913 Y41.1476 
G01 X-23.2356 Y41.2073 
G01 X-23.3654 Y41.2941 
G01 X-23.4759 Y41.4046 
G01 X-23.5627 Y41.5344 
G01 X-23.6224 Y41.6787 
G01 X-23.6529 Y41.8319 
G01 X-23.6529 Y41.9881 
G01 X-23.6224 Y42.1413 
G01 X-23.5627 Y42.2856 
G01 X-23.4759 Y42.4154 
G01 X-23.3654 Y42.5259 
G01 X-23.2356 Y42.6127 
G01 X-23.0913 Y42.6724 
G01 X-22.9381 Y42.7029 
G01 X-22.7819 Y42.7029 
G01 X-22.6287 Y42.6724 
G01 X-22.4844 Y42.6127 
G01 X-22.3546 Y42.5259 
G01 X-22.2441 Y42.4154 
G01 X-22.1573 Y42.2856 
G01 X-22.0976 Y42.1413 
G01 X-22.0671 Y41.9881 
G01 X-22.0671 Y41.8319 
G01 X-22.0976 Y41.6787 
G01 X-22.1573 Y41.5344 
G01 X-22.2441 Y41.4046 
G00 Z2.0000 
G00 X-37.4691 Y45.9271 
G01 Z-0.0250 F254.00 
G01 X-37.5796 Y45.8166 F508.00 
G01 X-37.7094 Y45.7298 
G01 X-37.8537 Y45.6701 
G01 X-38.0069 Y45.6396 
G01 X-38.1631 Y45.6396 
G01 X-38.3163 Y45.6701 
G01 X-38.4606 Y45.7298 
G01 X-38.5904 Y45.8166 
G01 X-38.7009 Y45.9271 
G01 X-38.7877 Y46.0569 
G01 X-38.8474 Y46.2012 
G01 X-38.8779 Y46.3544 
G01 X-38.8779 Y46.5106 
G01 X-38.8474 Y46.6638 
G01 X-38.7877 Y46.8081 
G01 X-38.7009 Y46.9379 
G01 X-38.5904 Y47.0484 
G01 X-38.4606 Y47.1352 
G01 X-38.3163 Y47.1949 
G01 X-38.1631 Y47.2254 
G01 X-38.0069 Y47.2254 
G01 X-37.8537 Y47.1949 
G01 X-37.7094 Y47.1352 
G01 X-37.5796 Y47.0484 
G01 X-37.4691 Y46.9379 
G01 X-37.3823 Y46.8081 
G01 X-37.3226 Y46.6638 
G01 X-37.2921 Y46.5106 
G01 X-37.2921 Y46.3544 
G01 X-37.3226 Y46.2012 
G01 X-37.3823 Y46.0569 
G01 X-37.4691 Y45.9271 
G00 Z2.0000 
G00 X-37.4034 Y48.1796 
G01 Z-0.0250 F254.00 
G01 X-38.7666 Y48.1796 F508.00 
G01 X-38.8177 Y48.2007 
G01 X-38.8567 Y48.2398 
G01 X-38.8779 Y48.2909 
G01 X-38.8779 Y49.6541 
G01 X-38.8567 Y49.7052 
G01 X-38.8177 Y49.7443 
G01 X-38.7666 Y49.7654 
G01 X-37.4034 Y49.7654 
G01 X-37.3523 Y49.7443 
G01 X-37.3132 Y49.7052 
G01 X-37.2921 Y49.6541 
G01 X-37.2921 Y48.2909 
G01 X-37.3132 Y48.2398 
G01 X-37.3523 Y48.2007 
G01 X-37.4034 Y48.1796 
G00 Z2.0000 
G00 X-40.0091 Y48.4671 
G01 Z-0.0250 F254.00 
G01 X-40.1196 Y48.3566 F508.00 
G01 X-40.2494 Y48.2698 
G01 X-40.3937 Y48.2101 
G01 X-40.5469 Y48.1796 
G01 X-40.7031 Y48.1796 
G01 X-40.8563 Y48.2101 
G01 X-41.0006 Y48.2698 
G01 X-41.1304 Y48.3566 
G01 X-41.2409 Y48.4671 
G01 X-41.3277 Y48.5969 
G01 X-41.3874 Y48.7412 
G01 X-41.4179 Y48.8944 
G01 X-41.4179 Y49.0506 
G01 X-41.3874 Y49.2038 
G01 X-41.3277 Y49.3481 
G01 X-41.2409 Y49.4779 
G01 X-41.1304 Y49.5884 
G01 X-41.0006 Y49.6752 
G01 X-40.8563 Y49.7349 
G01 X-40.7031 Y49.7654 
G01 X-40.5469 Y49.7654 
G01 X-40.3937 Y49.7349 
G01 X-40.2494 Y49.6752 
G01 X-40.1196 Y49.5884 
G01 X-40.0091 Y49.4779 
G01 X-39.9223 Y49.3481 
G01 X-39.8626 Y49.2038 
G01 X-39.8321 Y49.0506 
G01 X-39.8321 Y48.8944 
G01 X-39.8626 Y48.7412 
G01 X-39.9223 Y48.5969 
G01 X-40.0091 Y48.4671 
G00 Z2.0000 
G00 X-42.5491 Y48.4671 
G01 Z-0.0250 F254.00 
G01 X-42.6596 Y48.3566 F508.00 
G01 X-42.7894 Y48.2698 
G01 X-42.9337 Y48.2101 
G01 X-43.0869 Y48.1796 
G01 X-43.2431 Y48.1796 
G01 X-43.3963 Y48.2101 
G01 X-43.5406 Y48.2698 
G01 X-43.6704 Y48.3566 
G01 X-43.7809 Y48.4671 
G01 X-43.8677 Y48.5969 
G01 X-43.9274 Y48.7412 
G01 X-43.9579 Y48.8944 
G01 X-43.9579 Y49.0506 
G01 X-43.9274 Y49.2038 
G01 X-43.8677 Y49.3481 
G01 X-43.7809 Y49.4779 
G01 X-43.6704 Y49.5884 
G01 X-43.5406 Y49.6752 
G01 X-43.3963 Y49.7349 
G01 X-43.2431 Y49.7654 
G01 X-43.0869 Y49.7654 
G01 X-42.9337 Y49.7349 
G01 X-42.7894 Y49.6752 
G01 X-42.6596 Y49.5884 
G01 X-42.5491 Y49.4779 
G01 X-42.4623 Y49.3481 
G01 X-42.4026 Y49.2038 
G01 X-42.3721 Y49.0506 
G01 X-42.3721 Y48.8944 
G01 X-42.4026 Y48.7412 
G01 X-42.4623 Y48.5969 
G01 X-42.5491 Y48.4671 
G00 Z2.0000 
G00 X-42.6596 Y47.0484 
G01 Z-0.0250 F254.00 
G01 X-42.5491 Y46.9379 F508.00 
G01 X-42.4623 Y46.8081 
G01 X-42.4026 Y46.6638 
G01 X-42.3721 Y46.5106 
G01 X-42.3721 Y46.3544 
G01 X-42.4026 Y46.2012 
G01 X-42.4623 Y46.0569 
G01 X-42.5491 Y45.9271 
G01 X-42.6596 Y45.8166 
G01 X-42.7894 Y45.7298 
G01 X-42.9337 Y45.6701 
G01 X-43.0869 Y45.6396 
G01 X-43.2431 Y45.6396 
G01 X-43.3963 Y45.6701 
G01 X-43.5406 Y45.7298 
G01 X-43.6704 Y45.8166 
G01 X-43.7809 Y45.9271 
G01 X-43.8677 Y46.0569 
G01 X-43.9274 Y46.2012 
G01 X-43.9579 Y46.3544 
G01 X-43.9579 Y46.5106 
G01 X-43.9274 Y46.6638 
G01 X-43.8677 Y46.8081 
G01 X-43.7809 Y46.9379 
G01 X-43.6704 Y47.0484 
G01 X-43.5406 Y47.1352 
G01 X-43.3963 Y47.1949 
G01 X-43.2431 Y47.2254 
G01 X-43.0869 Y47.2254 
G01 X-42.9337 Y47.1949 
G01 X-42.7894 Y47.1352 
G01 X-42.6596 Y47.0484 
G00 Z2.0000 
G00 X-45.1996 Y47.0484 
G01 Z-0.0250 F254.00 
G01 X-45.0891 Y46.9379 F508.00 
G01 X-45.0023 Y46.8081 
G01 X-44.9426 Y46.6638 
G01 X-44.9121 Y46.5106 
G01 X-44.9121 Y46.3544 
G01 X-44.9426 Y46.2012 
G01 X-45.0023 Y46.0569 
G01 X-45.0891 Y45.9271 
G01 X-45.1996 Y45.8166 
G01 X-45.3294 Y45.7298 
G01 X-45.4611 Y45.6753 
G01 X-45.4611 Y28.7120 
G01 X-45.4808 Y28.6385 
G01 X-45.5188 Y28.5726 
G01 X-45.5726 Y28.5188 
G01 X-46.4611 Y27.6303 
G01 X-46.4611 Y21.2612 
G01 X-46.4246 Y21.2426 
G01 X-46.2873 Y21.1428 
G01 X-46.1672 Y21.0227 
G01 X-46.0674 Y20.8854 
G01 X-45.9903 Y20.7341 
G01 X-45.9379 Y20.5726 
G01 X-45.9113 Y20.4049 
G01 X-45.9113 Y20.2351 
G01 X-45.9379 Y20.0674 
G01 X-45.9903 Y19.9059 
G01 X-46.0674 Y19.7546 
G01 X-46.1672 Y19.6173 
G01 X-46.2873 Y19.4972 
G01 X-46.4246 Y19.3974 
G01 X-46.5759 Y19.3203 
G01 X-46.7374 Y19.2679 
G01 X-46.9051 Y19.2413 
G01 X-47.0749 Y19.2413 
G01 X-47.2426 Y19.2679 
G01 X-47.4041 Y19.3203 
G01 X-47.5554 Y19.3974 
G01 X-47.6927 Y19.4972 
G01 X-47.8128 Y19.6173 
G01 X-47.9126 Y19.7546 
G01 X-47.9897 Y19.9059 
G01 X-48.0421 Y20.0674 
G01 X-48.0687 Y20.2351 
G01 X-48.0687 Y20.4049 
G01 X-48.0421 Y20.5726 
G01 X-47.9897 Y20.7341 
G01 X-47.9126 Y20.8854 
G01 X-47.8128 Y21.0227 
G01 X-47.6927 Y21.1428 
G01 X-47.5554 Y21.2426 
G01 X-47.4041 Y21.3197 
G01 X-47.2426 Y21.3721 
G01 X-47.0749 Y21.3987 
G01 X-47.0389 Y21.3987 
G01 X-47.0389 Y27.7880 
G01 X-47.0192 Y27.8615 
G01 X-46.9812 Y27.9274 
G01 X-46.0389 Y28.8697 
G01 X-46.0389 Y45.7126 
G01 X-46.0806 Y45.7298 
G01 X-46.2104 Y45.8166 
G01 X-46.3209 Y45.9271 
G01 X-46.4077 Y46.0569 
G01 X-46.4674 Y46.2012 
G01 X-46.4979 Y46.3544 
G01 X-46.4979 Y46.5106 
G01 X-46.4674 Y46.6638 
G01 X-46.4077 Y46.8081 
G01 X-46.3209 Y46.9379 
G01 X-46.2104 Y47.0484 
G01 X-46.0806 Y47.1352 
G01 X-45.9363 Y47.1949 
G01 X-45.7831 Y47.2254 
G01 X-45.6269 Y47.2254 
G01 X-45.4737 Y47.1949 
G01 X-45.3294 Y47.1352 
G01 X-45.1996 Y47.0484 
G00 Z2.0000 
G00 X-46.4157 Y32.4498 
G01 Z-0.0250 F254.00 
G01 X-46.2902 Y32.3243 F508.00 
G01 X-46.1916 Y32.1767 
G01 X-46.1237 Y32.0128 
G01 X-46.0891 Y31.8387 
G01 X-46.0891 Y31.6613 
G01 X-46.1237 Y31.4872 
G01 X-46.1916 Y31.3233 
G01 X-46.2902 Y31.1757 
G01 X-46.4157 Y31.0502 
G01 X-46.5633 Y30.9516 
G01 X-46.7272 Y30.8837 
G01 X-46.9013 Y30.8491 
G01 X-47.0787 Y30.8491 
G01 X-47.2528 Y30.8837 
G01 X-47.4167 Y30.9516 
G01 X-47.5643 Y31.0502 
G01 X-47.6898 Y31.1757 
G01 X-47.7884 Y31.3233 
G01 X-47.8563 Y31.4872 
G01 X-47.8909 Y31.6613 
G01 X-47.8909 Y31.8387 
G01 X-47.8563 Y32.0128 
G01 X-47.7884 Y32.1767 
G01 X-47.6898 Y32.3243 
G01 X-47.5643 Y32.4498 
G01 X-47.4167 Y32.5484 
G01 X-47.2528 Y32.6163 
G01 X-47.0787 Y32.6509 
G01 X-46.9013 Y32.6509 
G01 X-46.7272 Y32.6163 
G01 X-46.5633 Y32.5484 
G01 X-46.4157 Y32.4498 
G00 Z2.0000 
G00 X-46.4157 Y29.9098 
G01 Z-0.0250 F254.00 
G01 X-46.2902 Y29.7843 F508.00 
G01 X-46.1916 Y29.6367 
G01 X-46.1237 Y29.4728 
G01 X-46.0891 Y29.2987 
G01 X-46.0891 Y29.1213 
G01 X-46.1237 Y28.9472 
G01 X-46.1916 Y28.7833 
G01 X-46.2902 Y28.6357 
G01 X-46.4157 Y28.5102 
G01 X-46.5633 Y28.4116 
G01 X-46.7272 Y28.3437 
G01 X-46.9013 Y28.3091 
G01 X-47.0787 Y28.3091 
G01 X-47.2528 Y28.3437 
G01 X-47.4167 Y28.4116 
G01 X-47.5643 Y28.5102 
G01 X-47.6898 Y28.6357 
G01 X-47.7884 Y28.7833 
G01 X-47.8563 Y28.9472 
G01 X-47.8909 Y29.1213 
G01 X-47.8909 Y29.2987 
G01 X-47.8563 Y29.4728 
G01 X-47.7884 Y29.6367 
G01 X-47.6898 Y29.7843 
G01 X-47.5643 Y29.9098 
G01 X-47.4167 Y30.0084 
G01 X-47.2528 Y30.0763 
G01 X-47.0787 Y30.1109 
G01 X-46.9013 Y30.1109 
G01 X-46.7272 Y30.0763 
G01 X-46.5633 Y30.0084 
G01 X-46.4157 Y29.9098 
G00 Z2.0000 
G00 X-46.4246 Y18.7026 
G01 Z-0.0250 F254.00 
G01 X-46.2873 Y18.6028 F508.00 
G01 X-46.1672 Y18.4827 
G01 X-46.0674 Y18.3454 
G01 X-45.9903 Y18.1941 
G01 X-45.9379 Y18.0326 
G01 X-45.9113 Y17.8649 
G01 X-45.9113 Y17.6951 
G01 X-45.9379 Y17.5274 
G01 X-45.9903 Y17.3659 
G01 X-46.0674 Y17.2146 
G01 X-46.1672 Y17.0773 
G01 X-46.2873 Y16.9572 
G01 X-46.4246 Y16.8574 
G01 X-46.5759 Y16.7803 
G01 X-46.7374 Y16.7279 
G01 X-46.9051 Y16.7013 
G01 X-47.0749 Y16.7013 
G01 X-47.2426 Y16.7279 
G01 X-47.4041 Y16.7803 
G01 X-47.5554 Y16.8574 
G01 X-47.6927 Y16.9572 
G01 X-47.8128 Y17.0773 
G01 X-47.9126 Y17.2146 
G01 X-47.9897 Y17.3659 
G01 X-48.0421 Y17.5274 
G01 X-48.0687 Y17.6951 
G01 X-48.0687 Y17.8649 
G01 X-48.0421 Y18.0326 
G01 X-47.9897 Y18.1941 
G01 X-47.9126 Y18.3454 
G01 X-47.8128 Y18.4827 
G01 X-47.6927 Y18.6028 
G01 X-47.5554 Y18.7026 
G01 X-47.4041 Y18.7797 
G01 X-47.2426 Y18.8321 
G01 X-47.0749 Y18.8587 
G01 X-46.9051 Y18.8587 
G01 X-46.7374 Y18.8321 
G01 X-46.5759 Y18.7797 
G01 X-46.4246 Y18.7026 
G00 Z2.0000 
G00 X-46.4246 Y16.1626 
G01 Z-0.0250 F254.00 
G01 X-46.2873 Y16.0628 F508.00 
G01 X-46.1672 Y15.9427 
G01 X-46.0674 Y15.8054 
G01 X-45.9903 Y15.6541 
G01 X-45.9379 Y15.4926 
G01 X-45.9113 Y15.3249 
G01 X-45.9113 Y15.1551 
G01 X-45.9379 Y14.9874 
G01 X-45.9903 Y14.8259 
G01 X-46.0674 Y14.6746 
G01 X-46.1672 Y14.5373 
G01 X-46.2873 Y14.4172 
G01 X-46.4246 Y14.3174 
G01 X-46.5759 Y14.2403 
G01 X-46.7374 Y14.1879 
G01 X-46.9051 Y14.1613 
G01 X-47.0749 Y14.1613 
G01 X-47.2426 Y14.1879 
G01 X-47.4041 Y14.2403 
G01 X-47.5554 Y14.3174 
G01 X-47.6927 Y14.4172 
G01 X-47.8128 Y14.5373 
G01 X-47.9126 Y14.6746 
G01 X-47.9897 Y14.8259 
G01 X-48.0421 Y14.9874 
G01 X-48.0687 Y15.1551 
G01 X-48.0687 Y15.3249 
G01 X-48.0421 Y15.4926 
G01 X-47.9897 Y15.6541 
G01 X-47.9126 Y15.8054 
G01 X-47.8128 Y15.9427 
G01 X-47.6927 Y16.0628 
G01 X-47.5554 Y16.1626 
G01 X-47.4041 Y16.2397 
G01 X-47.2426 Y16.2921 
G01 X-47.0749 Y16.3187 
G01 X-46.9051 Y16.3187 
G01 X-46.7374 Y16.2921 
G01 X-46.5759 Y16.2397 
G01 X-46.4246 Y16.1626 
G00 Z2.0000 
G00 X-17.2127 Y70.2972 
G01 Z-0.0250 F254.00 
G01 X-17.3328 Y70.4173 F508.00 
G01 X-17.4326 Y70.5546 
G01 X-17.5097 Y70.7059 
G01 X-17.5621 Y70.8674 
G01 X-17.5887 Y71.0351 
G01 X-17.5887 Y71.2049 
G01 X-17.5621 Y71.3726 
G01 X-17.5097 Y71.5341 
G01 X-17.4326 Y71.6854 
G01 X-17.3328 Y71.8227 
G01 X-17.2127 Y71.9428 
G01 X-17.0754 Y72.0426 
G01 X-16.9241 Y72.1197 
G01 X-16.7626 Y72.1721 
G01 X-16.5949 Y72.1987 
G01 X-16.4251 Y72.1987 
G01 X-16.2574 Y72.1721 
G01 X-16.0959 Y72.1197 
G01 X-15.9446 Y72.0426 
G01 X-15.8073 Y71.9428 
G01 X-15.6872 Y71.8227 
G01 X-15.5874 Y71.6854 
G01 X-15.5103 Y71.5341 
G01 X-15.4579 Y71.3726 
G01 X-15.4313 Y71.2049 
G01 X-15.4313 Y71.0351 
G01 X-15.4579 Y70.8674 
G01 X-15.5103 Y70.7059 
G01 X-15.5874 Y70.5546 
G01 X-15.6872 Y70.4173 
G01 X-15.8073 Y70.2972 
G01 X-15.9446 Y70.1974 
G01 X-16.0959 Y70.1203 
G01 X-16.2574 Y70.0679 
G01 X-16.4251 Y70.0413 
G01 X-16.5949 Y70.0413 
G01 X-16.7626 Y70.0679 
G01 X-16.9241 Y70.1203 
G01 X-17.0754 Y70.1974 
G01 X-17.2127 Y70.2972 
G00 Z2.0000 
G00 X-14.6727 Y70.2972 
G01 Z-0.0250 F254.00 
G01 X-14.7928 Y70.4173 F508.00 
G01 X-14.8926 Y70.5546 
G01 X-14.9697 Y70.7059 
G01 X-15.0221 Y70.8674 
G01 X-15.0487 Y71.0351 
G01 X-15.0487 Y71.2049 
G01 X-15.0221 Y71.3726 
G01 X-14.9697 Y71.5341 
G01 X-14.8926 Y71.6854 
G01 X-14.7928 Y71.8227 
G01 X-14.6727 Y71.9428 
G01 X-14.5354 Y72.0426 
G01 X-14.3841 Y72.1197 
G01 X-14.2226 Y72.1721 
G01 X-14.0549 Y72.1987 
G01 X-13.8851 Y72.1987 
G01 X-13.7174 Y72.1721 
G01 X-13.5559 Y72.1197 
G01 X-13.4046 Y72.0426 
G01 X-13.2673 Y71.9428 
G01 X-13.1472 Y71.8227 
G01 X-13.0474 Y71.6854 
G01 X-12.9703 Y71.5341 
G01 X-12.9179 Y71.3726 
G01 X-12.8913 Y71.2049 
G01 X-12.8913 Y71.0351 
G01 X-12.9179 Y70.8674 
G01 X-12.9703 Y70.7059 
G01 X-13.0474 Y70.5546 
G01 X-13.1472 Y70.4173 
G01 X-13.2673 Y70.2972 
G01 X-13.4046 Y70.1974 
G01 X-13.5559 Y70.1203 
G01 X-13.7174 Y70.0679 
G01 X-13.8851 Y70.0413 
G01 X-14.0549 Y70.0413 
G01 X-14.2226 Y70.0679 
G01 X-14.3841 Y70.1203 
G01 X-14.5354 Y70.1974 
G01 X-14.6727 Y70.2972 
G00 Z2.0000 
G00 X-12.1327 Y70.2972 
G01 Z-0.0250 F254.00 
G01 X-12.2528 Y70.4173 F508.00 
G01 X-12.3526 Y70.5546 
G01 X-12.4297 Y70.7059 
G01 X-12.4821 Y70.8674 
G01 X-12.5087 Y71.0351 
G01 X-12.5087 Y71.2049 
G01 X-12.4821 Y71.3726 
G01 X-12.4297 Y71.5341 
G01 X-12.3526 Y71.6854 
G01 X-12.2528 Y71.8227 
G01 X-12.1327 Y71.9428 
G01 X-11.9954 Y72.0426 
G01 X-11.8441 Y72.1197 
G01 X-11.6826 Y72.1721 
G01 X-11.5149 Y72.1987 
G01 X-11.3451 Y72.1987 
G01 X-11.1774 Y72.1721 
G01 X-11.0159 Y72.1197 
G01 X-10.8646 Y72.0426 
G01 X-10.7273 Y71.9428 
G01 X-10.6072 Y71.8227 
G01 X-10.5074 Y71.6854 
G01 X-10.4303 Y71.5341 
G01 X-10.3779 Y71.3726 
G01 X-10.3513 Y71.2049 
G01 X-10.3513 Y71.0351 
G01 X-10.3779 Y70.8674 
G01 X-10.4303 Y70.7059 
G01 X-10.5074 Y70.5546 
G01 X-10.6072 Y70.4173 
G01 X-10.7273 Y70.2972 
G01 X-10.8646 Y70.1974 
G01 X-11.0159 Y70.1203 
G01 X-11.1774 Y70.0679 
G01 X-11.3451 Y70.0413 
G01 X-11.5149 Y70.0413 
G01 X-11.6826 Y70.0679 
G01 X-11.8441 Y70.1203 
G01 X-11.9954 Y70.1974 
G01 X-12.1327 Y70.2972 
G00 Z2.0000 
G00 X-6.9243 Y70.4202 
G01 Z-0.0250 F254.00 
G01 X-7.0498 Y70.5457 F508.00 
G01 X-7.1484 Y70.6933 
G01 X-7.2163 Y70.8572 
G01 X-7.2509 Y71.0313 
G01 X-7.2509 Y71.2087 
G01 X-7.2163 Y71.3828 
G01 X-7.1484 Y71.5467 
G01 X-7.0498 Y71.6943 
G01 X-6.9243 Y71.8198 
G01 X-6.7767 Y71.9184 
G01 X-6.6128 Y71.9863 
G01 X-6.4387 Y72.0209 
G01 X-6.2613 Y72.0209 
G01 X-6.0872 Y71.9863 
G01 X-5.9233 Y71.9184 
G01 X-5.7757 Y71.8198 
G01 X-5.6502 Y71.6943 
G01 X-5.5516 Y71.5467 
G01 X-5.4837 Y71.3828 
G01 X-5.4491 Y71.2087 
G01 X-5.4491 Y71.0313 
G01 X-5.4837 Y70.8572 
G01 X-5.5516 Y70.6933 
G01 X-5.6502 Y70.5457 
G01 X-5.7757 Y70.4202 
G01 X-5.9233 Y70.3216 
G01 X-6.0872 Y70.2537 
G01 X-6.2613 Y70.2191 
G01 X-6.4387 Y70.2191 
G01 X-6.6128 Y70.2537 
G01 X-6.7767 Y70.3216 
G01 X-6.9243 Y70.4202 
G00 Z2.0000 
G00 X-4.3843 Y70.4202 
G01 Z-0.0250 F254.00 
G01 X-4.5098 Y70.5457 F508.00 
G01 X-4.6084 Y70.6933 
G01 X-4.6763 Y70.8572 
G01 X-4.7109 Y71.0313 
G01 X-4.7109 Y71.2087 
G01 X-4.6763 Y71.3828 
G01 X-4.6084 Y71.5467 
G01 X-4.5098 Y71.6943 
G01 X-4.3843 Y71.8198 
G01 X-4.2367 Y71.9184 
G01 X-4.0728 Y71.9863 
G01 X-3.8987 Y72.0209 
G01 X-3.7213 Y72.0209 
G01 X-3.5472 Y71.9863 
G01 X-3.3833 Y71.9184 
G01 X-3.2357 Y71.8198 
G01 X-3.1102 Y71.6943 
G01 X-3.0116 Y71.5467 
G01 X-2.9437 Y71.3828 
G01 X-2.9091 Y71.2087 
G01 X-2.9091 Y71.0313 
G01 X-2.9437 Y70.8572 
G01 X-3.0116 Y70.6933 
G01 X-3.1102 Y70.5457 
G01 X-3.2357 Y70.4202 
G01 X-3.3833 Y70.3216 
G01 X-3.5472 Y70.2537 
G01 X-3.7213 Y70.2191 
G01 X-3.8987 Y70.2191 
G01 X-4.0728 Y70.2537 
G01 X-4.2367 Y70.3216 
G01 X-4.3843 Y70.4202 
G00 Z2.0000 
G00 X-11.9225 Y1.9020 
G01 Z-0.0250 F254.00 
G01 X-12.0620 Y1.7626 F508.00 
G01 X-12.2259 Y1.6530 
G01 X-12.4080 Y1.5776 
G01 X-12.6014 Y1.5391 
G01 X-12.7986 Y1.5391 
G01 X-12.9919 Y1.5776 
G01 X-13.1741 Y1.6530 
G01 X-13.3380 Y1.7626 
G01 X-13.4774 Y1.9020 
G01 X-13.5870 Y2.0659 
G01 X-13.6624 Y2.2480 
G01 X-13.7009 Y2.4414 
G01 X-13.7009 Y2.6386 
G01 X-13.6624 Y2.8319 
G01 X-13.5870 Y3.0141 
G01 X-13.4774 Y3.1780 
G01 X-13.3380 Y3.3174 
G01 X-13.1741 Y3.4270 
G01 X-12.9919 Y3.5024 
G01 X-12.7986 Y3.5409 
G01 X-12.6014 Y3.5409 
G01 X-12.4080 Y3.5024 
G01 X-12.2259 Y3.4270 
G01 X-12.0620 Y3.3174 
G01 X-11.9225 Y3.1780 
G01 X-11.8130 Y3.0141 
G01 X-11.7376 Y2.8319 
G01 X-11.6991 Y2.6386 
G01 X-11.6991 Y2.4414 
G01 X-11.7376 Y2.2480 
G01 X-11.8130 Y2.0659 
G01 X-11.9225 Y1.9020 
G00 Z2.0000 
G00 X-11.9225 Y4.4420 
G01 Z-0.0250 F254.00 
G01 X-12.0620 Y4.3026 F508.00 
G01 X-12.2259 Y4.1930 
G01 X-12.4080 Y4.1176 
G01 X-12.6014 Y4.0791 
G01 X-12.7986 Y4.0791 
G01 X-12.9919 Y4.1176 
G01 X-13.1741 Y4.1930 
G01 X-13.3380 Y4.3026 
G01 X-13.4774 Y4.4420 
G01 X-13.5870 Y4.6059 
G01 X-13.6624 Y4.7880 
G01 X-13.7009 Y4.9814 
G01 X-13.7009 Y5.1786 
G01 X-13.6624 Y5.3720 
G01 X-13.5870 Y5.5541 
G01 X-13.4774 Y5.7180 
G01 X-13.3380 Y5.8574 
G01 X-13.1741 Y5.9670 
G01 X-12.9919 Y6.0424 
G01 X-12.7986 Y6.0809 
G01 X-12.6014 Y6.0809 
G01 X-12.4080 Y6.0424 
G01 X-12.2259 Y5.9670 
G01 X-12.0620 Y5.8574 
G01 X-11.9225 Y5.7180 
G01 X-11.8130 Y5.5541 
G01 X-11.7376 Y5.3720 
G01 X-11.6991 Y5.1786 
G01 X-11.6991 Y4.9814 
G01 X-11.7376 Y4.7880 
G01 X-11.8130 Y4.6059 
G01 X-11.9225 Y4.4420 
G00 Z2.0000 
G00 X-28.4325 Y4.4420 
G01 Z-0.0250 F254.00 
G01 X-28.5720 Y4.3026 F508.00 
G01 X-28.7359 Y4.1930 
G01 X-28.9180 Y4.1176 
G01 X-29.1114 Y4.0791 
G01 X-29.3086 Y4.0791 
G01 X-29.5020 Y4.1176 
G01 X-29.6841 Y4.1930 
G01 X-29.8480 Y4.3026 
G01 X-29.9874 Y4.4420 
G01 X-30.0970 Y4.6059 
G01 X-30.1724 Y4.7880 
G01 X-30.2109 Y4.9814 
G01 X-30.2109 Y5.1786 
G01 X-30.1724 Y5.3720 
G01 X-30.0970 Y5.5541 
G01 X-29.9874 Y5.7180 
G01 X-29.8480 Y5.8574 
G01 X-29.6841 Y5.9670 
G01 X-29.5020 Y6.0424 
G01 X-29.3086 Y6.0809 
G01 X-29.1114 Y6.0809 
G01 X-28.9180 Y6.0424 
G01 X-28.7359 Y5.9670 
G01 X-28.5720 Y5.8574 
G01 X-28.4325 Y5.7180 
G01 X-28.3230 Y5.5541 
G01 X-28.2476 Y5.3720 
G01 X-28.2091 Y5.1786 
G01 X-28.2091 Y4.9814 
G01 X-28.2476 Y4.7880 
G01 X-28.3230 Y4.6059 
G01 X-28.4325 Y4.4420 
G00 Z2.0000 
G00 X-28.5720 Y3.3174 
G01 Z-0.0250 F254.00 
G01 X-28.4325 Y3.1780 F508.00 
G01 X-28.3230 Y3.0141 
G01 X-28.2476 Y2.8319 
G01 X-28.2091 Y2.6386 
G01 X-28.2091 Y2.4414 
G01 X-28.2476 Y2.2480 
G01 X-28.3230 Y2.0659 
G01 X-28.4325 Y1.9020 
G01 X-28.5720 Y1.7626 
G01 X-28.7359 Y1.6530 
G01 X-28.9180 Y1.5776 
G01 X-29.1114 Y1.5391 
G01 X-29.3086 Y1.5391 
G01 X-29.5020 Y1.5776 
G01 X-29.6841 Y1.6530 
G01 X-29.8480 Y1.7626 
G01 X-29.9874 Y1.9020 
G01 X-30.0970 Y2.0659 
G01 X-30.1724 Y2.2480 
G01 X-30.2109 Y2.4414 
G01 X-30.2109 Y2.6386 
G01 X-30.1724 Y2.8319 
G01 X-30.0970 Y3.0141 
G01 X-29.9874 Y3.1780 
G01 X-29.8480 Y3.3174 
G01 X-29.6841 Y3.4270 
G01 X-29.5020 Y3.5024 
G01 X-29.3086 Y3.5409 
G01 X-29.1114 Y3.5409 
G01 X-28.9180 Y3.5024 
G01 X-28.7359 Y3.4270 
G01 X-28.5720 Y3.3174 
G00 Z2.0000 
G00 X-27.8932 Y22.1664 
G01 Z-0.0250 F254.00 
G01 X-28.0176 Y22.2908 F508.00 
G01 X-28.1153 Y22.4371 
G01 X-28.1826 Y22.5996 
G01 X-28.2169 Y22.7721 
G01 X-28.2169 Y22.9479 
G01 X-28.1826 Y23.1204 
G01 X-28.1153 Y23.2829 
G01 X-28.0176 Y23.4292 
G01 X-27.8932 Y23.5536 
G01 X-27.7469 Y23.6513 
G01 X-27.5844 Y23.7186 
G01 X-27.4119 Y23.7529 
G01 X-25.9281 Y23.7529 
G01 X-25.7555 Y23.7186 
G01 X-25.5931 Y23.6513 
G01 X-25.4468 Y23.5536 
G01 X-25.3224 Y23.4292 
G01 X-25.2247 Y23.2829 
G01 X-25.1574 Y23.1204 
G01 X-25.1231 Y22.9479 
G01 X-25.1231 Y22.7721 
G01 X-25.1574 Y22.5996 
G01 X-25.2247 Y22.4371 
G01 X-25.3224 Y22.2908 
G01 X-25.4468 Y22.1664 
G01 X-25.5931 Y22.0687 
G01 X-25.7555 Y22.0014 
G01 X-25.9281 Y21.9671 
G01 X-27.4119 Y21.9671 
G01 X-27.5844 Y22.0014 
G01 X-27.7469 Y22.0687 
G01 X-27.8932 Y22.1664 
G00 Z2.0000 
G00 X-27.8932 Y24.7064 
G01 Z-0.0250 F254.00 
G01 X-28.0176 Y24.8308 F508.00 
G01 X-28.1153 Y24.9771 
G01 X-28.1826 Y25.1395 
G01 X-28.2169 Y25.3121 
G01 X-28.2169 Y25.4879 
G01 X-28.1826 Y25.6604 
G01 X-28.1153 Y25.8229 
G01 X-28.0176 Y25.9692 
G01 X-27.8932 Y26.0936 
G01 X-27.7469 Y26.1913 
G01 X-27.5844 Y26.2586 
G01 X-27.4119 Y26.2929 
G01 X-25.9281 Y26.2929 
G01 X-25.7555 Y26.2586 
G01 X-25.5931 Y26.1913 
G01 X-25.4468 Y26.0936 
G01 X-25.3224 Y25.9692 
G01 X-25.2247 Y25.8229 
G01 X-25.1574 Y25.6604 
G01 X-25.1231 Y25.4879 
G01 X-25.1231 Y25.3121 
G01 X-25.1574 Y25.1395 
G01 X-25.2247 Y24.9771 
G01 X-25.3224 Y24.8308 
G01 X-25.4468 Y24.7064 
G01 X-25.5931 Y24.6087 
G01 X-25.7555 Y24.5414 
G01 X-25.9281 Y24.5071 
G01 X-27.4119 Y24.5071 
G01 X-27.5844 Y24.5414 
G01 X-27.7469 Y24.6087 
G01 X-27.8932 Y24.7064 
G00 Z2.0000 
G00 X-27.8932 Y27.2464 
G01 Z-0.0250 F254.00 
G01 X-28.0176 Y27.3708 F508.00 
G01 X-28.1153 Y27.5171 
G01 X-28.1826 Y27.6795 
G01 X-28.2169 Y27.8521 
G01 X-28.2169 Y28.0279 
G01 X-28.1826 Y28.2004 
G01 X-28.1153 Y28.3629 
G01 X-28.0176 Y28.5092 
G01 X-27.8932 Y28.6336 
G01 X-27.7469 Y28.7313 
G01 X-27.5844 Y28.7986 
G01 X-27.4119 Y28.8329 
G01 X-25.9281 Y28.8329 
G01 X-25.7555 Y28.7986 
G01 X-25.5931 Y28.7313 
G01 X-25.4468 Y28.6336 
G01 X-25.3224 Y28.5092 
G01 X-25.2247 Y28.3629 
G01 X-25.1574 Y28.2004 
G01 X-25.1231 Y28.0279 
G01 X-25.1231 Y27.8521 
G01 X-25.1574 Y27.6795 
G01 X-25.2247 Y27.5171 
G01 X-25.3224 Y27.3708 
G01 X-25.4468 Y27.2464 
G01 X-25.5931 Y27.1487 
G01 X-25.7555 Y27.0814 
G01 X-25.9281 Y27.0471 
G01 X-27.4119 Y27.0471 
G01 X-27.5844 Y27.0814 
G01 X-27.7469 Y27.1487 
G01 X-27.8932 Y27.2464 
G00 Z2.0000 
G00 X-27.8932 Y29.7864 
G01 Z-0.0250 F254.00 
G01 X-28.0176 Y29.9108 F508.00 
G01 X-28.1153 Y30.0571 
G01 X-28.1826 Y30.2196 
G01 X-28.2169 Y30.3921 
G01 X-28.2169 Y30.5679 
G01 X-28.1826 Y30.7404 
G01 X-28.1153 Y30.9029 
G01 X-28.0176 Y31.0492 
G01 X-27.8932 Y31.1736 
G01 X-27.7469 Y31.2713 
G01 X-27.5844 Y31.3386 
G01 X-27.4119 Y31.3729 
G01 X-25.9281 Y31.3729 
G01 X-25.7555 Y31.3386 
G01 X-25.5931 Y31.2713 
G01 X-25.4468 Y31.1736 
G01 X-25.3224 Y31.0492 
G01 X-25.2247 Y30.9029 
G01 X-25.1574 Y30.7404 
G01 X-25.1231 Y30.5679 
G01 X-25.1231 Y30.3921 
G01 X-25.1574 Y30.2196 
G01 X-25.2247 Y30.0571 
G01 X-25.3224 Y29.9108 
G01 X-25.4468 Y29.7864 
G01 X-25.5931 Y29.6887 
G01 X-25.7555 Y29.6214 
G01 X-25.9281 Y29.5871 
G01 X-27.4119 Y29.5871 
G01 X-27.5844 Y29.6214 
G01 X-27.7469 Y29.6887 
G01 X-27.8932 Y29.7864 
G00 Z2.0000 
G00 X-27.8932 Y32.3264 
G01 Z-0.0250 F254.00 
G01 X-28.0176 Y32.4508 F508.00 
G01 X-28.1153 Y32.5971 
G01 X-28.1826 Y32.7595 
G01 X-28.2169 Y32.9321 
G01 X-28.2169 Y33.1079 
G01 X-28.1826 Y33.2804 
G01 X-28.1153 Y33.4429 
G01 X-28.0176 Y33.5892 
G01 X-27.8932 Y33.7136 
G01 X-27.7469 Y33.8113 
G01 X-27.5844 Y33.8786 
G01 X-27.4119 Y33.9129 
G01 X-25.9281 Y33.9129 
G01 X-25.7555 Y33.8786 
G01 X-25.5931 Y33.8113 
G01 X-25.4468 Y33.7136 
G01 X-25.3224 Y33.5892 
G01 X-25.2247 Y33.4429 
G01 X-25.1574 Y33.2804 
G01 X-25.1231 Y33.1079 
G01 X-25.1231 Y32.9321 
G01 X-25.1574 Y32.7595 
G01 X-25.2247 Y32.5971 
G01 X-25.3224 Y32.4508 
G01 X-25.4468 Y32.3264 
G01 X-25.5931 Y32.2287 
G01 X-25.7555 Y32.1614 
G01 X-25.9281 Y32.1271 
G01 X-27.4119 Y32.1271 
G01 X-27.5844 Y32.1614 
G01 X-27.7469 Y32.2287 
G01 X-27.8932 Y32.3264 
G00 Z2.0000 
G00 X-27.8932 Y34.8664 
G01 Z-0.0250 F254.00 
G01 X-28.0176 Y34.9908 F508.00 
G01 X-28.1153 Y35.1371 
G01 X-28.1826 Y35.2996 
G01 X-28.2169 Y35.4721 
G01 X-28.2169 Y35.6479 
G01 X-28.1826 Y35.8204 
G01 X-28.1153 Y35.9829 
G01 X-28.0176 Y36.1292 
G01 X-27.8932 Y36.2536 
G01 X-27.7469 Y36.3513 
G01 X-27.5844 Y36.4186 
G01 X-27.4119 Y36.4529 
G01 X-25.9281 Y36.4529 
G01 X-25.7555 Y36.4186 
G01 X-25.5931 Y36.3513 
G01 X-25.4468 Y36.2536 
G01 X-25.3224 Y36.1292 
G01 X-25.2247 Y35.9829 
G01 X-25.1574 Y35.8204 
G01 X-25.1231 Y35.6479 
G01 X-25.1231 Y35.4721 
G01 X-25.1574 Y35.2996 
G01 X-25.2247 Y35.1371 
G01 X-25.3224 Y34.9908 
G01 X-25.4468 Y34.8664 
G01 X-25.5931 Y34.7687 
G01 X-25.7555 Y34.7014 
G01 X-25.9281 Y34.6671 
G01 X-27.4119 Y34.6671 
G01 X-27.5844 Y34.7014 
G01 X-27.7469 Y34.7687 
G01 X-27.8932 Y34.8664 
G00 Z2.0000 
G00 X-27.8932 Y37.4064 
G01 Z-0.0250 F254.00 
G01 X-28.0176 Y37.5308 F508.00 
G01 X-28.1153 Y37.6771 
G01 X-28.1826 Y37.8396 
G01 X-28.2169 Y38.0121 
G01 X-28.2169 Y38.1879 
G01 X-28.1826 Y38.3604 
G01 X-28.1153 Y38.5229 
G01 X-28.0176 Y38.6692 
G01 X-27.8932 Y38.7936 
G01 X-27.7469 Y38.8913 
G01 X-27.5844 Y38.9586 
G01 X-27.4119 Y38.9929 
G01 X-25.9281 Y38.9929 
G01 X-25.7555 Y38.9586 
G01 X-25.5931 Y38.8913 
G01 X-25.4468 Y38.7936 
G01 X-25.3224 Y38.6692 
G01 X-25.2247 Y38.5229 
G01 X-25.1574 Y38.3604 
G01 X-25.1231 Y38.1879 
G01 X-25.1231 Y38.0121 
G01 X-25.1574 Y37.8396 
G01 X-25.2247 Y37.6771 
G01 X-25.3224 Y37.5308 
G01 X-25.4468 Y37.4064 
G01 X-25.5931 Y37.3087 
G01 X-25.7555 Y37.2414 
G01 X-25.9281 Y37.2071 
G01 X-27.4119 Y37.2071 
G01 X-27.5844 Y37.2414 
G01 X-27.7469 Y37.3087 
G01 X-27.8932 Y37.4064 
G00 Z2.0000 
G00 X-27.8932 Y39.9464 
G01 Z-0.0250 F254.00 
G01 X-28.0176 Y40.0708 F508.00 
G01 X-28.1153 Y40.2171 
G01 X-28.1826 Y40.3796 
G01 X-28.2169 Y40.5521 
G01 X-28.2169 Y40.7279 
G01 X-28.1826 Y40.9004 
G01 X-28.1153 Y41.0629 
G01 X-28.0176 Y41.2092 
G01 X-27.8932 Y41.3336 
G01 X-27.7469 Y41.4313 
G01 X-27.5844 Y41.4986 
G01 X-27.4119 Y41.5329 
G01 X-25.9281 Y41.5329 
G01 X-25.7555 Y41.4986 
G01 X-25.5931 Y41.4313 
G01 X-25.4468 Y41.3336 
G01 X-25.3224 Y41.2092 
G01 X-25.2247 Y41.0629 
G01 X-25.1574 Y40.9004 
G01 X-25.1231 Y40.7279 
G01 X-25.1231 Y40.5521 
G01 X-25.1574 Y40.3796 
G01 X-25.2247 Y40.2171 
G01 X-25.3224 Y40.0708 
G01 X-25.4468 Y39.9464 
G01 X-25.5931 Y39.8487 
G01 X-25.7555 Y39.7814 
G01 X-25.9281 Y39.7471 
G01 X-27.4119 Y39.7471 
G01 X-27.5844 Y39.7814 
G01 X-27.7469 Y39.8487 
G01 X-27.8932 Y39.9464 
G00 Z2.0000 
G00 X-27.8932 Y42.4864 
G01 Z-0.0250 F254.00 
G01 X-28.0176 Y42.6108 F508.00 
G01 X-28.1153 Y42.7571 
G01 X-28.1584 Y42.8611 
G01 X-37.5512 Y42.8611 
G01 X-37.6501 Y42.8876 
G01 X-37.7388 Y42.9388 
G01 X-40.3723 Y45.5724 
G01 X-40.5371 Y45.5396 
G01 X-40.7129 Y45.5396 
G01 X-40.8854 Y45.5739 
G01 X-41.0479 Y45.6412 
G01 X-41.1942 Y45.7389 
G01 X-41.3186 Y45.8633 
G01 X-41.4163 Y46.0096 
G01 X-41.4836 Y46.1720 
G01 X-41.5179 Y46.3446 
G01 X-41.5179 Y46.5204 
G01 X-41.4836 Y46.6929 
G01 X-41.4163 Y46.8554 
G01 X-41.3186 Y47.0017 
G01 X-41.1942 Y47.1261 
G01 X-41.0479 Y47.2238 
G01 X-40.8854 Y47.2911 
G01 X-40.7129 Y47.3254 
G01 X-40.5371 Y47.3254 
G01 X-40.3646 Y47.2911 
G01 X-40.2021 Y47.2238 
G01 X-40.0558 Y47.1261 
G01 X-39.9314 Y47.0017 
G01 X-39.8337 Y46.8554 
G01 X-39.7664 Y46.6929 
G01 X-39.7321 Y46.5204 
G01 X-39.7321 Y46.3446 
G01 X-39.7664 Y46.1720 
G01 X-39.7974 Y46.0973 
G01 X-37.3389 Y43.6389 
G01 X-28.0913 Y43.6389 
G01 X-28.0176 Y43.7492 
G01 X-27.8932 Y43.8736 
G01 X-27.7469 Y43.9713 
G01 X-27.5844 Y44.0386 
G01 X-27.4119 Y44.0729 
G01 X-25.9281 Y44.0729 
G01 X-25.7555 Y44.0386 
G01 X-25.5931 Y43.9713 
G01 X-25.4468 Y43.8736 
G01 X-25.3224 Y43.7492 
G01 X-25.2247 Y43.6029 
G01 X-25.1574 Y43.4404 
G01 X-25.1231 Y43.2679 
G01 X-25.1231 Y43.0921 
G01 X-25.1574 Y42.9196 
G01 X-25.2247 Y42.7571 
G01 X-25.3224 Y42.6108 
G01 X-25.4468 Y42.4864 
G01 X-25.5931 Y42.3887 
G01 X-25.7555 Y42.3214 
G01 X-25.9281 Y42.2871 
G01 X-27.4119 Y42.2871 
G01 X-27.5844 Y42.3214 
G01 X-27.7469 Y42.3887 
G01 X-27.8932 Y42.4864 
G00 Z2.0000 
G00 X-27.8932 Y45.0264 
G01 Z-0.0250 F254.00 
G01 X-28.0176 Y45.1508 F508.00 
G01 X-28.1153 Y45.2971 
G01 X-28.1826 Y45.4596 
G01 X-28.2169 Y45.6321 
G01 X-28.2169 Y45.8079 
G01 X-28.1826 Y45.9804 
G01 X-28.1153 Y46.1429 
G01 X-28.0176 Y46.2892 
G01 X-27.8932 Y46.4136 
G01 X-27.7469 Y46.5113 
G01 X-27.5844 Y46.5786 
G01 X-27.4210 Y46.6111 
G01 X-37.0512 Y46.6111 
G01 X-37.1501 Y46.6376 
G01 X-37.2239 Y46.6802 
G01 X-37.1921 Y46.5204 
G01 X-37.1921 Y46.3446 
G01 X-37.2264 Y46.1720 
G01 X-37.2937 Y46.0096 
G01 X-37.3914 Y45.8633 
G01 X-37.5158 Y45.7389 
G01 X-37.6621 Y45.6412 
G01 X-37.8246 Y45.5739 
G01 X-37.9971 Y45.5396 
G01 X-38.1729 Y45.5396 
G01 X-38.3454 Y45.5739 
G01 X-38.5079 Y45.6412 
G01 X-38.6542 Y45.7389 
G01 X-38.7786 Y45.8633 
G01 X-38.8763 Y46.0096 
G01 X-38.9436 Y46.1720 
G01 X-38.9779 Y46.3446 
G01 X-38.9779 Y46.5204 
G01 X-38.9436 Y46.6929 
G01 X-38.8763 Y46.8554 
G01 X-38.7786 Y47.0017 
G01 X-38.6542 Y47.1261 
G01 X-38.5079 Y47.2238 
G01 X-38.3454 Y47.2911 
G01 X-38.1729 Y47.3254 
G01 X-37.9971 Y47.3254 
G01 X-37.8452 Y47.2952 
G01 X-37.9111 Y47.3611 
G01 X-44.5512 Y47.3611 
G01 X-44.6501 Y47.3876 
G01 X-44.7388 Y47.4388 
G01 X-45.3796 Y48.0796 
G01 X-46.4065 Y48.0796 
G01 X-46.4943 Y48.1160 
G01 X-46.5615 Y48.1832 
G01 X-46.5979 Y48.2710 
G01 X-46.5979 Y49.6740 
G01 X-46.5615 Y49.7618 
G01 X-46.4943 Y49.8290 
G01 X-46.4065 Y49.8654 
G01 X-45.0035 Y49.8654 
G01 X-44.9157 Y49.8290 
G01 X-44.8485 Y49.7618 
G01 X-44.8121 Y49.6740 
G01 X-44.8121 Y48.6121 
G01 X-44.3389 Y48.1389 
G01 X-43.4858 Y48.1389 
G01 X-43.5879 Y48.1812 
G01 X-43.7342 Y48.2789 
G01 X-43.8586 Y48.4033 
G01 X-43.9563 Y48.5496 
G01 X-44.0236 Y48.7120 
G01 X-44.0579 Y48.8846 
G01 X-44.0579 Y49.0604 
G01 X-44.0236 Y49.2329 
G01 X-43.9563 Y49.3954 
G01 X-43.8586 Y49.5417 
G01 X-43.7342 Y49.6661 
G01 X-43.5879 Y49.7638 
G01 X-43.4254 Y49.8311 
G01 X-43.2529 Y49.8654 
G01 X-43.0771 Y49.8654 
G01 X-42.9046 Y49.8311 
G01 X-42.7421 Y49.7638 
G01 X-42.5958 Y49.6661 
G01 X-42.4714 Y49.5417 
G01 X-42.3737 Y49.3954 
G01 X-42.3064 Y49.2329 
G01 X-42.2721 Y49.0604 
G01 X-42.2721 Y48.8846 
G01 X-42.3064 Y48.7120 
G01 X-42.3737 Y48.5496 
G01 X-42.4714 Y48.4033 
G01 X-42.5958 Y48.2789 
G01 X-42.7421 Y48.1812 
G01 X-42.8442 Y48.1389 
G01 X-40.9458 Y48.1389 
G01 X-41.0479 Y48.1812 
G01 X-41.1942 Y48.2789 
G01 X-41.3186 Y48.4033 
G01 X-41.4163 Y48.5496 
G01 X-41.4836 Y48.7120 
G01 X-41.5179 Y48.8846 
G01 X-41.5179 Y49.0604 
G01 X-41.4836 Y49.2329 
G01 X-41.4163 Y49.3954 
G01 X-41.3186 Y49.5417 
G01 X-41.1942 Y49.6661 
G01 X-41.0479 Y49.7638 
G01 X-40.8854 Y49.8311 
G01 X-40.7129 Y49.8654 
G01 X-40.5371 Y49.8654 
G01 X-40.3646 Y49.8311 
G01 X-40.2021 Y49.7638 
G01 X-40.0558 Y49.6661 
G01 X-39.9314 Y49.5417 
G01 X-39.8337 Y49.3954 
G01 X-39.7664 Y49.2329 
G01 X-39.7321 Y49.0604 
G01 X-39.7321 Y48.8846 
G01 X-39.7664 Y48.7120 
G01 X-39.8337 Y48.5496 
G01 X-39.9314 Y48.4033 
G01 X-40.0558 Y48.2789 
G01 X-40.2021 Y48.1812 
G01 X-40.3042 Y48.1389 
G01 X-38.8972 Y48.1389 
G01 X-38.9415 Y48.1832 
G01 X-38.9779 Y48.2710 
G01 X-38.9779 Y49.6740 
G01 X-38.9415 Y49.7618 
G01 X-38.8743 Y49.8290 
G01 X-38.7865 Y49.8654 
G01 X-37.3835 Y49.8654 
G01 X-37.2957 Y49.8290 
G01 X-37.2285 Y49.7618 
G01 X-37.1921 Y49.6740 
G01 X-37.1921 Y48.2710 
G01 X-37.2285 Y48.1832 
G01 X-37.2957 Y48.1160 
G01 X-37.3835 Y48.0796 
G01 X-37.5431 Y48.0796 
G01 X-37.5112 Y48.0612 
G01 X-37.4388 Y47.9888 
G01 X-36.8389 Y47.3889 
G01 X-27.5215 Y47.3889 
G01 X-27.5844 Y47.4014 
G01 X-27.7469 Y47.4687 
G01 X-27.8932 Y47.5664 
G01 X-28.0176 Y47.6908 
G01 X-28.1153 Y47.8371 
G01 X-28.1826 Y47.9995 
G01 X-28.2169 Y48.1721 
G01 X-28.2169 Y48.3479 
G01 X-28.1826 Y48.5204 
G01 X-28.1153 Y48.6829 
G01 X-28.0176 Y48.8292 
G01 X-27.8932 Y48.9536 
G01 X-27.7469 Y49.0513 
G01 X-27.5844 Y49.1186 
G01 X-27.4119 Y49.1529 
G01 X-25.9281 Y49.1529 
G01 X-25.7555 Y49.1186 
G01 X-25.5931 Y49.0513 
G01 X-25.4468 Y48.9536 
G01 X-25.3224 Y48.8292 
G01 X-25.2247 Y48.6829 
G01 X-25.1574 Y48.5204 
G01 X-25.1231 Y48.3479 
G01 X-25.1231 Y48.1721 
G01 X-25.1574 Y47.9995 
G01 X-25.2247 Y47.8371 
G01 X-25.3224 Y47.6908 
G01 X-25.4468 Y47.5664 
G01 X-25.5931 Y47.4687 
G01 X-25.7555 Y47.4014 
G01 X-25.8185 Y47.3889 
G01 X-25.6988 Y47.3889 
G01 X-25.5999 Y47.3624 
G01 X-25.5112 Y47.3112 
G01 X-25.4388 Y47.2388 
G01 X-19.3389 Y41.1389 
G01 X-12.8245 Y41.1389 
G01 X-12.7776 Y41.2092 
G01 X-12.6532 Y41.3336 
G01 X-12.5069 Y41.4313 
G01 X-12.3444 Y41.4986 
G01 X-12.1719 Y41.5329 
G01 X-10.6881 Y41.5329 
G01 X-10.5155 Y41.4986 
G01 X-10.3531 Y41.4313 
G01 X-10.2068 Y41.3336 
G01 X-10.0824 Y41.2092 
G01 X-9.9847 Y41.0629 
G01 X-9.9174 Y40.9004 
G01 X-9.8831 Y40.7279 
G01 X-9.8831 Y40.5521 
G01 X-9.9174 Y40.3796 
G01 X-9.9847 Y40.2171 
G01 X-10.0824 Y40.0708 
G01 X-10.2068 Y39.9464 
G01 X-10.3531 Y39.8487 
G01 X-10.5155 Y39.7814 
G01 X-10.6881 Y39.7471 
G01 X-12.1719 Y39.7471 
G01 X-12.3444 Y39.7814 
G01 X-12.5069 Y39.8487 
G01 X-12.6532 Y39.9464 
G01 X-12.7776 Y40.0708 
G01 X-12.8753 Y40.2171 
G01 X-12.9349 Y40.3611 
G01 X-19.5512 Y40.3611 
G01 X-19.6501 Y40.3876 
G01 X-19.7388 Y40.4388 
G01 X-25.1269 Y45.8269 
G01 X-25.1231 Y45.8079 
G01 X-25.1231 Y45.6321 
G01 X-25.1574 Y45.4596 
G01 X-25.2247 Y45.2971 
G01 X-25.3224 Y45.1508 
G01 X-25.4468 Y45.0264 
G01 X-25.5931 Y44.9287 
G01 X-25.7555 Y44.8614 
G01 X-25.9281 Y44.8271 
G01 X-27.4119 Y44.8271 
G01 X-27.5844 Y44.8614 
G01 X-27.7469 Y44.9287 
G01 X-27.8932 Y45.0264 
G00 Z2.0000 
G00 X-25.9190 Y46.6111 
G01 Z-0.0250 F254.00 
G01 X-25.9091 Y46.6091 F508.00 
G01 X-25.9190 Y46.6111 
G00 Z2.0000 
G00 X-25.9281 Y49.9071 
G01 Z-0.0250 F254.00 
G01 X-27.4119 Y49.9071 F508.00 
G01 X-27.5844 Y49.9414 
G01 X-27.7469 Y50.0087 
G01 X-27.8932 Y50.1064 
G01 X-28.0176 Y50.2308 
G01 X-28.1153 Y50.3771 
G01 X-28.1826 Y50.5395 
G01 X-28.2169 Y50.7121 
G01 X-28.2169 Y50.8879 
G01 X-28.1826 Y51.0604 
G01 X-28.1153 Y51.2229 
G01 X-28.0176 Y51.3692 
G01 X-27.8932 Y51.4936 
G01 X-27.7469 Y51.5913 
G01 X-27.5844 Y51.6586 
G01 X-27.4119 Y51.6929 
G01 X-25.9281 Y51.6929 
G01 X-25.7555 Y51.6586 
G01 X-25.5931 Y51.5913 
G01 X-25.4468 Y51.4936 
G01 X-25.3224 Y51.3692 
G01 X-25.2247 Y51.2229 
G01 X-25.1574 Y51.0604 
G01 X-25.1231 Y50.8879 
G01 X-25.1231 Y50.7121 
G01 X-25.1574 Y50.5395 
G01 X-25.2247 Y50.3771 
G01 X-25.3224 Y50.2308 
G01 X-25.4468 Y50.1064 
G01 X-25.5931 Y50.0087 
G01 X-25.7555 Y49.9414 
G01 X-25.9281 Y49.9071 
G00 Z2.0000 
G00 X-25.8229 Y51.8947 
G01 Z-0.0250 F254.00 
G01 X-25.9692 Y51.9924 F508.00 
G01 X-26.0936 Y52.1168 
G01 X-26.1913 Y52.2631 
G01 X-26.2586 Y52.4256 
G01 X-26.2929 Y52.5981 
G01 X-26.2929 Y54.0819 
G01 X-26.2586 Y54.2544 
G01 X-26.1913 Y54.4169 
G01 X-26.0936 Y54.5632 
G01 X-25.9692 Y54.6876 
G01 X-25.8229 Y54.7853 
G01 X-25.6604 Y54.8526 
G01 X-25.4879 Y54.8869 
G01 X-25.3121 Y54.8869 
G01 X-25.1395 Y54.8526 
G01 X-24.9771 Y54.7853 
G01 X-24.8308 Y54.6876 
G01 X-24.7064 Y54.5632 
G01 X-24.6087 Y54.4169 
G01 X-24.5414 Y54.2544 
G01 X-24.5071 Y54.0819 
G01 X-24.5071 Y52.5981 
G01 X-24.5414 Y52.4256 
G01 X-24.6087 Y52.2631 
G01 X-24.7064 Y52.1168 
G01 X-24.8308 Y51.9924 
G01 X-24.9771 Y51.8947 
G01 X-25.1395 Y51.8274 
G01 X-25.3121 Y51.7931 
G01 X-25.4879 Y51.7931 
G01 X-25.6604 Y51.8274 
G01 X-25.8229 Y51.8947 
G00 Z2.0000 
G00 X-23.4292 Y51.9924 
G01 Z-0.0250 F254.00 
G01 X-23.5536 Y52.1168 F508.00 
G01 X-23.6513 Y52.2631 
G01 X-23.7186 Y52.4256 
G01 X-23.7529 Y52.5981 
G01 X-23.7529 Y54.0819 
G01 X-23.7186 Y54.2544 
G01 X-23.6513 Y54.4169 
G01 X-23.5536 Y54.5632 
G01 X-23.4292 Y54.6876 
G01 X-23.2829 Y54.7853 
G01 X-23.1204 Y54.8526 
G01 X-22.9479 Y54.8869 
G01 X-22.7721 Y54.8869 
G01 X-22.5996 Y54.8526 
G01 X-22.4371 Y54.7853 
G01 X-22.2908 Y54.6876 
G01 X-22.1664 Y54.5632 
G01 X-22.0687 Y54.4169 
G01 X-22.0014 Y54.2544 
G01 X-21.9671 Y54.0819 
G01 X-21.9671 Y52.5981 
G01 X-22.0014 Y52.4256 
G01 X-22.0687 Y52.2631 
G01 X-22.1664 Y52.1168 
G01 X-22.2908 Y51.9924 
G01 X-22.4371 Y51.8947 
G01 X-22.5996 Y51.8274 
G01 X-22.7721 Y51.7931 
G01 X-22.9479 Y51.7931 
G01 X-23.1204 Y51.8274 
G01 X-23.2829 Y51.8947 
G01 X-23.4292 Y51.9924 
G00 Z2.0000 
G00 X-20.8892 Y51.9924 
G01 Z-0.0250 F254.00 
G01 X-21.0136 Y52.1168 F508.00 
G01 X-21.1113 Y52.2631 
G01 X-21.1786 Y52.4256 
G01 X-21.2129 Y52.5981 
G01 X-21.2129 Y54.0819 
G01 X-21.1786 Y54.2544 
G01 X-21.1113 Y54.4169 
G01 X-21.0136 Y54.5632 
G01 X-20.8892 Y54.6876 
G01 X-20.7429 Y54.7853 
G01 X-20.5804 Y54.8526 
G01 X-20.4079 Y54.8869 
G01 X-20.2321 Y54.8869 
G01 X-20.0596 Y54.8526 
G01 X-19.8971 Y54.7853 
G01 X-19.7508 Y54.6876 
G01 X-19.6264 Y54.5632 
G01 X-19.5287 Y54.4169 
G01 X-19.4614 Y54.2544 
G01 X-19.4271 Y54.0819 
G01 X-19.4271 Y52.5981 
G01 X-19.4614 Y52.4256 
G01 X-19.5287 Y52.2631 
G01 X-19.6264 Y52.1168 
G01 X-19.7508 Y51.9924 
G01 X-19.8971 Y51.8947 
G01 X-20.0596 Y51.8274 
G01 X-20.2321 Y51.7931 
G01 X-20.4079 Y51.7931 
G01 X-20.5804 Y51.8274 
G01 X-20.7429 Y51.8947 
G01 X-20.8892 Y51.9924 
G00 Z2.0000 
G00 X-18.3492 Y51.9924 
G01 Z-0.0250 F254.00 
G01 X-18.4736 Y52.1168 F508.00 
G01 X-18.5713 Y52.2631 
G01 X-18.6386 Y52.4256 
G01 X-18.6729 Y52.5981 
G01 X-18.6729 Y54.0819 
G01 X-18.6386 Y54.2544 
G01 X-18.5713 Y54.4169 
G01 X-18.4736 Y54.5632 
G01 X-18.3492 Y54.6876 
G01 X-18.2029 Y54.7853 
G01 X-18.0404 Y54.8526 
G01 X-17.8679 Y54.8869 
G01 X-17.6921 Y54.8869 
G01 X-17.5195 Y54.8526 
G01 X-17.3571 Y54.7853 
G01 X-17.2108 Y54.6876 
G01 X-17.0864 Y54.5632 
G01 X-16.9887 Y54.4169 
G01 X-16.9214 Y54.2544 
G01 X-16.8871 Y54.0819 
G01 X-16.8871 Y52.5981 
G01 X-16.9214 Y52.4256 
G01 X-16.9887 Y52.2631 
G01 X-17.0864 Y52.1168 
G01 X-17.2108 Y51.9924 
G01 X-17.3571 Y51.8947 
G01 X-17.5195 Y51.8274 
G01 X-17.6921 Y51.7931 
G01 X-17.8679 Y51.7931 
G01 X-18.0404 Y51.8274 
G01 X-18.2029 Y51.8947 
G01 X-18.3492 Y51.9924 
G00 Z2.0000 
G00 X-15.8092 Y51.9924 
G01 Z-0.0250 F254.00 
G01 X-15.9336 Y52.1168 F508.00 
G01 X-16.0313 Y52.2631 
G01 X-16.0986 Y52.4256 
G01 X-16.1329 Y52.5981 
G01 X-16.1329 Y54.0819 
G01 X-16.0986 Y54.2544 
G01 X-16.0313 Y54.4169 
G01 X-15.9336 Y54.5632 
G01 X-15.8092 Y54.6876 
G01 X-15.6629 Y54.7853 
G01 X-15.5004 Y54.8526 
G01 X-15.3279 Y54.8869 
G01 X-15.1521 Y54.8869 
G01 X-14.9795 Y54.8526 
G01 X-14.8171 Y54.7853 
G01 X-14.6708 Y54.6876 
G01 X-14.5464 Y54.5632 
G01 X-14.4487 Y54.4169 
G01 X-14.3814 Y54.2544 
G01 X-14.3471 Y54.0819 
G01 X-14.3471 Y52.5981 
G01 X-14.3814 Y52.4256 
G01 X-14.4487 Y52.2631 
G01 X-14.5464 Y52.1168 
G01 X-14.6708 Y51.9924 
G01 X-14.8171 Y51.8947 
G01 X-14.9795 Y51.8274 
G01 X-15.1521 Y51.7931 
G01 X-15.3279 Y51.7931 
G01 X-15.5004 Y51.8274 
G01 X-15.6629 Y51.8947 
G01 X-15.8092 Y51.9924 
G00 Z2.0000 
G00 X-13.2692 Y51.9924 
G01 Z-0.0250 F254.00 
G01 X-13.3936 Y52.1168 F508.00 
G01 X-13.4913 Y52.2631 
G01 X-13.5586 Y52.4256 
G01 X-13.5929 Y52.5981 
G01 X-13.5929 Y54.0819 
G01 X-13.5586 Y54.2544 
G01 X-13.4913 Y54.4169 
G01 X-13.3936 Y54.5632 
G01 X-13.2692 Y54.6876 
G01 X-13.1229 Y54.7853 
G01 X-12.9604 Y54.8526 
G01 X-12.7879 Y54.8869 
G01 X-12.6121 Y54.8869 
G01 X-12.4396 Y54.8526 
G01 X-12.2771 Y54.7853 
G01 X-12.1308 Y54.6876 
G01 X-12.0064 Y54.5632 
G01 X-11.9087 Y54.4169 
G01 X-11.8414 Y54.2544 
G01 X-11.8071 Y54.0819 
G01 X-11.8071 Y52.5981 
G01 X-11.8414 Y52.4256 
G01 X-11.9087 Y52.2631 
G01 X-12.0064 Y52.1168 
G01 X-12.1308 Y51.9924 
G01 X-12.2771 Y51.8947 
G01 X-12.4396 Y51.8274 
G01 X-12.6121 Y51.7931 
G01 X-12.7879 Y51.7931 
G01 X-12.9604 Y51.8274 
G01 X-13.1229 Y51.8947 
G01 X-13.2692 Y51.9924 
G00 Z2.0000 
G00 X-12.7776 Y51.3692 
G01 Z-0.0250 F254.00 
G01 X-12.6532 Y51.4936 F508.00 
G01 X-12.5069 Y51.5913 
G01 X-12.3444 Y51.6586 
G01 X-12.1719 Y51.6929 
G01 X-10.6881 Y51.6929 
G01 X-10.5155 Y51.6586 
G01 X-10.3531 Y51.5913 
G01 X-10.2068 Y51.4936 
G01 X-10.0824 Y51.3692 
G01 X-9.9847 Y51.2229 
G01 X-9.9174 Y51.0604 
G01 X-9.8831 Y50.8879 
G01 X-9.8831 Y50.7121 
G01 X-9.9174 Y50.5395 
G01 X-9.9847 Y50.3771 
G01 X-10.0824 Y50.2308 
G01 X-10.2068 Y50.1064 
G01 X-10.3531 Y50.0087 
G01 X-10.5155 Y49.9414 
G01 X-10.6881 Y49.9071 
G01 X-12.1719 Y49.9071 
G01 X-12.3444 Y49.9414 
G01 X-12.5069 Y50.0087 
G01 X-12.6532 Y50.1064 
G01 X-12.7776 Y50.2308 
G01 X-12.8753 Y50.3771 
G01 X-12.9426 Y50.5395 
G01 X-12.9769 Y50.7121 
G01 X-12.9769 Y50.8879 
G01 X-12.9426 Y51.0604 
G01 X-12.8753 Y51.2229 
G01 X-12.7776 Y51.3692 
G00 Z2.0000 
G00 X-12.7776 Y48.8292 
G01 Z-0.0250 F254.00 
G01 X-12.6532 Y48.9536 F508.00 
G01 X-12.5069 Y49.0513 
G01 X-12.3444 Y49.1186 
G01 X-12.1719 Y49.1529 
G01 X-10.6881 Y49.1529 
G01 X-10.5155 Y49.1186 
G01 X-10.3531 Y49.0513 
G01 X-10.2068 Y48.9536 
G01 X-10.0824 Y48.8292 
G01 X-9.9847 Y48.6829 
G01 X-9.9174 Y48.5204 
G01 X-9.8831 Y48.3479 
G01 X-9.8831 Y48.1721 
G01 X-9.9174 Y47.9995 
G01 X-9.9847 Y47.8371 
G01 X-10.0824 Y47.6908 
G01 X-10.2068 Y47.5664 
G01 X-10.3531 Y47.4687 
G01 X-10.5155 Y47.4014 
G01 X-10.6881 Y47.3671 
G01 X-12.1719 Y47.3671 
G01 X-12.3444 Y47.4014 
G01 X-12.5069 Y47.4687 
G01 X-12.6532 Y47.5664 
G01 X-12.7776 Y47.6908 
G01 X-12.8753 Y47.8371 
G01 X-12.9426 Y47.9995 
G01 X-12.9769 Y48.1721 
G01 X-12.9769 Y48.3479 
G01 X-12.9426 Y48.5204 
G01 X-12.8753 Y48.6829 
G01 X-12.7776 Y48.8292 
G00 Z2.0000 
G00 X-12.7776 Y46.2892 
G01 Z-0.0250 F254.00 
G01 X-12.6532 Y46.4136 F508.00 
G01 X-12.5069 Y46.5113 
G01 X-12.3444 Y46.5786 
G01 X-12.1719 Y46.6129 
G01 X-10.6881 Y46.6129 
G01 X-10.5155 Y46.5786 
G01 X-10.3531 Y46.5113 
G01 X-10.2068 Y46.4136 
G01 X-10.0824 Y46.2892 
G01 X-9.9847 Y46.1429 
G01 X-9.9174 Y45.9804 
G01 X-9.8831 Y45.8079 
G01 X-9.8831 Y45.6321 
G01 X-9.9174 Y45.4596 
G01 X-9.9847 Y45.2971 
G01 X-10.0824 Y45.1508 
G01 X-10.2068 Y45.0264 
G01 X-10.3531 Y44.9287 
G01 X-10.5155 Y44.8614 
G01 X-10.6881 Y44.8271 
G01 X-12.1719 Y44.8271 
G01 X-12.3444 Y44.8614 
G01 X-12.5069 Y44.9287 
G01 X-12.6532 Y45.0264 
G01 X-12.7776 Y45.1508 
G01 X-12.8753 Y45.2971 
G01 X-12.9426 Y45.4596 
G01 X-12.9769 Y45.6321 
G01 X-12.9769 Y45.8079 
G01 X-12.9426 Y45.9804 
G01 X-12.8753 Y46.1429 
G01 X-12.7776 Y46.2892 
G00 Z2.0000 
G00 X-12.7776 Y43.7492 
G01 Z-0.0250 F254.00 
G01 X-12.6532 Y43.8736 F508.00 
G01 X-12.5069 Y43.9713 
G01 X-12.3444 Y44.0386 
G01 X-12.1719 Y44.0729 
G01 X-10.6881 Y44.0729 
G01 X-10.5155 Y44.0386 
G01 X-10.3531 Y43.9713 
G01 X-10.2068 Y43.8736 
G01 X-10.0824 Y43.7492 
G01 X-9.9847 Y43.6029 
G01 X-9.9174 Y43.4404 
G01 X-9.8831 Y43.2679 
G01 X-9.8831 Y43.0921 
G01 X-9.9174 Y42.9196 
G01 X-9.9847 Y42.7571 
G01 X-10.0824 Y42.6108 
G01 X-10.2068 Y42.4864 
G01 X-10.3531 Y42.3887 
G01 X-10.5155 Y42.3214 
G01 X-10.6881 Y42.2871 
G01 X-12.1719 Y42.2871 
G01 X-12.3444 Y42.3214 
G01 X-12.5069 Y42.3887 
G01 X-12.6532 Y42.4864 
G01 X-12.7776 Y42.6108 
G01 X-12.8753 Y42.7571 
G01 X-12.9426 Y42.9196 
G01 X-12.9769 Y43.0921 
G01 X-12.9769 Y43.2679 
G01 X-12.9426 Y43.4404 
G01 X-12.8753 Y43.6029 
G01 X-12.7776 Y43.7492 
G00 Z2.0000 
G00 X-12.7776 Y38.6692 
G01 Z-0.0250 F254.00 
G01 X-12.6532 Y38.7936 F508.00 
G01 X-12.5069 Y38.8913 
G01 X-12.3444 Y38.9586 
G01 X-12.1719 Y38.9929 
G01 X-10.6881 Y38.9929 
G01 X-10.5155 Y38.9586 
G01 X-10.3531 Y38.8913 
G01 X-10.2068 Y38.7936 
G01 X-10.0824 Y38.6692 
G01 X-9.9847 Y38.5229 
G01 X-9.9174 Y38.3604 
G01 X-9.8831 Y38.1879 
G01 X-9.8831 Y38.0121 
G01 X-9.9174 Y37.8396 
G01 X-9.9847 Y37.6771 
G01 X-10.0824 Y37.5308 
G01 X-10.2068 Y37.4064 
G01 X-10.3531 Y37.3087 
G01 X-10.5155 Y37.2414 
G01 X-10.6881 Y37.2071 
G01 X-12.1719 Y37.2071 
G01 X-12.3444 Y37.2414 
G01 X-12.5069 Y37.3087 
G01 X-12.6532 Y37.4064 
G01 X-12.7776 Y37.5308 
G01 X-12.8753 Y37.6771 
G01 X-12.9426 Y37.8396 
G01 X-12.9769 Y38.0121 
G01 X-12.9769 Y38.1879 
G01 X-12.9426 Y38.3604 
G01 X-12.8753 Y38.5229 
G01 X-12.7776 Y38.6692 
G00 Z2.0000 
G00 X-12.7776 Y36.1292 
G01 Z-0.0250 F254.00 
G01 X-12.6532 Y36.2536 F508.00 
G01 X-12.5069 Y36.3513 
G01 X-12.3444 Y36.4186 
G01 X-12.1719 Y36.4529 
G01 X-10.6881 Y36.4529 
G01 X-10.5155 Y36.4186 
G01 X-10.3531 Y36.3513 
G01 X-10.2068 Y36.2536 
G01 X-10.0824 Y36.1292 
G01 X-9.9847 Y35.9829 
G01 X-9.9174 Y35.8204 
G01 X-9.8831 Y35.6479 
G01 X-9.8831 Y35.4721 
G01 X-9.9174 Y35.2996 
G01 X-9.9847 Y35.1371 
G01 X-10.0824 Y34.9908 
G01 X-10.2068 Y34.8664 
G01 X-10.3531 Y34.7687 
G01 X-10.5155 Y34.7014 
G01 X-10.6881 Y34.6671 
G01 X-12.1719 Y34.6671 
G01 X-12.3444 Y34.7014 
G01 X-12.5069 Y34.7687 
G01 X-12.6532 Y34.8664 
G01 X-12.7776 Y34.9908 
G01 X-12.8753 Y35.1371 
G01 X-12.9426 Y35.2996 
G01 X-12.9769 Y35.4721 
G01 X-12.9769 Y35.6479 
G01 X-12.9426 Y35.8204 
G01 X-12.8753 Y35.9829 
G01 X-12.7776 Y36.1292 
G00 Z2.0000 
G00 X-12.7776 Y33.5892 
G01 Z-0.0250 F254.00 
G01 X-12.6532 Y33.7136 F508.00 
G01 X-12.5069 Y33.8113 
G01 X-12.3444 Y33.8786 
G01 X-12.1719 Y33.9129 
G01 X-10.6881 Y33.9129 
G01 X-10.5155 Y33.8786 
G01 X-10.3531 Y33.8113 
G01 X-10.2068 Y33.7136 
G01 X-10.0824 Y33.5892 
G01 X-9.9847 Y33.4429 
G01 X-9.9174 Y33.2804 
G01 X-9.8831 Y33.1079 
G01 X-9.8831 Y32.9321 
G01 X-9.9174 Y32.7595 
G01 X-9.9847 Y32.5971 
G01 X-10.0824 Y32.4508 
G01 X-10.2068 Y32.3264 
G01 X-10.3531 Y32.2287 
G01 X-10.5155 Y32.1614 
G01 X-10.6881 Y32.1271 
G01 X-12.1719 Y32.1271 
G01 X-12.3444 Y32.1614 
G01 X-12.5069 Y32.2287 
G01 X-12.6532 Y32.3264 
G01 X-12.7776 Y32.4508 
G01 X-12.8753 Y32.5971 
G01 X-12.9426 Y32.7595 
G01 X-12.9769 Y32.9321 
G01 X-12.9769 Y33.1079 
G01 X-12.9426 Y33.2804 
G01 X-12.8753 Y33.4429 
G01 X-12.7776 Y33.5892 
G00 Z2.0000 
G00 X-12.7776 Y31.0492 
G01 Z-0.0250 F254.00 
G01 X-12.6532 Y31.1736 F508.00 
G01 X-12.5069 Y31.2713 
G01 X-12.3444 Y31.3386 
G01 X-12.1719 Y31.3729 
G01 X-10.6881 Y31.3729 
G01 X-10.5155 Y31.3386 
G01 X-10.3531 Y31.2713 
G01 X-10.2068 Y31.1736 
G01 X-10.0824 Y31.0492 
G01 X-9.9847 Y30.9029 
G01 X-9.9174 Y30.7404 
G01 X-9.8831 Y30.5679 
G01 X-9.8831 Y30.3921 
G01 X-9.9174 Y30.2196 
G01 X-9.9847 Y30.0571 
G01 X-10.0824 Y29.9108 
G01 X-10.2068 Y29.7864 
G01 X-10.3531 Y29.6887 
G01 X-10.5155 Y29.6214 
G01 X-10.6881 Y29.5871 
G01 X-12.1719 Y29.5871 
G01 X-12.3444 Y29.6214 
G01 X-12.5069 Y29.6887 
G01 X-12.6532 Y29.7864 
G01 X-12.7776 Y29.9108 
G01 X-12.8753 Y30.0571 
G01 X-12.9426 Y30.2196 
G01 X-12.9769 Y30.3921 
G01 X-12.9769 Y30.5679 
G01 X-12.9426 Y30.7404 
G01 X-12.8753 Y30.9029 
G01 X-12.7776 Y31.0492 
G00 Z2.0000 
G00 X-12.7776 Y28.5092 
G01 Z-0.0250 F254.00 
G01 X-12.6532 Y28.6336 F508.00 
G01 X-12.5069 Y28.7313 
G01 X-12.3444 Y28.7986 
G01 X-12.1719 Y28.8329 
G01 X-10.6881 Y28.8329 
G01 X-10.5155 Y28.7986 
G01 X-10.3531 Y28.7313 
G01 X-10.2068 Y28.6336 
G01 X-10.0824 Y28.5092 
G01 X-9.9847 Y28.3629 
G01 X-9.9174 Y28.2004 
G01 X-9.8831 Y28.0279 
G01 X-9.8831 Y27.8521 
G01 X-9.9174 Y27.6795 
G01 X-9.9847 Y27.5171 
G01 X-10.0824 Y27.3708 
G01 X-10.2068 Y27.2464 
G01 X-10.3531 Y27.1487 
G01 X-10.5155 Y27.0814 
G01 X-10.6881 Y27.0471 
G01 X-12.1719 Y27.0471 
G01 X-12.3444 Y27.0814 
G01 X-12.5069 Y27.1487 
G01 X-12.6532 Y27.2464 
G01 X-12.7776 Y27.3708 
G01 X-12.8753 Y27.5171 
G01 X-12.9426 Y27.6795 
G01 X-12.9769 Y27.8521 
G01 X-12.9769 Y28.0279 
G01 X-12.9426 Y28.2004 
G01 X-12.8753 Y28.3629 
G01 X-12.7776 Y28.5092 
G00 Z2.0000 
G00 X-12.7776 Y25.9692 
G01 Z-0.0250 F254.00 
G01 X-12.6532 Y26.0936 F508.00 
G01 X-12.5069 Y26.1913 
G01 X-12.3444 Y26.2586 
G01 X-12.1719 Y26.2929 
G01 X-10.6881 Y26.2929 
G01 X-10.5155 Y26.2586 
G01 X-10.3531 Y26.1913 
G01 X-10.2068 Y26.0936 
G01 X-10.0824 Y25.9692 
G01 X-9.9847 Y25.8229 
G01 X-9.9174 Y25.6604 
G01 X-9.8831 Y25.4879 
G01 X-9.8831 Y25.3121 
G01 X-9.9174 Y25.1395 
G01 X-9.9847 Y24.9771 
G01 X-10.0824 Y24.8308 
G01 X-10.2068 Y24.7064 
G01 X-10.3531 Y24.6087 
G01 X-10.5155 Y24.5414 
G01 X-10.6881 Y24.5071 
G01 X-12.1719 Y24.5071 
G01 X-12.3444 Y24.5414 
G01 X-12.5069 Y24.6087 
G01 X-12.6532 Y24.7064 
G01 X-12.7776 Y24.8308 
G01 X-12.8753 Y24.9771 
G01 X-12.9426 Y25.1395 
G01 X-12.9769 Y25.3121 
G01 X-12.9769 Y25.4879 
G01 X-12.9426 Y25.6604 
G01 X-12.8753 Y25.8229 
G01 X-12.7776 Y25.9692 
G00 Z2.0000 
G00 X-12.7776 Y23.4292 
G01 Z-0.0250 F254.00 
G01 X-12.6532 Y23.5536 F508.00 
G01 X-12.5069 Y23.6513 
G01 X-12.3444 Y23.7186 
G01 X-12.1719 Y23.7529 
G01 X-10.6881 Y23.7529 
G01 X-10.5155 Y23.7186 
G01 X-10.3531 Y23.6513 
G01 X-10.2068 Y23.5536 
G01 X-10.0824 Y23.4292 
G01 X-9.9847 Y23.2829 
G01 X-9.9174 Y23.1204 
G01 X-9.8831 Y22.9479 
G01 X-9.8831 Y22.7721 
G01 X-9.9174 Y22.5996 
G01 X-9.9847 Y22.4371 
G01 X-10.0824 Y22.2908 
G01 X-10.2068 Y22.1664 
G01 X-10.3531 Y22.0687 
G01 X-10.5155 Y22.0014 
G01 X-10.6881 Y21.9671 
G01 X-12.1719 Y21.9671 
G01 X-12.3444 Y22.0014 
G01 X-12.5069 Y22.0687 
G01 X-12.6532 Y22.1664 
G01 X-12.7776 Y22.2908 
G01 X-12.8753 Y22.4371 
G01 X-12.9426 Y22.5996 
G01 X-12.9769 Y22.7721 
G01 X-12.9769 Y22.9479 
G01 X-12.9426 Y23.1204 
G01 X-12.8753 Y23.2829 
G01 X-12.7776 Y23.4292 
G00 Z2.0000 
G00 X-16.8871 Y23.6019 
G01 Z-0.0250 F254.00 
G01 X-16.8871 Y22.1181 F508.00 
G01 X-16.9214 Y21.9456 
G01 X-16.9887 Y21.7831 
G01 X-17.0864 Y21.6368 
G01 X-17.2108 Y21.5124 
G01 X-17.3571 Y21.4147 
G01 X-17.5195 Y21.3474 
G01 X-17.6921 Y21.3131 
G01 X-17.8679 Y21.3131 
G01 X-18.0404 Y21.3474 
G01 X-18.2029 Y21.4147 
G01 X-18.3492 Y21.5124 
G01 X-18.4736 Y21.6368 
G01 X-18.5713 Y21.7831 
G01 X-18.6386 Y21.9456 
G01 X-18.6729 Y22.1181 
G01 X-18.6729 Y23.6019 
G01 X-18.6386 Y23.7744 
G01 X-18.5713 Y23.9369 
G01 X-18.4736 Y24.0832 
G01 X-18.3492 Y24.2076 
G01 X-18.2029 Y24.3053 
G01 X-18.0404 Y24.3726 
G01 X-17.8679 Y24.4069 
G01 X-17.6921 Y24.4069 
G01 X-17.5195 Y24.3726 
G01 X-17.3571 Y24.3053 
G01 X-17.2108 Y24.2076 
G01 X-17.0864 Y24.0832 
G01 X-16.9887 Y23.9369 
G01 X-16.9214 Y23.7744 
G01 X-16.8871 Y23.6019 
G00 Z2.0000 
G00 X-19.4271 Y23.6019 
G01 Z-0.0250 F254.00 
G01 X-19.4271 Y22.1181 F508.00 
G01 X-19.4614 Y21.9456 
G01 X-19.5287 Y21.7831 
G01 X-19.6264 Y21.6368 
G01 X-19.7508 Y21.5124 
G01 X-19.8971 Y21.4147 
G01 X-20.0596 Y21.3474 
G01 X-20.2321 Y21.3131 
G01 X-20.4079 Y21.3131 
G01 X-20.5804 Y21.3474 
G01 X-20.7429 Y21.4147 
G01 X-20.8892 Y21.5124 
G01 X-21.0136 Y21.6368 
G01 X-21.1113 Y21.7831 
G01 X-21.1786 Y21.9456 
G01 X-21.2129 Y22.1181 
G01 X-21.2129 Y23.6019 
G01 X-21.1786 Y23.7744 
G01 X-21.1113 Y23.9369 
G01 X-21.0136 Y24.0832 
G01 X-20.8892 Y24.2076 
G01 X-20.7429 Y24.3053 
G01 X-20.5804 Y24.3726 
G01 X-20.4079 Y24.4069 
G01 X-20.2321 Y24.4069 
G01 X-20.0596 Y24.3726 
G01 X-19.8971 Y24.3053 
G01 X-19.7508 Y24.2076 
G01 X-19.6264 Y24.0832 
G01 X-19.5287 Y23.9369 
G01 X-19.4614 Y23.7744 
G01 X-19.4271 Y23.6019 
G00 Z2.0000 
G00 X-21.9671 Y23.6019 
G01 Z-0.0250 F254.00 
G01 X-21.9671 Y22.1181 F508.00 
G01 X-22.0014 Y21.9456 
G01 X-22.0687 Y21.7831 
G01 X-22.1664 Y21.6368 
G01 X-22.2908 Y21.5124 
G01 X-22.4371 Y21.4147 
G01 X-22.5996 Y21.3474 
G01 X-22.7721 Y21.3131 
G01 X-22.9479 Y21.3131 
G01 X-23.1204 Y21.3474 
G01 X-23.2829 Y21.4147 
G01 X-23.4292 Y21.5124 
G01 X-23.5536 Y21.6368 
G01 X-23.6513 Y21.7831 
G01 X-23.7186 Y21.9456 
G01 X-23.7529 Y22.1181 
G01 X-23.7529 Y23.6019 
G01 X-23.7186 Y23.7744 
G01 X-23.6513 Y23.9369 
G01 X-23.5536 Y24.0832 
G01 X-23.4292 Y24.2076 
G01 X-23.2829 Y24.3053 
G01 X-23.1204 Y24.3726 
G01 X-22.9479 Y24.4069 
G01 X-22.7721 Y24.4069 
G01 X-22.5996 Y24.3726 
G01 X-22.4371 Y24.3053 
G01 X-22.2908 Y24.2076 
G01 X-22.1664 Y24.0832 
G01 X-22.0687 Y23.9369 
G01 X-22.0014 Y23.7744 
G01 X-21.9671 Y23.6019 
G00 Z2.0000 
G00 X-22.1664 Y38.8008 
G01 Z-0.0250 F254.00 
G01 X-22.2908 Y38.6764 F508.00 
G01 X-22.4371 Y38.5787 
G01 X-22.5996 Y38.5114 
G01 X-22.7721 Y38.4771 
G01 X-22.9479 Y38.4771 
G01 X-23.1204 Y38.5114 
G01 X-23.2829 Y38.5787 
G01 X-23.4292 Y38.6764 
G01 X-23.5536 Y38.8008 
G01 X-23.6513 Y38.9471 
G01 X-23.7186 Y39.1095 
G01 X-23.7529 Y39.2821 
G01 X-23.7529 Y39.4579 
G01 X-23.7186 Y39.6304 
G01 X-23.6513 Y39.7929 
G01 X-23.5536 Y39.9392 
G01 X-23.4292 Y40.0636 
G01 X-23.2829 Y40.1613 
G01 X-23.1204 Y40.2286 
G01 X-22.9479 Y40.2629 
G01 X-22.7721 Y40.2629 
G01 X-22.5996 Y40.2286 
G01 X-22.4371 Y40.1613 
G01 X-22.2908 Y40.0636 
G01 X-22.1664 Y39.9392 
G01 X-22.0687 Y39.7929 
G01 X-22.0014 Y39.6304 
G01 X-21.9671 Y39.4579 
G01 X-21.9671 Y39.2821 
G01 X-22.0014 Y39.1095 
G01 X-22.0687 Y38.9471 
G01 X-22.1664 Y38.8008 
G00 Z2.0000 
G00 X-22.1664 Y41.3408 
G01 Z-0.0250 F254.00 
G01 X-22.2908 Y41.2164 F508.00 
G01 X-22.4371 Y41.1187 
G01 X-22.5996 Y41.0514 
G01 X-22.7721 Y41.0171 
G01 X-22.9479 Y41.0171 
G01 X-23.1204 Y41.0514 
G01 X-23.2829 Y41.1187 
G01 X-23.4292 Y41.2164 
G01 X-23.5536 Y41.3408 
G01 X-23.6513 Y41.4871 
G01 X-23.7186 Y41.6495 
G01 X-23.7529 Y41.8221 
G01 X-23.7529 Y41.9979 
G01 X-23.7186 Y42.1704 
G01 X-23.6513 Y42.3329 
G01 X-23.5536 Y42.4792 
G01 X-23.4292 Y42.6036 
G01 X-23.2829 Y42.7013 
G01 X-23.1204 Y42.7686 
G01 X-22.9479 Y42.8029 
G01 X-22.7721 Y42.8029 
G01 X-22.5996 Y42.7686 
G01 X-22.4371 Y42.7013 
G01 X-22.2908 Y42.6036 
G01 X-22.1664 Y42.4792 
G01 X-22.0687 Y42.3329 
G01 X-22.0014 Y42.1704 
G01 X-21.9671 Y41.9979 
G01 X-21.9671 Y41.8221 
G01 X-22.0014 Y41.6495 
G01 X-22.0687 Y41.4871 
G01 X-22.1664 Y41.3408 
G00 Z2.0000 
G00 X-42.4714 Y45.8633 
G01 Z-0.0250 F254.00 
G01 X-42.5958 Y45.7389 F508.00 
G01 X-42.7421 Y45.6412 
G01 X-42.9046 Y45.5739 
G01 X-43.0771 Y45.5396 
G01 X-43.2529 Y45.5396 
G01 X-43.4254 Y45.5739 
G01 X-43.5879 Y45.6412 
G01 X-43.7342 Y45.7389 
G01 X-43.8586 Y45.8633 
G01 X-43.9563 Y46.0096 
G01 X-44.0236 Y46.1720 
G01 X-44.0579 Y46.3446 
G01 X-44.0579 Y46.5204 
G01 X-44.0236 Y46.6929 
G01 X-43.9563 Y46.8554 
G01 X-43.8586 Y47.0017 
G01 X-43.7342 Y47.1261 
G01 X-43.5879 Y47.2238 
G01 X-43.4254 Y47.2911 
G01 X-43.2529 Y47.3254 
G01 X-43.0771 Y47.3254 
G01 X-42.9046 Y47.2911 
G01 X-42.7421 Y47.2238 
G01 X-42.5958 Y47.1261 
G01 X-42.4714 Y47.0017 
G01 X-42.3737 Y46.8554 
G01 X-42.3064 Y46.6929 
G01 X-42.2721 Y46.5204 
G01 X-42.2721 Y46.3446 
G01 X-42.3064 Y46.1720 
G01 X-42.3737 Y46.0096 
G01 X-42.4714 Y45.8633 
G00 Z2.0000 
G00 X-45.0114 Y45.8633 
G01 Z-0.0250 F254.00 
G01 X-45.1358 Y45.7389 F508.00 
G01 X-45.2821 Y45.6412 
G01 X-45.3611 Y45.6085 
G01 X-45.3611 Y28.6988 
G01 X-45.3876 Y28.5999 
G01 X-45.4388 Y28.5112 
G01 X-45.5112 Y28.4388 
G01 X-46.3611 Y27.5889 
G01 X-46.3611 Y21.3200 
G01 X-46.2221 Y21.2191 
G01 X-46.0909 Y21.0879 
G01 X-45.9819 Y20.9378 
G01 X-45.8977 Y20.7725 
G01 X-45.8403 Y20.5960 
G01 X-45.8113 Y20.4128 
G01 X-45.8113 Y20.2272 
G01 X-45.8403 Y20.0440 
G01 X-45.8977 Y19.8675 
G01 X-45.9819 Y19.7022 
G01 X-46.0909 Y19.5521 
G01 X-46.2221 Y19.4209 
G01 X-46.3722 Y19.3119 
G01 X-46.5375 Y19.2277 
G01 X-46.7140 Y19.1703 
G01 X-46.8972 Y19.1413 
G01 X-47.0828 Y19.1413 
G01 X-47.2660 Y19.1703 
G01 X-47.4425 Y19.2277 
G01 X-47.6078 Y19.3119 
G01 X-47.7579 Y19.4209 
G01 X-47.8891 Y19.5521 
G01 X-47.9981 Y19.7022 
G01 X-48.0823 Y19.8675 
G01 X-48.1397 Y20.0440 
G01 X-48.1687 Y20.2272 
G01 X-48.1687 Y20.4128 
G01 X-48.1397 Y20.5960 
G01 X-48.0823 Y20.7725 
G01 X-47.9981 Y20.9378 
G01 X-47.8891 Y21.0879 
G01 X-47.7579 Y21.2191 
G01 X-47.6078 Y21.3281 
G01 X-47.4425 Y21.4123 
G01 X-47.2660 Y21.4697 
G01 X-47.1389 Y21.4898 
G01 X-47.1389 Y27.8012 
G01 X-47.1124 Y27.9001 
G01 X-47.0612 Y27.9888 
G01 X-46.8283 Y28.2217 
G01 X-46.8914 Y28.2091 
G01 X-47.0886 Y28.2091 
G01 X-47.2820 Y28.2476 
G01 X-47.4641 Y28.3230 
G01 X-47.6280 Y28.4325 
G01 X-47.7674 Y28.5720 
G01 X-47.8770 Y28.7359 
G01 X-47.9524 Y28.9180 
G01 X-47.9909 Y29.1114 
G01 X-47.9909 Y29.3086 
G01 X-47.9524 Y29.5020 
G01 X-47.8770 Y29.6841 
G01 X-47.7674 Y29.8480 
G01 X-47.6280 Y29.9874 
G01 X-47.4641 Y30.0970 
G01 X-47.2820 Y30.1724 
G01 X-47.0886 Y30.2109 
G01 X-46.8914 Y30.2109 
G01 X-46.6980 Y30.1724 
G01 X-46.5159 Y30.0970 
G01 X-46.3520 Y29.9874 
G01 X-46.2126 Y29.8480 
G01 X-46.1389 Y29.7378 
G01 X-46.1389 Y31.2222 
G01 X-46.2126 Y31.1120 
G01 X-46.3520 Y30.9725 
G01 X-46.5159 Y30.8630 
G01 X-46.6980 Y30.7876 
G01 X-46.8914 Y30.7491 
G01 X-47.0886 Y30.7491 
G01 X-47.2820 Y30.7876 
G01 X-47.4641 Y30.8630 
G01 X-47.6280 Y30.9725 
G01 X-47.7674 Y31.1120 
G01 X-47.8770 Y31.2759 
G01 X-47.9524 Y31.4580 
G01 X-47.9909 Y31.6514 
G01 X-47.9909 Y31.8486 
G01 X-47.9524 Y32.0419 
G01 X-47.8770 Y32.2241 
G01 X-47.7674 Y32.3880 
G01 X-47.6280 Y32.5274 
G01 X-47.4641 Y32.6370 
G01 X-47.2820 Y32.7124 
G01 X-47.0886 Y32.7509 
G01 X-46.8914 Y32.7509 
G01 X-46.6980 Y32.7124 
G01 X-46.5159 Y32.6370 
G01 X-46.3520 Y32.5274 
G01 X-46.2126 Y32.3880 
G01 X-46.1389 Y32.2778 
G01 X-46.1389 Y45.6485 
G01 X-46.2742 Y45.7389 
G01 X-46.3986 Y45.8633 
G01 X-46.4963 Y46.0096 
G01 X-46.5636 Y46.1720 
G01 X-46.5979 Y46.3446 
G01 X-46.5979 Y46.5204 
G01 X-46.5636 Y46.6929 
G01 X-46.4963 Y46.8554 
G01 X-46.3986 Y47.0017 
G01 X-46.2742 Y47.1261 
G01 X-46.1279 Y47.2238 
G01 X-45.9654 Y47.2911 
G01 X-45.7929 Y47.3254 
G01 X-45.6171 Y47.3254 
G01 X-45.4445 Y47.2911 
G01 X-45.2821 Y47.2238 
G01 X-45.1358 Y47.1261 
G01 X-45.0114 Y47.0017 
G01 X-44.9137 Y46.8554 
G01 X-44.8464 Y46.6929 
G01 X-44.8121 Y46.5204 
G01 X-44.8121 Y46.3446 
G01 X-44.8464 Y46.1720 
G01 X-44.9137 Y46.0096 
G01 X-45.0114 Y45.8633 
G00 Z2.0000 
G00 X-46.2221 Y18.6791 
G01 Z-0.0250 F254.00 
G01 X-46.0909 Y18.5479 F508.00 
G01 X-45.9819 Y18.3978 
G01 X-45.8977 Y18.2325 
G01 X-45.8403 Y18.0560 
G01 X-45.8113 Y17.8728 
G01 X-45.8113 Y17.6872 
G01 X-45.8403 Y17.5040 
G01 X-45.8977 Y17.3275 
G01 X-45.9819 Y17.1622 
G01 X-46.0909 Y17.0121 
G01 X-46.2221 Y16.8809 
G01 X-46.3722 Y16.7719 
G01 X-46.5375 Y16.6877 
G01 X-46.7140 Y16.6303 
G01 X-46.8972 Y16.6013 
G01 X-47.0828 Y16.6013 
G01 X-47.2660 Y16.6303 
G01 X-47.4425 Y16.6877 
G01 X-47.6078 Y16.7719 
G01 X-47.7579 Y16.8809 
G01 X-47.8891 Y17.0121 
G01 X-47.9981 Y17.1622 
G01 X-48.0823 Y17.3275 
G01 X-48.1397 Y17.5040 
G01 X-48.1687 Y17.6872 
G01 X-48.1687 Y17.8728 
G01 X-48.1397 Y18.0560 
G01 X-48.0823 Y18.2325 
G01 X-47.9981 Y18.3978 
G01 X-47.8891 Y18.5479 
G01 X-47.7579 Y18.6791 
G01 X-47.6078 Y18.7881 
G01 X-47.4425 Y18.8723 
G01 X-47.2660 Y18.9297 
G01 X-47.0828 Y18.9587 
G01 X-46.8972 Y18.9587 
G01 X-46.7140 Y18.9297 
G01 X-46.5375 Y18.8723 
G01 X-46.3722 Y18.7881 
G01 X-46.2221 Y18.6791 
G00 Z2.0000 
G00 X-46.2221 Y16.1391 
G01 Z-0.0250 F254.00 
G01 X-46.0909 Y16.0079 F508.00 
G01 X-45.9819 Y15.8578 
G01 X-45.8977 Y15.6925 
G01 X-45.8403 Y15.5160 
G01 X-45.8113 Y15.3328 
G01 X-45.8113 Y15.1472 
G01 X-45.8403 Y14.9640 
G01 X-45.8977 Y14.7875 
G01 X-45.9819 Y14.6222 
G01 X-46.0909 Y14.4721 
G01 X-46.2221 Y14.3409 
G01 X-46.3722 Y14.2319 
G01 X-46.5375 Y14.1477 
G01 X-46.7140 Y14.0903 
G01 X-46.8972 Y14.0613 
G01 X-47.0828 Y14.0613 
G01 X-47.2660 Y14.0903 
G01 X-47.4425 Y14.1477 
G01 X-47.6078 Y14.2319 
G01 X-47.7579 Y14.3409 
G01 X-47.8891 Y14.4721 
G01 X-47.9981 Y14.6222 
G01 X-48.0823 Y14.7875 
G01 X-48.1397 Y14.9640 
G01 X-48.1687 Y15.1472 
G01 X-48.1687 Y15.3328 
G01 X-48.1397 Y15.5160 
G01 X-48.0823 Y15.6925 
G01 X-47.9981 Y15.8578 
G01 X-47.8891 Y16.0079 
G01 X-47.7579 Y16.1391 
G01 X-47.6078 Y16.2481 
G01 X-47.4425 Y16.3323 
G01 X-47.2660 Y16.3897 
G01 X-47.0828 Y16.4187 
G01 X-46.8972 Y16.4187 
G01 X-46.7140 Y16.3897 
G01 X-46.5375 Y16.3323 
G01 X-46.3722 Y16.2481 
G01 X-46.2221 Y16.1391 
G00 Z2.0000 
G00 X-17.2779 Y70.2209 
G01 Z-0.0250 F254.00 
G01 X-17.4091 Y70.3521 F508.00 
G01 X-17.5181 Y70.5022 
G01 X-17.6023 Y70.6675 
G01 X-17.6597 Y70.8440 
G01 X-17.6887 Y71.0272 
G01 X-17.6887 Y71.2128 
G01 X-17.6597 Y71.3960 
G01 X-17.6023 Y71.5725 
G01 X-17.5181 Y71.7378 
G01 X-17.4091 Y71.8879 
G01 X-17.2779 Y72.0191 
G01 X-17.1278 Y72.1281 
G01 X-16.9625 Y72.2123 
G01 X-16.7860 Y72.2697 
G01 X-16.6028 Y72.2987 
G01 X-16.4172 Y72.2987 
G01 X-16.2340 Y72.2697 
G01 X-16.0575 Y72.2123 
G01 X-15.8922 Y72.1281 
G01 X-15.7421 Y72.0191 
G01 X-15.6109 Y71.8879 
G01 X-15.5019 Y71.7378 
G01 X-15.4177 Y71.5725 
G01 X-15.3603 Y71.3960 
G01 X-15.3313 Y71.2128 
G01 X-15.3313 Y71.0272 
G01 X-15.3603 Y70.8440 
G01 X-15.4177 Y70.6675 
G01 X-15.5019 Y70.5022 
G01 X-15.6109 Y70.3521 
G01 X-15.7421 Y70.2209 
G01 X-15.8922 Y70.1119 
G01 X-16.0575 Y70.0277 
G01 X-16.2340 Y69.9703 
G01 X-16.4172 Y69.9413 
G01 X-16.6028 Y69.9413 
G01 X-16.7860 Y69.9703 
G01 X-16.9625 Y70.0277 
G01 X-17.1278 Y70.1119 
G01 X-17.2779 Y70.2209 
G00 Z2.0000 
G00 X-14.7379 Y70.2209 
G01 Z-0.0250 F254.00 
G01 X-14.8691 Y70.3521 F508.00 
G01 X-14.9781 Y70.5022 
G01 X-15.0623 Y70.6675 
G01 X-15.1197 Y70.8440 
G01 X-15.1487 Y71.0272 
G01 X-15.1487 Y71.2128 
G01 X-15.1197 Y71.3960 
G01 X-15.0623 Y71.5725 
G01 X-14.9781 Y71.7378 
G01 X-14.8691 Y71.8879 
G01 X-14.7379 Y72.0191 
G01 X-14.5878 Y72.1281 
G01 X-14.4225 Y72.2123 
G01 X-14.2460 Y72.2697 
G01 X-14.0628 Y72.2987 
G01 X-13.8772 Y72.2987 
G01 X-13.6940 Y72.2697 
G01 X-13.5175 Y72.2123 
G01 X-13.3522 Y72.1281 
G01 X-13.2021 Y72.0191 
G01 X-13.0709 Y71.8879 
G01 X-12.9619 Y71.7378 
G01 X-12.8777 Y71.5725 
G01 X-12.8203 Y71.3960 
G01 X-12.7913 Y71.2128 
G01 X-12.7913 Y71.0272 
G01 X-12.8203 Y70.8440 
G01 X-12.8777 Y70.6675 
G01 X-12.9619 Y70.5022 
G01 X-13.0709 Y70.3521 
G01 X-13.2021 Y70.2209 
G01 X-13.3522 Y70.1119 
G01 X-13.5175 Y70.0277 
G01 X-13.6940 Y69.9703 
G01 X-13.8772 Y69.9413 
G01 X-14.0628 Y69.9413 
G01 X-14.2460 Y69.9703 
G01 X-14.4225 Y70.0277 
G01 X-14.5878 Y70.1119 
G01 X-14.7379 Y70.2209 
G00 Z2.0000 
G00 X-12.1979 Y70.2209 
G01 Z-0.0250 F254.00 
G01 X-12.3291 Y70.3521 F508.00 
G01 X-12.4381 Y70.5022 
G01 X-12.5223 Y70.6675 
G01 X-12.5797 Y70.8440 
G01 X-12.6087 Y71.0272 
G01 X-12.6087 Y71.2128 
G01 X-12.5797 Y71.3960 
G01 X-12.5223 Y71.5725 
G01 X-12.4381 Y71.7378 
G01 X-12.3291 Y71.8879 
G01 X-12.1979 Y72.0191 
G01 X-12.0478 Y72.1281 
G01 X-11.8825 Y72.2123 
G01 X-11.7060 Y72.2697 
G01 X-11.5228 Y72.2987 
G01 X-11.3372 Y72.2987 
G01 X-11.1540 Y72.2697 
G01 X-10.9775 Y72.2123 
G01 X-10.8122 Y72.1281 
G01 X-10.6621 Y72.0191 
G01 X-10.5309 Y71.8879 
G01 X-10.4219 Y71.7378 
G01 X-10.3377 Y71.5725 
G01 X-10.2803 Y71.3960 
G01 X-10.2513 Y71.2128 
G01 X-10.2513 Y71.0272 
G01 X-10.2803 Y70.8440 
G01 X-10.3377 Y70.6675 
G01 X-10.4219 Y70.5022 
G01 X-10.5309 Y70.3521 
G01 X-10.6621 Y70.2209 
G01 X-10.8122 Y70.1119 
G01 X-10.9775 Y70.0277 
G01 X-11.1540 Y69.9703 
G01 X-11.3372 Y69.9413 
G01 X-11.5228 Y69.9413 
G01 X-11.7060 Y69.9703 
G01 X-11.8825 Y70.0277 
G01 X-12.0478 Y70.1119 
G01 X-12.1979 Y70.2209 
G00 Z2.0000 
G00 X-6.9880 Y70.3426 
G01 Z-0.0250 F254.00 
G01 X-7.1274 Y70.4820 F508.00 
G01 X-7.2370 Y70.6459 
G01 X-7.3124 Y70.8280 
G01 X-7.3509 Y71.0214 
G01 X-7.3509 Y71.2186 
G01 X-7.3124 Y71.4120 
G01 X-7.2370 Y71.5941 
G01 X-7.1274 Y71.7580 
G01 X-6.9880 Y71.8974 
G01 X-6.8241 Y72.0070 
G01 X-6.6419 Y72.0824 
G01 X-6.4486 Y72.1209 
G01 X-6.2514 Y72.1209 
G01 X-6.0580 Y72.0824 
G01 X-5.8759 Y72.0070 
G01 X-5.7120 Y71.8974 
G01 X-5.5725 Y71.7580 
G01 X-5.4630 Y71.5941 
G01 X-5.3876 Y71.4120 
G01 X-5.3491 Y71.2186 
G01 X-5.3491 Y71.0214 
G01 X-5.3876 Y70.8280 
G01 X-5.4630 Y70.6459 
G01 X-5.5725 Y70.4820 
G01 X-5.7120 Y70.3426 
G01 X-5.8759 Y70.2330 
G01 X-6.0580 Y70.1576 
G01 X-6.2514 Y70.1191 
G01 X-6.4486 Y70.1191 
G01 X-6.6419 Y70.1576 
G01 X-6.8241 Y70.2330 
G01 X-6.9880 Y70.3426 
G00 Z2.0000 
G00 X-4.4480 Y70.3426 
G01 Z-0.0250 F254.00 
G01 X-4.5874 Y70.4820 F508.00 
G01 X-4.6970 Y70.6459 
G01 X-4.7724 Y70.8280 
G01 X-4.8109 Y71.0214 
G01 X-4.8109 Y71.2186 
G01 X-4.7724 Y71.4120 
G01 X-4.6970 Y71.5941 
G01 X-4.5874 Y71.7580 
G01 X-4.4480 Y71.8974 
G01 X-4.2841 Y72.0070 
G01 X-4.1020 Y72.0824 
G01 X-3.9086 Y72.1209 
G01 X-3.7114 Y72.1209 
G01 X-3.5180 Y72.0824 
G01 X-3.3359 Y72.0070 
G01 X-3.1720 Y71.8974 
G01 X-3.0326 Y71.7580 
G01 X-2.9230 Y71.5941 
G01 X-2.8476 Y71.4120 
G01 X-2.8091 Y71.2186 
G01 X-2.8091 Y71.0214 
G01 X-2.8476 Y70.8280 
G01 X-2.9230 Y70.6459 
G01 X-3.0326 Y70.4820 
G01 X-3.1720 Y70.3426 
G01 X-3.3359 Y70.2330 
G01 X-3.5180 Y70.1576 
G01 X-3.7114 Y70.1191 
G01 X-3.9086 Y70.1191 
G01 X-4.1020 Y70.1576 
G01 X-4.2841 Y70.2330 
G01 X-4.4480 Y70.3426 
G00 Z2.0000 
G00 X-11.8603 Y1.8228 
G01 Z-0.0250 F254.00 
G01 X-11.9828 Y1.7003 F508.00 
G01 X-12.1230 Y1.5984 
G01 X-12.2774 Y1.5198 
G01 X-12.4422 Y1.4662 
G01 X-12.6134 Y1.4391 
G01 X-12.7866 Y1.4391 
G01 X-12.9578 Y1.4662 
G01 X-13.1226 Y1.5198 
G01 X-13.2770 Y1.5984 
G01 X-13.4172 Y1.7003 
G01 X-13.5397 Y1.8228 
G01 X-13.6416 Y1.9630 
G01 X-13.7202 Y2.1174 
G01 X-13.7738 Y2.2822 
G01 X-13.8009 Y2.4534 
G01 X-13.8009 Y2.6266 
G01 X-13.7738 Y2.7978 
G01 X-13.7202 Y2.9626 
G01 X-13.6416 Y3.1170 
G01 X-13.5397 Y3.2572 
G01 X-13.4172 Y3.3797 
G01 X-13.2770 Y3.4816 
G01 X-13.1226 Y3.5602 
G01 X-12.9578 Y3.6138 
G01 X-12.7866 Y3.6409 
G01 X-12.6134 Y3.6409 
G01 X-12.4422 Y3.6138 
G01 X-12.2774 Y3.5602 
G01 X-12.1230 Y3.4816 
G01 X-11.9828 Y3.3797 
G01 X-11.8603 Y3.2572 
G01 X-11.7584 Y3.1170 
G01 X-11.6798 Y2.9626 
G01 X-11.6262 Y2.7978 
G01 X-11.5991 Y2.6266 
G01 X-11.5991 Y2.4534 
G01 X-11.6262 Y2.2822 
G01 X-11.6798 Y2.1174 
G01 X-11.7584 Y1.9630 
G01 X-11.8603 Y1.8228 
G00 Z2.0000 
G00 X-11.8603 Y4.3628 
G01 Z-0.0250 F254.00 
G01 X-11.9828 Y4.2403 F508.00 
G01 X-12.1230 Y4.1384 
G01 X-12.2774 Y4.0598 
G01 X-12.4422 Y4.0062 
G01 X-12.6134 Y3.9791 
G01 X-12.7866 Y3.9791 
G01 X-12.9578 Y4.0062 
G01 X-13.1226 Y4.0598 
G01 X-13.2770 Y4.1384 
G01 X-13.4172 Y4.2403 
G01 X-13.5397 Y4.3628 
G01 X-13.6416 Y4.5030 
G01 X-13.7202 Y4.6574 
G01 X-13.7738 Y4.8222 
G01 X-13.8009 Y4.9934 
G01 X-13.8009 Y5.1666 
G01 X-13.7738 Y5.3378 
G01 X-13.7202 Y5.5026 
G01 X-13.6416 Y5.6570 
G01 X-13.5397 Y5.7972 
G01 X-13.4172 Y5.9197 
G01 X-13.2770 Y6.0216 
G01 X-13.1226 Y6.1002 
G01 X-12.9578 Y6.1538 
G01 X-12.7866 Y6.1809 
G01 X-12.6134 Y6.1809 
G01 X-12.4422 Y6.1538 
G01 X-12.2774 Y6.1002 
G01 X-12.1230 Y6.0216 
G01 X-11.9828 Y5.9197 
G01 X-11.8603 Y5.7972 
G01 X-11.7584 Y5.6570 
G01 X-11.6798 Y5.5026 
G01 X-11.6262 Y5.3378 
G01 X-11.5991 Y5.1666 
G01 X-11.5991 Y4.9934 
G01 X-11.6262 Y4.8222 
G01 X-11.6798 Y4.6574 
G01 X-11.7584 Y4.5030 
G01 X-11.8603 Y4.3628 
G00 Z2.0000 
G00 X-28.3703 Y4.3628 
G01 Z-0.0250 F254.00 
G01 X-28.4928 Y4.2403 F508.00 
G01 X-28.6330 Y4.1384 
G01 X-28.7874 Y4.0598 
G01 X-28.9522 Y4.0062 
G01 X-29.1234 Y3.9791 
G01 X-29.2966 Y3.9791 
G01 X-29.4678 Y4.0062 
G01 X-29.6326 Y4.0598 
G01 X-29.7870 Y4.1384 
G01 X-29.9272 Y4.2403 
G01 X-30.0497 Y4.3628 
G01 X-30.1516 Y4.5030 
G01 X-30.2302 Y4.6574 
G01 X-30.2838 Y4.8222 
G01 X-30.3109 Y4.9934 
G01 X-30.3109 Y5.1666 
G01 X-30.2838 Y5.3378 
G01 X-30.2302 Y5.5026 
G01 X-30.1516 Y5.6570 
G01 X-30.0497 Y5.7972 
G01 X-29.9272 Y5.9197 
G01 X-29.7870 Y6.0216 
G01 X-29.6326 Y6.1002 
G01 X-29.4678 Y6.1538 
G01 X-29.2966 Y6.1809 
G01 X-29.1234 Y6.1809 
G01 X-28.9522 Y6.1538 
G01 X-28.7874 Y6.1002 
G01 X-28.6330 Y6.0216 
G01 X-28.4928 Y5.9197 
G01 X-28.3703 Y5.7972 
G01 X-28.2684 Y5.6570 
G01 X-28.1898 Y5.5026 
G01 X-28.1362 Y5.3378 
G01 X-28.1091 Y5.1666 
G01 X-28.1091 Y4.9934 
G01 X-28.1362 Y4.8222 
G01 X-28.1898 Y4.6574 
G01 X-28.2684 Y4.5030 
G01 X-28.3703 Y4.3628 
G00 Z2.0000 
G00 X-28.4928 Y3.3797 
G01 Z-0.0250 F254.00 
G01 X-28.3703 Y3.2572 F508.00 
G01 X-28.2684 Y3.1170 
G01 X-28.1898 Y2.9626 
G01 X-28.1362 Y2.7978 
G01 X-28.1091 Y2.6266 
G01 X-28.1091 Y2.4534 
G01 X-28.1362 Y2.2822 
G01 X-28.1898 Y2.1174 
G01 X-28.2684 Y1.9630 
G01 X-28.3703 Y1.8228 
G01 X-28.4928 Y1.7003 
G01 X-28.6330 Y1.5984 
G01 X-28.7874 Y1.5198 
G01 X-28.9522 Y1.4662 
G01 X-29.1234 Y1.4391 
G01 X-29.2966 Y1.4391 
G01 X-29.4678 Y1.4662 
G01 X-29.6326 Y1.5198 
G01 X-29.7870 Y1.5984 
G01 X-29.9272 Y1.7003 
G01 X-30.0497 Y1.8228 
G01 X-30.1516 Y1.9630 
G01 X-30.2302 Y2.1174 
G01 X-30.2838 Y2.2822 
G01 X-30.3109 Y2.4534 
G01 X-30.3109 Y2.6266 
G01 X-30.2838 Y2.7978 
G01 X-30.2302 Y2.9626 
G01 X-30.1516 Y3.1170 
G01 X-30.0497 Y3.2572 
G01 X-29.9272 Y3.3797 
G01 X-29.7870 Y3.4816 
G01 X-29.6326 Y3.5602 
G01 X-29.4678 Y3.6138 
G01 X-29.2966 Y3.6409 
G01 X-29.1234 Y3.6409 
G01 X-28.9522 Y3.6138 
G01 X-28.7874 Y3.5602 
G01 X-28.6330 Y3.4816 
G01 X-28.4928 Y3.3797 
G00 Z2.0000 
G00 X-27.9569 Y22.0888 
G01 Z-0.0250 F254.00 
G01 X-28.0952 Y22.2271 F508.00 
G01 X-28.2039 Y22.3897 
G01 X-28.2787 Y22.5704 
G01 X-28.3169 Y22.7622 
G01 X-28.3169 Y22.9578 
