(.../02_pcbgcode/pcbgcode/pcb-gcode.ulp)
(Copyright 2005 - 2012 by John Johnson)
(See readme.txt for licensing terms.)
(This file generated from the board:)
(.../KarasolBaxCont/KarasolboxCont.brd)
(Current profile is .../02_pcbgcode/pcbgcode/profiles/emc.pp  )
(This file generated 3/27/2017 9:52 PM)
(Settings from pcb-machine.h)
(spindle on time = 3.0000)
(  Tool Size)
(0.1000 )
(spindle speed = 30000.0000)
(tool change at 15.0000 15.0000 19.0000 )
(feed rate xy = F508.00 )
(feed rate z  = F254.00 )
(Z Axis Settings)
(  High     Up        Down     Drill)
(19.5000 	2.0000 	-0.0250 	-1.5000 )
(Settings from pcb-defaults.h)
(isolate min = 0.0500)
(isolate max = 0.3000)
(isolate step = 0.1000)
(Generated top outlines, top drill, bottom outlines, bottom drill, )
(Unit of measure: mm)
(Metric Mode)
G21
(Absolute Coordinates)
G90
S30000
G00 Z19.5000 
G00 X0.0000 Y0.0000 
M03
G04 P3.000000
G00 Z2.0000 
G00 X-4.0677 Y1.6538 
G01 Z-0.0250 F254.00 
G01 X-4.2192 Y1.5023 F508.00 
G01 X-4.3924 Y1.3765 
G01 X-4.5832 Y1.2793 
G01 X-4.7868 Y1.2131 
G01 X-4.9983 Y1.1796 
G01 X-5.2125 Y1.1796 
G01 X-5.4240 Y1.2131 
G01 X-5.6276 Y1.2793 
G01 X-5.8184 Y1.3765 
G01 X-5.9916 Y1.5023 
G01 X-6.1431 Y1.6538 
G01 X-6.2689 Y1.8270 
G01 X-6.3661 Y2.0178 
G01 X-6.4323 Y2.2214 
G01 X-6.4658 Y2.4329 
G01 X-6.4658 Y2.6471 
G01 X-6.4323 Y2.8586 
G01 X-6.3661 Y3.0622 
G01 X-6.2689 Y3.2530 
G01 X-6.1431 Y3.4262 
G01 X-5.9916 Y3.5777 
G01 X-5.8184 Y3.7035 
G01 X-5.6276 Y3.8007 
G01 X-5.4240 Y3.8669 
G01 X-5.2125 Y3.9004 
G01 X-4.9983 Y3.9004 
G01 X-4.7868 Y3.8669 
G01 X-4.5832 Y3.8007 
G01 X-4.3924 Y3.7035 
G01 X-4.2192 Y3.5777 
G01 X-4.0677 Y3.4262 
G01 X-3.9419 Y3.2530 
G01 X-3.8447 Y3.0622 
G01 X-3.7785 Y2.8586 
G01 X-3.7450 Y2.6471 
G01 X-3.7450 Y2.4329 
G01 X-3.7785 Y2.2214 
G01 X-3.8447 Y2.0178 
G01 X-3.9419 Y1.8270 
G01 X-4.0677 Y1.6538 
G00 Z2.0000 
G00 X-9.0715 Y1.6538 
G01 Z-0.0250 F254.00 
G01 X-9.2230 Y1.5023 F508.00 
G01 X-9.3962 Y1.3765 
G01 X-9.5870 Y1.2793 
G01 X-9.7906 Y1.2131 
G01 X-10.0021 Y1.1796 
G01 X-10.2163 Y1.1796 
G01 X-10.4278 Y1.2131 
G01 X-10.6314 Y1.2793 
G01 X-10.8222 Y1.3765 
G01 X-10.9954 Y1.5023 
G01 X-11.1469 Y1.6538 
G01 X-11.2727 Y1.8270 
G01 X-11.3699 Y2.0178 
G01 X-11.4361 Y2.2214 
G01 X-11.4696 Y2.4329 
G01 X-11.4696 Y2.6471 
G01 X-11.4361 Y2.8586 
G01 X-11.3699 Y3.0622 
G01 X-11.2727 Y3.2530 
G01 X-11.1469 Y3.4262 
G01 X-10.9954 Y3.5777 
G01 X-10.9000 Y3.6470 
G01 X-10.9000 Y4.9929 
G01 X-11.5221 Y5.6150 
G01 X-20.9749 Y5.6150 
G01 X-21.0116 Y5.6302 
G01 X-21.0398 Y5.6584 
G01 X-21.0550 Y5.6951 
G01 X-21.0550 Y14.6249 
G01 X-21.0398 Y14.6616 
G01 X-21.0116 Y14.6898 
G01 X-20.9749 Y14.7050 
G01 X-9.5051 Y14.7050 
G01 X-9.4684 Y14.6898 
G01 X-9.4402 Y14.6616 
G01 X-9.4250 Y14.6249 
G01 X-9.4250 Y5.6951 
G01 X-9.4402 Y5.6584 
G01 X-9.4684 Y5.6302 
G01 X-9.5051 Y5.6150 
G01 X-10.1079 Y5.6150 
G01 X-9.9999 Y5.5070 
G01 X-9.9341 Y5.3930 
G01 X-9.9000 Y5.2658 
G01 X-9.9000 Y3.8842 
G01 X-9.7906 Y3.8669 
G01 X-9.5870 Y3.8007 
G01 X-9.3962 Y3.7035 
G01 X-9.2230 Y3.5777 
G01 X-9.0715 Y3.4262 
G01 X-8.9457 Y3.2530 
G01 X-8.8485 Y3.0622 
G01 X-8.7823 Y2.8586 
G01 X-8.7488 Y2.6471 
G01 X-8.7488 Y2.4329 
G01 X-8.7823 Y2.2214 
G01 X-8.8485 Y2.0178 
G01 X-8.9457 Y1.8270 
G01 X-9.0715 Y1.6538 
G00 Z2.0000 
G00 X-15.4977 Y1.6538 
G01 Z-0.0250 F254.00 
G01 X-15.6492 Y1.5023 F508.00 
G01 X-15.8224 Y1.3765 
G01 X-16.0132 Y1.2793 
G01 X-16.2168 Y1.2131 
G01 X-16.4283 Y1.1796 
G01 X-16.6425 Y1.1796 
G01 X-16.8540 Y1.2131 
G01 X-17.0576 Y1.2793 
G01 X-17.2484 Y1.3765 
G01 X-17.4216 Y1.5023 
G01 X-17.5731 Y1.6538 
G01 X-17.6989 Y1.8270 
G01 X-17.7961 Y2.0178 
G01 X-17.8623 Y2.2214 
G01 X-17.8958 Y2.4329 
G01 X-17.8958 Y2.6471 
G01 X-17.8623 Y2.8586 
G01 X-17.7961 Y3.0622 
G01 X-17.6989 Y3.2530 
G01 X-17.5731 Y3.4262 
G01 X-17.4216 Y3.5777 
G01 X-17.2484 Y3.7035 
G01 X-17.0576 Y3.8007 
G01 X-16.8540 Y3.8669 
G01 X-16.6425 Y3.9004 
G01 X-16.4283 Y3.9004 
G01 X-16.2168 Y3.8669 
G01 X-16.0132 Y3.8007 
G01 X-15.8224 Y3.7035 
G01 X-15.6492 Y3.5777 
G01 X-15.4977 Y3.4262 
G01 X-15.3719 Y3.2530 
G01 X-15.2747 Y3.0622 
G01 X-15.2085 Y2.8586 
G01 X-15.1750 Y2.6471 
G01 X-15.1750 Y2.4329 
G01 X-15.2085 Y2.2214 
G01 X-15.2747 Y2.0178 
G01 X-15.3719 Y1.8270 
G01 X-15.4977 Y1.6538 
G00 Z2.0000 
G00 X-20.5015 Y1.6538 
G01 Z-0.0250 F254.00 
G01 X-20.6530 Y1.5023 F508.00 
G01 X-20.8262 Y1.3765 
G01 X-21.0170 Y1.2793 
G01 X-21.2206 Y1.2131 
G01 X-21.4321 Y1.1796 
G01 X-21.6463 Y1.1796 
G01 X-21.8578 Y1.2131 
G01 X-22.0614 Y1.2793 
G01 X-22.2522 Y1.3765 
G01 X-22.4254 Y1.5023 
G01 X-22.5769 Y1.6538 
G01 X-22.7027 Y1.8270 
G01 X-22.7999 Y2.0178 
G01 X-22.8661 Y2.2214 
G01 X-22.8996 Y2.4329 
G01 X-22.8996 Y2.6471 
G01 X-22.8661 Y2.8586 
G01 X-22.7999 Y3.0622 
G01 X-22.7027 Y3.2530 
G01 X-22.5769 Y3.4262 
G01 X-22.4254 Y3.5777 
G01 X-22.2522 Y3.7035 
G01 X-22.0614 Y3.8007 
G01 X-21.8578 Y3.8669 
G01 X-21.6463 Y3.9004 
G01 X-21.4321 Y3.9004 
G01 X-21.2206 Y3.8669 
G01 X-21.0170 Y3.8007 
G01 X-20.8262 Y3.7035 
G01 X-20.6530 Y3.5777 
G01 X-20.5015 Y3.4262 
G01 X-20.3757 Y3.2530 
G01 X-20.2785 Y3.0622 
G01 X-20.2123 Y2.8586 
G01 X-20.1788 Y2.6471 
G01 X-20.1788 Y2.4329 
G01 X-20.2123 Y2.2214 
G01 X-20.2785 Y2.0178 
G01 X-20.3757 Y1.8270 
G01 X-20.5015 Y1.6538 
G00 Z2.0000 
G00 X-21.2930 Y16.3999 
G01 Z-0.0250 F254.00 
G01 X-21.4070 Y16.3341 F508.00 
G01 X-21.5342 Y16.3000 
G01 X-24.0658 Y16.3000 
G01 X-24.1930 Y16.3341 
G01 X-24.3070 Y16.3999 
G01 X-24.4001 Y16.4930 
G01 X-26.2071 Y18.3000 
G01 X-39.7216 Y18.3000 
G01 X-39.8530 Y18.1686 
G01 X-40.0069 Y18.0568 
G01 X-40.1763 Y17.9705 
G01 X-40.3571 Y17.9117 
G01 X-40.5449 Y17.8820 
G01 X-40.7351 Y17.8820 
G01 X-40.9229 Y17.9117 
G01 X-41.1037 Y17.9705 
G01 X-41.2731 Y18.0568 
G01 X-41.4270 Y18.1686 
G01 X-41.5614 Y18.3030 
G01 X-41.6732 Y18.4569 
G01 X-41.7595 Y18.6263 
G01 X-41.8183 Y18.8071 
G01 X-41.8480 Y18.9949 
G01 X-41.8480 Y19.1851 
G01 X-41.8183 Y19.3729 
G01 X-41.7595 Y19.5537 
G01 X-41.6732 Y19.7231 
G01 X-41.5614 Y19.8770 
G01 X-41.4270 Y20.0114 
G01 X-41.2731 Y20.1232 
G01 X-41.1037 Y20.2095 
G01 X-40.9229 Y20.2683 
G01 X-40.7351 Y20.2980 
G01 X-40.5449 Y20.2980 
G01 X-40.3571 Y20.2683 
G01 X-40.1763 Y20.2095 
G01 X-40.0069 Y20.1232 
G01 X-39.8530 Y20.0114 
G01 X-39.7186 Y19.8770 
G01 X-39.6068 Y19.7231 
G01 X-39.5205 Y19.5537 
G01 X-39.4617 Y19.3729 
G01 X-39.4502 Y19.3000 
G01 X-25.9342 Y19.3000 
G01 X-25.8070 Y19.2659 
G01 X-25.6930 Y19.2001 
G01 X-23.7929 Y17.3000 
G01 X-21.8071 Y17.3000 
G01 X-18.9214 Y20.1857 
G01 X-18.9214 Y23.5149 
G01 X-18.9062 Y23.5516 
G01 X-18.8780 Y23.5798 
G01 X-18.8413 Y23.5950 
G01 X-16.9000 Y23.5950 
G01 X-16.9000 Y26.3953 
G01 X-16.9012 Y26.4564 
G01 X-16.9000 Y26.4610 
G01 X-16.9000 Y26.4658 
G01 X-16.8842 Y26.5248 
G01 X-16.8695 Y26.5842 
G01 X-16.8672 Y26.5884 
G01 X-16.8659 Y26.5930 
G01 X-16.8354 Y26.6458 
G01 X-16.8058 Y26.6994 
G01 X-16.8025 Y26.7029 
G01 X-16.8001 Y26.7070 
G01 X-16.7569 Y26.7502 
G01 X-16.6400 Y26.8716 
G01 X-16.6400 Y27.2899 
G01 X-16.6248 Y27.3266 
G01 X-16.5966 Y27.3548 
G01 X-16.5599 Y27.3700 
G01 X-16.5000 Y27.3700 
G01 X-16.5000 Y31.6658 
G01 X-16.4659 Y31.7930 
G01 X-16.4001 Y31.9070 
G01 X-16.3070 Y32.0001 
G01 X-9.3071 Y39.0000 
G01 X-10.4001 Y40.0930 
G01 X-10.4659 Y40.2070 
G01 X-10.5000 Y40.3342 
G01 X-10.5000 Y42.1929 
G01 X-24.2071 Y55.9000 
G01 X-25.3929 Y55.9000 
G01 X-30.0930 Y51.1999 
G01 X-30.2070 Y51.1341 
G01 X-30.3342 Y51.1000 
G01 X-30.7124 Y51.1000 
G01 X-30.7156 Y51.0902 
G01 X-30.7942 Y50.9360 
G01 X-30.8960 Y50.7959 
G01 X-31.0184 Y50.6735 
G01 X-31.1585 Y50.5717 
G01 X-31.3127 Y50.4931 
G01 X-31.4774 Y50.4396 
G01 X-31.6484 Y50.4125 
G01 X-31.8216 Y50.4125 
G01 X-31.9926 Y50.4396 
G01 X-32.1573 Y50.4931 
G01 X-32.3115 Y50.5717 
G01 X-32.4516 Y50.6735 
G01 X-32.5740 Y50.7959 
G01 X-32.6758 Y50.9360 
G01 X-32.7544 Y51.0902 
G01 X-32.8079 Y51.2549 
G01 X-32.8350 Y51.4259 
G01 X-32.8350 Y51.5991 
G01 X-32.8079 Y51.7701 
G01 X-32.7544 Y51.9348 
G01 X-32.6758 Y52.0890 
G01 X-32.5740 Y52.2291 
G01 X-32.4516 Y52.3515 
G01 X-32.3115 Y52.4533 
G01 X-32.1573 Y52.5319 
G01 X-31.9926 Y52.5854 
G01 X-31.8216 Y52.6125 
G01 X-31.6484 Y52.6125 
G01 X-31.4774 Y52.5854 
G01 X-31.3127 Y52.5319 
G01 X-31.1585 Y52.4533 
G01 X-31.0184 Y52.3515 
G01 X-30.8960 Y52.2291 
G01 X-30.8022 Y52.1000 
G01 X-30.6071 Y52.1000 
G01 X-26.0001 Y56.7070 
G01 X-25.9070 Y56.8001 
G01 X-25.7930 Y56.8659 
G01 X-25.6658 Y56.9000 
G01 X-23.9342 Y56.9000 
G01 X-23.8070 Y56.8659 
G01 X-23.6930 Y56.8001 
G01 X-9.6930 Y42.8001 
G01 X-9.5999 Y42.7070 
G01 X-9.5341 Y42.5930 
G01 X-9.5000 Y42.4658 
G01 X-9.5000 Y40.6071 
G01 X-8.6506 Y39.7577 
G01 X-8.6394 Y39.7923 
G01 X-8.5608 Y39.9465 
G01 X-8.4590 Y40.0866 
G01 X-8.3366 Y40.2090 
G01 X-8.1965 Y40.3108 
G01 X-8.0423 Y40.3894 
G01 X-7.8776 Y40.4429 
G01 X-7.7066 Y40.4700 
G01 X-7.5334 Y40.4700 
G01 X-7.3624 Y40.4429 
G01 X-7.1977 Y40.3894 
G01 X-7.0435 Y40.3108 
G01 X-6.9034 Y40.2090 
G01 X-6.7810 Y40.0866 
G01 X-6.6792 Y39.9465 
G01 X-6.6006 Y39.7923 
G01 X-6.5471 Y39.6276 
G01 X-6.5200 Y39.4566 
G01 X-6.5200 Y39.2834 
G01 X-6.5471 Y39.1124 
G01 X-6.6006 Y38.9477 
G01 X-6.6792 Y38.7935 
G01 X-6.7810 Y38.6534 
G01 X-6.9034 Y38.5310 
G01 X-7.0435 Y38.4292 
G01 X-7.1977 Y38.3506 
G01 X-7.3624 Y38.2971 
G01 X-7.5334 Y38.2700 
G01 X-7.7066 Y38.2700 
G01 X-7.8776 Y38.2971 
G01 X-8.0423 Y38.3506 
G01 X-8.1965 Y38.4292 
G01 X-8.3366 Y38.5310 
G01 X-8.3493 Y38.5436 
G01 X-15.5000 Y31.3929 
G01 X-15.5000 Y26.8564 
G01 X-15.4979 Y26.8473 
G01 X-15.5000 Y26.7907 
G01 X-15.5000 Y26.7342 
G01 X-15.5024 Y26.7251 
G01 X-15.5028 Y26.7157 
G01 X-15.5194 Y26.6616 
G01 X-15.5341 Y26.6070 
G01 X-15.5388 Y26.5989 
G01 X-15.5415 Y26.5899 
G01 X-15.5716 Y26.5420 
G01 X-15.5999 Y26.4930 
G01 X-15.6065 Y26.4863 
G01 X-15.6115 Y26.4784 
G01 X-15.6400 Y26.4520 
G01 X-15.6400 Y26.0501 
G01 X-15.6552 Y26.0134 
G01 X-15.6834 Y25.9852 
G01 X-15.7201 Y25.9700 
G01 X-15.9000 Y25.9700 
G01 X-15.9000 Y22.7342 
G01 X-15.9341 Y22.6070 
G01 X-15.9999 Y22.4930 
G01 X-16.6386 Y21.8543 
G01 X-16.6386 Y19.6651 
G01 X-16.6538 Y19.6284 
G01 X-16.6820 Y19.6002 
G01 X-16.7187 Y19.5850 
G01 X-18.1079 Y19.5850 
G01 X-21.2930 Y16.3999 
G00 Z2.0000 
G00 X-22.0210 Y18.3334 
G01 Z-0.0250 F254.00 
G01 X-22.1434 Y18.2110 F508.00 
G01 X-22.2835 Y18.1092 
G01 X-22.4377 Y18.0306 
G01 X-22.6024 Y17.9771 
G01 X-22.7734 Y17.9500 
G01 X-22.9466 Y17.9500 
G01 X-23.1176 Y17.9771 
G01 X-23.2823 Y18.0306 
G01 X-23.4365 Y18.1092 
G01 X-23.5766 Y18.2110 
G01 X-23.6990 Y18.3334 
G01 X-23.8008 Y18.4735 
G01 X-23.8794 Y18.6277 
G01 X-23.9329 Y18.7924 
G01 X-23.9600 Y18.9634 
G01 X-23.9600 Y19.1366 
G01 X-23.9329 Y19.3076 
G01 X-23.8794 Y19.4723 
G01 X-23.8008 Y19.6265 
G01 X-23.6990 Y19.7666 
G01 X-23.5766 Y19.8890 
G01 X-23.4365 Y19.9908 
G01 X-23.2823 Y20.0694 
G01 X-23.1176 Y20.1229 
G01 X-22.9466 Y20.1500 
G01 X-22.7734 Y20.1500 
G01 X-22.6024 Y20.1229 
G01 X-22.4377 Y20.0694 
G01 X-22.2835 Y19.9908 
G01 X-22.1434 Y19.8890 
G01 X-22.0210 Y19.7666 
G01 X-21.9192 Y19.6265 
G01 X-21.8406 Y19.4723 
G01 X-21.7871 Y19.3076 
G01 X-21.7600 Y19.1366 
G01 X-21.7600 Y18.9634 
G01 X-21.7871 Y18.7924 
G01 X-21.8406 Y18.6277 
G01 X-21.9192 Y18.4735 
G01 X-22.0210 Y18.3334 
G00 Z2.0000 
G00 X-22.0210 Y20.8734 
G01 Z-0.0250 F254.00 
G01 X-22.1434 Y20.7510 F508.00 
G01 X-22.2835 Y20.6492 
G01 X-22.4377 Y20.5706 
G01 X-22.6024 Y20.5171 
G01 X-22.7734 Y20.4900 
G01 X-22.9466 Y20.4900 
G01 X-23.1176 Y20.5171 
G01 X-23.2823 Y20.5706 
G01 X-23.4365 Y20.6492 
G01 X-23.5766 Y20.7510 
G01 X-23.6990 Y20.8734 
G01 X-23.8008 Y21.0135 
G01 X-23.8449 Y21.1000 
G01 X-39.5339 Y21.1000 
G01 X-39.6068 Y20.9569 
G01 X-39.7186 Y20.8030 
G01 X-39.8530 Y20.6686 
G01 X-40.0069 Y20.5568 
G01 X-40.1763 Y20.4705 
G01 X-40.3571 Y20.4117 
G01 X-40.5449 Y20.3820 
G01 X-40.7351 Y20.3820 
G01 X-40.9229 Y20.4117 
G01 X-41.1037 Y20.4705 
G01 X-41.2731 Y20.5568 
G01 X-41.4270 Y20.6686 
G01 X-41.5614 Y20.8030 
G01 X-41.6732 Y20.9569 
G01 X-41.7595 Y21.1263 
G01 X-41.8183 Y21.3071 
G01 X-41.8480 Y21.4949 
G01 X-41.8480 Y21.6851 
G01 X-41.8183 Y21.8729 
G01 X-41.7595 Y22.0537 
G01 X-41.6732 Y22.2231 
G01 X-41.5614 Y22.3770 
G01 X-41.4270 Y22.5114 
G01 X-41.2731 Y22.6232 
G01 X-41.1037 Y22.7095 
G01 X-40.9229 Y22.7683 
G01 X-40.7351 Y22.7980 
G01 X-40.5449 Y22.7980 
G01 X-40.3571 Y22.7683 
G01 X-40.1763 Y22.7095 
G01 X-40.0069 Y22.6232 
G01 X-39.8530 Y22.5114 
G01 X-39.7186 Y22.3770 
G01 X-39.6068 Y22.2231 
G01 X-39.5441 Y22.1000 
G01 X-23.8347 Y22.1000 
G01 X-23.8008 Y22.1665 
G01 X-23.6990 Y22.3066 
G01 X-23.5766 Y22.4290 
G01 X-23.4365 Y22.5308 
G01 X-23.2823 Y22.6094 
G01 X-23.1176 Y22.6629 
G01 X-22.9466 Y22.6900 
G01 X-22.7734 Y22.6900 
G01 X-22.6024 Y22.6629 
G01 X-22.4377 Y22.6094 
G01 X-22.2835 Y22.5308 
G01 X-22.1434 Y22.4290 
G01 X-22.0210 Y22.3066 
G01 X-21.9192 Y22.1665 
G01 X-21.8406 Y22.0123 
G01 X-21.7871 Y21.8476 
G01 X-21.7600 Y21.6766 
G01 X-21.7600 Y21.5034 
G01 X-21.7871 Y21.3324 
G01 X-21.8406 Y21.1677 
G01 X-21.9192 Y21.0135 
G01 X-22.0210 Y20.8734 
G00 Z2.0000 
G00 X-22.0210 Y23.4134 
G01 Z-0.0250 F254.00 
G01 X-22.1434 Y23.2910 F508.00 
G01 X-22.2835 Y23.1892 
G01 X-22.4377 Y23.1106 
G01 X-22.6024 Y23.0571 
G01 X-22.7734 Y23.0300 
G01 X-22.9466 Y23.0300 
G01 X-23.1176 Y23.0571 
G01 X-23.2823 Y23.1106 
G01 X-23.4365 Y23.1892 
G01 X-23.5766 Y23.2910 
G01 X-23.6990 Y23.4134 
G01 X-23.8008 Y23.5535 
G01 X-23.8794 Y23.7077 
G01 X-23.9329 Y23.8724 
G01 X-23.9600 Y24.0434 
G01 X-23.9600 Y24.2166 
G01 X-23.9329 Y24.3876 
G01 X-23.8794 Y24.5523 
G01 X-23.8008 Y24.7065 
G01 X-23.6990 Y24.8466 
G01 X-23.5766 Y24.9690 
G01 X-23.4365 Y25.0708 
G01 X-23.2823 Y25.1494 
G01 X-23.1176 Y25.2029 
G01 X-22.9466 Y25.2300 
G01 X-22.7734 Y25.2300 
G01 X-22.6024 Y25.2029 
G01 X-22.4377 Y25.1494 
G01 X-22.2835 Y25.0708 
G01 X-22.1434 Y24.9690 
G01 X-22.0210 Y24.8466 
G01 X-21.9192 Y24.7065 
G01 X-21.8406 Y24.5523 
G01 X-21.7871 Y24.3876 
G01 X-21.7600 Y24.2166 
G01 X-21.7600 Y24.0434 
G01 X-21.7871 Y23.8724 
G01 X-21.8406 Y23.7077 
G01 X-21.9192 Y23.5535 
G01 X-22.0210 Y23.4134 
G00 Z2.0000 
G00 X-22.0210 Y25.9534 
G01 Z-0.0250 F254.00 
G01 X-22.1434 Y25.8310 F508.00 
G01 X-22.2835 Y25.7292 
G01 X-22.4377 Y25.6506 
G01 X-22.6024 Y25.5971 
G01 X-22.7734 Y25.5700 
G01 X-22.9466 Y25.5700 
G01 X-23.1176 Y25.5971 
G01 X-23.2823 Y25.6506 
G01 X-23.4365 Y25.7292 
G01 X-23.5766 Y25.8310 
G01 X-23.6990 Y25.9534 
G01 X-23.8008 Y26.0935 
G01 X-23.8794 Y26.2477 
G01 X-23.9329 Y26.4124 
G01 X-23.9600 Y26.5834 
G01 X-23.9600 Y26.7566 
G01 X-23.9329 Y26.9276 
G01 X-23.8794 Y27.0923 
G01 X-23.8008 Y27.2465 
G01 X-23.6990 Y27.3866 
G01 X-23.5766 Y27.5090 
G01 X-23.4365 Y27.6108 
G01 X-23.2823 Y27.6894 
G01 X-23.1176 Y27.7429 
G01 X-22.9466 Y27.7700 
G01 X-22.7734 Y27.7700 
G01 X-22.6024 Y27.7429 
G01 X-22.4377 Y27.6894 
G01 X-22.2835 Y27.6108 
G01 X-22.1434 Y27.5090 
G01 X-22.0210 Y27.3866 
G01 X-21.9192 Y27.2465 
G01 X-21.8406 Y27.0923 
G01 X-21.7871 Y26.9276 
G01 X-21.7600 Y26.7566 
G01 X-21.7600 Y26.5834 
G01 X-21.7871 Y26.4124 
G01 X-21.8406 Y26.2477 
G01 X-21.9192 Y26.0935 
G01 X-22.0210 Y25.9534 
G00 Z2.0000 
G00 X-22.0210 Y28.4934 
G01 Z-0.0250 F254.00 
G01 X-22.1434 Y28.3710 F508.00 
G01 X-22.2835 Y28.2692 
G01 X-22.4377 Y28.1906 
G01 X-22.6024 Y28.1371 
G01 X-22.7734 Y28.1100 
G01 X-22.9466 Y28.1100 
G01 X-23.1176 Y28.1371 
G01 X-23.2823 Y28.1906 
G01 X-23.4365 Y28.2692 
G01 X-23.5766 Y28.3710 
G01 X-23.6990 Y28.4934 
G01 X-23.8008 Y28.6335 
G01 X-23.8794 Y28.7877 
G01 X-23.9329 Y28.9524 
G01 X-23.9600 Y29.1234 
G01 X-23.9600 Y29.2966 
G01 X-23.9329 Y29.4676 
G01 X-23.8794 Y29.6323 
G01 X-23.8008 Y29.7865 
G01 X-23.6990 Y29.9266 
G01 X-23.5766 Y30.0490 
G01 X-23.4365 Y30.1508 
G01 X-23.2823 Y30.2294 
G01 X-23.1176 Y30.2829 
G01 X-22.9466 Y30.3100 
G01 X-22.7734 Y30.3100 
G01 X-22.6024 Y30.2829 
G01 X-22.4377 Y30.2294 
G01 X-22.2835 Y30.1508 
G01 X-22.1434 Y30.0490 
G01 X-22.0210 Y29.9266 
G01 X-21.9192 Y29.7865 
G01 X-21.8406 Y29.6323 
G01 X-21.7871 Y29.4676 
G01 X-21.7600 Y29.2966 
G01 X-21.7600 Y29.1234 
G01 X-21.7871 Y28.9524 
G01 X-21.8406 Y28.7877 
G01 X-21.9192 Y28.6335 
G01 X-22.0210 Y28.4934 
G00 Z2.0000 
G00 X-22.0210 Y31.0334 
G01 Z-0.0250 F254.00 
G01 X-22.1434 Y30.9110 F508.00 
G01 X-22.2835 Y30.8092 
G01 X-22.4377 Y30.7306 
G01 X-22.6024 Y30.6771 
G01 X-22.7734 Y30.6500 
G01 X-22.9466 Y30.6500 
G01 X-23.1176 Y30.6771 
G01 X-23.2823 Y30.7306 
G01 X-23.4365 Y30.8092 
G01 X-23.5766 Y30.9110 
G01 X-23.6990 Y31.0334 
G01 X-23.8008 Y31.1735 
G01 X-23.8794 Y31.3277 
G01 X-23.9329 Y31.4924 
G01 X-23.9600 Y31.6634 
G01 X-23.9600 Y31.8366 
G01 X-23.9329 Y32.0076 
G01 X-23.8794 Y32.1723 
G01 X-23.8008 Y32.3265 
G01 X-23.6990 Y32.4666 
G01 X-23.5766 Y32.5890 
G01 X-23.4365 Y32.6908 
G01 X-23.2823 Y32.7694 
G01 X-23.1176 Y32.8229 
G01 X-22.9466 Y32.8500 
G01 X-22.7734 Y32.8500 
G01 X-22.6024 Y32.8229 
G01 X-22.4377 Y32.7694 
G01 X-22.2835 Y32.6908 
G01 X-22.1434 Y32.5890 
G01 X-22.0210 Y32.4666 
G01 X-21.9192 Y32.3265 
G01 X-21.8406 Y32.1723 
G01 X-21.7871 Y32.0076 
G01 X-21.7600 Y31.8366 
G01 X-21.7600 Y31.6634 
G01 X-21.7871 Y31.4924 
G01 X-21.8406 Y31.3277 
G01 X-21.9192 Y31.1735 
G01 X-22.0210 Y31.0334 
G00 Z2.0000 
G00 X-22.0210 Y33.5734 
G01 Z-0.0250 F254.00 
G01 X-22.1434 Y33.4510 F508.00 
G01 X-22.2835 Y33.3492 
G01 X-22.4377 Y33.2706 
G01 X-22.6024 Y33.2171 
G01 X-22.7734 Y33.1900 
G01 X-22.9466 Y33.1900 
G01 X-23.1176 Y33.2171 
G01 X-23.2823 Y33.2706 
G01 X-23.4365 Y33.3492 
G01 X-23.5766 Y33.4510 
G01 X-23.6990 Y33.5734 
G01 X-23.8008 Y33.7135 
G01 X-23.8794 Y33.8677 
G01 X-23.9329 Y34.0324 
G01 X-23.9600 Y34.2034 
G01 X-23.9600 Y34.3766 
G01 X-23.9329 Y34.5476 
G01 X-23.8794 Y34.7123 
G01 X-23.8008 Y34.8665 
G01 X-23.6990 Y35.0066 
G01 X-23.5766 Y35.1290 
G01 X-23.4365 Y35.2308 
G01 X-23.2823 Y35.3094 
G01 X-23.1176 Y35.3629 
G01 X-22.9466 Y35.3900 
G01 X-22.7734 Y35.3900 
G01 X-22.6024 Y35.3629 
G01 X-22.4377 Y35.3094 
G01 X-22.2835 Y35.2308 
G01 X-22.1434 Y35.1290 
G01 X-22.0210 Y35.0066 
G01 X-21.9192 Y34.8665 
G01 X-21.8406 Y34.7123 
G01 X-21.7871 Y34.5476 
G01 X-21.7600 Y34.3766 
G01 X-21.7600 Y34.2034 
G01 X-21.7871 Y34.0324 
G01 X-21.8406 Y33.8677 
G01 X-21.9192 Y33.7135 
G01 X-22.0210 Y33.5734 
G00 Z2.0000 
G00 X-22.0210 Y36.1134 
G01 Z-0.0250 F254.00 
G01 X-22.1434 Y35.9910 F508.00 
G01 X-22.2835 Y35.8892 
G01 X-22.4377 Y35.8106 
G01 X-22.6024 Y35.7571 
G01 X-22.7734 Y35.7300 
G01 X-22.9466 Y35.7300 
G01 X-23.1176 Y35.7571 
G01 X-23.2823 Y35.8106 
G01 X-23.4365 Y35.8892 
G01 X-23.5766 Y35.9910 
G01 X-23.6990 Y36.1134 
G01 X-23.8008 Y36.2535 
G01 X-23.8794 Y36.4077 
G01 X-23.9329 Y36.5724 
G01 X-23.9600 Y36.7434 
G01 X-23.9600 Y36.9166 
G01 X-23.9329 Y37.0876 
G01 X-23.8794 Y37.2523 
G01 X-23.8008 Y37.4065 
G01 X-23.6990 Y37.5466 
G01 X-23.5766 Y37.6690 
G01 X-23.4365 Y37.7708 
G01 X-23.2823 Y37.8494 
G01 X-23.1176 Y37.9029 
G01 X-22.9466 Y37.9300 
G01 X-22.7734 Y37.9300 
G01 X-22.6024 Y37.9029 
G01 X-22.4377 Y37.8494 
G01 X-22.2835 Y37.7708 
G01 X-22.1434 Y37.6690 
G01 X-22.0210 Y37.5466 
G01 X-21.9192 Y37.4065 
G01 X-21.8406 Y37.2523 
G01 X-21.7871 Y37.0876 
G01 X-21.7600 Y36.9166 
G01 X-21.7600 Y36.7434 
G01 X-21.7871 Y36.5724 
G01 X-21.8406 Y36.4077 
G01 X-21.9192 Y36.2535 
G01 X-22.0210 Y36.1134 
G00 Z2.0000 
G00 X-22.0210 Y38.6534 
G01 Z-0.0250 F254.00 
G01 X-22.1434 Y38.5310 F508.00 
G01 X-22.2835 Y38.4292 
G01 X-22.4377 Y38.3506 
G01 X-22.6024 Y38.2971 
G01 X-22.7734 Y38.2700 
G01 X-22.9466 Y38.2700 
G01 X-23.1176 Y38.2971 
G01 X-23.2823 Y38.3506 
G01 X-23.4365 Y38.4292 
G01 X-23.5766 Y38.5310 
G01 X-23.6990 Y38.6534 
G01 X-23.7329 Y38.7000 
G01 X-23.7929 Y38.7000 
G01 X-38.4930 Y23.9999 
G01 X-38.6070 Y23.9341 
G01 X-38.7342 Y23.9000 
G01 X-39.4470 Y23.9000 
G01 X-39.4617 Y23.8071 
G01 X-39.5205 Y23.6263 
G01 X-39.6068 Y23.4569 
G01 X-39.7186 Y23.3030 
G01 X-39.8530 Y23.1686 
G01 X-40.0069 Y23.0568 
G01 X-40.1763 Y22.9705 
G01 X-40.3571 Y22.9117 
G01 X-40.5449 Y22.8820 
G01 X-40.7351 Y22.8820 
G01 X-40.9229 Y22.9117 
G01 X-41.1037 Y22.9705 
G01 X-41.2731 Y23.0568 
G01 X-41.4270 Y23.1686 
G01 X-41.5614 Y23.3030 
G01 X-41.6732 Y23.4569 
G01 X-41.7595 Y23.6263 
G01 X-41.8183 Y23.8071 
G01 X-41.8480 Y23.9949 
G01 X-41.8480 Y24.1851 
G01 X-41.8183 Y24.3729 
G01 X-41.7595 Y24.5537 
G01 X-41.6732 Y24.7231 
G01 X-41.5614 Y24.8770 
G01 X-41.4270 Y25.0114 
G01 X-41.2731 Y25.1232 
G01 X-41.1037 Y25.2095 
G01 X-40.9229 Y25.2683 
G01 X-40.7351 Y25.2980 
G01 X-40.5449 Y25.2980 
G01 X-40.3571 Y25.2683 
G01 X-40.1763 Y25.2095 
G01 X-40.0069 Y25.1232 
G01 X-39.8530 Y25.0114 
G01 X-39.7416 Y24.9000 
G01 X-39.0071 Y24.9000 
G01 X-24.4001 Y39.5070 
G01 X-24.3070 Y39.6001 
G01 X-24.1930 Y39.6659 
G01 X-24.0658 Y39.7000 
G01 X-23.9094 Y39.7000 
G01 X-23.8794 Y39.7923 
G01 X-23.8008 Y39.9465 
G01 X-23.6990 Y40.0866 
G01 X-23.5766 Y40.2090 
G01 X-23.4365 Y40.3108 
G01 X-23.2823 Y40.3894 
G01 X-23.1176 Y40.4429 
G01 X-22.9466 Y40.4700 
G01 X-22.7734 Y40.4700 
G01 X-22.6024 Y40.4429 
G01 X-22.4377 Y40.3894 
G01 X-22.2835 Y40.3108 
G01 X-22.1434 Y40.2090 
G01 X-22.0210 Y40.0866 
G01 X-21.9192 Y39.9465 
G01 X-21.8406 Y39.7923 
G01 X-21.7871 Y39.6276 
G01 X-21.7600 Y39.4566 
G01 X-21.7600 Y39.2834 
G01 X-21.7871 Y39.1124 
G01 X-21.8406 Y38.9477 
G01 X-21.9192 Y38.7935 
G01 X-22.0210 Y38.6534 
G00 Z2.0000 
G00 X-22.0210 Y41.1934 
G01 Z-0.0250 F254.00 
G01 X-22.1434 Y41.0710 F508.00 
G01 X-22.2835 Y40.9692 
G01 X-22.4377 Y40.8906 
G01 X-22.6024 Y40.8371 
G01 X-22.7734 Y40.8100 
G01 X-22.9466 Y40.8100 
G01 X-23.1176 Y40.8371 
G01 X-23.2823 Y40.8906 
G01 X-23.4365 Y40.9692 
G01 X-23.5766 Y41.0710 
G01 X-23.6990 Y41.1934 
G01 X-23.8008 Y41.3335 
G01 X-23.8794 Y41.4877 
G01 X-23.9329 Y41.6524 
G01 X-23.9600 Y41.8234 
G01 X-23.9600 Y41.9966 
G01 X-23.9329 Y42.1676 
G01 X-23.8794 Y42.3323 
G01 X-23.8008 Y42.4865 
G01 X-23.6990 Y42.6266 
G01 X-23.5766 Y42.7490 
G01 X-23.4365 Y42.8508 
G01 X-23.2823 Y42.9294 
G01 X-23.1176 Y42.9829 
G01 X-22.9466 Y43.0100 
G01 X-22.7734 Y43.0100 
G01 X-22.6024 Y42.9829 
G01 X-22.4377 Y42.9294 
G01 X-22.2835 Y42.8508 
G01 X-22.1434 Y42.7490 
G01 X-22.0210 Y42.6266 
G01 X-21.9192 Y42.4865 
G01 X-21.8406 Y42.3323 
G01 X-21.7871 Y42.1676 
G01 X-21.7600 Y41.9966 
G01 X-21.7600 Y41.8234 
G01 X-21.7871 Y41.6524 
G01 X-21.8406 Y41.4877 
G01 X-21.9192 Y41.3335 
G01 X-22.0210 Y41.1934 
G00 Z2.0000 
G00 X-22.0210 Y43.7334 
G01 Z-0.0250 F254.00 
G01 X-22.1434 Y43.6110 F508.00 
G01 X-22.2835 Y43.5092 
G01 X-22.4377 Y43.4306 
G01 X-22.6024 Y43.3771 
G01 X-22.7734 Y43.3500 
G01 X-22.9466 Y43.3500 
G01 X-23.1176 Y43.3771 
G01 X-23.2823 Y43.4306 
G01 X-23.4365 Y43.5092 
G01 X-23.5766 Y43.6110 
G01 X-23.6990 Y43.7334 
G01 X-23.8008 Y43.8735 
G01 X-23.8794 Y44.0277 
G01 X-23.9329 Y44.1924 
G01 X-23.9600 Y44.3634 
G01 X-23.9600 Y44.5366 
G01 X-23.9329 Y44.7076 
G01 X-23.8794 Y44.8723 
G01 X-23.8008 Y45.0265 
G01 X-23.6990 Y45.1666 
G01 X-23.5766 Y45.2890 
G01 X-23.4365 Y45.3908 
G01 X-23.2823 Y45.4694 
G01 X-23.1176 Y45.5229 
G01 X-22.9466 Y45.5500 
G01 X-22.7734 Y45.5500 
G01 X-22.6024 Y45.5229 
G01 X-22.4377 Y45.4694 
G01 X-22.2835 Y45.3908 
G01 X-22.1434 Y45.2890 
G01 X-22.0210 Y45.1666 
G01 X-21.9192 Y45.0265 
G01 X-21.8406 Y44.8723 
G01 X-21.7871 Y44.7076 
G01 X-21.7600 Y44.5366 
G01 X-21.7600 Y44.3634 
G01 X-21.7871 Y44.1924 
G01 X-21.8406 Y44.0277 
G01 X-21.9192 Y43.8735 
G01 X-22.0210 Y43.7334 
G00 Z2.0000 
G00 X-22.0210 Y46.2734 
G01 Z-0.0250 F254.00 
G01 X-22.1434 Y46.1510 F508.00 
G01 X-22.2835 Y46.0492 
G01 X-22.4377 Y45.9706 
G01 X-22.6024 Y45.9171 
G01 X-22.7734 Y45.8900 
G01 X-22.9466 Y45.8900 
G01 X-23.1176 Y45.9171 
G01 X-23.2823 Y45.9706 
G01 X-23.4365 Y46.0492 
G01 X-23.5766 Y46.1510 
G01 X-23.6990 Y46.2734 
G01 X-23.8008 Y46.4135 
G01 X-23.8794 Y46.5677 
G01 X-23.9329 Y46.7324 
G01 X-23.9600 Y46.9034 
G01 X-23.9600 Y47.0766 
G01 X-23.9329 Y47.2476 
G01 X-23.8794 Y47.4123 
G01 X-23.8008 Y47.5665 
G01 X-23.6990 Y47.7066 
G01 X-23.5766 Y47.8290 
G01 X-23.4365 Y47.9308 
G01 X-23.2823 Y48.0094 
G01 X-23.1176 Y48.0629 
G01 X-22.9466 Y48.0900 
G01 X-22.7734 Y48.0900 
G01 X-22.6024 Y48.0629 
G01 X-22.4377 Y48.0094 
G01 X-22.2835 Y47.9308 
G01 X-22.1434 Y47.8290 
G01 X-22.0210 Y47.7066 
G01 X-21.9192 Y47.5665 
G01 X-21.8406 Y47.4123 
G01 X-21.7871 Y47.2476 
G01 X-21.7600 Y47.0766 
G01 X-21.7600 Y46.9034 
G01 X-21.7871 Y46.7324 
G01 X-21.8406 Y46.5677 
G01 X-21.9192 Y46.4135 
G01 X-22.0210 Y46.2734 
G00 Z2.0000 
G00 X-24.3999 Y52.0930 
G01 Z-0.0250 F254.00 
G01 X-30.3999 Y46.0930 F508.00 
G01 X-30.4930 Y45.9999 
G01 X-30.6070 Y45.9341 
G01 X-30.7342 Y45.9000 
G01 X-32.4658 Y45.9000 
G01 X-32.5930 Y45.9341 
G01 X-32.7070 Y45.9999 
G01 X-34.3070 Y47.5999 
G01 X-34.4001 Y47.6930 
G01 X-34.4659 Y47.8070 
G01 X-34.4889 Y47.8927 
G01 X-34.5326 Y47.8996 
G01 X-34.6973 Y47.9531 
G01 X-34.8515 Y48.0317 
G01 X-34.9916 Y48.1335 
G01 X-35.1140 Y48.2559 
G01 X-35.2158 Y48.3960 
G01 X-35.2944 Y48.5502 
G01 X-35.3479 Y48.7149 
G01 X-35.3750 Y48.8859 
G01 X-35.3750 Y49.0591 
G01 X-35.3479 Y49.2301 
G01 X-35.2944 Y49.3948 
G01 X-35.2158 Y49.5490 
G01 X-35.1140 Y49.6891 
G01 X-34.9916 Y49.8115 
G01 X-34.8515 Y49.9133 
G01 X-34.6973 Y49.9919 
G01 X-34.5326 Y50.0454 
G01 X-34.3616 Y50.0725 
G01 X-34.1884 Y50.0725 
G01 X-34.0174 Y50.0454 
G01 X-33.8527 Y49.9919 
G01 X-33.6985 Y49.9133 
G01 X-33.5584 Y49.8115 
G01 X-33.4360 Y49.6891 
G01 X-33.3342 Y49.5490 
G01 X-33.2556 Y49.3948 
G01 X-33.2021 Y49.2301 
G01 X-33.1750 Y49.0591 
G01 X-33.1750 Y48.8859 
G01 X-33.2021 Y48.7149 
G01 X-33.2556 Y48.5502 
G01 X-33.3342 Y48.3960 
G01 X-33.4360 Y48.2559 
G01 X-33.4924 Y48.1995 
G01 X-32.1929 Y46.9000 
G01 X-31.0071 Y46.9000 
G01 X-25.3000 Y52.6071 
G01 X-25.3000 Y53.0202 
G01 X-25.3765 Y53.0592 
G01 X-25.5166 Y53.1610 
G01 X-25.6390 Y53.2834 
G01 X-25.7408 Y53.4235 
G01 X-25.8194 Y53.5777 
G01 X-25.8729 Y53.7424 
G01 X-25.9000 Y53.9134 
G01 X-25.9000 Y54.0866 
G01 X-25.8729 Y54.2576 
G01 X-25.8194 Y54.4223 
G01 X-25.7408 Y54.5765 
G01 X-25.6390 Y54.7166 
G01 X-25.5166 Y54.8390 
G01 X-25.3765 Y54.9408 
G01 X-25.2223 Y55.0194 
G01 X-25.0576 Y55.0729 
G01 X-24.8866 Y55.1000 
G01 X-24.7134 Y55.1000 
G01 X-24.5424 Y55.0729 
G01 X-24.3777 Y55.0194 
G01 X-24.2235 Y54.9408 
G01 X-24.0834 Y54.8390 
G01 X-23.9610 Y54.7166 
G01 X-23.8592 Y54.5765 
G01 X-23.7806 Y54.4223 
G01 X-23.7271 Y54.2576 
G01 X-23.7000 Y54.0866 
G01 X-23.7000 Y53.9134 
G01 X-23.7271 Y53.7424 
G01 X-23.7806 Y53.5777 
G01 X-23.8592 Y53.4235 
G01 X-23.9610 Y53.2834 
G01 X-24.0834 Y53.1610 
G01 X-24.2235 Y53.0592 
G01 X-24.3000 Y53.0202 
G01 X-24.3000 Y52.4658 
G01 X-24.3000 Y52.3342 
G01 X-24.3341 Y52.2070 
G01 X-24.3999 Y52.0930 
G00 Z2.0000 
G00 X-31.0184 Y49.8115 
G01 Z-0.0250 F254.00 
G01 X-30.8960 Y49.6891 F508.00 
G01 X-30.7942 Y49.5490 
G01 X-30.7156 Y49.3948 
G01 X-30.6621 Y49.2301 
G01 X-30.6350 Y49.0591 
G01 X-30.6350 Y48.8859 
G01 X-30.6621 Y48.7149 
G01 X-30.7156 Y48.5502 
G01 X-30.7942 Y48.3960 
G01 X-30.8960 Y48.2559 
G01 X-31.0184 Y48.1335 
G01 X-31.1585 Y48.0317 
G01 X-31.3127 Y47.9531 
G01 X-31.4774 Y47.8996 
G01 X-31.6484 Y47.8725 
G01 X-31.8216 Y47.8725 
G01 X-31.9926 Y47.8996 
G01 X-32.1573 Y47.9531 
G01 X-32.3115 Y48.0317 
G01 X-32.4516 Y48.1335 
G01 X-32.5740 Y48.2559 
G01 X-32.6758 Y48.3960 
G01 X-32.7544 Y48.5502 
G01 X-32.8079 Y48.7149 
G01 X-32.8350 Y48.8859 
G01 X-32.8350 Y49.0591 
G01 X-32.8079 Y49.2301 
G01 X-32.7544 Y49.3948 
G01 X-32.6758 Y49.5490 
G01 X-32.5740 Y49.6891 
G01 X-32.4516 Y49.8115 
G01 X-32.3115 Y49.9133 
G01 X-32.1573 Y49.9919 
G01 X-31.9926 Y50.0454 
G01 X-31.8216 Y50.0725 
G01 X-31.6484 Y50.0725 
G01 X-31.4774 Y50.0454 
G01 X-31.3127 Y49.9919 
G01 X-31.1585 Y49.9133 
G01 X-31.0184 Y49.8115 
G00 Z2.0000 
G00 X-33.4360 Y50.7959 
G01 Z-0.0250 F254.00 
G01 X-33.5584 Y50.6735 F508.00 
G01 X-33.6985 Y50.5717 
G01 X-33.8527 Y50.4931 
G01 X-34.0174 Y50.4396 
G01 X-34.1884 Y50.4125 
G01 X-34.3616 Y50.4125 
G01 X-34.5326 Y50.4396 
G01 X-34.6973 Y50.4931 
G01 X-34.8515 Y50.5717 
G01 X-34.9916 Y50.6735 
G01 X-35.1140 Y50.7959 
G01 X-35.2158 Y50.9360 
G01 X-35.2944 Y51.0902 
G01 X-35.3479 Y51.2549 
G01 X-35.3750 Y51.4259 
G01 X-35.3750 Y51.5991 
G01 X-35.3479 Y51.7701 
G01 X-35.2944 Y51.9348 
G01 X-35.2158 Y52.0890 
G01 X-35.1140 Y52.2291 
G01 X-34.9916 Y52.3515 
G01 X-34.8515 Y52.4533 
G01 X-34.6973 Y52.5319 
G01 X-34.5326 Y52.5854 
G01 X-34.3616 Y52.6125 
G01 X-34.1884 Y52.6125 
G01 X-34.0174 Y52.5854 
G01 X-33.8527 Y52.5319 
G01 X-33.6985 Y52.4533 
G01 X-33.5584 Y52.3515 
G01 X-33.4360 Y52.2291 
G01 X-33.3342 Y52.0890 
G01 X-33.2556 Y51.9348 
G01 X-33.2021 Y51.7701 
G01 X-33.1750 Y51.5991 
G01 X-33.1750 Y51.4259 
G01 X-33.2021 Y51.2549 
G01 X-33.2556 Y51.0902 
G01 X-33.3342 Y50.9360 
G01 X-33.4360 Y50.7959 
G00 Z2.0000 
G00 X-35.9760 Y50.7959 
G01 Z-0.0250 F254.00 
G01 X-36.0984 Y50.6735 F508.00 
G01 X-36.2385 Y50.5717 
G01 X-36.3927 Y50.4931 
G01 X-36.5574 Y50.4396 
G01 X-36.7284 Y50.4125 
G01 X-36.9016 Y50.4125 
G01 X-37.0726 Y50.4396 
G01 X-37.2373 Y50.4931 
G01 X-37.3915 Y50.5717 
G01 X-37.5316 Y50.6735 
G01 X-37.6540 Y50.7959 
G01 X-37.7558 Y50.9360 
G01 X-37.8344 Y51.0902 
G01 X-37.8879 Y51.2549 
G01 X-37.9150 Y51.4259 
G01 X-37.9150 Y51.5991 
G01 X-37.8879 Y51.7701 
G01 X-37.8344 Y51.9348 
G01 X-37.7558 Y52.0890 
G01 X-37.6540 Y52.2291 
G01 X-37.5316 Y52.3515 
G01 X-37.3915 Y52.4533 
G01 X-37.2373 Y52.5319 
G01 X-37.0726 Y52.5854 
G01 X-36.9016 Y52.6125 
G01 X-36.7284 Y52.6125 
G01 X-36.5574 Y52.5854 
G01 X-36.3927 Y52.5319 
G01 X-36.2385 Y52.4533 
G01 X-36.0984 Y52.3515 
G01 X-35.9760 Y52.2291 
G01 X-35.8742 Y52.0890 
G01 X-35.7956 Y51.9348 
G01 X-35.7421 Y51.7701 
G01 X-35.7150 Y51.5991 
G01 X-35.7150 Y51.4259 
G01 X-35.7421 Y51.2549 
G01 X-35.7956 Y51.0902 
G01 X-35.8742 Y50.9360 
G01 X-35.9760 Y50.7959 
G00 Z2.0000 
G00 X-36.0984 Y49.8115 
G01 Z-0.0250 F254.00 
G01 X-35.9760 Y49.6891 F508.00 
G01 X-35.8742 Y49.5490 
G01 X-35.7956 Y49.3948 
G01 X-35.7421 Y49.2301 
G01 X-35.7150 Y49.0591 
G01 X-35.7150 Y48.8859 
G01 X-35.7421 Y48.7149 
G01 X-35.7956 Y48.5502 
G01 X-35.8742 Y48.3960 
G01 X-35.9760 Y48.2559 
G01 X-36.0984 Y48.1335 
G01 X-36.2385 Y48.0317 
G01 X-36.3927 Y47.9531 
G01 X-36.5574 Y47.8996 
G01 X-36.7284 Y47.8725 
G01 X-36.9016 Y47.8725 
G01 X-37.0726 Y47.8996 
G01 X-37.2373 Y47.9531 
G01 X-37.3915 Y48.0317 
G01 X-37.5316 Y48.1335 
G01 X-37.6540 Y48.2559 
G01 X-37.7558 Y48.3960 
G01 X-37.8344 Y48.5502 
G01 X-37.8879 Y48.7149 
G01 X-37.9150 Y48.8859 
G01 X-37.9150 Y49.0591 
G01 X-37.8879 Y49.2301 
G01 X-37.8344 Y49.3948 
G01 X-37.7558 Y49.5490 
G01 X-37.6540 Y49.6891 
G01 X-37.5316 Y49.8115 
G01 X-37.3915 Y49.9133 
G01 X-37.2373 Y49.9919 
G01 X-37.0726 Y50.0454 
G01 X-36.9016 Y50.0725 
G01 X-36.7284 Y50.0725 
G01 X-36.5574 Y50.0454 
G01 X-36.3927 Y49.9919 
G01 X-36.2385 Y49.9133 
G01 X-36.0984 Y49.8115 
G00 Z2.0000 
G00 X-38.6384 Y49.8115 
G01 Z-0.0250 F254.00 
G01 X-38.5160 Y49.6891 F508.00 
G01 X-38.4142 Y49.5490 
G01 X-38.3356 Y49.3948 
G01 X-38.2821 Y49.2301 
G01 X-38.2550 Y49.0591 
G01 X-38.2550 Y48.8859 
G01 X-38.2821 Y48.7149 
G01 X-38.3356 Y48.5502 
G01 X-38.4142 Y48.3960 
G01 X-38.5160 Y48.2559 
G01 X-38.6384 Y48.1335 
G01 X-38.7785 Y48.0317 
G01 X-38.9327 Y47.9531 
G01 X-39.0974 Y47.8996 
G01 X-39.2684 Y47.8725 
G01 X-39.4416 Y47.8725 
G01 X-39.6126 Y47.8996 
G01 X-39.7773 Y47.9531 
G01 X-39.9315 Y48.0317 
G01 X-40.0716 Y48.1335 
G01 X-40.1940 Y48.2559 
G01 X-40.2958 Y48.3960 
G01 X-40.3744 Y48.5502 
G01 X-40.4279 Y48.7149 
G01 X-40.4550 Y48.8859 
G01 X-40.4550 Y49.0591 
G01 X-40.4279 Y49.2301 
G01 X-40.3744 Y49.3948 
G01 X-40.2958 Y49.5490 
G01 X-40.1940 Y49.6891 
G01 X-40.0716 Y49.8115 
G01 X-39.9315 Y49.9133 
G01 X-39.7773 Y49.9919 
G01 X-39.6126 Y50.0454 
G01 X-39.4416 Y50.0725 
G01 X-39.2684 Y50.0725 
G01 X-39.0974 Y50.0454 
G01 X-38.9327 Y49.9919 
G01 X-38.7785 Y49.9133 
G01 X-38.6384 Y49.8115 
G00 Z2.0000 
G00 X-38.6384 Y50.6735 
G01 Z-0.0250 F254.00 
G01 X-38.7785 Y50.5717 F508.00 
G01 X-38.9327 Y50.4931 
G01 X-39.0974 Y50.4396 
G01 X-39.2684 Y50.4125 
G01 X-39.4416 Y50.4125 
G01 X-39.6126 Y50.4396 
G01 X-39.7773 Y50.4931 
G01 X-39.9315 Y50.5717 
G01 X-40.0716 Y50.6735 
G01 X-40.1940 Y50.7959 
G01 X-40.2958 Y50.9360 
G01 X-40.3744 Y51.0902 
G01 X-40.4279 Y51.2549 
G01 X-40.4550 Y51.4259 
G01 X-40.4550 Y51.5991 
G01 X-40.4279 Y51.7701 
G01 X-40.3744 Y51.9348 
G01 X-40.2958 Y52.0890 
G01 X-40.1940 Y52.2291 
G01 X-40.0716 Y52.3515 
G01 X-39.9315 Y52.4533 
G01 X-39.7773 Y52.5319 
G01 X-39.6126 Y52.5854 
G01 X-39.4416 Y52.6125 
G01 X-39.2684 Y52.6125 
G01 X-39.0974 Y52.5854 
G01 X-38.9327 Y52.5319 
G01 X-38.7785 Y52.4533 
G01 X-38.6384 Y52.3515 
G01 X-38.5160 Y52.2291 
G01 X-38.4142 Y52.0890 
G01 X-38.3356 Y51.9348 
G01 X-38.2821 Y51.7701 
G01 X-38.2550 Y51.5991 
G01 X-38.2550 Y51.4259 
G01 X-38.2821 Y51.2549 
G01 X-38.3356 Y51.0902 
G01 X-38.4142 Y50.9360 
G01 X-38.5160 Y50.7959 
G01 X-38.6384 Y50.6735 
G00 Z2.0000 
G00 X-38.5620 Y60.2496 
G01 Z-0.0250 F254.00 
G01 X-38.7869 Y60.4538 F508.00 
G01 X-38.9838 Y60.6851 
G01 X-39.1496 Y60.9397 
G01 X-39.2814 Y61.2134 
G01 X-39.3771 Y61.5017 
G01 X-39.4351 Y61.7999 
G01 X-39.4546 Y62.1030 
G01 X-39.4351 Y62.4061 
G01 X-39.3771 Y62.7043 
G01 X-39.2814 Y62.9926 
G01 X-39.1496 Y63.2663 
G01 X-38.9838 Y63.5209 
G01 X-38.7869 Y63.7522 
G01 X-38.5620 Y63.9564 
G01 X-38.3129 Y64.1302 
G01 X-38.0436 Y64.2707 
G01 X-37.7585 Y64.3756 
G01 X-37.4624 Y64.4432 
G01 X-37.1600 Y64.4724 
G01 X-36.8564 Y64.4627 
G01 X-36.5565 Y64.4142 
G01 X-36.2653 Y64.3277 
G01 X-35.9875 Y64.2048 
G01 X-35.7277 Y64.0473 
G01 X-35.4902 Y63.8579 
G01 X-35.2789 Y63.6397 
G01 X-35.0972 Y63.3962 
G01 X-34.9482 Y63.1316 
G01 X-34.8342 Y62.8500 
G01 X-34.7571 Y62.5562 
G01 X-34.7183 Y62.2549 
G01 X-34.7183 Y61.9511 
G01 X-34.7571 Y61.6498 
G01 X-34.8342 Y61.3560 
G01 X-34.9482 Y61.0744 
G01 X-35.0972 Y60.8098 
G01 X-35.2789 Y60.5663 
G01 X-35.4902 Y60.3481 
G01 X-35.7277 Y60.1587 
G01 X-35.9875 Y60.0012 
G01 X-36.2653 Y59.8783 
G01 X-36.5565 Y59.7918 
G01 X-36.8564 Y59.7433 
G01 X-37.1600 Y59.7336 
G01 X-37.4623 Y59.7628 
G01 X-37.7585 Y59.8304 
G01 X-38.0436 Y59.9353 
G01 X-38.3129 Y60.0758 
G01 X-38.5620 Y60.2496 
G00 Z2.0000 
G00 X-38.3513 Y60.8757 
G01 Z-0.0250 F254.00 
G01 X-38.1840 Y60.7237 F508.00 
G01 X-37.9986 Y60.5943 
G01 X-37.7981 Y60.4898 
G01 X-37.5860 Y60.4117 
G01 X-37.3656 Y60.3614 
G01 X-37.1405 Y60.3397 
G01 X-36.9146 Y60.3469 
G01 X-36.6914 Y60.3830 
G01 X-36.4747 Y60.4473 
G01 X-36.2680 Y60.5389 
G01 X-36.0747 Y60.6560 
G01 X-35.8979 Y60.7970 
G01 X-35.7406 Y60.9594 
G01 X-35.6054 Y61.1406 
G01 X-35.4945 Y61.3375 
G01 X-35.4097 Y61.5471 
G01 X-35.3523 Y61.7658 
G01 X-35.3234 Y61.9900 
G01 X-35.3234 Y62.2160 
G01 X-35.3523 Y62.4402 
G01 X-35.4097 Y62.6589 
G01 X-35.4945 Y62.8685 
G01 X-35.6054 Y63.0654 
G01 X-35.7406 Y63.2466 
G01 X-35.8979 Y63.4090 
G01 X-36.0747 Y63.5500 
G01 X-36.2680 Y63.6671 
G01 X-36.4747 Y63.7587 
G01 X-36.6914 Y63.8230 
G01 X-36.9146 Y63.8591 
G01 X-37.1405 Y63.8663 
G01 X-37.3656 Y63.8446 
G01 X-37.5860 Y63.7943 
G01 X-37.7981 Y63.7162 
G01 X-37.9986 Y63.6117 
G01 X-38.1840 Y63.4823 
G01 X-38.3513 Y63.3303 
G01 X-38.4979 Y63.1582 
G01 X-38.6212 Y62.9687 
G01 X-38.7193 Y62.7650 
G01 X-38.7905 Y62.5505 
G01 X-38.8337 Y62.3286 
G01 X-38.8482 Y62.1030 
G01 X-38.8337 Y61.8774 
G01 X-38.7905 Y61.6555 
G01 X-38.7193 Y61.4410 
G01 X-38.6212 Y61.2373 
G01 X-38.4979 Y61.0478 
G01 X-38.3513 Y60.8757 
G00 Z2.0000 
G00 X-41.3528 Y60.1581 
G01 Z-0.0250 F254.00 
G01 X-41.3735 Y60.0810 F508.00 
G01 X-41.4134 Y60.0118 
G01 X-41.4698 Y59.9554 
G01 X-41.5390 Y59.9155 
G01 X-41.6161 Y59.8948 
G01 X-41.6959 Y59.8948 
G01 X-41.7730 Y59.9155 
G01 X-41.8422 Y59.9554 
G01 X-41.8986 Y60.0118 
G01 X-41.9385 Y60.0810 
G01 X-41.9592 Y60.1581 
G01 X-41.9592 Y64.0479 
G01 X-41.9385 Y64.1250 
G01 X-41.8986 Y64.1942 
G01 X-41.8422 Y64.2506 
G01 X-41.7730 Y64.2905 
G01 X-41.6959 Y64.3112 
G01 X-41.6161 Y64.3112 
G01 X-41.5390 Y64.2905 
G01 X-41.4698 Y64.2506 
G01 X-41.4134 Y64.1942 
G01 X-41.3735 Y64.1250 
G01 X-41.3528 Y64.0479 
G01 X-41.3528 Y60.1581 
G00 Z2.0000 
G00 X-32.1802 Y60.0311 
G01 Z-0.0250 F254.00 
G01 X-32.1802 Y63.5778 F508.00 
G01 X-33.5679 Y63.5778 
G01 X-33.6450 Y63.5985 
G01 X-33.7142 Y63.6384 
G01 X-33.7706 Y63.6948 
G01 X-33.8105 Y63.7640 
G01 X-33.8312 Y63.8411 
G01 X-33.8312 Y63.9209 
G01 X-33.8105 Y63.9980 
G01 X-33.7706 Y64.0672 
G01 X-33.7142 Y64.1236 
G01 X-33.6450 Y64.1635 
G01 X-33.5679 Y64.1842 
G01 X-30.1861 Y64.1842 
G01 X-30.1090 Y64.1635 
G01 X-30.0398 Y64.1236 
G01 X-29.9834 Y64.0672 
G01 X-29.9435 Y63.9980 
G01 X-29.9228 Y63.9209 
G01 X-29.9228 Y63.8411 
G01 X-29.9435 Y63.7640 
G01 X-29.9834 Y63.6948 
G01 X-30.0398 Y63.6384 
G01 X-30.1090 Y63.5985 
G01 X-30.1861 Y63.5778 
G01 X-31.5738 Y63.5778 
G01 X-31.5738 Y60.0311 
G01 X-31.5945 Y59.9540 
G01 X-31.6344 Y59.8848 
G01 X-31.6908 Y59.8284 
G01 X-31.7600 Y59.7885 
G01 X-31.8371 Y59.7678 
G01 X-31.9169 Y59.7678 
G01 X-31.9940 Y59.7885 
G01 X-32.0632 Y59.8284 
G01 X-32.1196 Y59.8848 
G01 X-32.1595 Y59.9540 
G01 X-32.1802 Y60.0311 
G00 Z2.0000 
G00 X-28.2532 Y60.0824 
G01 Z-0.0250 F254.00 
G01 X-28.3096 Y60.1388 F508.00 
G01 X-28.3495 Y60.2080 
G01 X-28.3702 Y60.2851 
G01 X-28.3702 Y63.9209 
G01 X-28.3495 Y63.9980 
G01 X-28.3096 Y64.0672 
G01 X-28.2532 Y64.1236 
G01 X-28.1840 Y64.1635 
G01 X-28.1069 Y64.1842 
G01 X-25.8681 Y64.1842 
G01 X-25.7910 Y64.1635 
G01 X-25.7218 Y64.1236 
G01 X-25.6654 Y64.0672 
G01 X-25.6255 Y63.9980 
G01 X-25.6048 Y63.9209 
G01 X-25.6048 Y63.8411 
G01 X-25.6255 Y63.7640 
G01 X-25.6654 Y63.6948 
G01 X-25.7218 Y63.6384 
G01 X-25.7910 Y63.5985 
G01 X-25.8681 Y63.5778 
G01 X-27.7638 Y63.5778 
G01 X-27.7638 Y62.5332 
G01 X-25.9951 Y62.5332 
G01 X-25.9180 Y62.5125 
G01 X-25.8488 Y62.4726 
G01 X-25.7924 Y62.4162 
G01 X-25.7525 Y62.3470 
G01 X-25.7318 Y62.2699 
G01 X-25.7318 Y62.1901 
G01 X-25.7525 Y62.1130 
G01 X-25.7924 Y62.0438 
G01 X-25.8488 Y61.9874 
G01 X-25.9180 Y61.9475 
G01 X-25.9951 Y61.9268 
G01 X-27.7638 Y61.9268 
G01 X-27.7638 Y60.6282 
G01 X-25.8681 Y60.6282 
G01 X-25.7910 Y60.6075 
G01 X-25.7218 Y60.5676 
G01 X-25.6654 Y60.5112 
G01 X-25.6255 Y60.4420 
G01 X-25.6048 Y60.3649 
G01 X-25.6048 Y60.2851 
G01 X-25.6255 Y60.2080 
G01 X-25.6654 Y60.1388 
G01 X-25.7218 Y60.0824 
G01 X-25.7910 Y60.0425 
G01 X-25.8681 Y60.0218 
G01 X-28.1069 Y60.0218 
G01 X-28.1840 Y60.0425 
G01 X-28.2532 Y60.0824 
G00 Z2.0000 
G00 X-23.5780 Y60.6368 
G01 Z-0.0250 F254.00 
G01 X-23.5780 Y60.6368 F508.00 
G01 X-23.7651 Y60.8754 
G01 X-23.9196 Y61.1363 
G01 X-24.0386 Y61.4151 
G01 X-24.1203 Y61.7070 
G01 X-24.1633 Y62.0072 
G01 X-24.1667 Y62.3103 
G01 X-24.1306 Y62.6113 
G01 X-24.0555 Y62.9051 
G01 X-23.9428 Y63.1865 
G01 X-23.7943 Y63.4509 
G01 X-23.6127 Y63.6936 
G01 X-23.4009 Y63.9106 
G01 X-23.1627 Y64.0981 
G01 X-22.9020 Y64.2529 
G01 X-22.6234 Y64.3724 
G01 X-22.3315 Y64.4546 
G01 X-22.0315 Y64.4980 
G01 X-21.7283 Y64.5019 
G01 X-21.4273 Y64.4662 
G01 X-21.1334 Y64.3916 
G01 X-20.8518 Y64.2794 
G01 X-20.5872 Y64.1313 
G01 X-20.3442 Y63.9500 
G01 X-20.2356 Y63.8443 
G01 X-20.2070 Y63.8165 
G01 X-20.1661 Y63.7479 
G01 X-20.1444 Y63.6711 
G01 X-20.1433 Y63.5912 
G01 X-20.1629 Y63.5138 
G01 X-20.2019 Y63.4442 
G01 X-20.2575 Y63.3870 
G01 X-20.3261 Y63.3461 
G01 X-20.4029 Y63.3244 
G01 X-20.4828 Y63.3233 
G01 X-20.5602 Y63.3429 
G01 X-20.6298 Y63.3819 
G01 X-20.6584 Y63.4097 
G01 X-20.7410 Y63.4849 
G01 X-20.9200 Y63.6184 
G01 X-21.1148 Y63.7275 
G01 X-21.3222 Y63.8102 
G01 X-21.5387 Y63.8651 
G01 X-21.7604 Y63.8914 
G01 X-21.9837 Y63.8885 
G01 X-22.2047 Y63.8565 
G01 X-22.4196 Y63.7960 
G01 X-22.6248 Y63.7080 
G01 X-22.8168 Y63.5939 
G01 X-22.9922 Y63.4559 
G01 X-23.1482 Y63.2961 
G01 X-23.2820 Y63.1173 
G01 X-23.3913 Y62.9226 
G01 X-23.4744 Y62.7153 
G01 X-23.5297 Y62.4990 
G01 X-23.5563 Y62.2773 
G01 X-23.5537 Y62.0540 
G01 X-23.5221 Y61.8330 
G01 X-23.4619 Y61.6180 
G01 X-23.3742 Y61.4126 
G01 X-23.2605 Y61.2205 
G01 X-23.1227 Y61.0448 
G01 X-22.9631 Y60.8886 
G01 X-22.7846 Y60.7545 
G01 X-22.5901 Y60.6448 
G01 X-22.3829 Y60.5615 
G01 X-22.1667 Y60.5059 
G01 X-21.9450 Y60.4789 
G01 X-21.7217 Y60.4811 
G01 X-21.5006 Y60.5124 
G01 X-21.2855 Y60.5722 
G01 X-21.0800 Y60.6596 
G01 X-20.9820 Y60.7132 
G01 X-20.9476 Y60.7334 
G01 X-20.8707 Y60.7548 
G01 X-20.7909 Y60.7556 
G01 X-20.7136 Y60.7356 
G01 X-20.6441 Y60.6963 
G01 X-20.5871 Y60.6404 
G01 X-20.5466 Y60.5716 
G01 X-20.5252 Y60.4947 
G01 X-20.5244 Y60.4149 
G01 X-20.5444 Y60.3376 
G01 X-20.5837 Y60.2681 
G01 X-20.6396 Y60.2111 
G01 X-20.6740 Y60.1908 
G01 X-20.8046 Y60.1138 
G01 X-21.0836 Y59.9952 
G01 X-21.3756 Y59.9139 
G01 X-21.6758 Y59.8715 
G01 X-21.9790 Y59.8685 
G01 X-22.2799 Y59.9051 
G01 X-22.5736 Y59.9806 
G01 X-22.8548 Y60.0938 
G01 X-23.1189 Y60.2427 
G01 X-23.3614 Y60.4247 
G01 X-23.5780 Y60.6368 
G00 Z2.0000 
G00 X-18.7182 Y60.0311 
G01 Z-0.0250 F254.00 
G01 X-18.7182 Y62.3969 F508.00 
G01 X-18.7182 Y64.0479 
G01 X-18.6975 Y64.1250 
G01 X-18.6576 Y64.1942 
G01 X-18.6012 Y64.2506 
G01 X-18.5320 Y64.2905 
G01 X-18.4549 Y64.3112 
G01 X-18.3751 Y64.3112 
G01 X-18.2980 Y64.2905 
G01 X-18.2288 Y64.2506 
G01 X-18.1724 Y64.1942 
G01 X-18.1325 Y64.1250 
G01 X-18.1118 Y64.0479 
G01 X-18.1118 Y62.6602 
G01 X-16.3052 Y62.6602 
G01 X-16.3052 Y64.0479 
G01 X-16.2845 Y64.1250 
G01 X-16.2446 Y64.1942 
G01 X-16.1882 Y64.2506 
G01 X-16.1190 Y64.2905 
G01 X-16.0419 Y64.3112 
G01 X-15.9621 Y64.3112 
G01 X-15.8850 Y64.2905 
G01 X-15.8158 Y64.2506 
G01 X-15.7594 Y64.1942 
G01 X-15.7195 Y64.1250 
G01 X-15.6988 Y64.0479 
G01 X-15.6988 Y60.0311 
G01 X-15.7195 Y59.9540 
G01 X-15.7594 Y59.8848 
G01 X-15.8158 Y59.8284 
G01 X-15.8850 Y59.7885 
G01 X-15.9621 Y59.7678 
G01 X-16.0419 Y59.7678 
G01 X-16.1190 Y59.7885 
G01 X-16.1882 Y59.8284 
G01 X-16.2446 Y59.8848 
G01 X-16.2845 Y59.9540 
G01 X-16.3052 Y60.0311 
G01 X-16.3052 Y62.0538 
G01 X-18.1118 Y62.0538 
G01 X-18.1118 Y60.0311 
G01 X-18.1325 Y59.9540 
G01 X-18.1724 Y59.8848 
G01 X-18.2288 Y59.8284 
G01 X-18.2980 Y59.7885 
G01 X-18.3751 Y59.7678 
G01 X-18.4549 Y59.7678 
G01 X-18.5320 Y59.7885 
G01 X-18.6012 Y59.8284 
G01 X-18.6576 Y59.8848 
G01 X-18.6975 Y59.9540 
G01 X-18.7182 Y60.0311 
G00 Z2.0000 
G00 X-18.7909 Y67.5008 
G01 Z-0.0250 F254.00 
G01 X-18.9629 Y67.4736 F508.00 
G01 X-19.1371 Y67.4736 
G01 X-19.3091 Y67.5008 
G01 X-19.4747 Y67.5547 
G01 X-19.6299 Y67.6337 
G01 X-19.7708 Y67.7361 
G01 X-19.8939 Y67.8592 
G01 X-19.9963 Y68.0001 
G01 X-20.0753 Y68.1553 
G01 X-20.1292 Y68.3209 
G01 X-20.1564 Y68.4929 
G01 X-20.1564 Y68.6671 
G01 X-20.1292 Y68.8391 
G01 X-20.0753 Y69.0047 
G01 X-19.9963 Y69.1599 
G01 X-19.8939 Y69.3008 
G01 X-19.7708 Y69.4239 
G01 X-19.6299 Y69.5263 
G01 X-19.4747 Y69.6053 
G01 X-19.3091 Y69.6592 
G01 X-19.1371 Y69.6864 
G01 X-18.9629 Y69.6864 
G01 X-18.7909 Y69.6592 
G01 X-18.6253 Y69.6053 
G01 X-18.4701 Y69.5263 
G01 X-18.3292 Y69.4239 
G01 X-18.2061 Y69.3008 
G01 X-18.1037 Y69.1599 
G01 X-18.0247 Y69.0047 
G01 X-17.9708 Y68.8391 
G01 X-17.9436 Y68.6671 
G01 X-17.9436 Y68.4929 
G01 X-17.9708 Y68.3209 
G01 X-18.0247 Y68.1553 
G01 X-18.1037 Y68.0001 
G01 X-18.2061 Y67.8592 
G01 X-18.3292 Y67.7361 
G01 X-18.4701 Y67.6337 
G01 X-18.6253 Y67.5547 
G01 X-18.7909 Y67.5008 
G00 Z2.0000 
G00 X-17.2308 Y67.7361 
G01 Z-0.0250 F254.00 
G01 X-17.3539 Y67.8592 F508.00 
G01 X-17.4563 Y68.0001 
G01 X-17.5353 Y68.1553 
G01 X-17.5892 Y68.3209 
G01 X-17.6164 Y68.4929 
G01 X-17.6164 Y68.6671 
G01 X-17.5892 Y68.8391 
G01 X-17.5353 Y69.0047 
G01 X-17.4563 Y69.1599 
G01 X-17.3539 Y69.3008 
G01 X-17.2308 Y69.4239 
G01 X-17.0899 Y69.5263 
G01 X-16.9347 Y69.6053 
G01 X-16.7691 Y69.6592 
G01 X-16.5971 Y69.6864 
G01 X-16.4229 Y69.6864 
G01 X-16.2509 Y69.6592 
G01 X-16.0853 Y69.6053 
G01 X-15.9301 Y69.5263 
G01 X-15.7892 Y69.4239 
G01 X-15.6661 Y69.3008 
G01 X-15.5637 Y69.1599 
G01 X-15.4847 Y69.0047 
G01 X-15.4308 Y68.8391 
G01 X-15.4036 Y68.6671 
G01 X-15.4036 Y68.4929 
G01 X-15.4308 Y68.3209 
G01 X-15.4847 Y68.1553 
G01 X-15.5637 Y68.0001 
G01 X-15.6661 Y67.8592 
G01 X-15.7892 Y67.7361 
G01 X-15.9301 Y67.6337 
G01 X-16.0853 Y67.5547 
G01 X-16.2509 Y67.5008 
G01 X-16.4229 Y67.4736 
G01 X-16.5971 Y67.4736 
G01 X-16.7691 Y67.5008 
G01 X-16.9347 Y67.5547 
G01 X-17.0899 Y67.6337 
G01 X-17.2308 Y67.7361 
G00 Z2.0000 
G00 X-20.7461 Y67.8592 
G01 Z-0.0250 F254.00 
G01 X-20.8692 Y67.7361 F508.00 
G01 X-21.0101 Y67.6337 
G01 X-21.1653 Y67.5547 
G01 X-21.3309 Y67.5008 
G01 X-21.5029 Y67.4736 
G01 X-21.6771 Y67.4736 
G01 X-21.8491 Y67.5008 
G01 X-22.0147 Y67.5547 
G01 X-22.1699 Y67.6337 
G01 X-22.3108 Y67.7361 
G01 X-22.4339 Y67.8592 
G01 X-22.5363 Y68.0001 
G01 X-22.6153 Y68.1553 
G01 X-22.6692 Y68.3209 
G01 X-22.6964 Y68.4929 
G01 X-22.6964 Y68.6671 
G01 X-22.6692 Y68.8391 
G01 X-22.6153 Y69.0047 
G01 X-22.5363 Y69.1599 
G01 X-22.4339 Y69.3008 
G01 X-22.3108 Y69.4239 
G01 X-22.1699 Y69.5263 
G01 X-22.0147 Y69.6053 
G01 X-21.8491 Y69.6592 
G01 X-21.6771 Y69.6864 
G01 X-21.5029 Y69.6864 
G01 X-21.3309 Y69.6592 
G01 X-21.1653 Y69.6053 
G01 X-21.0101 Y69.5263 
G01 X-20.8692 Y69.4239 
G01 X-20.7461 Y69.3008 
G01 X-20.6437 Y69.1599 
G01 X-20.5647 Y69.0047 
G01 X-20.5108 Y68.8391 
G01 X-20.4836 Y68.6671 
G01 X-20.4836 Y68.4929 
G01 X-20.5108 Y68.3209 
G01 X-20.5647 Y68.1553 
G01 X-20.6437 Y68.0001 
G01 X-20.7461 Y67.8592 
G00 Z2.0000 
G00 X-20.7461 Y72.9392 
G01 Z-0.0250 F254.00 
G01 X-20.8692 Y72.8161 F508.00 
G01 X-21.0101 Y72.7137 
G01 X-21.1653 Y72.6347 
G01 X-21.3309 Y72.5808 
G01 X-21.5029 Y72.5536 
G01 X-21.6771 Y72.5536 
G01 X-21.8491 Y72.5808 
G01 X-22.0147 Y72.6347 
G01 X-22.1699 Y72.7137 
G01 X-22.3108 Y72.8161 
G01 X-22.4339 Y72.9392 
G01 X-22.5363 Y73.0801 
G01 X-22.6153 Y73.2353 
G01 X-22.6692 Y73.4009 
G01 X-22.6964 Y73.5729 
G01 X-22.6964 Y73.7471 
G01 X-22.6692 Y73.9191 
G01 X-22.6153 Y74.0847 
G01 X-22.5363 Y74.2399 
G01 X-22.4339 Y74.3808 
G01 X-22.3108 Y74.5039 
G01 X-22.1699 Y74.6063 
G01 X-22.0147 Y74.6853 
G01 X-21.8491 Y74.7392 
G01 X-21.6771 Y74.7664 
G01 X-21.5029 Y74.7664 
G01 X-21.3309 Y74.7392 
G01 X-21.1653 Y74.6853 
G01 X-21.0101 Y74.6063 
G01 X-20.8692 Y74.5039 
G01 X-20.7461 Y74.3808 
G01 X-20.6437 Y74.2399 
G01 X-20.5647 Y74.0847 
G01 X-20.5108 Y73.9191 
G01 X-20.4836 Y73.7471 
G01 X-20.4836 Y73.5729 
G01 X-20.5108 Y73.4009 
G01 X-20.5647 Y73.2353 
G01 X-20.6437 Y73.0801 
G01 X-20.7461 Y72.9392 
G00 Z2.0000 
G00 X-19.8939 Y72.9392 
G01 Z-0.0250 F254.00 
G01 X-19.9963 Y73.0801 F508.00 
G01 X-20.0753 Y73.2353 
G01 X-20.1292 Y73.4009 
G01 X-20.1564 Y73.5729 
G01 X-20.1564 Y73.7471 
G01 X-20.1292 Y73.9191 
G01 X-20.0753 Y74.0847 
G01 X-19.9963 Y74.2399 
G01 X-19.8939 Y74.3808 
G01 X-19.7708 Y74.5039 
G01 X-19.6299 Y74.6063 
G01 X-19.4747 Y74.6853 
G01 X-19.3091 Y74.7392 
G01 X-19.1371 Y74.7664 
G01 X-18.9629 Y74.7664 
G01 X-18.7909 Y74.7392 
G01 X-18.6253 Y74.6853 
G01 X-18.4701 Y74.6063 
G01 X-18.3292 Y74.5039 
G01 X-18.2061 Y74.3808 
G01 X-18.1037 Y74.2399 
G01 X-18.0247 Y74.0847 
G01 X-17.9708 Y73.9191 
G01 X-17.9436 Y73.7471 
G01 X-17.9436 Y73.5729 
G01 X-17.9708 Y73.4009 
G01 X-18.0247 Y73.2353 
G01 X-18.1037 Y73.0801 
G01 X-18.2061 Y72.9392 
G01 X-18.3292 Y72.8161 
G01 X-18.4701 Y72.7137 
G01 X-18.6253 Y72.6347 
G01 X-18.7909 Y72.5808 
G01 X-18.9629 Y72.5536 
G01 X-19.1371 Y72.5536 
G01 X-19.3091 Y72.5808 
G01 X-19.4747 Y72.6347 
G01 X-19.6299 Y72.7137 
G01 X-19.7708 Y72.8161 
G01 X-19.8939 Y72.9392 
G00 Z2.0000 
G00 X-17.3539 Y72.9392 
G01 Z-0.0250 F254.00 
G01 X-17.4563 Y73.0801 F508.00 
G01 X-17.5353 Y73.2353 
G01 X-17.5892 Y73.4009 
G01 X-17.6164 Y73.5729 
G01 X-17.6164 Y73.7471 
G01 X-17.5892 Y73.9191 
G01 X-17.5353 Y74.0847 
G01 X-17.4563 Y74.2399 
G01 X-17.3539 Y74.3808 
G01 X-17.2308 Y74.5039 
G01 X-17.0899 Y74.6063 
G01 X-16.9347 Y74.6853 
G01 X-16.7691 Y74.7392 
G01 X-16.5971 Y74.7664 
G01 X-16.4229 Y74.7664 
G01 X-16.2509 Y74.7392 
G01 X-16.0853 Y74.6853 
G01 X-15.9301 Y74.6063 
G01 X-15.7892 Y74.5039 
G01 X-15.6661 Y74.3808 
G01 X-15.5637 Y74.2399 
G01 X-15.4847 Y74.0847 
G01 X-15.4308 Y73.9191 
G01 X-15.4036 Y73.7471 
G01 X-15.4036 Y73.5729 
G01 X-15.4308 Y73.4009 
G01 X-15.4847 Y73.2353 
G01 X-15.5637 Y73.0801 
G01 X-15.6661 Y72.9392 
G01 X-15.7892 Y72.8161 
G01 X-15.9301 Y72.7137 
G01 X-16.0853 Y72.6347 
G01 X-16.2509 Y72.5808 
G01 X-16.4229 Y72.5536 
G01 X-16.5971 Y72.5536 
G01 X-16.7691 Y72.5808 
G01 X-16.9347 Y72.6347 
G01 X-17.0899 Y72.7137 
G01 X-17.2308 Y72.8161 
G01 X-17.3539 Y72.9392 
G00 Z2.0000 
G00 X-26.5136 Y72.4745 
G01 Z-0.0250 F254.00 
G01 X-26.2553 Y72.1952 F508.00 
G01 X-26.0258 Y71.8918 
G01 X-25.8273 Y71.5673 
G01 X-25.6618 Y71.2247 
G01 X-25.5309 Y70.8675 
G01 X-25.4359 Y70.4992 
G01 X-25.3776 Y70.1232 
G01 X-25.3568 Y69.7434 
G01 X-25.3735 Y69.3633 
G01 X-25.4275 Y68.9867 
G01 X-25.5185 Y68.6173 
G01 X-25.6455 Y68.2587 
G01 X-25.8072 Y67.9144 
G01 X-26.0021 Y67.5876 
G01 X-26.2282 Y67.2817 
G01 X-26.3558 Y67.1407 
G01 X-26.3895 Y67.1034 
G01 X-26.4802 Y67.0604 
G01 X-26.5805 Y67.0554 
G01 X-26.6751 Y67.0891 
G01 X-26.7496 Y67.1565 
G01 X-26.7733 Y67.2066 
G01 X-26.8130 Y67.2230 
G01 X-28.4496 Y68.8597 
G01 X-28.4496 Y67.0058 
G01 X-28.4880 Y66.9130 
G01 X-28.5590 Y66.8420 
G01 X-28.6518 Y66.8036 
G01 X-28.7522 Y66.8036 
G01 X-28.8450 Y66.8420 
G01 X-28.9160 Y66.9130 
G01 X-28.9544 Y67.0058 
G01 X-28.9544 Y69.5192 
G01 X-28.9160 Y69.6120 
G01 X-28.8450 Y69.6830 
G01 X-28.7522 Y69.7214 
G01 X-28.6518 Y69.7214 
G01 X-28.5590 Y69.6830 
G01 X-26.5621 Y67.6861 
G01 X-26.4262 Y67.8699 
G01 X-26.2571 Y68.1534 
G01 X-26.1168 Y68.4522 
G01 X-26.0066 Y68.7634 
G01 X-25.9277 Y69.0840 
G01 X-25.8807 Y69.4108 
G01 X-25.8663 Y69.7405 
G01 X-25.8844 Y70.0702 
G01 X-25.9349 Y70.3964 
G01 X-26.0174 Y70.7161 
G01 X-26.1310 Y71.0260 
G01 X-26.2746 Y71.3233 
G01 X-26.4468 Y71.6049 
G01 X-26.6459 Y71.8682 
G01 X-26.8701 Y72.1105 
G01 X-27.1171 Y72.3296 
G01 X-27.3844 Y72.5232 
G01 X-27.6696 Y72.6895 
G01 X-27.9698 Y72.8269 
G01 X-28.2820 Y72.9340 
G01 X-28.6033 Y73.0098 
G01 X-28.9305 Y73.0536 
G01 X-29.2605 Y73.0648 
G01 X-29.5899 Y73.0435 
G01 X-29.7115 Y73.0234 
G01 X-29.6678 Y73.0234 
G01 X-29.5750 Y72.9850 
G01 X-29.5040 Y72.9140 
G01 X-29.4656 Y72.8212 
G01 X-29.4656 Y70.3078 
G01 X-29.5040 Y70.2150 
G01 X-29.5750 Y70.1440 
G01 X-29.6678 Y70.1056 
G01 X-29.7682 Y70.1056 
G01 X-29.8610 Y70.1440 
G01 X-31.7388 Y72.0219 
G01 X-31.8942 Y71.8277 
G01 X-32.0773 Y71.5455 
G01 X-32.2317 Y71.2466 
G01 X-32.3559 Y70.9339 
G01 X-32.4485 Y70.6105 
G01 X-32.5087 Y70.2795 
G01 X-32.5360 Y69.9442 
G01 X-32.5300 Y69.6078 
G01 X-32.4907 Y69.2737 
G01 X-32.4187 Y68.9451 
G01 X-32.3146 Y68.6252 
G01 X-32.1793 Y68.3172 
G01 X-32.0143 Y68.0240 
G01 X-31.8212 Y67.7485 
G01 X-31.6017 Y67.4935 
G01 X-31.3582 Y67.2614 
G01 X-31.0929 Y67.0545 
G01 X-30.8085 Y66.8748 
G01 X-30.5077 Y66.7241 
G01 X-30.1935 Y66.6039 
G01 X-29.8690 Y66.5152 
G01 X-29.5373 Y66.4591 
G01 X-29.2017 Y66.4360 
G01 X-28.8654 Y66.4462 
G01 X-28.5318 Y66.4895 
G01 X-28.2041 Y66.5656 
G01 X-27.8855 Y66.6737 
G01 X-27.5791 Y66.8127 
G01 X-27.4315 Y66.8934 
G01 X-27.3881 Y66.9186 
G01 X-27.2885 Y66.9318 
G01 X-27.1915 Y66.9060 
G01 X-27.1118 Y66.8449 
G01 X-27.0614 Y66.7581 
G01 X-27.0482 Y66.6585 
G01 X-27.0740 Y66.5615 
G01 X-27.1351 Y66.4818 
G01 X-27.1785 Y66.4566 
G01 X-27.3459 Y66.3597 
G01 X-27.6981 Y66.1998 
G01 X-28.0644 Y66.0755 
G01 X-28.4412 Y65.9880 
G01 X-28.8248 Y65.9382 
G01 X-29.2115 Y65.9265 
G01 X-29.5974 Y65.9531 
G01 X-29.9788 Y66.0176 
G01 X-30.3519 Y66.1195 
G01 X-30.7132 Y66.2578 
G01 X-31.0590 Y66.4311 
G01 X-31.3861 Y66.6377 
G01 X-31.6911 Y66.8756 
G01 X-31.9711 Y67.1425 
G01 X-32.2234 Y67.4357 
G01 X-32.4455 Y67.7524 
G01 X-32.6352 Y68.0895 
G01 X-32.7907 Y68.4437 
G01 X-32.9105 Y68.8115 
G01 X-32.9933 Y69.1894 
G01 X-33.0384 Y69.5735 
G01 X-33.0453 Y69.9603 
G01 X-33.0140 Y70.3458 
G01 X-32.9447 Y70.7264 
G01 X-32.8382 Y71.0983 
G01 X-32.6955 Y71.4578 
G01 X-32.5180 Y71.8015 
G01 X-32.3073 Y72.1259 
G01 X-32.0657 Y72.4280 
G01 X-31.9646 Y72.5316 
G01 X-31.9295 Y72.5675 
G01 X-31.8955 Y72.6023 
G01 X-31.8479 Y72.6227 
G01 X-31.8032 Y72.6418 
G01 X-31.8002 Y72.6424 
G01 X-31.7515 Y72.6424 
G01 X-31.7028 Y72.6430 
G01 X-31.6998 Y72.6424 
G01 X-31.6548 Y72.6238 
G01 X-31.6095 Y72.6056 
G01 X-31.5725 Y72.5695 
G01 X-31.5377 Y72.5355 
G01 X-29.9704 Y70.9673 
G01 X-29.9704 Y72.8212 
G01 X-29.9320 Y72.9140 
G01 X-29.8610 Y72.9850 
G01 X-29.8057 Y73.0079 
G01 X-29.9156 Y72.9897 
G01 X-30.2344 Y72.9041 
G01 X-30.5433 Y72.7875 
G01 X-30.8391 Y72.6410 
G01 X-30.9812 Y72.5570 
G01 X-31.0238 Y72.5304 
G01 X-31.1228 Y72.5138 
G01 X-31.2207 Y72.5363 
G01 X-31.3024 Y72.5946 
G01 X-31.3556 Y72.6798 
G01 X-31.3722 Y72.7788 
G01 X-31.3497 Y72.8767 
G01 X-31.2914 Y72.9584 
G01 X-31.2488 Y72.9850 
G01 X-31.0875 Y73.0858 
G01 X-30.7466 Y73.2547 
G01 X-30.3907 Y73.3891 
G01 X-30.0233 Y73.4877 
G01 X-29.6479 Y73.5496 
G01 X-29.2683 Y73.5742 
G01 X-28.8881 Y73.5613 
G01 X-28.5110 Y73.5109 
G01 X-28.1407 Y73.4235 
G01 X-27.7809 Y73.3001 
G01 X-27.4349 Y73.1418 
G01 X-27.1063 Y72.9501 
G01 X-26.7982 Y72.7270 
G01 X-26.5136 Y72.4745 
G00 Z2.0000 
G00 X-28.9576 Y72.8212 
G01 Z-0.0250 F254.00 
G01 X-28.9576 Y67.0058 F508.00 
G01 X-28.9960 Y66.9130 
G01 X-29.0670 Y66.8420 
G01 X-29.1598 Y66.8036 
G01 X-29.2602 Y66.8036 
G01 X-29.3530 Y66.8420 
G01 X-29.4240 Y66.9130 
G01 X-29.4624 Y67.0058 
G01 X-29.4624 Y72.8212 
G01 X-29.4240 Y72.9140 
G01 X-29.3530 Y72.9850 
G01 X-29.2602 Y73.0234 
G01 X-29.1598 Y73.0234 
G01 X-29.0670 Y72.9850 
G01 X-28.9960 Y72.9140 
G01 X-28.9576 Y72.8212 
G00 Z2.0000 
G00 X-39.9050 Y72.8295 
G01 Z-0.0250 F254.00 
G01 X-41.0795 Y71.6550 F508.00 
G01 X-42.7405 Y71.6550 
G01 X-43.9150 Y72.8295 
G01 X-43.9150 Y74.4905 
G01 X-42.7405 Y75.6650 
G01 X-41.0795 Y75.6650 
G01 X-39.9050 Y74.4905 
G01 X-39.9050 Y72.8295 
G00 Z2.0000 
G00 X-40.0069 Y35.3032 
G01 Z-0.0250 F254.00 
G01 X-39.8530 Y35.1914 F508.00 
G01 X-39.7186 Y35.0570 
G01 X-39.6068 Y34.9031 
G01 X-39.5205 Y34.7337 
G01 X-39.4617 Y34.5529 
G01 X-39.4320 Y34.3651 
G01 X-39.4320 Y34.1749 
G01 X-39.4617 Y33.9871 
G01 X-39.5205 Y33.8063 
G01 X-39.6068 Y33.6369 
G01 X-39.7186 Y33.4830 
G01 X-39.8530 Y33.3486 
G01 X-40.0069 Y33.2368 
G01 X-40.1763 Y33.1505 
G01 X-40.3571 Y33.0917 
G01 X-40.5449 Y33.0620 
G01 X-40.7351 Y33.0620 
G01 X-40.9229 Y33.0917 
G01 X-41.1037 Y33.1505 
G01 X-41.2731 Y33.2368 
G01 X-41.4270 Y33.3486 
G01 X-41.5614 Y33.4830 
G01 X-41.6732 Y33.6369 
G01 X-41.7595 Y33.8063 
G01 X-41.8183 Y33.9871 
G01 X-41.8480 Y34.1749 
G01 X-41.8480 Y34.3651 
G01 X-41.8183 Y34.5529 
G01 X-41.7595 Y34.7337 
G01 X-41.6732 Y34.9031 
G01 X-41.5614 Y35.0570 
G01 X-41.4270 Y35.1914 
G01 X-41.2731 Y35.3032 
G01 X-41.1037 Y35.3895 
G01 X-40.9229 Y35.4483 
G01 X-40.7351 Y35.4780 
G01 X-40.5449 Y35.4780 
G01 X-40.3571 Y35.4483 
G01 X-40.1763 Y35.3895 
G01 X-40.0069 Y35.3032 
G00 Z2.0000 
G00 X-40.0069 Y32.8032 
G01 Z-0.0250 F254.00 
G01 X-39.8530 Y32.6914 F508.00 
G01 X-39.7186 Y32.5570 
G01 X-39.6068 Y32.4031 
G01 X-39.5205 Y32.2337 
G01 X-39.4617 Y32.0529 
G01 X-39.4320 Y31.8651 
G01 X-39.4320 Y31.6749 
G01 X-39.4617 Y31.4871 
G01 X-39.5205 Y31.3063 
G01 X-39.6068 Y31.1369 
G01 X-39.7186 Y30.9830 
G01 X-39.8530 Y30.8486 
G01 X-40.0069 Y30.7368 
G01 X-40.1763 Y30.6505 
G01 X-40.3571 Y30.5917 
G01 X-40.5449 Y30.5620 
G01 X-40.7351 Y30.5620 
G01 X-40.9229 Y30.5917 
G01 X-41.1037 Y30.6505 
G01 X-41.2731 Y30.7368 
G01 X-41.4270 Y30.8486 
G01 X-41.5614 Y30.9830 
G01 X-41.6732 Y31.1369 
G01 X-41.7595 Y31.3063 
G01 X-41.8183 Y31.4871 
G01 X-41.8480 Y31.6749 
G01 X-41.8480 Y31.8651 
G01 X-41.8183 Y32.0529 
G01 X-41.7595 Y32.2337 
G01 X-41.6732 Y32.4031 
G01 X-41.5614 Y32.5570 
G01 X-41.4270 Y32.6914 
G01 X-41.2731 Y32.8032 
G01 X-41.1037 Y32.8895 
G01 X-40.9229 Y32.9483 
G01 X-40.7351 Y32.9780 
G01 X-40.5449 Y32.9780 
G01 X-40.3571 Y32.9483 
G01 X-40.1763 Y32.8895 
G01 X-40.0069 Y32.8032 
G00 Z2.0000 
G00 X-18.5150 Y35.9995 
G01 Z-0.0250 F254.00 
G01 X-18.5150 Y37.6605 F508.00 
G01 X-17.3405 Y38.8350 
G01 X-15.6795 Y38.8350 
G01 X-14.5050 Y37.6605 
G01 X-14.5050 Y35.9995 
G01 X-15.6795 Y34.8250 
G01 X-17.3405 Y34.8250 
G01 X-18.5150 Y35.9995 
G00 Z2.0000 
G00 X-8.4590 Y36.1134 
G01 Z-0.0250 F254.00 
G01 X-8.5608 Y36.2535 F508.00 
G01 X-8.6394 Y36.4077 
G01 X-8.6929 Y36.5724 
G01 X-8.7200 Y36.7434 
G01 X-8.7200 Y36.9166 
G01 X-8.6929 Y37.0876 
G01 X-8.6394 Y37.2523 
G01 X-8.5608 Y37.4065 
G01 X-8.4590 Y37.5466 
G01 X-8.3366 Y37.6690 
G01 X-8.1965 Y37.7708 
G01 X-8.0423 Y37.8494 
G01 X-7.8776 Y37.9029 
G01 X-7.7066 Y37.9300 
G01 X-7.5334 Y37.9300 
G01 X-7.3624 Y37.9029 
G01 X-7.1977 Y37.8494 
G01 X-7.0435 Y37.7708 
G01 X-6.9034 Y37.6690 
G01 X-6.7810 Y37.5466 
G01 X-6.6792 Y37.4065 
G01 X-6.6006 Y37.2523 
G01 X-6.5471 Y37.0876 
G01 X-6.5200 Y36.9166 
G01 X-6.5200 Y36.7434 
G01 X-6.5471 Y36.5724 
G01 X-6.6006 Y36.4077 
G01 X-6.6792 Y36.2535 
G01 X-6.7810 Y36.1134 
G01 X-6.9034 Y35.9910 
G01 X-7.0435 Y35.8892 
G01 X-7.1977 Y35.8106 
G01 X-7.3624 Y35.7571 
G01 X-7.5334 Y35.7300 
G01 X-7.7066 Y35.7300 
G01 X-7.8776 Y35.7571 
G01 X-8.0423 Y35.8106 
G01 X-8.1965 Y35.8892 
G01 X-8.3366 Y35.9910 
G01 X-8.4590 Y36.1134 
G00 Z2.0000 
G00 X-8.4590 Y35.0066 
G01 Z-0.0250 F254.00 
G01 X-8.3366 Y35.1290 F508.00 
G01 X-8.1965 Y35.2308 
G01 X-8.0423 Y35.3094 
G01 X-7.8776 Y35.3629 
G01 X-7.7066 Y35.3900 
G01 X-7.5334 Y35.3900 
G01 X-7.3624 Y35.3629 
G01 X-7.1977 Y35.3094 
G01 X-7.0435 Y35.2308 
G01 X-6.9034 Y35.1290 
G01 X-6.7810 Y35.0066 
G01 X-6.6792 Y34.8665 
G01 X-6.6006 Y34.7123 
G01 X-6.5471 Y34.5476 
G01 X-6.5200 Y34.3766 
G01 X-6.5200 Y34.2034 
G01 X-6.5471 Y34.0324 
G01 X-6.6006 Y33.8677 
G01 X-6.6792 Y33.7135 
G01 X-6.7810 Y33.5734 
G01 X-6.9034 Y33.4510 
G01 X-7.0435 Y33.3492 
G01 X-7.1977 Y33.2706 
G01 X-7.3624 Y33.2171 
G01 X-7.5334 Y33.1900 
G01 X-7.7066 Y33.1900 
G01 X-7.8776 Y33.2171 
G01 X-8.0423 Y33.2706 
G01 X-8.1965 Y33.3492 
G01 X-8.3366 Y33.4510 
G01 X-8.4590 Y33.5734 
G01 X-8.5608 Y33.7135 
G01 X-8.6394 Y33.8677 
G01 X-8.6929 Y34.0324 
G01 X-8.7200 Y34.2034 
G01 X-8.7200 Y34.3766 
G01 X-8.6929 Y34.5476 
G01 X-8.6394 Y34.7123 
G01 X-8.5608 Y34.8665 
G01 X-8.4590 Y35.0066 
G00 Z2.0000 
G00 X-8.4590 Y32.4666 
G01 Z-0.0250 F254.00 
G01 X-8.3366 Y32.5890 F508.00 
G01 X-8.1965 Y32.6908 
G01 X-8.0423 Y32.7694 
G01 X-7.8776 Y32.8229 
G01 X-7.7066 Y32.8500 
G01 X-7.5334 Y32.8500 
G01 X-7.3624 Y32.8229 
G01 X-7.1977 Y32.7694 
G01 X-7.0435 Y32.6908 
G01 X-6.9034 Y32.5890 
G01 X-6.7810 Y32.4666 
G01 X-6.6792 Y32.3265 
G01 X-6.6006 Y32.1723 
G01 X-6.5471 Y32.0076 
G01 X-6.5200 Y31.8366 
G01 X-6.5200 Y31.6634 
G01 X-6.5471 Y31.4924 
G01 X-6.6006 Y31.3277 
G01 X-6.6792 Y31.1735 
G01 X-6.7810 Y31.0334 
G01 X-6.9034 Y30.9110 
G01 X-7.0435 Y30.8092 
G01 X-7.1977 Y30.7306 
G01 X-7.3624 Y30.6771 
G01 X-7.5334 Y30.6500 
G01 X-7.7066 Y30.6500 
G01 X-7.8776 Y30.6771 
G01 X-8.0423 Y30.7306 
G01 X-8.1965 Y30.8092 
G01 X-8.3366 Y30.9110 
G01 X-8.4590 Y31.0334 
G01 X-8.5608 Y31.1735 
G01 X-8.6394 Y31.3277 
G01 X-8.6929 Y31.4924 
G01 X-8.7200 Y31.6634 
G01 X-8.7200 Y31.8366 
G01 X-8.6929 Y32.0076 
G01 X-8.6394 Y32.1723 
G01 X-8.5608 Y32.3265 
G01 X-8.4590 Y32.4666 
G00 Z2.0000 
G00 X-8.4590 Y29.9266 
G01 Z-0.0250 F254.00 
G01 X-8.3366 Y30.0490 F508.00 
G01 X-8.1965 Y30.1508 
G01 X-8.0423 Y30.2294 
G01 X-7.8776 Y30.2829 
G01 X-7.7066 Y30.3100 
G01 X-7.5334 Y30.3100 
G01 X-7.3624 Y30.2829 
G01 X-7.1977 Y30.2294 
G01 X-7.0435 Y30.1508 
G01 X-6.9034 Y30.0490 
G01 X-6.7810 Y29.9266 
G01 X-6.6792 Y29.7865 
G01 X-6.6006 Y29.6323 
G01 X-6.5471 Y29.4676 
G01 X-6.5200 Y29.2966 
G01 X-6.5200 Y29.1234 
G01 X-6.5471 Y28.9524 
G01 X-6.6006 Y28.7877 
G01 X-6.6792 Y28.6335 
G01 X-6.7810 Y28.4934 
G01 X-6.9034 Y28.3710 
G01 X-7.0435 Y28.2692 
G01 X-7.1977 Y28.1906 
G01 X-7.3624 Y28.1371 
G01 X-7.5334 Y28.1100 
G01 X-7.7066 Y28.1100 
G01 X-7.8776 Y28.1371 
G01 X-8.0423 Y28.1906 
G01 X-8.1965 Y28.2692 
G01 X-8.3366 Y28.3710 
G01 X-8.4590 Y28.4934 
G01 X-8.5608 Y28.6335 
G01 X-8.6394 Y28.7877 
G01 X-8.6929 Y28.9524 
G01 X-8.7200 Y29.1234 
G01 X-8.7200 Y29.2966 
G01 X-8.6929 Y29.4676 
G01 X-8.6394 Y29.6323 
G01 X-8.5608 Y29.7865 
G01 X-8.4590 Y29.9266 
G00 Z2.0000 
G00 X-8.4590 Y27.3866 
G01 Z-0.0250 F254.00 
G01 X-8.3366 Y27.5090 F508.00 
G01 X-8.1965 Y27.6108 
G01 X-8.0423 Y27.6894 
G01 X-7.8776 Y27.7429 
G01 X-7.7066 Y27.7700 
G01 X-7.5334 Y27.7700 
G01 X-7.3624 Y27.7429 
G01 X-7.1977 Y27.6894 
G01 X-7.0435 Y27.6108 
G01 X-6.9034 Y27.5090 
G01 X-6.7810 Y27.3866 
G01 X-6.6792 Y27.2465 
G01 X-6.6006 Y27.0923 
G01 X-6.5471 Y26.9276 
G01 X-6.5200 Y26.7566 
G01 X-6.5200 Y26.5834 
G01 X-6.5471 Y26.4124 
G01 X-6.6006 Y26.2477 
G01 X-6.6792 Y26.0935 
G01 X-6.7810 Y25.9534 
G01 X-6.9034 Y25.8310 
G01 X-7.0435 Y25.7292 
G01 X-7.1977 Y25.6506 
G01 X-7.3624 Y25.5971 
G01 X-7.5334 Y25.5700 
G01 X-7.7066 Y25.5700 
G01 X-7.8776 Y25.5971 
G01 X-8.0423 Y25.6506 
G01 X-8.1965 Y25.7292 
G01 X-8.3366 Y25.8310 
G01 X-8.4590 Y25.9534 
G01 X-8.5608 Y26.0935 
G01 X-8.6394 Y26.2477 
G01 X-8.6929 Y26.4124 
G01 X-8.7200 Y26.5834 
G01 X-8.7200 Y26.7566 
G01 X-8.6929 Y26.9276 
G01 X-8.6394 Y27.0923 
G01 X-8.5608 Y27.2465 
G01 X-8.4590 Y27.3866 
G00 Z2.0000 
G00 X-8.4590 Y24.8466 
G01 Z-0.0250 F254.00 
G01 X-8.3366 Y24.9690 F508.00 
G01 X-8.1965 Y25.0708 
G01 X-8.0423 Y25.1494 
G01 X-7.8776 Y25.2029 
G01 X-7.7066 Y25.2300 
G01 X-7.5334 Y25.2300 
G01 X-7.3624 Y25.2029 
G01 X-7.1977 Y25.1494 
G01 X-7.0435 Y25.0708 
G01 X-6.9034 Y24.9690 
G01 X-6.7810 Y24.8466 
G01 X-6.6792 Y24.7065 
G01 X-6.6006 Y24.5523 
G01 X-6.5471 Y24.3876 
G01 X-6.5200 Y24.2166 
G01 X-6.5200 Y24.0434 
G01 X-6.5471 Y23.8724 
G01 X-6.6006 Y23.7077 
G01 X-6.6792 Y23.5535 
G01 X-6.7810 Y23.4134 
G01 X-6.9034 Y23.2910 
G01 X-7.0435 Y23.1892 
G01 X-7.1977 Y23.1106 
G01 X-7.3624 Y23.0571 
G01 X-7.5334 Y23.0300 
G01 X-7.7066 Y23.0300 
G01 X-7.8776 Y23.0571 
G01 X-8.0423 Y23.1106 
G01 X-8.1965 Y23.1892 
G01 X-8.3366 Y23.2910 
G01 X-8.4590 Y23.4134 
G01 X-8.5608 Y23.5535 
G01 X-8.6394 Y23.7077 
G01 X-8.6929 Y23.8724 
G01 X-8.7200 Y24.0434 
G01 X-8.7200 Y24.2166 
G01 X-8.6929 Y24.3876 
G01 X-8.6394 Y24.5523 
G01 X-8.5608 Y24.7065 
G01 X-8.4590 Y24.8466 
G00 Z2.0000 
G00 X-8.4590 Y22.3066 
G01 Z-0.0250 F254.00 
G01 X-8.3366 Y22.4290 F508.00 
G01 X-8.1965 Y22.5308 
G01 X-8.0423 Y22.6094 
G01 X-7.8776 Y22.6629 
G01 X-7.7066 Y22.6900 
G01 X-7.5334 Y22.6900 
G01 X-7.3624 Y22.6629 
G01 X-7.1977 Y22.6094 
G01 X-7.0435 Y22.5308 
G01 X-6.9034 Y22.4290 
G01 X-6.7810 Y22.3066 
G01 X-6.6792 Y22.1665 
G01 X-6.6006 Y22.0123 
G01 X-6.5471 Y21.8476 
G01 X-6.5200 Y21.6766 
G01 X-6.5200 Y21.5034 
G01 X-6.5471 Y21.3324 
G01 X-6.6006 Y21.1677 
G01 X-6.6792 Y21.0135 
G01 X-6.7810 Y20.8734 
G01 X-6.9034 Y20.7510 
G01 X-7.0435 Y20.6492 
G01 X-7.1977 Y20.5706 
G01 X-7.3624 Y20.5171 
G01 X-7.5334 Y20.4900 
G01 X-7.7066 Y20.4900 
G01 X-7.8776 Y20.5171 
G01 X-8.0423 Y20.5706 
G01 X-8.1965 Y20.6492 
G01 X-8.3366 Y20.7510 
G01 X-8.4590 Y20.8734 
G01 X-8.5608 Y21.0135 
G01 X-8.6394 Y21.1677 
G01 X-8.6929 Y21.3324 
G01 X-8.7200 Y21.5034 
G01 X-8.7200 Y21.6766 
G01 X-8.6929 Y21.8476 
G01 X-8.6394 Y22.0123 
G01 X-8.5608 Y22.1665 
G01 X-8.4590 Y22.3066 
G00 Z2.0000 
G00 X-8.4590 Y19.7666 
G01 Z-0.0250 F254.00 
G01 X-8.3366 Y19.8890 F508.00 
G01 X-8.1965 Y19.9908 
G01 X-8.0423 Y20.0694 
G01 X-7.8776 Y20.1229 
G01 X-7.7066 Y20.1500 
G01 X-7.5334 Y20.1500 
G01 X-7.3624 Y20.1229 
G01 X-7.1977 Y20.0694 
G01 X-7.0435 Y19.9908 
G01 X-6.9034 Y19.8890 
G01 X-6.7810 Y19.7666 
G01 X-6.6792 Y19.6265 
G01 X-6.6006 Y19.4723 
G01 X-6.5471 Y19.3076 
G01 X-6.5200 Y19.1366 
G01 X-6.5200 Y18.9634 
G01 X-6.5471 Y18.7924 
G01 X-6.6006 Y18.6277 
G01 X-6.6792 Y18.4735 
G01 X-6.7810 Y18.3334 
G01 X-6.9034 Y18.2110 
G01 X-7.0435 Y18.1092 
G01 X-7.1977 Y18.0306 
G01 X-7.3624 Y17.9771 
G01 X-7.5334 Y17.9500 
G01 X-7.7066 Y17.9500 
G01 X-7.8776 Y17.9771 
G01 X-8.0423 Y18.0306 
G01 X-8.1965 Y18.1092 
G01 X-8.3366 Y18.2110 
G01 X-8.4590 Y18.3334 
G01 X-8.5608 Y18.4735 
G01 X-8.6394 Y18.6277 
G01 X-8.6629 Y18.7000 
G01 X-10.4658 Y18.7000 
G01 X-10.5930 Y18.7341 
G01 X-10.7070 Y18.7999 
G01 X-11.5626 Y19.6555 
G01 X-11.5738 Y19.6284 
G01 X-11.6020 Y19.6002 
G01 X-11.6387 Y19.5850 
G01 X-13.7613 Y19.5850 
G01 X-13.7980 Y19.6002 
G01 X-13.8262 Y19.6284 
G01 X-13.8414 Y19.6651 
G01 X-13.8414 Y21.9343 
G01 X-14.4001 Y22.4930 
G01 X-14.4659 Y22.6070 
G01 X-14.5000 Y22.7342 
G01 X-14.5000 Y25.9700 
G01 X-14.7599 Y25.9700 
G01 X-14.7966 Y25.9852 
G01 X-14.8248 Y26.0134 
G01 X-14.8400 Y26.0501 
G01 X-14.8400 Y26.6414 
G01 X-14.8442 Y26.6784 
G01 X-14.8400 Y26.7070 
G01 X-14.8400 Y27.2899 
G01 X-14.8248 Y27.3266 
G01 X-14.7966 Y27.3548 
G01 X-14.7599 Y27.3700 
G01 X-13.9201 Y27.3700 
G01 X-13.8834 Y27.3548 
G01 X-13.8552 Y27.3266 
G01 X-13.8400 Y27.2899 
G01 X-13.8400 Y26.9114 
G01 X-13.7180 Y26.8145 
G01 X-13.6930 Y26.8001 
G01 X-13.6667 Y26.7738 
G01 X-13.6375 Y26.7506 
G01 X-13.6203 Y26.7274 
G01 X-13.5999 Y26.7070 
G01 X-13.5813 Y26.6748 
G01 X-13.5591 Y26.6449 
G01 X-13.5485 Y26.6180 
G01 X-13.5341 Y26.5930 
G01 X-13.5244 Y26.5570 
G01 X-13.5108 Y26.5224 
G01 X-13.5075 Y26.4937 
G01 X-13.5000 Y26.4658 
G01 X-13.5000 Y26.4286 
G01 X-13.4958 Y26.3916 
G01 X-13.5000 Y26.3631 
G01 X-13.5000 Y23.5950 
G01 X-11.6387 Y23.5950 
G01 X-11.6020 Y23.5798 
G01 X-11.5738 Y23.5516 
G01 X-11.5586 Y23.5149 
G01 X-11.5586 Y21.0657 
G01 X-10.1929 Y19.7000 
G01 X-8.5074 Y19.7000 
G01 X-8.4590 Y19.7666 
G00 Z2.0000 
G00 X-8.3366 Y41.0710 
G01 Z-0.0250 F254.00 
G01 X-8.4590 Y41.1934 F508.00 
G01 X-8.5608 Y41.3335 
G01 X-8.6394 Y41.4877 
G01 X-8.6929 Y41.6524 
G01 X-8.7200 Y41.8234 
G01 X-8.7200 Y41.9966 
G01 X-8.6929 Y42.1676 
G01 X-8.6394 Y42.3323 
G01 X-8.5608 Y42.4865 
G01 X-8.4590 Y42.6266 
G01 X-8.3366 Y42.7490 
G01 X-8.1965 Y42.8508 
G01 X-8.0423 Y42.9294 
G01 X-7.8776 Y42.9829 
G01 X-7.7066 Y43.0100 
G01 X-7.5334 Y43.0100 
G01 X-7.3624 Y42.9829 
G01 X-7.1977 Y42.9294 
G01 X-7.0435 Y42.8508 
G01 X-6.9034 Y42.7490 
G01 X-6.7810 Y42.6266 
G01 X-6.6792 Y42.4865 
G01 X-6.6006 Y42.3323 
G01 X-6.5471 Y42.1676 
G01 X-6.5200 Y41.9966 
G01 X-6.5200 Y41.8234 
G01 X-6.5471 Y41.6524 
G01 X-6.6006 Y41.4877 
G01 X-6.6792 Y41.3335 
G01 X-6.7810 Y41.1934 
G01 X-6.9034 Y41.0710 
G01 X-7.0435 Y40.9692 
G01 X-7.1977 Y40.8906 
G01 X-7.3624 Y40.8371 
G01 X-7.5334 Y40.8100 
G01 X-7.7066 Y40.8100 
G01 X-7.8776 Y40.8371 
G01 X-8.0423 Y40.8906 
G01 X-8.1965 Y40.9692 
G01 X-8.3366 Y41.0710 
G00 Z2.0000 
G00 X-8.3366 Y43.6110 
G01 Z-0.0250 F254.00 
G01 X-8.4590 Y43.7334 F508.00 
G01 X-8.5608 Y43.8735 
G01 X-8.6394 Y44.0277 
G01 X-8.6929 Y44.1924 
G01 X-8.7200 Y44.3634 
G01 X-8.7200 Y44.5366 
G01 X-8.6929 Y44.7076 
G01 X-8.6394 Y44.8723 
G01 X-8.5608 Y45.0265 
G01 X-8.4590 Y45.1666 
G01 X-8.3366 Y45.2890 
G01 X-8.1965 Y45.3908 
G01 X-8.0423 Y45.4694 
G01 X-7.8776 Y45.5229 
G01 X-7.7066 Y45.5500 
G01 X-7.5334 Y45.5500 
G01 X-7.3624 Y45.5229 
G01 X-7.1977 Y45.4694 
G01 X-7.0435 Y45.3908 
G01 X-6.9034 Y45.2890 
G01 X-6.7810 Y45.1666 
G01 X-6.6792 Y45.0265 
G01 X-6.6006 Y44.8723 
G01 X-6.5471 Y44.7076 
G01 X-6.5200 Y44.5366 
G01 X-6.5200 Y44.3634 
G01 X-6.5471 Y44.1924 
G01 X-6.6006 Y44.0277 
G01 X-6.6792 Y43.8735 
G01 X-6.7810 Y43.7334 
G01 X-6.9034 Y43.6110 
G01 X-7.0435 Y43.5092 
G01 X-7.1977 Y43.4306 
G01 X-7.3624 Y43.3771 
G01 X-7.5334 Y43.3500 
G01 X-7.7066 Y43.3500 
G01 X-7.8776 Y43.3771 
G01 X-8.0423 Y43.4306 
G01 X-8.1965 Y43.5092 
G01 X-8.3366 Y43.6110 
G00 Z2.0000 
G00 X-8.3366 Y46.1510 
G01 Z-0.0250 F254.00 
G01 X-8.4590 Y46.2734 F508.00 
G01 X-8.5608 Y46.4135 
G01 X-8.6394 Y46.5677 
G01 X-8.6929 Y46.7324 
G01 X-8.7200 Y46.9034 
G01 X-8.7200 Y47.0766 
G01 X-8.6929 Y47.2476 
G01 X-8.6394 Y47.4123 
G01 X-8.5608 Y47.5665 
G01 X-8.4590 Y47.7066 
G01 X-8.3366 Y47.8290 
G01 X-8.1965 Y47.9308 
G01 X-8.0423 Y48.0094 
G01 X-7.8776 Y48.0629 
G01 X-7.7066 Y48.0900 
G01 X-7.5334 Y48.0900 
G01 X-7.3624 Y48.0629 
G01 X-7.1977 Y48.0094 
G01 X-7.0435 Y47.9308 
G01 X-6.9034 Y47.8290 
G01 X-6.7810 Y47.7066 
G01 X-6.6792 Y47.5665 
G01 X-6.6006 Y47.4123 
G01 X-6.5471 Y47.2476 
G01 X-6.5200 Y47.0766 
G01 X-6.5200 Y46.9034 
G01 X-6.5471 Y46.7324 
G01 X-6.6006 Y46.5677 
G01 X-6.6792 Y46.4135 
G01 X-6.7810 Y46.2734 
G01 X-6.9034 Y46.1510 
G01 X-7.0435 Y46.0492 
G01 X-7.1977 Y45.9706 
G01 X-7.3624 Y45.9171 
G01 X-7.5334 Y45.8900 
G01 X-7.7066 Y45.8900 
G01 X-7.8776 Y45.9171 
G01 X-8.0423 Y45.9706 
G01 X-8.1965 Y46.0492 
G01 X-8.3366 Y46.1510 
G00 Z2.0000 
G00 X-41.0795 Y5.8150 
G01 Z-0.0250 F254.00 
G01 X-39.9050 Y4.6405 F508.00 
G01 X-39.9050 Y2.9795 
G01 X-41.0795 Y1.8050 
G01 X-42.7405 Y1.8050 
G01 X-43.9150 Y2.9795 
G01 X-43.9150 Y4.6405 
G01 X-42.7405 Y5.8150 
G01 X-41.0795 Y5.8150 
G00 Z2.0000 
G00 X-3.9915 Y1.5886 
G01 Z-0.0250 F254.00 
G01 X-4.1540 Y1.4261 F508.00 
G01 X-4.3400 Y1.2910 
G01 X-4.5448 Y1.1866 
G01 X-4.7634 Y1.1156 
G01 X-4.9905 Y1.0796 
G01 X-5.2203 Y1.0796 
G01 X-5.4474 Y1.1156 
G01 X-5.6660 Y1.1866 
G01 X-5.8708 Y1.2910 
G01 X-6.0568 Y1.4261 
G01 X-6.2193 Y1.5886 
G01 X-6.3544 Y1.7746 
G01 X-6.4588 Y1.9794 
G01 X-6.5298 Y2.1980 
G01 X-6.5658 Y2.4251 
G01 X-6.5658 Y2.6549 
G01 X-6.5298 Y2.8820 
G01 X-6.4588 Y3.1006 
G01 X-6.3544 Y3.3054 
G01 X-6.2193 Y3.4914 
G01 X-6.0568 Y3.6539 
G01 X-5.8708 Y3.7890 
G01 X-5.6660 Y3.8934 
G01 X-5.4474 Y3.9644 
G01 X-5.2203 Y4.0004 
G01 X-4.9905 Y4.0004 
G01 X-4.7634 Y3.9644 
G01 X-4.5448 Y3.8934 
G01 X-4.3400 Y3.7890 
G01 X-4.1540 Y3.6539 
G01 X-3.9915 Y3.4914 
G01 X-3.8564 Y3.3054 
G01 X-3.7520 Y3.1006 
G01 X-3.6810 Y2.8820 
G01 X-3.6450 Y2.6549 
G01 X-3.6450 Y2.4251 
G01 X-3.6810 Y2.1980 
G01 X-3.7520 Y1.9794 
G01 X-3.8564 Y1.7746 
G01 X-3.9915 Y1.5886 
G00 Z2.0000 
G00 X-8.9953 Y1.5886 
G01 Z-0.0250 F254.00 
G01 X-9.1578 Y1.4261 F508.00 
G01 X-9.3438 Y1.2910 
G01 X-9.5486 Y1.1866 
G01 X-9.7672 Y1.1156 
G01 X-9.9943 Y1.0796 
G01 X-10.2241 Y1.0796 
G01 X-10.4512 Y1.1156 
G01 X-10.6698 Y1.1866 
G01 X-10.8746 Y1.2910 
G01 X-11.0606 Y1.4261 
G01 X-11.2231 Y1.5886 
G01 X-11.3582 Y1.7746 
G01 X-11.4626 Y1.9794 
G01 X-11.5336 Y2.1980 
G01 X-11.5696 Y2.4251 
G01 X-11.5696 Y2.6549 
G01 X-11.5336 Y2.8820 
G01 X-11.4626 Y3.1006 
G01 X-11.3582 Y3.3054 
G01 X-11.2231 Y3.4914 
G01 X-11.0606 Y3.6539 
G01 X-11.0000 Y3.6979 
G01 X-11.0000 Y4.9515 
G01 X-11.5635 Y5.5150 
G01 X-20.9948 Y5.5150 
G01 X-21.0683 Y5.5454 
G01 X-21.1245 Y5.6017 
G01 X-21.1550 Y5.6752 
G01 X-21.1550 Y14.6448 
G01 X-21.1245 Y14.7183 
G01 X-21.0683 Y14.7746 
G01 X-20.9948 Y14.8050 
G01 X-9.4852 Y14.8050 
G01 X-9.4117 Y14.7746 
G01 X-9.3554 Y14.7183 
G01 X-9.3250 Y14.6448 
G01 X-9.3250 Y5.6752 
G01 X-9.3554 Y5.6017 
G01 X-9.4117 Y5.5454 
G01 X-9.4852 Y5.5150 
G01 X-9.8889 Y5.5150 
G01 X-9.8683 Y5.4842 
G01 X-9.8231 Y5.3750 
G01 X-9.8000 Y5.2591 
G01 X-9.8000 Y3.9696 
G01 X-9.7672 Y3.9644 
G01 X-9.5486 Y3.8934 
G01 X-9.3438 Y3.7890 
G01 X-9.1578 Y3.6539 
G01 X-8.9953 Y3.4914 
G01 X-8.8602 Y3.3054 
G01 X-8.7558 Y3.1006 
G01 X-8.6848 Y2.8820 
G01 X-8.6488 Y2.6549 
G01 X-8.6488 Y2.4251 
G01 X-8.6848 Y2.1980 
G01 X-8.7558 Y1.9794 
G01 X-8.8602 Y1.7746 
G01 X-8.9953 Y1.5886 
G00 Z2.0000 
G00 X-15.4215 Y1.5886 
G01 Z-0.0250 F254.00 
G01 X-15.5840 Y1.4261 F508.00 
G01 X-15.7700 Y1.2910 
G01 X-15.9748 Y1.1866 
G01 X-16.1934 Y1.1156 
G01 X-16.4205 Y1.0796 
G01 X-16.6503 Y1.0796 
G01 X-16.8774 Y1.1156 
G01 X-17.0960 Y1.1866 
G01 X-17.3008 Y1.2910 
G01 X-17.4868 Y1.4261 
G01 X-17.6493 Y1.5886 
G01 X-17.7844 Y1.7746 
G01 X-17.8888 Y1.9794 
G01 X-17.9598 Y2.1980 
G01 X-17.9958 Y2.4251 
G01 X-17.9958 Y2.6549 
G01 X-17.9598 Y2.8820 
G01 X-17.8888 Y3.1006 
G01 X-17.7844 Y3.3054 
G01 X-17.6493 Y3.4914 
G01 X-17.4868 Y3.6539 
G01 X-17.3008 Y3.7890 
G01 X-17.0960 Y3.8934 
G01 X-16.8774 Y3.9644 
G01 X-16.6503 Y4.0004 
G01 X-16.4205 Y4.0004 
G01 X-16.1934 Y3.9644 
G01 X-15.9748 Y3.8934 
G01 X-15.7700 Y3.7890 
G01 X-15.5840 Y3.6539 
G01 X-15.4215 Y3.4914 
G01 X-15.2864 Y3.3054 
G01 X-15.1820 Y3.1006 
G01 X-15.1110 Y2.8820 
G01 X-15.0750 Y2.6549 
G01 X-15.0750 Y2.4251 
G01 X-15.1110 Y2.1980 
G01 X-15.1820 Y1.9794 
G01 X-15.2864 Y1.7746 
G01 X-15.4215 Y1.5886 
G00 Z2.0000 
G00 X-20.4253 Y1.5886 
G01 Z-0.0250 F254.00 
G01 X-20.5878 Y1.4261 F508.00 
G01 X-20.7738 Y1.2910 
G01 X-20.9786 Y1.1866 
G01 X-21.1972 Y1.1156 
G01 X-21.4243 Y1.0796 
G01 X-21.6541 Y1.0796 
G01 X-21.8812 Y1.1156 
G01 X-22.0998 Y1.1866 
G01 X-22.3046 Y1.2910 
G01 X-22.4906 Y1.4261 
G01 X-22.6531 Y1.5886 
G01 X-22.7882 Y1.7746 
G01 X-22.8926 Y1.9794 
G01 X-22.9636 Y2.1980 
G01 X-22.9996 Y2.4251 
G01 X-22.9996 Y2.6549 
G01 X-22.9636 Y2.8820 
G01 X-22.8926 Y3.1006 
G01 X-22.7882 Y3.3054 
G01 X-22.6531 Y3.4914 
G01 X-22.4906 Y3.6539 
G01 X-22.3046 Y3.7890 
G01 X-22.0998 Y3.8934 
G01 X-21.8812 Y3.9644 
G01 X-21.6541 Y4.0004 
G01 X-21.4243 Y4.0004 
G01 X-21.1972 Y3.9644 
G01 X-20.9786 Y3.8934 
G01 X-20.7738 Y3.7890 
G01 X-20.5878 Y3.6539 
G01 X-20.4253 Y3.4914 
G01 X-20.2902 Y3.3054 
G01 X-20.1858 Y3.1006 
G01 X-20.1148 Y2.8820 
G01 X-20.0788 Y2.6549 
G01 X-20.0788 Y2.4251 
G01 X-20.1148 Y2.1980 
G01 X-20.1858 Y1.9794 
G01 X-20.2902 Y1.7746 
G01 X-20.4253 Y1.5886 
G00 Z2.0000 
G00 X-21.2175 Y16.3340 
G01 Z-0.0250 F254.00 
G01 X-21.3158 Y16.2683 F508.00 
G01 X-21.4250 Y16.2231 
G01 X-21.5409 Y16.2000 
G01 X-24.0591 Y16.2000 
G01 X-24.1750 Y16.2231 
G01 X-24.2842 Y16.2683 
G01 X-24.3825 Y16.3340 
G01 X-24.4660 Y16.4175 
G01 X-26.2485 Y18.2000 
G01 X-39.6802 Y18.2000 
G01 X-39.7879 Y18.0923 
G01 X-39.9545 Y17.9713 
G01 X-40.1379 Y17.8778 
G01 X-40.3337 Y17.8142 
G01 X-40.5371 Y17.7820 
G01 X-40.7429 Y17.7820 
G01 X-40.9463 Y17.8142 
G01 X-41.1421 Y17.8778 
G01 X-41.3255 Y17.9713 
G01 X-41.4921 Y18.0923 
G01 X-41.6377 Y18.2379 
G01 X-41.7587 Y18.4045 
G01 X-41.8522 Y18.5879 
G01 X-41.9158 Y18.7837 
G01 X-41.9480 Y18.9871 
G01 X-41.9480 Y19.1929 
G01 X-41.9158 Y19.3963 
G01 X-41.8522 Y19.5921 
G01 X-41.7587 Y19.7755 
G01 X-41.6377 Y19.9421 
G01 X-41.4921 Y20.0877 
G01 X-41.3255 Y20.2087 
G01 X-41.1421 Y20.3022 
G01 X-41.0257 Y20.3400 
G01 X-41.1421 Y20.3778 
G01 X-41.3255 Y20.4713 
G01 X-41.4921 Y20.5923 
G01 X-41.6377 Y20.7379 
G01 X-41.7587 Y20.9045 
G01 X-41.8522 Y21.0879 
G01 X-41.9158 Y21.2837 
G01 X-41.9480 Y21.4871 
G01 X-41.9480 Y21.6929 
G01 X-41.9158 Y21.8963 
G01 X-41.8522 Y22.0921 
G01 X-41.7587 Y22.2755 
G01 X-41.6377 Y22.4421 
G01 X-41.4921 Y22.5877 
G01 X-41.3255 Y22.7087 
G01 X-41.1421 Y22.8022 
G01 X-41.0257 Y22.8400 
G01 X-41.1421 Y22.8778 
G01 X-41.3255 Y22.9713 
G01 X-41.4921 Y23.0923 
G01 X-41.6377 Y23.2379 
G01 X-41.7587 Y23.4045 
G01 X-41.8522 Y23.5879 
G01 X-41.9158 Y23.7837 
G01 X-41.9480 Y23.9871 
G01 X-41.9480 Y24.1929 
G01 X-41.9158 Y24.3963 
G01 X-41.8522 Y24.5921 
G01 X-41.7587 Y24.7755 
G01 X-41.6377 Y24.9421 
G01 X-41.4921 Y25.0877 
G01 X-41.3255 Y25.2087 
G01 X-41.1421 Y25.3022 
G01 X-40.9463 Y25.3658 
G01 X-40.7429 Y25.3980 
G01 X-40.5371 Y25.3980 
G01 X-40.3337 Y25.3658 
G01 X-40.1379 Y25.3022 
G01 X-39.9545 Y25.2087 
G01 X-39.7879 Y25.0877 
G01 X-39.7002 Y25.0000 
G01 X-39.0485 Y25.0000 
G01 X-24.4660 Y39.5825 
G01 X-24.3825 Y39.6660 
G01 X-24.2842 Y39.7317 
G01 X-24.1750 Y39.7769 
G01 X-24.0591 Y39.8000 
G01 X-23.9820 Y39.8000 
G01 X-23.9721 Y39.8306 
G01 X-23.8863 Y39.9989 
G01 X-23.7753 Y40.1517 
G01 X-23.6417 Y40.2853 
G01 X-23.4889 Y40.3963 
G01 X-23.3206 Y40.4821 
G01 X-23.1410 Y40.5404 
G01 X-22.9544 Y40.5700 
G01 X-22.7656 Y40.5700 
G01 X-22.5790 Y40.5404 
G01 X-22.3994 Y40.4821 
G01 X-22.2311 Y40.3963 
G01 X-22.0783 Y40.2853 
G01 X-21.9447 Y40.1517 
G01 X-21.8337 Y39.9989 
G01 X-21.7479 Y39.8306 
G01 X-21.6895 Y39.6510 
G01 X-21.6600 Y39.4644 
G01 X-21.6600 Y39.2756 
G01 X-21.6895 Y39.0890 
G01 X-21.7479 Y38.9094 
G01 X-21.8337 Y38.7411 
G01 X-21.9447 Y38.5883 
G01 X-22.0783 Y38.4547 
G01 X-22.2311 Y38.3437 
G01 X-22.3994 Y38.2579 
G01 X-22.5790 Y38.1995 
G01 X-22.7656 Y38.1700 
G01 X-22.9544 Y38.1700 
G01 X-23.1410 Y38.1995 
G01 X-23.3206 Y38.2579 
G01 X-23.4889 Y38.3437 
G01 X-23.6417 Y38.4547 
G01 X-23.7693 Y38.5822 
G01 X-38.4175 Y23.9339 
G01 X-38.5158 Y23.8683 
G01 X-38.6250 Y23.8231 
G01 X-38.7409 Y23.8000 
G01 X-39.3616 Y23.8000 
G01 X-39.3642 Y23.7837 
G01 X-39.4278 Y23.5879 
G01 X-39.5213 Y23.4045 
G01 X-39.6423 Y23.2379 
G01 X-39.7879 Y23.0923 
G01 X-39.9545 Y22.9713 
G01 X-40.1379 Y22.8778 
G01 X-40.2543 Y22.8400 
G01 X-40.1379 Y22.8022 
G01 X-39.9545 Y22.7087 
G01 X-39.7879 Y22.5877 
G01 X-39.6423 Y22.4421 
G01 X-39.5213 Y22.2755 
G01 X-39.4828 Y22.2000 
G01 X-23.8960 Y22.2000 
G01 X-23.8863 Y22.2189 
G01 X-23.7753 Y22.3717 
G01 X-23.6417 Y22.5053 
G01 X-23.4889 Y22.6163 
G01 X-23.3206 Y22.7021 
G01 X-23.1410 Y22.7605 
G01 X-22.9544 Y22.7900 
G01 X-22.7656 Y22.7900 
G01 X-22.5790 Y22.7605 
G01 X-22.3994 Y22.7021 
G01 X-22.2311 Y22.6163 
G01 X-22.0783 Y22.5053 
G01 X-21.9447 Y22.3717 
G01 X-21.8337 Y22.2189 
G01 X-21.7479 Y22.0506 
G01 X-21.6895 Y21.8710 
G01 X-21.6600 Y21.6844 
G01 X-21.6600 Y21.4956 
G01 X-21.6895 Y21.3090 
G01 X-21.7479 Y21.1294 
G01 X-21.8337 Y20.9611 
G01 X-21.9447 Y20.8083 
G01 X-22.0783 Y20.6747 
G01 X-22.2311 Y20.5637 
G01 X-22.3994 Y20.4779 
G01 X-22.5790 Y20.4195 
G01 X-22.7656 Y20.3900 
G01 X-22.9544 Y20.3900 
G01 X-23.1410 Y20.4195 
G01 X-23.3206 Y20.4779 
G01 X-23.4889 Y20.5637 
G01 X-23.6417 Y20.6747 
G01 X-23.7753 Y20.8083 
G01 X-23.8863 Y20.9611 
G01 X-23.9062 Y21.0000 
G01 X-39.4726 Y21.0000 
G01 X-39.5213 Y20.9045 
G01 X-39.6423 Y20.7379 
G01 X-39.7879 Y20.5923 
G01 X-39.9545 Y20.4713 
G01 X-40.1379 Y20.3778 
G01 X-40.2543 Y20.3400 
G01 X-40.1379 Y20.3022 
G01 X-39.9545 Y20.2087 
G01 X-39.7879 Y20.0877 
G01 X-39.6423 Y19.9421 
G01 X-39.5213 Y19.7755 
G01 X-39.4278 Y19.5921 
G01 X-39.3654 Y19.4000 
G01 X-25.9409 Y19.4000 
G01 X-25.8250 Y19.3769 
G01 X-25.7158 Y19.3317 
G01 X-25.6175 Y19.2660 
G01 X-23.7515 Y17.4000 
G01 X-21.8485 Y17.4000 
G01 X-19.0214 Y20.2271 
G01 X-19.0214 Y23.5348 
G01 X-18.9910 Y23.6083 
G01 X-18.9347 Y23.6646 
G01 X-18.8612 Y23.6950 
G01 X-17.0000 Y23.6950 
G01 X-17.0000 Y26.3943 
G01 X-17.0010 Y26.4478 
G01 X-17.0000 Y26.4534 
G01 X-17.0000 Y26.4591 
G01 X-16.9896 Y26.5115 
G01 X-16.9801 Y26.5641 
G01 X-16.9781 Y26.5694 
G01 X-16.9769 Y26.5750 
G01 X-16.9565 Y26.6244 
G01 X-16.9370 Y26.6741 
G01 X-16.9339 Y26.6789 
G01 X-16.9317 Y26.6842 
G01 X-16.9021 Y26.7286 
G01 X-16.8732 Y26.7736 
G01 X-16.8692 Y26.7777 
G01 X-16.8660 Y26.7825 
G01 X-16.8283 Y26.8202 
G01 X-16.7400 Y26.9119 
G01 X-16.7400 Y27.3098 
G01 X-16.7096 Y27.3833 
G01 X-16.6533 Y27.4396 
G01 X-16.6000 Y27.4616 
G01 X-16.6000 Y31.6591 
G01 X-16.5769 Y31.7750 
G01 X-16.5317 Y31.8842 
G01 X-16.4660 Y31.9825 
G01 X-16.3825 Y32.0660 
G01 X-9.4485 Y39.0000 
G01 X-10.4660 Y40.0175 
G01 X-10.5317 Y40.1158 
G01 X-10.5769 Y40.2250 
G01 X-10.6000 Y40.3409 
G01 X-10.6000 Y42.1515 
G01 X-24.2485 Y55.8000 
G01 X-25.3515 Y55.8000 
G01 X-30.0175 Y51.1340 
G01 X-30.1158 Y51.0683 
G01 X-30.2250 Y51.0231 
G01 X-30.3409 Y51.0000 
G01 X-30.6493 Y51.0000 
G01 X-30.7087 Y50.8836 
G01 X-30.8197 Y50.7308 
G01 X-30.9533 Y50.5972 
G01 X-31.1061 Y50.4862 
G01 X-31.2744 Y50.4004 
G01 X-31.4540 Y50.3420 
G01 X-31.6406 Y50.3125 
G01 X-31.8294 Y50.3125 
G01 X-32.0160 Y50.3420 
G01 X-32.1956 Y50.4004 
G01 X-32.3639 Y50.4862 
G01 X-32.5167 Y50.5972 
G01 X-32.6503 Y50.7308 
G01 X-32.7613 Y50.8836 
G01 X-32.8471 Y51.0519 
G01 X-32.9055 Y51.2315 
G01 X-32.9350 Y51.4181 
G01 X-32.9350 Y51.6069 
G01 X-32.9055 Y51.7935 
G01 X-32.8471 Y51.9731 
G01 X-32.7613 Y52.1414 
G01 X-32.6503 Y52.2942 
G01 X-32.5167 Y52.4278 
G01 X-32.3639 Y52.5388 
G01 X-32.1956 Y52.6246 
G01 X-32.0160 Y52.6830 
G01 X-31.8294 Y52.7125 
G01 X-31.6406 Y52.7125 
G01 X-31.4540 Y52.6830 
G01 X-31.2744 Y52.6246 
G01 X-31.1061 Y52.5388 
G01 X-30.9533 Y52.4278 
G01 X-30.8197 Y52.2942 
G01 X-30.7512 Y52.2000 
G01 X-30.6485 Y52.2000 
G01 X-26.0660 Y56.7825 
G01 X-25.9825 Y56.8660 
G01 X-25.8842 Y56.9317 
G01 X-25.7750 Y56.9769 
G01 X-25.6591 Y57.0000 
G01 X-23.9409 Y57.0000 
G01 X-23.8250 Y56.9769 
G01 X-23.7158 Y56.9317 
G01 X-23.6175 Y56.8660 
G01 X-9.6175 Y42.8660 
G01 X-9.5340 Y42.7825 
G01 X-9.4683 Y42.6842 
G01 X-9.4231 Y42.5750 
G01 X-9.4000 Y42.4591 
G01 X-9.4000 Y40.6485 
G01 X-8.6815 Y39.9300 
G01 X-8.6463 Y39.9989 
G01 X-8.5353 Y40.1517 
G01 X-8.4017 Y40.2853 
G01 X-8.2489 Y40.3963 
G01 X-8.0806 Y40.4821 
G01 X-7.9010 Y40.5404 
G01 X-7.7144 Y40.5700 
G01 X-7.5256 Y40.5700 
G01 X-7.3390 Y40.5404 
G01 X-7.1594 Y40.4821 
G01 X-6.9911 Y40.3963 
G01 X-6.8383 Y40.2853 
G01 X-6.7047 Y40.1517 
G01 X-6.5937 Y39.9989 
G01 X-6.5079 Y39.8306 
G01 X-6.4495 Y39.6510 
G01 X-6.4200 Y39.4644 
G01 X-6.4200 Y39.2756 
G01 X-6.4495 Y39.0890 
G01 X-6.5079 Y38.9094 
G01 X-6.5937 Y38.7411 
G01 X-6.7047 Y38.5883 
G01 X-6.8383 Y38.4547 
G01 X-6.9911 Y38.3437 
G01 X-7.1594 Y38.2579 
G01 X-7.3390 Y38.1995 
G01 X-7.5256 Y38.1700 
G01 X-7.7144 Y38.1700 
G01 X-7.9010 Y38.1995 
G01 X-8.0806 Y38.2579 
G01 X-8.2489 Y38.3437 
G01 X-8.3410 Y38.4105 
G01 X-15.4000 Y31.3515 
G01 X-15.4000 Y26.8479 
G01 X-15.3982 Y26.8368 
G01 X-15.4000 Y26.7889 
G01 X-15.4000 Y26.7409 
G01 X-15.4022 Y26.7299 
G01 X-15.4026 Y26.7187 
G01 X-15.4137 Y26.6721 
G01 X-15.4231 Y26.6250 
G01 X-15.4273 Y26.6146 
G01 X-15.4299 Y26.6038 
G01 X-15.4499 Y26.5601 
G01 X-15.4683 Y26.5158 
G01 X-15.4745 Y26.5065 
G01 X-15.4792 Y26.4963 
G01 X-15.5073 Y26.4574 
G01 X-15.5340 Y26.4175 
G01 X-15.5400 Y26.4115 
G01 X-15.5400 Y26.0302 
G01 X-15.5704 Y25.9567 
G01 X-15.6267 Y25.9004 
G01 X-15.7002 Y25.8700 
G01 X-15.8000 Y25.8700 
G01 X-15.8000 Y22.7409 
G01 X-15.8231 Y22.6250 
G01 X-15.8683 Y22.5158 
G01 X-15.9340 Y22.4175 
G01 X-16.5386 Y21.8129 
G01 X-16.5386 Y19.6452 
G01 X-16.5690 Y19.5717 
G01 X-16.6253 Y19.5154 
G01 X-16.6988 Y19.4850 
G01 X-18.0665 Y19.4850 
G01 X-21.2175 Y16.3340 
G00 Z2.0000 
G00 X-21.9447 Y18.2683 
G01 Z-0.0250 F254.00 
G01 X-22.0783 Y18.1347 F508.00 
G01 X-22.2311 Y18.0237 
G01 X-22.3994 Y17.9379 
G01 X-22.5790 Y17.8795 
G01 X-22.7656 Y17.8500 
G01 X-22.9544 Y17.8500 
G01 X-23.1410 Y17.8795 
G01 X-23.3206 Y17.9379 
G01 X-23.4889 Y18.0237 
G01 X-23.6417 Y18.1347 
G01 X-23.7753 Y18.2683 
G01 X-23.8863 Y18.4211 
G01 X-23.9721 Y18.5894 
G01 X-24.0305 Y18.7690 
G01 X-24.0600 Y18.9556 
G01 X-24.0600 Y19.1444 
G01 X-24.0305 Y19.3310 
G01 X-23.9721 Y19.5106 
G01 X-23.8863 Y19.6789 
G01 X-23.7753 Y19.8317 
G01 X-23.6417 Y19.9653 
G01 X-23.4889 Y20.0763 
G01 X-23.3206 Y20.1621 
G01 X-23.1410 Y20.2204 
G01 X-22.9544 Y20.2500 
G01 X-22.7656 Y20.2500 
G01 X-22.5790 Y20.2204 
G01 X-22.3994 Y20.1621 
G01 X-22.2311 Y20.0763 
G01 X-22.0783 Y19.9653 
G01 X-21.9447 Y19.8317 
G01 X-21.8337 Y19.6789 
G01 X-21.7479 Y19.5106 
G01 X-21.6895 Y19.3310 
G01 X-21.6600 Y19.1444 
G01 X-21.6600 Y18.9556 
G01 X-21.6895 Y18.7690 
G01 X-21.7479 Y18.5894 
G01 X-21.8337 Y18.4211 
G01 X-21.9447 Y18.2683 
G00 Z2.0000 
G00 X-21.9447 Y23.3483 
G01 Z-0.0250 F254.00 
G01 X-22.0783 Y23.2147 F508.00 
G01 X-22.2311 Y23.1037 
G01 X-22.3994 Y23.0179 
G01 X-22.5790 Y22.9595 
G01 X-22.7656 Y22.9300 
G01 X-22.9544 Y22.9300 
G01 X-23.1410 Y22.9595 
G01 X-23.3206 Y23.0179 
G01 X-23.4889 Y23.1037 
G01 X-23.6417 Y23.2147 
G01 X-23.7753 Y23.3483 
G01 X-23.8863 Y23.5011 
G01 X-23.9721 Y23.6694 
G01 X-24.0305 Y23.8490 
G01 X-24.0600 Y24.0356 
G01 X-24.0600 Y24.2244 
G01 X-24.0305 Y24.4110 
G01 X-23.9721 Y24.5906 
G01 X-23.8863 Y24.7589 
G01 X-23.7753 Y24.9117 
G01 X-23.6417 Y25.0453 
G01 X-23.4889 Y25.1563 
G01 X-23.3206 Y25.2421 
G01 X-23.1410 Y25.3005 
G01 X-22.9544 Y25.3300 
G01 X-22.7656 Y25.3300 
G01 X-22.5790 Y25.3005 
G01 X-22.3994 Y25.2421 
G01 X-22.2311 Y25.1563 
G01 X-22.0783 Y25.0453 
G01 X-21.9447 Y24.9117 
G01 X-21.8337 Y24.7589 
G01 X-21.7479 Y24.5906 
G01 X-21.6895 Y24.4110 
G01 X-21.6600 Y24.2244 
G01 X-21.6600 Y24.0356 
G01 X-21.6895 Y23.8490 
G01 X-21.7479 Y23.6694 
G01 X-21.8337 Y23.5011 
G01 X-21.9447 Y23.3483 
G00 Z2.0000 
G00 X-21.9447 Y25.8883 
G01 Z-0.0250 F254.00 
G01 X-22.0783 Y25.7547 F508.00 
G01 X-22.2311 Y25.6437 
G01 X-22.3994 Y25.5579 
G01 X-22.5790 Y25.4995 
G01 X-22.7656 Y25.4700 
G01 X-22.9544 Y25.4700 
G01 X-23.1410 Y25.4995 
G01 X-23.3206 Y25.5579 
G01 X-23.4889 Y25.6437 
G01 X-23.6417 Y25.7547 
G01 X-23.7753 Y25.8883 
G01 X-23.8863 Y26.0411 
G01 X-23.9721 Y26.2094 
G01 X-24.0305 Y26.3890 
G01 X-24.0600 Y26.5756 
G01 X-24.0600 Y26.7644 
G01 X-24.0305 Y26.9510 
G01 X-23.9721 Y27.1306 
G01 X-23.8863 Y27.2989 
G01 X-23.7753 Y27.4517 
G01 X-23.6417 Y27.5853 
G01 X-23.4889 Y27.6963 
G01 X-23.3206 Y27.7821 
G01 X-23.1410 Y27.8405 
G01 X-22.9544 Y27.8700 
G01 X-22.7656 Y27.8700 
G01 X-22.5790 Y27.8405 
G01 X-22.3994 Y27.7821 
G01 X-22.2311 Y27.6963 
G01 X-22.0783 Y27.5853 
G01 X-21.9447 Y27.4517 
G01 X-21.8337 Y27.2989 
G01 X-21.7479 Y27.1306 
G01 X-21.6895 Y26.9510 
G01 X-21.6600 Y26.7644 
G01 X-21.6600 Y26.5756 
G01 X-21.6895 Y26.3890 
G01 X-21.7479 Y26.2094 
G01 X-21.8337 Y26.0411 
G01 X-21.9447 Y25.8883 
G00 Z2.0000 
G00 X-21.9447 Y28.4283 
G01 Z-0.0250 F254.00 
G01 X-22.0783 Y28.2947 F508.00 
G01 X-22.2311 Y28.1837 
G01 X-22.3994 Y28.0979 
G01 X-22.5790 Y28.0395 
G01 X-22.7656 Y28.0100 
G01 X-22.9544 Y28.0100 
G01 X-23.1410 Y28.0395 
G01 X-23.3206 Y28.0979 
G01 X-23.4889 Y28.1837 
G01 X-23.6417 Y28.2947 
G01 X-23.7753 Y28.4283 
G01 X-23.8863 Y28.5811 
G01 X-23.9721 Y28.7494 
G01 X-24.0305 Y28.9290 
G01 X-24.0600 Y29.1156 
G01 X-24.0600 Y29.3044 
G01 X-24.0305 Y29.4910 
G01 X-23.9721 Y29.6706 
G01 X-23.8863 Y29.8389 
G01 X-23.7753 Y29.9917 
G01 X-23.6417 Y30.1253 
G01 X-23.4889 Y30.2363 
G01 X-23.3206 Y30.3221 
G01 X-23.1410 Y30.3804 
G01 X-22.9544 Y30.4100 
G01 X-22.7656 Y30.4100 
G01 X-22.5790 Y30.3804 
G01 X-22.3994 Y30.3221 
G01 X-22.2311 Y30.2363 
G01 X-22.0783 Y30.1253 
G01 X-21.9447 Y29.9917 
G01 X-21.8337 Y29.8389 
G01 X-21.7479 Y29.6706 
G01 X-21.6895 Y29.4910 
G01 X-21.6600 Y29.3044 
G01 X-21.6600 Y29.1156 
G01 X-21.6895 Y28.9290 
G01 X-21.7479 Y28.7494 
G01 X-21.8337 Y28.5811 
G01 X-21.9447 Y28.4283 
G00 Z2.0000 
G00 X-21.9447 Y30.9683 
G01 Z-0.0250 F254.00 
G01 X-22.0783 Y30.8347 F508.00 
G01 X-22.2311 Y30.7237 
G01 X-22.3994 Y30.6379 
G01 X-22.5790 Y30.5795 
G01 X-22.7656 Y30.5500 
G01 X-22.9544 Y30.5500 
G01 X-23.1410 Y30.5795 
G01 X-23.3206 Y30.6379 
G01 X-23.4889 Y30.7237 
G01 X-23.6417 Y30.8347 
G01 X-23.7753 Y30.9683 
G01 X-23.8863 Y31.1211 
G01 X-23.9721 Y31.2894 
G01 X-24.0305 Y31.4690 
G01 X-24.0600 Y31.6556 
G01 X-24.0600 Y31.8444 
G01 X-24.0305 Y32.0310 
G01 X-23.9721 Y32.2106 
G01 X-23.8863 Y32.3789 
G01 X-23.7753 Y32.5317 
G01 X-23.6417 Y32.6653 
G01 X-23.4889 Y32.7763 
G01 X-23.3206 Y32.8621 
G01 X-23.1410 Y32.9205 
G01 X-22.9544 Y32.9500 
G01 X-22.7656 Y32.9500 
G01 X-22.5790 Y32.9205 
G01 X-22.3994 Y32.8621 
G01 X-22.2311 Y32.7763 
G01 X-22.0783 Y32.6653 
G01 X-21.9447 Y32.5317 
G01 X-21.8337 Y32.3789 
G01 X-21.7479 Y32.2106 
G01 X-21.6895 Y32.0310 
G01 X-21.6600 Y31.8444 
G01 X-21.6600 Y31.6556 
G01 X-21.6895 Y31.4690 
G01 X-21.7479 Y31.2894 
G01 X-21.8337 Y31.1211 
G01 X-21.9447 Y30.9683 
G00 Z2.0000 
G00 X-21.9447 Y33.5083 
G01 Z-0.0250 F254.00 
G01 X-22.0783 Y33.3747 F508.00 
G01 X-22.2311 Y33.2637 
G01 X-22.3994 Y33.1779 
G01 X-22.5790 Y33.1195 
G01 X-22.7656 Y33.0900 
G01 X-22.9544 Y33.0900 
G01 X-23.1410 Y33.1195 
G01 X-23.3206 Y33.1779 
G01 X-23.4889 Y33.2637 
G01 X-23.6417 Y33.3747 
G01 X-23.7753 Y33.5083 
G01 X-23.8863 Y33.6611 
G01 X-23.9721 Y33.8294 
G01 X-24.0305 Y34.0090 
G01 X-24.0600 Y34.1956 
G01 X-24.0600 Y34.3844 
G01 X-24.0305 Y34.5710 
G01 X-23.9721 Y34.7506 
G01 X-23.8863 Y34.9189 
G01 X-23.7753 Y35.0717 
G01 X-23.6417 Y35.2053 
G01 X-23.4889 Y35.3163 
G01 X-23.3206 Y35.4021 
G01 X-23.1410 Y35.4605 
G01 X-22.9544 Y35.4900 
G01 X-22.7656 Y35.4900 
G01 X-22.5790 Y35.4605 
G01 X-22.3994 Y35.4021 
G01 X-22.2311 Y35.3163 
G01 X-22.0783 Y35.2053 
G01 X-21.9447 Y35.0717 
G01 X-21.8337 Y34.9189 
G01 X-21.7479 Y34.7506 
G01 X-21.6895 Y34.5710 
G01 X-21.6600 Y34.3844 
G01 X-21.6600 Y34.1956 
G01 X-21.6895 Y34.0090 
G01 X-21.7479 Y33.8294 
G01 X-21.8337 Y33.6611 
G01 X-21.9447 Y33.5083 
G00 Z2.0000 
G00 X-21.9447 Y36.0483 
G01 Z-0.0250 F254.00 
G01 X-22.0783 Y35.9147 F508.00 
G01 X-22.2311 Y35.8037 
G01 X-22.3994 Y35.7179 
G01 X-22.5790 Y35.6595 
G01 X-22.7656 Y35.6300 
G01 X-22.9544 Y35.6300 
G01 X-23.1410 Y35.6595 
G01 X-23.3206 Y35.7179 
G01 X-23.4889 Y35.8037 
G01 X-23.6417 Y35.9147 
G01 X-23.7753 Y36.0483 
G01 X-23.8863 Y36.2011 
G01 X-23.9721 Y36.3694 
G01 X-24.0305 Y36.5490 
G01 X-24.0600 Y36.7356 
G01 X-24.0600 Y36.9244 
G01 X-24.0305 Y37.1110 
G01 X-23.9721 Y37.2906 
G01 X-23.8863 Y37.4589 
G01 X-23.7753 Y37.6117 
G01 X-23.6417 Y37.7453 
G01 X-23.4889 Y37.8563 
G01 X-23.3206 Y37.9421 
G01 X-23.1410 Y38.0005 
G01 X-22.9544 Y38.0300 
G01 X-22.7656 Y38.0300 
G01 X-22.5790 Y38.0005 
G01 X-22.3994 Y37.9421 
G01 X-22.2311 Y37.8563 
G01 X-22.0783 Y37.7453 
G01 X-21.9447 Y37.6117 
G01 X-21.8337 Y37.4589 
G01 X-21.7479 Y37.2906 
G01 X-21.6895 Y37.1110 
G01 X-21.6600 Y36.9244 
G01 X-21.6600 Y36.7356 
G01 X-21.6895 Y36.5490 
G01 X-21.7479 Y36.3694 
G01 X-21.8337 Y36.2011 
G01 X-21.9447 Y36.0483 
G00 Z2.0000 
G00 X-18.6150 Y35.9581 
G01 Z-0.0250 F254.00 
G01 X-18.6150 Y37.7019 F508.00 
G01 X-17.3819 Y38.9350 
G01 X-15.6381 Y38.9350 
G01 X-14.4050 Y37.7019 
G01 X-14.4050 Y35.9581 
G01 X-15.6381 Y34.7250 
G01 X-17.3819 Y34.7250 
G01 X-18.6150 Y35.9581 
G00 Z2.0000 
G00 X-21.9447 Y41.1283 
G01 Z-0.0250 F254.00 
G01 X-22.0783 Y40.9947 F508.00 
G01 X-22.2311 Y40.8837 
G01 X-22.3994 Y40.7979 
G01 X-22.5790 Y40.7395 
G01 X-22.7656 Y40.7100 
G01 X-22.9544 Y40.7100 
G01 X-23.1410 Y40.7395 
G01 X-23.3206 Y40.7979 
G01 X-23.4889 Y40.8837 
G01 X-23.6417 Y40.9947 
G01 X-23.7753 Y41.1283 
G01 X-23.8863 Y41.2811 
G01 X-23.9721 Y41.4494 
G01 X-24.0305 Y41.6290 
G01 X-24.0600 Y41.8156 
G01 X-24.0600 Y42.0044 
G01 X-24.0305 Y42.1910 
G01 X-23.9721 Y42.3706 
G01 X-23.8863 Y42.5389 
G01 X-23.7753 Y42.6917 
G01 X-23.6417 Y42.8253 
G01 X-23.4889 Y42.9363 
G01 X-23.3206 Y43.0221 
G01 X-23.1410 Y43.0804 
G01 X-22.9544 Y43.1100 
G01 X-22.7656 Y43.1100 
G01 X-22.5790 Y43.0804 
G01 X-22.3994 Y43.0221 
G01 X-22.2311 Y42.9363 
G01 X-22.0783 Y42.8253 
G01 X-21.9447 Y42.6917 
G01 X-21.8337 Y42.5389 
G01 X-21.7479 Y42.3706 
G01 X-21.6895 Y42.1910 
G01 X-21.6600 Y42.0044 
G01 X-21.6600 Y41.8156 
G01 X-21.6895 Y41.6290 
G01 X-21.7479 Y41.4494 
G01 X-21.8337 Y41.2811 
G01 X-21.9447 Y41.1283 
G00 Z2.0000 
G00 X-21.9447 Y43.6683 
G01 Z-0.0250 F254.00 
G01 X-22.0783 Y43.5347 F508.00 
G01 X-22.2311 Y43.4237 
G01 X-22.3994 Y43.3379 
G01 X-22.5790 Y43.2795 
G01 X-22.7656 Y43.2500 
G01 X-22.9544 Y43.2500 
G01 X-23.1410 Y43.2795 
G01 X-23.3206 Y43.3379 
G01 X-23.4889 Y43.4237 
G01 X-23.6417 Y43.5347 
G01 X-23.7753 Y43.6683 
G01 X-23.8863 Y43.8211 
G01 X-23.9721 Y43.9894 
G01 X-24.0305 Y44.1690 
G01 X-24.0600 Y44.3556 
G01 X-24.0600 Y44.5444 
G01 X-24.0305 Y44.7310 
G01 X-23.9721 Y44.9106 
G01 X-23.8863 Y45.0789 
G01 X-23.7753 Y45.2317 
G01 X-23.6417 Y45.3653 
G01 X-23.4889 Y45.4763 
G01 X-23.3206 Y45.5621 
G01 X-23.1410 Y45.6205 
G01 X-22.9544 Y45.6500 
G01 X-22.7656 Y45.6500 
G01 X-22.5790 Y45.6205 
G01 X-22.3994 Y45.5621 
G01 X-22.2311 Y45.4763 
G01 X-22.0783 Y45.3653 
G01 X-21.9447 Y45.2317 
G01 X-21.8337 Y45.0789 
G01 X-21.7479 Y44.9106 
G01 X-21.6895 Y44.7310 
G01 X-21.6600 Y44.5444 
G01 X-21.6600 Y44.3556 
G01 X-21.6895 Y44.1690 
G01 X-21.7479 Y43.9894 
G01 X-21.8337 Y43.8211 
G01 X-21.9447 Y43.6683 
G00 Z2.0000 
G00 X-21.9447 Y46.2082 
G01 Z-0.0250 F254.00 
G01 X-22.0783 Y46.0747 F508.00 
G01 X-22.2311 Y45.9637 
G01 X-22.3994 Y45.8779 
G01 X-22.5790 Y45.8195 
G01 X-22.7656 Y45.7900 
G01 X-22.9544 Y45.7900 
G01 X-23.1410 Y45.8195 
G01 X-23.3206 Y45.8779 
G01 X-23.4889 Y45.9637 
G01 X-23.6417 Y46.0747 
G01 X-23.7753 Y46.2082 
G01 X-23.8863 Y46.3611 
G01 X-23.9721 Y46.5294 
G01 X-24.0305 Y46.7090 
G01 X-24.0600 Y46.8956 
G01 X-24.0600 Y47.0844 
G01 X-24.0305 Y47.2710 
G01 X-23.9721 Y47.4506 
G01 X-23.8863 Y47.6189 
G01 X-23.7753 Y47.7717 
G01 X-23.6417 Y47.9053 
G01 X-23.4889 Y48.0163 
G01 X-23.3206 Y48.1021 
G01 X-23.1410 Y48.1605 
G01 X-22.9544 Y48.1900 
G01 X-22.7656 Y48.1900 
G01 X-22.5790 Y48.1605 
G01 X-22.3994 Y48.1021 
G01 X-22.2311 Y48.0163 
G01 X-22.0783 Y47.9053 
G01 X-21.9447 Y47.7717 
G01 X-21.8337 Y47.6189 
G01 X-21.7479 Y47.4506 
G01 X-21.6895 Y47.2710 
G01 X-21.6600 Y47.0844 
G01 X-21.6600 Y46.8956 
G01 X-21.6895 Y46.7090 
G01 X-21.7479 Y46.5294 
G01 X-21.8337 Y46.3611 
G01 X-21.9447 Y46.2082 
G00 Z2.0000 
G00 X-24.3340 Y52.0175 
G01 Z-0.0250 F254.00 
G01 X-30.3340 Y46.0175 F508.00 
G01 X-30.4175 Y45.9340 
G01 X-30.5158 Y45.8683 
G01 X-30.6250 Y45.8231 
G01 X-30.7409 Y45.8000 
G01 X-32.4591 Y45.8000 
G01 X-32.5750 Y45.8231 
G01 X-32.6842 Y45.8683 
G01 X-32.7825 Y45.9340 
G01 X-34.3825 Y47.5340 
G01 X-34.4660 Y47.6175 
G01 X-34.5317 Y47.7158 
G01 X-34.5692 Y47.8063 
G01 X-34.7356 Y47.8604 
G01 X-34.9039 Y47.9462 
G01 X-35.0567 Y48.0572 
G01 X-35.1903 Y48.1908 
G01 X-35.3013 Y48.3436 
G01 X-35.3871 Y48.5119 
G01 X-35.4455 Y48.6915 
G01 X-35.4750 Y48.8781 
G01 X-35.4750 Y49.0669 
G01 X-35.4455 Y49.2535 
G01 X-35.3871 Y49.4331 
G01 X-35.3013 Y49.6014 
G01 X-35.1903 Y49.7542 
G01 X-35.0567 Y49.8878 
G01 X-34.9039 Y49.9988 
G01 X-34.7356 Y50.0846 
G01 X-34.5560 Y50.1429 
G01 X-34.3694 Y50.1725 
G01 X-34.1806 Y50.1725 
G01 X-33.9940 Y50.1429 
G01 X-33.8144 Y50.0846 
G01 X-33.6461 Y49.9988 
G01 X-33.4933 Y49.8878 
G01 X-33.3597 Y49.7542 
G01 X-33.2487 Y49.6014 
G01 X-33.1629 Y49.4331 
G01 X-33.1045 Y49.2535 
G01 X-33.0750 Y49.0669 
G01 X-33.0750 Y48.8781 
G01 X-33.1045 Y48.6915 
G01 X-33.1629 Y48.5119 
G01 X-33.2487 Y48.3436 
G01 X-33.3523 Y48.2009 
G01 X-32.1515 Y47.0000 
G01 X-31.0485 Y47.0000 
G01 X-25.4000 Y52.6485 
G01 X-25.4000 Y52.9589 
G01 X-25.4289 Y52.9737 
G01 X-25.5817 Y53.0847 
G01 X-25.7153 Y53.2183 
G01 X-25.8263 Y53.3711 
G01 X-25.9121 Y53.5394 
G01 X-25.9704 Y53.7190 
G01 X-26.0000 Y53.9056 
G01 X-26.0000 Y54.0944 
G01 X-25.9704 Y54.2810 
G01 X-25.9121 Y54.4606 
G01 X-25.8263 Y54.6289 
G01 X-25.7153 Y54.7817 
G01 X-25.5817 Y54.9153 
G01 X-25.4289 Y55.0263 
G01 X-25.2606 Y55.1121 
G01 X-25.0810 Y55.1705 
G01 X-24.8944 Y55.2000 
G01 X-24.7056 Y55.2000 
G01 X-24.5190 Y55.1705 
G01 X-24.3394 Y55.1121 
G01 X-24.1711 Y55.0263 
G01 X-24.0183 Y54.9153 
G01 X-23.8847 Y54.7817 
G01 X-23.7737 Y54.6289 
G01 X-23.6879 Y54.4606 
G01 X-23.6295 Y54.2810 
G01 X-23.6000 Y54.0944 
G01 X-23.6000 Y53.9056 
G01 X-23.6295 Y53.7190 
G01 X-23.6879 Y53.5394 
G01 X-23.7737 Y53.3711 
G01 X-23.8847 Y53.2183 
G01 X-24.0183 Y53.0847 
G01 X-24.1711 Y52.9737 
G01 X-24.2000 Y52.9589 
G01 X-24.2000 Y52.4591 
G01 X-24.2000 Y52.3409 
G01 X-24.2231 Y52.2250 
G01 X-24.2683 Y52.1158 
G01 X-24.3340 Y52.0175 
G00 Z2.0000 
G00 X-30.9533 Y49.8878 
G01 Z-0.0250 F254.00 
G01 X-30.8197 Y49.7542 F508.00 
G01 X-30.7087 Y49.6014 
G01 X-30.6229 Y49.4331 
G01 X-30.5645 Y49.2535 
G01 X-30.5350 Y49.0669 
G01 X-30.5350 Y48.8781 
G01 X-30.5645 Y48.6915 
G01 X-30.6229 Y48.5119 
G01 X-30.7087 Y48.3436 
G01 X-30.8197 Y48.1908 
G01 X-30.9533 Y48.0572 
G01 X-31.1061 Y47.9462 
G01 X-31.2744 Y47.8604 
G01 X-31.4540 Y47.8020 
G01 X-31.6406 Y47.7725 
G01 X-31.8294 Y47.7725 
G01 X-32.0160 Y47.8020 
G01 X-32.1956 Y47.8604 
G01 X-32.3639 Y47.9462 
G01 X-32.5167 Y48.0572 
G01 X-32.6503 Y48.1908 
G01 X-32.7613 Y48.3436 
G01 X-32.8471 Y48.5119 
G01 X-32.9055 Y48.6915 
G01 X-32.9350 Y48.8781 
G01 X-32.9350 Y49.0669 
G01 X-32.9055 Y49.2535 
G01 X-32.8471 Y49.4331 
G01 X-32.7613 Y49.6014 
G01 X-32.6503 Y49.7542 
G01 X-32.5167 Y49.8878 
G01 X-32.3639 Y49.9988 
G01 X-32.1956 Y50.0846 
G01 X-32.0160 Y50.1429 
G01 X-31.8294 Y50.1725 
G01 X-31.6406 Y50.1725 
G01 X-31.4540 Y50.1429 
G01 X-31.2744 Y50.0846 
G01 X-31.1061 Y49.9988 
G01 X-30.9533 Y49.8878 
G00 Z2.0000 
G00 X-33.3597 Y50.7308 
G01 Z-0.0250 F254.00 
G01 X-33.4933 Y50.5972 F508.00 
G01 X-33.6461 Y50.4862 
G01 X-33.8144 Y50.4004 
G01 X-33.9940 Y50.3420 
G01 X-34.1806 Y50.3125 
G01 X-34.3694 Y50.3125 
G01 X-34.5560 Y50.3420 
G01 X-34.7356 Y50.4004 
G01 X-34.9039 Y50.4862 
G01 X-35.0567 Y50.5972 
G01 X-35.1903 Y50.7308 
G01 X-35.3013 Y50.8836 
G01 X-35.3871 Y51.0519 
G01 X-35.4455 Y51.2315 
G01 X-35.4750 Y51.4181 
G01 X-35.4750 Y51.6069 
G01 X-35.4455 Y51.7935 
G01 X-35.3871 Y51.9731 
G01 X-35.3013 Y52.1414 
G01 X-35.1903 Y52.2942 
G01 X-35.0567 Y52.4278 
G01 X-34.9039 Y52.5388 
G01 X-34.7356 Y52.6246 
G01 X-34.5560 Y52.6830 
G01 X-34.3694 Y52.7125 
G01 X-34.1806 Y52.7125 
G01 X-33.9940 Y52.6830 
G01 X-33.8144 Y52.6246 
G01 X-33.6461 Y52.5388 
G01 X-33.4933 Y52.4278 
G01 X-33.3597 Y52.2942 
G01 X-33.2487 Y52.1414 
G01 X-33.1629 Y51.9731 
G01 X-33.1045 Y51.7935 
G01 X-33.0750 Y51.6069 
G01 X-33.0750 Y51.4181 
G01 X-33.1045 Y51.2315 
G01 X-33.1629 Y51.0519 
G01 X-33.2487 Y50.8836 
G01 X-33.3597 Y50.7308 
G00 Z2.0000 
G00 X-35.8997 Y50.7308 
G01 Z-0.0250 F254.00 
G01 X-36.0333 Y50.5972 F508.00 
G01 X-36.1861 Y50.4862 
G01 X-36.3544 Y50.4004 
G01 X-36.5340 Y50.3420 
G01 X-36.7206 Y50.3125 
G01 X-36.9094 Y50.3125 
G01 X-37.0960 Y50.3420 
G01 X-37.2756 Y50.4004 
G01 X-37.4439 Y50.4862 
G01 X-37.5967 Y50.5972 
G01 X-37.7303 Y50.7308 
G01 X-37.8413 Y50.8836 
G01 X-37.9271 Y51.0519 
G01 X-37.9855 Y51.2315 
G01 X-38.0150 Y51.4181 
G01 X-38.0150 Y51.6069 
G01 X-37.9855 Y51.7935 
G01 X-37.9271 Y51.9731 
G01 X-37.8413 Y52.1414 
G01 X-37.7303 Y52.2942 
G01 X-37.5967 Y52.4278 
G01 X-37.4439 Y52.5388 
G01 X-37.2756 Y52.6246 
G01 X-37.0960 Y52.6830 
G01 X-36.9094 Y52.7125 
G01 X-36.7206 Y52.7125 
G01 X-36.5340 Y52.6830 
G01 X-36.3544 Y52.6246 
G01 X-36.1861 Y52.5388 
G01 X-36.0333 Y52.4278 
G01 X-35.8997 Y52.2942 
G01 X-35.7887 Y52.1414 
G01 X-35.7029 Y51.9731 
G01 X-35.6445 Y51.7935 
G01 X-35.6150 Y51.6069 
G01 X-35.6150 Y51.4181 
G01 X-35.6445 Y51.2315 
G01 X-35.7029 Y51.0519 
G01 X-35.7887 Y50.8836 
G01 X-35.8997 Y50.7308 
G00 Z2.0000 
G00 X-36.0333 Y49.8878 
G01 Z-0.0250 F254.00 
G01 X-35.8997 Y49.7542 F508.00 
G01 X-35.7887 Y49.6014 
G01 X-35.7029 Y49.4331 
G01 X-35.6445 Y49.2535 
G01 X-35.6150 Y49.0669 
G01 X-35.6150 Y48.8781 
G01 X-35.6445 Y48.6915 
G01 X-35.7029 Y48.5119 
G01 X-35.7887 Y48.3436 
G01 X-35.8997 Y48.1908 
G01 X-36.0333 Y48.0572 
G01 X-36.1861 Y47.9462 
G01 X-36.3544 Y47.8604 
G01 X-36.5340 Y47.8020 
G01 X-36.7206 Y47.7725 
G01 X-36.9094 Y47.7725 
G01 X-37.0960 Y47.8020 
G01 X-37.2756 Y47.8604 
G01 X-37.4439 Y47.9462 
G01 X-37.5967 Y48.0572 
G01 X-37.7303 Y48.1908 
G01 X-37.8413 Y48.3436 
G01 X-37.9271 Y48.5119 
G01 X-37.9855 Y48.6915 
G01 X-38.0150 Y48.8781 
G01 X-38.0150 Y49.0669 
G01 X-37.9855 Y49.2535 
G01 X-37.9271 Y49.4331 
G01 X-37.8413 Y49.6014 
G01 X-37.7303 Y49.7542 
G01 X-37.5967 Y49.8878 
G01 X-37.4439 Y49.9988 
G01 X-37.2756 Y50.0846 
G01 X-37.0960 Y50.1429 
G01 X-36.9094 Y50.1725 
G01 X-36.7206 Y50.1725 
G01 X-36.5340 Y50.1429 
G01 X-36.3544 Y50.0846 
G01 X-36.1861 Y49.9988 
G01 X-36.0333 Y49.8878 
G00 Z2.0000 
G00 X-38.5733 Y49.8878 
G01 Z-0.0250 F254.00 
G01 X-38.4397 Y49.7542 F508.00 
G01 X-38.3287 Y49.6014 
G01 X-38.2429 Y49.4331 
G01 X-38.1845 Y49.2535 
G01 X-38.1550 Y49.0669 
G01 X-38.1550 Y48.8781 
G01 X-38.1845 Y48.6915 
G01 X-38.2429 Y48.5119 
G01 X-38.3287 Y48.3436 
G01 X-38.4397 Y48.1908 
G01 X-38.5733 Y48.0572 
G01 X-38.7261 Y47.9462 
G01 X-38.8944 Y47.8604 
G01 X-39.0740 Y47.8020 
G01 X-39.2606 Y47.7725 
G01 X-39.4494 Y47.7725 
G01 X-39.6360 Y47.8020 
G01 X-39.8156 Y47.8604 
G01 X-39.9839 Y47.9462 
G01 X-40.1367 Y48.0572 
G01 X-40.2703 Y48.1908 
G01 X-40.3813 Y48.3436 
G01 X-40.4671 Y48.5119 
G01 X-40.5254 Y48.6915 
G01 X-40.5550 Y48.8781 
G01 X-40.5550 Y49.0669 
G01 X-40.5254 Y49.2535 
G01 X-40.4671 Y49.4331 
G01 X-40.3813 Y49.6014 
G01 X-40.2703 Y49.7542 
G01 X-40.1367 Y49.8878 
G01 X-39.9839 Y49.9988 
G01 X-39.8156 Y50.0846 
G01 X-39.6360 Y50.1429 
G01 X-39.4494 Y50.1725 
G01 X-39.2606 Y50.1725 
G01 X-39.0740 Y50.1429 
G01 X-38.8944 Y50.0846 
G01 X-38.7261 Y49.9988 
G01 X-38.5733 Y49.8878 
G00 Z2.0000 
G00 X-38.5733 Y50.5972 
G01 Z-0.0250 F254.00 
G01 X-38.7261 Y50.4862 F508.00 
G01 X-38.8944 Y50.4004 
G01 X-39.0740 Y50.3420 
G01 X-39.2606 Y50.3125 
G01 X-39.4494 Y50.3125 
G01 X-39.6360 Y50.3420 
G01 X-39.8156 Y50.4004 
G01 X-39.9839 Y50.4862 
G01 X-40.1367 Y50.5972 
G01 X-40.2703 Y50.7308 
G01 X-40.3813 Y50.8836 
G01 X-40.4671 Y51.0519 
G01 X-40.5254 Y51.2315 
G01 X-40.5550 Y51.4181 
G01 X-40.5550 Y51.6069 
G01 X-40.5254 Y51.7935 
G01 X-40.4671 Y51.9731 
G01 X-40.3813 Y52.1414 
G01 X-40.2703 Y52.2942 
G01 X-40.1367 Y52.4278 
G01 X-39.9839 Y52.5388 
G01 X-39.8156 Y52.6246 
G01 X-39.6360 Y52.6830 
G01 X-39.4494 Y52.7125 
G01 X-39.2606 Y52.7125 
G01 X-39.0740 Y52.6830 
G01 X-38.8944 Y52.6246 
G01 X-38.7261 Y52.5388 
G01 X-38.5733 Y52.4278 
G01 X-38.4397 Y52.2942 
G01 X-38.3287 Y52.1414 
G01 X-38.2429 Y51.9731 
G01 X-38.1845 Y51.7935 
G01 X-38.1550 Y51.6069 
G01 X-38.1550 Y51.4181 
G01 X-38.1845 Y51.2315 
G01 X-38.2429 Y51.0519 
G01 X-38.3287 Y50.8836 
G01 X-38.4397 Y50.7308 
G01 X-38.5733 Y50.5972 
G00 Z2.0000 
G00 X-38.4078 Y60.0170 
G01 Z-0.0250 F254.00 
G01 X-38.6588 Y60.1994 F508.00 
G01 X-38.8850 Y60.4118 
G01 X-39.0828 Y60.6508 
G01 X-39.2490 Y60.9128 
G01 X-39.3811 Y61.1935 
G01 X-39.4770 Y61.4886 
G01 X-39.5351 Y61.7933 
G01 X-39.5546 Y62.1030 
G01 X-39.5351 Y62.4126 
G01 X-39.4770 Y62.7174 
G01 X-39.3811 Y63.0125 
G01 X-39.2490 Y63.2932 
G01 X-39.0828 Y63.5552 
G01 X-38.8850 Y63.7942 
G01 X-38.6588 Y64.0066 
