(.../external_usr-lang-prog/pcbgcode/pcb-gcode.ulp)
(Copyright 2005 - 2012 by John Johnson)
(See readme.txt for licensing terms.)
(This file generated from the board:)
(.../KarasolBaxCont/KarasolboxCont.brd)
(Current profile is .../external_usr-lang-prog/pcbgcode/profiles/emc.pp  )
(This file generated 3/5/2017 11:28 PM)
(Settings from pcb-machine.h)
(spindle on time = 3.0000)
(spindle speed = 20000.0000)
(tool change at 15.0000 15.0000 19.0000 )
(feed rate xy = F0.00  )
(feed rate z  = F508.00 )
(Z Axis Settings)
(  High     Up        Down     Drill)
(19.5000 	2.0000 	-0.0250 	-1.5000 )
(Settings from pcb-defaults.h)
(isolate min = 0.0500)
(isolate max = 1.0000)
(isolate step = 0.1000)
(Generated top outlines, top drill, bottom outlines, bottom drill, )
(Unit of measure: mm)
( Tool|       Size       |  Min Sub |  Max Sub |   Count )
( T01 | 0.800mm 0.0315in | 0.0000in | 0.0000in |       0 )
( T02 | 1.016mm 0.0400in | 0.0000in | 0.0000in |       0 )
(Metric Mode)
G21
(Absolute Coordinates)
G90
S20000
G00 Z19.5000 
G00 X0.0000 Y0.0000 
M03
G04 P3.000000
M05
G00 Z19.0000 
G00 X15.0000 Y15.0000 
M06 T01 (0.8000 )
G01 Z0.0000 F508.00 
M06 
G00 Z2.0000 
M03
G04 P3.000000
G82 X-11.4300 Y22.8600 Z-1.5000 F508.00 R2.0000 P1.000000
G82 X-11.4300 Y25.4000 
G82 X-11.4300 Y27.9400 
G82 X-11.4300 Y30.4800 
G82 X-11.4300 Y33.0200 
G82 X-11.4300 Y35.5600 
G82 X-11.4300 Y38.1000 
G82 X-11.4300 Y40.6400 
G82 X-11.4300 Y43.1800 
G82 X-11.4300 Y45.7200 
G82 X-11.4300 Y48.2600 
G82 X-11.4300 Y50.8000 
G82 X-12.7000 Y53.3400 
G82 X-15.2400 Y53.3400 
G82 X-17.7800 Y53.3400 
G82 X-20.3200 Y53.3400 
G82 X-22.8600 Y53.3400 
G82 X-25.4000 Y53.3400 
G82 X-26.6700 Y50.8000 
G82 X-26.6700 Y48.2600 
G82 X-26.6700 Y45.7200 
G82 X-26.6700 Y43.1800 
G82 X-26.6700 Y40.6400 
G82 X-26.6700 Y38.1000 
G82 X-26.6700 Y35.5600 
G82 X-26.6700 Y33.0200 
G82 X-26.6700 Y30.4800 
G82 X-26.6700 Y27.9400 
G82 X-26.6700 Y25.4000 
G82 X-26.6700 Y22.8600 
G82 X-22.8600 Y22.8600 
G82 X-20.3200 Y22.8600 
G82 X-17.7800 Y22.8600 
G82 X-22.8600 Y39.3700 
G82 X-22.8600 Y41.9100 
G82 X-38.0850 Y46.4325 
G82 X-38.0850 Y48.9725 
G82 X-40.6250 Y48.9725 
G82 X-40.6250 Y46.4325 
G82 X-43.1650 Y46.4325 
G82 X-43.1650 Y48.9725 
G82 X-45.7050 Y48.9725 
G82 X-45.7050 Y46.4325 
M05
G00 Z19.0000 
G00 X15.0000 Y15.0000 
M06 T02 (1.0160 )
G01 Z0.0000 F508.00 
M06 
G00 Z2.0000 
M03
G04 P3.000000
G82 X-3.8100 Y71.1200 Z-1.5000 F508.00 R2.0000 P1.000000
G82 X-6.3500 Y71.1200 
G82 X-11.4300 Y71.1200 
G82 X-13.9700 Y71.1200 
G82 X-16.5100 Y71.1200 
G82 X-46.9900 Y31.7500 
G82 X-46.9900 Y29.2100 
G82 X-46.9900 Y20.3200 
G82 X-46.9900 Y17.7800 
G82 X-46.9900 Y15.2400 
G82 X-29.2100 Y5.0800 
G82 X-29.2100 Y2.5400 
G82 X-12.7000 Y2.5400 
G82 X-12.7000 Y5.0800 
T01 
G00 Z19.5000 
M05
M02
