(.../external_usr-lang-prog/pcbgcode/pcb-gcode.ulp)
(Copyright 2005 - 2012 by John Johnson)
(See readme.txt for licensing terms.)
(This file generated from the board:)
(.../KarasolBaxCont/KarasolboxCont.brd)
(Current profile is .../external_usr-lang-prog/pcbgcode/profiles/emc.pp  )
(This file generated 3/26/2017 8:07 PM)
(Settings from pcb-machine.h)
(spindle on time = 3.0000)
(spindle speed = 20000.0000)
(tool change at 15.0000 15.0000 19.0000 )
(feed rate xy = F0.00  )
(feed rate z  = F508.00 )
(Z Axis Settings)
(  High     Up        Down     Drill)
(19.5000 	2.0000 	-0.0250 	-1.5000 )
(Settings from pcb-defaults.h)
(isolate min = 0.0500)
(isolate max = 1.0000)
(isolate step = 0.1000)
(Generated top outlines, top drill, bottom outlines, bottom drill, )
(Unit of measure: mm)
( Tool|       Size       |  Min Sub |  Max Sub |   Count )
( T01 | 0.600mm 0.0236in | 0.0000in | 0.0000in |       0 )
( T02 | 0.800mm 0.0315in | 0.0000in | 0.0000in |       0 )
( T03 | 0.813mm 0.0320in | 0.0000in | 0.0000in |       0 )
( T04 | 1.016mm 0.0400in | 0.0000in | 0.0000in |       0 )
( T05 | 1.321mm 0.0520in | 0.0000in | 0.0000in |       0 )
( T06 | 2.032mm 0.0800in | 0.0000in | 0.0000in |       0 )
(Metric Mode)
G21
(Absolute Coordinates)
G90
S20000
G00 Z19.5000 
G00 X0.0000 Y0.0000 
M03
G04 P3.000000
M05
G00 Z19.0000 
G00 X15.0000 Y15.0000 
M06 T01 (0.6000 )
G01 Z0.0000 F508.00 
M06 
G00 Z2.0000 
M03
G04 P3.000000
G82 X16.5100 Y36.8300 Z-1.5000 F508.00 R2.0000 P1.000000
G82 X41.9100 Y3.8100 
G82 X41.9100 Y73.6600 
M05
G00 Z19.0000 
G00 X15.0000 Y15.0000 
M06 T02 (0.8000 )
G01 Z0.0000 F508.00 
M06 
G00 Z2.0000 
M03
G04 P3.000000
G82 X7.6200 Y19.0500 Z-1.5000 F508.00 R2.0000 P1.000000
G82 X7.6200 Y21.5900 
G82 X7.6200 Y24.1300 
G82 X7.6200 Y26.6700 
G82 X7.6200 Y29.2100 
G82 X7.6200 Y31.7500 
G82 X7.6200 Y34.2900 
G82 X7.6200 Y36.8300 
G82 X7.6200 Y39.3700 
G82 X7.6200 Y41.9100 
G82 X7.6200 Y44.4500 
G82 X7.6200 Y46.9900 
G82 X22.8600 Y46.9900 
G82 X22.8600 Y44.4500 
G82 X22.8600 Y41.9100 
G82 X22.8600 Y39.3700 
G82 X22.8600 Y36.8300 
G82 X22.8600 Y34.2900 
G82 X22.8600 Y31.7500 
G82 X22.8600 Y29.2100 
G82 X22.8600 Y26.6700 
G82 X22.8600 Y24.1300 
G82 X22.8600 Y21.5900 
G82 X22.8600 Y19.0500 
G82 X31.7350 Y48.9725 
G82 X34.2750 Y48.9725 
G82 X36.8150 Y48.9725 
G82 X39.3550 Y48.9725 
G82 X39.3550 Y51.5125 
G82 X36.8150 Y51.5125 
G82 X34.2750 Y51.5125 
G82 X31.7350 Y51.5125 
G82 X24.8000 Y54.0000 
M05
G00 Z19.0000 
G00 X15.0000 Y15.0000 
M06 T03 (0.8128 )
G01 Z0.0000 F508.00 
M06 
G00 Z2.0000 
M03
G04 P3.000000
G82 X16.5100 Y68.5800 Z-1.5000 F508.00 R2.0000 P1.000000
G82 X19.0500 Y68.5800 
G82 X21.5900 Y68.5800 
G82 X21.5900 Y73.6600 
G82 X19.0500 Y73.6600 
G82 X16.5100 Y73.6600 
M05
G00 Z19.0000 
G00 X15.0000 Y15.0000 
M06 T04 (1.0160 )
G01 Z0.0000 F508.00 
M06 
G00 Z2.0000 
M03
G04 P3.000000
G82 X40.6400 Y19.0900 Z-1.5000 F508.00 R2.0000 P1.000000
G82 X40.6400 Y21.5900 
G82 X40.6400 Y24.0900 
G82 X40.6400 Y31.7700 
G82 X40.6400 Y34.2700 
M05
G00 Z19.0000 
G00 X15.0000 Y15.0000 
M06 T05 (1.3208 )
G01 Z0.0000 F508.00 
M06 
G00 Z2.0000 
M03
G04 P3.000000
G82 X5.1054 Y2.5400 Z-1.5000 F508.00 R2.0000 P1.000000
G82 X10.1092 Y2.5400 
G82 X16.5354 Y2.5400 
G82 X21.5392 Y2.5400 
M05
G00 Z19.0000 
G00 X15.0000 Y15.0000 
M06 T06 (2.0320 )
G01 Z0.0000 F508.00 
M06 
G00 Z2.0000 
M03
G04 P3.000000
G82 X2.5400 Y67.3100 Z-1.5000 F508.00 R2.0000 P1.000000
G82 X7.1120 Y67.3100 
T01 
G00 Z19.5000 
M05
M02
