(.../external_usr-lang-prog/pcbgcode/pcb-gcode.ulp)
(Copyright 2005 - 2012 by John Johnson)
(See readme.txt for licensing terms.)
(This file generated from the board:)
(.../KarasolBaxCont/KarasolboxCont.brd)
(Current profile is .../external_usr-lang-prog/pcbgcode/profiles/emc.pp  )
(This file generated 3/26/2017 8:07 PM)
(Settings from pcb-machine.h)
(spindle on time = 3.0000)
(  Tool Size)
(0.1778 )
(spindle speed = 30000.0000)
(tool change at 15.0000 15.0000 19.0000 )
(feed rate xy = F508.00 )
(feed rate z  = F254.00 )
(Z Axis Settings)
(  High     Up        Down     Drill)
(19.5000 	2.0000 	-0.0250 	-1.5000 )
(Settings from pcb-defaults.h)
(isolate min = 0.0500)
(isolate max = 1.0000)
(isolate step = 0.1000)
(Generated top outlines, top drill, bottom outlines, bottom drill, )
(Unit of measure: mm)
(Metric Mode)
G21
(Absolute Coordinates)
G90
S30000
G00 Z19.5000 
G00 X0.0000 Y0.0000 
M03
G04 P3.000000
G00 Z2.0000 
G00 X-4.0381 Y1.6284 
G01 Z-0.0250 F254.00 
G01 X-4.1938 Y1.4727 F508.00 
G01 X-4.3720 Y1.3432 
G01 X-4.5683 Y1.2432 
G01 X-4.7777 Y1.1752 
G01 X-4.9953 Y1.1407 
G01 X-5.2155 Y1.1407 
G01 X-5.4331 Y1.1752 
G01 X-5.6425 Y1.2432 
G01 X-5.8388 Y1.3432 
G01 X-6.0170 Y1.4727 
G01 X-6.1727 Y1.6284 
G01 X-6.3022 Y1.8066 
G01 X-6.4022 Y2.0029 
G01 X-6.4702 Y2.2123 
G01 X-6.5047 Y2.4299 
G01 X-6.5047 Y2.6501 
G01 X-6.4702 Y2.8677 
G01 X-6.4022 Y3.0771 
G01 X-6.3022 Y3.2734 
G01 X-6.1727 Y3.4516 
G01 X-6.0170 Y3.6073 
G01 X-5.8388 Y3.7368 
G01 X-5.6425 Y3.8368 
G01 X-5.4331 Y3.9048 
G01 X-5.2155 Y3.9393 
G01 X-4.9953 Y3.9393 
G01 X-4.7777 Y3.9048 
G01 X-4.5683 Y3.8368 
G01 X-4.3720 Y3.7368 
G01 X-4.1938 Y3.6073 
G01 X-4.0381 Y3.4516 
G01 X-3.9086 Y3.2734 
G01 X-3.8086 Y3.0771 
G01 X-3.7406 Y2.8677 
G01 X-3.7061 Y2.6501 
G01 X-3.7061 Y2.4299 
G01 X-3.7406 Y2.2123 
G01 X-3.8086 Y2.0029 
G01 X-3.9086 Y1.8066 
G01 X-4.0381 Y1.6284 
G00 Z2.0000 
G00 X-9.0419 Y1.6284 
G01 Z-0.0250 F254.00 
G01 X-9.1976 Y1.4727 F508.00 
G01 X-9.3758 Y1.3432 
G01 X-9.5721 Y1.2432 
G01 X-9.7815 Y1.1752 
G01 X-9.9991 Y1.1407 
G01 X-10.2193 Y1.1407 
G01 X-10.4369 Y1.1752 
G01 X-10.6463 Y1.2432 
G01 X-10.8426 Y1.3432 
G01 X-11.0208 Y1.4727 
G01 X-11.1765 Y1.6284 
G01 X-11.3060 Y1.8066 
G01 X-11.4060 Y2.0029 
G01 X-11.4740 Y2.2123 
G01 X-11.5085 Y2.4299 
G01 X-11.5085 Y2.6501 
G01 X-11.4740 Y2.8677 
G01 X-11.4060 Y3.0771 
G01 X-11.3060 Y3.2734 
G01 X-11.1765 Y3.4516 
G01 X-11.0208 Y3.6073 
G01 X-10.9389 Y3.6668 
G01 X-10.9389 Y4.9768 
G01 X-11.5382 Y5.5761 
G01 X-20.9826 Y5.5761 
G01 X-21.0337 Y5.5972 
G01 X-21.0727 Y5.6363 
G01 X-21.0939 Y5.6874 
G01 X-21.0939 Y14.6326 
G01 X-21.0727 Y14.6837 
G01 X-21.0337 Y14.7227 
G01 X-20.9826 Y14.7439 
G01 X-9.4974 Y14.7439 
G01 X-9.4463 Y14.7227 
G01 X-9.4072 Y14.6837 
G01 X-9.3861 Y14.6326 
G01 X-9.3861 Y5.6874 
G01 X-9.4072 Y5.6363 
G01 X-9.4463 Y5.5972 
G01 X-9.4974 Y5.5761 
G01 X-10.0140 Y5.5761 
G01 X-9.9688 Y5.5309 
G01 X-9.8978 Y5.4080 
G01 X-9.8611 Y5.2709 
G01 X-9.8611 Y3.9174 
G01 X-9.7815 Y3.9048 
G01 X-9.5721 Y3.8368 
G01 X-9.3758 Y3.7368 
G01 X-9.1976 Y3.6073 
G01 X-9.0419 Y3.4516 
G01 X-8.9124 Y3.2734 
G01 X-8.8124 Y3.0771 
G01 X-8.7444 Y2.8677 
G01 X-8.7099 Y2.6501 
G01 X-8.7099 Y2.4299 
G01 X-8.7444 Y2.2123 
G01 X-8.8124 Y2.0029 
G01 X-8.9124 Y1.8066 
G01 X-9.0419 Y1.6284 
G00 Z2.0000 
G00 X-15.4681 Y1.6284 
G01 Z-0.0250 F254.00 
G01 X-15.6238 Y1.4727 F508.00 
G01 X-15.8020 Y1.3432 
G01 X-15.9983 Y1.2432 
G01 X-16.2077 Y1.1752 
G01 X-16.4253 Y1.1407 
G01 X-16.6455 Y1.1407 
G01 X-16.8631 Y1.1752 
G01 X-17.0725 Y1.2432 
G01 X-17.2688 Y1.3432 
G01 X-17.4470 Y1.4727 
G01 X-17.6027 Y1.6284 
G01 X-17.7322 Y1.8066 
G01 X-17.8322 Y2.0029 
G01 X-17.9002 Y2.2123 
G01 X-17.9347 Y2.4299 
G01 X-17.9347 Y2.6501 
G01 X-17.9002 Y2.8677 
G01 X-17.8322 Y3.0771 
G01 X-17.7322 Y3.2734 
G01 X-17.6027 Y3.4516 
G01 X-17.4470 Y3.6073 
G01 X-17.2688 Y3.7368 
G01 X-17.0725 Y3.8368 
G01 X-16.8631 Y3.9048 
G01 X-16.6455 Y3.9393 
G01 X-16.4253 Y3.9393 
G01 X-16.2077 Y3.9048 
G01 X-15.9983 Y3.8368 
G01 X-15.8020 Y3.7368 
G01 X-15.6238 Y3.6073 
G01 X-15.4681 Y3.4516 
G01 X-15.3386 Y3.2734 
G01 X-15.2386 Y3.0771 
G01 X-15.1706 Y2.8677 
G01 X-15.1361 Y2.6501 
G01 X-15.1361 Y2.4299 
G01 X-15.1706 Y2.2123 
G01 X-15.2386 Y2.0029 
G01 X-15.3386 Y1.8066 
G01 X-15.4681 Y1.6284 
G00 Z2.0000 
G00 X-20.4719 Y1.6284 
G01 Z-0.0250 F254.00 
G01 X-20.6276 Y1.4727 F508.00 
G01 X-20.8058 Y1.3432 
G01 X-21.0021 Y1.2432 
G01 X-21.2115 Y1.1752 
G01 X-21.4291 Y1.1407 
G01 X-21.6493 Y1.1407 
G01 X-21.8669 Y1.1752 
G01 X-22.0763 Y1.2432 
G01 X-22.2726 Y1.3432 
G01 X-22.4508 Y1.4727 
G01 X-22.6065 Y1.6284 
G01 X-22.7360 Y1.8066 
G01 X-22.8360 Y2.0029 
G01 X-22.9040 Y2.2123 
G01 X-22.9385 Y2.4299 
G01 X-22.9385 Y2.6501 
G01 X-22.9040 Y2.8677 
G01 X-22.8360 Y3.0771 
G01 X-22.7360 Y3.2734 
G01 X-22.6065 Y3.4516 
G01 X-22.4508 Y3.6073 
G01 X-22.2726 Y3.7368 
G01 X-22.0763 Y3.8368 
G01 X-21.8669 Y3.9048 
G01 X-21.6493 Y3.9393 
G01 X-21.4291 Y3.9393 
G01 X-21.2115 Y3.9048 
G01 X-21.0021 Y3.8368 
G01 X-20.8058 Y3.7368 
G01 X-20.6276 Y3.6073 
G01 X-20.4719 Y3.4516 
G01 X-20.3424 Y3.2734 
G01 X-20.2424 Y3.0771 
G01 X-20.1744 Y2.8677 
G01 X-20.1399 Y2.6501 
G01 X-20.1399 Y2.4299 
G01 X-20.1744 Y2.2123 
G01 X-20.2424 Y2.0029 
G01 X-20.3424 Y1.8066 
G01 X-20.4719 Y1.6284 
G00 Z2.0000 
G00 X-21.2691 Y16.3688 
G01 Z-0.0250 F254.00 
G01 X-21.3920 Y16.2978 F508.00 
G01 X-21.5291 Y16.2611 
G01 X-24.0709 Y16.2611 
G01 X-24.2080 Y16.2978 
G01 X-24.3309 Y16.3688 
G01 X-24.4312 Y16.4691 
G01 X-26.2232 Y18.2611 
G01 X-39.7055 Y18.2611 
G01 X-39.8277 Y18.1389 
G01 X-39.9865 Y18.0236 
G01 X-40.1614 Y17.9345 
G01 X-40.3480 Y17.8738 
G01 X-40.5419 Y17.8431 
G01 X-40.7381 Y17.8431 
G01 X-40.9320 Y17.8738 
G01 X-41.1186 Y17.9345 
G01 X-41.2935 Y18.0236 
G01 X-41.4523 Y18.1389 
G01 X-41.5911 Y18.2777 
G01 X-41.7064 Y18.4365 
G01 X-41.7955 Y18.6114 
G01 X-41.8562 Y18.7980 
G01 X-41.8869 Y18.9919 
G01 X-41.8869 Y19.1881 
G01 X-41.8562 Y19.3820 
G01 X-41.7955 Y19.5686 
G01 X-41.7064 Y19.7435 
G01 X-41.5911 Y19.9023 
G01 X-41.4523 Y20.0411 
G01 X-41.2935 Y20.1564 
G01 X-41.1186 Y20.2455 
G01 X-40.9320 Y20.3062 
G01 X-40.7381 Y20.3369 
G01 X-40.5419 Y20.3369 
G01 X-40.3480 Y20.3062 
G01 X-40.1614 Y20.2455 
G01 X-39.9865 Y20.1564 
G01 X-39.8277 Y20.0411 
G01 X-39.6889 Y19.9023 
G01 X-39.5736 Y19.7435 
G01 X-39.4845 Y19.5686 
G01 X-39.4238 Y19.3820 
G01 X-39.4170 Y19.3389 
G01 X-25.9291 Y19.3389 
G01 X-25.7920 Y19.3022 
G01 X-25.6691 Y19.2312 
G01 X-23.7768 Y17.3389 
G01 X-21.8232 Y17.3389 
G01 X-18.9603 Y20.2018 
G01 X-18.9603 Y23.5226 
G01 X-18.9392 Y23.5737 
G01 X-18.9001 Y23.6127 
G01 X-18.8490 Y23.6339 
G01 X-16.9389 Y23.6339 
G01 X-16.9389 Y26.3949 
G01 X-16.9401 Y26.4608 
G01 X-16.9389 Y26.4658 
G01 X-16.9389 Y26.4709 
G01 X-16.9219 Y26.5345 
G01 X-16.9060 Y26.5985 
G01 X-16.9035 Y26.6030 
G01 X-16.9022 Y26.6080 
G01 X-16.8692 Y26.6650 
G01 X-16.8374 Y26.7227 
G01 X-16.8338 Y26.7264 
G01 X-16.8312 Y26.7309 
G01 X-16.7847 Y26.7775 
G01 X-16.6789 Y26.8873 
G01 X-16.6789 Y27.2976 
G01 X-16.6578 Y27.3487 
G01 X-16.6187 Y27.3878 
G01 X-16.5676 Y27.4089 
G01 X-16.5389 Y27.4089 
G01 X-16.5389 Y31.6709 
G01 X-16.5022 Y31.8080 
G01 X-16.4312 Y31.9309 
G01 X-16.3309 Y32.0312 
G01 X-9.3621 Y39.0000 
G01 X-10.4312 Y40.0691 
G01 X-10.5022 Y40.1920 
G01 X-10.5389 Y40.3291 
G01 X-10.5389 Y42.1768 
G01 X-24.2232 Y55.8611 
G01 X-25.3768 Y55.8611 
G01 X-30.0691 Y51.1688 
G01 X-30.1920 Y51.0978 
G01 X-30.3290 Y51.0611 
G01 X-30.6868 Y51.0611 
G01 X-30.7609 Y50.9156 
G01 X-30.8663 Y50.7706 
G01 X-30.9931 Y50.6438 
G01 X-31.1381 Y50.5384 
G01 X-31.2978 Y50.4570 
G01 X-31.4683 Y50.4016 
G01 X-31.6454 Y50.3736 
G01 X-31.8246 Y50.3736 
G01 X-32.0017 Y50.4016 
G01 X-32.1722 Y50.4570 
G01 X-32.3319 Y50.5384 
G01 X-32.4769 Y50.6438 
G01 X-32.6037 Y50.7706 
G01 X-32.7091 Y50.9156 
G01 X-32.7905 Y51.0753 
G01 X-32.8459 Y51.2458 
G01 X-32.8739 Y51.4229 
G01 X-32.8739 Y51.6021 
G01 X-32.8459 Y51.7792 
G01 X-32.7905 Y51.9497 
G01 X-32.7091 Y52.1094 
G01 X-32.6037 Y52.2544 
G01 X-32.4769 Y52.3812 
G01 X-32.3319 Y52.4866 
G01 X-32.1722 Y52.5680 
G01 X-32.0017 Y52.6234 
G01 X-31.8246 Y52.6514 
G01 X-31.6454 Y52.6514 
G01 X-31.4683 Y52.6234 
G01 X-31.2978 Y52.5680 
G01 X-31.1381 Y52.4866 
G01 X-30.9931 Y52.3812 
G01 X-30.8663 Y52.2544 
G01 X-30.7824 Y52.1389 
G01 X-30.6232 Y52.1389 
G01 X-26.0312 Y56.7309 
G01 X-25.9309 Y56.8312 
G01 X-25.8080 Y56.9022 
G01 X-25.6709 Y56.9389 
G01 X-23.9291 Y56.9389 
G01 X-23.7920 Y56.9022 
G01 X-23.6691 Y56.8312 
G01 X-9.6691 Y42.8312 
G01 X-9.5688 Y42.7309 
G01 X-9.4978 Y42.6080 
G01 X-9.4611 Y42.4709 
G01 X-9.4611 Y40.6232 
G01 X-8.6652 Y39.8273 
G01 X-8.5941 Y39.9669 
G01 X-8.4887 Y40.1119 
G01 X-8.3619 Y40.2387 
G01 X-8.2169 Y40.3441 
G01 X-8.0572 Y40.4255 
G01 X-7.8867 Y40.4809 
G01 X-7.7096 Y40.5089 
G01 X-7.5304 Y40.5089 
G01 X-7.3533 Y40.4809 
G01 X-7.1828 Y40.4255 
G01 X-7.0231 Y40.3441 
G01 X-6.8781 Y40.2387 
G01 X-6.7513 Y40.1119 
G01 X-6.6459 Y39.9669 
G01 X-6.5645 Y39.8072 
G01 X-6.5091 Y39.6367 
G01 X-6.4811 Y39.4596 
G01 X-6.4811 Y39.2804 
G01 X-6.5091 Y39.1033 
G01 X-6.5645 Y38.9328 
G01 X-6.6459 Y38.7731 
G01 X-6.7513 Y38.6281 
G01 X-6.8781 Y38.5013 
G01 X-7.0231 Y38.3959 
G01 X-7.1828 Y38.3145 
G01 X-7.3533 Y38.2591 
G01 X-7.5304 Y38.2311 
G01 X-7.7096 Y38.2311 
G01 X-7.8867 Y38.2591 
G01 X-8.0572 Y38.3145 
G01 X-8.2169 Y38.3959 
G01 X-8.3473 Y38.4906 
G01 X-15.4611 Y31.3768 
G01 X-15.4611 Y26.8608 
G01 X-15.4588 Y26.8510 
G01 X-15.4611 Y26.7900 
G01 X-15.4611 Y26.7291 
G01 X-15.4637 Y26.7193 
G01 X-15.4641 Y26.7092 
G01 X-15.4820 Y26.6509 
G01 X-15.4978 Y26.5920 
G01 X-15.5029 Y26.5832 
G01 X-15.5059 Y26.5735 
G01 X-15.5383 Y26.5219 
G01 X-15.5688 Y26.4691 
G01 X-15.5759 Y26.4619 
G01 X-15.5813 Y26.4534 
G01 X-15.6011 Y26.4350 
G01 X-15.6011 Y26.0424 
G01 X-15.6222 Y25.9913 
G01 X-15.6613 Y25.9522 
G01 X-15.7124 Y25.9311 
G01 X-15.8611 Y25.9311 
G01 X-15.8611 Y22.7291 
G01 X-15.8978 Y22.5920 
G01 X-15.9688 Y22.4691 
G01 X-16.5997 Y21.8382 
G01 X-16.5997 Y19.6574 
G01 X-16.6208 Y19.6063 
G01 X-16.6599 Y19.5672 
G01 X-16.7110 Y19.5461 
G01 X-18.0918 Y19.5461 
G01 X-21.2691 Y16.3688 
G00 Z2.0000 
G00 X-21.9913 Y18.3081 
G01 Z-0.0250 F254.00 
G01 X-22.1181 Y18.1813 F508.00 
G01 X-22.2631 Y18.0759 
G01 X-22.4228 Y17.9945 
G01 X-22.5933 Y17.9391 
G01 X-22.7704 Y17.9111 
G01 X-22.9496 Y17.9111 
G01 X-23.1267 Y17.9391 
G01 X-23.2972 Y17.9945 
G01 X-23.4569 Y18.0759 
G01 X-23.6019 Y18.1813 
G01 X-23.7287 Y18.3081 
G01 X-23.8341 Y18.4531 
G01 X-23.9155 Y18.6128 
G01 X-23.9709 Y18.7833 
G01 X-23.9989 Y18.9604 
G01 X-23.9989 Y19.1396 
G01 X-23.9709 Y19.3167 
G01 X-23.9155 Y19.4872 
G01 X-23.8341 Y19.6469 
G01 X-23.7287 Y19.7919 
G01 X-23.6019 Y19.9187 
G01 X-23.4569 Y20.0241 
G01 X-23.2972 Y20.1055 
G01 X-23.1267 Y20.1609 
G01 X-22.9496 Y20.1889 
G01 X-22.7704 Y20.1889 
G01 X-22.5933 Y20.1609 
G01 X-22.4228 Y20.1055 
G01 X-22.2631 Y20.0241 
G01 X-22.1181 Y19.9187 
G01 X-21.9913 Y19.7919 
G01 X-21.8859 Y19.6469 
G01 X-21.8045 Y19.4872 
G01 X-21.7491 Y19.3167 
G01 X-21.7211 Y19.1396 
G01 X-21.7211 Y18.9604 
G01 X-21.7491 Y18.7833 
G01 X-21.8045 Y18.6128 
G01 X-21.8859 Y18.4531 
G01 X-21.9913 Y18.3081 
G00 Z2.0000 
G00 X-21.9913 Y20.8481 
G01 Z-0.0250 F254.00 
G01 X-22.1181 Y20.7213 F508.00 
G01 X-22.2631 Y20.6159 
G01 X-22.4228 Y20.5345 
G01 X-22.5933 Y20.4791 
G01 X-22.7704 Y20.4511 
G01 X-22.9496 Y20.4511 
G01 X-23.1267 Y20.4791 
G01 X-23.2972 Y20.5345 
G01 X-23.4569 Y20.6159 
G01 X-23.6019 Y20.7213 
G01 X-23.7287 Y20.8481 
G01 X-23.8341 Y20.9931 
G01 X-23.8687 Y21.0611 
G01 X-39.5101 Y21.0611 
G01 X-39.5736 Y20.9365 
G01 X-39.6889 Y20.7777 
G01 X-39.8277 Y20.6389 
G01 X-39.9865 Y20.5236 
G01 X-40.1614 Y20.4345 
G01 X-40.3480 Y20.3738 
G01 X-40.5419 Y20.3431 
G01 X-40.7381 Y20.3431 
G01 X-40.9320 Y20.3738 
G01 X-41.1186 Y20.4345 
G01 X-41.2935 Y20.5236 
G01 X-41.4523 Y20.6389 
G01 X-41.5911 Y20.7777 
G01 X-41.7064 Y20.9365 
G01 X-41.7955 Y21.1114 
G01 X-41.8562 Y21.2980 
G01 X-41.8869 Y21.4919 
G01 X-41.8869 Y21.6881 
G01 X-41.8562 Y21.8820 
G01 X-41.7955 Y22.0686 
G01 X-41.7064 Y22.2435 
G01 X-41.5911 Y22.4023 
G01 X-41.4523 Y22.5411 
G01 X-41.2935 Y22.6564 
G01 X-41.1186 Y22.7455 
G01 X-40.9320 Y22.8062 
G01 X-40.7381 Y22.8369 
G01 X-40.5419 Y22.8369 
G01 X-40.3480 Y22.8062 
G01 X-40.1614 Y22.7455 
G01 X-39.9865 Y22.6564 
G01 X-39.8277 Y22.5411 
G01 X-39.6889 Y22.4023 
G01 X-39.5736 Y22.2435 
G01 X-39.5202 Y22.1389 
G01 X-23.8585 Y22.1389 
G01 X-23.8341 Y22.1869 
G01 X-23.7287 Y22.3319 
G01 X-23.6019 Y22.4587 
G01 X-23.4569 Y22.5641 
G01 X-23.2972 Y22.6455 
G01 X-23.1267 Y22.7009 
G01 X-22.9496 Y22.7289 
G01 X-22.7704 Y22.7289 
G01 X-22.5933 Y22.7009 
G01 X-22.4228 Y22.6455 
G01 X-22.2631 Y22.5641 
G01 X-22.1181 Y22.4587 
G01 X-21.9913 Y22.3319 
G01 X-21.8859 Y22.1869 
G01 X-21.8045 Y22.0272 
G01 X-21.7491 Y21.8567 
G01 X-21.7211 Y21.6796 
G01 X-21.7211 Y21.5004 
G01 X-21.7491 Y21.3233 
G01 X-21.8045 Y21.1528 
G01 X-21.8859 Y20.9931 
G01 X-21.9913 Y20.8481 
G00 Z2.0000 
G00 X-21.9913 Y23.3881 
G01 Z-0.0250 F254.00 
G01 X-22.1181 Y23.2613 F508.00 
G01 X-22.2631 Y23.1559 
G01 X-22.4228 Y23.0745 
G01 X-22.5933 Y23.0191 
G01 X-22.7704 Y22.9911 
G01 X-22.9496 Y22.9911 
G01 X-23.1267 Y23.0191 
G01 X-23.2972 Y23.0745 
G01 X-23.4569 Y23.1559 
G01 X-23.6019 Y23.2613 
G01 X-23.7287 Y23.3881 
G01 X-23.8341 Y23.5331 
G01 X-23.9155 Y23.6928 
G01 X-23.9709 Y23.8633 
G01 X-23.9989 Y24.0404 
G01 X-23.9989 Y24.2196 
G01 X-23.9709 Y24.3967 
G01 X-23.9155 Y24.5672 
G01 X-23.8341 Y24.7269 
G01 X-23.7287 Y24.8719 
G01 X-23.6019 Y24.9987 
G01 X-23.4569 Y25.1041 
G01 X-23.2972 Y25.1855 
G01 X-23.1267 Y25.2409 
G01 X-22.9496 Y25.2689 
G01 X-22.7704 Y25.2689 
G01 X-22.5933 Y25.2409 
G01 X-22.4228 Y25.1855 
G01 X-22.2631 Y25.1041 
G01 X-22.1181 Y24.9987 
G01 X-21.9913 Y24.8719 
G01 X-21.8859 Y24.7269 
G01 X-21.8045 Y24.5672 
G01 X-21.7491 Y24.3967 
G01 X-21.7211 Y24.2196 
G01 X-21.7211 Y24.0404 
G01 X-21.7491 Y23.8633 
G01 X-21.8045 Y23.6928 
G01 X-21.8859 Y23.5331 
G01 X-21.9913 Y23.3881 
G00 Z2.0000 
G00 X-21.9913 Y25.9281 
G01 Z-0.0250 F254.00 
G01 X-22.1181 Y25.8013 F508.00 
G01 X-22.2631 Y25.6959 
G01 X-22.4228 Y25.6145 
G01 X-22.5933 Y25.5591 
G01 X-22.7704 Y25.5311 
G01 X-22.9496 Y25.5311 
G01 X-23.1267 Y25.5591 
G01 X-23.2972 Y25.6145 
G01 X-23.4569 Y25.6959 
G01 X-23.6019 Y25.8013 
G01 X-23.7287 Y25.9281 
G01 X-23.8341 Y26.0731 
G01 X-23.9155 Y26.2328 
G01 X-23.9709 Y26.4033 
G01 X-23.9989 Y26.5804 
G01 X-23.9989 Y26.7596 
G01 X-23.9709 Y26.9367 
G01 X-23.9155 Y27.1072 
G01 X-23.8341 Y27.2669 
G01 X-23.7287 Y27.4119 
G01 X-23.6019 Y27.5387 
G01 X-23.4569 Y27.6441 
G01 X-23.2972 Y27.7255 
G01 X-23.1267 Y27.7809 
G01 X-22.9496 Y27.8089 
G01 X-22.7704 Y27.8089 
G01 X-22.5933 Y27.7809 
G01 X-22.4228 Y27.7255 
G01 X-22.2631 Y27.6441 
G01 X-22.1181 Y27.5387 
G01 X-21.9913 Y27.4119 
G01 X-21.8859 Y27.2669 
G01 X-21.8045 Y27.1072 
G01 X-21.7491 Y26.9367 
G01 X-21.7211 Y26.7596 
G01 X-21.7211 Y26.5804 
G01 X-21.7491 Y26.4033 
G01 X-21.8045 Y26.2328 
G01 X-21.8859 Y26.0731 
G01 X-21.9913 Y25.9281 
G00 Z2.0000 
G00 X-21.9913 Y28.4681 
G01 Z-0.0250 F254.00 
G01 X-22.1181 Y28.3413 F508.00 
G01 X-22.2631 Y28.2359 
G01 X-22.4228 Y28.1545 
G01 X-22.5933 Y28.0991 
G01 X-22.7704 Y28.0711 
G01 X-22.9496 Y28.0711 
G01 X-23.1267 Y28.0991 
G01 X-23.2972 Y28.1545 
G01 X-23.4569 Y28.2359 
G01 X-23.6019 Y28.3413 
G01 X-23.7287 Y28.4681 
G01 X-23.8341 Y28.6131 
G01 X-23.9155 Y28.7728 
G01 X-23.9709 Y28.9433 
G01 X-23.9989 Y29.1204 
G01 X-23.9989 Y29.2996 
G01 X-23.9709 Y29.4767 
G01 X-23.9155 Y29.6472 
G01 X-23.8341 Y29.8069 
G01 X-23.7287 Y29.9519 
G01 X-23.6019 Y30.0787 
G01 X-23.4569 Y30.1841 
G01 X-23.2972 Y30.2655 
G01 X-23.1267 Y30.3209 
G01 X-22.9496 Y30.3489 
G01 X-22.7704 Y30.3489 
G01 X-22.5933 Y30.3209 
G01 X-22.4228 Y30.2655 
G01 X-22.2631 Y30.1841 
G01 X-22.1181 Y30.0787 
G01 X-21.9913 Y29.9519 
G01 X-21.8859 Y29.8069 
G01 X-21.8045 Y29.6472 
G01 X-21.7491 Y29.4767 
G01 X-21.7211 Y29.2996 
G01 X-21.7211 Y29.1204 
G01 X-21.7491 Y28.9433 
G01 X-21.8045 Y28.7728 
G01 X-21.8859 Y28.6131 
G01 X-21.9913 Y28.4681 
G00 Z2.0000 
G00 X-21.9913 Y31.0081 
G01 Z-0.0250 F254.00 
G01 X-22.1181 Y30.8813 F508.00 
G01 X-22.2631 Y30.7759 
G01 X-22.4228 Y30.6945 
G01 X-22.5933 Y30.6391 
G01 X-22.7704 Y30.6111 
G01 X-22.9496 Y30.6111 
G01 X-23.1267 Y30.6391 
G01 X-23.2972 Y30.6945 
G01 X-23.4569 Y30.7759 
G01 X-23.6019 Y30.8813 
G01 X-23.7287 Y31.0081 
G01 X-23.8341 Y31.1531 
G01 X-23.9155 Y31.3128 
G01 X-23.9709 Y31.4833 
G01 X-23.9989 Y31.6604 
G01 X-23.9989 Y31.8396 
G01 X-23.9709 Y32.0167 
G01 X-23.9155 Y32.1872 
G01 X-23.8341 Y32.3469 
G01 X-23.7287 Y32.4919 
G01 X-23.6019 Y32.6187 
G01 X-23.4569 Y32.7241 
G01 X-23.2972 Y32.8055 
G01 X-23.1267 Y32.8609 
G01 X-22.9496 Y32.8889 
G01 X-22.7704 Y32.8889 
G01 X-22.5933 Y32.8609 
G01 X-22.4228 Y32.8055 
G01 X-22.2631 Y32.7241 
G01 X-22.1181 Y32.6187 
G01 X-21.9913 Y32.4919 
G01 X-21.8859 Y32.3469 
G01 X-21.8045 Y32.1872 
G01 X-21.7491 Y32.0167 
G01 X-21.7211 Y31.8396 
G01 X-21.7211 Y31.6604 
G01 X-21.7491 Y31.4833 
G01 X-21.8045 Y31.3128 
G01 X-21.8859 Y31.1531 
G01 X-21.9913 Y31.0081 
G00 Z2.0000 
G00 X-21.9913 Y33.5481 
G01 Z-0.0250 F254.00 
G01 X-22.1181 Y33.4213 F508.00 
G01 X-22.2631 Y33.3159 
G01 X-22.4228 Y33.2345 
G01 X-22.5933 Y33.1791 
G01 X-22.7704 Y33.1511 
G01 X-22.9496 Y33.1511 
G01 X-23.1267 Y33.1791 
G01 X-23.2972 Y33.2345 
G01 X-23.4569 Y33.3159 
G01 X-23.6019 Y33.4213 
G01 X-23.7287 Y33.5481 
G01 X-23.8341 Y33.6931 
G01 X-23.9155 Y33.8528 
G01 X-23.9709 Y34.0233 
G01 X-23.9989 Y34.2004 
G01 X-23.9989 Y34.3796 
G01 X-23.9709 Y34.5567 
G01 X-23.9155 Y34.7272 
G01 X-23.8341 Y34.8869 
G01 X-23.7287 Y35.0319 
G01 X-23.6019 Y35.1587 
G01 X-23.4569 Y35.2641 
G01 X-23.2972 Y35.3455 
G01 X-23.1267 Y35.4009 
G01 X-22.9496 Y35.4289 
G01 X-22.7704 Y35.4289 
G01 X-22.5933 Y35.4009 
G01 X-22.4228 Y35.3455 
G01 X-22.2631 Y35.2641 
G01 X-22.1181 Y35.1587 
G01 X-21.9913 Y35.0319 
G01 X-21.8859 Y34.8869 
G01 X-21.8045 Y34.7272 
G01 X-21.7491 Y34.5567 
G01 X-21.7211 Y34.3796 
G01 X-21.7211 Y34.2004 
G01 X-21.7491 Y34.0233 
G01 X-21.8045 Y33.8528 
G01 X-21.8859 Y33.6931 
G01 X-21.9913 Y33.5481 
G00 Z2.0000 
G00 X-21.9913 Y36.0881 
G01 Z-0.0250 F254.00 
G01 X-22.1181 Y35.9613 F508.00 
G01 X-22.2631 Y35.8559 
G01 X-22.4228 Y35.7745 
G01 X-22.5933 Y35.7191 
G01 X-22.7704 Y35.6911 
G01 X-22.9496 Y35.6911 
G01 X-23.1267 Y35.7191 
G01 X-23.2972 Y35.7745 
G01 X-23.4569 Y35.8559 
G01 X-23.6019 Y35.9613 
G01 X-23.7287 Y36.0881 
G01 X-23.8341 Y36.2331 
G01 X-23.9155 Y36.3928 
G01 X-23.9709 Y36.5633 
G01 X-23.9989 Y36.7404 
G01 X-23.9989 Y36.9196 
G01 X-23.9709 Y37.0967 
G01 X-23.9155 Y37.2672 
G01 X-23.8341 Y37.4269 
G01 X-23.7287 Y37.5719 
G01 X-23.6019 Y37.6987 
G01 X-23.4569 Y37.8041 
G01 X-23.2972 Y37.8855 
G01 X-23.1267 Y37.9409 
G01 X-22.9496 Y37.9689 
G01 X-22.7704 Y37.9689 
G01 X-22.5933 Y37.9409 
G01 X-22.4228 Y37.8855 
G01 X-22.2631 Y37.8041 
G01 X-22.1181 Y37.6987 
G01 X-21.9913 Y37.5719 
G01 X-21.8859 Y37.4269 
G01 X-21.8045 Y37.2672 
G01 X-21.7491 Y37.0967 
G01 X-21.7211 Y36.9196 
G01 X-21.7211 Y36.7404 
G01 X-21.7491 Y36.5633 
G01 X-21.8045 Y36.3928 
G01 X-21.8859 Y36.2331 
G01 X-21.9913 Y36.0881 
G00 Z2.0000 
G00 X-21.9913 Y38.6281 
G01 Z-0.0250 F254.00 
G01 X-22.1181 Y38.5013 F508.00 
G01 X-22.2631 Y38.3959 
G01 X-22.4228 Y38.3145 
G01 X-22.5933 Y38.2591 
G01 X-22.7704 Y38.2311 
G01 X-22.9496 Y38.2311 
G01 X-23.1267 Y38.2591 
G01 X-23.2972 Y38.3145 
G01 X-23.4569 Y38.3959 
G01 X-23.6019 Y38.5013 
G01 X-23.7287 Y38.6281 
G01 X-23.7527 Y38.6611 
G01 X-23.7768 Y38.6611 
G01 X-38.4691 Y23.9688 
G01 X-38.5920 Y23.8978 
G01 X-38.7291 Y23.8611 
G01 X-39.4138 Y23.8611 
G01 X-39.4238 Y23.7980 
G01 X-39.4845 Y23.6114 
G01 X-39.5736 Y23.4365 
G01 X-39.6889 Y23.2777 
G01 X-39.8277 Y23.1389 
G01 X-39.9865 Y23.0236 
G01 X-40.1614 Y22.9345 
G01 X-40.3480 Y22.8738 
G01 X-40.5419 Y22.8431 
G01 X-40.7381 Y22.8431 
G01 X-40.9320 Y22.8738 
G01 X-41.1186 Y22.9345 
G01 X-41.2935 Y23.0236 
G01 X-41.4523 Y23.1389 
G01 X-41.5911 Y23.2777 
G01 X-41.7064 Y23.4365 
G01 X-41.7955 Y23.6114 
G01 X-41.8562 Y23.7980 
G01 X-41.8869 Y23.9919 
G01 X-41.8869 Y24.1881 
G01 X-41.8562 Y24.3820 
G01 X-41.7955 Y24.5686 
G01 X-41.7064 Y24.7435 
G01 X-41.5911 Y24.9023 
G01 X-41.4523 Y25.0411 
G01 X-41.2935 Y25.1564 
G01 X-41.1186 Y25.2455 
G01 X-40.9320 Y25.3062 
G01 X-40.7381 Y25.3369 
G01 X-40.5419 Y25.3369 
G01 X-40.3480 Y25.3062 
G01 X-40.1614 Y25.2455 
G01 X-39.9865 Y25.1564 
G01 X-39.8277 Y25.0411 
G01 X-39.7255 Y24.9389 
G01 X-39.0232 Y24.9389 
G01 X-24.4312 Y39.5309 
G01 X-24.3309 Y39.6312 
G01 X-24.2080 Y39.7022 
G01 X-24.0709 Y39.7389 
G01 X-23.9376 Y39.7389 
G01 X-23.9155 Y39.8072 
G01 X-23.8341 Y39.9669 
G01 X-23.7287 Y40.1119 
G01 X-23.6019 Y40.2387 
G01 X-23.4569 Y40.3441 
G01 X-23.2972 Y40.4255 
G01 X-23.1267 Y40.4809 
G01 X-22.9496 Y40.5089 
G01 X-22.7704 Y40.5089 
G01 X-22.5933 Y40.4809 
G01 X-22.4228 Y40.4255 
G01 X-22.2631 Y40.3441 
G01 X-22.1181 Y40.2387 
G01 X-21.9913 Y40.1119 
G01 X-21.8859 Y39.9669 
G01 X-21.8045 Y39.8072 
G01 X-21.7491 Y39.6367 
G01 X-21.7211 Y39.4596 
G01 X-21.7211 Y39.2804 
G01 X-21.7491 Y39.1033 
G01 X-21.8045 Y38.9328 
G01 X-21.8859 Y38.7731 
G01 X-21.9913 Y38.6281 
G00 Z2.0000 
G00 X-21.9913 Y41.1681 
G01 Z-0.0250 F254.00 
G01 X-22.1181 Y41.0413 F508.00 
G01 X-22.2631 Y40.9359 
G01 X-22.4228 Y40.8545 
G01 X-22.5933 Y40.7991 
G01 X-22.7704 Y40.7711 
G01 X-22.9496 Y40.7711 
G01 X-23.1267 Y40.7991 
G01 X-23.2972 Y40.8545 
G01 X-23.4569 Y40.9359 
G01 X-23.6019 Y41.0413 
G01 X-23.7287 Y41.1681 
G01 X-23.8341 Y41.3131 
G01 X-23.9155 Y41.4728 
G01 X-23.9709 Y41.6433 
G01 X-23.9989 Y41.8204 
G01 X-23.9989 Y41.9996 
G01 X-23.9709 Y42.1767 
G01 X-23.9155 Y42.3472 
G01 X-23.8341 Y42.5069 
G01 X-23.7287 Y42.6519 
G01 X-23.6019 Y42.7787 
G01 X-23.4569 Y42.8841 
G01 X-23.2972 Y42.9655 
G01 X-23.1267 Y43.0209 
G01 X-22.9496 Y43.0489 
G01 X-22.7704 Y43.0489 
G01 X-22.5933 Y43.0209 
G01 X-22.4228 Y42.9655 
G01 X-22.2631 Y42.8841 
G01 X-22.1181 Y42.7787 
G01 X-21.9913 Y42.6519 
G01 X-21.8859 Y42.5069 
G01 X-21.8045 Y42.3472 
G01 X-21.7491 Y42.1767 
G01 X-21.7211 Y41.9996 
G01 X-21.7211 Y41.8204 
G01 X-21.7491 Y41.6433 
G01 X-21.8045 Y41.4728 
G01 X-21.8859 Y41.3131 
G01 X-21.9913 Y41.1681 
G00 Z2.0000 
G00 X-21.9913 Y43.7081 
G01 Z-0.0250 F254.00 
G01 X-22.1181 Y43.5813 F508.00 
G01 X-22.2631 Y43.4759 
G01 X-22.4228 Y43.3945 
G01 X-22.5933 Y43.3391 
G01 X-22.7704 Y43.3111 
G01 X-22.9496 Y43.3111 
G01 X-23.1267 Y43.3391 
G01 X-23.2972 Y43.3945 
G01 X-23.4569 Y43.4759 
G01 X-23.6019 Y43.5813 
G01 X-23.7287 Y43.7081 
G01 X-23.8341 Y43.8531 
G01 X-23.9155 Y44.0128 
G01 X-23.9709 Y44.1833 
G01 X-23.9989 Y44.3604 
G01 X-23.9989 Y44.5396 
G01 X-23.9709 Y44.7167 
G01 X-23.9155 Y44.8872 
G01 X-23.8341 Y45.0469 
G01 X-23.7287 Y45.1919 
G01 X-23.6019 Y45.3187 
G01 X-23.4569 Y45.4241 
G01 X-23.2972 Y45.5055 
G01 X-23.1267 Y45.5609 
G01 X-22.9496 Y45.5889 
G01 X-22.7704 Y45.5889 
G01 X-22.5933 Y45.5609 
G01 X-22.4228 Y45.5055 
G01 X-22.2631 Y45.4241 
G01 X-22.1181 Y45.3187 
G01 X-21.9913 Y45.1919 
G01 X-21.8859 Y45.0469 
G01 X-21.8045 Y44.8872 
G01 X-21.7491 Y44.7167 
G01 X-21.7211 Y44.5396 
G01 X-21.7211 Y44.3604 
G01 X-21.7491 Y44.1833 
G01 X-21.8045 Y44.0128 
G01 X-21.8859 Y43.8531 
G01 X-21.9913 Y43.7081 
G00 Z2.0000 
G00 X-21.9913 Y46.2481 
G01 Z-0.0250 F254.00 
G01 X-22.1181 Y46.1213 F508.00 
G01 X-22.2631 Y46.0159 
G01 X-22.4228 Y45.9345 
G01 X-22.5933 Y45.8791 
G01 X-22.7704 Y45.8511 
G01 X-22.9496 Y45.8511 
G01 X-23.1267 Y45.8791 
G01 X-23.2972 Y45.9345 
G01 X-23.4569 Y46.0159 
G01 X-23.6019 Y46.1213 
G01 X-23.7287 Y46.2481 
G01 X-23.8341 Y46.3931 
G01 X-23.9155 Y46.5528 
G01 X-23.9709 Y46.7233 
G01 X-23.9989 Y46.9004 
G01 X-23.9989 Y47.0796 
G01 X-23.9709 Y47.2567 
G01 X-23.9155 Y47.4272 
G01 X-23.8341 Y47.5869 
G01 X-23.7287 Y47.7319 
G01 X-23.6019 Y47.8587 
G01 X-23.4569 Y47.9641 
G01 X-23.2972 Y48.0455 
G01 X-23.1267 Y48.1009 
G01 X-22.9496 Y48.1289 
G01 X-22.7704 Y48.1289 
G01 X-22.5933 Y48.1009 
G01 X-22.4228 Y48.0455 
G01 X-22.2631 Y47.9641 
G01 X-22.1181 Y47.8587 
G01 X-21.9913 Y47.7319 
G01 X-21.8859 Y47.5869 
G01 X-21.8045 Y47.4272 
G01 X-21.7491 Y47.2567 
G01 X-21.7211 Y47.0796 
G01 X-21.7211 Y46.9004 
G01 X-21.7491 Y46.7233 
G01 X-21.8045 Y46.5528 
G01 X-21.8859 Y46.3931 
G01 X-21.9913 Y46.2481 
G00 Z2.0000 
G00 X-24.3688 Y52.0691 
G01 Z-0.0250 F254.00 
G01 X-30.3688 Y46.0691 F508.00 
G01 X-30.4691 Y45.9688 
G01 X-30.5920 Y45.8978 
G01 X-30.7291 Y45.8611 
G01 X-32.4709 Y45.8611 
G01 X-32.6080 Y45.8978 
G01 X-32.7309 Y45.9688 
G01 X-34.3309 Y47.5688 
G01 X-34.4312 Y47.6691 
G01 X-34.5022 Y47.7920 
G01 X-34.5199 Y47.8582 
G01 X-34.5417 Y47.8616 
G01 X-34.7122 Y47.9170 
G01 X-34.8719 Y47.9984 
G01 X-35.0169 Y48.1038 
G01 X-35.1437 Y48.2306 
G01 X-35.2491 Y48.3756 
G01 X-35.3305 Y48.5353 
G01 X-35.3859 Y48.7058 
G01 X-35.4139 Y48.8829 
G01 X-35.4139 Y49.0621 
G01 X-35.3859 Y49.2392 
G01 X-35.3305 Y49.4097 
G01 X-35.2491 Y49.5694 
G01 X-35.1437 Y49.7144 
G01 X-35.0169 Y49.8412 
G01 X-34.8719 Y49.9466 
G01 X-34.7122 Y50.0280 
G01 X-34.5417 Y50.0834 
G01 X-34.3646 Y50.1114 
G01 X-34.1854 Y50.1114 
G01 X-34.0083 Y50.0834 
G01 X-33.8378 Y50.0280 
G01 X-33.6781 Y49.9466 
G01 X-33.5331 Y49.8412 
G01 X-33.4063 Y49.7144 
G01 X-33.3009 Y49.5694 
G01 X-33.2195 Y49.4097 
G01 X-33.1641 Y49.2392 
G01 X-33.1361 Y49.0621 
G01 X-33.1361 Y48.8829 
G01 X-33.1641 Y48.7058 
G01 X-33.2195 Y48.5353 
G01 X-33.3009 Y48.3756 
G01 X-33.4063 Y48.2306 
G01 X-33.4374 Y48.1995 
G01 X-32.1768 Y46.9389 
G01 X-31.0232 Y46.9389 
G01 X-25.3389 Y52.6232 
G01 X-25.3389 Y52.9964 
G01 X-25.3969 Y53.0259 
G01 X-25.5419 Y53.1313 
G01 X-25.6687 Y53.2581 
G01 X-25.7741 Y53.4031 
G01 X-25.8555 Y53.5628 
G01 X-25.9109 Y53.7333 
G01 X-25.9389 Y53.9104 
G01 X-25.9389 Y54.0896 
G01 X-25.9109 Y54.2667 
G01 X-25.8555 Y54.4372 
G01 X-25.7741 Y54.5969 
G01 X-25.6687 Y54.7419 
G01 X-25.5419 Y54.8687 
G01 X-25.3969 Y54.9741 
G01 X-25.2372 Y55.0555 
G01 X-25.0667 Y55.1109 
G01 X-24.8896 Y55.1389 
G01 X-24.7104 Y55.1389 
G01 X-24.5333 Y55.1109 
G01 X-24.3628 Y55.0555 
G01 X-24.2031 Y54.9741 
G01 X-24.0581 Y54.8687 
G01 X-23.9313 Y54.7419 
G01 X-23.8259 Y54.5969 
G01 X-23.7445 Y54.4372 
G01 X-23.6891 Y54.2667 
G01 X-23.6611 Y54.0896 
G01 X-23.6611 Y53.9104 
G01 X-23.6891 Y53.7333 
G01 X-23.7445 Y53.5628 
G01 X-23.8259 Y53.4031 
G01 X-23.9313 Y53.2581 
G01 X-24.0581 Y53.1313 
G01 X-24.2031 Y53.0259 
G01 X-24.2611 Y52.9964 
G01 X-24.2611 Y52.4709 
G01 X-24.2611 Y52.3291 
G01 X-24.2978 Y52.1920 
G01 X-24.3688 Y52.0691 
G00 Z2.0000 
G00 X-30.9931 Y49.8412 
G01 Z-0.0250 F254.00 
G01 X-30.8663 Y49.7144 F508.00 
G01 X-30.7609 Y49.5694 
G01 X-30.6795 Y49.4097 
G01 X-30.6241 Y49.2392 
G01 X-30.5961 Y49.0621 
G01 X-30.5961 Y48.8829 
G01 X-30.6241 Y48.7058 
G01 X-30.6795 Y48.5353 
G01 X-30.7609 Y48.3756 
G01 X-30.8663 Y48.2306 
G01 X-30.9931 Y48.1038 
G01 X-31.1381 Y47.9984 
G01 X-31.2978 Y47.9170 
G01 X-31.4683 Y47.8616 
G01 X-31.6454 Y47.8336 
G01 X-31.8246 Y47.8336 
G01 X-32.0017 Y47.8616 
G01 X-32.1722 Y47.9170 
G01 X-32.3319 Y47.9984 
G01 X-32.4769 Y48.1038 
G01 X-32.6037 Y48.2306 
G01 X-32.7091 Y48.3756 
G01 X-32.7905 Y48.5353 
G01 X-32.8459 Y48.7058 
G01 X-32.8739 Y48.8829 
G01 X-32.8739 Y49.0621 
G01 X-32.8459 Y49.2392 
G01 X-32.7905 Y49.4097 
G01 X-32.7091 Y49.5694 
G01 X-32.6037 Y49.7144 
G01 X-32.4769 Y49.8412 
G01 X-32.3319 Y49.9466 
G01 X-32.1722 Y50.0280 
G01 X-32.0017 Y50.0834 
G01 X-31.8246 Y50.1114 
G01 X-31.6454 Y50.1114 
G01 X-31.4683 Y50.0834 
G01 X-31.2978 Y50.0280 
G01 X-31.1381 Y49.9466 
G01 X-30.9931 Y49.8412 
G00 Z2.0000 
G00 X-33.4063 Y50.7706 
G01 Z-0.0250 F254.00 
G01 X-33.5331 Y50.6438 F508.00 
G01 X-33.6781 Y50.5384 
G01 X-33.8378 Y50.4570 
G01 X-34.0083 Y50.4016 
G01 X-34.1854 Y50.3736 
G01 X-34.3646 Y50.3736 
G01 X-34.5417 Y50.4016 
G01 X-34.7122 Y50.4570 
G01 X-34.8719 Y50.5384 
G01 X-35.0169 Y50.6438 
G01 X-35.1437 Y50.7706 
G01 X-35.2491 Y50.9156 
G01 X-35.3305 Y51.0753 
G01 X-35.3859 Y51.2458 
G01 X-35.4139 Y51.4229 
G01 X-35.4139 Y51.6021 
G01 X-35.3859 Y51.7792 
G01 X-35.3305 Y51.9497 
G01 X-35.2491 Y52.1094 
G01 X-35.1437 Y52.2544 
G01 X-35.0169 Y52.3812 
G01 X-34.8719 Y52.4866 
G01 X-34.7122 Y52.5680 
G01 X-34.5417 Y52.6234 
G01 X-34.3646 Y52.6514 
G01 X-34.1854 Y52.6514 
G01 X-34.0083 Y52.6234 
G01 X-33.8378 Y52.5680 
G01 X-33.6781 Y52.4866 
G01 X-33.5331 Y52.3812 
G01 X-33.4063 Y52.2544 
G01 X-33.3009 Y52.1094 
G01 X-33.2195 Y51.9497 
G01 X-33.1641 Y51.7792 
G01 X-33.1361 Y51.6021 
G01 X-33.1361 Y51.4229 
G01 X-33.1641 Y51.2458 
G01 X-33.2195 Y51.0753 
G01 X-33.3009 Y50.9156 
G01 X-33.4063 Y50.7706 
G00 Z2.0000 
G00 X-35.9463 Y50.7706 
G01 Z-0.0250 F254.00 
G01 X-36.0731 Y50.6438 F508.00 
G01 X-36.2181 Y50.5384 
G01 X-36.3778 Y50.4570 
G01 X-36.5483 Y50.4016 
G01 X-36.7254 Y50.3736 
G01 X-36.9046 Y50.3736 
G01 X-37.0817 Y50.4016 
G01 X-37.2522 Y50.4570 
G01 X-37.4119 Y50.5384 
G01 X-37.5569 Y50.6438 
G01 X-37.6837 Y50.7706 
G01 X-37.7891 Y50.9156 
G01 X-37.8705 Y51.0753 
G01 X-37.9259 Y51.2458 
G01 X-37.9539 Y51.4229 
G01 X-37.9539 Y51.6021 
G01 X-37.9259 Y51.7792 
G01 X-37.8705 Y51.9497 
G01 X-37.7891 Y52.1094 
G01 X-37.6837 Y52.2544 
G01 X-37.5569 Y52.3812 
G01 X-37.4119 Y52.4866 
G01 X-37.2522 Y52.5680 
G01 X-37.0817 Y52.6234 
G01 X-36.9046 Y52.6514 
G01 X-36.7254 Y52.6514 
G01 X-36.5483 Y52.6234 
G01 X-36.3778 Y52.5680 
G01 X-36.2181 Y52.4866 
G01 X-36.0731 Y52.3812 
G01 X-35.9463 Y52.2544 
G01 X-35.8409 Y52.1094 
G01 X-35.7595 Y51.9497 
G01 X-35.7041 Y51.7792 
G01 X-35.6761 Y51.6021 
G01 X-35.6761 Y51.4229 
G01 X-35.7041 Y51.2458 
G01 X-35.7595 Y51.0753 
G01 X-35.8409 Y50.9156 
G01 X-35.9463 Y50.7706 
G00 Z2.0000 
G00 X-36.0731 Y49.8412 
G01 Z-0.0250 F254.00 
G01 X-35.9463 Y49.7144 F508.00 
G01 X-35.8409 Y49.5694 
G01 X-35.7595 Y49.4097 
G01 X-35.7041 Y49.2392 
G01 X-35.6761 Y49.0621 
G01 X-35.6761 Y48.8829 
G01 X-35.7041 Y48.7058 
G01 X-35.7595 Y48.5353 
G01 X-35.8409 Y48.3756 
G01 X-35.9463 Y48.2306 
G01 X-36.0731 Y48.1038 
G01 X-36.2181 Y47.9984 
G01 X-36.3778 Y47.9170 
G01 X-36.5483 Y47.8616 
G01 X-36.7254 Y47.8336 
G01 X-36.9046 Y47.8336 
G01 X-37.0817 Y47.8616 
G01 X-37.2522 Y47.9170 
G01 X-37.4119 Y47.9984 
G01 X-37.5569 Y48.1038 
G01 X-37.6837 Y48.2306 
G01 X-37.7891 Y48.3756 
G01 X-37.8705 Y48.5353 
G01 X-37.9259 Y48.7058 
G01 X-37.9539 Y48.8829 
G01 X-37.9539 Y49.0621 
G01 X-37.9259 Y49.2392 
G01 X-37.8705 Y49.4097 
G01 X-37.7891 Y49.5694 
G01 X-37.6837 Y49.7144 
G01 X-37.5569 Y49.8412 
G01 X-37.4119 Y49.9466 
G01 X-37.2522 Y50.0280 
G01 X-37.0817 Y50.0834 
G01 X-36.9046 Y50.1114 
G01 X-36.7254 Y50.1114 
G01 X-36.5483 Y50.0834 
G01 X-36.3778 Y50.0280 
G01 X-36.2181 Y49.9466 
G01 X-36.0731 Y49.8412 
G00 Z2.0000 
G00 X-38.6131 Y49.8412 
G01 Z-0.0250 F254.00 
G01 X-38.4863 Y49.7144 F508.00 
G01 X-38.3809 Y49.5694 
G01 X-38.2995 Y49.4097 
G01 X-38.2441 Y49.2392 
G01 X-38.2161 Y49.0621 
G01 X-38.2161 Y48.8829 
G01 X-38.2441 Y48.7058 
G01 X-38.2995 Y48.5353 
G01 X-38.3809 Y48.3756 
G01 X-38.4863 Y48.2306 
G01 X-38.6131 Y48.1038 
G01 X-38.7581 Y47.9984 
G01 X-38.9178 Y47.9170 
G01 X-39.0883 Y47.8616 
G01 X-39.2654 Y47.8336 
G01 X-39.4446 Y47.8336 
G01 X-39.6217 Y47.8616 
G01 X-39.7922 Y47.9170 
G01 X-39.9519 Y47.9984 
G01 X-40.0969 Y48.1038 
G01 X-40.2237 Y48.2306 
G01 X-40.3291 Y48.3756 
G01 X-40.4105 Y48.5353 
G01 X-40.4659 Y48.7058 
G01 X-40.4939 Y48.8829 
G01 X-40.4939 Y49.0621 
G01 X-40.4659 Y49.2392 
G01 X-40.4105 Y49.4097 
G01 X-40.3291 Y49.5694 
G01 X-40.2237 Y49.7144 
G01 X-40.0969 Y49.8412 
G01 X-39.9519 Y49.9466 
G01 X-39.7922 Y50.0280 
G01 X-39.6217 Y50.0834 
G01 X-39.4446 Y50.1114 
G01 X-39.2654 Y50.1114 
G01 X-39.0883 Y50.0834 
G01 X-38.9178 Y50.0280 
G01 X-38.7581 Y49.9466 
G01 X-38.6131 Y49.8412 
G00 Z2.0000 
G00 X-38.6131 Y50.6438 
G01 Z-0.0250 F254.00 
G01 X-38.7581 Y50.5384 F508.00 
G01 X-38.9178 Y50.4570 
G01 X-39.0883 Y50.4016 
G01 X-39.2654 Y50.3736 
G01 X-39.4446 Y50.3736 
G01 X-39.6217 Y50.4016 
G01 X-39.7922 Y50.4570 
G01 X-39.9519 Y50.5384 
G01 X-40.0969 Y50.6438 
G01 X-40.2237 Y50.7706 
G01 X-40.3291 Y50.9156 
G01 X-40.4105 Y51.0753 
G01 X-40.4659 Y51.2458 
G01 X-40.4939 Y51.4229 
G01 X-40.4939 Y51.6021 
G01 X-40.4659 Y51.7792 
G01 X-40.4105 Y51.9497 
G01 X-40.3291 Y52.1094 
G01 X-40.2237 Y52.2544 
G01 X-40.0969 Y52.3812 
G01 X-39.9519 Y52.4866 
G01 X-39.7922 Y52.5680 
G01 X-39.6217 Y52.6234 
G01 X-39.4446 Y52.6514 
G01 X-39.2654 Y52.6514 
G01 X-39.0883 Y52.6234 
G01 X-38.9178 Y52.5680 
G01 X-38.7581 Y52.4866 
G01 X-38.6131 Y52.3812 
G01 X-38.4863 Y52.2544 
G01 X-38.3809 Y52.1094 
G01 X-38.2995 Y51.9497 
G01 X-38.2441 Y51.7792 
G01 X-38.2161 Y51.6021 
G01 X-38.2161 Y51.4229 
G01 X-38.2441 Y51.2458 
G01 X-38.2995 Y51.0753 
G01 X-38.3809 Y50.9156 
G01 X-38.4863 Y50.7706 
G01 X-38.6131 Y50.6438 
G00 Z2.0000 
G00 X-38.5863 Y60.2192 
G01 Z-0.0250 F254.00 
G01 X-38.8149 Y60.4267 F508.00 
G01 X-39.0150 Y60.6618 
G01 X-39.1834 Y60.9206 
G01 X-39.3174 Y61.1988 
G01 X-39.4147 Y61.4918 
G01 X-39.4737 Y61.7949 
G01 X-39.4935 Y62.1030 
G01 X-39.4737 Y62.4111 
G01 X-39.4147 Y62.7142 
G01 X-39.3174 Y63.0072 
G01 X-39.1834 Y63.2854 
G01 X-39.0150 Y63.5441 
G01 X-38.8149 Y63.7792 
G01 X-38.5863 Y63.9868 
G01 X-38.3331 Y64.1635 
G01 X-38.0593 Y64.3063 
G01 X-37.7696 Y64.4129 
G01 X-37.4686 Y64.4816 
G01 X-37.1612 Y64.5113 
G01 X-36.8526 Y64.5014 
G01 X-36.5478 Y64.4521 
G01 X-36.2518 Y64.3642 
G01 X-35.9695 Y64.2393 
G01 X-35.7055 Y64.0792 
G01 X-35.4641 Y63.8867 
G01 X-35.2493 Y63.6649 
G01 X-35.0646 Y63.4175 
G01 X-34.9131 Y63.1484 
G01 X-34.7972 Y62.8623 
G01 X-34.7189 Y62.5636 
G01 X-34.6794 Y62.2574 
G01 X-34.6794 Y61.9486 
G01 X-34.7189 Y61.6424 
G01 X-34.7972 Y61.3437 
G01 X-34.9131 Y61.0576 
G01 X-35.0646 Y60.7885 
G01 X-35.2493 Y60.5411 
G01 X-35.4641 Y60.3193 
G01 X-35.7055 Y60.1268 
G01 X-35.9695 Y59.9667 
G01 X-36.2518 Y59.8417 
G01 X-36.5478 Y59.7539 
G01 X-36.8526 Y59.7046 
G01 X-37.1612 Y59.6947 
G01 X-37.4686 Y59.7244 
G01 X-37.7696 Y59.7931 
G01 X-38.0593 Y59.8997 
G01 X-38.3331 Y60.0425 
G01 X-38.5863 Y60.2192 
G00 Z2.0000 
G00 X-38.3234 Y60.9027 
G01 Z-0.0250 F254.00 
G01 X-38.1597 Y60.7541 F508.00 
G01 X-37.9784 Y60.6276 
G01 X-37.7824 Y60.5254 
G01 X-37.5749 Y60.4490 
G01 X-37.3594 Y60.3998 
G01 X-37.1393 Y60.3786 
G01 X-36.9183 Y60.3857 
G01 X-36.7001 Y60.4209 
G01 X-36.4881 Y60.4838 
G01 X-36.2860 Y60.5733 
G01 X-36.0969 Y60.6879 
G01 X-35.9241 Y60.8258 
G01 X-35.7703 Y60.9846 
G01 X-35.6380 Y61.1618 
G01 X-35.5295 Y61.3544 
G01 X-35.4466 Y61.5593 
G01 X-35.3905 Y61.7732 
G01 X-35.3622 Y61.9925 
G01 X-35.3622 Y62.2135 
G01 X-35.3905 Y62.4328 
G01 X-35.4466 Y62.6467 
G01 X-35.5295 Y62.8516 
G01 X-35.6380 Y63.0442 
G01 X-35.7703 Y63.2214 
G01 X-35.9241 Y63.3802 
G01 X-36.0969 Y63.5181 
G01 X-36.2860 Y63.6327 
G01 X-36.4881 Y63.7221 
G01 X-36.7001 Y63.7851 
G01 X-36.9183 Y63.8203 
G01 X-37.1393 Y63.8274 
G01 X-37.3594 Y63.8062 
G01 X-37.5749 Y63.7570 
G01 X-37.7824 Y63.6806 
G01 X-37.9784 Y63.5784 
G01 X-38.1597 Y63.4519 
G01 X-38.3234 Y63.3033 
G01 X-38.4667 Y63.1349 
G01 X-38.5873 Y62.9496 
G01 X-38.6832 Y62.7505 
G01 X-38.7529 Y62.5406 
G01 X-38.7951 Y62.3236 
G01 X-38.8093 Y62.1030 
G01 X-38.7951 Y61.8824 
G01 X-38.7529 Y61.6654 
G01 X-38.6832 Y61.4555 
G01 X-38.5873 Y61.2564 
G01 X-38.4667 Y61.0711 
G01 X-38.3234 Y60.9027 
G00 Z2.0000 
G00 X-41.3139 Y60.1530 
G01 Z-0.0250 F254.00 
G01 X-41.3372 Y60.0660 F508.00 
G01 X-41.3822 Y59.9879 
G01 X-41.4459 Y59.9243 
G01 X-41.5240 Y59.8792 
G01 X-41.6110 Y59.8559 
G01 X-41.7010 Y59.8559 
G01 X-41.7880 Y59.8792 
G01 X-41.8661 Y59.9243 
G01 X-41.9297 Y59.9879 
G01 X-41.9748 Y60.0660 
G01 X-41.9981 Y60.1530 
G01 X-41.9981 Y64.0530 
G01 X-41.9748 Y64.1400 
G01 X-41.9297 Y64.2181 
G01 X-41.8661 Y64.2817 
G01 X-41.7880 Y64.3268 
G01 X-41.7010 Y64.3501 
G01 X-41.6110 Y64.3501 
G01 X-41.5240 Y64.3268 
G01 X-41.4459 Y64.2817 
G01 X-41.3822 Y64.2181 
G01 X-41.3372 Y64.1400 
G01 X-41.3139 Y64.0530 
G01 X-41.3139 Y60.1530 
G00 Z2.0000 
G00 X-32.2191 Y60.0260 
G01 Z-0.0250 F254.00 
G01 X-32.2191 Y63.5389 F508.00 
G01 X-33.5730 Y63.5389 
G01 X-33.6600 Y63.5622 
G01 X-33.7381 Y63.6073 
G01 X-33.8017 Y63.6709 
G01 X-33.8468 Y63.7490 
G01 X-33.8701 Y63.8360 
G01 X-33.8701 Y63.9260 
G01 X-33.8468 Y64.0130 
G01 X-33.8017 Y64.0911 
G01 X-33.7381 Y64.1547 
G01 X-33.6600 Y64.1998 
G01 X-33.5730 Y64.2231 
G01 X-30.1810 Y64.2231 
G01 X-30.0940 Y64.1998 
G01 X-30.0159 Y64.1547 
G01 X-29.9522 Y64.0911 
G01 X-29.9072 Y64.0130 
G01 X-29.8839 Y63.9260 
G01 X-29.8839 Y63.8360 
G01 X-29.9072 Y63.7490 
G01 X-29.9522 Y63.6709 
G01 X-30.0159 Y63.6073 
G01 X-30.0940 Y63.5622 
G01 X-30.1810 Y63.5389 
G01 X-31.5349 Y63.5389 
G01 X-31.5349 Y60.0260 
G01 X-31.5582 Y59.9390 
G01 X-31.6032 Y59.8609 
G01 X-31.6669 Y59.7972 
G01 X-31.7450 Y59.7522 
G01 X-31.8320 Y59.7289 
G01 X-31.9220 Y59.7289 
G01 X-32.0090 Y59.7522 
G01 X-32.0871 Y59.7972 
G01 X-32.1507 Y59.8609 
G01 X-32.1958 Y59.9390 
G01 X-32.2191 Y60.0260 
G00 Z2.0000 
G00 X-28.2771 Y60.0513 
G01 Z-0.0250 F254.00 
G01 X-28.3407 Y60.1149 F508.00 
G01 X-28.3858 Y60.1930 
G01 X-28.4091 Y60.2800 
G01 X-28.4091 Y63.9260 
G01 X-28.3858 Y64.0130 
G01 X-28.3407 Y64.0911 
G01 X-28.2771 Y64.1547 
G01 X-28.1990 Y64.1998 
G01 X-28.1120 Y64.2231 
G01 X-25.8630 Y64.2231 
G01 X-25.7760 Y64.1998 
G01 X-25.6979 Y64.1547 
G01 X-25.6343 Y64.0911 
G01 X-25.5892 Y64.0130 
G01 X-25.5659 Y63.9260 
G01 X-25.5659 Y63.8360 
G01 X-25.5892 Y63.7490 
G01 X-25.6343 Y63.6709 
G01 X-25.6979 Y63.6073 
G01 X-25.7760 Y63.5622 
G01 X-25.8630 Y63.5389 
G01 X-27.7249 Y63.5389 
G01 X-27.7249 Y62.5721 
G01 X-25.9900 Y62.5721 
G01 X-25.9030 Y62.5488 
G01 X-25.8249 Y62.5037 
G01 X-25.7613 Y62.4401 
G01 X-25.7162 Y62.3620 
G01 X-25.6929 Y62.2750 
G01 X-25.6929 Y62.1850 
G01 X-25.7162 Y62.0980 
G01 X-25.7613 Y62.0199 
G01 X-25.8249 Y61.9562 
G01 X-25.9030 Y61.9112 
G01 X-25.9900 Y61.8879 
G01 X-27.7249 Y61.8879 
G01 X-27.7249 Y60.6671 
G01 X-25.8630 Y60.6671 
G01 X-25.7760 Y60.6438 
G01 X-25.6979 Y60.5987 
G01 X-25.6343 Y60.5351 
G01 X-25.5892 Y60.4570 
G01 X-25.5659 Y60.3700 
G01 X-25.5659 Y60.2800 
G01 X-25.5892 Y60.1930 
G01 X-25.6343 Y60.1149 
G01 X-25.6979 Y60.0513 
G01 X-25.7760 Y60.0062 
G01 X-25.8630 Y59.9829 
G01 X-28.1120 Y59.9829 
G01 X-28.1990 Y60.0062 
G01 X-28.2771 Y60.0513 
G00 Z2.0000 
G00 X-23.5437 Y60.5433 
G01 Z-0.0250 F254.00 
G01 X-23.5437 Y60.5433 F508.00 
G01 X-23.7381 Y60.7711 
G01 X-23.9020 Y61.0217 
G01 X-24.0328 Y61.2911 
G01 X-24.1285 Y61.5748 
G01 X-24.1875 Y61.8684 
G01 X-24.2087 Y62.1671 
G01 X-24.1920 Y62.4660 
G01 X-24.1375 Y62.7605 
G01 X-24.0462 Y63.0457 
G01 X-23.9195 Y63.3169 
G01 X-23.7594 Y63.5700 
G01 X-23.5685 Y63.8007 
G01 X-23.3500 Y64.0054 
G01 X-23.1073 Y64.1808 
G01 X-22.8443 Y64.3240 
G01 X-22.5653 Y64.4327 
G01 X-22.2747 Y64.5052 
G01 X-21.9774 Y64.5403 
G01 X-21.6779 Y64.5375 
G01 X-21.3813 Y64.4967 
G01 X-21.0922 Y64.4187 
G01 X-20.8153 Y64.3047 
G01 X-20.5551 Y64.1565 
G01 X-20.3157 Y63.9766 
G01 X-20.2084 Y63.8722 
G01 X-20.1762 Y63.8408 
G01 X-20.1301 Y63.7634 
G01 X-20.1056 Y63.6767 
G01 X-20.1043 Y63.5866 
G01 X-20.1264 Y63.4993 
G01 X-20.1704 Y63.4207 
G01 X-20.2332 Y63.3562 
G01 X-20.3106 Y63.3101 
G01 X-20.3973 Y63.2856 
G01 X-20.4873 Y63.2843 
G01 X-20.5747 Y63.3064 
G01 X-20.6533 Y63.3504 
G01 X-20.6856 Y63.3818 
G01 X-20.7639 Y63.4533 
G01 X-20.9333 Y63.5807 
G01 X-21.1175 Y63.6856 
G01 X-21.3135 Y63.7663 
G01 X-21.5182 Y63.8215 
G01 X-21.7282 Y63.8504 
G01 X-21.9402 Y63.8524 
G01 X-22.1507 Y63.8275 
G01 X-22.3564 Y63.7762 
G01 X-22.5539 Y63.6992 
G01 X-22.7400 Y63.5979 
G01 X-22.9119 Y63.4737 
G01 X-23.0666 Y63.3288 
G01 X-23.2017 Y63.1655 
G01 X-23.3150 Y62.9863 
G01 X-23.4047 Y62.7943 
G01 X-23.4694 Y62.5924 
G01 X-23.5080 Y62.3840 
G01 X-23.5198 Y62.1723 
G01 X-23.5047 Y61.9609 
G01 X-23.4630 Y61.7530 
G01 X-23.3953 Y61.5522 
G01 X-23.3027 Y61.3615 
G01 X-23.1866 Y61.1841 
G01 X-23.0490 Y61.0228 
G01 X-22.8921 Y60.8803 
G01 X-22.7185 Y60.7588 
G01 X-22.5308 Y60.6602 
G01 X-22.3321 Y60.5863 
G01 X-22.1257 Y60.5381 
G01 X-21.9148 Y60.5164 
G01 X-21.7029 Y60.5217 
G01 X-21.4933 Y60.5537 
G01 X-21.2895 Y60.6120 
G01 X-21.0948 Y60.6957 
G01 X-21.0018 Y60.7467 
G01 X-20.9630 Y60.7696 
G01 X-20.8762 Y60.7937 
G01 X-20.7861 Y60.7945 
G01 X-20.6989 Y60.7720 
G01 X-20.6205 Y60.7277 
G01 X-20.5562 Y60.6646 
G01 X-20.5104 Y60.5870 
G01 X-20.4863 Y60.5002 
G01 X-20.4855 Y60.4101 
G01 X-20.5080 Y60.3229 
G01 X-20.5523 Y60.2445 
G01 X-20.6154 Y60.1802 
G01 X-20.6542 Y60.1573 
G01 X-20.7832 Y60.0813 
G01 X-21.0583 Y59.9631 
G01 X-21.3462 Y59.8807 
G01 X-21.6422 Y59.8354 
G01 X-21.9415 Y59.8280 
G01 X-22.2394 Y59.8586 
G01 X-22.5310 Y59.9267 
G01 X-22.8116 Y60.0311 
G01 X-23.0768 Y60.1703 
G01 X-23.3221 Y60.3420 
G01 X-23.5437 Y60.5433 
G00 Z2.0000 
G00 X-18.7571 Y60.0260 
G01 Z-0.0250 F254.00 
G01 X-18.7571 Y62.4020 F508.00 
G01 X-18.7571 Y64.0530 
G01 X-18.7338 Y64.1400 
G01 X-18.6887 Y64.2181 
G01 X-18.6251 Y64.2817 
G01 X-18.5470 Y64.3268 
G01 X-18.4600 Y64.3501 
G01 X-18.3700 Y64.3501 
G01 X-18.2830 Y64.3268 
G01 X-18.2049 Y64.2817 
G01 X-18.1412 Y64.2181 
G01 X-18.0962 Y64.1400 
G01 X-18.0729 Y64.0530 
G01 X-18.0729 Y62.6991 
G01 X-16.3441 Y62.6991 
G01 X-16.3441 Y64.0530 
G01 X-16.3208 Y64.1400 
G01 X-16.2757 Y64.2181 
G01 X-16.2121 Y64.2817 
G01 X-16.1340 Y64.3268 
G01 X-16.0470 Y64.3501 
G01 X-15.9570 Y64.3501 
G01 X-15.8700 Y64.3268 
G01 X-15.7919 Y64.2817 
G01 X-15.7282 Y64.2181 
G01 X-15.6832 Y64.1400 
G01 X-15.6599 Y64.0530 
G01 X-15.6599 Y60.0260 
G01 X-15.6832 Y59.9390 
G01 X-15.7282 Y59.8609 
G01 X-15.7919 Y59.7972 
G01 X-15.8700 Y59.7522 
G01 X-15.9570 Y59.7289 
G01 X-16.0470 Y59.7289 
G01 X-16.1340 Y59.7522 
G01 X-16.2121 Y59.7972 
G01 X-16.2757 Y59.8609 
G01 X-16.3208 Y59.9390 
G01 X-16.3441 Y60.0260 
G01 X-16.3441 Y62.0149 
G01 X-18.0729 Y62.0149 
G01 X-18.0729 Y60.0260 
G01 X-18.0962 Y59.9390 
G01 X-18.1412 Y59.8609 
G01 X-18.2049 Y59.7972 
G01 X-18.2830 Y59.7522 
G01 X-18.3700 Y59.7289 
G01 X-18.4600 Y59.7289 
G01 X-18.5470 Y59.7522 
G01 X-18.6251 Y59.7972 
G01 X-18.6887 Y59.8609 
G01 X-18.7338 Y59.9390 
G01 X-18.7571 Y60.0260 
G00 Z2.0000 
G00 X-18.7818 Y67.4629 
G01 Z-0.0250 F254.00 
G01 X-18.9599 Y67.4347 F508.00 
G01 X-19.1401 Y67.4347 
G01 X-19.3182 Y67.4629 
G01 X-19.4896 Y67.5186 
G01 X-19.6503 Y67.6004 
G01 X-19.7961 Y67.7064 
G01 X-19.9236 Y67.8339 
G01 X-20.0295 Y67.9797 
G01 X-20.1114 Y68.1404 
G01 X-20.1671 Y68.3118 
G01 X-20.1953 Y68.4899 
G01 X-20.1953 Y68.6701 
G01 X-20.1671 Y68.8482 
G01 X-20.1114 Y69.0196 
G01 X-20.0295 Y69.1803 
G01 X-19.9236 Y69.3261 
G01 X-19.7961 Y69.4536 
G01 X-19.6503 Y69.5595 
G01 X-19.4896 Y69.6414 
G01 X-19.3182 Y69.6971 
G01 X-19.1401 Y69.7253 
G01 X-18.9599 Y69.7253 
G01 X-18.7818 Y69.6971 
G01 X-18.6104 Y69.6414 
G01 X-18.4497 Y69.5595 
G01 X-18.3039 Y69.4536 
G01 X-18.1764 Y69.3261 
G01 X-18.0705 Y69.1803 
G01 X-17.9886 Y69.0196 
G01 X-17.9329 Y68.8482 
G01 X-17.9047 Y68.6701 
G01 X-17.9047 Y68.4899 
G01 X-17.9329 Y68.3118 
G01 X-17.9886 Y68.1404 
G01 X-18.0705 Y67.9797 
G01 X-18.1764 Y67.8339 
G01 X-18.3039 Y67.7064 
G01 X-18.4497 Y67.6004 
G01 X-18.6104 Y67.5186 
G01 X-18.7818 Y67.4629 
G00 Z2.0000 
G00 X-17.2561 Y67.7064 
G01 Z-0.0250 F254.00 
G01 X-17.3836 Y67.8339 F508.00 
G01 X-17.4895 Y67.9797 
G01 X-17.5714 Y68.1404 
G01 X-17.6271 Y68.3118 
G01 X-17.6553 Y68.4899 
G01 X-17.6553 Y68.6701 
G01 X-17.6271 Y68.8482 
G01 X-17.5714 Y69.0196 
G01 X-17.4895 Y69.1803 
G01 X-17.3836 Y69.3261 
G01 X-17.2561 Y69.4536 
G01 X-17.1103 Y69.5595 
G01 X-16.9496 Y69.6414 
G01 X-16.7782 Y69.6971 
G01 X-16.6001 Y69.7253 
G01 X-16.4199 Y69.7253 
G01 X-16.2418 Y69.6971 
G01 X-16.0704 Y69.6414 
G01 X-15.9097 Y69.5595 
G01 X-15.7639 Y69.4536 
G01 X-15.6364 Y69.3261 
G01 X-15.5305 Y69.1803 
G01 X-15.4486 Y69.0196 
G01 X-15.3929 Y68.8482 
G01 X-15.3647 Y68.6701 
G01 X-15.3647 Y68.4899 
G01 X-15.3929 Y68.3118 
G01 X-15.4486 Y68.1404 
G01 X-15.5305 Y67.9797 
G01 X-15.6364 Y67.8339 
G01 X-15.7639 Y67.7064 
G01 X-15.9097 Y67.6004 
G01 X-16.0704 Y67.5186 
G01 X-16.2418 Y67.4629 
G01 X-16.4199 Y67.4347 
G01 X-16.6001 Y67.4347 
G01 X-16.7782 Y67.4629 
G01 X-16.9496 Y67.5186 
G01 X-17.1103 Y67.6004 
G01 X-17.2561 Y67.7064 
G00 Z2.0000 
G00 X-20.7164 Y67.8339 
G01 Z-0.0250 F254.00 
G01 X-20.8439 Y67.7064 F508.00 
G01 X-20.9897 Y67.6004 
G01 X-21.1504 Y67.5186 
G01 X-21.3218 Y67.4629 
G01 X-21.4999 Y67.4347 
G01 X-21.6801 Y67.4347 
G01 X-21.8582 Y67.4629 
G01 X-22.0296 Y67.5186 
G01 X-22.1903 Y67.6004 
G01 X-22.3361 Y67.7064 
G01 X-22.4636 Y67.8339 
G01 X-22.5695 Y67.9797 
G01 X-22.6514 Y68.1404 
G01 X-22.7071 Y68.3118 
G01 X-22.7353 Y68.4899 
G01 X-22.7353 Y68.6701 
G01 X-22.7071 Y68.8482 
G01 X-22.6514 Y69.0196 
G01 X-22.5695 Y69.1803 
G01 X-22.4636 Y69.3261 
G01 X-22.3361 Y69.4536 
G01 X-22.1903 Y69.5595 
G01 X-22.0296 Y69.6414 
G01 X-21.8582 Y69.6971 
G01 X-21.6801 Y69.7253 
G01 X-21.4999 Y69.7253 
G01 X-21.3218 Y69.6971 
G01 X-21.1504 Y69.6414 
G01 X-20.9897 Y69.5595 
G01 X-20.8439 Y69.4536 
G01 X-20.7164 Y69.3261 
G01 X-20.6105 Y69.1803 
G01 X-20.5286 Y69.0196 
G01 X-20.4729 Y68.8482 
G01 X-20.4447 Y68.6701 
G01 X-20.4447 Y68.4899 
G01 X-20.4729 Y68.3118 
G01 X-20.5286 Y68.1404 
G01 X-20.6105 Y67.9797 
G01 X-20.7164 Y67.8339 
G00 Z2.0000 
G00 X-20.7164 Y72.9139 
G01 Z-0.0250 F254.00 
G01 X-20.8439 Y72.7864 F508.00 
G01 X-20.9897 Y72.6804 
G01 X-21.1504 Y72.5986 
G01 X-21.3218 Y72.5429 
G01 X-21.4999 Y72.5147 
G01 X-21.6801 Y72.5147 
G01 X-21.8582 Y72.5429 
G01 X-22.0296 Y72.5986 
G01 X-22.1903 Y72.6804 
G01 X-22.3361 Y72.7864 
G01 X-22.4636 Y72.9139 
G01 X-22.5695 Y73.0597 
G01 X-22.6514 Y73.2204 
G01 X-22.7071 Y73.3918 
G01 X-22.7353 Y73.5699 
G01 X-22.7353 Y73.7501 
G01 X-22.7071 Y73.9282 
G01 X-22.6514 Y74.0996 
G01 X-22.5695 Y74.2603 
G01 X-22.4636 Y74.4061 
G01 X-22.3361 Y74.5336 
G01 X-22.1903 Y74.6395 
G01 X-22.0296 Y74.7214 
G01 X-21.8582 Y74.7771 
G01 X-21.6801 Y74.8053 
G01 X-21.4999 Y74.8053 
G01 X-21.3218 Y74.7771 
G01 X-21.1504 Y74.7214 
G01 X-20.9897 Y74.6395 
G01 X-20.8439 Y74.5336 
G01 X-20.7164 Y74.4061 
G01 X-20.6105 Y74.2603 
G01 X-20.5286 Y74.0996 
G01 X-20.4729 Y73.9282 
G01 X-20.4447 Y73.7501 
G01 X-20.4447 Y73.5699 
G01 X-20.4729 Y73.3918 
G01 X-20.5286 Y73.2204 
G01 X-20.6105 Y73.0597 
G01 X-20.7164 Y72.9139 
G00 Z2.0000 
G00 X-19.9236 Y72.9139 
G01 Z-0.0250 F254.00 
G01 X-20.0295 Y73.0597 F508.00 
G01 X-20.1114 Y73.2204 
G01 X-20.1671 Y73.3918 
G01 X-20.1953 Y73.5699 
G01 X-20.1953 Y73.7501 
G01 X-20.1671 Y73.9282 
G01 X-20.1114 Y74.0996 
G01 X-20.0295 Y74.2603 
G01 X-19.9236 Y74.4061 
G01 X-19.7961 Y74.5336 
G01 X-19.6503 Y74.6395 
G01 X-19.4896 Y74.7214 
G01 X-19.3182 Y74.7771 
G01 X-19.1401 Y74.8053 
G01 X-18.9599 Y74.8053 
G01 X-18.7818 Y74.7771 
G01 X-18.6104 Y74.7214 
G01 X-18.4497 Y74.6395 
G01 X-18.3039 Y74.5336 
G01 X-18.1764 Y74.4061 
G01 X-18.0705 Y74.2603 
G01 X-17.9886 Y74.0996 
G01 X-17.9329 Y73.9282 
G01 X-17.9047 Y73.7501 
G01 X-17.9047 Y73.5699 
G01 X-17.9329 Y73.3918 
G01 X-17.9886 Y73.2204 
G01 X-18.0705 Y73.0597 
G01 X-18.1764 Y72.9139 
G01 X-18.3039 Y72.7864 
G01 X-18.4497 Y72.6804 
G01 X-18.6104 Y72.5986 
G01 X-18.7818 Y72.5429 
G01 X-18.9599 Y72.5147 
G01 X-19.1401 Y72.5147 
G01 X-19.3182 Y72.5429 
G01 X-19.4896 Y72.5986 
G01 X-19.6503 Y72.6804 
G01 X-19.7961 Y72.7864 
G01 X-19.9236 Y72.9139 
G00 Z2.0000 
G00 X-17.3836 Y72.9139 
G01 Z-0.0250 F254.00 
G01 X-17.4895 Y73.0597 F508.00 
G01 X-17.5714 Y73.2204 
G01 X-17.6271 Y73.3918 
G01 X-17.6553 Y73.5699 
G01 X-17.6553 Y73.7501 
G01 X-17.6271 Y73.9282 
G01 X-17.5714 Y74.0996 
G01 X-17.4895 Y74.2603 
G01 X-17.3836 Y74.4061 
G01 X-17.2561 Y74.5336 
G01 X-17.1103 Y74.6395 
G01 X-16.9496 Y74.7214 
G01 X-16.7782 Y74.7771 
G01 X-16.6001 Y74.8053 
G01 X-16.4199 Y74.8053 
G01 X-16.2418 Y74.7771 
G01 X-16.0704 Y74.7214 
G01 X-15.9097 Y74.6395 
G01 X-15.7639 Y74.5336 
G01 X-15.6364 Y74.4061 
G01 X-15.5305 Y74.2603 
G01 X-15.4486 Y74.0996 
G01 X-15.3929 Y73.9282 
G01 X-15.3647 Y73.7501 
G01 X-15.3647 Y73.5699 
G01 X-15.3929 Y73.3918 
G01 X-15.4486 Y73.2204 
G01 X-15.5305 Y73.0597 
G01 X-15.6364 Y72.9139 
G01 X-15.7639 Y72.7864 
G01 X-15.9097 Y72.6804 
G01 X-16.0704 Y72.5986 
G01 X-16.2418 Y72.5429 
G01 X-16.4199 Y72.5147 
G01 X-16.6001 Y72.5147 
G01 X-16.7782 Y72.5429 
G01 X-16.9496 Y72.5986 
G01 X-17.1103 Y72.6804 
G01 X-17.2561 Y72.7864 
G01 X-17.3836 Y72.9139 
G00 Z2.0000 
G00 X-26.4864 Y72.5023 
G01 Z-0.0250 F254.00 
G01 X-26.2254 Y72.2202 F508.00 
G01 X-25.9936 Y71.9138 
G01 X-25.7931 Y71.5859 
G01 X-25.6259 Y71.2399 
G01 X-25.4937 Y70.8791 
G01 X-25.3977 Y70.5070 
G01 X-25.3389 Y70.1273 
G01 X-25.3178 Y69.7436 
G01 X-25.3347 Y69.3597 
G01 X-25.3893 Y68.9793 
G01 X-25.4812 Y68.6062 
G01 X-25.6094 Y68.2439 
G01 X-25.7728 Y67.8961 
G01 X-25.9696 Y67.5661 
G01 X-26.1981 Y67.2571 
G01 X-26.3270 Y67.1146 
G01 X-26.3527 Y67.0861 
G01 X-26.4171 Y67.0445 
G01 X-26.4901 Y67.0210 
G01 X-26.5667 Y67.0171 
G01 X-26.6417 Y67.0333 
G01 X-26.7100 Y67.0683 
G01 X-26.7669 Y67.1197 
G01 X-26.8048 Y67.1785 
G01 X-26.8489 Y67.2039 
G01 X-28.4107 Y68.7657 
G01 X-28.4107 Y67.0176 
G01 X-28.4306 Y66.9436 
G01 X-28.4689 Y66.8771 
G01 X-28.5231 Y66.8229 
G01 X-28.5896 Y66.7845 
G01 X-28.6636 Y66.7647 
G01 X-28.7403 Y66.7647 
G01 X-28.8144 Y66.7845 
G01 X-28.8809 Y66.8229 
G01 X-28.9351 Y66.8771 
G01 X-28.9560 Y66.9133 
G01 X-28.9769 Y66.8771 
G01 X-29.0311 Y66.8229 
G01 X-29.0976 Y66.7845 
G01 X-29.1716 Y66.7647 
G01 X-29.2483 Y66.7647 
G01 X-29.3224 Y66.7845 
G01 X-29.3889 Y66.8229 
G01 X-29.4431 Y66.8771 
G01 X-29.4814 Y66.9436 
G01 X-29.5013 Y67.0176 
G01 X-29.5013 Y70.1627 
G01 X-29.5391 Y70.1249 
G01 X-29.6056 Y70.0866 
G01 X-29.6796 Y70.0667 
G01 X-29.7564 Y70.0667 
G01 X-29.8304 Y70.0866 
G01 X-29.8969 Y70.1249 
G01 X-31.7356 Y71.9637 
G01 X-31.8626 Y71.8049 
G01 X-32.0437 Y71.5260 
G01 X-32.1964 Y71.2305 
G01 X-32.3191 Y70.9214 
G01 X-32.4106 Y70.6017 
G01 X-32.4702 Y70.2745 
G01 X-32.4971 Y69.9430 
G01 X-32.4911 Y69.6105 
G01 X-32.4524 Y69.2802 
G01 X-32.3812 Y68.9553 
G01 X-32.2782 Y68.6391 
G01 X-32.1445 Y68.3345 
G01 X-31.9814 Y68.0447 
G01 X-31.7905 Y67.7724 
G01 X-31.5735 Y67.5203 
G01 X-31.3328 Y67.2909 
G01 X-31.0705 Y67.0863 
G01 X-30.7894 Y66.9087 
G01 X-30.4920 Y66.7597 
G01 X-30.1814 Y66.6409 
G01 X-29.8606 Y66.5532 
G01 X-29.5327 Y66.4977 
G01 X-29.2009 Y66.4749 
G01 X-28.8685 Y66.4850 
G01 X-28.5387 Y66.5278 
G01 X-28.2147 Y66.6030 
G01 X-27.8998 Y66.7099 
G01 X-27.5969 Y66.8473 
G01 X-27.4510 Y66.9271 
G01 X-27.4178 Y66.9463 
G01 X-27.3437 Y66.9662 
G01 X-27.2670 Y66.9664 
G01 X-27.1929 Y66.9466 
G01 X-27.1265 Y66.9083 
G01 X-27.0721 Y66.8542 
G01 X-27.0337 Y66.7878 
G01 X-27.0138 Y66.7137 
G01 X-27.0136 Y66.6370 
G01 X-27.0334 Y66.5629 
G01 X-27.0717 Y66.4965 
G01 X-27.1258 Y66.4421 
G01 X-27.1590 Y66.4229 
G01 X-27.3280 Y66.3250 
G01 X-27.6838 Y66.1636 
G01 X-28.0538 Y66.0381 
G01 X-28.4343 Y65.9497 
G01 X-28.8217 Y65.8994 
G01 X-29.2122 Y65.8876 
G01 X-29.6020 Y65.9144 
G01 X-29.9872 Y65.9796 
G01 X-30.3640 Y66.0825 
G01 X-30.7289 Y66.2222 
G01 X-31.0782 Y66.3972 
G01 X-31.4085 Y66.6058 
G01 X-31.7165 Y66.8461 
G01 X-31.9993 Y67.1156 
G01 X-32.2541 Y67.4118 
G01 X-32.4785 Y67.7316 
G01 X-32.6701 Y68.0721 
G01 X-32.8271 Y68.4298 
G01 X-32.9480 Y68.8013 
G01 X-33.0317 Y69.1829 
G01 X-33.0772 Y69.5709 
G01 X-33.0842 Y69.9615 
G01 X-33.0526 Y70.3509 
G01 X-32.9827 Y70.7353 
G01 X-32.8751 Y71.1109 
G01 X-32.7309 Y71.4740 
G01 X-32.5516 Y71.8211 
G01 X-32.3389 Y72.1487 
G01 X-32.0949 Y72.4538 
G01 X-31.9840 Y72.5674 
G01 X-31.9572 Y72.5948 
G01 X-31.9316 Y72.6210 
G01 X-31.9289 Y72.6231 
G01 X-31.8971 Y72.6415 
G01 X-31.8656 Y72.6601 
G01 X-31.8624 Y72.6614 
G01 X-31.8270 Y72.6709 
G01 X-31.7918 Y72.6808 
G01 X-31.7884 Y72.6813 
G01 X-31.7517 Y72.6813 
G01 X-31.7151 Y72.6817 
G01 X-31.7116 Y72.6813 
G01 X-31.6761 Y72.6718 
G01 X-31.6408 Y72.6627 
G01 X-31.6376 Y72.6614 
G01 X-31.6057 Y72.6430 
G01 X-31.5739 Y72.6252 
G01 X-31.5711 Y72.6231 
G01 X-31.5452 Y72.5971 
G01 X-31.5190 Y72.5716 
G01 X-30.0093 Y71.0613 
G01 X-30.0093 Y72.8093 
G01 X-29.9894 Y72.8834 
G01 X-29.9579 Y72.9382 
G01 X-30.2225 Y72.8671 
G01 X-30.5277 Y72.7518 
G01 X-30.8201 Y72.6070 
G01 X-30.9606 Y72.5240 
G01 X-30.9931 Y72.5037 
G01 X-31.0665 Y72.4812 
G01 X-31.1431 Y72.4785 
G01 X-31.2179 Y72.4958 
G01 X-31.2856 Y72.5318 
G01 X-31.3417 Y72.5841 
G01 X-31.3823 Y72.6491 
G01 X-31.4048 Y72.7225 
G01 X-31.4075 Y72.7991 
G01 X-31.3902 Y72.8739 
G01 X-31.3542 Y72.9416 
G01 X-31.3019 Y72.9977 
G01 X-31.2694 Y73.0180 
G01 X-31.1065 Y73.1199 
G01 X-30.7621 Y73.2904 
G01 X-30.4026 Y73.4262 
G01 X-30.0315 Y73.5258 
G01 X-29.6523 Y73.5883 
G01 X-29.2689 Y73.6132 
G01 X-28.8848 Y73.6001 
G01 X-28.5039 Y73.5492 
G01 X-28.1299 Y73.4610 
G01 X-27.7664 Y73.3363 
G01 X-27.4170 Y73.1763 
G01 X-27.0851 Y72.9827 
G01 X-26.7738 Y72.7573 
G01 X-26.4864 Y72.5023 
G00 Z2.0000 
G00 X-26.8973 Y72.0827 
G01 Z-0.0250 F254.00 
G01 X-27.1414 Y72.2992 F508.00 
G01 X-27.4057 Y72.4906 
G01 X-27.6875 Y72.6550 
G01 X-27.9842 Y72.7908 
G01 X-28.2928 Y72.8967 
G01 X-28.6104 Y72.9716 
G01 X-28.9338 Y73.0148 
G01 X-29.0569 Y73.0190 
G01 X-29.0311 Y73.0041 
G01 X-28.9769 Y72.9499 
G01 X-28.9385 Y72.8834 
G01 X-28.9187 Y72.8093 
G01 X-28.9187 Y69.6643 
G01 X-28.8809 Y69.7021 
G01 X-28.8144 Y69.7404 
G01 X-28.7403 Y69.7603 
G01 X-28.6636 Y69.7603 
G01 X-28.5896 Y69.7404 
G01 X-28.5231 Y69.7021 
G01 X-26.5665 Y67.7455 
G01 X-26.4586 Y67.8915 
G01 X-26.2915 Y68.1717 
G01 X-26.1528 Y68.4670 
G01 X-26.0439 Y68.7746 
G01 X-25.9659 Y69.0914 
G01 X-25.9195 Y69.4144 
G01 X-25.9052 Y69.7403 
G01 X-25.9231 Y70.0661 
G01 X-25.9730 Y70.3886 
G01 X-26.0545 Y70.7045 
G01 X-26.1668 Y71.0108 
G01 X-26.3087 Y71.3046 
G01 X-26.4789 Y71.5830 
G01 X-26.6758 Y71.8432 
G01 X-26.8973 Y72.0827 
G00 Z2.0000 
G00 X-29.4640 Y72.9137 
G01 Z-0.0250 F254.00 
G01 X-29.4431 Y72.9499 F508.00 
G01 X-29.3889 Y73.0041 
G01 X-29.3626 Y73.0193 
G01 X-29.5449 Y73.0074 
G01 X-29.5391 Y73.0041 
G01 X-29.4849 Y72.9499 
G01 X-29.4640 Y72.9137 
G00 Z2.0000 
G00 X-39.8661 Y72.8134 
G01 Z-0.0250 F254.00 
G01 X-41.0634 Y71.6161 F508.00 
G01 X-42.7566 Y71.6161 
G01 X-43.9539 Y72.8134 
G01 X-43.9539 Y74.5066 
G01 X-42.7566 Y75.7039 
G01 X-41.0634 Y75.7039 
G01 X-39.8661 Y74.5066 
G01 X-39.8661 Y72.8134 
G00 Z2.0000 
G00 X-39.9865 Y35.3364 
G01 Z-0.0250 F254.00 
G01 X-39.8277 Y35.2211 F508.00 
G01 X-39.6889 Y35.0823 
G01 X-39.5736 Y34.9235 
G01 X-39.4845 Y34.7486 
G01 X-39.4238 Y34.5620 
G01 X-39.3931 Y34.3681 
G01 X-39.3931 Y34.1719 
G01 X-39.4238 Y33.9780 
G01 X-39.4845 Y33.7914 
G01 X-39.5736 Y33.6165 
G01 X-39.6889 Y33.4577 
G01 X-39.8277 Y33.3189 
G01 X-39.9865 Y33.2036 
G01 X-40.1614 Y33.1145 
G01 X-40.3480 Y33.0538 
G01 X-40.5419 Y33.0231 
G01 X-40.7381 Y33.0231 
G01 X-40.9320 Y33.0538 
G01 X-41.1186 Y33.1145 
G01 X-41.2935 Y33.2036 
G01 X-41.4523 Y33.3189 
G01 X-41.5911 Y33.4577 
G01 X-41.7064 Y33.6165 
G01 X-41.7955 Y33.7914 
G01 X-41.8562 Y33.9780 
G01 X-41.8869 Y34.1719 
G01 X-41.8869 Y34.3681 
G01 X-41.8562 Y34.5620 
G01 X-41.7955 Y34.7486 
G01 X-41.7064 Y34.9235 
G01 X-41.5911 Y35.0823 
G01 X-41.4523 Y35.2211 
G01 X-41.2935 Y35.3364 
G01 X-41.1186 Y35.4255 
G01 X-40.9320 Y35.4862 
G01 X-40.7381 Y35.5169 
G01 X-40.5419 Y35.5169 
G01 X-40.3480 Y35.4862 
G01 X-40.1614 Y35.4255 
G01 X-39.9865 Y35.3364 
G00 Z2.0000 
G00 X-39.9865 Y32.8364 
G01 Z-0.0250 F254.00 
G01 X-39.8277 Y32.7211 F508.00 
G01 X-39.6889 Y32.5823 
G01 X-39.5736 Y32.4235 
G01 X-39.4845 Y32.2486 
G01 X-39.4238 Y32.0620 
G01 X-39.3931 Y31.8681 
G01 X-39.3931 Y31.6719 
G01 X-39.4238 Y31.4780 
G01 X-39.4845 Y31.2914 
G01 X-39.5736 Y31.1165 
G01 X-39.6889 Y30.9577 
G01 X-39.8277 Y30.8189 
G01 X-39.9865 Y30.7036 
G01 X-40.1614 Y30.6145 
G01 X-40.3480 Y30.5538 
G01 X-40.5419 Y30.5231 
G01 X-40.7381 Y30.5231 
G01 X-40.9320 Y30.5538 
G01 X-41.1186 Y30.6145 
G01 X-41.2935 Y30.7036 
G01 X-41.4523 Y30.8189 
G01 X-41.5911 Y30.9577 
G01 X-41.7064 Y31.1165 
G01 X-41.7955 Y31.2914 
G01 X-41.8562 Y31.4780 
G01 X-41.8869 Y31.6719 
G01 X-41.8869 Y31.8681 
G01 X-41.8562 Y32.0620 
G01 X-41.7955 Y32.2486 
G01 X-41.7064 Y32.4235 
G01 X-41.5911 Y32.5823 
G01 X-41.4523 Y32.7211 
G01 X-41.2935 Y32.8364 
G01 X-41.1186 Y32.9255 
G01 X-40.9320 Y32.9862 
G01 X-40.7381 Y33.0169 
G01 X-40.5419 Y33.0169 
G01 X-40.3480 Y32.9862 
G01 X-40.1614 Y32.9255 
G01 X-39.9865 Y32.8364 
G00 Z2.0000 
G00 X-18.5539 Y35.9834 
G01 Z-0.0250 F254.00 
G01 X-18.5539 Y37.6766 F508.00 
G01 X-17.3566 Y38.8739 
G01 X-15.6634 Y38.8739 
G01 X-14.4661 Y37.6766 
G01 X-14.4661 Y35.9834 
G01 X-15.6634 Y34.7861 
G01 X-17.3566 Y34.7861 
G01 X-18.5539 Y35.9834 
G00 Z2.0000 
G00 X-8.4887 Y36.0881 
G01 Z-0.0250 F254.00 
G01 X-8.5941 Y36.2331 F508.00 
G01 X-8.6755 Y36.3928 
G01 X-8.7309 Y36.5633 
G01 X-8.7589 Y36.7404 
G01 X-8.7589 Y36.9196 
G01 X-8.7309 Y37.0967 
G01 X-8.6755 Y37.2672 
G01 X-8.5941 Y37.4269 
G01 X-8.4887 Y37.5719 
G01 X-8.3619 Y37.6987 
G01 X-8.2169 Y37.8041 
G01 X-8.0572 Y37.8855 
G01 X-7.8867 Y37.9409 
G01 X-7.7096 Y37.9689 
G01 X-7.5304 Y37.9689 
G01 X-7.3533 Y37.9409 
G01 X-7.1828 Y37.8855 
G01 X-7.0231 Y37.8041 
G01 X-6.8781 Y37.6987 
G01 X-6.7513 Y37.5719 
G01 X-6.6459 Y37.4269 
G01 X-6.5645 Y37.2672 
G01 X-6.5091 Y37.0967 
G01 X-6.4811 Y36.9196 
G01 X-6.4811 Y36.7404 
G01 X-6.5091 Y36.5633 
G01 X-6.5645 Y36.3928 
G01 X-6.6459 Y36.2331 
G01 X-6.7513 Y36.0881 
G01 X-6.8781 Y35.9613 
G01 X-7.0231 Y35.8559 
G01 X-7.1828 Y35.7745 
G01 X-7.3533 Y35.7191 
G01 X-7.5304 Y35.6911 
G01 X-7.7096 Y35.6911 
G01 X-7.8867 Y35.7191 
G01 X-8.0572 Y35.7745 
G01 X-8.2169 Y35.8559 
G01 X-8.3619 Y35.9613 
G01 X-8.4887 Y36.0881 
G00 Z2.0000 
G00 X-8.4887 Y35.0319 
G01 Z-0.0250 F254.00 
G01 X-8.3619 Y35.1587 F508.00 
G01 X-8.2169 Y35.2641 
G01 X-8.0572 Y35.3455 
G01 X-7.8867 Y35.4009 
G01 X-7.7096 Y35.4289 
G01 X-7.5304 Y35.4289 
G01 X-7.3533 Y35.4009 
G01 X-7.1828 Y35.3455 
G01 X-7.0231 Y35.2641 
G01 X-6.8781 Y35.1587 
G01 X-6.7513 Y35.0319 
G01 X-6.6459 Y34.8869 
G01 X-6.5645 Y34.7272 
G01 X-6.5091 Y34.5567 
G01 X-6.4811 Y34.3796 
G01 X-6.4811 Y34.2004 
G01 X-6.5091 Y34.0233 
G01 X-6.5645 Y33.8528 
G01 X-6.6459 Y33.6931 
G01 X-6.7513 Y33.5481 
G01 X-6.8781 Y33.4213 
G01 X-7.0231 Y33.3159 
G01 X-7.1828 Y33.2345 
G01 X-7.3533 Y33.1791 
G01 X-7.5304 Y33.1511 
G01 X-7.7096 Y33.1511 
G01 X-7.8867 Y33.1791 
G01 X-8.0572 Y33.2345 
G01 X-8.2169 Y33.3159 
G01 X-8.3619 Y33.4213 
G01 X-8.4887 Y33.5481 
G01 X-8.5941 Y33.6931 
G01 X-8.6755 Y33.8528 
G01 X-8.7309 Y34.0233 
G01 X-8.7589 Y34.2004 
G01 X-8.7589 Y34.3796 
G01 X-8.7309 Y34.5567 
G01 X-8.6755 Y34.7272 
G01 X-8.5941 Y34.8869 
G01 X-8.4887 Y35.0319 
G00 Z2.0000 
G00 X-8.4887 Y32.4919 
G01 Z-0.0250 F254.00 
G01 X-8.3619 Y32.6187 F508.00 
G01 X-8.2169 Y32.7241 
G01 X-8.0572 Y32.8055 
G01 X-7.8867 Y32.8609 
G01 X-7.7096 Y32.8889 
G01 X-7.5304 Y32.8889 
G01 X-7.3533 Y32.8609 
G01 X-7.1828 Y32.8055 
G01 X-7.0231 Y32.7241 
G01 X-6.8781 Y32.6187 
G01 X-6.7513 Y32.4919 
G01 X-6.6459 Y32.3469 
G01 X-6.5645 Y32.1872 
G01 X-6.5091 Y32.0167 
G01 X-6.4811 Y31.8396 
G01 X-6.4811 Y31.6604 
G01 X-6.5091 Y31.4833 
G01 X-6.5645 Y31.3128 
G01 X-6.6459 Y31.1531 
G01 X-6.7513 Y31.0081 
G01 X-6.8781 Y30.8813 
G01 X-7.0231 Y30.7759 
G01 X-7.1828 Y30.6945 
G01 X-7.3533 Y30.6391 
G01 X-7.5304 Y30.6111 
G01 X-7.7096 Y30.6111 
G01 X-7.8867 Y30.6391 
G01 X-8.0572 Y30.6945 
G01 X-8.2169 Y30.7759 
G01 X-8.3619 Y30.8813 
G01 X-8.4887 Y31.0081 
G01 X-8.5941 Y31.1531 
G01 X-8.6755 Y31.3128 
G01 X-8.7309 Y31.4833 
G01 X-8.7589 Y31.6604 
G01 X-8.7589 Y31.8396 
G01 X-8.7309 Y32.0167 
G01 X-8.6755 Y32.1872 
G01 X-8.5941 Y32.3469 
G01 X-8.4887 Y32.4919 
G00 Z2.0000 
G00 X-8.4887 Y29.9519 
G01 Z-0.0250 F254.00 
G01 X-8.3619 Y30.0787 F508.00 
G01 X-8.2169 Y30.1841 
G01 X-8.0572 Y30.2655 
G01 X-7.8867 Y30.3209 
G01 X-7.7096 Y30.3489 
G01 X-7.5304 Y30.3489 
G01 X-7.3533 Y30.3209 
G01 X-7.1828 Y30.2655 
G01 X-7.0231 Y30.1841 
G01 X-6.8781 Y30.0787 
G01 X-6.7513 Y29.9519 
G01 X-6.6459 Y29.8069 
G01 X-6.5645 Y29.6472 
G01 X-6.5091 Y29.4767 
G01 X-6.4811 Y29.2996 
G01 X-6.4811 Y29.1204 
G01 X-6.5091 Y28.9433 
G01 X-6.5645 Y28.7728 
G01 X-6.6459 Y28.6131 
G01 X-6.7513 Y28.4681 
G01 X-6.8781 Y28.3413 
G01 X-7.0231 Y28.2359 
G01 X-7.1828 Y28.1545 
G01 X-7.3533 Y28.0991 
G01 X-7.5304 Y28.0711 
G01 X-7.7096 Y28.0711 
G01 X-7.8867 Y28.0991 
G01 X-8.0572 Y28.1545 
G01 X-8.2169 Y28.2359 
G01 X-8.3619 Y28.3413 
G01 X-8.4887 Y28.4681 
G01 X-8.5941 Y28.6131 
G01 X-8.6755 Y28.7728 
G01 X-8.7309 Y28.9433 
G01 X-8.7589 Y29.1204 
G01 X-8.7589 Y29.2996 
G01 X-8.7309 Y29.4767 
G01 X-8.6755 Y29.6472 
G01 X-8.5941 Y29.8069 
G01 X-8.4887 Y29.9519 
G00 Z2.0000 
G00 X-8.4887 Y27.4119 
G01 Z-0.0250 F254.00 
G01 X-8.3619 Y27.5387 F508.00 
G01 X-8.2169 Y27.6441 
G01 X-8.0572 Y27.7255 
G01 X-7.8867 Y27.7809 
G01 X-7.7096 Y27.8089 
G01 X-7.5304 Y27.8089 
G01 X-7.3533 Y27.7809 
G01 X-7.1828 Y27.7255 
G01 X-7.0231 Y27.6441 
G01 X-6.8781 Y27.5387 
G01 X-6.7513 Y27.4119 
G01 X-6.6459 Y27.2669 
G01 X-6.5645 Y27.1072 
G01 X-6.5091 Y26.9367 
G01 X-6.4811 Y26.7596 
G01 X-6.4811 Y26.5804 
G01 X-6.5091 Y26.4033 
G01 X-6.5645 Y26.2328 
G01 X-6.6459 Y26.0731 
G01 X-6.7513 Y25.9281 
G01 X-6.8781 Y25.8013 
G01 X-7.0231 Y25.6959 
G01 X-7.1828 Y25.6145 
G01 X-7.3533 Y25.5591 
G01 X-7.5304 Y25.5311 
G01 X-7.7096 Y25.5311 
G01 X-7.8867 Y25.5591 
G01 X-8.0572 Y25.6145 
G01 X-8.2169 Y25.6959 
G01 X-8.3619 Y25.8013 
G01 X-8.4887 Y25.9281 
G01 X-8.5941 Y26.0731 
G01 X-8.6755 Y26.2328 
G01 X-8.7309 Y26.4033 
G01 X-8.7589 Y26.5804 
G01 X-8.7589 Y26.7596 
G01 X-8.7309 Y26.9367 
G01 X-8.6755 Y27.1072 
G01 X-8.5941 Y27.2669 
G01 X-8.4887 Y27.4119 
G00 Z2.0000 
G00 X-8.4887 Y24.8719 
G01 Z-0.0250 F254.00 
G01 X-8.3619 Y24.9987 F508.00 
G01 X-8.2169 Y25.1041 
G01 X-8.0572 Y25.1855 
G01 X-7.8867 Y25.2409 
G01 X-7.7096 Y25.2689 
G01 X-7.5304 Y25.2689 
G01 X-7.3533 Y25.2409 
G01 X-7.1828 Y25.1855 
G01 X-7.0231 Y25.1041 
G01 X-6.8781 Y24.9987 
G01 X-6.7513 Y24.8719 
G01 X-6.6459 Y24.7269 
G01 X-6.5645 Y24.5672 
G01 X-6.5091 Y24.3967 
G01 X-6.4811 Y24.2196 
G01 X-6.4811 Y24.0404 
G01 X-6.5091 Y23.8633 
G01 X-6.5645 Y23.6928 
G01 X-6.6459 Y23.5331 
G01 X-6.7513 Y23.3881 
G01 X-6.8781 Y23.2613 
G01 X-7.0231 Y23.1559 
G01 X-7.1828 Y23.0745 
G01 X-7.3533 Y23.0191 
G01 X-7.5304 Y22.9911 
G01 X-7.7096 Y22.9911 
G01 X-7.8867 Y23.0191 
G01 X-8.0572 Y23.0745 
G01 X-8.2169 Y23.1559 
G01 X-8.3619 Y23.2613 
G01 X-8.4887 Y23.3881 
G01 X-8.5941 Y23.5331 
G01 X-8.6755 Y23.6928 
G01 X-8.7309 Y23.8633 
G01 X-8.7589 Y24.0404 
G01 X-8.7589 Y24.2196 
G01 X-8.7309 Y24.3967 
G01 X-8.6755 Y24.5672 
G01 X-8.5941 Y24.7269 
G01 X-8.4887 Y24.8719 
G00 Z2.0000 
G00 X-8.4887 Y22.3319 
G01 Z-0.0250 F254.00 
G01 X-8.3619 Y22.4587 F508.00 
G01 X-8.2169 Y22.5641 
G01 X-8.0572 Y22.6455 
G01 X-7.8867 Y22.7009 
G01 X-7.7096 Y22.7289 
G01 X-7.5304 Y22.7289 
G01 X-7.3533 Y22.7009 
G01 X-7.1828 Y22.6455 
G01 X-7.0231 Y22.5641 
G01 X-6.8781 Y22.4587 
G01 X-6.7513 Y22.3319 
G01 X-6.6459 Y22.1869 
G01 X-6.5645 Y22.0272 
G01 X-6.5091 Y21.8567 
G01 X-6.4811 Y21.6796 
G01 X-6.4811 Y21.5004 
G01 X-6.5091 Y21.3233 
G01 X-6.5645 Y21.1528 
G01 X-6.6459 Y20.9931 
G01 X-6.7513 Y20.8481 
G01 X-6.8781 Y20.7213 
G01 X-7.0231 Y20.6159 
G01 X-7.1828 Y20.5345 
G01 X-7.3533 Y20.4791 
G01 X-7.5304 Y20.4511 
G01 X-7.7096 Y20.4511 
G01 X-7.8867 Y20.4791 
G01 X-8.0572 Y20.5345 
G01 X-8.2169 Y20.6159 
G01 X-8.3619 Y20.7213 
G01 X-8.4887 Y20.8481 
G01 X-8.5941 Y20.9931 
G01 X-8.6755 Y21.1528 
G01 X-8.7309 Y21.3233 
G01 X-8.7589 Y21.5004 
G01 X-8.7589 Y21.6796 
G01 X-8.7309 Y21.8567 
G01 X-8.6755 Y22.0272 
G01 X-8.5941 Y22.1869 
G01 X-8.4887 Y22.3319 
G00 Z2.0000 
G00 X-8.4887 Y19.7919 
G01 Z-0.0250 F254.00 
G01 X-8.3619 Y19.9187 F508.00 
G01 X-8.2169 Y20.0241 
G01 X-8.0572 Y20.1055 
G01 X-7.8867 Y20.1609 
G01 X-7.7096 Y20.1889 
G01 X-7.5304 Y20.1889 
G01 X-7.3533 Y20.1609 
G01 X-7.1828 Y20.1055 
G01 X-7.0231 Y20.0241 
G01 X-6.8781 Y19.9187 
G01 X-6.7513 Y19.7919 
G01 X-6.6459 Y19.6469 
G01 X-6.5645 Y19.4872 
G01 X-6.5091 Y19.3167 
G01 X-6.4811 Y19.1396 
G01 X-6.4811 Y18.9604 
G01 X-6.5091 Y18.7833 
G01 X-6.5645 Y18.6128 
G01 X-6.6459 Y18.4531 
G01 X-6.7513 Y18.3081 
G01 X-6.8781 Y18.1813 
G01 X-7.0231 Y18.0759 
G01 X-7.1828 Y17.9945 
G01 X-7.3533 Y17.9391 
G01 X-7.5304 Y17.9111 
G01 X-7.7096 Y17.9111 
G01 X-7.8867 Y17.9391 
G01 X-8.0572 Y17.9945 
G01 X-8.2169 Y18.0759 
G01 X-8.3619 Y18.1813 
G01 X-8.4887 Y18.3081 
G01 X-8.5941 Y18.4531 
G01 X-8.6755 Y18.6128 
G01 X-8.6911 Y18.6611 
G01 X-10.4709 Y18.6611 
G01 X-10.6080 Y18.6978 
G01 X-10.7309 Y18.7688 
G01 X-11.5546 Y19.5925 
G01 X-11.5799 Y19.5672 
G01 X-11.6310 Y19.5461 
G01 X-13.7690 Y19.5461 
G01 X-13.8201 Y19.5672 
G01 X-13.8591 Y19.6063 
G01 X-13.8803 Y19.6574 
G01 X-13.8803 Y21.9182 
G01 X-14.4312 Y22.4691 
G01 X-14.5022 Y22.5920 
G01 X-14.5389 Y22.7291 
G01 X-14.5389 Y25.9311 
G01 X-14.7676 Y25.9311 
G01 X-14.8187 Y25.9522 
G01 X-14.8577 Y25.9913 
G01 X-14.8789 Y26.0424 
G01 X-14.8789 Y26.6392 
G01 X-14.8835 Y26.6790 
G01 X-14.8789 Y26.7098 
G01 X-14.8789 Y27.2976 
G01 X-14.8577 Y27.3487 
G01 X-14.8187 Y27.3878 
G01 X-14.7676 Y27.4089 
G01 X-13.9124 Y27.4089 
G01 X-13.8613 Y27.3878 
G01 X-13.8222 Y27.3487 
G01 X-13.8011 Y27.2976 
G01 X-13.8011 Y26.9302 
G01 X-13.6961 Y26.8468 
G01 X-13.6691 Y26.8312 
G01 X-13.6407 Y26.8028 
G01 X-13.6093 Y26.7779 
G01 X-13.5908 Y26.7529 
G01 X-13.5688 Y26.7309 
G01 X-13.5487 Y26.6961 
G01 X-13.5248 Y26.6639 
G01 X-13.5134 Y26.6350 
G01 X-13.4978 Y26.6080 
G01 X-13.4874 Y26.5692 
G01 X-13.4727 Y26.5319 
G01 X-13.4692 Y26.5010 
G01 X-13.4611 Y26.4709 
G01 X-13.4611 Y26.4308 
G01 X-13.4565 Y26.3910 
G01 X-13.4611 Y26.3602 
G01 X-13.4611 Y23.6339 
G01 X-11.6310 Y23.6339 
G01 X-11.5799 Y23.6127 
G01 X-11.5408 Y23.5737 
G01 X-11.5197 Y23.5226 
G01 X-11.5197 Y21.0818 
G01 X-10.1768 Y19.7389 
G01 X-8.5272 Y19.7389 
G01 X-8.4887 Y19.7919 
G00 Z2.0000 
G00 X-8.3619 Y41.0413 
G01 Z-0.0250 F254.00 
G01 X-8.4887 Y41.1681 F508.00 
G01 X-8.5941 Y41.3131 
G01 X-8.6755 Y41.4728 
G01 X-8.7309 Y41.6433 
G01 X-8.7589 Y41.8204 
G01 X-8.7589 Y41.9996 
G01 X-8.7309 Y42.1767 
G01 X-8.6755 Y42.3472 
G01 X-8.5941 Y42.5069 
G01 X-8.4887 Y42.6519 
G01 X-8.3619 Y42.7787 
G01 X-8.2169 Y42.8841 
G01 X-8.0572 Y42.9655 
G01 X-7.8867 Y43.0209 
G01 X-7.7096 Y43.0489 
G01 X-7.5304 Y43.0489 
G01 X-7.3533 Y43.0209 
G01 X-7.1828 Y42.9655 
G01 X-7.0231 Y42.8841 
G01 X-6.8781 Y42.7787 
G01 X-6.7513 Y42.6519 
G01 X-6.6459 Y42.5069 
G01 X-6.5645 Y42.3472 
G01 X-6.5091 Y42.1767 
G01 X-6.4811 Y41.9996 
G01 X-6.4811 Y41.8204 
G01 X-6.5091 Y41.6433 
G01 X-6.5645 Y41.4728 
G01 X-6.6459 Y41.3131 
G01 X-6.7513 Y41.1681 
G01 X-6.8781 Y41.0413 
G01 X-7.0231 Y40.9359 
G01 X-7.1828 Y40.8545 
G01 X-7.3533 Y40.7991 
G01 X-7.5304 Y40.7711 
G01 X-7.7096 Y40.7711 
G01 X-7.8867 Y40.7991 
G01 X-8.0572 Y40.8545 
G01 X-8.2169 Y40.9359 
G01 X-8.3619 Y41.0413 
G00 Z2.0000 
G00 X-8.3619 Y43.5813 
G01 Z-0.0250 F254.00 
G01 X-8.4887 Y43.7081 F508.00 
G01 X-8.5941 Y43.8531 
G01 X-8.6755 Y44.0128 
G01 X-8.7309 Y44.1833 
G01 X-8.7589 Y44.3604 
G01 X-8.7589 Y44.5396 
G01 X-8.7309 Y44.7167 
G01 X-8.6755 Y44.8872 
G01 X-8.5941 Y45.0469 
G01 X-8.4887 Y45.1919 
G01 X-8.3619 Y45.3187 
G01 X-8.2169 Y45.4241 
G01 X-8.0572 Y45.5055 
G01 X-7.8867 Y45.5609 
G01 X-7.7096 Y45.5889 
G01 X-7.5304 Y45.5889 
G01 X-7.3533 Y45.5609 
G01 X-7.1828 Y45.5055 
G01 X-7.0231 Y45.4241 
G01 X-6.8781 Y45.3187 
G01 X-6.7513 Y45.1919 
G01 X-6.6459 Y45.0469 
G01 X-6.5645 Y44.8872 
G01 X-6.5091 Y44.7167 
G01 X-6.4811 Y44.5396 
G01 X-6.4811 Y44.3604 
G01 X-6.5091 Y44.1833 
G01 X-6.5645 Y44.0128 
G01 X-6.6459 Y43.8531 
G01 X-6.7513 Y43.7081 
G01 X-6.8781 Y43.5813 
G01 X-7.0231 Y43.4759 
G01 X-7.1828 Y43.3945 
G01 X-7.3533 Y43.3391 
G01 X-7.5304 Y43.3111 
G01 X-7.7096 Y43.3111 
G01 X-7.8867 Y43.3391 
G01 X-8.0572 Y43.3945 
G01 X-8.2169 Y43.4759 
G01 X-8.3619 Y43.5813 
G00 Z2.0000 
G00 X-8.3619 Y46.1213 
G01 Z-0.0250 F254.00 
G01 X-8.4887 Y46.2481 F508.00 
G01 X-8.5941 Y46.3931 
G01 X-8.6755 Y46.5528 
G01 X-8.7309 Y46.7233 
G01 X-8.7589 Y46.9004 
G01 X-8.7589 Y47.0796 
G01 X-8.7309 Y47.2567 
G01 X-8.6755 Y47.4272 
G01 X-8.5941 Y47.5869 
G01 X-8.4887 Y47.7319 
G01 X-8.3619 Y47.8587 
G01 X-8.2169 Y47.9641 
G01 X-8.0572 Y48.0455 
G01 X-7.8867 Y48.1009 
G01 X-7.7096 Y48.1289 
G01 X-7.5304 Y48.1289 
G01 X-7.3533 Y48.1009 
G01 X-7.1828 Y48.0455 
G01 X-7.0231 Y47.9641 
G01 X-6.8781 Y47.8587 
G01 X-6.7513 Y47.7319 
G01 X-6.6459 Y47.5869 
G01 X-6.5645 Y47.4272 
G01 X-6.5091 Y47.2567 
G01 X-6.4811 Y47.0796 
G01 X-6.4811 Y46.9004 
G01 X-6.5091 Y46.7233 
G01 X-6.5645 Y46.5528 
G01 X-6.6459 Y46.3931 
G01 X-6.7513 Y46.2481 
G01 X-6.8781 Y46.1213 
G01 X-7.0231 Y46.0159 
G01 X-7.1828 Y45.9345 
G01 X-7.3533 Y45.8791 
G01 X-7.5304 Y45.8511 
G01 X-7.7096 Y45.8511 
G01 X-7.8867 Y45.8791 
G01 X-8.0572 Y45.9345 
G01 X-8.2169 Y46.0159 
G01 X-8.3619 Y46.1213 
G00 Z2.0000 
G00 X-41.0634 Y5.8539 
G01 Z-0.0250 F254.00 
G01 X-39.8661 Y4.6566 F508.00 
G01 X-39.8661 Y2.9634 
G01 X-41.0634 Y1.7661 
G01 X-42.7566 Y1.7661 
G01 X-43.9539 Y2.9634 
G01 X-43.9539 Y4.6566 
G01 X-42.7566 Y5.8539 
G01 X-41.0634 Y5.8539 
G00 Z2.0000 
G00 X-3.9618 Y1.5633 
G01 Z-0.0250 F254.00 
G01 X-4.1287 Y1.3964 F508.00 
G01 X-4.3196 Y1.2577 
G01 X-4.5299 Y1.1505 
G01 X-4.7543 Y1.0776 
G01 X-4.9874 Y1.0407 
G01 X-5.2234 Y1.0407 
G01 X-5.4565 Y1.0776 
G01 X-5.6809 Y1.1505 
G01 X-5.8912 Y1.2577 
G01 X-6.0821 Y1.3964 
G01 X-6.2490 Y1.5633 
G01 X-6.3877 Y1.7542 
G01 X-6.4949 Y1.9645 
G01 X-6.5678 Y2.1889 
G01 X-6.6047 Y2.4220 
G01 X-6.6047 Y2.6580 
G01 X-6.5678 Y2.8911 
G01 X-6.4949 Y3.1155 
G01 X-6.3877 Y3.3258 
G01 X-6.2490 Y3.5167 
G01 X-6.0821 Y3.6836 
G01 X-5.8912 Y3.8223 
G01 X-5.6809 Y3.9295 
G01 X-5.4565 Y4.0024 
G01 X-5.2234 Y4.0393 
G01 X-4.9874 Y4.0393 
G01 X-4.7543 Y4.0024 
G01 X-4.5299 Y3.9295 
G01 X-4.3196 Y3.8223 
G01 X-4.1287 Y3.6836 
G01 X-3.9618 Y3.5167 
G01 X-3.8231 Y3.3258 
G01 X-3.7159 Y3.1155 
G01 X-3.6430 Y2.8911 
G01 X-3.6061 Y2.6580 
G01 X-3.6061 Y2.4220 
G01 X-3.6430 Y2.1889 
G01 X-3.7159 Y1.9645 
G01 X-3.8231 Y1.7542 
G01 X-3.9618 Y1.5633 
G00 Z2.0000 
G00 X-8.9656 Y1.5633 
G01 Z-0.0250 F254.00 
G01 X-9.1325 Y1.3964 F508.00 
G01 X-9.3234 Y1.2577 
G01 X-9.5337 Y1.1505 
G01 X-9.7581 Y1.0776 
G01 X-9.9912 Y1.0407 
G01 X-10.2272 Y1.0407 
G01 X-10.4603 Y1.0776 
G01 X-10.6847 Y1.1505 
G01 X-10.8950 Y1.2577 
G01 X-11.0859 Y1.3964 
G01 X-11.2528 Y1.5633 
G01 X-11.3915 Y1.7542 
G01 X-11.4987 Y1.9645 
G01 X-11.5716 Y2.1889 
G01 X-11.6085 Y2.4220 
G01 X-11.6085 Y2.6580 
G01 X-11.5716 Y2.8911 
G01 X-11.4987 Y3.1155 
G01 X-11.3915 Y3.3258 
G01 X-11.2528 Y3.5167 
G01 X-11.0859 Y3.6836 
G01 X-11.0389 Y3.7178 
G01 X-11.0389 Y4.9354 
G01 X-11.5796 Y5.4761 
G01 X-21.0025 Y5.4761 
G01 X-21.0903 Y5.5125 
G01 X-21.1575 Y5.5797 
G01 X-21.1939 Y5.6675 
G01 X-21.1939 Y14.6525 
G01 X-21.1575 Y14.7403 
G01 X-21.0903 Y14.8075 
G01 X-21.0025 Y14.8439 
G01 X-9.4775 Y14.8439 
G01 X-9.3897 Y14.8075 
G01 X-9.3225 Y14.7403 
G01 X-9.2861 Y14.6525 
G01 X-9.2861 Y5.6675 
G01 X-9.3225 Y5.5797 
G01 X-9.3897 Y5.5125 
G01 X-9.4775 Y5.4761 
G01 X-9.8228 Y5.4761 
G01 X-9.7857 Y5.3864 
G01 X-9.7611 Y5.2629 
G01 X-9.7611 Y4.0028 
G01 X-9.7581 Y4.0024 
G01 X-9.5337 Y3.9295 
G01 X-9.3234 Y3.8223 
G01 X-9.1325 Y3.6836 
G01 X-8.9656 Y3.5167 
G01 X-8.8269 Y3.3258 
G01 X-8.7197 Y3.1155 
G01 X-8.6468 Y2.8911 
G01 X-8.6099 Y2.6580 
G01 X-8.6099 Y2.4220 
G01 X-8.6468 Y2.1889 
G01 X-8.7197 Y1.9645 
G01 X-8.8269 Y1.7542 
G01 X-8.9656 Y1.5633 
G00 Z2.0000 
G00 X-15.3918 Y1.5633 
G01 Z-0.0250 F254.00 
G01 X-15.5587 Y1.3964 F508.00 
G01 X-15.7496 Y1.2577 
G01 X-15.9599 Y1.1505 
G01 X-16.1843 Y1.0776 
G01 X-16.4174 Y1.0407 
G01 X-16.6534 Y1.0407 
G01 X-16.8865 Y1.0776 
G01 X-17.1109 Y1.1505 
G01 X-17.3212 Y1.2577 
G01 X-17.5121 Y1.3964 
G01 X-17.6790 Y1.5633 
G01 X-17.8177 Y1.7542 
G01 X-17.9249 Y1.9645 
G01 X-17.9978 Y2.1889 
G01 X-18.0347 Y2.4220 
G01 X-18.0347 Y2.6580 
G01 X-17.9978 Y2.8911 
G01 X-17.9249 Y3.1155 
G01 X-17.8177 Y3.3258 
G01 X-17.6790 Y3.5167 
G01 X-17.5121 Y3.6836 
G01 X-17.3212 Y3.8223 
G01 X-17.1109 Y3.9295 
G01 X-16.8865 Y4.0024 
G01 X-16.6534 Y4.0393 
G01 X-16.4174 Y4.0393 
G01 X-16.1843 Y4.0024 
G01 X-15.9599 Y3.9295 
G01 X-15.7496 Y3.8223 
G01 X-15.5587 Y3.6836 
G01 X-15.3918 Y3.5167 
G01 X-15.2531 Y3.3258 
G01 X-15.1459 Y3.1155 
G01 X-15.0730 Y2.8911 
G01 X-15.0361 Y2.6580 
G01 X-15.0361 Y2.4220 
G01 X-15.0730 Y2.1889 
G01 X-15.1459 Y1.9645 
G01 X-15.2531 Y1.7542 
G01 X-15.3918 Y1.5633 
G00 Z2.0000 
G00 X-20.3956 Y1.5633 
G01 Z-0.0250 F254.00 
G01 X-20.5625 Y1.3964 F508.00 
G01 X-20.7534 Y1.2577 
G01 X-20.9637 Y1.1505 
G01 X-21.1881 Y1.0776 
G01 X-21.4212 Y1.0407 
G01 X-21.6572 Y1.0407 
G01 X-21.8903 Y1.0776 
G01 X-22.1147 Y1.1505 
G01 X-22.3250 Y1.2577 
G01 X-22.5159 Y1.3964 
G01 X-22.6828 Y1.5633 
G01 X-22.8215 Y1.7542 
G01 X-22.9287 Y1.9645 
G01 X-23.0016 Y2.1889 
G01 X-23.0385 Y2.4220 
G01 X-23.0385 Y2.6580 
G01 X-23.0016 Y2.8911 
G01 X-22.9287 Y3.1155 
G01 X-22.8215 Y3.3258 
G01 X-22.6828 Y3.5167 
G01 X-22.5159 Y3.6836 
G01 X-22.3250 Y3.8223 
G01 X-22.1147 Y3.9295 
G01 X-21.8903 Y4.0024 
G01 X-21.6572 Y4.0393 
G01 X-21.4212 Y4.0393 
G01 X-21.1881 Y4.0024 
G01 X-20.9637 Y3.9295 
G01 X-20.7534 Y3.8223 
G01 X-20.5625 Y3.6836 
G01 X-20.3956 Y3.5167 
G01 X-20.2569 Y3.3258 
G01 X-20.1497 Y3.1155 
G01 X-20.0768 Y2.8911 
G01 X-20.0399 Y2.6580 
G01 X-20.0399 Y2.4220 
G01 X-20.0768 Y2.1889 
G01 X-20.1497 Y1.9645 
G01 X-20.2569 Y1.7542 
G01 X-20.3956 Y1.5633 
G00 Z2.0000 
G00 X-21.1927 Y16.3037 
G01 Z-0.0250 F254.00 
G01 X-21.2974 Y16.2338 F508.00 
G01 X-21.4136 Y16.1857 
G01 X-21.5371 Y16.1611 
G01 X-24.0629 Y16.1611 
G01 X-24.1864 Y16.1857 
G01 X-24.3026 Y16.2338 
G01 X-24.4073 Y16.3037 
G01 X-24.4963 Y16.3927 
G01 X-26.2646 Y18.1611 
G01 X-39.6641 Y18.1611 
G01 X-39.7626 Y18.0626 
G01 X-39.9341 Y17.9380 
G01 X-40.1230 Y17.8418 
G01 X-40.3246 Y17.7763 
G01 X-40.5340 Y17.7431 
G01 X-40.7460 Y17.7431 
G01 X-40.9554 Y17.7763 
G01 X-41.1570 Y17.8418 
G01 X-41.3459 Y17.9380 
G01 X-41.5174 Y18.0626 
G01 X-41.6674 Y18.2126 
G01 X-41.7920 Y18.3841 
G01 X-41.8882 Y18.5730 
G01 X-41.9537 Y18.7746 
G01 X-41.9869 Y18.9840 
G01 X-41.9869 Y19.1960 
G01 X-41.9537 Y19.4054 
G01 X-41.8882 Y19.6070 
G01 X-41.7920 Y19.7959 
G01 X-41.6674 Y19.9674 
G01 X-41.5174 Y20.1174 
G01 X-41.3459 Y20.2420 
G01 X-41.1570 Y20.3382 
G01 X-41.1515 Y20.3400 
G01 X-41.1570 Y20.3418 
G01 X-41.3459 Y20.4380 
G01 X-41.5174 Y20.5626 
G01 X-41.6674 Y20.7126 
G01 X-41.7920 Y20.8841 
G01 X-41.8882 Y21.0730 
G01 X-41.9537 Y21.2746 
G01 X-41.9869 Y21.4840 
G01 X-41.9869 Y21.6960 
G01 X-41.9537 Y21.9054 
G01 X-41.8882 Y22.1070 
G01 X-41.7920 Y22.2959 
G01 X-41.6674 Y22.4674 
G01 X-41.5174 Y22.6174 
G01 X-41.3459 Y22.7420 
G01 X-41.1570 Y22.8382 
G01 X-41.1515 Y22.8400 
G01 X-41.1570 Y22.8418 
G01 X-41.3459 Y22.9380 
G01 X-41.5174 Y23.0626 
G01 X-41.6674 Y23.2126 
G01 X-41.7920 Y23.3841 
G01 X-41.8882 Y23.5730 
G01 X-41.9537 Y23.7746 
G01 X-41.9869 Y23.9840 
G01 X-41.9869 Y24.1960 
G01 X-41.9537 Y24.4054 
G01 X-41.8882 Y24.6070 
G01 X-41.7920 Y24.7959 
G01 X-41.6674 Y24.9674 
G01 X-41.5174 Y25.1174 
G01 X-41.3459 Y25.2420 
G01 X-41.1570 Y25.3382 
G01 X-40.9554 Y25.4037 
G01 X-40.7460 Y25.4369 
G01 X-40.5340 Y25.4369 
G01 X-40.3246 Y25.4037 
G01 X-40.1230 Y25.3382 
G01 X-39.9341 Y25.2420 
G01 X-39.7626 Y25.1174 
G01 X-39.6841 Y25.0389 
G01 X-39.0646 Y25.0389 
G01 X-24.4963 Y39.6073 
G01 X-24.4073 Y39.6963 
G01 X-24.3026 Y39.7662 
G01 X-24.1864 Y39.8143 
G01 X-24.0629 Y39.8389 
G01 X-24.0103 Y39.8389 
G01 X-24.0081 Y39.8456 
G01 X-23.9196 Y40.0193 
G01 X-23.8050 Y40.1771 
G01 X-23.6671 Y40.3150 
G01 X-23.5093 Y40.4296 
G01 X-23.3356 Y40.5181 
G01 X-23.1501 Y40.5784 
G01 X-22.9575 Y40.6089 
G01 X-22.7625 Y40.6089 
G01 X-22.5699 Y40.5784 
G01 X-22.3844 Y40.5181 
G01 X-22.2107 Y40.4296 
G01 X-22.0529 Y40.3150 
G01 X-21.9150 Y40.1771 
G01 X-21.8004 Y40.0193 
G01 X-21.7119 Y39.8456 
G01 X-21.6516 Y39.6601 
G01 X-21.6211 Y39.4675 
G01 X-21.6211 Y39.2725 
G01 X-21.6516 Y39.0799 
G01 X-21.7119 Y38.8944 
G01 X-21.8004 Y38.7207 
G01 X-21.9150 Y38.5629 
G01 X-22.0529 Y38.4250 
G01 X-22.2107 Y38.3104 
G01 X-22.3844 Y38.2219 
G01 X-22.5699 Y38.1616 
G01 X-22.7625 Y38.1311 
G01 X-22.9575 Y38.1311 
G01 X-23.1501 Y38.1616 
G01 X-23.3356 Y38.2219 
G01 X-23.5093 Y38.3104 
G01 X-23.6671 Y38.4250 
G01 X-23.7693 Y38.5272 
G01 X-38.3927 Y23.9037 
G01 X-38.4974 Y23.8338 
G01 X-38.6136 Y23.7857 
G01 X-38.7371 Y23.7611 
G01 X-39.3307 Y23.7611 
G01 X-39.3918 Y23.5730 
G01 X-39.4880 Y23.3841 
G01 X-39.6126 Y23.2126 
G01 X-39.7626 Y23.0626 
G01 X-39.9341 Y22.9380 
G01 X-40.1230 Y22.8418 
G01 X-40.1285 Y22.8400 
G01 X-40.1230 Y22.8382 
G01 X-39.9341 Y22.7420 
G01 X-39.7626 Y22.6174 
G01 X-39.6126 Y22.4674 
G01 X-39.4880 Y22.2959 
G01 X-39.4590 Y22.2389 
G01 X-23.9198 Y22.2389 
G01 X-23.8050 Y22.3971 
G01 X-23.6671 Y22.5350 
G01 X-23.5093 Y22.6496 
G01 X-23.3356 Y22.7381 
G01 X-23.1501 Y22.7984 
G01 X-22.9575 Y22.8289 
G01 X-22.7625 Y22.8289 
G01 X-22.5699 Y22.7984 
G01 X-22.3844 Y22.7381 
G01 X-22.2107 Y22.6496 
G01 X-22.0529 Y22.5350 
G01 X-21.9150 Y22.3971 
G01 X-21.8004 Y22.2393 
G01 X-21.7119 Y22.0656 
G01 X-21.6516 Y21.8801 
G01 X-21.6211 Y21.6875 
G01 X-21.6211 Y21.4925 
G01 X-21.6516 Y21.2999 
G01 X-21.7119 Y21.1144 
G01 X-21.8004 Y20.9407 
G01 X-21.9150 Y20.7829 
G01 X-22.0529 Y20.6450 
G01 X-22.2107 Y20.5304 
G01 X-22.3844 Y20.4419 
G01 X-22.5699 Y20.3816 
G01 X-22.7625 Y20.3511 
G01 X-22.9575 Y20.3511 
G01 X-23.1501 Y20.3816 
G01 X-23.3356 Y20.4419 
G01 X-23.5093 Y20.5304 
G01 X-23.6671 Y20.6450 
G01 X-23.8050 Y20.7829 
G01 X-23.9196 Y20.9407 
G01 X-23.9300 Y20.9611 
G01 X-39.4488 Y20.9611 
G01 X-39.4880 Y20.8841 
G01 X-39.6126 Y20.7126 
G01 X-39.7626 Y20.5626 
G01 X-39.9341 Y20.4380 
G01 X-40.1230 Y20.3418 
G01 X-40.1285 Y20.3400 
G01 X-40.1230 Y20.3382 
G01 X-39.9341 Y20.2420 
G01 X-39.7626 Y20.1174 
G01 X-39.6126 Y19.9674 
G01 X-39.4880 Y19.7959 
G01 X-39.3918 Y19.6070 
G01 X-39.3372 Y19.4389 
G01 X-25.9371 Y19.4389 
G01 X-25.8136 Y19.4143 
G01 X-25.6974 Y19.3662 
G01 X-25.5927 Y19.2963 
G01 X-23.7354 Y17.4389 
G01 X-21.8646 Y17.4389 
G01 X-19.0603 Y20.2432 
G01 X-19.0603 Y23.5425 
G01 X-19.0239 Y23.6303 
G01 X-18.9567 Y23.6975 
G01 X-18.8689 Y23.7339 
G01 X-17.0389 Y23.7339 
G01 X-17.0389 Y26.3940 
G01 X-17.0400 Y26.4509 
G01 X-17.0389 Y26.4568 
G01 X-17.0389 Y26.4629 
G01 X-17.0278 Y26.5188 
G01 X-17.0177 Y26.5747 
G01 X-17.0155 Y26.5804 
G01 X-17.0143 Y26.5864 
G01 X-16.9926 Y26.6390 
G01 X-16.9718 Y26.6919 
G01 X-16.9685 Y26.6970 
G01 X-16.9662 Y26.7026 
G01 X-16.9346 Y26.7499 
G01 X-16.9039 Y26.7978 
G01 X-16.8996 Y26.8022 
G01 X-16.8963 Y26.8073 
G01 X-16.8561 Y26.8474 
G01 X-16.7789 Y26.9276 
G01 X-16.7789 Y27.3175 
G01 X-16.7425 Y27.4053 
G01 X-16.6753 Y27.4725 
G01 X-16.6389 Y27.4876 
G01 X-16.6389 Y31.6629 
G01 X-16.6143 Y31.7864 
G01 X-16.5662 Y31.9026 
G01 X-16.4963 Y32.0073 
G01 X-16.4073 Y32.0963 
G01 X-9.5035 Y39.0000 
G01 X-10.4963 Y39.9927 
G01 X-10.5662 Y40.0974 
G01 X-10.6143 Y40.2136 
G01 X-10.6389 Y40.3371 
G01 X-10.6389 Y42.1354 
G01 X-24.2646 Y55.7611 
G01 X-25.3354 Y55.7611 
G01 X-29.9927 Y51.1037 
G01 X-30.0974 Y51.0338 
G01 X-30.2136 Y50.9857 
G01 X-30.3371 Y50.9611 
G01 X-30.6255 Y50.9611 
G01 X-30.6754 Y50.8632 
G01 X-30.7900 Y50.7054 
G01 X-30.9279 Y50.5675 
G01 X-31.0857 Y50.4529 
G01 X-31.2594 Y50.3644 
G01 X-31.4449 Y50.3041 
G01 X-31.6375 Y50.2736 
G01 X-31.8325 Y50.2736 
G01 X-32.0251 Y50.3041 
G01 X-32.2106 Y50.3644 
G01 X-32.3843 Y50.4529 
G01 X-32.5421 Y50.5675 
G01 X-32.6800 Y50.7054 
G01 X-32.7946 Y50.8632 
G01 X-32.8831 Y51.0369 
G01 X-32.9434 Y51.2224 
G01 X-32.9739 Y51.4150 
G01 X-32.9739 Y51.6100 
G01 X-32.9434 Y51.8026 
G01 X-32.8831 Y51.9881 
G01 X-32.7946 Y52.1618 
G01 X-32.6800 Y52.3196 
G01 X-32.5421 Y52.4575 
G01 X-32.3843 Y52.5721 
G01 X-32.2106 Y52.6606 
G01 X-32.0251 Y52.7209 
G01 X-31.8325 Y52.7514 
G01 X-31.6375 Y52.7514 
G01 X-31.4449 Y52.7209 
G01 X-31.2594 Y52.6606 
G01 X-31.0857 Y52.5721 
G01 X-30.9279 Y52.4575 
G01 X-30.7900 Y52.3196 
G01 X-30.7314 Y52.2389 
G01 X-30.6646 Y52.2389 
G01 X-26.0963 Y56.8073 
G01 X-26.0073 Y56.8963 
G01 X-25.9026 Y56.9662 
G01 X-25.7864 Y57.0143 
G01 X-25.6629 Y57.0389 
G01 X-23.9371 Y57.0389 
G01 X-23.8136 Y57.0143 
G01 X-23.6974 Y56.9662 
G01 X-23.5927 Y56.8963 
G01 X-9.5927 Y42.8963 
G01 X-9.5037 Y42.8073 
G01 X-9.4338 Y42.7026 
G01 X-9.3857 Y42.5864 
G01 X-9.3611 Y42.4629 
G01 X-9.3611 Y40.6646 
G01 X-8.6918 Y39.9954 
G01 X-8.6796 Y40.0193 
G01 X-8.5650 Y40.1771 
G01 X-8.4271 Y40.3150 
G01 X-8.2693 Y40.4296 
G01 X-8.0956 Y40.5181 
G01 X-7.9101 Y40.5784 
G01 X-7.7175 Y40.6089 
G01 X-7.5225 Y40.6089 
G01 X-7.3299 Y40.5784 
G01 X-7.1444 Y40.5181 
G01 X-6.9707 Y40.4296 
G01 X-6.8129 Y40.3150 
G01 X-6.6750 Y40.1771 
G01 X-6.5604 Y40.0193 
G01 X-6.4719 Y39.8456 
G01 X-6.4116 Y39.6601 
G01 X-6.3811 Y39.4675 
G01 X-6.3811 Y39.2725 
G01 X-6.4116 Y39.0799 
G01 X-6.4719 Y38.8944 
G01 X-6.5604 Y38.7207 
G01 X-6.6750 Y38.5629 
G01 X-6.8129 Y38.4250 
G01 X-6.9707 Y38.3104 
G01 X-7.1444 Y38.2219 
G01 X-7.3299 Y38.1616 
G01 X-7.5225 Y38.1311 
G01 X-7.7175 Y38.1311 
G01 X-7.9101 Y38.1616 
G01 X-8.0956 Y38.2219 
G01 X-8.2693 Y38.3104 
G01 X-8.3369 Y38.3595 
G01 X-15.3611 Y31.3354 
G01 X-15.3611 Y26.8510 
G01 X-15.3592 Y26.8392 
G01 X-15.3611 Y26.7882 
G01 X-15.3611 Y26.7371 
G01 X-15.3634 Y26.7254 
G01 X-15.3639 Y26.7135 
G01 X-15.3757 Y26.6637 
G01 X-15.3857 Y26.6136 
G01 X-15.3902 Y26.6026 
G01 X-15.3930 Y26.5910 
G01 X-15.4142 Y26.5446 
G01 X-15.4338 Y26.4974 
G01 X-15.4404 Y26.4874 
G01 X-15.4454 Y26.4766 
G01 X-15.4754 Y26.4352 
G01 X-15.5011 Y26.3967 
G01 X-15.5011 Y26.0225 
G01 X-15.5375 Y25.9347 
G01 X-15.6047 Y25.8675 
G01 X-15.6925 Y25.8311 
G01 X-15.7611 Y25.8311 
G01 X-15.7611 Y22.7371 
G01 X-15.7857 Y22.6136 
G01 X-15.8338 Y22.4974 
G01 X-15.9037 Y22.3927 
G01 X-16.4997 Y21.7968 
G01 X-16.4997 Y19.6375 
G01 X-16.5361 Y19.5497 
G01 X-16.6033 Y19.4825 
G01 X-16.6911 Y19.4461 
G01 X-18.0504 Y19.4461 
G01 X-21.1927 Y16.3037 
G00 Z2.0000 
G00 X-21.9150 Y18.2429 
G01 Z-0.0250 F254.00 
G01 X-22.0529 Y18.1050 F508.00 
G01 X-22.2107 Y17.9904 
G01 X-22.3844 Y17.9019 
G01 X-22.5699 Y17.8416 
G01 X-22.7625 Y17.8111 
G01 X-22.9575 Y17.8111 
G01 X-23.1501 Y17.8416 
G01 X-23.3356 Y17.9019 
G01 X-23.5093 Y17.9904 
G01 X-23.6671 Y18.1050 
G01 X-23.8050 Y18.2429 
G01 X-23.9196 Y18.4007 
G01 X-24.0081 Y18.5744 
G01 X-24.0684 Y18.7599 
G01 X-24.0989 Y18.9525 
G01 X-24.0989 Y19.1475 
G01 X-24.0684 Y19.3401 
G01 X-24.0081 Y19.5256 
G01 X-23.9196 Y19.6993 
G01 X-23.8050 Y19.8571 
G01 X-23.6671 Y19.9950 
G01 X-23.5093 Y20.1096 
G01 X-23.3356 Y20.1981 
G01 X-23.1501 Y20.2584 
G01 X-22.9575 Y20.2889 
G01 X-22.7625 Y20.2889 
G01 X-22.5699 Y20.2584 
G01 X-22.3844 Y20.1981 
G01 X-22.2107 Y20.1096 
G01 X-22.0529 Y19.9950 
G01 X-21.9150 Y19.8571 
G01 X-21.8004 Y19.6993 
G01 X-21.7119 Y19.5256 
G01 X-21.6516 Y19.3401 
G01 X-21.6211 Y19.1475 
G01 X-21.6211 Y18.9525 
G01 X-21.6516 Y18.7599 
G01 X-21.7119 Y18.5744 
G01 X-21.8004 Y18.4007 
G01 X-21.9150 Y18.2429 
G00 Z2.0000 
G00 X-21.9150 Y23.3229 
G01 Z-0.0250 F254.00 
G01 X-22.0529 Y23.1850 F508.00 
G01 X-22.2107 Y23.0704 
G01 X-22.3844 Y22.9819 
G01 X-22.5699 Y22.9216 
G01 X-22.7625 Y22.8911 
G01 X-22.9575 Y22.8911 
G01 X-23.1501 Y22.9216 
G01 X-23.3356 Y22.9819 
G01 X-23.5093 Y23.0704 
G01 X-23.6671 Y23.1850 
G01 X-23.8050 Y23.3229 
G01 X-23.9196 Y23.4807 
G01 X-24.0081 Y23.6544 
G01 X-24.0684 Y23.8399 
G01 X-24.0989 Y24.0325 
G01 X-24.0989 Y24.2275 
G01 X-24.0684 Y24.4201 
G01 X-24.0081 Y24.6056 
G01 X-23.9196 Y24.7793 
G01 X-23.8050 Y24.9371 
G01 X-23.6671 Y25.0750 
G01 X-23.5093 Y25.1896 
G01 X-23.3356 Y25.2781 
G01 X-23.1501 Y25.3384 
G01 X-22.9575 Y25.3689 
G01 X-22.7625 Y25.3689 
G01 X-22.5699 Y25.3384 
G01 X-22.3844 Y25.2781 
G01 X-22.2107 Y25.1896 
G01 X-22.0529 Y25.0750 
G01 X-21.9150 Y24.9371 
G01 X-21.8004 Y24.7793 
G01 X-21.7119 Y24.6056 
G01 X-21.6516 Y24.4201 
G01 X-21.6211 Y24.2275 
G01 X-21.6211 Y24.0325 
G01 X-21.6516 Y23.8399 
G01 X-21.7119 Y23.6544 
G01 X-21.8004 Y23.4807 
G01 X-21.9150 Y23.3229 
G00 Z2.0000 
G00 X-21.9150 Y25.8629 
G01 Z-0.0250 F254.00 
G01 X-22.0529 Y25.7250 F508.00 
G01 X-22.2107 Y25.6104 
G01 X-22.3844 Y25.5219 
G01 X-22.5699 Y25.4616 
G01 X-22.7625 Y25.4311 
G01 X-22.9575 Y25.4311 
G01 X-23.1501 Y25.4616 
G01 X-23.3356 Y25.5219 
G01 X-23.5093 Y25.6104 
G01 X-23.6671 Y25.7250 
G01 X-23.8050 Y25.8629 
G01 X-23.9196 Y26.0207 
G01 X-24.0081 Y26.1944 
G01 X-24.0684 Y26.3799 
G01 X-24.0989 Y26.5725 
G01 X-24.0989 Y26.7675 
G01 X-24.0684 Y26.9601 
G01 X-24.0081 Y27.1456 
G01 X-23.9196 Y27.3193 
G01 X-23.8050 Y27.4771 
G01 X-23.6671 Y27.6150 
G01 X-23.5093 Y27.7296 
G01 X-23.3356 Y27.8181 
G01 X-23.1501 Y27.8784 
G01 X-22.9575 Y27.9089 
G01 X-22.7625 Y27.9089 
G01 X-22.5699 Y27.8784 
G01 X-22.3844 Y27.8181 
G01 X-22.2107 Y27.7296 
G01 X-22.0529 Y27.6150 
G01 X-21.9150 Y27.4771 
G01 X-21.8004 Y27.3193 
G01 X-21.7119 Y27.1456 
G01 X-21.6516 Y26.9601 
G01 X-21.6211 Y26.7675 
G01 X-21.6211 Y26.5725 
G01 X-21.6516 Y26.3799 
G01 X-21.7119 Y26.1944 
G01 X-21.8004 Y26.0207 
G01 X-21.9150 Y25.8629 
G00 Z2.0000 
G00 X-21.9150 Y28.4029 
G01 Z-0.0250 F254.00 
G01 X-22.0529 Y28.2650 F508.00 
G01 X-22.2107 Y28.1504 
G01 X-22.3844 Y28.0619 
G01 X-22.5699 Y28.0016 
G01 X-22.7625 Y27.9711 
G01 X-22.9575 Y27.9711 
G01 X-23.1501 Y28.0016 
G01 X-23.3356 Y28.0619 
G01 X-23.5093 Y28.1504 
G01 X-23.6671 Y28.2650 
G01 X-23.8050 Y28.4029 
G01 X-23.9196 Y28.5607 
G01 X-24.0081 Y28.7344 
G01 X-24.0684 Y28.9199 
G01 X-24.0989 Y29.1125 
G01 X-24.0989 Y29.3075 
G01 X-24.0684 Y29.5001 
G01 X-24.0081 Y29.6856 
G01 X-23.9196 Y29.8593 
G01 X-23.8050 Y30.0171 
G01 X-23.6671 Y30.1550 
G01 X-23.5093 Y30.2696 
G01 X-23.3356 Y30.3581 
G01 X-23.1501 Y30.4184 
G01 X-22.9575 Y30.4489 
G01 X-22.7625 Y30.4489 
G01 X-22.5699 Y30.4184 
G01 X-22.3844 Y30.3581 
G01 X-22.2107 Y30.2696 
G01 X-22.0529 Y30.1550 
G01 X-21.9150 Y30.0171 
G01 X-21.8004 Y29.8593 
G01 X-21.7119 Y29.6856 
G01 X-21.6516 Y29.5001 
G01 X-21.6211 Y29.3075 
G01 X-21.6211 Y29.1125 
G01 X-21.6516 Y28.9199 
G01 X-21.7119 Y28.7344 
G01 X-21.8004 Y28.5607 
G01 X-21.9150 Y28.4029 
G00 Z2.0000 
G00 X-21.9150 Y30.9429 
G01 Z-0.0250 F254.00 
G01 X-22.0529 Y30.8050 F508.00 
G01 X-22.2107 Y30.6904 
G01 X-22.3844 Y30.6019 
G01 X-22.5699 Y30.5416 
G01 X-22.7625 Y30.5111 
G01 X-22.9575 Y30.5111 
G01 X-23.1501 Y30.5416 
G01 X-23.3356 Y30.6019 
G01 X-23.5093 Y30.6904 
G01 X-23.6671 Y30.8050 
G01 X-23.8050 Y30.9429 
G01 X-23.9196 Y31.1007 
G01 X-24.0081 Y31.2744 
G01 X-24.0684 Y31.4599 
G01 X-24.0989 Y31.6525 
G01 X-24.0989 Y31.8475 
G01 X-24.0684 Y32.0401 
G01 X-24.0081 Y32.2256 
G01 X-23.9196 Y32.3993 
G01 X-23.8050 Y32.5571 
G01 X-23.6671 Y32.6950 
G01 X-23.5093 Y32.8096 
G01 X-23.3356 Y32.8981 
G01 X-23.1501 Y32.9584 
G01 X-22.9575 Y32.9889 
G01 X-22.7625 Y32.9889 
G01 X-22.5699 Y32.9584 
G01 X-22.3844 Y32.8981 
G01 X-22.2107 Y32.8096 
G01 X-22.0529 Y32.6950 
G01 X-21.9150 Y32.5571 
G01 X-21.8004 Y32.3993 
G01 X-21.7119 Y32.2256 
G01 X-21.6516 Y32.0401 
G01 X-21.6211 Y31.8475 
G01 X-21.6211 Y31.6525 
G01 X-21.6516 Y31.4599 
G01 X-21.7119 Y31.2744 
G01 X-21.8004 Y31.1007 
G01 X-21.9150 Y30.9429 
G00 Z2.0000 
G00 X-21.9150 Y33.4829 
G01 Z-0.0250 F254.00 
G01 X-22.0529 Y33.3450 F508.00 
G01 X-22.2107 Y33.2304 
G01 X-22.3844 Y33.1419 
G01 X-22.5699 Y33.0816 
G01 X-22.7625 Y33.0511 
G01 X-22.9575 Y33.0511 
G01 X-23.1501 Y33.0816 
G01 X-23.3356 Y33.1419 
G01 X-23.5093 Y33.2304 
G01 X-23.6671 Y33.3450 
G01 X-23.8050 Y33.4829 
G01 X-23.9196 Y33.6407 
G01 X-24.0081 Y33.8144 
G01 X-24.0684 Y33.9999 
G01 X-24.0989 Y34.1925 
G01 X-24.0989 Y34.3875 
G01 X-24.0684 Y34.5801 
G01 X-24.0081 Y34.7656 
G01 X-23.9196 Y34.9393 
G01 X-23.8050 Y35.0971 
G01 X-23.6671 Y35.2350 
G01 X-23.5093 Y35.3496 
G01 X-23.3356 Y35.4381 
G01 X-23.1501 Y35.4984 
G01 X-22.9575 Y35.5289 
G01 X-22.7625 Y35.5289 
G01 X-22.5699 Y35.4984 
G01 X-22.3844 Y35.4381 
G01 X-22.2107 Y35.3496 
G01 X-22.0529 Y35.2350 
G01 X-21.9150 Y35.0971 
G01 X-21.8004 Y34.9393 
G01 X-21.7119 Y34.7656 
G01 X-21.6516 Y34.5801 
G01 X-21.6211 Y34.3875 
G01 X-21.6211 Y34.1925 
G01 X-21.6516 Y33.9999 
G01 X-21.7119 Y33.8144 
G01 X-21.8004 Y33.6407 
G01 X-21.9150 Y33.4829 
G00 Z2.0000 
G00 X-21.9150 Y36.0229 
G01 Z-0.0250 F254.00 
G01 X-22.0529 Y35.8850 F508.00 
G01 X-22.2107 Y35.7704 
G01 X-22.3844 Y35.6819 
G01 X-22.5699 Y35.6216 
G01 X-22.7625 Y35.5911 
G01 X-22.9575 Y35.5911 
G01 X-23.1501 Y35.6216 
G01 X-23.3356 Y35.6819 
G01 X-23.5093 Y35.7704 
G01 X-23.6671 Y35.8850 
G01 X-23.8050 Y36.0229 
G01 X-23.9196 Y36.1807 
G01 X-24.0081 Y36.3544 
G01 X-24.0684 Y36.5399 
G01 X-24.0989 Y36.7325 
G01 X-24.0989 Y36.9275 
G01 X-24.0684 Y37.1201 
G01 X-24.0081 Y37.3056 
G01 X-23.9196 Y37.4793 
G01 X-23.8050 Y37.6371 
G01 X-23.6671 Y37.7750 
G01 X-23.5093 Y37.8896 
G01 X-23.3356 Y37.9781 
G01 X-23.1501 Y38.0384 
G01 X-22.9575 Y38.0689 
G01 X-22.7625 Y38.0689 
G01 X-22.5699 Y38.0384 
G01 X-22.3844 Y37.9781 
G01 X-22.2107 Y37.8896 
G01 X-22.0529 Y37.7750 
G01 X-21.9150 Y37.6371 
G01 X-21.8004 Y37.4793 
G01 X-21.7119 Y37.3056 
G01 X-21.6516 Y37.1201 
G01 X-21.6211 Y36.9275 
G01 X-21.6211 Y36.7325 
G01 X-21.6516 Y36.5399 
G01 X-21.7119 Y36.3544 
G01 X-21.8004 Y36.1807 
G01 X-21.9150 Y36.0229 
G00 Z2.0000 
G00 X-18.6539 Y35.9420 
G01 Z-0.0250 F254.00 
G01 X-18.6539 Y37.7180 F508.00 
G01 X-17.3980 Y38.9739 
G01 X-15.6220 Y38.9739 
G01 X-14.3661 Y37.7180 
G01 X-14.3661 Y35.9420 
G01 X-15.6220 Y34.6861 
G01 X-17.3980 Y34.6861 
G01 X-18.6539 Y35.9420 
G00 Z2.0000 
G00 X-21.9150 Y41.1029 
G01 Z-0.0250 F254.00 
G01 X-22.0529 Y40.9650 F508.00 
G01 X-22.2107 Y40.8504 
G01 X-22.3844 Y40.7619 
G01 X-22.5699 Y40.7016 
G01 X-22.7625 Y40.6711 
G01 X-22.9575 Y40.6711 
G01 X-23.1501 Y40.7016 
G01 X-23.3356 Y40.7619 
G01 X-23.5093 Y40.8504 
G01 X-23.6671 Y40.9650 
G01 X-23.8050 Y41.1029 
G01 X-23.9196 Y41.2607 
G01 X-24.0081 Y41.4344 
G01 X-24.0684 Y41.6199 
G01 X-24.0989 Y41.8125 
G01 X-24.0989 Y42.0075 
G01 X-24.0684 Y42.2001 
G01 X-24.0081 Y42.3856 
G01 X-23.9196 Y42.5593 
G01 X-23.8050 Y42.7171 
G01 X-23.6671 Y42.8550 
G01 X-23.5093 Y42.9696 
G01 X-23.3356 Y43.0581 
G01 X-23.1501 Y43.1184 
G01 X-22.9575 Y43.1489 
G01 X-22.7625 Y43.1489 
G01 X-22.5699 Y43.1184 
G01 X-22.3844 Y43.0581 
G01 X-22.2107 Y42.9696 
G01 X-22.0529 Y42.8550 
G01 X-21.9150 Y42.7171 
G01 X-21.8004 Y42.5593 
G01 X-21.7119 Y42.3856 
G01 X-21.6516 Y42.2001 
G01 X-21.6211 Y42.0075 
G01 X-21.6211 Y41.8125 
G01 X-21.6516 Y41.6199 
G01 X-21.7119 Y41.4344 
G01 X-21.8004 Y41.2607 
G01 X-21.9150 Y41.1029 
G00 Z2.0000 
G00 X-21.9150 Y43.6429 
G01 Z-0.0250 F254.00 
G01 X-22.0529 Y43.5050 F508.00 
G01 X-22.2107 Y43.3904 
G01 X-22.3844 Y43.3019 
G01 X-22.5699 Y43.2416 
G01 X-22.7625 Y43.2111 
G01 X-22.9575 Y43.2111 
G01 X-23.1501 Y43.2416 
G01 X-23.3356 Y43.3019 
G01 X-23.5093 Y43.3904 
G01 X-23.6671 Y43.5050 
G01 X-23.8050 Y43.6429 
G01 X-23.9196 Y43.8007 
G01 X-24.0081 Y43.9744 
G01 X-24.0684 Y44.1599 
G01 X-24.0989 Y44.3525 
G01 X-24.0989 Y44.5475 
G01 X-24.0684 Y44.7401 
G01 X-24.0081 Y44.9256 
G01 X-23.9196 Y45.0993 
G01 X-23.8050 Y45.2571 
G01 X-23.6671 Y45.3950 
G01 X-23.5093 Y45.5096 
G01 X-23.3356 Y45.5981 
G01 X-23.1501 Y45.6584 
G01 X-22.9575 Y45.6889 
G01 X-22.7625 Y45.6889 
G01 X-22.5699 Y45.6584 
G01 X-22.3844 Y45.5981 
G01 X-22.2107 Y45.5096 
G01 X-22.0529 Y45.3950 
G01 X-21.9150 Y45.2571 
G01 X-21.8004 Y45.0993 
G01 X-21.7119 Y44.9256 
G01 X-21.6516 Y44.7401 
G01 X-21.6211 Y44.5475 
G01 X-21.6211 Y44.3525 
G01 X-21.6516 Y44.1599 
G01 X-21.7119 Y43.9744 
G01 X-21.8004 Y43.8007 
G01 X-21.9150 Y43.6429 
G00 Z2.0000 
G00 X-21.9150 Y46.1829 
G01 Z-0.0250 F254.00 
G01 X-22.0529 Y46.0450 F508.00 
G01 X-22.2107 Y45.9304 
G01 X-22.3844 Y45.8419 
G01 X-22.5699 Y45.7816 
G01 X-22.7625 Y45.7511 
G01 X-22.9575 Y45.7511 
G01 X-23.1501 Y45.7816 
G01 X-23.3356 Y45.8419 
G01 X-23.5093 Y45.9304 
G01 X-23.6671 Y46.0450 
G01 X-23.8050 Y46.1829 
G01 X-23.9196 Y46.3407 
G01 X-24.0081 Y46.5144 
G01 X-24.0684 Y46.6999 
G01 X-24.0989 Y46.8925 
G01 X-24.0989 Y47.0875 
G01 X-24.0684 Y47.2801 
G01 X-24.0081 Y47.4656 
G01 X-23.9196 Y47.6393 
G01 X-23.8050 Y47.7971 
G01 X-23.6671 Y47.9350 
G01 X-23.5093 Y48.0496 
G01 X-23.3356 Y48.1381 
G01 X-23.1501 Y48.1984 
G01 X-22.9575 Y48.2289 
G01 X-22.7625 Y48.2289 
G01 X-22.5699 Y48.1984 
G01 X-22.3844 Y48.1381 
G01 X-22.2107 Y48.0496 
G01 X-22.0529 Y47.9350 
G01 X-21.9150 Y47.7971 
G01 X-21.8004 Y47.6393 
G01 X-21.7119 Y47.4656 
G01 X-21.6516 Y47.2801 
G01 X-21.6211 Y47.0875 
G01 X-21.6211 Y46.8925 
G01 X-21.6516 Y46.6999 
G01 X-21.7119 Y46.5144 
G01 X-21.8004 Y46.3407 
G01 X-21.9150 Y46.1829 
G00 Z2.0000 
G00 X-24.3037 Y51.9927 
G01 Z-0.0250 F254.00 
G01 X-30.3037 Y45.9927 F508.00 
G01 X-30.3927 Y45.9037 
G01 X-30.4974 Y45.8338 
G01 X-30.6136 Y45.7857 
G01 X-30.7371 Y45.7611 
G01 X-32.4629 Y45.7611 
G01 X-32.5864 Y45.7857 
G01 X-32.7026 Y45.8338 
G01 X-32.8073 Y45.9037 
G01 X-34.4073 Y47.5037 
G01 X-34.4963 Y47.5927 
G01 X-34.5662 Y47.6974 
G01 X-34.5983 Y47.7749 
G01 X-34.7506 Y47.8244 
G01 X-34.9243 Y47.9129 
G01 X-35.0821 Y48.0275 
G01 X-35.2200 Y48.1654 
G01 X-35.3346 Y48.3232 
G01 X-35.4231 Y48.4969 
G01 X-35.4834 Y48.6824 
G01 X-35.5139 Y48.8750 
G01 X-35.5139 Y49.0700 
G01 X-35.4834 Y49.2626 
G01 X-35.4231 Y49.4481 
G01 X-35.3346 Y49.6218 
G01 X-35.2200 Y49.7796 
G01 X-35.0821 Y49.9175 
G01 X-34.9243 Y50.0321 
G01 X-34.7506 Y50.1206 
G01 X-34.5651 Y50.1809 
G01 X-34.3725 Y50.2114 
G01 X-34.1775 Y50.2114 
G01 X-33.9849 Y50.1809 
G01 X-33.7994 Y50.1206 
G01 X-33.6257 Y50.0321 
G01 X-33.4679 Y49.9175 
G01 X-33.3300 Y49.7796 
G01 X-33.2154 Y49.6218 
G01 X-33.1269 Y49.4481 
G01 X-33.0666 Y49.2626 
G01 X-33.0361 Y49.0700 
G01 X-33.0361 Y48.8750 
G01 X-33.0666 Y48.6824 
G01 X-33.1269 Y48.4969 
G01 X-33.2154 Y48.3232 
G01 X-33.3013 Y48.2049 
G01 X-32.1354 Y47.0389 
G01 X-31.0646 Y47.0389 
G01 X-25.4389 Y52.6646 
G01 X-25.4389 Y52.9351 
G01 X-25.4493 Y52.9404 
G01 X-25.6071 Y53.0550 
G01 X-25.7450 Y53.1929 
G01 X-25.8596 Y53.3507 
G01 X-25.9481 Y53.5244 
G01 X-26.0084 Y53.7099 
G01 X-26.0389 Y53.9025 
G01 X-26.0389 Y54.0975 
G01 X-26.0084 Y54.2901 
G01 X-25.9481 Y54.4756 
G01 X-25.8596 Y54.6493 
G01 X-25.7450 Y54.8071 
G01 X-25.6071 Y54.9450 
G01 X-25.4493 Y55.0596 
G01 X-25.2756 Y55.1481 
G01 X-25.0901 Y55.2084 
G01 X-24.8975 Y55.2389 
G01 X-24.7025 Y55.2389 
G01 X-24.5099 Y55.2084 
G01 X-24.3244 Y55.1481 
G01 X-24.1507 Y55.0596 
G01 X-23.9929 Y54.9450 
G01 X-23.8550 Y54.8071 
G01 X-23.7404 Y54.6493 
G01 X-23.6519 Y54.4756 
G01 X-23.5916 Y54.2901 
G01 X-23.5611 Y54.0975 
G01 X-23.5611 Y53.9025 
G01 X-23.5916 Y53.7099 
G01 X-23.6519 Y53.5244 
G01 X-23.7404 Y53.3507 
G01 X-23.8550 Y53.1929 
G01 X-23.9929 Y53.0550 
G01 X-24.1507 Y52.9404 
G01 X-24.1611 Y52.9351 
G01 X-24.1611 Y52.4629 
G01 X-24.1611 Y52.3371 
G01 X-24.1857 Y52.2136 
G01 X-24.2338 Y52.0974 
G01 X-24.3037 Y51.9927 
G00 Z2.0000 
G00 X-30.9279 Y49.9175 
G01 Z-0.0250 F254.00 
G01 X-30.7900 Y49.7796 F508.00 
G01 X-30.6754 Y49.6218 
G01 X-30.5869 Y49.4481 
G01 X-30.5266 Y49.2626 
G01 X-30.4961 Y49.0700 
G01 X-30.4961 Y48.8750 
G01 X-30.5266 Y48.6824 
G01 X-30.5869 Y48.4969 
G01 X-30.6754 Y48.3232 
G01 X-30.7900 Y48.1654 
G01 X-30.9279 Y48.0275 
G01 X-31.0857 Y47.9129 
G01 X-31.2594 Y47.8244 
G01 X-31.4449 Y47.7641 
G01 X-31.6375 Y47.7336 
G01 X-31.8325 Y47.7336 
G01 X-32.0251 Y47.7641 
G01 X-32.2106 Y47.8244 
G01 X-32.3843 Y47.9129 
G01 X-32.5421 Y48.0275 
G01 X-32.6800 Y48.1654 
G01 X-32.7946 Y48.3232 
G01 X-32.8831 Y48.4969 
G01 X-32.9434 Y48.6824 
G01 X-32.9739 Y48.8750 
G01 X-32.9739 Y49.0700 
G01 X-32.9434 Y49.2626 
G01 X-32.8831 Y49.4481 
G01 X-32.7946 Y49.6218 
G01 X-32.6800 Y49.7796 
G01 X-32.5421 Y49.9175 
G01 X-32.3843 Y50.0321 
G01 X-32.2106 Y50.1206 
G01 X-32.0251 Y50.1809 
G01 X-31.8325 Y50.2114 
G01 X-31.6375 Y50.2114 
G01 X-31.4449 Y50.1809 
G01 X-31.2594 Y50.1206 
G01 X-31.0857 Y50.0321 
G01 X-30.9279 Y49.9175 
G00 Z2.0000 
G00 X-33.3300 Y50.7054 
G01 Z-0.0250 F254.00 
G01 X-33.4679 Y50.5675 F508.00 
G01 X-33.6257 Y50.4529 
G01 X-33.7994 Y50.3644 
G01 X-33.9849 Y50.3041 
G01 X-34.1775 Y50.2736 
G01 X-34.3725 Y50.2736 
G01 X-34.5651 Y50.3041 
G01 X-34.7506 Y50.3644 
G01 X-34.9243 Y50.4529 
G01 X-35.0821 Y50.5675 
G01 X-35.2200 Y50.7054 
G01 X-35.3346 Y50.8632 
G01 X-35.4231 Y51.0369 
G01 X-35.4834 Y51.2224 
G01 X-35.5139 Y51.4150 
G01 X-35.5139 Y51.6100 
G01 X-35.4834 Y51.8026 
G01 X-35.4231 Y51.9881 
G01 X-35.3346 Y52.1618 
G01 X-35.2200 Y52.3196 
G01 X-35.0821 Y52.4575 
G01 X-34.9243 Y52.5721 
G01 X-34.7506 Y52.6606 
G01 X-34.5651 Y52.7209 
G01 X-34.3725 Y52.7514 
G01 X-34.1775 Y52.7514 
G01 X-33.9849 Y52.7209 
G01 X-33.7994 Y52.6606 
G01 X-33.6257 Y52.5721 
G01 X-33.4679 Y52.4575 
G01 X-33.3300 Y52.3196 
G01 X-33.2154 Y52.1618 
G01 X-33.1269 Y51.9881 
G01 X-33.0666 Y51.8026 
G01 X-33.0361 Y51.6100 
G01 X-33.0361 Y51.4150 
G01 X-33.0666 Y51.2224 
G01 X-33.1269 Y51.0369 
G01 X-33.2154 Y50.8632 
G01 X-33.3300 Y50.7054 
G00 Z2.0000 
G00 X-35.8700 Y50.7054 
G01 Z-0.0250 F254.00 
G01 X-36.0079 Y50.5675 F508.00 
G01 X-36.1657 Y50.4529 
G01 X-36.3394 Y50.3644 
G01 X-36.5249 Y50.3041 
G01 X-36.7175 Y50.2736 
G01 X-36.9125 Y50.2736 
G01 X-37.1051 Y50.3041 
G01 X-37.2906 Y50.3644 
G01 X-37.4643 Y50.4529 
G01 X-37.6221 Y50.5675 
G01 X-37.7600 Y50.7054 
G01 X-37.8746 Y50.8632 
G01 X-37.9631 Y51.0369 
G01 X-38.0234 Y51.2224 
G01 X-38.0539 Y51.4150 
G01 X-38.0539 Y51.6100 
G01 X-38.0234 Y51.8026 
G01 X-37.9631 Y51.9881 
G01 X-37.8746 Y52.1618 
G01 X-37.7600 Y52.3196 
G01 X-37.6221 Y52.4575 
G01 X-37.4643 Y52.5721 
G01 X-37.2906 Y52.6606 
G01 X-37.1051 Y52.7209 
G01 X-36.9125 Y52.7514 
G01 X-36.7175 Y52.7514 
G01 X-36.5249 Y52.7209 
G01 X-36.3394 Y52.6606 
G01 X-36.1657 Y52.5721 
G01 X-36.0079 Y52.4575 
G01 X-35.8700 Y52.3196 
G01 X-35.7554 Y52.1618 
G01 X-35.6669 Y51.9881 
G01 X-35.6066 Y51.8026 
G01 X-35.5761 Y51.6100 
G01 X-35.5761 Y51.4150 
G01 X-35.6066 Y51.2224 
G01 X-35.6669 Y51.0369 
G01 X-35.7554 Y50.8632 
G01 X-35.8700 Y50.7054 
G00 Z2.0000 
G00 X-36.0079 Y49.9175 
G01 Z-0.0250 F254.00 
G01 X-35.8700 Y49.7796 F508.00 
G01 X-35.7554 Y49.6218 
G01 X-35.6669 Y49.4481 
G01 X-35.6066 Y49.2626 
G01 X-35.5761 Y49.0700 
G01 X-35.5761 Y48.8750 
G01 X-35.6066 Y48.6824 
G01 X-35.6669 Y48.4969 
G01 X-35.7554 Y48.3232 
G01 X-35.8700 Y48.1654 
G01 X-36.0079 Y48.0275 
G01 X-36.1657 Y47.9129 
G01 X-36.3394 Y47.8244 
G01 X-36.5249 Y47.7641 
G01 X-36.7175 Y47.7336 
G01 X-36.9125 Y47.7336 
G01 X-37.1051 Y47.7641 
G01 X-37.2906 Y47.8244 
G01 X-37.4643 Y47.9129 
G01 X-37.6221 Y48.0275 
G01 X-37.7600 Y48.1654 
G01 X-37.8746 Y48.3232 
G01 X-37.9631 Y48.4969 
G01 X-38.0234 Y48.6824 
G01 X-38.0539 Y48.8750 
G01 X-38.0539 Y49.0700 
G01 X-38.0234 Y49.2626 
G01 X-37.9631 Y49.4481 
G01 X-37.8746 Y49.6218 
G01 X-37.7600 Y49.7796 
G01 X-37.6221 Y49.9175 
G01 X-37.4643 Y50.0321 
G01 X-37.2906 Y50.1206 
G01 X-37.1051 Y50.1809 
G01 X-36.9125 Y50.2114 
G01 X-36.7175 Y50.2114 
G01 X-36.5249 Y50.1809 
G01 X-36.3394 Y50.1206 
G01 X-36.1657 Y50.0321 
G01 X-36.0079 Y49.9175 
G00 Z2.0000 
G00 X-38.5479 Y49.9175 
G01 Z-0.0250 F254.00 
G01 X-38.4100 Y49.7796 F508.00 
G01 X-38.2954 Y49.6218 
G01 X-38.2069 Y49.4481 
G01 X-38.1466 Y49.2626 
G01 X-38.1161 Y49.0700 
G01 X-38.1161 Y48.8750 
G01 X-38.1466 Y48.6824 
G01 X-38.2069 Y48.4969 
G01 X-38.2954 Y48.3232 
G01 X-38.4100 Y48.1654 
G01 X-38.5479 Y48.0275 
G01 X-38.7057 Y47.9129 
G01 X-38.8794 Y47.8244 
G01 X-39.0649 Y47.7641 
G01 X-39.2575 Y47.7336 
G01 X-39.4525 Y47.7336 
G01 X-39.6451 Y47.7641 
G01 X-39.8306 Y47.8244 
G01 X-40.0043 Y47.9129 
G01 X-40.1621 Y48.0275 
G01 X-40.3000 Y48.1654 
G01 X-40.4146 Y48.3232 
G01 X-40.5031 Y48.4969 
G01 X-40.5634 Y48.6824 
G01 X-40.5939 Y48.8750 
G01 X-40.5939 Y49.0700 
G01 X-40.5634 Y49.2626 
G01 X-40.5031 Y49.4481 
G01 X-40.4146 Y49.6218 
G01 X-40.3000 Y49.7796 
G01 X-40.1621 Y49.9175 
G01 X-40.0043 Y50.0321 
G01 X-39.8306 Y50.1206 
G01 X-39.6451 Y50.1809 
G01 X-39.4525 Y50.2114 
G01 X-39.2575 Y50.2114 
G01 X-39.0649 Y50.1809 
G01 X-38.8794 Y50.1206 
G01 X-38.7057 Y50.0321 
G01 X-38.5479 Y49.9175 
G00 Z2.0000 
G00 X-38.5479 Y50.5675 
G01 Z-0.0250 F254.00 
G01 X-38.7057 Y50.4529 F508.00 
G01 X-38.8794 Y50.3644 
G01 X-39.0649 Y50.3041 
G01 X-39.2575 Y50.2736 
G01 X-39.4525 Y50.2736 
G01 X-39.6451 Y50.3041 
G01 X-39.8306 Y50.3644 
G01 X-40.0043 Y50.4529 
G01 X-40.1621 Y50.5675 
G01 X-40.3000 Y50.7054 
G01 X-40.4146 Y50.8632 
G01 X-40.5031 Y51.0369 
G01 X-40.5634 Y51.2224 
G01 X-40.5939 Y51.4150 
G01 X-40.5939 Y51.6100 
G01 X-40.5634 Y51.8026 
G01 X-40.5031 Y51.9881 
G01 X-40.4146 Y52.1618 
G01 X-40.3000 Y52.3196 
G01 X-40.1621 Y52.4575 
G01 X-40.0043 Y52.5721 
G01 X-39.8306 Y52.6606 
G01 X-39.6451 Y52.7209 
G01 X-39.4525 Y52.7514 
G01 X-39.2575 Y52.7514 
G01 X-39.0649 Y52.7209 
G01 X-38.8794 Y52.6606 
G01 X-38.7057 Y52.5721 
G01 X-38.5479 Y52.4575 
G01 X-38.4100 Y52.3196 
G01 X-38.2954 Y52.1618 
G01 X-38.2069 Y51.9881 
G01 X-38.1466 Y51.8026 
G01 X-38.1161 Y51.6100 
G01 X-38.1161 Y51.4150 
G01 X-38.1466 Y51.2224 
G01 X-38.2069 Y51.0369 
G01 X-38.2954 Y50.8632 
G01 X-38.4100 Y50.7054 
G01 X-38.5479 Y50.5675 
G00 Z2.0000 
