(.../external_usr-lang-prog/pcbgcode/pcb-gcode.ulp)
(Copyright 2005 - 2012 by John Johnson)
(See readme.txt for licensing terms.)
(This file generated from the board:)
(.../KarasolBaxCont/KarasolboxCont.brd)
(Current profile is .../external_usr-lang-prog/pcbgcode/profiles/emc.pp  )
(This file generated 3/7/2017 10:37 PM)
(Settings from pcb-machine.h)
(spindle on time = 3.0000)
(  Tool Size)
(0.1778 )
(spindle speed = 30000.0000)
(tool change at 15.0000 15.0000 19.0000 )
(feed rate xy = F508.00 )
(feed rate z  = F254.00 )
(Z Axis Settings)
(  High     Up        Down     Drill)
(19.5000 	2.0000 	-0.0250 	-1.5000 )
(Settings from pcb-defaults.h)
(isolate min = 0.0500)
(isolate max = 1.0000)
(isolate step = 0.1000)
(Generated top outlines, top drill, bottom outlines, bottom drill, )
(Unit of measure: mm)
(Metric Mode)
G21
(Absolute Coordinates)
G90
S30000
G00 Z19.5000 
G00 X0.0000 Y0.0000 
M03
G04 P3.000000
G00 Z2.0000 
G00 X1.7661 Y2.9634 
G01 Z-0.0250 F254.00 
G01 X1.7661 Y4.6566 F508.00 
G01 X2.9634 Y5.8539 
G01 X4.6566 Y5.8539 
G01 X5.8539 Y4.6566 
G01 X5.8539 Y2.9634 
G01 X4.6566 Y1.7661 
G01 X2.9634 Y1.7661 
G01 X1.7661 Y2.9634 
G00 Z2.0000 
G00 X6.3688 Y7.2691 
G01 Z-0.0250 F254.00 
G01 X6.2978 Y7.3920 F508.00 
G01 X6.2611 Y7.5290 
G01 X6.2611 Y9.2861 
G01 X6.0774 Y9.2861 
G01 X6.0263 Y9.3072 
G01 X5.9872 Y9.3463 
G01 X5.9661 Y9.3974 
G01 X5.9661 Y10.0718 
G01 X4.7688 Y11.2691 
G01 X4.6978 Y11.3920 
G01 X4.6611 Y11.5290 
G01 X4.6611 Y20.8709 
G01 X4.6978 Y21.0080 
G01 X4.7688 Y21.1309 
G01 X4.8691 Y21.2312 
G01 X5.4611 Y21.8232 
G01 X5.4611 Y62.8241 
G01 X5.4411 Y62.8724 
G01 X5.4411 Y63.4821 
G01 X5.4376 Y63.5349 
G01 X5.4411 Y63.5534 
G01 X5.4411 Y64.1276 
G01 X5.4622 Y64.1787 
G01 X5.5013 Y64.2177 
G01 X5.5524 Y64.2389 
G01 X6.4076 Y64.2389 
G01 X6.4587 Y64.2177 
G01 X6.4977 Y64.1787 
G01 X6.5142 Y64.1389 
G01 X10.5561 Y64.1389 
G01 X10.5561 Y64.5526 
G01 X10.5772 Y64.6037 
G01 X10.6163 Y64.6428 
G01 X10.6674 Y64.6639 
G01 X12.1926 Y64.6639 
G01 X12.2437 Y64.6428 
G01 X12.2828 Y64.6037 
G01 X12.3039 Y64.5526 
G01 X12.3039 Y64.1389 
G01 X14.2611 Y64.1389 
G01 X14.2611 Y65.1276 
G01 X14.2822 Y65.1787 
G01 X14.3213 Y65.2177 
G01 X14.3724 Y65.2389 
G01 X16.2076 Y65.2389 
G01 X16.2587 Y65.2177 
G01 X16.2978 Y65.1787 
G01 X16.3189 Y65.1276 
G01 X16.3189 Y61.8724 
G01 X16.2978 Y61.8213 
G01 X16.2587 Y61.7822 
G01 X16.2076 Y61.7611 
G01 X14.3724 Y61.7611 
G01 X14.3213 Y61.7822 
G01 X14.2822 Y61.8213 
G01 X14.2611 Y61.8724 
G01 X14.2611 Y63.0611 
G01 X11.6017 Y63.0611 
G01 X11.5326 Y63.0606 
G01 X11.5290 Y63.0611 
G01 X11.4622 Y63.0790 
G01 X11.3992 Y63.0955 
G01 X11.3694 Y63.0875 
G01 X11.3323 Y63.0728 
G01 X11.3012 Y63.0692 
G01 X11.2709 Y63.0611 
G01 X11.2310 Y63.0611 
G01 X11.1913 Y63.0565 
G01 X11.1603 Y63.0611 
G01 X6.5389 Y63.0611 
G01 X6.5389 Y21.5291 
G01 X6.5022 Y21.3920 
G01 X6.4312 Y21.2691 
G01 X5.7389 Y20.5768 
G01 X5.7389 Y11.8232 
G01 X6.5282 Y11.0339 
G01 X7.4026 Y11.0339 
G01 X7.4537 Y11.0128 
G01 X7.4928 Y10.9737 
G01 X7.5139 Y10.9226 
G01 X7.5139 Y9.3974 
G01 X7.4928 Y9.3463 
G01 X7.4537 Y9.3072 
G01 X7.4026 Y9.2861 
G01 X7.3389 Y9.2861 
G01 X7.3389 Y7.8232 
G01 X11.7794 Y3.3827 
G01 X11.8877 Y3.4911 
G01 X12.0465 Y3.6064 
G01 X12.2214 Y3.6955 
G01 X12.4080 Y3.7562 
G01 X12.6019 Y3.7869 
G01 X12.7981 Y3.7869 
G01 X12.9920 Y3.7562 
G01 X13.1786 Y3.6955 
G01 X13.3535 Y3.6064 
G01 X13.5123 Y3.4911 
G01 X13.6511 Y3.3523 
G01 X13.7096 Y3.2717 
G01 X17.6691 Y7.2312 
G01 X17.7920 Y7.3022 
G01 X17.9291 Y7.3389 
G01 X23.0611 Y7.3389 
G01 X23.0611 Y9.2861 
G01 X22.5874 Y9.2861 
G01 X22.5363 Y9.3072 
G01 X22.4972 Y9.3463 
G01 X22.4761 Y9.3974 
G01 X22.4761 Y10.9226 
G01 X22.4972 Y10.9737 
G01 X22.5363 Y11.0128 
G01 X22.5874 Y11.0339 
G01 X23.9126 Y11.0339 
G01 X23.9637 Y11.0128 
G01 X24.0027 Y10.9737 
G01 X24.0239 Y10.9226 
G01 X24.0239 Y10.3382 
G01 X24.0312 Y10.3309 
G01 X24.0539 Y10.2916 
G01 X24.0802 Y10.2546 
G01 X24.0892 Y10.2304 
G01 X24.1022 Y10.2080 
G01 X24.1139 Y10.1642 
G01 X24.1298 Y10.1217 
G01 X24.1322 Y10.0959 
G01 X24.1389 Y10.0709 
G01 X24.1389 Y10.0256 
G01 X24.1432 Y9.9804 
G01 X24.1389 Y9.9549 
G01 X24.1389 Y7.4232 
G01 X24.2312 Y7.3309 
G01 X28.2383 Y3.3239 
G01 X28.2589 Y3.3523 
G01 X28.3977 Y3.4911 
G01 X28.5565 Y3.6064 
G01 X28.7314 Y3.6955 
G01 X28.9180 Y3.7562 
G01 X29.1119 Y3.7869 
G01 X29.3081 Y3.7869 
G01 X29.5020 Y3.7562 
G01 X29.6886 Y3.6955 
G01 X29.8635 Y3.6064 
G01 X30.0223 Y3.4911 
G01 X30.1611 Y3.3523 
G01 X30.2764 Y3.1935 
G01 X30.3655 Y3.0186 
G01 X30.4262 Y2.8320 
G01 X30.4569 Y2.6381 
G01 X30.4569 Y2.4419 
G01 X30.4262 Y2.2480 
G01 X30.3655 Y2.0614 
G01 X30.2764 Y1.8865 
G01 X30.1611 Y1.7277 
G01 X30.0223 Y1.5889 
G01 X29.8635 Y1.4736 
G01 X29.6886 Y1.3845 
G01 X29.5020 Y1.3238 
G01 X29.3081 Y1.2931 
G01 X29.1119 Y1.2931 
G01 X28.9180 Y1.3238 
G01 X28.7314 Y1.3845 
G01 X28.5565 Y1.4736 
G01 X28.3977 Y1.5889 
G01 X28.2589 Y1.7277 
G01 X28.1436 Y1.8865 
G01 X28.1152 Y1.9422 
G01 X28.0691 Y1.9688 
G01 X27.9688 Y2.0691 
G01 X23.7544 Y6.2835 
G01 X23.6709 Y6.2611 
G01 X18.2232 Y6.2611 
G01 X14.0312 Y2.0691 
G01 X13.9309 Y1.9688 
G01 X13.8080 Y1.8978 
G01 X13.7666 Y1.8867 
G01 X13.6511 Y1.7277 
G01 X13.5123 Y1.5889 
G01 X13.3535 Y1.4736 
G01 X13.1786 Y1.3845 
G01 X12.9920 Y1.3238 
G01 X12.7981 Y1.2931 
G01 X12.6019 Y1.2931 
G01 X12.4080 Y1.3238 
G01 X12.2214 Y1.3845 
G01 X12.0465 Y1.4736 
G01 X11.8877 Y1.5889 
G01 X11.7489 Y1.7277 
G01 X11.6336 Y1.8865 
G01 X11.5445 Y2.0614 
G01 X11.5290 Y2.1089 
G01 X6.3688 Y7.2691 
G00 Z2.0000 
G00 X10.2872 Y9.3463 
G01 Z-0.0250 F254.00 
G01 X10.2661 Y9.3974 F508.00 
G01 X10.2661 Y10.9226 
G01 X10.2872 Y10.9737 
G01 X10.3263 Y11.0128 
G01 X10.3774 Y11.0339 
G01 X11.7026 Y11.0339 
G01 X11.7537 Y11.0128 
G01 X11.7927 Y10.9737 
G01 X11.8072 Y10.9389 
G01 X16.3793 Y10.9389 
G01 X16.4294 Y10.9428 
G01 X16.4500 Y10.9389 
G01 X16.4709 Y10.9389 
G01 X16.5195 Y10.9259 
G01 X16.5689 Y10.9166 
G01 X16.5878 Y10.9076 
G01 X16.6080 Y10.9022 
G01 X16.6515 Y10.8770 
G01 X16.6968 Y10.8553 
G01 X16.7127 Y10.8417 
G01 X16.7309 Y10.8312 
G01 X16.7632 Y10.7989 
G01 X17.4076 Y10.7989 
G01 X17.4587 Y10.7777 
G01 X17.4977 Y10.7387 
G01 X17.5189 Y10.6876 
G01 X17.5189 Y9.6324 
G01 X17.4977 Y9.5813 
G01 X17.4587 Y9.5422 
G01 X17.4076 Y9.5211 
G01 X15.9524 Y9.5211 
G01 X15.9013 Y9.5422 
G01 X15.8622 Y9.5813 
G01 X15.8411 Y9.6324 
G01 X15.8411 Y9.8611 
G01 X13.3389 Y9.8611 
G01 X13.3389 Y6.1539 
G01 X13.3535 Y6.1464 
G01 X13.5123 Y6.0311 
G01 X13.6511 Y5.8923 
G01 X13.7664 Y5.7335 
G01 X13.8555 Y5.5586 
G01 X13.9162 Y5.3720 
G01 X13.9469 Y5.1781 
G01 X13.9469 Y4.9819 
G01 X13.9162 Y4.7880 
G01 X13.8555 Y4.6014 
G01 X13.7664 Y4.4265 
G01 X13.6511 Y4.2677 
G01 X13.5123 Y4.1289 
G01 X13.3535 Y4.0136 
G01 X13.1786 Y3.9245 
G01 X12.9920 Y3.8638 
G01 X12.7981 Y3.8331 
G01 X12.6019 Y3.8331 
G01 X12.4080 Y3.8638 
G01 X12.2214 Y3.9245 
G01 X12.0465 Y4.0136 
G01 X11.8877 Y4.1289 
G01 X11.7489 Y4.2677 
G01 X11.6336 Y4.4265 
G01 X11.5445 Y4.6014 
G01 X11.4838 Y4.7880 
G01 X11.4531 Y4.9819 
G01 X11.4531 Y5.1781 
G01 X11.4838 Y5.3720 
G01 X11.5445 Y5.5586 
G01 X11.6336 Y5.7335 
G01 X11.7489 Y5.8923 
G01 X11.8877 Y6.0311 
G01 X12.0465 Y6.1464 
G01 X12.2214 Y6.2355 
G01 X12.2611 Y6.2485 
G01 X12.2611 Y9.8611 
G01 X11.8139 Y9.8611 
G01 X11.8139 Y9.3974 
G01 X11.7927 Y9.3463 
G01 X11.7537 Y9.3072 
G01 X11.7026 Y9.2861 
G01 X10.3774 Y9.2861 
G01 X10.3263 Y9.3072 
G01 X10.2872 Y9.3463 
G00 Z2.0000 
G00 X9.5309 Y11.5688 
G01 Z-0.0250 F254.00 
G01 X9.4080 Y11.4978 F508.00 
G01 X9.2709 Y11.4611 
G01 X8.3291 Y11.4611 
G01 X8.1920 Y11.4978 
G01 X8.0691 Y11.5688 
G01 X6.4691 Y13.1688 
G01 X6.3688 Y13.2691 
G01 X6.2978 Y13.3920 
G01 X6.2611 Y13.5290 
G01 X6.2611 Y20.0709 
G01 X6.2978 Y20.2080 
G01 X6.3688 Y20.3309 
G01 X7.0611 Y21.0232 
G01 X7.0611 Y54.0709 
G01 X7.0978 Y54.2080 
G01 X7.1688 Y54.3309 
G01 X13.1688 Y60.3309 
G01 X13.2691 Y60.4312 
G01 X13.3920 Y60.5022 
G01 X13.5290 Y60.5389 
G01 X17.4611 Y60.5389 
G01 X17.4611 Y65.8611 
G01 X14.2232 Y65.8611 
G01 X13.9309 Y65.5688 
G01 X13.8080 Y65.4978 
G01 X13.6709 Y65.4611 
G01 X4.5389 Y65.4611 
G01 X4.5389 Y64.2389 
G01 X4.6076 Y64.2389 
G01 X4.6587 Y64.2177 
G01 X4.6978 Y64.1787 
G01 X4.7189 Y64.1276 
G01 X4.7189 Y63.5045 
G01 X4.7200 Y63.4380 
G01 X4.7189 Y63.4336 
G01 X4.7189 Y62.8724 
G01 X4.6978 Y62.8213 
G01 X4.6587 Y62.7822 
G01 X4.6076 Y62.7611 
G01 X3.7524 Y62.7611 
G01 X3.7013 Y62.7822 
G01 X3.6622 Y62.8213 
G01 X3.6411 Y62.8724 
G01 X3.6411 Y63.1968 
G01 X3.6221 Y63.2158 
G01 X3.5743 Y63.2620 
G01 X3.5720 Y63.2659 
G01 X3.5688 Y63.2691 
G01 X3.5355 Y63.3267 
G01 X3.5013 Y63.3837 
G01 X3.5001 Y63.3881 
G01 X3.4978 Y63.3920 
G01 X3.4806 Y63.4562 
G01 X3.4623 Y63.5202 
G01 X3.4623 Y63.5247 
G01 X3.4611 Y63.5290 
G01 X3.4611 Y63.5956 
G01 X3.4600 Y63.6620 
G01 X3.4611 Y63.6664 
G01 X3.4611 Y69.9223 
G01 X3.3314 Y69.9645 
G01 X3.1565 Y70.0536 
G01 X2.9977 Y70.1689 
G01 X2.8589 Y70.3077 
G01 X2.7436 Y70.4665 
G01 X2.6545 Y70.6414 
G01 X2.5938 Y70.8280 
G01 X2.5631 Y71.0219 
G01 X2.5631 Y71.2181 
G01 X2.5938 Y71.4120 
G01 X2.6545 Y71.5986 
G01 X2.7436 Y71.7735 
G01 X2.8589 Y71.9323 
G01 X2.9977 Y72.0711 
G01 X3.1565 Y72.1864 
G01 X3.3314 Y72.2755 
G01 X3.5180 Y72.3362 
G01 X3.7119 Y72.3669 
G01 X3.9081 Y72.3669 
G01 X4.1020 Y72.3362 
G01 X4.2886 Y72.2755 
G01 X4.4635 Y72.1864 
G01 X4.6223 Y72.0711 
G01 X4.7611 Y71.9323 
G01 X4.8764 Y71.7735 
G01 X4.9655 Y71.5986 
G01 X5.0262 Y71.4120 
G01 X5.0569 Y71.2181 
G01 X5.0569 Y71.0219 
G01 X5.0262 Y70.8280 
G01 X4.9655 Y70.6414 
G01 X4.8764 Y70.4665 
G01 X4.7611 Y70.3077 
G01 X4.6223 Y70.1689 
G01 X4.5389 Y70.1083 
G01 X4.5389 Y66.5389 
G01 X13.3768 Y66.5389 
G01 X13.5688 Y66.7309 
G01 X13.6691 Y66.8312 
G01 X13.7920 Y66.9022 
G01 X13.9291 Y66.9389 
G01 X17.4793 Y66.9389 
G01 X17.4978 Y67.0080 
G01 X17.5688 Y67.1309 
G01 X22.7688 Y72.3309 
G01 X22.8691 Y72.4312 
G01 X22.9920 Y72.5022 
G01 X23.1290 Y72.5389 
G01 X23.6482 Y72.5389 
G01 X23.6482 Y72.8875 
G01 X23.6693 Y72.9386 
G01 X23.7084 Y72.9776 
G01 X23.7595 Y72.9988 
G01 X25.8213 Y72.9988 
G01 X25.8724 Y72.9776 
G01 X25.9114 Y72.9386 
G01 X25.9326 Y72.8875 
G01 X25.9326 Y71.3337 
G01 X25.9114 Y71.2826 
G01 X25.8724 Y71.2435 
G01 X25.8213 Y71.2224 
G01 X23.7595 Y71.2224 
G01 X23.7084 Y71.2435 
G01 X23.6693 Y71.2826 
G01 X23.6482 Y71.3337 
G01 X23.6482 Y71.4611 
G01 X23.4232 Y71.4611 
G01 X18.5389 Y66.5768 
G01 X18.5389 Y60.4289 
G01 X18.5776 Y60.4289 
G01 X18.6287 Y60.4078 
G01 X18.6678 Y60.3687 
G01 X18.6889 Y60.3176 
G01 X18.6889 Y59.7410 
G01 X18.6926 Y59.7215 
G01 X18.6892 Y59.6749 
G01 X18.6900 Y59.6281 
G01 X18.6889 Y59.6237 
G01 X18.6889 Y59.0624 
G01 X18.6678 Y59.0113 
G01 X18.6287 Y58.9722 
G01 X18.6012 Y58.9609 
G01 X19.4232 Y58.1389 
G01 X30.1768 Y58.1389 
G01 X31.8379 Y59.8000 
G01 X30.1768 Y61.4611 
G01 X29.9489 Y61.4611 
G01 X29.9489 Y61.3824 
G01 X29.9277 Y61.3313 
G01 X29.8887 Y61.2922 
G01 X29.8376 Y61.2711 
G01 X28.5824 Y61.2711 
G01 X28.5313 Y61.2922 
G01 X28.4922 Y61.3313 
G01 X28.4711 Y61.3824 
G01 X28.4711 Y62.6376 
G01 X28.4922 Y62.6887 
G01 X28.5313 Y62.7278 
G01 X28.5824 Y62.7489 
G01 X29.8376 Y62.7489 
G01 X29.8887 Y62.7278 
G01 X29.9277 Y62.6887 
G01 X29.9489 Y62.6376 
G01 X29.9489 Y62.5389 
G01 X30.4709 Y62.5389 
G01 X30.6080 Y62.5022 
G01 X30.7309 Y62.4312 
G01 X32.9309 Y60.2312 
G01 X33.0312 Y60.1309 
G01 X38.3309 Y54.8312 
G01 X38.4312 Y54.7309 
G01 X38.5022 Y54.6080 
G01 X38.5389 Y54.4709 
G01 X38.5389 Y50.0194 
G01 X38.6819 Y49.9466 
G01 X38.8269 Y49.8412 
G01 X38.9537 Y49.7144 
G01 X39.0591 Y49.5694 
G01 X39.1405 Y49.4097 
G01 X39.1959 Y49.2392 
G01 X39.2239 Y49.0621 
G01 X39.2239 Y48.8829 
G01 X39.1959 Y48.7058 
G01 X39.1405 Y48.5353 
G01 X39.0591 Y48.3756 
G01 X38.9537 Y48.2306 
G01 X38.8269 Y48.1038 
G01 X38.6819 Y47.9984 
G01 X38.5222 Y47.9170 
G01 X38.3517 Y47.8616 
G01 X38.1746 Y47.8336 
G01 X37.9954 Y47.8336 
G01 X37.8183 Y47.8616 
G01 X37.6478 Y47.9170 
G01 X37.4881 Y47.9984 
G01 X37.3431 Y48.1038 
G01 X37.2163 Y48.2306 
G01 X37.1109 Y48.3756 
G01 X37.0295 Y48.5353 
G01 X36.9741 Y48.7058 
G01 X36.9461 Y48.8829 
G01 X36.9461 Y49.0621 
G01 X36.9741 Y49.2392 
G01 X37.0295 Y49.4097 
G01 X37.1109 Y49.5694 
G01 X37.2163 Y49.7144 
G01 X37.3431 Y49.8412 
G01 X37.4611 Y49.9270 
G01 X37.4611 Y54.1768 
G01 X32.6000 Y59.0379 
G01 X30.7309 Y57.1688 
G01 X30.6080 Y57.0978 
G01 X30.4709 Y57.0611 
G01 X19.1290 Y57.0611 
G01 X18.9920 Y57.0978 
G01 X18.8691 Y57.1688 
G01 X18.7688 Y57.2691 
G01 X17.5688 Y58.4691 
G01 X17.4978 Y58.5920 
G01 X17.4611 Y58.7291 
G01 X17.4611 Y59.4611 
G01 X13.8232 Y59.4611 
G01 X8.1389 Y53.7768 
G01 X8.1389 Y20.7291 
G01 X8.1022 Y20.5920 
G01 X8.0312 Y20.4691 
G01 X7.9309 Y20.3688 
G01 X7.3389 Y19.7768 
G01 X7.3389 Y13.8232 
G01 X8.6232 Y12.5389 
G01 X8.9768 Y12.5389 
G01 X9.1688 Y12.7309 
G01 X9.2691 Y12.8312 
G01 X9.3920 Y12.9022 
G01 X9.5290 Y12.9389 
G01 X17.6709 Y12.9389 
G01 X17.8080 Y12.9022 
G01 X17.9309 Y12.8312 
G01 X18.0312 Y12.7309 
G01 X19.0132 Y11.7489 
G01 X19.6076 Y11.7489 
G01 X19.6587 Y11.7278 
G01 X19.6977 Y11.6887 
G01 X19.7189 Y11.6376 
G01 X19.7189 Y10.5824 
G01 X19.6977 Y10.5313 
G01 X19.6587 Y10.4922 
G01 X19.6076 Y10.4711 
G01 X18.1524 Y10.4711 
G01 X18.1013 Y10.4922 
G01 X18.0622 Y10.5313 
G01 X18.0411 Y10.5824 
G01 X18.0411 Y11.1968 
G01 X17.3768 Y11.8611 
G01 X9.8232 Y11.8611 
G01 X9.6312 Y11.6691 
G01 X9.5309 Y11.5688 
G00 Z2.0000 
G00 X9.2583 Y13.4611 
G01 Z-0.0250 F254.00 
G01 X9.2460 Y13.4584 F508.00 
G01 X9.1876 Y13.4611 
G01 X9.1290 Y13.4611 
G01 X9.1169 Y13.4644 
G01 X9.1043 Y13.4649 
G01 X9.0485 Y13.4827 
G01 X8.9920 Y13.4978 
G01 X8.9811 Y13.5041 
G01 X8.9691 Y13.5079 
G01 X8.9198 Y13.5395 
G01 X8.8691 Y13.5688 
G01 X8.8602 Y13.5777 
G01 X8.8496 Y13.5845 
G01 X8.8102 Y13.6277 
G01 X8.7688 Y13.6691 
G01 X8.7625 Y13.6800 
G01 X8.6521 Y13.8011 
G01 X8.2624 Y13.8011 
G01 X8.2113 Y13.8222 
G01 X8.1722 Y13.8613 
G01 X8.1511 Y13.9124 
G01 X8.1511 Y14.7676 
G01 X8.1722 Y14.8187 
G01 X8.2113 Y14.8577 
G01 X8.2624 Y14.8789 
G01 X8.8317 Y14.8789 
G01 X8.8440 Y14.8816 
G01 X8.9024 Y14.8789 
G01 X9.5176 Y14.8789 
G01 X9.5687 Y14.8577 
G01 X9.6077 Y14.8187 
G01 X9.6289 Y14.7676 
G01 X9.6289 Y14.5389 
G01 X19.2709 Y14.5389 
G01 X19.4080 Y14.5022 
G01 X19.5309 Y14.4312 
G01 X21.1309 Y12.8312 
G01 X21.2312 Y12.7309 
G01 X21.3022 Y12.6080 
G01 X21.3389 Y12.4709 
G01 X21.3389 Y9.9291 
G01 X21.3022 Y9.7920 
G01 X21.2312 Y9.6691 
G01 X20.4312 Y8.8691 
G01 X20.3309 Y8.7688 
G01 X20.2080 Y8.6978 
G01 X20.0709 Y8.6611 
G01 X19.7101 Y8.6611 
G01 X19.6977 Y8.6313 
G01 X19.6587 Y8.5922 
G01 X19.6076 Y8.5711 
G01 X18.1524 Y8.5711 
G01 X18.1013 Y8.5922 
G01 X18.0622 Y8.6313 
G01 X18.0411 Y8.6824 
G01 X18.0411 Y9.7376 
G01 X18.0622 Y9.7887 
G01 X18.1013 Y9.8277 
G01 X18.1524 Y9.8489 
G01 X19.6076 Y9.8489 
G01 X19.6587 Y9.8277 
G01 X19.6977 Y9.7887 
G01 X19.7184 Y9.7389 
G01 X19.7768 Y9.7389 
G01 X20.2611 Y10.2232 
G01 X20.2611 Y12.1768 
G01 X18.9768 Y13.4611 
G01 X9.2583 Y13.4611 
G00 Z2.0000 
G00 X9.5176 Y15.6011 
G01 Z-0.0250 F254.00 
G01 X8.9371 Y15.6011 F508.00 
G01 X8.9136 Y15.5970 
G01 X8.8664 Y15.6011 
G01 X8.2624 Y15.6011 
G01 X8.2113 Y15.6222 
G01 X8.1722 Y15.6613 
G01 X8.1511 Y15.7124 
G01 X8.1511 Y16.5676 
G01 X8.1722 Y16.6187 
G01 X8.2113 Y16.6578 
G01 X8.2624 Y16.6789 
G01 X8.6611 Y16.6789 
G01 X8.6611 Y20.8709 
G01 X8.6978 Y21.0080 
G01 X8.7688 Y21.1309 
G01 X10.3071 Y22.6692 
G01 X10.2911 Y22.7704 
G01 X10.2911 Y22.9496 
G01 X10.3191 Y23.1267 
G01 X10.3745 Y23.2972 
G01 X10.4559 Y23.4569 
G01 X10.5613 Y23.6019 
G01 X10.6881 Y23.7287 
G01 X10.8331 Y23.8341 
G01 X10.9928 Y23.9155 
G01 X11.1633 Y23.9709 
G01 X11.3404 Y23.9989 
G01 X11.5196 Y23.9989 
G01 X11.6967 Y23.9709 
G01 X11.8672 Y23.9155 
G01 X12.0269 Y23.8341 
G01 X12.1719 Y23.7287 
G01 X12.2987 Y23.6019 
G01 X12.4041 Y23.4569 
G01 X12.4855 Y23.2972 
G01 X12.5409 Y23.1267 
G01 X12.5689 Y22.9496 
G01 X12.5689 Y22.7704 
G01 X12.5409 Y22.5933 
G01 X12.4855 Y22.4228 
G01 X12.4041 Y22.2631 
G01 X12.2987 Y22.1181 
G01 X12.1719 Y21.9913 
G01 X12.0269 Y21.8859 
G01 X11.8672 Y21.8045 
G01 X11.6967 Y21.7491 
G01 X11.5196 Y21.7211 
G01 X11.3404 Y21.7211 
G01 X11.1633 Y21.7491 
G01 X10.9928 Y21.8045 
G01 X10.9755 Y21.8134 
G01 X9.7389 Y20.5768 
G01 X9.7389 Y16.4471 
G01 X9.7430 Y16.4236 
G01 X9.7389 Y16.3764 
G01 X9.7389 Y16.3290 
G01 X9.7327 Y16.3060 
G01 X9.7306 Y16.2822 
G01 X9.7144 Y16.2377 
G01 X9.7022 Y16.1920 
G01 X9.6902 Y16.1713 
G01 X9.6821 Y16.1489 
G01 X9.6549 Y16.1101 
G01 X9.6312 Y16.0691 
G01 X9.6289 Y15.7124 
G01 X9.6077 Y15.6613 
G01 X9.5687 Y15.6222 
G01 X9.5176 Y15.6011 
G00 Z2.0000 
G00 X10.5613 Y24.6581 
G01 Z-0.0250 F254.00 
G01 X10.4559 Y24.8031 F508.00 
G01 X10.3745 Y24.9628 
G01 X10.3191 Y25.1333 
G01 X10.2911 Y25.3104 
G01 X10.2911 Y25.4896 
G01 X10.3191 Y25.6667 
G01 X10.3745 Y25.8372 
G01 X10.4559 Y25.9969 
G01 X10.5613 Y26.1419 
G01 X10.6881 Y26.2687 
G01 X10.8331 Y26.3741 
G01 X10.9928 Y26.4555 
G01 X11.1633 Y26.5109 
G01 X11.3404 Y26.5389 
G01 X11.5196 Y26.5389 
G01 X11.6967 Y26.5109 
G01 X11.8672 Y26.4555 
G01 X12.0269 Y26.3741 
G01 X12.1719 Y26.2687 
G01 X12.2987 Y26.1419 
G01 X12.4041 Y25.9969 
G01 X12.4855 Y25.8372 
G01 X12.5409 Y25.6667 
G01 X12.5689 Y25.4896 
G01 X12.5689 Y25.3104 
G01 X12.5409 Y25.1333 
G01 X12.4855 Y24.9628 
G01 X12.4041 Y24.8031 
G01 X12.2987 Y24.6581 
G01 X12.1719 Y24.5313 
G01 X12.0269 Y24.4259 
G01 X11.8672 Y24.3445 
G01 X11.6967 Y24.2891 
G01 X11.5196 Y24.2611 
G01 X11.3404 Y24.2611 
G01 X11.1633 Y24.2891 
G01 X10.9928 Y24.3445 
G01 X10.8331 Y24.4259 
G01 X10.6881 Y24.5313 
G01 X10.5613 Y24.6581 
G00 Z2.0000 
G00 X10.5613 Y27.1981 
G01 Z-0.0250 F254.00 
G01 X10.4559 Y27.3431 F508.00 
G01 X10.3745 Y27.5028 
G01 X10.3191 Y27.6733 
G01 X10.2911 Y27.8504 
G01 X10.2911 Y28.0296 
G01 X10.3191 Y28.2067 
G01 X10.3745 Y28.3772 
G01 X10.4559 Y28.5369 
G01 X10.5613 Y28.6819 
G01 X10.6881 Y28.8087 
G01 X10.8331 Y28.9141 
G01 X10.9928 Y28.9955 
G01 X11.1633 Y29.0509 
G01 X11.3404 Y29.0789 
G01 X11.5196 Y29.0789 
G01 X11.6967 Y29.0509 
G01 X11.8672 Y28.9955 
G01 X12.0269 Y28.9141 
G01 X12.1719 Y28.8087 
G01 X12.2987 Y28.6819 
G01 X12.4041 Y28.5369 
G01 X12.4855 Y28.3772 
G01 X12.5409 Y28.2067 
G01 X12.5689 Y28.0296 
G01 X12.5689 Y27.8504 
G01 X12.5409 Y27.6733 
G01 X12.4855 Y27.5028 
G01 X12.4041 Y27.3431 
G01 X12.2987 Y27.1981 
G01 X12.1719 Y27.0713 
G01 X12.0269 Y26.9659 
G01 X11.8672 Y26.8845 
G01 X11.6967 Y26.8291 
G01 X11.5196 Y26.8011 
G01 X11.3404 Y26.8011 
G01 X11.1633 Y26.8291 
G01 X10.9928 Y26.8845 
G01 X10.8331 Y26.9659 
G01 X10.6881 Y27.0713 
G01 X10.5613 Y27.1981 
G00 Z2.0000 
G00 X10.5613 Y29.7381 
G01 Z-0.0250 F254.00 
G01 X10.4559 Y29.8831 F508.00 
G01 X10.3745 Y30.0428 
G01 X10.3191 Y30.2133 
G01 X10.2911 Y30.3904 
G01 X10.2911 Y30.5696 
G01 X10.3191 Y30.7467 
G01 X10.3745 Y30.9172 
G01 X10.4559 Y31.0769 
G01 X10.5613 Y31.2219 
G01 X10.6881 Y31.3487 
G01 X10.8331 Y31.4541 
G01 X10.9928 Y31.5355 
G01 X11.1633 Y31.5909 
G01 X11.3404 Y31.6189 
G01 X11.5196 Y31.6189 
G01 X11.6967 Y31.5909 
G01 X11.8672 Y31.5355 
G01 X12.0269 Y31.4541 
G01 X12.1719 Y31.3487 
G01 X12.2987 Y31.2219 
G01 X12.4041 Y31.0769 
G01 X12.4855 Y30.9172 
G01 X12.5409 Y30.7467 
G01 X12.5689 Y30.5696 
G01 X12.5689 Y30.3904 
G01 X12.5409 Y30.2133 
G01 X12.4855 Y30.0428 
G01 X12.4041 Y29.8831 
G01 X12.2987 Y29.7381 
G01 X12.1719 Y29.6113 
G01 X12.0269 Y29.5059 
G01 X11.8672 Y29.4245 
G01 X11.6967 Y29.3691 
G01 X11.5196 Y29.3411 
G01 X11.3404 Y29.3411 
G01 X11.1633 Y29.3691 
G01 X10.9928 Y29.4245 
G01 X10.8331 Y29.5059 
G01 X10.6881 Y29.6113 
G01 X10.5613 Y29.7381 
G00 Z2.0000 
G00 X10.5613 Y32.2781 
G01 Z-0.0250 F254.00 
G01 X10.4559 Y32.4231 F508.00 
G01 X10.3745 Y32.5828 
G01 X10.3191 Y32.7533 
G01 X10.2911 Y32.9304 
G01 X10.2911 Y33.1096 
G01 X10.3191 Y33.2867 
G01 X10.3745 Y33.4572 
G01 X10.4559 Y33.6169 
G01 X10.5613 Y33.7619 
G01 X10.6881 Y33.8887 
G01 X10.8331 Y33.9941 
G01 X10.9928 Y34.0755 
G01 X11.1633 Y34.1309 
G01 X11.3404 Y34.1589 
G01 X11.5196 Y34.1589 
G01 X11.6967 Y34.1309 
G01 X11.8672 Y34.0755 
G01 X12.0269 Y33.9941 
G01 X12.1719 Y33.8887 
G01 X12.2987 Y33.7619 
G01 X12.4041 Y33.6169 
G01 X12.4855 Y33.4572 
G01 X12.5409 Y33.2867 
G01 X12.5689 Y33.1096 
G01 X12.5689 Y32.9304 
G01 X12.5409 Y32.7533 
G01 X12.4855 Y32.5828 
G01 X12.4041 Y32.4231 
G01 X12.2987 Y32.2781 
G01 X12.1719 Y32.1513 
G01 X12.0269 Y32.0459 
G01 X11.8672 Y31.9645 
G01 X11.6967 Y31.9091 
G01 X11.5196 Y31.8811 
G01 X11.3404 Y31.8811 
G01 X11.1633 Y31.9091 
G01 X10.9928 Y31.9645 
G01 X10.8331 Y32.0459 
G01 X10.6881 Y32.1513 
G01 X10.5613 Y32.2781 
G00 Z2.0000 
G00 X10.5613 Y34.8181 
G01 Z-0.0250 F254.00 
G01 X10.4559 Y34.9631 F508.00 
G01 X10.3745 Y35.1228 
G01 X10.3191 Y35.2933 
G01 X10.2911 Y35.4704 
G01 X10.2911 Y35.6496 
G01 X10.3191 Y35.8267 
G01 X10.3745 Y35.9972 
G01 X10.4559 Y36.1569 
G01 X10.5613 Y36.3019 
G01 X10.6881 Y36.4287 
G01 X10.8331 Y36.5341 
G01 X10.9928 Y36.6155 
G01 X11.1633 Y36.6709 
G01 X11.3404 Y36.6989 
G01 X11.5196 Y36.6989 
G01 X11.6967 Y36.6709 
G01 X11.8672 Y36.6155 
G01 X12.0269 Y36.5341 
G01 X12.1719 Y36.4287 
G01 X12.2987 Y36.3019 
G01 X12.4041 Y36.1569 
G01 X12.4855 Y35.9972 
G01 X12.5409 Y35.8267 
G01 X12.5689 Y35.6496 
G01 X12.5689 Y35.4704 
G01 X12.5409 Y35.2933 
G01 X12.4855 Y35.1228 
G01 X12.4041 Y34.9631 
G01 X12.2987 Y34.8181 
G01 X12.1719 Y34.6913 
G01 X12.0269 Y34.5859 
G01 X11.8672 Y34.5045 
G01 X11.6967 Y34.4491 
G01 X11.5196 Y34.4211 
G01 X11.3404 Y34.4211 
G01 X11.1633 Y34.4491 
G01 X10.9928 Y34.5045 
G01 X10.8331 Y34.5859 
G01 X10.6881 Y34.6913 
G01 X10.5613 Y34.8181 
G00 Z2.0000 
G00 X10.5613 Y37.3581 
G01 Z-0.0250 F254.00 
G01 X10.4559 Y37.5031 F508.00 
G01 X10.3745 Y37.6628 
G01 X10.3191 Y37.8333 
G01 X10.3141 Y37.8651 
G01 X10.1920 Y37.8978 
G01 X10.0691 Y37.9688 
G01 X8.8691 Y39.1688 
G01 X8.7688 Y39.2691 
G01 X8.6978 Y39.3920 
G01 X8.6611 Y39.5290 
G01 X8.6611 Y53.2709 
G01 X8.6978 Y53.4080 
G01 X8.7688 Y53.5309 
G01 X11.1688 Y55.9309 
G01 X11.2691 Y56.0312 
G01 X11.3920 Y56.1022 
G01 X11.5290 Y56.1389 
G01 X28.0709 Y56.1389 
G01 X28.2080 Y56.1022 
G01 X28.3309 Y56.0312 
G01 X37.2043 Y47.1579 
G01 X37.2163 Y47.1744 
G01 X37.3431 Y47.3012 
G01 X37.4881 Y47.4066 
G01 X37.6478 Y47.4880 
G01 X37.8183 Y47.5434 
G01 X37.9954 Y47.5714 
G01 X38.1746 Y47.5714 
G01 X38.3517 Y47.5434 
G01 X38.5222 Y47.4880 
G01 X38.6819 Y47.4066 
G01 X38.8269 Y47.3012 
G01 X38.9537 Y47.1744 
G01 X39.0591 Y47.0294 
G01 X39.1405 Y46.8697 
G01 X39.1959 Y46.6992 
G01 X39.2239 Y46.5221 
G01 X39.2239 Y46.3429 
G01 X39.1959 Y46.1658 
G01 X39.1405 Y45.9953 
G01 X39.0591 Y45.8356 
G01 X38.9537 Y45.6906 
G01 X38.8269 Y45.5638 
G01 X38.6819 Y45.4584 
G01 X38.5222 Y45.3770 
G01 X38.3517 Y45.3216 
G01 X38.1746 Y45.2936 
G01 X37.9954 Y45.2936 
G01 X37.8183 Y45.3216 
G01 X37.6478 Y45.3770 
G01 X37.4881 Y45.4584 
G01 X37.3431 Y45.5638 
G01 X37.2163 Y45.6906 
G01 X37.1109 Y45.8356 
G01 X37.0930 Y45.8708 
G01 X36.9920 Y45.8978 
G01 X36.8691 Y45.9688 
G01 X36.7688 Y46.0691 
G01 X27.7768 Y55.0611 
G01 X11.8232 Y55.0611 
G01 X9.7389 Y52.9768 
G01 X9.7389 Y39.8232 
G01 X10.6232 Y38.9389 
G01 X10.6583 Y38.9389 
G01 X10.6881 Y38.9687 
G01 X10.8331 Y39.0741 
G01 X10.9928 Y39.1555 
G01 X11.1633 Y39.2109 
G01 X11.3404 Y39.2389 
G01 X11.5196 Y39.2389 
G01 X11.6967 Y39.2109 
G01 X11.8672 Y39.1555 
G01 X12.0269 Y39.0741 
G01 X12.1719 Y38.9687 
G01 X12.2987 Y38.8419 
G01 X12.4041 Y38.6969 
G01 X12.4855 Y38.5372 
G01 X12.5409 Y38.3667 
G01 X12.5689 Y38.1896 
G01 X12.5689 Y38.0104 
G01 X12.5409 Y37.8333 
G01 X12.4855 Y37.6628 
G01 X12.4041 Y37.5031 
G01 X12.2987 Y37.3581 
G01 X12.1719 Y37.2313 
G01 X12.0269 Y37.1259 
G01 X11.8672 Y37.0445 
G01 X11.6967 Y36.9891 
G01 X11.5196 Y36.9611 
G01 X11.3404 Y36.9611 
G01 X11.1633 Y36.9891 
G01 X10.9928 Y37.0445 
G01 X10.8331 Y37.1259 
G01 X10.6881 Y37.2313 
G01 X10.5613 Y37.3581 
G00 Z2.0000 
G00 X10.5613 Y39.8981 
G01 Z-0.0250 F254.00 
G01 X10.4559 Y40.0431 F508.00 
G01 X10.3745 Y40.2028 
G01 X10.3191 Y40.3733 
G01 X10.2911 Y40.5504 
G01 X10.2911 Y40.7296 
G01 X10.3191 Y40.9067 
G01 X10.3745 Y41.0772 
G01 X10.4559 Y41.2369 
G01 X10.5613 Y41.3819 
G01 X10.6881 Y41.5087 
G01 X10.8331 Y41.6141 
G01 X10.9928 Y41.6955 
G01 X11.1633 Y41.7509 
G01 X11.3404 Y41.7789 
G01 X11.5196 Y41.7789 
G01 X11.6967 Y41.7509 
G01 X11.8672 Y41.6955 
G01 X12.0269 Y41.6141 
G01 X12.1719 Y41.5087 
G01 X12.2987 Y41.3819 
G01 X12.4041 Y41.2369 
G01 X12.4855 Y41.0772 
G01 X12.5409 Y40.9067 
G01 X12.5689 Y40.7296 
G01 X12.5689 Y40.5504 
G01 X12.5409 Y40.3733 
G01 X12.4855 Y40.2028 
G01 X12.4041 Y40.0431 
G01 X12.2987 Y39.8981 
G01 X12.1719 Y39.7713 
G01 X12.0269 Y39.6659 
G01 X11.8672 Y39.5845 
G01 X11.6967 Y39.5291 
G01 X11.5196 Y39.5011 
G01 X11.3404 Y39.5011 
G01 X11.1633 Y39.5291 
G01 X10.9928 Y39.5845 
G01 X10.8331 Y39.6659 
G01 X10.6881 Y39.7713 
G01 X10.5613 Y39.8981 
G00 Z2.0000 
G00 X10.5613 Y42.4381 
G01 Z-0.0250 F254.00 
G01 X10.4559 Y42.5831 F508.00 
G01 X10.3745 Y42.7428 
G01 X10.3191 Y42.9133 
G01 X10.2911 Y43.0904 
G01 X10.2911 Y43.2696 
G01 X10.3191 Y43.4467 
G01 X10.3745 Y43.6172 
G01 X10.4559 Y43.7769 
G01 X10.5613 Y43.9219 
G01 X10.6881 Y44.0487 
G01 X10.8331 Y44.1541 
G01 X10.9928 Y44.2355 
G01 X11.1633 Y44.2909 
G01 X11.3404 Y44.3189 
G01 X11.5196 Y44.3189 
G01 X11.6967 Y44.2909 
G01 X11.8672 Y44.2355 
G01 X12.0269 Y44.1541 
G01 X12.1719 Y44.0487 
G01 X12.2987 Y43.9219 
G01 X12.4041 Y43.7769 
G01 X12.4855 Y43.6172 
G01 X12.5409 Y43.4467 
G01 X12.5689 Y43.2696 
G01 X12.5689 Y43.0904 
G01 X12.5409 Y42.9133 
G01 X12.4855 Y42.7428 
G01 X12.4041 Y42.5831 
G01 X12.2987 Y42.4381 
G01 X12.1719 Y42.3113 
G01 X12.0269 Y42.2059 
G01 X11.8672 Y42.1245 
G01 X11.6967 Y42.0691 
G01 X11.5196 Y42.0411 
G01 X11.3404 Y42.0411 
G01 X11.1633 Y42.0691 
G01 X10.9928 Y42.1245 
G01 X10.8331 Y42.2059 
G01 X10.6881 Y42.3113 
G01 X10.5613 Y42.4381 
G00 Z2.0000 
G00 X10.5613 Y44.9781 
G01 Z-0.0250 F254.00 
G01 X10.4559 Y45.1231 F508.00 
G01 X10.3745 Y45.2828 
G01 X10.3191 Y45.4533 
G01 X10.2911 Y45.6304 
G01 X10.2911 Y45.8096 
G01 X10.3191 Y45.9867 
G01 X10.3745 Y46.1572 
G01 X10.4559 Y46.3169 
G01 X10.5613 Y46.4619 
G01 X10.6881 Y46.5887 
G01 X10.8331 Y46.6941 
G01 X10.9928 Y46.7755 
G01 X11.1633 Y46.8309 
G01 X11.3404 Y46.8589 
G01 X11.5196 Y46.8589 
G01 X11.6967 Y46.8309 
G01 X11.8672 Y46.7755 
G01 X12.0269 Y46.6941 
G01 X12.1719 Y46.5887 
G01 X12.2987 Y46.4619 
G01 X12.4041 Y46.3169 
G01 X12.4855 Y46.1572 
G01 X12.5409 Y45.9867 
G01 X12.5689 Y45.8096 
G01 X12.5689 Y45.6304 
G01 X12.5409 Y45.4533 
G01 X12.4855 Y45.2828 
G01 X12.4041 Y45.1231 
G01 X12.2987 Y44.9781 
G01 X12.1719 Y44.8513 
G01 X12.0269 Y44.7459 
G01 X11.8672 Y44.6645 
G01 X11.6967 Y44.6091 
G01 X11.5196 Y44.5811 
G01 X11.3404 Y44.5811 
G01 X11.1633 Y44.6091 
G01 X10.9928 Y44.6645 
G01 X10.8331 Y44.7459 
G01 X10.6881 Y44.8513 
G01 X10.5613 Y44.9781 
G00 Z2.0000 
G00 X10.5613 Y47.5181 
G01 Z-0.0250 F254.00 
G01 X10.4559 Y47.6631 F508.00 
G01 X10.3745 Y47.8228 
G01 X10.3191 Y47.9933 
G01 X10.2911 Y48.1704 
G01 X10.2911 Y48.3496 
G01 X10.3191 Y48.5267 
G01 X10.3745 Y48.6972 
G01 X10.4559 Y48.8569 
G01 X10.5613 Y49.0019 
G01 X10.6881 Y49.1287 
G01 X10.8331 Y49.2341 
G01 X10.9928 Y49.3155 
G01 X11.1633 Y49.3709 
G01 X11.3404 Y49.3989 
G01 X11.5196 Y49.3989 
G01 X11.6967 Y49.3709 
G01 X11.8672 Y49.3155 
G01 X12.0269 Y49.2341 
G01 X12.1719 Y49.1287 
G01 X12.2987 Y49.0019 
G01 X12.4041 Y48.8569 
G01 X12.4855 Y48.6972 
G01 X12.5409 Y48.5267 
G01 X12.5689 Y48.3496 
G01 X12.5689 Y48.1704 
G01 X12.5409 Y47.9933 
G01 X12.4855 Y47.8228 
G01 X12.4041 Y47.6631 
G01 X12.2987 Y47.5181 
G01 X12.1719 Y47.3913 
G01 X12.0269 Y47.2859 
G01 X11.8672 Y47.2045 
G01 X11.6967 Y47.1491 
G01 X11.5196 Y47.1211 
G01 X11.3404 Y47.1211 
G01 X11.1633 Y47.1491 
G01 X10.9928 Y47.2045 
G01 X10.8331 Y47.2859 
G01 X10.6881 Y47.3913 
G01 X10.5613 Y47.5181 
G00 Z2.0000 
G00 X10.5613 Y50.0581 
G01 Z-0.0250 F254.00 
G01 X10.4559 Y50.2031 F508.00 
G01 X10.3745 Y50.3628 
G01 X10.3191 Y50.5333 
G01 X10.2911 Y50.7104 
G01 X10.2911 Y50.8896 
G01 X10.3191 Y51.0667 
G01 X10.3745 Y51.2372 
G01 X10.4559 Y51.3969 
G01 X10.5613 Y51.5419 
G01 X10.6881 Y51.6687 
G01 X10.8331 Y51.7741 
G01 X10.9928 Y51.8555 
G01 X11.1633 Y51.9109 
G01 X11.3404 Y51.9389 
G01 X11.5196 Y51.9389 
G01 X11.6967 Y51.9109 
G01 X11.8672 Y51.8555 
G01 X12.0269 Y51.7741 
G01 X12.1719 Y51.6687 
G01 X12.2987 Y51.5419 
G01 X12.4041 Y51.3969 
G01 X12.4855 Y51.2372 
G01 X12.5409 Y51.0667 
G01 X12.5689 Y50.8896 
G01 X12.5689 Y50.7104 
G01 X12.5409 Y50.5333 
G01 X12.4855 Y50.3628 
G01 X12.4041 Y50.2031 
G01 X12.2987 Y50.0581 
G01 X12.1719 Y49.9313 
G01 X12.0269 Y49.8259 
G01 X11.8672 Y49.7445 
G01 X11.6967 Y49.6891 
G01 X11.5196 Y49.6611 
G01 X11.3404 Y49.6611 
G01 X11.1633 Y49.6891 
G01 X10.9928 Y49.7445 
G01 X10.8331 Y49.8259 
G01 X10.6881 Y49.9313 
G01 X10.5613 Y50.0581 
G00 Z2.0000 
G00 X11.8313 Y52.5981 
G01 Z-0.0250 F254.00 
G01 X11.7259 Y52.7431 F508.00 
G01 X11.6445 Y52.9028 
G01 X11.5891 Y53.0733 
G01 X11.5611 Y53.2504 
G01 X11.5611 Y53.4296 
G01 X11.5891 Y53.6067 
G01 X11.6445 Y53.7772 
G01 X11.7259 Y53.9369 
G01 X11.8313 Y54.0819 
G01 X11.9581 Y54.2087 
G01 X12.1031 Y54.3141 
G01 X12.2628 Y54.3955 
G01 X12.4333 Y54.4509 
G01 X12.6104 Y54.4789 
G01 X12.7896 Y54.4789 
G01 X12.9667 Y54.4509 
G01 X13.1372 Y54.3955 
G01 X13.2969 Y54.3141 
G01 X13.4419 Y54.2087 
G01 X13.5687 Y54.0819 
G01 X13.6741 Y53.9369 
G01 X13.7555 Y53.7772 
G01 X13.8109 Y53.6067 
G01 X13.8389 Y53.4296 
G01 X13.8389 Y53.2504 
G01 X13.8109 Y53.0733 
G01 X13.7555 Y52.9028 
G01 X13.6741 Y52.7431 
G01 X13.5687 Y52.5981 
G01 X13.4419 Y52.4713 
G01 X13.2969 Y52.3659 
G01 X13.1372 Y52.2845 
G01 X12.9667 Y52.2291 
G01 X12.7896 Y52.2011 
G01 X12.6104 Y52.2011 
G01 X12.4333 Y52.2291 
G01 X12.2628 Y52.2845 
G01 X12.1031 Y52.3659 
G01 X11.9581 Y52.4713 
G01 X11.8313 Y52.5981 
G00 Z2.0000 
G00 X14.3713 Y52.5981 
G01 Z-0.0250 F254.00 
G01 X14.2659 Y52.7431 F508.00 
G01 X14.1845 Y52.9028 
G01 X14.1291 Y53.0733 
G01 X14.1011 Y53.2504 
G01 X14.1011 Y53.4296 
G01 X14.1291 Y53.6067 
G01 X14.1845 Y53.7772 
G01 X14.2659 Y53.9369 
G01 X14.3713 Y54.0819 
G01 X14.4981 Y54.2087 
G01 X14.6431 Y54.3141 
G01 X14.8028 Y54.3955 
G01 X14.9733 Y54.4509 
G01 X15.1504 Y54.4789 
G01 X15.3296 Y54.4789 
G01 X15.5067 Y54.4509 
G01 X15.6772 Y54.3955 
G01 X15.8369 Y54.3141 
G01 X15.9819 Y54.2087 
G01 X16.1087 Y54.0819 
G01 X16.2141 Y53.9369 
G01 X16.2955 Y53.7772 
G01 X16.3509 Y53.6067 
G01 X16.3789 Y53.4296 
G01 X16.3789 Y53.2504 
G01 X16.3509 Y53.0733 
G01 X16.2955 Y52.9028 
G01 X16.2141 Y52.7431 
G01 X16.1087 Y52.5981 
G01 X15.9819 Y52.4713 
G01 X15.8369 Y52.3659 
G01 X15.6772 Y52.2845 
G01 X15.5067 Y52.2291 
G01 X15.3296 Y52.2011 
G01 X15.1504 Y52.2011 
G01 X14.9733 Y52.2291 
G01 X14.8028 Y52.2845 
G01 X14.6431 Y52.3659 
G01 X14.4981 Y52.4713 
G01 X14.3713 Y52.5981 
G00 Z2.0000 
G00 X16.9113 Y52.5981 
G01 Z-0.0250 F254.00 
G01 X16.8059 Y52.7431 F508.00 
G01 X16.7245 Y52.9028 
G01 X16.6691 Y53.0733 
G01 X16.6411 Y53.2504 
G01 X16.6411 Y53.4296 
G01 X16.6691 Y53.6067 
G01 X16.7245 Y53.7772 
G01 X16.8059 Y53.9369 
G01 X16.9113 Y54.0819 
G01 X17.0381 Y54.2087 
G01 X17.1831 Y54.3141 
G01 X17.3428 Y54.3955 
G01 X17.5133 Y54.4509 
G01 X17.6904 Y54.4789 
G01 X17.8696 Y54.4789 
G01 X18.0467 Y54.4509 
G01 X18.2172 Y54.3955 
G01 X18.3769 Y54.3141 
G01 X18.5219 Y54.2087 
G01 X18.6487 Y54.0819 
G01 X18.7541 Y53.9369 
G01 X18.8355 Y53.7772 
G01 X18.8909 Y53.6067 
G01 X18.9189 Y53.4296 
G01 X18.9189 Y53.2504 
G01 X18.8909 Y53.0733 
G01 X18.8355 Y52.9028 
G01 X18.7541 Y52.7431 
G01 X18.6487 Y52.5981 
G01 X18.5219 Y52.4713 
G01 X18.3769 Y52.3659 
G01 X18.2172 Y52.2845 
G01 X18.0467 Y52.2291 
G01 X17.8696 Y52.2011 
G01 X17.6904 Y52.2011 
G01 X17.5133 Y52.2291 
G01 X17.3428 Y52.2845 
G01 X17.1831 Y52.3659 
G01 X17.0381 Y52.4713 
G01 X16.9113 Y52.5981 
G00 Z2.0000 
G00 X19.4513 Y52.5981 
G01 Z-0.0250 F254.00 
G01 X19.3459 Y52.7431 F508.00 
G01 X19.2645 Y52.9028 
G01 X19.2091 Y53.0733 
G01 X19.1811 Y53.2504 
G01 X19.1811 Y53.4296 
G01 X19.2091 Y53.6067 
G01 X19.2645 Y53.7772 
G01 X19.3459 Y53.9369 
G01 X19.4513 Y54.0819 
G01 X19.5781 Y54.2087 
G01 X19.7231 Y54.3141 
G01 X19.8828 Y54.3955 
G01 X20.0533 Y54.4509 
G01 X20.2304 Y54.4789 
G01 X20.4096 Y54.4789 
G01 X20.5867 Y54.4509 
G01 X20.7572 Y54.3955 
G01 X20.9169 Y54.3141 
G01 X21.0619 Y54.2087 
G01 X21.1887 Y54.0819 
G01 X21.2941 Y53.9369 
G01 X21.3755 Y53.7772 
G01 X21.4309 Y53.6067 
G01 X21.4589 Y53.4296 
G01 X21.4589 Y53.2504 
G01 X21.4309 Y53.0733 
G01 X21.3755 Y52.9028 
G01 X21.2941 Y52.7431 
G01 X21.1887 Y52.5981 
G01 X21.0619 Y52.4713 
G01 X20.9169 Y52.3659 
G01 X20.7572 Y52.2845 
G01 X20.5867 Y52.2291 
G01 X20.4096 Y52.2011 
G01 X20.2304 Y52.2011 
G01 X20.0533 Y52.2291 
G01 X19.8828 Y52.2845 
G01 X19.7231 Y52.3659 
G01 X19.5781 Y52.4713 
G01 X19.4513 Y52.5981 
G00 Z2.0000 
G00 X21.9913 Y52.5981 
G01 Z-0.0250 F254.00 
G01 X21.8859 Y52.7431 F508.00 
G01 X21.8045 Y52.9028 
G01 X21.7491 Y53.0733 
G01 X21.7211 Y53.2504 
G01 X21.7211 Y53.4296 
G01 X21.7491 Y53.6067 
G01 X21.8045 Y53.7772 
G01 X21.8859 Y53.9369 
G01 X21.9913 Y54.0819 
G01 X22.1181 Y54.2087 
G01 X22.2631 Y54.3141 
G01 X22.4228 Y54.3955 
G01 X22.5933 Y54.4509 
G01 X22.7704 Y54.4789 
G01 X22.9496 Y54.4789 
G01 X23.1267 Y54.4509 
G01 X23.2972 Y54.3955 
G01 X23.4569 Y54.3141 
G01 X23.6019 Y54.2087 
G01 X23.7287 Y54.0819 
G01 X23.8341 Y53.9369 
G01 X23.9155 Y53.7772 
G01 X23.9709 Y53.6067 
G01 X23.9989 Y53.4296 
G01 X23.9989 Y53.2504 
G01 X23.9709 Y53.0733 
G01 X23.9155 Y52.9028 
G01 X23.8341 Y52.7431 
G01 X23.7287 Y52.5981 
G01 X23.6019 Y52.4713 
G01 X23.4569 Y52.3659 
G01 X23.2972 Y52.2845 
G01 X23.1267 Y52.2291 
G01 X22.9496 Y52.2011 
G01 X22.7704 Y52.2011 
G01 X22.5933 Y52.2291 
G01 X22.4228 Y52.2845 
G01 X22.2631 Y52.3659 
G01 X22.1181 Y52.4713 
G01 X21.9913 Y52.5981 
G00 Z2.0000 
G00 X24.5313 Y52.5981 
G01 Z-0.0250 F254.00 
G01 X24.4259 Y52.7431 F508.00 
G01 X24.3445 Y52.9028 
G01 X24.2891 Y53.0733 
G01 X24.2611 Y53.2504 
G01 X24.2611 Y53.4296 
G01 X24.2891 Y53.6067 
G01 X24.3445 Y53.7772 
G01 X24.4259 Y53.9369 
G01 X24.5313 Y54.0819 
G01 X24.6581 Y54.2087 
G01 X24.8031 Y54.3141 
G01 X24.9628 Y54.3955 
G01 X25.1333 Y54.4509 
G01 X25.3104 Y54.4789 
G01 X25.4896 Y54.4789 
G01 X25.6667 Y54.4509 
G01 X25.8372 Y54.3955 
G01 X25.9969 Y54.3141 
G01 X26.1419 Y54.2087 
G01 X26.2687 Y54.0819 
G01 X26.3741 Y53.9369 
G01 X26.4555 Y53.7772 
G01 X26.5109 Y53.6067 
G01 X26.5389 Y53.4296 
G01 X26.5389 Y53.2504 
G01 X26.5109 Y53.0733 
G01 X26.4555 Y52.9028 
G01 X26.3741 Y52.7431 
G01 X26.2687 Y52.5981 
G01 X26.1419 Y52.4713 
G01 X25.9969 Y52.3659 
G01 X25.8372 Y52.2845 
G01 X25.6667 Y52.2291 
G01 X25.4896 Y52.2011 
G01 X25.3104 Y52.2011 
G01 X25.1333 Y52.2291 
G01 X24.9628 Y52.2845 
G01 X24.8031 Y52.3659 
G01 X24.6581 Y52.4713 
G01 X24.5313 Y52.5981 
G00 Z2.0000 
G00 X25.9281 Y51.6687 
G01 Z-0.0250 F254.00 
G01 X26.0731 Y51.7741 F508.00 
G01 X26.2328 Y51.8555 
G01 X26.4033 Y51.9109 
G01 X26.5804 Y51.9389 
G01 X26.7596 Y51.9389 
G01 X26.9367 Y51.9109 
G01 X27.1072 Y51.8555 
G01 X27.2669 Y51.7741 
G01 X27.4119 Y51.6687 
G01 X27.5387 Y51.5419 
G01 X27.6441 Y51.3969 
G01 X27.7255 Y51.2372 
G01 X27.7809 Y51.0667 
G01 X27.8089 Y50.8896 
G01 X27.8089 Y50.7104 
G01 X27.7809 Y50.5333 
G01 X27.7255 Y50.3628 
G01 X27.6441 Y50.2031 
G01 X27.5387 Y50.0581 
G01 X27.4119 Y49.9313 
G01 X27.2669 Y49.8259 
G01 X27.1072 Y49.7445 
G01 X26.9367 Y49.6891 
G01 X26.7596 Y49.6611 
G01 X26.5804 Y49.6611 
G01 X26.4033 Y49.6891 
G01 X26.2328 Y49.7445 
G01 X26.0731 Y49.8259 
G01 X25.9281 Y49.9313 
G01 X25.8013 Y50.0581 
G01 X25.6959 Y50.2031 
G01 X25.6145 Y50.3628 
G01 X25.5591 Y50.5333 
G01 X25.5311 Y50.7104 
G01 X25.5311 Y50.8896 
G01 X25.5591 Y51.0667 
G01 X25.6145 Y51.2372 
G01 X25.6959 Y51.3969 
G01 X25.8013 Y51.5419 
G01 X25.9281 Y51.6687 
G00 Z2.0000 
G00 X25.9281 Y49.1287 
G01 Z-0.0250 F254.00 
G01 X26.0731 Y49.2341 F508.00 
G01 X26.2328 Y49.3155 
G01 X26.4033 Y49.3709 
G01 X26.5804 Y49.3989 
G01 X26.7596 Y49.3989 
G01 X26.9367 Y49.3709 
G01 X27.1072 Y49.3155 
G01 X27.2669 Y49.2341 
G01 X27.4119 Y49.1287 
G01 X27.5387 Y49.0019 
G01 X27.6441 Y48.8569 
G01 X27.7255 Y48.6972 
G01 X27.7809 Y48.5267 
G01 X27.8089 Y48.3496 
G01 X27.8089 Y48.1704 
G01 X27.7809 Y47.9933 
G01 X27.7255 Y47.8228 
G01 X27.6441 Y47.6631 
G01 X27.5387 Y47.5181 
G01 X27.4119 Y47.3913 
G01 X27.2669 Y47.2859 
G01 X27.1072 Y47.2045 
G01 X26.9367 Y47.1491 
G01 X26.7596 Y47.1211 
G01 X26.5804 Y47.1211 
G01 X26.4033 Y47.1491 
G01 X26.2328 Y47.2045 
G01 X26.0731 Y47.2859 
G01 X25.9281 Y47.3913 
G01 X25.8013 Y47.5181 
G01 X25.6959 Y47.6631 
G01 X25.6145 Y47.8228 
G01 X25.5591 Y47.9933 
G01 X25.5311 Y48.1704 
G01 X25.5311 Y48.3496 
G01 X25.5591 Y48.5267 
G01 X25.6145 Y48.6972 
G01 X25.6959 Y48.8569 
G01 X25.8013 Y49.0019 
G01 X25.9281 Y49.1287 
G00 Z2.0000 
G00 X25.9281 Y46.5887 
G01 Z-0.0250 F254.00 
G01 X26.0731 Y46.6941 F508.00 
G01 X26.2328 Y46.7755 
G01 X26.4033 Y46.8309 
G01 X26.5804 Y46.8589 
G01 X26.7596 Y46.8589 
G01 X26.9367 Y46.8309 
G01 X27.1072 Y46.7755 
G01 X27.2669 Y46.6941 
G01 X27.4119 Y46.5887 
G01 X27.5387 Y46.4619 
G01 X27.6441 Y46.3169 
G01 X27.7255 Y46.1572 
G01 X27.7809 Y45.9867 
G01 X27.8089 Y45.8096 
G01 X27.8089 Y45.6304 
G01 X27.7809 Y45.4533 
G01 X27.7255 Y45.2828 
G01 X27.6441 Y45.1231 
G01 X27.5387 Y44.9781 
G01 X27.4119 Y44.8513 
G01 X27.2669 Y44.7459 
G01 X27.1072 Y44.6645 
G01 X26.9367 Y44.6091 
G01 X26.7596 Y44.5811 
G01 X26.5804 Y44.5811 
G01 X26.4033 Y44.6091 
G01 X26.2328 Y44.6645 
G01 X26.0731 Y44.7459 
G01 X25.9281 Y44.8513 
G01 X25.8013 Y44.9781 
G01 X25.6959 Y45.1231 
G01 X25.6145 Y45.2828 
G01 X25.5591 Y45.4533 
G01 X25.5311 Y45.6304 
G01 X25.5311 Y45.8096 
G01 X25.5591 Y45.9867 
G01 X25.6145 Y46.1572 
G01 X25.6959 Y46.3169 
G01 X25.8013 Y46.4619 
G01 X25.9281 Y46.5887 
G00 Z2.0000 
G00 X25.9281 Y44.0487 
G01 Z-0.0250 F254.00 
G01 X26.0731 Y44.1541 F508.00 
G01 X26.2328 Y44.2355 
G01 X26.4033 Y44.2909 
G01 X26.5804 Y44.3189 
G01 X26.7596 Y44.3189 
G01 X26.9367 Y44.2909 
G01 X27.1072 Y44.2355 
G01 X27.2669 Y44.1541 
G01 X27.4119 Y44.0487 
G01 X27.5387 Y43.9219 
G01 X27.6441 Y43.7769 
G01 X27.6634 Y43.7389 
G01 X37.7768 Y43.7389 
G01 X39.7446 Y45.7067 
G01 X39.6509 Y45.8356 
G01 X39.5695 Y45.9953 
G01 X39.5141 Y46.1658 
G01 X39.4861 Y46.3429 
G01 X39.4861 Y46.5221 
G01 X39.5141 Y46.6992 
G01 X39.5695 Y46.8697 
G01 X39.6509 Y47.0294 
G01 X39.7563 Y47.1744 
G01 X39.8831 Y47.3012 
G01 X40.0281 Y47.4066 
G01 X40.1878 Y47.4880 
G01 X40.3583 Y47.5434 
G01 X40.5354 Y47.5714 
G01 X40.7146 Y47.5714 
G01 X40.8917 Y47.5434 
G01 X41.0622 Y47.4880 
G01 X41.2219 Y47.4066 
G01 X41.3669 Y47.3012 
G01 X41.4937 Y47.1744 
G01 X41.5991 Y47.0294 
G01 X41.6805 Y46.8697 
G01 X41.7359 Y46.6992 
G01 X41.7639 Y46.5221 
G01 X41.7639 Y46.3429 
G01 X41.7359 Y46.1658 
G01 X41.6805 Y45.9953 
G01 X41.5991 Y45.8356 
G01 X41.4937 Y45.6906 
G01 X41.3669 Y45.5638 
G01 X41.2219 Y45.4584 
G01 X41.0622 Y45.3770 
G01 X41.0040 Y45.3581 
G01 X41.8232 Y44.5389 
G01 X43.7768 Y44.5389 
G01 X44.8824 Y45.6445 
G01 X44.8363 Y45.6906 
G01 X44.7309 Y45.8356 
G01 X44.6495 Y45.9953 
G01 X44.5941 Y46.1658 
G01 X44.5661 Y46.3429 
G01 X44.5661 Y46.5221 
G01 X44.5941 Y46.6992 
G01 X44.6495 Y46.8697 
G01 X44.7309 Y47.0294 
G01 X44.8363 Y47.1744 
G01 X44.9631 Y47.3012 
G01 X45.1081 Y47.4066 
G01 X45.2678 Y47.4880 
G01 X45.4383 Y47.5434 
G01 X45.6154 Y47.5714 
G01 X45.7946 Y47.5714 
G01 X45.9717 Y47.5434 
G01 X46.1422 Y47.4880 
G01 X46.3019 Y47.4066 
G01 X46.4469 Y47.3012 
G01 X46.4930 Y47.2551 
G01 X47.4611 Y48.2232 
G01 X47.4611 Y49.7768 
G01 X33.3768 Y63.8611 
G01 X27.1290 Y63.8611 
G01 X27.0456 Y63.8835 
G01 X23.7389 Y60.5768 
G01 X23.7389 Y60.3775 
G01 X23.7477 Y60.3687 
G01 X23.7689 Y60.3176 
G01 X23.7689 Y59.7160 
G01 X23.7732 Y59.6713 
G01 X23.7689 Y59.6453 
G01 X23.7689 Y59.0624 
G01 X23.7477 Y59.0113 
G01 X23.7087 Y58.9722 
G01 X23.6576 Y58.9511 
G01 X22.8024 Y58.9511 
G01 X22.7513 Y58.9722 
G01 X22.7122 Y59.0113 
G01 X22.6911 Y59.0624 
G01 X22.6911 Y59.4611 
G01 X20.4889 Y59.4611 
G01 X20.4889 Y59.0624 
G01 X20.4677 Y59.0113 
G01 X20.4287 Y58.9722 
G01 X20.3776 Y58.9511 
G01 X19.5224 Y58.9511 
G01 X19.4713 Y58.9722 
G01 X19.4322 Y59.0113 
G01 X19.4111 Y59.0624 
G01 X19.4111 Y59.6625 
G01 X19.4067 Y59.7058 
G01 X19.4111 Y59.7332 
G01 X19.4111 Y60.3176 
G01 X19.4322 Y60.3687 
G01 X19.4713 Y60.4078 
G01 X19.5224 Y60.4289 
G01 X19.6668 Y60.4289 
G01 X19.7067 Y60.4530 
G01 X19.7420 Y60.4784 
G01 X19.7679 Y60.4883 
G01 X19.7920 Y60.5022 
G01 X19.8340 Y60.5134 
G01 X19.8746 Y60.5289 
G01 X19.9022 Y60.5317 
G01 X19.9291 Y60.5389 
G01 X19.9725 Y60.5389 
G01 X20.0158 Y60.5433 
G01 X20.0432 Y60.5389 
G01 X22.6611 Y60.5389 
G01 X22.6611 Y60.8709 
G01 X22.6978 Y61.0080 
G01 X22.7688 Y61.1309 
G01 X22.8691 Y61.2312 
G01 X26.5688 Y64.9309 
G01 X26.6611 Y65.0232 
G01 X26.6611 Y68.5768 
G01 X26.1768 Y69.0611 
G01 X25.9326 Y69.0611 
G01 X25.9326 Y69.0477 
G01 X25.9114 Y68.9966 
G01 X25.8724 Y68.9575 
G01 X25.8213 Y68.9364 
G01 X23.7595 Y68.9364 
G01 X23.7084 Y68.9575 
G01 X23.6693 Y68.9966 
G01 X23.6482 Y69.0477 
G01 X23.6482 Y70.6015 
G01 X23.6693 Y70.6526 
G01 X23.7084 Y70.6916 
G01 X23.7595 Y70.7128 
G01 X25.8213 Y70.7128 
G01 X25.8724 Y70.6916 
G01 X25.9114 Y70.6526 
G01 X25.9326 Y70.6015 
G01 X25.9326 Y70.1389 
G01 X26.4709 Y70.1389 
G01 X26.6080 Y70.1022 
G01 X26.7309 Y70.0312 
G01 X27.5309 Y69.2312 
G01 X27.6312 Y69.1309 
G01 X27.7022 Y69.0080 
G01 X27.7389 Y68.8709 
G01 X27.7389 Y64.9389 
G01 X33.6709 Y64.9389 
G01 X33.8080 Y64.9022 
G01 X33.9309 Y64.8312 
G01 X48.3309 Y50.4312 
G01 X48.4312 Y50.3309 
G01 X48.5022 Y50.2080 
G01 X48.5389 Y50.0709 
G01 X48.5389 Y47.9290 
G01 X48.5022 Y47.7920 
G01 X48.4312 Y47.6691 
G01 X46.8312 Y46.0691 
G01 X46.7619 Y45.9998 
G01 X46.7605 Y45.9953 
G01 X46.6791 Y45.8356 
G01 X46.5737 Y45.6906 
G01 X46.4469 Y45.5638 
G01 X46.3019 Y45.4584 
G01 X46.1422 Y45.3770 
G01 X46.0823 Y45.3576 
G01 X46.0312 Y45.2691 
G01 X44.4312 Y43.6691 
G01 X44.3309 Y43.5688 
G01 X44.2080 Y43.4978 
G01 X44.0709 Y43.4611 
G01 X41.5290 Y43.4611 
G01 X41.3920 Y43.4978 
G01 X41.2691 Y43.5688 
G01 X40.2000 Y44.6379 
G01 X38.3309 Y42.7688 
G01 X38.2080 Y42.6978 
G01 X38.0709 Y42.6611 
G01 X27.6838 Y42.6611 
G01 X27.6441 Y42.5831 
G01 X27.5387 Y42.4381 
G01 X27.4119 Y42.3113 
G01 X27.2669 Y42.2059 
G01 X27.1072 Y42.1245 
G01 X26.9367 Y42.0691 
G01 X26.7596 Y42.0411 
G01 X26.5804 Y42.0411 
G01 X26.4033 Y42.0691 
G01 X26.2328 Y42.1245 
G01 X26.0731 Y42.2059 
G01 X25.9281 Y42.3113 
G01 X25.8013 Y42.4381 
G01 X25.6959 Y42.5831 
G01 X25.6145 Y42.7428 
G01 X25.5591 Y42.9133 
G01 X25.5311 Y43.0904 
G01 X25.5311 Y43.2696 
G01 X25.5591 Y43.4467 
G01 X25.6145 Y43.6172 
G01 X25.6959 Y43.7769 
G01 X25.8013 Y43.9219 
G01 X25.9281 Y44.0487 
G00 Z2.0000 
G00 X25.9281 Y41.5087 
G01 Z-0.0250 F254.00 
G01 X26.0731 Y41.6141 F508.00 
G01 X26.2328 Y41.6955 
G01 X26.4033 Y41.7509 
G01 X26.5804 Y41.7789 
G01 X26.7596 Y41.7789 
G01 X26.9367 Y41.7509 
G01 X27.1072 Y41.6955 
G01 X27.2669 Y41.6141 
G01 X27.4119 Y41.5087 
G01 X27.5387 Y41.3819 
G01 X27.6441 Y41.2369 
G01 X27.7255 Y41.0772 
G01 X27.7704 Y40.9389 
G01 X32.8709 Y40.9389 
G01 X33.0080 Y40.9022 
G01 X33.1309 Y40.8312 
G01 X37.9309 Y36.0312 
G01 X38.0312 Y35.9309 
G01 X38.1022 Y35.8080 
G01 X38.1389 Y35.6709 
G01 X38.1389 Y35.1639 
G01 X38.3726 Y35.1639 
G01 X38.4237 Y35.1427 
G01 X38.4627 Y35.1037 
G01 X38.4839 Y35.0526 
G01 X38.4839 Y34.2782 
G01 X39.0232 Y33.7389 
G01 X41.1711 Y33.7389 
G01 X41.1711 Y33.8176 
G01 X41.1922 Y33.8687 
G01 X41.2313 Y33.9078 
G01 X41.2824 Y33.9289 
G01 X41.8612 Y33.9289 
G01 X41.8830 Y33.9329 
G01 X41.9248 Y33.9295 
G01 X41.9668 Y33.9306 
G01 X41.9738 Y33.9289 
G01 X42.5376 Y33.9289 
G01 X42.5887 Y33.9078 
G01 X42.6277 Y33.8687 
G01 X42.6489 Y33.8176 
G01 X42.6489 Y33.7389 
G01 X45.6709 Y33.7389 
G01 X45.8080 Y33.7022 
G01 X45.9309 Y33.6312 
G01 X46.6210 Y32.9412 
G01 X46.6980 Y32.9662 
G01 X46.8919 Y32.9969 
G01 X47.0881 Y32.9969 
G01 X47.2820 Y32.9662 
G01 X47.4686 Y32.9055 
G01 X47.6435 Y32.8164 
G01 X47.8023 Y32.7011 
G01 X47.9411 Y32.5623 
G01 X48.0564 Y32.4035 
G01 X48.1455 Y32.2286 
G01 X48.2062 Y32.0420 
G01 X48.2369 Y31.8481 
G01 X48.2369 Y31.6519 
G01 X48.2062 Y31.4580 
G01 X48.1455 Y31.2714 
G01 X48.0564 Y31.0965 
G01 X47.9411 Y30.9377 
G01 X47.8023 Y30.7989 
G01 X47.6435 Y30.6836 
G01 X47.4686 Y30.5945 
G01 X47.2820 Y30.5338 
G01 X47.0881 Y30.5031 
G01 X46.8919 Y30.5031 
G01 X46.6980 Y30.5338 
G01 X46.5114 Y30.5945 
G01 X46.3365 Y30.6836 
G01 X46.1777 Y30.7989 
G01 X46.0389 Y30.9377 
G01 X45.9236 Y31.0965 
G01 X45.8345 Y31.2714 
G01 X45.7738 Y31.4580 
G01 X45.7431 Y31.6519 
G01 X45.7431 Y31.8481 
G01 X45.7738 Y32.0420 
G01 X45.8283 Y32.2096 
G01 X45.3768 Y32.6611 
G01 X42.0488 Y32.6611 
G01 X42.0270 Y32.6571 
G01 X41.9781 Y32.6611 
G01 X41.9290 Y32.6611 
G01 X41.9076 Y32.6668 
G01 X41.8856 Y32.6686 
G01 X41.8394 Y32.6851 
G01 X41.8000 Y32.6957 
G01 X41.7463 Y32.6813 
G01 X41.6851 Y32.6631 
G01 X41.6779 Y32.6630 
G01 X41.6709 Y32.6611 
G01 X41.6071 Y32.6611 
G01 X41.5432 Y32.6594 
G01 X41.5362 Y32.6611 
G01 X38.7291 Y32.6611 
G01 X38.5920 Y32.6978 
G01 X38.4691 Y32.7688 
G01 X37.8218 Y33.4161 
G01 X37.0474 Y33.4161 
G01 X36.9963 Y33.4372 
G01 X36.9572 Y33.4763 
G01 X36.9361 Y33.5274 
G01 X36.9361 Y35.0526 
G01 X36.9572 Y35.1037 
G01 X36.9963 Y35.1427 
G01 X37.0474 Y35.1639 
G01 X37.0611 Y35.1639 
G01 X37.0611 Y35.3768 
G01 X32.5768 Y39.8611 
G01 X27.5017 Y39.8611 
G01 X27.4119 Y39.7713 
G01 X27.2669 Y39.6659 
G01 X27.1072 Y39.5845 
G01 X26.9367 Y39.5291 
G01 X26.7596 Y39.5011 
G01 X26.5804 Y39.5011 
G01 X26.4033 Y39.5291 
G01 X26.2328 Y39.5845 
G01 X26.0731 Y39.6659 
G01 X25.9281 Y39.7713 
G01 X25.8013 Y39.8981 
G01 X25.6959 Y40.0431 
G01 X25.6145 Y40.2028 
G01 X25.5591 Y40.3733 
G01 X25.5311 Y40.5504 
G01 X25.5311 Y40.7296 
G01 X25.5591 Y40.9067 
G01 X25.6145 Y41.0772 
G01 X25.6959 Y41.2369 
G01 X25.8013 Y41.3819 
G01 X25.9281 Y41.5087 
G00 Z2.0000 
G00 X23.9155 Y41.4728 
G01 Z-0.0250 F254.00 
G01 X23.8341 Y41.3131 F508.00 
G01 X23.7287 Y41.1681 
G01 X23.6019 Y41.0413 
G01 X23.4569 Y40.9359 
G01 X23.2972 Y40.8545 
G01 X23.1267 Y40.7991 
G01 X22.9496 Y40.7711 
G01 X22.7704 Y40.7711 
G01 X22.5933 Y40.7991 
G01 X22.4228 Y40.8545 
G01 X22.2631 Y40.9359 
G01 X22.1181 Y41.0413 
G01 X21.9913 Y41.1681 
G01 X21.8859 Y41.3131 
G01 X21.8045 Y41.4728 
G01 X21.7491 Y41.6433 
G01 X21.7211 Y41.8204 
G01 X21.7211 Y41.9996 
G01 X21.7491 Y42.1767 
G01 X21.8045 Y42.3472 
G01 X21.8859 Y42.5069 
G01 X21.9913 Y42.6519 
G01 X22.1181 Y42.7787 
G01 X22.2631 Y42.8841 
G01 X22.4228 Y42.9655 
G01 X22.5933 Y43.0209 
G01 X22.7704 Y43.0489 
G01 X22.9496 Y43.0489 
G01 X23.1267 Y43.0209 
G01 X23.2972 Y42.9655 
G01 X23.4569 Y42.8841 
G01 X23.6019 Y42.7787 
G01 X23.7287 Y42.6519 
G01 X23.8341 Y42.5069 
G01 X23.9155 Y42.3472 
G01 X23.9709 Y42.1767 
G01 X23.9989 Y41.9996 
G01 X23.9989 Y41.8204 
G01 X23.9709 Y41.6433 
G01 X23.9155 Y41.4728 
G00 Z2.0000 
G00 X23.7287 Y40.1119 
G01 Z-0.0250 F254.00 
G01 X23.8341 Y39.9669 F508.00 
G01 X23.9155 Y39.8072 
G01 X23.9709 Y39.6367 
G01 X23.9989 Y39.4596 
G01 X23.9989 Y39.2804 
G01 X23.9709 Y39.1033 
G01 X23.9155 Y38.9328 
G01 X23.8341 Y38.7731 
G01 X23.7287 Y38.6281 
G01 X23.6019 Y38.5013 
G01 X23.4569 Y38.3959 
G01 X23.2972 Y38.3145 
G01 X23.1267 Y38.2591 
G01 X22.9496 Y38.2311 
G01 X22.7704 Y38.2311 
G01 X22.5933 Y38.2591 
G01 X22.4228 Y38.3145 
G01 X22.2631 Y38.3959 
G01 X22.1181 Y38.5013 
G01 X21.9913 Y38.6281 
G01 X21.8859 Y38.7731 
G01 X21.8045 Y38.9328 
G01 X21.7491 Y39.1033 
G01 X21.7211 Y39.2804 
G01 X21.7211 Y39.4596 
G01 X21.7491 Y39.6367 
G01 X21.8045 Y39.8072 
G01 X21.8859 Y39.9669 
G01 X21.9913 Y40.1119 
G01 X22.1181 Y40.2387 
G01 X22.2631 Y40.3441 
G01 X22.4228 Y40.4255 
G01 X22.5933 Y40.4809 
G01 X22.7704 Y40.5089 
G01 X22.9496 Y40.5089 
G01 X23.1267 Y40.4809 
G01 X23.2972 Y40.4255 
G01 X23.4569 Y40.3441 
G01 X23.6019 Y40.2387 
G01 X23.7287 Y40.1119 
G00 Z2.0000 
G00 X25.9281 Y38.9687 
G01 Z-0.0250 F254.00 
G01 X26.0731 Y39.0741 F508.00 
G01 X26.2328 Y39.1555 
G01 X26.4033 Y39.2109 
G01 X26.5804 Y39.2389 
G01 X26.7596 Y39.2389 
G01 X26.9367 Y39.2109 
G01 X27.1072 Y39.1555 
G01 X27.2669 Y39.0741 
G01 X27.4119 Y38.9687 
G01 X27.5387 Y38.8419 
G01 X27.6441 Y38.6969 
G01 X27.7246 Y38.5389 
G01 X32.8709 Y38.5389 
G01 X33.0080 Y38.5022 
G01 X33.1309 Y38.4312 
G01 X35.9309 Y35.6312 
G01 X36.0312 Y35.5309 
G01 X36.1022 Y35.4080 
G01 X36.1389 Y35.2709 
G01 X36.1389 Y30.2232 
G01 X37.9309 Y28.4312 
G01 X38.0312 Y28.3309 
G01 X38.1022 Y28.2080 
G01 X38.1389 Y28.0709 
G01 X38.1389 Y27.5439 
G01 X38.3726 Y27.5439 
G01 X38.4237 Y27.5227 
G01 X38.4627 Y27.4837 
G01 X38.4839 Y27.4326 
G01 X38.4839 Y26.6782 
G01 X39.0232 Y26.1389 
G01 X41.1711 Y26.1389 
G01 X41.1711 Y26.1976 
G01 X41.1922 Y26.2487 
G01 X41.2313 Y26.2877 
G01 X41.2824 Y26.3089 
G01 X41.8451 Y26.3089 
G01 X41.8509 Y26.3103 
G01 X41.8550 Y26.3102 
G01 X41.8589 Y26.3111 
G01 X41.9199 Y26.3089 
G01 X42.5376 Y26.3089 
G01 X42.5887 Y26.2877 
G01 X42.6277 Y26.2487 
G01 X42.6489 Y26.1976 
G01 X42.6489 Y26.1389 
G01 X42.9768 Y26.1389 
G01 X45.7714 Y28.9335 
G01 X45.7431 Y29.1119 
G01 X45.7431 Y29.3081 
G01 X45.7738 Y29.5020 
G01 X45.8345 Y29.6886 
G01 X45.9236 Y29.8635 
G01 X46.0389 Y30.0223 
G01 X46.1777 Y30.1611 
G01 X46.3365 Y30.2764 
G01 X46.5114 Y30.3655 
G01 X46.6980 Y30.4262 
G01 X46.8919 Y30.4569 
G01 X47.0881 Y30.4569 
G01 X47.2820 Y30.4262 
G01 X47.4686 Y30.3655 
G01 X47.6435 Y30.2764 
G01 X47.8023 Y30.1611 
G01 X47.9411 Y30.0223 
G01 X48.0564 Y29.8635 
G01 X48.1455 Y29.6886 
G01 X48.2062 Y29.5020 
G01 X48.2369 Y29.3081 
G01 X48.2369 Y29.1119 
G01 X48.2062 Y28.9180 
G01 X48.1455 Y28.7314 
G01 X48.0564 Y28.5565 
G01 X47.9411 Y28.3977 
G01 X47.8023 Y28.2589 
G01 X47.6435 Y28.1436 
G01 X47.4686 Y28.0545 
G01 X47.2820 Y27.9938 
G01 X47.0881 Y27.9631 
G01 X46.8919 Y27.9631 
G01 X46.6980 Y27.9938 
G01 X46.5114 Y28.0545 
G01 X46.4486 Y28.0864 
G01 X43.5309 Y25.1688 
G01 X43.4080 Y25.0978 
G01 X43.2709 Y25.0611 
G01 X42.0609 Y25.0611 
G01 X42.0511 Y25.0589 
G01 X41.9901 Y25.0611 
G01 X41.9290 Y25.0611 
G01 X41.9194 Y25.0637 
G01 X41.9093 Y25.0641 
G01 X41.8509 Y25.0820 
G01 X41.8008 Y25.0955 
G01 X41.7969 Y25.0934 
G01 X41.7337 Y25.0779 
G01 X41.6709 Y25.0611 
G01 X41.6649 Y25.0611 
G01 X41.6591 Y25.0597 
G01 X41.5940 Y25.0611 
G01 X38.7291 Y25.0611 
G01 X38.5920 Y25.0978 
G01 X38.4691 Y25.1688 
G01 X37.8418 Y25.7961 
G01 X37.0474 Y25.7961 
G01 X36.9963 Y25.8172 
G01 X36.9572 Y25.8563 
G01 X36.9361 Y25.9074 
G01 X36.9361 Y27.4326 
G01 X36.9572 Y27.4837 
G01 X36.9963 Y27.5227 
G01 X37.0474 Y27.5439 
G01 X37.0611 Y27.5439 
G01 X37.0611 Y27.7768 
G01 X35.1688 Y29.6691 
G01 X35.0978 Y29.7920 
G01 X35.0611 Y29.9291 
G01 X35.0611 Y34.9768 
G01 X32.5768 Y37.4611 
G01 X27.6136 Y37.4611 
G01 X27.5387 Y37.3581 
G01 X27.4119 Y37.2313 
G01 X27.2669 Y37.1259 
G01 X27.1072 Y37.0445 
G01 X26.9367 Y36.9891 
G01 X26.7596 Y36.9611 
G01 X26.5804 Y36.9611 
G01 X26.4033 Y36.9891 
G01 X26.2328 Y37.0445 
G01 X26.0731 Y37.1259 
G01 X25.9281 Y37.2313 
G01 X25.8013 Y37.3581 
G01 X25.6959 Y37.5031 
G01 X25.6145 Y37.6628 
G01 X25.5591 Y37.8333 
G01 X25.5311 Y38.0104 
G01 X25.5311 Y38.1896 
G01 X25.5591 Y38.3667 
G01 X25.6145 Y38.5372 
G01 X25.6959 Y38.6969 
G01 X25.8013 Y38.8419 
G01 X25.9281 Y38.9687 
G00 Z2.0000 
G00 X25.9281 Y36.4287 
G01 Z-0.0250 F254.00 
G01 X26.0731 Y36.5341 F508.00 
G01 X26.2328 Y36.6155 
G01 X26.4033 Y36.6709 
G01 X26.5804 Y36.6989 
G01 X26.7596 Y36.6989 
G01 X26.9367 Y36.6709 
G01 X27.1072 Y36.6155 
G01 X27.2669 Y36.5341 
G01 X27.4119 Y36.4287 
G01 X27.5387 Y36.3019 
G01 X27.6441 Y36.1569 
G01 X27.7255 Y35.9972 
G01 X27.7809 Y35.8267 
G01 X27.8089 Y35.6496 
G01 X27.8089 Y35.4704 
G01 X27.7809 Y35.2933 
G01 X27.7255 Y35.1228 
G01 X27.6441 Y34.9631 
G01 X27.5387 Y34.8181 
G01 X27.4119 Y34.6913 
G01 X27.2669 Y34.5859 
G01 X27.1072 Y34.5045 
G01 X26.9367 Y34.4491 
G01 X26.7596 Y34.4211 
G01 X26.5804 Y34.4211 
G01 X26.4033 Y34.4491 
G01 X26.2328 Y34.5045 
G01 X26.0731 Y34.5859 
G01 X25.9281 Y34.6913 
G01 X25.8013 Y34.8181 
G01 X25.6959 Y34.9631 
G01 X25.6145 Y35.1228 
G01 X25.5591 Y35.2933 
G01 X25.5311 Y35.4704 
G01 X25.5311 Y35.6496 
G01 X25.5591 Y35.8267 
G01 X25.6145 Y35.9972 
G01 X25.6959 Y36.1569 
G01 X25.8013 Y36.3019 
G01 X25.9281 Y36.4287 
G00 Z2.0000 
G00 X25.9281 Y33.8887 
G01 Z-0.0250 F254.00 
G01 X26.0731 Y33.9941 F508.00 
G01 X26.2328 Y34.0755 
G01 X26.4033 Y34.1309 
G01 X26.5804 Y34.1589 
G01 X26.7596 Y34.1589 
G01 X26.9367 Y34.1309 
G01 X27.1072 Y34.0755 
G01 X27.2669 Y33.9941 
G01 X27.4119 Y33.8887 
G01 X27.5387 Y33.7619 
G01 X27.6441 Y33.6169 
G01 X27.7255 Y33.4572 
G01 X27.7809 Y33.2867 
G01 X27.8089 Y33.1096 
G01 X27.8089 Y32.9304 
G01 X27.7809 Y32.7533 
G01 X27.7255 Y32.5828 
G01 X27.6441 Y32.4231 
G01 X27.5387 Y32.2781 
G01 X27.4119 Y32.1513 
G01 X27.2669 Y32.0459 
G01 X27.1072 Y31.9645 
G01 X26.9367 Y31.9091 
G01 X26.7596 Y31.8811 
G01 X26.5804 Y31.8811 
G01 X26.4033 Y31.9091 
G01 X26.2328 Y31.9645 
G01 X26.0731 Y32.0459 
G01 X25.9281 Y32.1513 
G01 X25.8013 Y32.2781 
G01 X25.6959 Y32.4231 
G01 X25.6145 Y32.5828 
G01 X25.5591 Y32.7533 
G01 X25.5311 Y32.9304 
G01 X25.5311 Y33.1096 
G01 X25.5591 Y33.2867 
G01 X25.6145 Y33.4572 
G01 X25.6959 Y33.6169 
G01 X25.8013 Y33.7619 
G01 X25.9281 Y33.8887 
G00 Z2.0000 
G00 X25.9281 Y31.3487 
G01 Z-0.0250 F254.00 
G01 X26.0731 Y31.4541 F508.00 
G01 X26.2328 Y31.5355 
G01 X26.4033 Y31.5909 
G01 X26.5804 Y31.6189 
G01 X26.7596 Y31.6189 
G01 X26.9367 Y31.5909 
G01 X27.1072 Y31.5355 
G01 X27.2669 Y31.4541 
G01 X27.4119 Y31.3487 
G01 X27.5387 Y31.2219 
G01 X27.6441 Y31.0769 
G01 X27.7213 Y30.9254 
G01 X27.8080 Y30.9022 
G01 X27.9309 Y30.8312 
G01 X28.0312 Y30.7309 
G01 X31.4232 Y27.3389 
G01 X32.6361 Y27.3389 
G01 X32.6361 Y27.4326 
G01 X32.6572 Y27.4837 
G01 X32.6963 Y27.5227 
G01 X32.7474 Y27.5439 
G01 X34.0726 Y27.5439 
G01 X34.1237 Y27.5227 
G01 X34.1628 Y27.4837 
G01 X34.1839 Y27.4326 
G01 X34.1839 Y25.9074 
G01 X34.1628 Y25.8563 
G01 X34.1237 Y25.8172 
G01 X34.0726 Y25.7961 
G01 X32.7474 Y25.7961 
G01 X32.6963 Y25.8172 
G01 X32.6572 Y25.8563 
G01 X32.6361 Y25.9074 
G01 X32.6361 Y26.2611 
G01 X31.1290 Y26.2611 
G01 X30.9920 Y26.2978 
G01 X30.8691 Y26.3688 
G01 X27.5193 Y29.7186 
G01 X27.4119 Y29.6113 
G01 X27.2669 Y29.5059 
G01 X27.1072 Y29.4245 
G01 X26.9367 Y29.3691 
G01 X26.7596 Y29.3411 
G01 X26.5804 Y29.3411 
G01 X26.4033 Y29.3691 
G01 X26.2328 Y29.4245 
G01 X26.0731 Y29.5059 
G01 X25.9281 Y29.6113 
G01 X25.8013 Y29.7381 
G01 X25.6959 Y29.8831 
G01 X25.6145 Y30.0428 
G01 X25.5591 Y30.2133 
G01 X25.5311 Y30.3904 
G01 X25.5311 Y30.5696 
G01 X25.5591 Y30.7467 
G01 X25.6145 Y30.9172 
G01 X25.6959 Y31.0769 
G01 X25.8013 Y31.2219 
G01 X25.9281 Y31.3487 
G00 Z2.0000 
G00 X25.9281 Y28.8087 
G01 Z-0.0250 F254.00 
G01 X26.0731 Y28.9141 F508.00 
G01 X26.2328 Y28.9955 
G01 X26.4033 Y29.0509 
G01 X26.5804 Y29.0789 
G01 X26.7596 Y29.0789 
G01 X26.9367 Y29.0509 
G01 X27.1072 Y28.9955 
G01 X27.2669 Y28.9141 
G01 X27.4119 Y28.8087 
G01 X27.5387 Y28.6819 
G01 X27.6441 Y28.5369 
G01 X27.7255 Y28.3772 
G01 X27.7809 Y28.2067 
G01 X27.7969 Y28.1051 
G01 X27.8080 Y28.1022 
G01 X27.9309 Y28.0312 
G01 X28.0312 Y27.9309 
G01 X31.0232 Y24.9389 
G01 X34.1768 Y24.9389 
G01 X35.0611 Y25.8232 
G01 X35.0611 Y27.3768 
G01 X33.1688 Y29.2691 
G01 X33.0978 Y29.3920 
G01 X33.0611 Y29.5291 
G01 X33.0611 Y33.4161 
G01 X32.7474 Y33.4161 
G01 X32.6963 Y33.4372 
G01 X32.6572 Y33.4763 
G01 X32.6361 Y33.5274 
G01 X32.6361 Y35.0526 
G01 X32.6572 Y35.1037 
G01 X32.6963 Y35.1427 
G01 X32.7474 Y35.1639 
G01 X34.0726 Y35.1639 
G01 X34.1237 Y35.1427 
G01 X34.1628 Y35.1037 
G01 X34.1839 Y35.0526 
G01 X34.1839 Y33.5274 
G01 X34.1628 Y33.4763 
G01 X34.1389 Y33.4525 
G01 X34.1389 Y29.8232 
G01 X35.9309 Y28.0312 
G01 X36.0312 Y27.9309 
G01 X36.1022 Y27.8080 
G01 X36.1389 Y27.6709 
G01 X36.1389 Y25.5291 
G01 X36.1022 Y25.3920 
G01 X36.0312 Y25.2691 
G01 X34.8312 Y24.0691 
G01 X34.7309 Y23.9688 
G01 X34.6080 Y23.8978 
G01 X34.4709 Y23.8611 
G01 X30.7291 Y23.8611 
G01 X30.5920 Y23.8978 
G01 X30.4691 Y23.9688 
G01 X27.3857 Y27.0522 
G01 X27.2669 Y26.9659 
G01 X27.1072 Y26.8845 
G01 X26.9367 Y26.8291 
G01 X26.7596 Y26.8011 
G01 X26.5804 Y26.8011 
G01 X26.4033 Y26.8291 
G01 X26.2328 Y26.8845 
G01 X26.0731 Y26.9659 
G01 X25.9281 Y27.0713 
G01 X25.8013 Y27.1981 
G01 X25.6959 Y27.3431 
G01 X25.6145 Y27.5028 
G01 X25.5591 Y27.6733 
G01 X25.5311 Y27.8504 
G01 X25.5311 Y28.0296 
G01 X25.5591 Y28.2067 
G01 X25.6145 Y28.3772 
G01 X25.6959 Y28.5369 
G01 X25.8013 Y28.6819 
G01 X25.9281 Y28.8087 
G00 Z2.0000 
G00 X25.9281 Y26.2687 
G01 Z-0.0250 F254.00 
G01 X26.0731 Y26.3741 F508.00 
G01 X26.2328 Y26.4555 
G01 X26.4033 Y26.5109 
G01 X26.5804 Y26.5389 
G01 X26.7596 Y26.5389 
G01 X26.9367 Y26.5109 
G01 X27.1072 Y26.4555 
G01 X27.2669 Y26.3741 
G01 X27.4119 Y26.2687 
G01 X27.5387 Y26.1419 
G01 X27.6441 Y25.9969 
G01 X27.7255 Y25.8372 
G01 X27.7656 Y25.7135 
G01 X27.8080 Y25.7022 
G01 X27.9309 Y25.6312 
G01 X35.4232 Y18.1389 
G01 X40.0709 Y18.1389 
G01 X40.2080 Y18.1022 
G01 X40.3309 Y18.0312 
G01 X41.0232 Y17.3389 
G01 X41.1841 Y17.3389 
G01 X41.1922 Y17.3587 
G01 X41.2313 Y17.3977 
G01 X41.2824 Y17.4189 
G01 X41.8416 Y17.4189 
G01 X41.8967 Y17.4190 
G01 X41.9492 Y17.4221 
G01 X41.9649 Y17.4189 
G01 X42.5376 Y17.4189 
G01 X42.5887 Y17.3977 
G01 X42.6277 Y17.3587 
G01 X42.6359 Y17.3389 
G01 X44.4709 Y17.3389 
G01 X44.6080 Y17.3022 
G01 X44.7309 Y17.2312 
G01 X45.9846 Y15.9775 
G01 X46.0389 Y16.0523 
G01 X46.1777 Y16.1911 
G01 X46.3365 Y16.3064 
G01 X46.5114 Y16.3955 
G01 X46.6980 Y16.4562 
G01 X46.8919 Y16.4869 
G01 X47.0881 Y16.4869 
G01 X47.2820 Y16.4562 
G01 X47.4686 Y16.3955 
G01 X47.6435 Y16.3064 
G01 X47.8023 Y16.1911 
G01 X47.9411 Y16.0523 
G01 X48.0564 Y15.8935 
G01 X48.1455 Y15.7186 
G01 X48.2062 Y15.5320 
G01 X48.2369 Y15.3381 
G01 X48.2369 Y15.1419 
G01 X48.2062 Y14.9480 
G01 X48.1455 Y14.7614 
G01 X48.0564 Y14.5865 
G01 X47.9411 Y14.4277 
G01 X47.8023 Y14.2889 
G01 X47.6435 Y14.1736 
G01 X47.4686 Y14.0845 
G01 X47.2820 Y14.0238 
G01 X47.0881 Y13.9931 
G01 X46.8919 Y13.9931 
G01 X46.6980 Y14.0238 
G01 X46.5114 Y14.0845 
G01 X46.3365 Y14.1736 
G01 X46.1777 Y14.2889 
G01 X46.0389 Y14.4277 
G01 X45.9236 Y14.5865 
G01 X45.8787 Y14.6746 
G01 X45.7920 Y14.6978 
G01 X45.6691 Y14.7688 
G01 X45.5688 Y14.8691 
G01 X44.1768 Y16.2611 
G01 X42.0158 Y16.2611 
G01 X41.9608 Y16.2579 
G01 X41.9451 Y16.2611 
G01 X41.9290 Y16.2611 
G01 X41.8758 Y16.2754 
G01 X41.8218 Y16.2865 
G01 X41.8075 Y16.2937 
G01 X41.8012 Y16.2954 
G01 X41.7369 Y16.2788 
G01 X41.6709 Y16.2611 
G01 X41.6660 Y16.2605 
G01 X41.5974 Y16.2611 
G01 X40.7291 Y16.2611 
G01 X40.5920 Y16.2978 
G01 X40.4691 Y16.3688 
G01 X40.3688 Y16.4691 
G01 X39.7768 Y17.0611 
G01 X35.1290 Y17.0611 
G01 X34.9920 Y17.0978 
G01 X34.8691 Y17.1688 
G01 X34.7688 Y17.2691 
G01 X27.4593 Y24.5786 
G01 X27.4119 Y24.5313 
G01 X27.2669 Y24.4259 
G01 X27.1072 Y24.3445 
G01 X26.9367 Y24.2891 
G01 X26.7596 Y24.2611 
G01 X26.5804 Y24.2611 
G01 X26.4033 Y24.2891 
G01 X26.2328 Y24.3445 
G01 X26.0731 Y24.4259 
G01 X25.9281 Y24.5313 
G01 X25.8013 Y24.6581 
G01 X25.6959 Y24.8031 
G01 X25.6145 Y24.9628 
G01 X25.5591 Y25.1333 
G01 X25.5311 Y25.3104 
G01 X25.5311 Y25.4896 
G01 X25.5591 Y25.6667 
G01 X25.6145 Y25.8372 
G01 X25.6959 Y25.9969 
G01 X25.8013 Y26.1419 
G01 X25.9281 Y26.2687 
G00 Z2.0000 
G00 X25.9281 Y23.7287 
G01 Z-0.0250 F254.00 
G01 X26.0731 Y23.8341 F508.00 
G01 X26.2328 Y23.9155 
G01 X26.4033 Y23.9709 
G01 X26.5804 Y23.9989 
G01 X26.7596 Y23.9989 
G01 X26.9367 Y23.9709 
G01 X27.1072 Y23.9155 
G01 X27.2669 Y23.8341 
G01 X27.4119 Y23.7287 
G01 X27.5387 Y23.6019 
G01 X27.6441 Y23.4569 
G01 X27.7255 Y23.2972 
G01 X27.7809 Y23.1267 
G01 X27.8089 Y22.9496 
G01 X27.8089 Y22.7704 
G01 X27.7809 Y22.5933 
G01 X27.7255 Y22.4228 
G01 X27.6441 Y22.2631 
G01 X27.5387 Y22.1181 
G01 X27.4119 Y21.9913 
G01 X27.2669 Y21.8859 
G01 X27.1072 Y21.8045 
G01 X26.9367 Y21.7491 
G01 X26.7596 Y21.7211 
G01 X26.5804 Y21.7211 
G01 X26.4033 Y21.7491 
G01 X26.2328 Y21.8045 
G01 X26.1890 Y21.8269 
G01 X26.1389 Y21.7768 
G01 X26.1389 Y16.4350 
G01 X26.1435 Y16.3993 
G01 X26.1389 Y16.3644 
G01 X26.1389 Y15.7124 
G01 X26.1178 Y15.6613 
G01 X26.0787 Y15.6222 
G01 X26.0276 Y15.6011 
G01 X25.4350 Y15.6011 
G01 X25.3993 Y15.5965 
G01 X25.3644 Y15.6011 
G01 X24.7724 Y15.6011 
G01 X24.7213 Y15.6222 
G01 X24.6822 Y15.6613 
G01 X24.6611 Y15.7124 
G01 X24.6611 Y16.5676 
G01 X24.6822 Y16.6187 
G01 X24.7213 Y16.6578 
G01 X24.7724 Y16.6789 
G01 X25.0611 Y16.6789 
G01 X25.0611 Y22.0709 
G01 X25.0978 Y22.2080 
G01 X25.1688 Y22.3309 
G01 X25.5417 Y22.7038 
G01 X25.5311 Y22.7704 
G01 X25.5311 Y22.9496 
G01 X25.5591 Y23.1267 
G01 X25.6145 Y23.2972 
G01 X25.6959 Y23.4569 
G01 X25.8013 Y23.6019 
G01 X25.9281 Y23.7287 
G00 Z2.0000 
G00 X23.7287 Y23.6019 
G01 Z-0.0250 F254.00 
G01 X23.8341 Y23.4569 F508.00 
G01 X23.9155 Y23.2972 
G01 X23.9709 Y23.1267 
G01 X23.9989 Y22.9496 
G01 X23.9989 Y22.7704 
G01 X23.9709 Y22.5933 
G01 X23.9155 Y22.4228 
G01 X23.8341 Y22.2631 
G01 X23.7287 Y22.1181 
G01 X23.6019 Y21.9913 
G01 X23.4569 Y21.8859 
G01 X23.2972 Y21.8045 
G01 X23.1267 Y21.7491 
G01 X22.9496 Y21.7211 
G01 X22.7704 Y21.7211 
G01 X22.5933 Y21.7491 
G01 X22.4228 Y21.8045 
G01 X22.2631 Y21.8859 
G01 X22.1181 Y21.9913 
G01 X21.9913 Y22.1181 
G01 X21.8859 Y22.2631 
G01 X21.8045 Y22.4228 
G01 X21.7491 Y22.5933 
G01 X21.7211 Y22.7704 
G01 X21.7211 Y22.9496 
G01 X21.7491 Y23.1267 
G01 X21.8045 Y23.2972 
G01 X21.8859 Y23.4569 
G01 X21.9913 Y23.6019 
G01 X22.1181 Y23.7287 
G01 X22.2631 Y23.8341 
G01 X22.4228 Y23.9155 
G01 X22.5933 Y23.9709 
G01 X22.7704 Y23.9989 
G01 X22.9496 Y23.9989 
G01 X23.1267 Y23.9709 
G01 X23.2972 Y23.9155 
G01 X23.4569 Y23.8341 
G01 X23.6019 Y23.7287 
G01 X23.7287 Y23.6019 
G00 Z2.0000 
G00 X21.1887 Y23.6019 
G01 Z-0.0250 F254.00 
G01 X21.2941 Y23.4569 F508.00 
G01 X21.3755 Y23.2972 
G01 X21.4309 Y23.1267 
G01 X21.4589 Y22.9496 
G01 X21.4589 Y22.7704 
G01 X21.4309 Y22.5933 
G01 X21.3755 Y22.4228 
G01 X21.2941 Y22.2631 
G01 X21.1887 Y22.1181 
G01 X21.0619 Y21.9913 
G01 X20.9169 Y21.8859 
G01 X20.7572 Y21.8045 
G01 X20.5867 Y21.7491 
G01 X20.4096 Y21.7211 
G01 X20.2304 Y21.7211 
G01 X20.0533 Y21.7491 
G01 X19.8828 Y21.8045 
G01 X19.7231 Y21.8859 
G01 X19.5781 Y21.9913 
G01 X19.4513 Y22.1181 
G01 X19.3459 Y22.2631 
G01 X19.2645 Y22.4228 
G01 X19.2091 Y22.5933 
G01 X19.1811 Y22.7704 
G01 X19.1811 Y22.9496 
G01 X19.2091 Y23.1267 
G01 X19.2645 Y23.2972 
G01 X19.3459 Y23.4569 
G01 X19.4513 Y23.6019 
G01 X19.5781 Y23.7287 
G01 X19.7231 Y23.8341 
G01 X19.8828 Y23.9155 
G01 X20.0533 Y23.9709 
G01 X20.2304 Y23.9989 
G01 X20.4096 Y23.9989 
G01 X20.5867 Y23.9709 
G01 X20.7572 Y23.9155 
G01 X20.9169 Y23.8341 
G01 X21.0619 Y23.7287 
G01 X21.1887 Y23.6019 
G00 Z2.0000 
G00 X18.6487 Y23.6019 
G01 Z-0.0250 F254.00 
G01 X18.7541 Y23.4569 F508.00 
G01 X18.8355 Y23.2972 
G01 X18.8909 Y23.1267 
G01 X18.9189 Y22.9496 
G01 X18.9189 Y22.7704 
G01 X18.8909 Y22.5933 
G01 X18.8355 Y22.4228 
G01 X18.7541 Y22.2631 
G01 X18.6487 Y22.1181 
G01 X18.5219 Y21.9913 
G01 X18.3769 Y21.8859 
G01 X18.2172 Y21.8045 
G01 X18.0467 Y21.7491 
G01 X17.8696 Y21.7211 
G01 X17.6904 Y21.7211 
G01 X17.5133 Y21.7491 
G01 X17.3428 Y21.8045 
G01 X17.1831 Y21.8859 
G01 X17.0381 Y21.9913 
G01 X16.9113 Y22.1181 
G01 X16.8059 Y22.2631 
G01 X16.7245 Y22.4228 
G01 X16.6691 Y22.5933 
G01 X16.6411 Y22.7704 
G01 X16.6411 Y22.9496 
G01 X16.6691 Y23.1267 
G01 X16.7245 Y23.2972 
G01 X16.8059 Y23.4569 
G01 X16.9113 Y23.6019 
G01 X17.0381 Y23.7287 
G01 X17.1831 Y23.8341 
G01 X17.3428 Y23.9155 
G01 X17.5133 Y23.9709 
G01 X17.6904 Y23.9989 
G01 X17.8696 Y23.9989 
G01 X18.0467 Y23.9709 
G01 X18.2172 Y23.9155 
G01 X18.3769 Y23.8341 
G01 X18.5219 Y23.7287 
G01 X18.6487 Y23.6019 
G00 Z2.0000 
G00 X24.7213 Y14.8577 
G01 Z-0.0250 F254.00 
G01 X24.7724 Y14.8789 F508.00 
G01 X25.3209 Y14.8789 
G01 X25.3850 Y14.8981 
G01 X25.3920 Y14.9022 
G01 X25.4528 Y14.9185 
G01 X25.5131 Y14.9366 
G01 X25.5212 Y14.9368 
G01 X25.5291 Y14.9389 
G01 X25.5920 Y14.9389 
G01 X25.6549 Y14.9408 
G01 X25.6628 Y14.9389 
G01 X33.3768 Y14.9389 
G01 X34.7688 Y16.3309 
G01 X34.8691 Y16.4312 
G01 X34.9920 Y16.5022 
G01 X35.1290 Y16.5389 
G01 X36.8709 Y16.5389 
G01 X37.0080 Y16.5022 
G01 X37.1309 Y16.4312 
G01 X38.7309 Y14.8312 
G01 X38.8312 Y14.7309 
G01 X38.9022 Y14.6080 
G01 X38.9389 Y14.4709 
G01 X38.9389 Y11.1290 
G01 X38.9022 Y10.9920 
G01 X38.8312 Y10.8691 
G01 X36.8312 Y8.8691 
G01 X36.7309 Y8.7688 
G01 X36.6080 Y8.6978 
G01 X36.4709 Y8.6611 
G01 X36.2201 Y8.6611 
G01 X36.2077 Y8.6313 
G01 X36.1687 Y8.5922 
G01 X36.1176 Y8.5711 
G01 X34.6624 Y8.5711 
G01 X34.6113 Y8.5922 
G01 X34.5722 Y8.6313 
G01 X34.5511 Y8.6824 
G01 X34.5511 Y9.7376 
G01 X34.5722 Y9.7887 
G01 X34.6113 Y9.8277 
G01 X34.6624 Y9.8489 
G01 X36.1176 Y9.8489 
G01 X36.1687 Y9.8277 
G01 X36.2077 Y9.7887 
G01 X36.2133 Y9.7754 
G01 X37.8611 Y11.4232 
G01 X37.8611 Y14.1768 
G01 X36.5768 Y15.4611 
G01 X35.4232 Y15.4611 
G01 X33.9309 Y13.9688 
G01 X33.8080 Y13.8978 
G01 X33.6709 Y13.8611 
G01 X26.1175 Y13.8611 
G01 X26.0787 Y13.8222 
G01 X26.0276 Y13.8011 
G01 X25.4080 Y13.8011 
G01 X25.3451 Y13.7992 
G01 X25.3372 Y13.8011 
G01 X24.7724 Y13.8011 
G01 X24.7213 Y13.8222 
G01 X24.6822 Y13.8613 
G01 X24.6611 Y13.9124 
G01 X24.6611 Y14.7676 
G01 X24.6822 Y14.8187 
G01 X24.7213 Y14.8577 
G00 Z2.0000 
G00 X26.8363 Y11.0128 
G01 Z-0.0250 F254.00 
G01 X26.8874 Y11.0339 F508.00 
G01 X28.2126 Y11.0339 
G01 X28.2637 Y11.0128 
G01 X28.3027 Y10.9737 
G01 X28.3172 Y10.9389 
G01 X32.7367 Y10.9389 
G01 X32.7442 Y10.9407 
G01 X32.8075 Y10.9389 
G01 X32.8709 Y10.9389 
G01 X32.8784 Y10.9369 
G01 X32.8860 Y10.9367 
G01 X32.9468 Y10.9186 
G01 X33.0080 Y10.9022 
G01 X33.0146 Y10.8983 
G01 X33.0220 Y10.8961 
G01 X33.0760 Y10.8629 
G01 X33.1309 Y10.8312 
G01 X33.1363 Y10.8258 
G01 X33.1800 Y10.7989 
G01 X33.9176 Y10.7989 
G01 X33.9687 Y10.7777 
G01 X34.0078 Y10.7387 
G01 X34.0289 Y10.6876 
G01 X34.0289 Y9.6324 
G01 X34.0078 Y9.5813 
G01 X33.9687 Y9.5422 
G01 X33.9176 Y9.5211 
G01 X32.4624 Y9.5211 
G01 X32.4113 Y9.5422 
G01 X32.3722 Y9.5813 
G01 X32.3511 Y9.6324 
G01 X32.3511 Y9.8611 
G01 X30.1389 Y9.8611 
G01 X30.1389 Y5.9145 
G01 X30.1611 Y5.8923 
G01 X30.2764 Y5.7335 
G01 X30.3655 Y5.5586 
G01 X30.4262 Y5.3720 
G01 X30.4569 Y5.1781 
G01 X30.4569 Y4.9819 
G01 X30.4262 Y4.7880 
G01 X30.3655 Y4.6014 
G01 X30.2764 Y4.4265 
G01 X30.1611 Y4.2677 
G01 X30.0223 Y4.1289 
G01 X29.8635 Y4.0136 
G01 X29.6886 Y3.9245 
G01 X29.5020 Y3.8638 
G01 X29.3081 Y3.8331 
G01 X29.1119 Y3.8331 
G01 X28.9180 Y3.8638 
G01 X28.7314 Y3.9245 
G01 X28.5565 Y4.0136 
G01 X28.3977 Y4.1289 
G01 X28.2589 Y4.2677 
G01 X28.1436 Y4.4265 
G01 X28.0545 Y4.6014 
G01 X27.9938 Y4.7880 
G01 X27.9631 Y4.9819 
G01 X27.9631 Y5.1781 
G01 X27.9938 Y5.3720 
G01 X28.0545 Y5.5586 
G01 X28.1436 Y5.7335 
G01 X28.2589 Y5.8923 
G01 X28.3977 Y6.0311 
G01 X28.5565 Y6.1464 
G01 X28.7314 Y6.2355 
G01 X28.9180 Y6.2962 
G01 X29.0611 Y6.3189 
G01 X29.0611 Y9.8611 
G01 X28.3239 Y9.8611 
G01 X28.3239 Y9.3974 
G01 X28.3027 Y9.3463 
G01 X28.2637 Y9.3072 
G01 X28.2126 Y9.2861 
G01 X26.8874 Y9.2861 
G01 X26.8363 Y9.3072 
G01 X26.7972 Y9.3463 
G01 X26.7761 Y9.3974 
G01 X26.7761 Y10.9226 
G01 X26.7972 Y10.9737 
G01 X26.8363 Y11.0128 
G00 Z2.0000 
G00 X34.5511 Y10.5824 
G01 Z-0.0250 F254.00 
G01 X34.5511 Y11.6376 F508.00 
G01 X34.5722 Y11.6887 
G01 X34.6113 Y11.7278 
G01 X34.6624 Y11.7489 
G01 X35.0611 Y11.7489 
G01 X35.0611 Y12.9547 
G01 X35.0259 Y13.0031 
G01 X34.9445 Y13.1628 
G01 X34.8891 Y13.3333 
G01 X34.8611 Y13.5104 
G01 X34.8611 Y13.6896 
G01 X34.8891 Y13.8667 
G01 X34.9445 Y14.0372 
G01 X35.0259 Y14.1969 
G01 X35.1313 Y14.3419 
G01 X35.2581 Y14.4687 
G01 X35.4031 Y14.5741 
G01 X35.5628 Y14.6555 
G01 X35.7333 Y14.7109 
G01 X35.9104 Y14.7389 
G01 X36.0896 Y14.7389 
G01 X36.2667 Y14.7109 
G01 X36.4372 Y14.6555 
G01 X36.5969 Y14.5741 
G01 X36.7419 Y14.4687 
G01 X36.8687 Y14.3419 
G01 X36.9741 Y14.1969 
G01 X37.0555 Y14.0372 
G01 X37.1109 Y13.8667 
G01 X37.1389 Y13.6896 
G01 X37.1389 Y13.5104 
G01 X37.1109 Y13.3333 
G01 X37.0555 Y13.1628 
G01 X36.9741 Y13.0031 
G01 X36.8687 Y12.8581 
G01 X36.7419 Y12.7313 
G01 X36.5969 Y12.6259 
G01 X36.4372 Y12.5445 
G01 X36.2667 Y12.4891 
G01 X36.1389 Y12.4689 
G01 X36.1389 Y11.7401 
G01 X36.1687 Y11.7278 
G01 X36.2077 Y11.6887 
G01 X36.2289 Y11.6376 
G01 X36.2289 Y10.5824 
G01 X36.2077 Y10.5313 
G01 X36.1687 Y10.4922 
G01 X36.1176 Y10.4711 
G01 X34.6624 Y10.4711 
G01 X34.6113 Y10.4922 
G01 X34.5722 Y10.5313 
G01 X34.5511 Y10.5824 
G00 Z2.0000 
G00 X41.1922 Y18.2013 
G01 Z-0.0250 F254.00 
G01 X41.1711 Y18.2524 F508.00 
G01 X41.1711 Y19.1076 
G01 X41.1922 Y19.1587 
G01 X41.2313 Y19.1977 
G01 X41.2824 Y19.2189 
G01 X41.6568 Y19.2189 
G01 X41.6691 Y19.2312 
G01 X41.6974 Y19.2475 
G01 X41.7231 Y19.2677 
G01 X41.7586 Y19.2829 
G01 X41.7920 Y19.3022 
G01 X41.8235 Y19.3106 
G01 X41.8535 Y19.3234 
G01 X41.8918 Y19.3289 
G01 X41.9290 Y19.3389 
G01 X41.9617 Y19.3389 
G01 X41.9940 Y19.3435 
G01 X42.0324 Y19.3389 
G01 X44.1768 Y19.3389 
G01 X45.5688 Y20.7309 
G01 X45.6691 Y20.8312 
G01 X45.7920 Y20.9022 
G01 X45.9023 Y20.9317 
G01 X45.9236 Y20.9735 
G01 X46.0389 Y21.1323 
G01 X46.1777 Y21.2711 
G01 X46.3365 Y21.3864 
G01 X46.5114 Y21.4755 
G01 X46.6980 Y21.5362 
G01 X46.8919 Y21.5669 
G01 X47.0881 Y21.5669 
G01 X47.2820 Y21.5362 
G01 X47.4686 Y21.4755 
G01 X47.6435 Y21.3864 
G01 X47.8023 Y21.2711 
G01 X47.9411 Y21.1323 
G01 X48.0564 Y20.9735 
G01 X48.1455 Y20.7986 
G01 X48.2062 Y20.6120 
G01 X48.2369 Y20.4181 
G01 X48.2369 Y20.2219 
G01 X48.2062 Y20.0280 
G01 X48.1455 Y19.8414 
G01 X48.0564 Y19.6665 
G01 X47.9411 Y19.5077 
G01 X47.8023 Y19.3689 
G01 X47.6435 Y19.2536 
G01 X47.4686 Y19.1645 
G01 X47.2820 Y19.1038 
G01 X47.0881 Y19.0731 
G01 X46.8919 Y19.0731 
G01 X46.6980 Y19.1038 
G01 X46.5114 Y19.1645 
G01 X46.3365 Y19.2536 
G01 X46.1777 Y19.3689 
G01 X46.0389 Y19.5077 
G01 X45.9678 Y19.6056 
G01 X44.7309 Y18.3688 
G01 X44.6080 Y18.2978 
G01 X44.4709 Y18.2611 
G01 X42.6489 Y18.2611 
G01 X42.6489 Y18.2524 
G01 X42.6277 Y18.2013 
G01 X42.5887 Y18.1622 
G01 X42.5376 Y18.1411 
G01 X41.9483 Y18.1411 
G01 X41.9160 Y18.1365 
G01 X41.8776 Y18.1411 
G01 X41.2824 Y18.1411 
G01 X41.2313 Y18.1622 
G01 X41.1922 Y18.2013 
G00 Z2.0000 
G00 X45.8345 Y18.2586 
G01 Z-0.0250 F254.00 
G01 X45.9236 Y18.4335 F508.00 
G01 X46.0389 Y18.5923 
G01 X46.1777 Y18.7311 
G01 X46.3365 Y18.8464 
G01 X46.5114 Y18.9355 
G01 X46.6980 Y18.9962 
G01 X46.8919 Y19.0269 
G01 X47.0881 Y19.0269 
G01 X47.2820 Y18.9962 
G01 X47.4686 Y18.9355 
G01 X47.6435 Y18.8464 
G01 X47.8023 Y18.7311 
G01 X47.8856 Y18.6477 
G01 X49.0611 Y19.8232 
G01 X49.0611 Y32.5768 
G01 X46.9768 Y34.6611 
G01 X42.5618 Y34.6611 
G01 X42.5376 Y34.6511 
G01 X41.9398 Y34.6511 
G01 X41.8990 Y34.6466 
G01 X41.8692 Y34.6511 
G01 X41.2824 Y34.6511 
G01 X41.2313 Y34.6722 
G01 X41.1922 Y34.7113 
G01 X41.1711 Y34.7624 
G01 X41.1711 Y35.6176 
G01 X41.1922 Y35.6687 
G01 X41.2313 Y35.7077 
G01 X41.2824 Y35.7289 
G01 X41.8802 Y35.7289 
G01 X41.8999 Y35.7311 
G01 X41.9290 Y35.7389 
G01 X41.9702 Y35.7389 
G01 X42.0110 Y35.7434 
G01 X42.0408 Y35.7389 
G01 X47.2709 Y35.7389 
G01 X47.4080 Y35.7022 
G01 X47.5309 Y35.6312 
G01 X49.9309 Y33.2312 
G01 X50.0312 Y33.1309 
G01 X50.1022 Y33.0080 
G01 X50.1389 Y32.8709 
G01 X50.1389 Y19.5291 
G01 X50.1022 Y19.3920 
G01 X50.0312 Y19.2691 
G01 X48.4312 Y17.6691 
G01 X48.3309 Y17.5688 
G01 X48.2080 Y17.4978 
G01 X48.2062 Y17.4880 
G01 X48.1455 Y17.3014 
G01 X48.0564 Y17.1265 
G01 X47.9411 Y16.9677 
G01 X47.8023 Y16.8289 
G01 X47.6435 Y16.7136 
G01 X47.4686 Y16.6245 
G01 X47.2820 Y16.5638 
G01 X47.0881 Y16.5331 
G01 X46.8919 Y16.5331 
G01 X46.6980 Y16.5638 
G01 X46.5114 Y16.6245 
G01 X46.3365 Y16.7136 
G01 X46.1777 Y16.8289 
G01 X46.0389 Y16.9677 
G01 X45.9236 Y17.1265 
G01 X45.8345 Y17.3014 
G01 X45.7738 Y17.4880 
G01 X45.7431 Y17.6819 
G01 X45.7431 Y17.8781 
G01 X45.7738 Y18.0720 
G01 X45.8345 Y18.2586 
G00 Z2.0000 
G00 X44.7419 Y28.7313 
G01 Z-0.0250 F254.00 
G01 X44.5969 Y28.6259 F508.00 
G01 X44.4372 Y28.5445 
G01 X44.2667 Y28.4891 
G01 X44.0896 Y28.4611 
G01 X43.9104 Y28.4611 
G01 X43.7333 Y28.4891 
G01 X43.6714 Y28.5093 
G01 X42.6489 Y27.4868 
G01 X42.6489 Y27.1424 
G01 X42.6277 Y27.0913 
G01 X42.5887 Y27.0522 
G01 X42.5376 Y27.0311 
G01 X41.9261 Y27.0311 
G01 X41.8715 Y27.0278 
G01 X41.8554 Y27.0311 
G01 X41.2824 Y27.0311 
G01 X41.2313 Y27.0522 
G01 X41.1922 Y27.0913 
G01 X41.1711 Y27.1424 
G01 X41.1711 Y27.9976 
G01 X41.1922 Y28.0487 
G01 X41.2313 Y28.0877 
G01 X41.2824 Y28.1089 
G01 X41.7468 Y28.1089 
G01 X42.9093 Y29.2714 
G01 X42.8891 Y29.3333 
G01 X42.8611 Y29.5104 
G01 X42.8611 Y29.6896 
G01 X42.8891 Y29.8667 
G01 X42.9445 Y30.0372 
G01 X43.0259 Y30.1969 
G01 X43.1313 Y30.3419 
G01 X43.2581 Y30.4687 
G01 X43.4031 Y30.5741 
G01 X43.5628 Y30.6555 
G01 X43.7333 Y30.7109 
G01 X43.9104 Y30.7389 
G01 X44.0896 Y30.7389 
G01 X44.2667 Y30.7109 
G01 X44.4372 Y30.6555 
G01 X44.5969 Y30.5741 
G01 X44.7419 Y30.4687 
G01 X44.8687 Y30.3419 
G01 X44.9741 Y30.1969 
G01 X45.0555 Y30.0372 
G01 X45.1109 Y29.8667 
G01 X45.1389 Y29.6896 
G01 X45.1389 Y29.5104 
G01 X45.1109 Y29.3333 
G01 X45.0555 Y29.1628 
G01 X44.9741 Y29.0031 
G01 X44.8687 Y28.8581 
G01 X44.7419 Y28.7313 
G00 Z2.0000 
G00 X43.9069 Y45.5638 
G01 Z-0.0250 F254.00 
G01 X43.7619 Y45.4584 F508.00 
G01 X43.6022 Y45.3770 
G01 X43.4317 Y45.3216 
G01 X43.2546 Y45.2936 
G01 X43.0754 Y45.2936 
G01 X42.8983 Y45.3216 
G01 X42.7278 Y45.3770 
G01 X42.5681 Y45.4584 
G01 X42.4231 Y45.5638 
G01 X42.2963 Y45.6906 
G01 X42.1909 Y45.8356 
G01 X42.1095 Y45.9953 
G01 X42.0541 Y46.1658 
G01 X42.0261 Y46.3429 
G01 X42.0261 Y46.5221 
G01 X42.0541 Y46.6992 
G01 X42.1095 Y46.8697 
G01 X42.1909 Y47.0294 
G01 X42.2963 Y47.1744 
G01 X42.4231 Y47.3012 
G01 X42.5681 Y47.4066 
G01 X42.7278 Y47.4880 
G01 X42.8983 Y47.5434 
G01 X43.0754 Y47.5714 
G01 X43.2546 Y47.5714 
G01 X43.4317 Y47.5434 
G01 X43.6022 Y47.4880 
G01 X43.7619 Y47.4066 
G01 X43.9069 Y47.3012 
G01 X44.0337 Y47.1744 
G01 X44.1391 Y47.0294 
G01 X44.2205 Y46.8697 
G01 X44.2759 Y46.6992 
G01 X44.3039 Y46.5221 
G01 X44.3039 Y46.3429 
G01 X44.2759 Y46.1658 
G01 X44.2205 Y45.9953 
G01 X44.1391 Y45.8356 
G01 X44.0337 Y45.6906 
G01 X43.9069 Y45.5638 
G00 Z2.0000 
G00 X43.9069 Y48.1038 
G01 Z-0.0250 F254.00 
G01 X43.7619 Y47.9984 F508.00 
G01 X43.6022 Y47.9170 
G01 X43.4317 Y47.8616 
G01 X43.2546 Y47.8336 
G01 X43.0754 Y47.8336 
G01 X42.8983 Y47.8616 
G01 X42.7278 Y47.9170 
G01 X42.5681 Y47.9984 
G01 X42.4231 Y48.1038 
G01 X42.2963 Y48.2306 
G01 X42.1909 Y48.3756 
G01 X42.1095 Y48.5353 
G01 X42.0541 Y48.7058 
G01 X42.0261 Y48.8829 
G01 X42.0261 Y49.0621 
G01 X42.0541 Y49.2392 
G01 X42.1095 Y49.4097 
G01 X42.1909 Y49.5694 
G01 X42.2963 Y49.7144 
G01 X42.4231 Y49.8412 
G01 X42.5681 Y49.9466 
G01 X42.7278 Y50.0280 
G01 X42.8983 Y50.0834 
G01 X43.0754 Y50.1114 
G01 X43.2546 Y50.1114 
G01 X43.4317 Y50.0834 
G01 X43.6022 Y50.0280 
G01 X43.7619 Y49.9466 
G01 X43.9069 Y49.8412 
G01 X44.0337 Y49.7144 
G01 X44.1391 Y49.5694 
G01 X44.2205 Y49.4097 
G01 X44.2759 Y49.2392 
G01 X44.3039 Y49.0621 
G01 X44.3039 Y48.8829 
G01 X44.2759 Y48.7058 
G01 X44.2205 Y48.5353 
G01 X44.1391 Y48.3756 
G01 X44.0337 Y48.2306 
G01 X43.9069 Y48.1038 
G00 Z2.0000 
G00 X44.8363 Y48.2306 
G01 Z-0.0250 F254.00 
G01 X44.7309 Y48.3756 F508.00 
G01 X44.6495 Y48.5353 
G01 X44.5941 Y48.7058 
G01 X44.5661 Y48.8829 
G01 X44.5661 Y49.0621 
G01 X44.5941 Y49.2392 
G01 X44.6495 Y49.4097 
G01 X44.7309 Y49.5694 
G01 X44.8363 Y49.7144 
G01 X44.9631 Y49.8412 
G01 X45.1081 Y49.9466 
G01 X45.2678 Y50.0280 
G01 X45.4383 Y50.0834 
G01 X45.6154 Y50.1114 
G01 X45.7946 Y50.1114 
G01 X45.9717 Y50.0834 
G01 X46.1422 Y50.0280 
G01 X46.3019 Y49.9466 
G01 X46.4469 Y49.8412 
G01 X46.5737 Y49.7144 
G01 X46.6791 Y49.5694 
G01 X46.7605 Y49.4097 
G01 X46.8159 Y49.2392 
G01 X46.8439 Y49.0621 
G01 X46.8439 Y48.8829 
G01 X46.8159 Y48.7058 
G01 X46.7605 Y48.5353 
G01 X46.6791 Y48.3756 
G01 X46.5737 Y48.2306 
G01 X46.4469 Y48.1038 
G01 X46.3019 Y47.9984 
G01 X46.1422 Y47.9170 
G01 X45.9717 Y47.8616 
G01 X45.7946 Y47.8336 
G01 X45.6154 Y47.8336 
G01 X45.4383 Y47.8616 
G01 X45.2678 Y47.9170 
G01 X45.1081 Y47.9984 
G01 X44.9631 Y48.1038 
G01 X44.8363 Y48.2306 
G00 Z2.0000 
G00 X41.4937 Y48.2306 
G01 Z-0.0250 F254.00 
G01 X41.3669 Y48.1038 F508.00 
G01 X41.2219 Y47.9984 
G01 X41.0622 Y47.9170 
G01 X40.8917 Y47.8616 
G01 X40.7146 Y47.8336 
G01 X40.5354 Y47.8336 
G01 X40.3583 Y47.8616 
G01 X40.1878 Y47.9170 
G01 X40.0281 Y47.9984 
G01 X39.8831 Y48.1038 
G01 X39.7563 Y48.2306 
G01 X39.6509 Y48.3756 
G01 X39.5695 Y48.5353 
G01 X39.5141 Y48.7058 
G01 X39.4861 Y48.8829 
G01 X39.4861 Y49.0621 
G01 X39.5141 Y49.2392 
G01 X39.5695 Y49.4097 
G01 X39.6509 Y49.5694 
G01 X39.7563 Y49.7144 
G01 X39.8831 Y49.8412 
G01 X40.0281 Y49.9466 
G01 X40.1878 Y50.0280 
G01 X40.3583 Y50.0834 
G01 X40.5354 Y50.1114 
G01 X40.7146 Y50.1114 
G01 X40.8917 Y50.0834 
G01 X41.0622 Y50.0280 
G01 X41.2219 Y49.9466 
G01 X41.3669 Y49.8412 
G01 X41.4937 Y49.7144 
G01 X41.5991 Y49.5694 
G01 X41.6805 Y49.4097 
G01 X41.7359 Y49.2392 
G01 X41.7639 Y49.0621 
G01 X41.7639 Y48.8829 
G01 X41.7359 Y48.7058 
G01 X41.6805 Y48.5353 
G01 X41.5991 Y48.3756 
G01 X41.4937 Y48.2306 
G00 Z2.0000 
G00 X29.8887 Y59.1922 
G01 Z-0.0250 F254.00 
G01 X29.8376 Y59.1711 F508.00 
G01 X28.5824 Y59.1711 
G01 X28.5313 Y59.1922 
G01 X28.4922 Y59.2313 
G01 X28.4711 Y59.2824 
G01 X28.4711 Y59.4611 
G01 X25.5689 Y59.4611 
G01 X25.5689 Y59.0624 
G01 X25.5478 Y59.0113 
G01 X25.5087 Y58.9722 
G01 X25.4576 Y58.9511 
G01 X24.6024 Y58.9511 
G01 X24.5513 Y58.9722 
G01 X24.5122 Y59.0113 
G01 X24.4911 Y59.0624 
G01 X24.4911 Y59.6840 
G01 X24.4897 Y59.7491 
G01 X24.4911 Y59.7549 
G01 X24.4911 Y60.3176 
G01 X24.5122 Y60.3687 
G01 X24.5513 Y60.4078 
G01 X24.6024 Y60.4289 
G01 X24.8668 Y60.4289 
G01 X24.9254 Y60.4637 
G01 X24.9810 Y60.4975 
G01 X24.9868 Y60.4992 
G01 X24.9920 Y60.5022 
G01 X25.0548 Y60.5190 
G01 X25.1172 Y60.5372 
G01 X25.1232 Y60.5373 
G01 X25.1290 Y60.5389 
G01 X25.1940 Y60.5389 
G01 X25.2591 Y60.5403 
G01 X25.2649 Y60.5389 
G01 X28.4716 Y60.5389 
G01 X28.4922 Y60.5887 
G01 X28.5313 Y60.6277 
G01 X28.5824 Y60.6489 
G01 X29.8376 Y60.6489 
G01 X29.8887 Y60.6277 
G01 X29.9277 Y60.5887 
G01 X29.9489 Y60.5376 
G01 X29.9489 Y59.2824 
G01 X29.9277 Y59.2313 
G01 X29.8887 Y59.1922 
G00 Z2.0000 
G00 X29.9685 Y67.8663 
G01 Z-0.0250 F254.00 
G01 X29.9474 Y67.9174 F508.00 
G01 X29.9474 Y71.7826 
G01 X29.9685 Y71.8337 
G01 X30.0076 Y71.8727 
G01 X30.0587 Y71.8939 
G01 X32.1205 Y71.8939 
G01 X32.1716 Y71.8727 
G01 X32.2107 Y71.8337 
G01 X32.2318 Y71.7826 
G01 X32.2318 Y67.9174 
G01 X32.2107 Y67.8663 
G01 X32.1716 Y67.8272 
G01 X32.1205 Y67.8061 
G01 X30.0587 Y67.8061 
G01 X30.0076 Y67.8272 
G01 X29.9685 Y67.8663 
G00 Z2.0000 
G00 X25.9326 Y68.3155 
G01 Z-0.0250 F254.00 
G01 X25.9326 Y66.7617 F508.00 
G01 X25.9114 Y66.7106 
G01 X25.8724 Y66.6715 
G01 X25.8213 Y66.6504 
G01 X24.6125 Y66.6504 
G01 X21.2989 Y63.3368 
G01 X21.2989 Y61.8724 
G01 X21.2778 Y61.8213 
G01 X21.2387 Y61.7822 
G01 X21.1876 Y61.7611 
G01 X19.3524 Y61.7611 
G01 X19.3013 Y61.7822 
G01 X19.2622 Y61.8213 
G01 X19.2411 Y61.8724 
G01 X19.2411 Y65.1276 
G01 X19.2622 Y65.1787 
G01 X19.3013 Y65.2177 
G01 X19.3524 Y65.2389 
G01 X21.1876 Y65.2389 
G01 X21.2387 Y65.2177 
G01 X21.2778 Y65.1787 
G01 X21.2989 Y65.1276 
G01 X21.2989 Y64.8610 
G01 X23.6482 Y67.2103 
G01 X23.6482 Y68.3155 
G01 X23.6693 Y68.3666 
G01 X23.7084 Y68.4056 
G01 X23.7595 Y68.4268 
G01 X25.8213 Y68.4268 
G01 X25.8724 Y68.4056 
G01 X25.9114 Y68.3666 
G01 X25.9326 Y68.3155 
G00 Z2.0000 
G00 X17.3223 Y70.1689 
G01 Z-0.0250 F254.00 
G01 X17.1635 Y70.0536 F508.00 
G01 X16.9886 Y69.9645 
G01 X16.8020 Y69.9038 
G01 X16.6081 Y69.8731 
G01 X16.4119 Y69.8731 
G01 X16.2180 Y69.9038 
G01 X16.0314 Y69.9645 
G01 X15.8565 Y70.0536 
G01 X15.6977 Y70.1689 
G01 X15.5589 Y70.3077 
G01 X15.4436 Y70.4665 
G01 X15.3545 Y70.6414 
G01 X15.2938 Y70.8280 
G01 X15.2631 Y71.0219 
G01 X15.2631 Y71.2181 
G01 X15.2938 Y71.4120 
G01 X15.3545 Y71.5986 
G01 X15.4436 Y71.7735 
G01 X15.5589 Y71.9323 
G01 X15.6977 Y72.0711 
G01 X15.8565 Y72.1864 
G01 X16.0314 Y72.2755 
G01 X16.2180 Y72.3362 
G01 X16.4119 Y72.3669 
G01 X16.6081 Y72.3669 
G01 X16.8020 Y72.3362 
G01 X16.9886 Y72.2755 
G01 X17.1635 Y72.1864 
G01 X17.3223 Y72.0711 
G01 X17.4611 Y71.9323 
G01 X17.5764 Y71.7735 
G01 X17.6655 Y71.5986 
G01 X17.7262 Y71.4120 
G01 X17.7569 Y71.2181 
G01 X17.7569 Y71.0219 
G01 X17.7262 Y70.8280 
G01 X17.6655 Y70.6414 
G01 X17.5764 Y70.4665 
G01 X17.4611 Y70.3077 
G01 X17.3223 Y70.1689 
G00 Z2.0000 
G00 X14.7823 Y70.1689 
G01 Z-0.0250 F254.00 
G01 X14.6235 Y70.0536 F508.00 
G01 X14.4486 Y69.9645 
G01 X14.2620 Y69.9038 
G01 X14.0681 Y69.8731 
G01 X13.8719 Y69.8731 
G01 X13.6780 Y69.9038 
G01 X13.4914 Y69.9645 
G01 X13.3165 Y70.0536 
G01 X13.1577 Y70.1689 
G01 X13.0189 Y70.3077 
G01 X12.9036 Y70.4665 
G01 X12.8145 Y70.6414 
G01 X12.7538 Y70.8280 
G01 X12.7231 Y71.0219 
G01 X12.7231 Y71.2181 
G01 X12.7538 Y71.4120 
G01 X12.8145 Y71.5986 
G01 X12.9036 Y71.7735 
G01 X13.0189 Y71.9323 
G01 X13.1577 Y72.0711 
G01 X13.3165 Y72.1864 
G01 X13.4914 Y72.2755 
G01 X13.6780 Y72.3362 
G01 X13.8719 Y72.3669 
G01 X14.0681 Y72.3669 
G01 X14.2620 Y72.3362 
G01 X14.4486 Y72.2755 
G01 X14.6235 Y72.1864 
G01 X14.7823 Y72.0711 
G01 X14.9211 Y71.9323 
G01 X15.0364 Y71.7735 
G01 X15.1255 Y71.5986 
G01 X15.1862 Y71.4120 
G01 X15.2169 Y71.2181 
G01 X15.2169 Y71.0219 
G01 X15.1862 Y70.8280 
G01 X15.1255 Y70.6414 
G01 X15.0364 Y70.4665 
G01 X14.9211 Y70.3077 
G01 X14.7823 Y70.1689 
G00 Z2.0000 
G00 X12.2423 Y70.1689 
G01 Z-0.0250 F254.00 
G01 X12.1389 Y70.0938 F508.00 
G01 X12.1389 Y68.9639 
G01 X12.1926 Y68.9639 
G01 X12.2437 Y68.9428 
G01 X12.2828 Y68.9037 
G01 X12.3039 Y68.8526 
G01 X12.3039 Y67.5274 
G01 X12.2828 Y67.4763 
G01 X12.2437 Y67.4372 
G01 X12.1926 Y67.4161 
G01 X10.6674 Y67.4161 
G01 X10.6163 Y67.4372 
G01 X10.5772 Y67.4763 
G01 X10.5561 Y67.5274 
G01 X10.5561 Y68.8526 
G01 X10.5772 Y68.9037 
G01 X10.6163 Y68.9428 
G01 X10.6674 Y68.9639 
G01 X11.0611 Y68.9639 
G01 X11.0611 Y69.9288 
G01 X10.9514 Y69.9645 
G01 X10.7765 Y70.0536 
G01 X10.6177 Y70.1689 
G01 X10.4789 Y70.3077 
G01 X10.3636 Y70.4665 
G01 X10.2745 Y70.6414 
G01 X10.2138 Y70.8280 
G01 X10.1831 Y71.0219 
G01 X10.1831 Y71.2181 
G01 X10.2138 Y71.4120 
G01 X10.2745 Y71.5986 
G01 X10.3636 Y71.7735 
G01 X10.4789 Y71.9323 
G01 X10.6177 Y72.0711 
G01 X10.7765 Y72.1864 
G01 X10.9514 Y72.2755 
G01 X11.1380 Y72.3362 
G01 X11.3319 Y72.3669 
G01 X11.5281 Y72.3669 
G01 X11.7220 Y72.3362 
G01 X11.9086 Y72.2755 
G01 X12.0835 Y72.1864 
G01 X12.2423 Y72.0711 
G01 X12.3811 Y71.9323 
G01 X12.4964 Y71.7735 
G01 X12.5855 Y71.5986 
G01 X12.6462 Y71.4120 
G01 X12.6769 Y71.2181 
G01 X12.6769 Y71.0219 
G01 X12.6462 Y70.8280 
G01 X12.5855 Y70.6414 
G01 X12.4964 Y70.4665 
G01 X12.3811 Y70.3077 
G01 X12.2423 Y70.1689 
G00 Z2.0000 
G00 X7.1623 Y70.1689 
G01 Z-0.0250 F254.00 
G01 X7.0035 Y70.0536 F508.00 
G01 X6.8286 Y69.9645 
G01 X6.6420 Y69.9038 
G01 X6.4481 Y69.8731 
G01 X6.2519 Y69.8731 
G01 X6.0580 Y69.9038 
G01 X5.8714 Y69.9645 
G01 X5.6965 Y70.0536 
G01 X5.5377 Y70.1689 
G01 X5.3989 Y70.3077 
G01 X5.2836 Y70.4665 
G01 X5.1945 Y70.6414 
G01 X5.1338 Y70.8280 
G01 X5.1031 Y71.0219 
G01 X5.1031 Y71.2181 
G01 X5.1338 Y71.4120 
G01 X5.1945 Y71.5986 
G01 X5.2836 Y71.7735 
G01 X5.3989 Y71.9323 
G01 X5.5377 Y72.0711 
G01 X5.6965 Y72.1864 
G01 X5.8714 Y72.2755 
G01 X6.0580 Y72.3362 
G01 X6.2519 Y72.3669 
G01 X6.4481 Y72.3669 
G01 X6.6420 Y72.3362 
G01 X6.8286 Y72.2755 
G01 X7.0035 Y72.1864 
G01 X7.1623 Y72.0711 
G01 X7.3011 Y71.9323 
G01 X7.4164 Y71.7735 
G01 X7.5055 Y71.5986 
G01 X7.5662 Y71.4120 
G01 X7.5969 Y71.2181 
G01 X7.5969 Y71.0219 
G01 X7.5662 Y70.8280 
G01 X7.5055 Y70.6414 
G01 X7.4164 Y70.4665 
G01 X7.3011 Y70.3077 
G01 X7.1623 Y70.1689 
G00 Z2.0000 
G00 X46.2161 Y71.5434 
G01 Z-0.0250 F254.00 
G01 X46.2161 Y73.2366 F508.00 
G01 X47.4134 Y74.4339 
G01 X49.1066 Y74.4339 
G01 X50.3039 Y73.2366 
G01 X50.3039 Y71.5434 
G01 X49.1066 Y70.3461 
G01 X47.4134 Y70.3461 
G01 X46.2161 Y71.5434 
G00 Z2.0000 
G00 X47.4134 Y5.8539 
G01 Z-0.0250 F254.00 
G01 X49.1066 Y5.8539 F508.00 
G01 X50.3039 Y4.6566 
G01 X50.3039 Y2.9634 
G01 X49.1066 Y1.7661 
G01 X47.4134 Y1.7661 
G01 X46.2161 Y2.9634 
G01 X46.2161 Y4.6566 
G01 X47.4134 Y5.8539 
G00 Z2.0000 
G00 X1.6661 Y2.9220 
G01 Z-0.0250 F254.00 
G01 X1.6661 Y4.6980 F508.00 
G01 X2.9220 Y5.9539 
G01 X4.6980 Y5.9539 
G01 X5.9539 Y4.6980 
G01 X5.9539 Y2.9220 
G01 X4.6980 Y1.6661 
G01 X2.9220 Y1.6661 
G01 X1.6661 Y2.9220 
G00 Z2.0000 
G00 X6.3037 Y7.1927 
G01 Z-0.0250 F254.00 
G01 X6.2338 Y7.2974 F508.00 
G01 X6.1857 Y7.4136 
G01 X6.1611 Y7.5371 
G01 X6.1611 Y9.1861 
G01 X6.0575 Y9.1861 
G01 X5.9697 Y9.2225 
G01 X5.9025 Y9.2897 
G01 X5.8661 Y9.3775 
G01 X5.8661 Y10.0304 
G01 X4.7037 Y11.1927 
G01 X4.6338 Y11.2974 
G01 X4.5857 Y11.4136 
G01 X4.5611 Y11.5371 
G01 X4.5611 Y20.8629 
G01 X4.5857 Y20.9864 
G01 X4.6338 Y21.1026 
G01 X4.7037 Y21.2073 
G01 X4.7927 Y21.2963 
G01 X5.3611 Y21.8646 
G01 X5.3611 Y62.8042 
G01 X5.3411 Y62.8525 
G01 X5.3411 Y63.4374 
G01 X5.3411 Y63.4790 
G01 X5.3383 Y63.5203 
G01 X5.3411 Y63.5415 
G01 X5.3411 Y64.1475 
G01 X5.3775 Y64.2353 
G01 X5.4447 Y64.3025 
G01 X5.5325 Y64.3389 
G01 X6.4275 Y64.3389 
G01 X6.5153 Y64.3025 
G01 X6.5790 Y64.2389 
G01 X10.4561 Y64.2389 
G01 X10.4561 Y64.5725 
G01 X10.4925 Y64.6603 
G01 X10.5597 Y64.7275 
G01 X10.6475 Y64.7639 
G01 X12.2125 Y64.7639 
G01 X12.3003 Y64.7275 
G01 X12.3675 Y64.6603 
G01 X12.4039 Y64.5725 
G01 X12.4039 Y64.2389 
G01 X14.1611 Y64.2389 
G01 X14.1611 Y65.1475 
G01 X14.1975 Y65.2353 
G01 X14.2647 Y65.3025 
G01 X14.3525 Y65.3389 
G01 X16.2275 Y65.3389 
G01 X16.3153 Y65.3025 
G01 X16.3825 Y65.2353 
G01 X16.4189 Y65.1475 
G01 X16.4189 Y61.8525 
G01 X16.3825 Y61.7647 
G01 X16.3153 Y61.6975 
G01 X16.2275 Y61.6611 
G01 X14.3525 Y61.6611 
G01 X14.2647 Y61.6975 
G01 X14.1975 Y61.7647 
G01 X14.1611 Y61.8525 
G01 X14.1611 Y62.9611 
G01 X11.6440 Y62.9611 
G01 X11.6252 Y62.9585 
G01 X11.5812 Y62.9611 
G01 X11.5371 Y62.9611 
G01 X11.5185 Y62.9648 
G01 X11.4996 Y62.9659 
G01 X11.4569 Y62.9770 
G01 X11.4136 Y62.9857 
G01 X11.4000 Y62.9913 
G01 X11.3864 Y62.9857 
G01 X11.3607 Y62.9805 
G01 X11.3357 Y62.9725 
G01 X11.2991 Y62.9683 
G01 X11.2629 Y62.9611 
G01 X11.2367 Y62.9611 
G01 X11.2107 Y62.9581 
G01 X11.1739 Y62.9611 
G01 X6.6389 Y62.9611 
G01 X6.6389 Y21.5371 
G01 X6.6143 Y21.4136 
G01 X6.5662 Y21.2974 
G01 X6.4963 Y21.1927 
G01 X5.8389 Y20.5354 
G01 X5.8389 Y11.8646 
G01 X6.5696 Y11.1339 
G01 X7.4225 Y11.1339 
G01 X7.5103 Y11.0975 
G01 X7.5775 Y11.0303 
G01 X7.6139 Y10.9425 
G01 X7.6139 Y9.3775 
G01 X7.5775 Y9.2897 
G01 X7.5103 Y9.2225 
G01 X7.4389 Y9.1929 
G01 X7.4389 Y7.8646 
G01 X11.7794 Y3.5242 
G01 X11.8226 Y3.5674 
G01 X11.9941 Y3.6920 
G01 X12.1830 Y3.7882 
G01 X12.2500 Y3.8100 
G01 X12.1830 Y3.8318 
G01 X11.9941 Y3.9280 
G01 X11.8226 Y4.0526 
G01 X11.6726 Y4.2026 
G01 X11.5480 Y4.3741 
G01 X11.4518 Y4.5630 
G01 X11.3863 Y4.7646 
G01 X11.3531 Y4.9740 
G01 X11.3531 Y5.1860 
G01 X11.3863 Y5.3954 
G01 X11.4518 Y5.5970 
G01 X11.5480 Y5.7859 
G01 X11.6726 Y5.9574 
G01 X11.8226 Y6.1074 
G01 X11.9941 Y6.2320 
G01 X12.1611 Y6.3171 
G01 X12.1611 Y9.7611 
G01 X11.9139 Y9.7611 
G01 X11.9139 Y9.3775 
G01 X11.8775 Y9.2897 
G01 X11.8103 Y9.2225 
G01 X11.7225 Y9.1861 
G01 X10.3575 Y9.1861 
G01 X10.2697 Y9.2225 
G01 X10.2025 Y9.2897 
G01 X10.1661 Y9.3775 
G01 X10.1661 Y10.9425 
G01 X10.2025 Y11.0303 
G01 X10.2697 Y11.0975 
G01 X10.3575 Y11.1339 
G01 X11.7225 Y11.1339 
G01 X11.8103 Y11.0975 
G01 X11.8690 Y11.0389 
G01 X16.3755 Y11.0389 
G01 X16.4137 Y11.0418 
G01 X16.4382 Y11.0389 
G01 X16.4629 Y11.0389 
G01 X16.5006 Y11.0314 
G01 X16.5387 Y11.0268 
G01 X16.5622 Y11.0192 
G01 X16.5864 Y11.0143 
G01 X16.6218 Y10.9997 
G01 X16.6583 Y10.9877 
G01 X16.6798 Y10.9756 
G01 X16.7026 Y10.9662 
G01 X16.7346 Y10.9449 
G01 X16.7680 Y10.9260 
G01 X16.7868 Y10.9100 
G01 X16.8033 Y10.8989 
G01 X17.4275 Y10.8989 
G01 X17.5153 Y10.8625 
G01 X17.5825 Y10.7953 
G01 X17.6189 Y10.7075 
G01 X17.6189 Y9.6125 
G01 X17.5825 Y9.5247 
G01 X17.5153 Y9.4575 
G01 X17.4275 Y9.4211 
G01 X15.9325 Y9.4211 
G01 X15.8447 Y9.4575 
G01 X15.7775 Y9.5247 
G01 X15.7411 Y9.6125 
G01 X15.7411 Y9.7611 
G01 X13.4389 Y9.7611 
G01 X13.4389 Y6.2080 
G01 X13.5774 Y6.1074 
G01 X13.7274 Y5.9574 
G01 X13.8520 Y5.7859 
G01 X13.9482 Y5.5970 
G01 X14.0137 Y5.3954 
G01 X14.0469 Y5.1860 
G01 X14.0469 Y4.9740 
G01 X14.0137 Y4.7646 
G01 X13.9482 Y4.5630 
G01 X13.8520 Y4.3741 
G01 X13.7274 Y4.2026 
G01 X13.5774 Y4.0526 
G01 X13.4059 Y3.9280 
G01 X13.2170 Y3.8318 
G01 X13.1500 Y3.8100 
G01 X13.2170 Y3.7882 
G01 X13.4059 Y3.6920 
G01 X13.5774 Y3.5674 
G01 X13.7206 Y3.4242 
G01 X17.5927 Y7.2963 
G01 X17.6974 Y7.3662 
G01 X17.8136 Y7.4143 
G01 X17.9371 Y7.4389 
G01 X22.9611 Y7.4389 
G01 X22.9611 Y9.1861 
G01 X22.5675 Y9.1861 
G01 X22.4797 Y9.2225 
G01 X22.4125 Y9.2897 
G01 X22.3761 Y9.3775 
G01 X22.3761 Y10.9425 
G01 X22.4125 Y11.0303 
G01 X22.4797 Y11.0975 
G01 X22.5675 Y11.1339 
G01 X23.9325 Y11.1339 
G01 X24.0203 Y11.0975 
G01 X24.0875 Y11.0303 
G01 X24.1239 Y10.9425 
G01 X24.1239 Y10.3676 
G01 X24.1376 Y10.3454 
G01 X24.1662 Y10.3026 
G01 X24.1706 Y10.2919 
G01 X24.1767 Y10.2820 
G01 X24.1947 Y10.2338 
G01 X24.2143 Y10.1864 
G01 X24.2166 Y10.1750 
G01 X24.2207 Y10.1641 
G01 X24.2289 Y10.1133 
G01 X24.2389 Y10.0629 
G01 X24.2389 Y10.0513 
G01 X24.2407 Y10.0398 
G01 X24.2389 Y9.9885 
G01 X24.2389 Y7.4646 
G01 X24.2963 Y7.4073 
G01 X28.2344 Y3.4692 
G01 X28.3326 Y3.5674 
G01 X28.5041 Y3.6920 
G01 X28.6930 Y3.7882 
G01 X28.7600 Y3.8100 
G01 X28.6930 Y3.8318 
G01 X28.5041 Y3.9280 
G01 X28.3326 Y4.0526 
G01 X28.1826 Y4.2026 
G01 X28.0580 Y4.3741 
G01 X27.9618 Y4.5630 
G01 X27.8963 Y4.7646 
G01 X27.8631 Y4.9740 
G01 X27.8631 Y5.1860 
G01 X27.8963 Y5.3954 
G01 X27.9618 Y5.5970 
G01 X28.0580 Y5.7859 
G01 X28.1826 Y5.9574 
G01 X28.3326 Y6.1074 
G01 X28.5041 Y6.2320 
G01 X28.6930 Y6.3282 
G01 X28.8946 Y6.3937 
G01 X28.9611 Y6.4043 
G01 X28.9611 Y9.7611 
G01 X28.4239 Y9.7611 
G01 X28.4239 Y9.3775 
G01 X28.3875 Y9.2897 
G01 X28.3203 Y9.2225 
G01 X28.2325 Y9.1861 
G01 X26.8675 Y9.1861 
G01 X26.7797 Y9.2225 
G01 X26.7125 Y9.2897 
G01 X26.6761 Y9.3775 
G01 X26.6761 Y10.9425 
G01 X26.7125 Y11.0303 
G01 X26.7797 Y11.0975 
G01 X26.8675 Y11.1339 
G01 X28.2325 Y11.1339 
G01 X28.3203 Y11.0975 
G01 X28.3790 Y11.0389 
G01 X32.7881 Y11.0389 
G01 X32.8390 Y11.0408 
G01 X32.8509 Y11.0389 
G01 X32.8629 Y11.0389 
G01 X32.9129 Y11.0290 
G01 X32.9633 Y11.0209 
G01 X32.9746 Y11.0167 
G01 X32.9864 Y11.0143 
G01 X33.0335 Y10.9948 
G01 X33.0813 Y10.9771 
G01 X33.0915 Y10.9708 
G01 X33.1026 Y10.9662 
G01 X33.1450 Y10.9378 
G01 X33.2083 Y10.8989 
G01 X33.9375 Y10.8989 
G01 X34.0253 Y10.8625 
G01 X34.0925 Y10.7953 
G01 X34.1289 Y10.7075 
G01 X34.1289 Y9.6125 
G01 X34.0925 Y9.5247 
G01 X34.0253 Y9.4575 
G01 X33.9375 Y9.4211 
G01 X32.4425 Y9.4211 
G01 X32.3547 Y9.4575 
G01 X32.2875 Y9.5247 
G01 X32.2511 Y9.6125 
G01 X32.2511 Y9.7611 
G01 X30.2389 Y9.7611 
G01 X30.2389 Y5.9553 
G01 X30.3620 Y5.7859 
G01 X30.4582 Y5.5970 
G01 X30.5237 Y5.3954 
G01 X30.5569 Y5.1860 
G01 X30.5569 Y4.9740 
G01 X30.5237 Y4.7646 
G01 X30.4582 Y4.5630 
G01 X30.3620 Y4.3741 
G01 X30.2374 Y4.2026 
G01 X30.0874 Y4.0526 
G01 X29.9159 Y3.9280 
G01 X29.7270 Y3.8318 
G01 X29.6600 Y3.8100 
G01 X29.7270 Y3.7882 
G01 X29.9159 Y3.6920 
G01 X30.0874 Y3.5674 
G01 X30.2374 Y3.4174 
G01 X30.3620 Y3.2459 
G01 X30.4582 Y3.0570 
G01 X30.5237 Y2.8554 
G01 X30.5569 Y2.6460 
G01 X30.5569 Y2.4340 
G01 X30.5237 Y2.2246 
G01 X30.4582 Y2.0230 
G01 X30.3620 Y1.8341 
G01 X30.2374 Y1.6626 
G01 X30.0874 Y1.5126 
G01 X29.9159 Y1.3880 
G01 X29.7270 Y1.2918 
G01 X29.5254 Y1.2263 
G01 X29.3160 Y1.1931 
G01 X29.1040 Y1.1931 
G01 X28.8946 Y1.2263 
G01 X28.6930 Y1.2918 
G01 X28.5041 Y1.3880 
G01 X28.3326 Y1.5126 
G01 X28.1826 Y1.6626 
G01 X28.0580 Y1.8341 
G01 X28.0379 Y1.8735 
G01 X27.9927 Y1.9037 
G01 X27.9037 Y1.9927 
G01 X23.7233 Y6.1731 
G01 X23.6629 Y6.1611 
G01 X18.2646 Y6.1611 
G01 X14.0963 Y1.9927 
G01 X14.0073 Y1.9037 
G01 X13.9026 Y1.8338 
G01 X13.8299 Y1.8037 
G01 X13.7274 Y1.6626 
G01 X13.5774 Y1.5126 
G01 X13.4059 Y1.3880 
G01 X13.2170 Y1.2918 
G01 X13.0154 Y1.2263 
G01 X12.8060 Y1.1931 
G01 X12.5940 Y1.1931 
G01 X12.3846 Y1.2263 
G01 X12.1830 Y1.2918 
G01 X11.9941 Y1.3880 
G01 X11.8226 Y1.5126 
G01 X11.6726 Y1.6626 
G01 X11.5480 Y1.8341 
G01 X11.4518 Y2.0230 
G01 X11.4413 Y2.0551 
G01 X6.3037 Y7.1927 
G00 Z2.0000 
G00 X6.3037 Y13.1927 
G01 Z-0.0250 F254.00 
G01 X6.2338 Y13.2974 F508.00 
G01 X6.1857 Y13.4136 
G01 X6.1611 Y13.5371 
G01 X6.1611 Y20.0629 
G01 X6.1857 Y20.1864 
G01 X6.2338 Y20.3026 
G01 X6.3037 Y20.4073 
G01 X6.9611 Y21.0646 
G01 X6.9611 Y54.0629 
G01 X6.9857 Y54.1864 
G01 X7.0338 Y54.3026 
G01 X7.1037 Y54.4073 
G01 X13.1037 Y60.4073 
G01 X13.1927 Y60.4963 
G01 X13.2974 Y60.5662 
G01 X13.4136 Y60.6143 
G01 X13.5371 Y60.6389 
G01 X17.3611 Y60.6389 
G01 X17.3611 Y65.7611 
G01 X14.2646 Y65.7611 
G01 X14.0073 Y65.5037 
G01 X13.9026 Y65.4338 
G01 X13.7864 Y65.3857 
G01 X13.6629 Y65.3611 
G01 X4.6389 Y65.3611 
G01 X4.6389 Y64.3342 
G01 X4.7153 Y64.3025 
G01 X4.7825 Y64.2353 
G01 X4.8189 Y64.1475 
G01 X4.8189 Y63.5262 
G01 X4.8219 Y63.4896 
G01 X4.8189 Y63.4634 
G01 X4.8189 Y62.8525 
G01 X4.7825 Y62.7647 
G01 X4.7153 Y62.6975 
G01 X4.6275 Y62.6611 
G01 X3.7325 Y62.6611 
G01 X3.6447 Y62.6975 
G01 X3.5775 Y62.7647 
G01 X3.5411 Y62.8525 
G01 X3.5411 Y63.1515 
G01 X3.5224 Y63.1741 
G01 X3.5037 Y63.1927 
G01 X3.4833 Y63.2233 
G01 X3.4605 Y63.2520 
G01 X3.4485 Y63.2755 
G01 X3.4338 Y63.2974 
G01 X3.4198 Y63.3313 
G01 X3.4030 Y63.3640 
G01 X3.3957 Y63.3893 
G01 X3.3857 Y63.4136 
G01 X3.3785 Y63.4496 
G01 X3.3684 Y63.4850 
G01 X3.3662 Y63.5112 
G01 X3.3611 Y63.5371 
G01 X3.3611 Y63.5738 
G01 X3.3581 Y63.6104 
G01 X3.3611 Y63.6366 
G01 X3.3611 Y69.8496 
G01 X3.2930 Y69.8718 
G01 X3.1041 Y69.9680 
G01 X2.9326 Y70.0926 
G01 X2.7826 Y70.2426 
G01 X2.6580 Y70.4141 
G01 X2.5618 Y70.6030 
G01 X2.4963 Y70.8046 
G01 X2.4631 Y71.0140 
G01 X2.4631 Y71.2260 
G01 X2.4963 Y71.4354 
G01 X2.5618 Y71.6370 
G01 X2.6580 Y71.8259 
G01 X2.7826 Y71.9974 
G01 X2.9326 Y72.1474 
G01 X3.1041 Y72.2720 
G01 X3.2930 Y72.3682 
G01 X3.4946 Y72.4337 
G01 X3.7040 Y72.4669 
G01 X3.9160 Y72.4669 
G01 X4.1254 Y72.4337 
G01 X4.3270 Y72.3682 
G01 X4.5159 Y72.2720 
G01 X4.6874 Y72.1474 
G01 X4.8374 Y71.9974 
G01 X4.9620 Y71.8259 
G01 X5.0582 Y71.6370 
G01 X5.0800 Y71.5700 
G01 X5.1018 Y71.6370 
G01 X5.1980 Y71.8259 
G01 X5.3226 Y71.9974 
G01 X5.4726 Y72.1474 
G01 X5.6441 Y72.2720 
G01 X5.8330 Y72.3682 
G01 X6.0346 Y72.4337 
G01 X6.2440 Y72.4669 
G01 X6.4560 Y72.4669 
G01 X6.6654 Y72.4337 
G01 X6.8670 Y72.3682 
G01 X7.0559 Y72.2720 
G01 X7.2274 Y72.1474 
G01 X7.3774 Y71.9974 
G01 X7.5020 Y71.8259 
G01 X7.5982 Y71.6370 
G01 X7.6637 Y71.4354 
G01 X7.6969 Y71.2260 
G01 X7.6969 Y71.0140 
G01 X7.6637 Y70.8046 
G01 X7.5982 Y70.6030 
G01 X7.5020 Y70.4141 
G01 X7.3774 Y70.2426 
G01 X7.2274 Y70.0926 
G01 X7.0559 Y69.9680 
G01 X6.8670 Y69.8718 
G01 X6.6654 Y69.8063 
G01 X6.4560 Y69.7731 
G01 X6.2440 Y69.7731 
G01 X6.0346 Y69.8063 
G01 X5.8330 Y69.8718 
G01 X5.6441 Y69.9680 
G01 X5.4726 Y70.0926 
G01 X5.3226 Y70.2426 
G01 X5.1980 Y70.4141 
G01 X5.1018 Y70.6030 
G01 X5.0800 Y70.6700 
G01 X5.0582 Y70.6030 
G01 X4.9620 Y70.4141 
G01 X4.8374 Y70.2426 
G01 X4.6874 Y70.0926 
G01 X4.6389 Y70.0574 
G01 X4.6389 Y66.6389 
G01 X13.3354 Y66.6389 
G01 X13.5037 Y66.8073 
G01 X13.5927 Y66.8963 
G01 X13.6974 Y66.9662 
G01 X13.8136 Y67.0143 
G01 X13.9371 Y67.0389 
G01 X17.4074 Y67.0389 
G01 X17.4338 Y67.1026 
G01 X17.5037 Y67.2073 
G01 X22.7037 Y72.4073 
G01 X22.7927 Y72.4963 
G01 X22.8974 Y72.5662 
G01 X23.0136 Y72.6143 
G01 X23.1371 Y72.6389 
G01 X23.5482 Y72.6389 
G01 X23.5482 Y72.9074 
G01 X23.5846 Y72.9952 
G01 X23.6518 Y73.0624 
G01 X23.7396 Y73.0988 
G01 X25.8412 Y73.0988 
G01 X25.9290 Y73.0624 
G01 X25.9962 Y72.9952 
G01 X26.0326 Y72.9074 
G01 X26.0326 Y71.3138 
G01 X25.9962 Y71.2260 
G01 X25.9290 Y71.1588 
G01 X25.8412 Y71.1224 
G01 X23.7396 Y71.1224 
G01 X23.6518 Y71.1588 
G01 X23.5846 Y71.2260 
G01 X23.5482 Y71.3138 
G01 X23.5482 Y71.3611 
G01 X23.4646 Y71.3611 
G01 X18.6389 Y66.5354 
G01 X18.6389 Y60.5118 
G01 X18.6853 Y60.4925 
G01 X18.7525 Y60.4253 
G01 X18.7889 Y60.3375 
G01 X18.7889 Y59.7373 
G01 X18.7912 Y59.7218 
G01 X18.7898 Y59.6930 
G01 X18.7915 Y59.6642 
G01 X18.7889 Y59.6457 
G01 X18.7889 Y59.0425 
G01 X18.7525 Y58.9547 
G01 X19.4646 Y58.2389 
G01 X30.1354 Y58.2389 
G01 X31.6965 Y59.8000 
G01 X30.1354 Y61.3611 
G01 X30.0483 Y61.3611 
G01 X30.0125 Y61.2747 
G01 X29.9453 Y61.2075 
G01 X29.8575 Y61.1711 
G01 X28.5625 Y61.1711 
G01 X28.4747 Y61.2075 
G01 X28.4075 Y61.2747 
G01 X28.3711 Y61.3625 
G01 X28.3711 Y62.6575 
G01 X28.4075 Y62.7453 
G01 X28.4747 Y62.8125 
G01 X28.5625 Y62.8489 
G01 X29.8575 Y62.8489 
G01 X29.9453 Y62.8125 
G01 X30.0125 Y62.7453 
G01 X30.0489 Y62.6575 
G01 X30.0489 Y62.6389 
G01 X30.4629 Y62.6389 
G01 X30.5864 Y62.6143 
G01 X30.7026 Y62.5662 
G01 X30.8073 Y62.4963 
G01 X33.0073 Y60.2963 
G01 X33.0963 Y60.2073 
G01 X38.4073 Y54.8963 
G01 X38.4963 Y54.8073 
G01 X38.5662 Y54.7026 
G01 X38.6143 Y54.5864 
G01 X38.6389 Y54.4629 
G01 X38.6389 Y50.0807 
G01 X38.7343 Y50.0321 
G01 X38.8921 Y49.9175 
G01 X39.0300 Y49.7796 
G01 X39.1446 Y49.6218 
G01 X39.2331 Y49.4481 
G01 X39.2934 Y49.2626 
G01 X39.3239 Y49.0700 
G01 X39.3239 Y48.8750 
G01 X39.2934 Y48.6824 
G01 X39.2331 Y48.4969 
G01 X39.1446 Y48.3232 
G01 X39.0300 Y48.1654 
G01 X38.8921 Y48.0275 
G01 X38.7343 Y47.9129 
G01 X38.5606 Y47.8244 
G01 X38.3751 Y47.7641 
G01 X38.1825 Y47.7336 
G01 X37.9875 Y47.7336 
G01 X37.7949 Y47.7641 
G01 X37.6094 Y47.8244 
G01 X37.4357 Y47.9129 
G01 X37.2779 Y48.0275 
G01 X37.1400 Y48.1654 
G01 X37.0254 Y48.3232 
G01 X36.9369 Y48.4969 
G01 X36.8766 Y48.6824 
G01 X36.8461 Y48.8750 
G01 X36.8461 Y49.0700 
G01 X36.8766 Y49.2626 
G01 X36.9369 Y49.4481 
G01 X37.0254 Y49.6218 
G01 X37.1400 Y49.7796 
G01 X37.2779 Y49.9175 
G01 X37.3611 Y49.9779 
G01 X37.3611 Y54.1354 
G01 X32.6000 Y58.8965 
G01 X30.8073 Y57.1037 
G01 X30.7026 Y57.0338 
G01 X30.5864 Y56.9857 
G01 X30.4629 Y56.9611 
G01 X19.1371 Y56.9611 
G01 X19.0136 Y56.9857 
G01 X18.8974 Y57.0338 
G01 X18.7927 Y57.1037 
G01 X18.7037 Y57.1927 
G01 X17.5037 Y58.3927 
G01 X17.4338 Y58.4974 
G01 X17.3857 Y58.6136 
G01 X17.3611 Y58.7371 
G01 X17.3611 Y59.3611 
G01 X13.8646 Y59.3611 
G01 X8.2389 Y53.7354 
G01 X8.2389 Y20.7371 
G01 X8.2143 Y20.6136 
G01 X8.1662 Y20.4974 
G01 X8.0963 Y20.3927 
G01 X8.0073 Y20.3037 
G01 X7.4389 Y19.7354 
G01 X7.4389 Y13.8646 
G01 X8.6646 Y12.6389 
G01 X8.9354 Y12.6389 
G01 X9.1037 Y12.8073 
G01 X9.1927 Y12.8963 
G01 X9.2974 Y12.9662 
G01 X9.4136 Y13.0143 
G01 X9.5371 Y13.0389 
G01 X17.6629 Y13.0389 
G01 X17.7864 Y13.0143 
G01 X17.9026 Y12.9662 
G01 X18.0073 Y12.8963 
G01 X18.0963 Y12.8073 
G01 X19.0546 Y11.8489 
G01 X19.6275 Y11.8489 
G01 X19.7153 Y11.8125 
G01 X19.7825 Y11.7453 
G01 X19.8189 Y11.6575 
G01 X19.8189 Y10.5625 
G01 X19.7825 Y10.4747 
G01 X19.7153 Y10.4075 
G01 X19.6275 Y10.3711 
G01 X18.1325 Y10.3711 
G01 X18.0447 Y10.4075 
G01 X17.9775 Y10.4747 
G01 X17.9411 Y10.5625 
G01 X17.9411 Y11.1554 
G01 X17.3354 Y11.7611 
G01 X9.8646 Y11.7611 
G01 X9.6963 Y11.5927 
G01 X9.6073 Y11.5037 
G01 X9.5026 Y11.4338 
G01 X9.3864 Y11.3857 
G01 X9.2629 Y11.3611 
G01 X8.3371 Y11.3611 
G01 X8.2136 Y11.3857 
G01 X8.0974 Y11.4338 
G01 X7.9927 Y11.5037 
G01 X6.3927 Y13.1037 
G01 X6.3037 Y13.1927 
G00 Z2.0000 
G00 X8.0875 Y13.8047 
G01 Z-0.0250 F254.00 
G01 X8.0511 Y13.8925 F508.00 
G01 X8.0511 Y14.7875 
G01 X8.0875 Y14.8753 
G01 X8.1547 Y14.9425 
G01 X8.2425 Y14.9789 
G01 X8.8419 Y14.9789 
G01 X8.8566 Y14.9811 
G01 X8.9047 Y14.9789 
G01 X9.5375 Y14.9789 
G01 X9.6253 Y14.9425 
G01 X9.6925 Y14.8753 
G01 X9.7289 Y14.7875 
G01 X9.7289 Y14.6389 
G01 X19.2629 Y14.6389 
G01 X19.3864 Y14.6143 
G01 X19.5026 Y14.5662 
G01 X19.6073 Y14.4963 
G01 X21.2073 Y12.8963 
G01 X21.2963 Y12.8073 
G01 X21.3662 Y12.7026 
G01 X21.4143 Y12.5864 
G01 X21.4389 Y12.4629 
G01 X21.4389 Y9.9371 
G01 X21.4143 Y9.8136 
G01 X21.3662 Y9.6974 
G01 X21.2963 Y9.5927 
G01 X20.4963 Y8.7927 
G01 X20.4073 Y8.7037 
G01 X20.3026 Y8.6338 
G01 X20.1864 Y8.5857 
G01 X20.0629 Y8.5611 
G01 X19.7690 Y8.5611 
G01 X19.7153 Y8.5075 
G01 X19.6275 Y8.4711 
G01 X18.1325 Y8.4711 
G01 X18.0447 Y8.5075 
G01 X17.9775 Y8.5747 
G01 X17.9411 Y8.6625 
G01 X17.9411 Y9.7575 
G01 X17.9775 Y9.8453 
G01 X18.0447 Y9.9125 
G01 X18.1325 Y9.9489 
G01 X19.6275 Y9.9489 
G01 X19.7153 Y9.9125 
G01 X19.7622 Y9.8657 
G01 X20.1611 Y10.2646 
G01 X20.1611 Y12.1354 
G01 X18.9354 Y13.3611 
G01 X9.2481 Y13.3611 
G01 X9.2334 Y13.3589 
G01 X9.1853 Y13.3611 
G01 X9.1371 Y13.3611 
G01 X9.1225 Y13.3640 
G01 X9.1077 Y13.3647 
G01 X9.0609 Y13.3763 
G01 X9.0136 Y13.3857 
G01 X8.9999 Y13.3913 
G01 X8.9855 Y13.3949 
G01 X8.9419 Y13.4154 
G01 X8.8974 Y13.4338 
G01 X8.8850 Y13.4421 
G01 X8.8716 Y13.4484 
G01 X8.8328 Y13.4770 
G01 X8.7927 Y13.5037 
G01 X8.7822 Y13.5142 
G01 X8.7703 Y13.5230 
