(.../external_usr-lang-prog/pcbgcode/pcb-gcode.ulp)
(Copyright 2005 - 2012 by John Johnson)
(See readme.txt for licensing terms.)
(This file generated from the board:)
(.../KarasolBaxCont/KarasolboxCont.brd)
(Current profile is .../external_usr-lang-prog/pcbgcode/profiles/emc.pp  )
(This file generated 3/26/2017 8:07 PM)
(Settings from pcb-machine.h)
(spindle on time = 3.0000)
(  Tool Size)
(0.1778 )
(spindle speed = 30000.0000)
(tool change at 15.0000 15.0000 19.0000 )
(feed rate xy = F508.00 )
(feed rate z  = F254.00 )
(Z Axis Settings)
(  High     Up        Down     Drill)
(19.5000 	2.0000 	-0.0250 	-1.5000 )
(Settings from pcb-defaults.h)
(isolate min = 0.0500)
(isolate max = 1.0000)
(isolate step = 0.1000)
(Generated top outlines, top drill, bottom outlines, bottom drill, )
(Unit of measure: mm)
(Metric Mode)
G21
(Absolute Coordinates)
G90
S30000
G00 Z19.5000 
G00 X0.0000 Y0.0000 
M03
G04 P3.000000
G00 Z2.0000 
G00 X4.0381 Y1.6284 
G01 Z-0.0250 F254.00 
G01 X3.9086 Y1.8066 F508.00 
G01 X3.8086 Y2.0029 
G01 X3.7406 Y2.2123 
G01 X3.7061 Y2.4299 
G01 X3.7061 Y2.6501 
G01 X3.7406 Y2.8677 
G01 X3.8086 Y3.0771 
G01 X3.9086 Y3.2734 
G01 X4.0381 Y3.4516 
G01 X4.1938 Y3.6073 
G01 X4.3720 Y3.7368 
G01 X4.5683 Y3.8368 
G01 X4.6611 Y3.8669 
G01 X4.6611 Y11.1508 
G01 X4.6572 Y11.1723 
G01 X4.6611 Y11.2215 
G01 X4.6611 Y11.2709 
G01 X4.6667 Y11.2920 
G01 X4.6685 Y11.3137 
G01 X4.6850 Y11.3603 
G01 X4.6957 Y11.4000 
G01 X4.6902 Y11.4114 
G01 X4.6768 Y11.4705 
G01 X4.6611 Y11.5290 
G01 X4.6611 Y11.5395 
G01 X4.6588 Y11.5497 
G01 X4.6611 Y11.6103 
G01 X4.6611 Y62.8709 
G01 X4.6978 Y63.0080 
G01 X4.7688 Y63.1309 
G01 X4.8691 Y63.2312 
G01 X6.4691 Y64.8312 
G01 X6.5920 Y64.9022 
G01 X6.7290 Y64.9389 
G01 X7.3768 Y64.9389 
G01 X8.0691 Y65.6312 
G01 X8.1920 Y65.7022 
G01 X8.3291 Y65.7389 
G01 X30.2611 Y65.7389 
G01 X30.2611 Y67.6011 
G01 X30.1224 Y67.6011 
G01 X30.0713 Y67.6222 
G01 X30.0322 Y67.6613 
G01 X30.0111 Y67.7124 
G01 X30.0111 Y69.5476 
G01 X30.0322 Y69.5987 
G01 X30.0713 Y69.6377 
G01 X30.1224 Y69.6589 
G01 X32.0968 Y69.6589 
G01 X32.8691 Y70.4312 
G01 X32.9920 Y70.5022 
G01 X33.1290 Y70.5389 
G01 X36.6925 Y70.5389 
G01 X36.7213 Y70.5678 
G01 X36.7724 Y70.5889 
G01 X37.6276 Y70.5889 
G01 X37.6787 Y70.5678 
G01 X37.7178 Y70.5287 
G01 X37.7389 Y70.4776 
G01 X37.7389 Y69.2224 
G01 X37.7178 Y69.1713 
G01 X37.6787 Y69.1322 
G01 X37.6276 Y69.1111 
G01 X36.7724 Y69.1111 
G01 X36.7213 Y69.1322 
G01 X36.6822 Y69.1713 
G01 X36.6611 Y69.2224 
G01 X36.6611 Y69.4611 
G01 X33.4889 Y69.4611 
G01 X33.4889 Y67.7124 
G01 X33.4678 Y67.6613 
G01 X33.4287 Y67.6222 
G01 X33.3776 Y67.6011 
G01 X31.5632 Y67.6011 
G01 X31.3389 Y67.3768 
G01 X31.3389 Y63.8789 
G01 X31.5876 Y63.8789 
G01 X31.6387 Y63.8578 
G01 X31.6777 Y63.8187 
G01 X31.6989 Y63.7676 
G01 X31.6989 Y62.7124 
G01 X31.6777 Y62.6613 
G01 X31.6387 Y62.6222 
G01 X31.5876 Y62.6011 
G01 X29.9324 Y62.6011 
G01 X29.8813 Y62.6222 
G01 X29.8422 Y62.6613 
G01 X29.8211 Y62.7124 
G01 X29.8211 Y63.7676 
G01 X29.8422 Y63.8187 
G01 X29.8813 Y63.8578 
G01 X29.9324 Y63.8789 
G01 X30.2611 Y63.8789 
G01 X30.2611 Y64.6611 
G01 X8.6232 Y64.6611 
G01 X8.0312 Y64.0691 
G01 X7.9309 Y63.9688 
G01 X7.8080 Y63.8978 
G01 X7.6709 Y63.8611 
G01 X7.0232 Y63.8611 
G01 X5.7389 Y62.5768 
G01 X5.7389 Y14.1389 
G01 X10.8709 Y14.1389 
G01 X11.0080 Y14.1022 
G01 X11.1309 Y14.0312 
G01 X11.2312 Y13.9309 
G01 X13.4232 Y11.7389 
G01 X17.3961 Y11.7389 
G01 X17.3961 Y12.1926 
G01 X17.4172 Y12.2437 
G01 X17.4563 Y12.2828 
G01 X17.5074 Y12.3039 
G01 X18.8326 Y12.3039 
G01 X18.8837 Y12.2828 
G01 X18.9228 Y12.2437 
G01 X18.9439 Y12.1926 
G01 X18.9439 Y10.6674 
G01 X18.9228 Y10.6163 
G01 X18.8837 Y10.5772 
G01 X18.8326 Y10.5561 
G01 X18.5389 Y10.5561 
G01 X18.5389 Y3.9291 
G01 X18.5022 Y3.7920 
G01 X18.4312 Y3.6691 
G01 X17.8339 Y3.0718 
G01 X17.9002 Y2.8677 
G01 X17.9347 Y2.6501 
G01 X17.9347 Y2.4299 
G01 X17.9002 Y2.2123 
G01 X17.8322 Y2.0029 
G01 X17.7322 Y1.8066 
G01 X17.6027 Y1.6284 
G01 X17.4470 Y1.4727 
G01 X17.2688 Y1.3432 
G01 X17.0725 Y1.2432 
G01 X16.8631 Y1.1752 
G01 X16.6455 Y1.1407 
G01 X16.4253 Y1.1407 
G01 X16.2077 Y1.1752 
G01 X15.9983 Y1.2432 
G01 X15.8020 Y1.3432 
G01 X15.6238 Y1.4727 
G01 X15.4681 Y1.6284 
G01 X15.3386 Y1.8066 
G01 X15.2386 Y2.0029 
G01 X15.1706 Y2.2123 
G01 X15.1361 Y2.4299 
G01 X15.1361 Y2.6501 
G01 X15.1706 Y2.8677 
G01 X15.2386 Y3.0771 
G01 X15.3386 Y3.2734 
G01 X15.4681 Y3.4516 
G01 X15.6238 Y3.6073 
G01 X15.8020 Y3.7368 
G01 X15.9983 Y3.8368 
G01 X16.2077 Y3.9048 
G01 X16.4253 Y3.9393 
G01 X16.6455 Y3.9393 
G01 X16.8631 Y3.9048 
G01 X17.0725 Y3.8368 
G01 X17.4611 Y4.2232 
G01 X17.4611 Y10.5753 
G01 X17.4563 Y10.5772 
G01 X17.4172 Y10.6163 
G01 X17.3987 Y10.6611 
G01 X13.1290 Y10.6611 
G01 X12.9920 Y10.6978 
G01 X12.8691 Y10.7688 
G01 X10.5768 Y13.0611 
G01 X5.7389 Y13.0611 
G01 X5.7389 Y12.3039 
G01 X6.1326 Y12.3039 
G01 X6.1837 Y12.2828 
G01 X6.2227 Y12.2437 
G01 X6.2439 Y12.1926 
G01 X6.2439 Y10.6674 
G01 X6.2227 Y10.6163 
G01 X6.1837 Y10.5772 
G01 X6.1326 Y10.5561 
G01 X5.7389 Y10.5561 
G01 X5.7389 Y3.7877 
G01 X5.8388 Y3.7368 
G01 X6.0170 Y3.6073 
G01 X6.1727 Y3.4516 
G01 X6.3022 Y3.2734 
G01 X6.4022 Y3.0771 
G01 X6.4702 Y2.8677 
G01 X6.5047 Y2.6501 
G01 X6.5047 Y2.4299 
G01 X6.4702 Y2.2123 
G01 X6.4022 Y2.0029 
G01 X6.3022 Y1.8066 
G01 X6.1727 Y1.6284 
G01 X6.0170 Y1.4727 
G01 X5.8388 Y1.3432 
G01 X5.6425 Y1.2432 
G01 X5.4331 Y1.1752 
G01 X5.2155 Y1.1407 
G01 X4.9953 Y1.1407 
G01 X4.7777 Y1.1752 
G01 X4.5683 Y1.2432 
G01 X4.3720 Y1.3432 
G01 X4.1938 Y1.4727 
G01 X4.0381 Y1.6284 
G00 Z2.0000 
G00 X9.0419 Y1.6284 
G01 Z-0.0250 F254.00 
G01 X8.9124 Y1.8066 F508.00 
G01 X8.8124 Y2.0029 
G01 X8.7444 Y2.2123 
G01 X8.7099 Y2.4299 
G01 X8.7099 Y2.6501 
G01 X8.7444 Y2.8677 
G01 X8.8124 Y3.0771 
G01 X8.9124 Y3.2734 
G01 X9.0419 Y3.4516 
G01 X9.1976 Y3.6073 
G01 X9.3758 Y3.7368 
G01 X9.4611 Y3.7802 
G01 X9.4611 Y10.5561 
G01 X9.1074 Y10.5561 
G01 X9.0563 Y10.5772 
G01 X9.0172 Y10.6163 
G01 X8.9961 Y10.6674 
G01 X8.9961 Y12.1926 
G01 X9.0172 Y12.2437 
G01 X9.0563 Y12.2828 
G01 X9.1074 Y12.3039 
G01 X10.4326 Y12.3039 
G01 X10.4837 Y12.2828 
G01 X10.5228 Y12.2437 
G01 X10.5439 Y12.1926 
G01 X10.5439 Y10.6674 
G01 X10.5389 Y10.6553 
G01 X10.5389 Y3.8717 
G01 X10.6463 Y3.8368 
G01 X10.8426 Y3.7368 
G01 X11.0208 Y3.6073 
G01 X11.1765 Y3.4516 
G01 X11.3060 Y3.2734 
G01 X11.4060 Y3.0771 
G01 X11.4740 Y2.8677 
G01 X11.5085 Y2.6501 
G01 X11.5085 Y2.4299 
G01 X11.4740 Y2.2123 
G01 X11.4060 Y2.0029 
G01 X11.3060 Y1.8066 
G01 X11.1765 Y1.6284 
G01 X11.0208 Y1.4727 
G01 X10.8426 Y1.3432 
G01 X10.6463 Y1.2432 
G01 X10.4369 Y1.1752 
G01 X10.2193 Y1.1407 
G01 X9.9991 Y1.1407 
G01 X9.7815 Y1.1752 
G01 X9.5721 Y1.2432 
G01 X9.3758 Y1.3432 
G01 X9.1976 Y1.4727 
G01 X9.0419 Y1.6284 
G00 Z2.0000 
G00 X20.4719 Y1.6284 
G01 Z-0.0250 F254.00 
G01 X20.3424 Y1.8066 F508.00 
G01 X20.2424 Y2.0029 
G01 X20.1744 Y2.2123 
G01 X20.1399 Y2.4299 
G01 X20.1399 Y2.6501 
G01 X20.1744 Y2.8677 
G01 X20.2424 Y3.0771 
G01 X20.3424 Y3.2734 
G01 X20.4719 Y3.4516 
G01 X20.6276 Y3.6073 
G01 X20.8058 Y3.7368 
G01 X21.0021 Y3.8368 
G01 X21.2115 Y3.9048 
G01 X21.4291 Y3.9393 
G01 X21.6493 Y3.9393 
G01 X21.8611 Y3.9058 
G01 X21.8611 Y10.5561 
G01 X21.8074 Y10.5561 
G01 X21.7563 Y10.5772 
G01 X21.7172 Y10.6163 
G01 X21.6961 Y10.6674 
G01 X21.6961 Y12.1926 
G01 X21.7172 Y12.2437 
G01 X21.7563 Y12.2828 
G01 X21.8074 Y12.3039 
G01 X23.1326 Y12.3039 
G01 X23.1837 Y12.2828 
G01 X23.2228 Y12.2437 
G01 X23.2439 Y12.1926 
G01 X23.2439 Y10.6674 
G01 X23.2228 Y10.6163 
G01 X23.1837 Y10.5772 
G01 X23.1326 Y10.5561 
G01 X22.9389 Y10.5561 
G01 X22.9389 Y5.7389 
G01 X24.6261 Y5.7389 
G01 X24.6261 Y9.5526 
G01 X24.6472 Y9.6037 
G01 X24.6863 Y9.6427 
G01 X24.7374 Y9.6639 
G01 X36.2226 Y9.6639 
G01 X36.2737 Y9.6427 
G01 X36.3128 Y9.6037 
G01 X36.3339 Y9.5526 
G01 X36.3339 Y0.6074 
G01 X36.3128 Y0.5563 
G01 X36.2737 Y0.5172 
G01 X36.2226 Y0.4961 
G01 X24.7374 Y0.4961 
G01 X24.6863 Y0.5172 
G01 X24.6472 Y0.5563 
G01 X24.6261 Y0.6074 
G01 X24.6261 Y4.6611 
G01 X22.9389 Y4.6611 
G01 X22.9389 Y3.5290 
G01 X22.9022 Y3.3920 
G01 X22.8312 Y3.2691 
G01 X22.7696 Y3.2075 
G01 X22.8360 Y3.0771 
G01 X22.9040 Y2.8677 
G01 X22.9385 Y2.6501 
G01 X22.9385 Y2.4299 
G01 X22.9040 Y2.2123 
G01 X22.8360 Y2.0029 
G01 X22.7360 Y1.8066 
G01 X22.6065 Y1.6284 
G01 X22.4508 Y1.4727 
G01 X22.2726 Y1.3432 
G01 X22.0763 Y1.2432 
G01 X21.8669 Y1.1752 
G01 X21.6493 Y1.1407 
G01 X21.4291 Y1.1407 
G01 X21.2115 Y1.1752 
G01 X21.0021 Y1.2432 
G01 X20.8058 Y1.3432 
G01 X20.6276 Y1.4727 
G01 X20.4719 Y1.6284 
G00 Z2.0000 
G00 X21.9913 Y18.3081 
G01 Z-0.0250 F254.00 
G01 X21.8859 Y18.4531 F508.00 
G01 X21.8045 Y18.6128 
G01 X21.7491 Y18.7833 
G01 X21.7211 Y18.9604 
G01 X21.7211 Y19.1396 
G01 X21.7491 Y19.3167 
G01 X21.8045 Y19.4872 
G01 X21.8859 Y19.6469 
G01 X21.9913 Y19.7919 
G01 X22.1181 Y19.9187 
G01 X22.2631 Y20.0241 
G01 X22.4228 Y20.1055 
G01 X22.5933 Y20.1609 
G01 X22.7704 Y20.1889 
G01 X22.9496 Y20.1889 
G01 X23.1267 Y20.1609 
G01 X23.2972 Y20.1055 
G01 X23.4569 Y20.0241 
G01 X23.6019 Y19.9187 
G01 X23.7287 Y19.7919 
G01 X23.7672 Y19.7389 
G01 X25.3768 Y19.7389 
G01 X26.3688 Y20.7309 
G01 X26.4691 Y20.8312 
G01 X26.5920 Y20.9022 
G01 X26.7291 Y20.9389 
G01 X29.7411 Y20.9389 
G01 X29.7411 Y21.1176 
G01 X29.7622 Y21.1687 
G01 X29.8013 Y21.2078 
G01 X29.8524 Y21.2289 
G01 X30.4111 Y21.2289 
G01 X30.4688 Y21.2290 
G01 X30.5244 Y21.2317 
G01 X30.5375 Y21.2289 
G01 X31.1076 Y21.2289 
G01 X31.1587 Y21.2078 
G01 X31.1977 Y21.1687 
G01 X31.2189 Y21.1176 
G01 X31.2189 Y20.7448 
G01 X31.2217 Y20.7404 
G01 X31.2312 Y20.7309 
G01 X31.2601 Y20.6809 
G01 X31.2913 Y20.6324 
G01 X31.2955 Y20.6196 
G01 X31.3022 Y20.6080 
G01 X31.3171 Y20.5523 
G01 X31.3348 Y20.4973 
G01 X31.3354 Y20.4839 
G01 X31.3389 Y20.4709 
G01 X31.3389 Y20.4133 
G01 X31.3417 Y20.3556 
G01 X31.3389 Y20.3425 
G01 X31.3389 Y19.0232 
G01 X31.8646 Y18.4975 
G01 X31.8999 Y18.5328 
G01 X31.9510 Y18.5539 
G01 X34.0890 Y18.5539 
G01 X34.1401 Y18.5328 
G01 X34.1791 Y18.4937 
G01 X34.2003 Y18.4426 
G01 X34.2003 Y14.5774 
G01 X34.1791 Y14.5263 
G01 X34.1401 Y14.4872 
G01 X34.0890 Y14.4661 
G01 X31.9510 Y14.4661 
G01 X31.8999 Y14.4872 
G01 X31.8608 Y14.5263 
G01 X31.8397 Y14.5774 
G01 X31.8397 Y16.9982 
G01 X30.3688 Y18.4691 
G01 X30.2978 Y18.5920 
G01 X30.2611 Y18.7291 
G01 X30.2611 Y19.8611 
G01 X27.0232 Y19.8611 
G01 X25.9309 Y18.7688 
G01 X25.8080 Y18.6978 
G01 X25.6709 Y18.6611 
G01 X23.9311 Y18.6611 
G01 X23.9155 Y18.6128 
G01 X23.8341 Y18.4531 
G01 X23.7287 Y18.3081 
G01 X23.6019 Y18.1813 
G01 X23.4569 Y18.0759 
G01 X23.2972 Y17.9945 
G01 X23.1267 Y17.9391 
G01 X22.9496 Y17.9111 
G01 X22.7704 Y17.9111 
G01 X22.5933 Y17.9391 
G01 X22.4228 Y17.9945 
G01 X22.2631 Y18.0759 
G01 X22.1181 Y18.1813 
G01 X21.9913 Y18.3081 
G00 Z2.0000 
G00 X21.9913 Y20.8481 
G01 Z-0.0250 F254.00 
G01 X21.8859 Y20.9931 F508.00 
G01 X21.8045 Y21.1528 
G01 X21.7491 Y21.3233 
G01 X21.7211 Y21.5004 
G01 X21.7211 Y21.6796 
G01 X21.7491 Y21.8567 
G01 X21.8045 Y22.0272 
G01 X21.8859 Y22.1869 
G01 X21.9913 Y22.3319 
G01 X22.1181 Y22.4587 
G01 X22.2631 Y22.5641 
G01 X22.4228 Y22.6455 
G01 X22.5933 Y22.7009 
G01 X22.7704 Y22.7289 
G01 X22.9496 Y22.7289 
G01 X23.1267 Y22.7009 
G01 X23.2972 Y22.6455 
G01 X23.4569 Y22.5641 
G01 X23.6019 Y22.4587 
G01 X23.7287 Y22.3319 
G01 X23.8341 Y22.1869 
G01 X23.9155 Y22.0272 
G01 X23.9709 Y21.8567 
G01 X23.9989 Y21.6796 
G01 X23.9989 Y21.5004 
G01 X23.9709 Y21.3233 
G01 X23.9155 Y21.1528 
G01 X23.8341 Y20.9931 
G01 X23.7287 Y20.8481 
G01 X23.6019 Y20.7213 
G01 X23.4569 Y20.6159 
G01 X23.2972 Y20.5345 
G01 X23.1267 Y20.4791 
G01 X22.9496 Y20.4511 
G01 X22.7704 Y20.4511 
G01 X22.5933 Y20.4791 
G01 X22.4228 Y20.5345 
G01 X22.2631 Y20.6159 
G01 X22.1181 Y20.7213 
G01 X21.9913 Y20.8481 
G00 Z2.0000 
G00 X21.9913 Y23.3881 
G01 Z-0.0250 F254.00 
G01 X21.8859 Y23.5331 F508.00 
G01 X21.8045 Y23.6928 
G01 X21.7491 Y23.8633 
G01 X21.7211 Y24.0404 
G01 X21.7211 Y24.2196 
G01 X21.7491 Y24.3967 
G01 X21.8045 Y24.5672 
G01 X21.8859 Y24.7269 
G01 X21.9913 Y24.8719 
G01 X22.1181 Y24.9987 
G01 X22.2631 Y25.1041 
G01 X22.4228 Y25.1855 
G01 X22.5933 Y25.2409 
G01 X22.7704 Y25.2689 
G01 X22.9496 Y25.2689 
G01 X23.1267 Y25.2409 
G01 X23.2972 Y25.1855 
G01 X23.4569 Y25.1041 
G01 X23.6019 Y24.9987 
G01 X23.7287 Y24.8719 
G01 X23.8341 Y24.7269 
G01 X23.9155 Y24.5672 
G01 X23.9709 Y24.3967 
G01 X23.9989 Y24.2196 
G01 X23.9989 Y24.0404 
G01 X23.9709 Y23.8633 
G01 X23.9155 Y23.6928 
G01 X23.8341 Y23.5331 
G01 X23.7287 Y23.3881 
G01 X23.6019 Y23.2613 
G01 X23.4569 Y23.1559 
G01 X23.2972 Y23.0745 
G01 X23.1267 Y23.0191 
G01 X22.9496 Y22.9911 
G01 X22.7704 Y22.9911 
G01 X22.5933 Y23.0191 
G01 X22.4228 Y23.0745 
G01 X22.2631 Y23.1559 
G01 X22.1181 Y23.2613 
G01 X21.9913 Y23.3881 
G00 Z2.0000 
G00 X21.9913 Y25.9281 
G01 Z-0.0250 F254.00 
G01 X21.8859 Y26.0731 F508.00 
G01 X21.8045 Y26.2328 
G01 X21.7491 Y26.4033 
G01 X21.7211 Y26.5804 
G01 X21.7211 Y26.7596 
G01 X21.7491 Y26.9367 
G01 X21.8045 Y27.1072 
G01 X21.8859 Y27.2669 
G01 X21.9913 Y27.4119 
G01 X22.1181 Y27.5387 
G01 X22.2631 Y27.6441 
G01 X22.4228 Y27.7255 
G01 X22.5933 Y27.7809 
G01 X22.7704 Y27.8089 
G01 X22.9496 Y27.8089 
G01 X23.1267 Y27.7809 
G01 X23.2972 Y27.7255 
G01 X23.4569 Y27.6441 
G01 X23.6019 Y27.5387 
G01 X23.7287 Y27.4119 
G01 X23.8341 Y27.2669 
G01 X23.9155 Y27.1072 
G01 X23.9709 Y26.9367 
G01 X23.9989 Y26.7596 
G01 X23.9989 Y26.5804 
G01 X23.9709 Y26.4033 
G01 X23.9155 Y26.2328 
G01 X23.8341 Y26.0731 
G01 X23.7287 Y25.9281 
G01 X23.6019 Y25.8013 
G01 X23.4569 Y25.6959 
G01 X23.2972 Y25.6145 
G01 X23.1267 Y25.5591 
G01 X22.9496 Y25.5311 
G01 X22.7704 Y25.5311 
G01 X22.5933 Y25.5591 
G01 X22.4228 Y25.6145 
G01 X22.2631 Y25.6959 
G01 X22.1181 Y25.8013 
G01 X21.9913 Y25.9281 
G00 Z2.0000 
G00 X21.9913 Y28.4681 
G01 Z-0.0250 F254.00 
G01 X21.8859 Y28.6131 F508.00 
G01 X21.8045 Y28.7728 
G01 X21.7491 Y28.9433 
G01 X21.7211 Y29.1204 
G01 X21.7211 Y29.2996 
G01 X21.7491 Y29.4767 
G01 X21.8045 Y29.6472 
G01 X21.8859 Y29.8069 
G01 X21.9913 Y29.9519 
G01 X22.1181 Y30.0787 
G01 X22.2631 Y30.1841 
G01 X22.4228 Y30.2655 
G01 X22.5933 Y30.3209 
G01 X22.7704 Y30.3489 
G01 X22.9496 Y30.3489 
G01 X23.1267 Y30.3209 
G01 X23.2972 Y30.2655 
G01 X23.4569 Y30.1841 
G01 X23.6019 Y30.0787 
G01 X23.7287 Y29.9519 
G01 X23.8341 Y29.8069 
G01 X23.8687 Y29.7389 
G01 X26.2861 Y29.7389 
G01 X26.2861 Y29.9726 
G01 X26.3072 Y30.0237 
G01 X26.3463 Y30.0628 
G01 X26.3974 Y30.0839 
G01 X27.7226 Y30.0839 
G01 X27.7737 Y30.0628 
G01 X27.8128 Y30.0237 
G01 X27.8339 Y29.9726 
G01 X27.8339 Y28.4474 
G01 X27.8128 Y28.3963 
G01 X27.7737 Y28.3572 
G01 X27.7226 Y28.3361 
G01 X26.3974 Y28.3361 
G01 X26.3463 Y28.3572 
G01 X26.3072 Y28.3963 
G01 X26.2861 Y28.4474 
G01 X26.2861 Y28.6611 
G01 X23.8585 Y28.6611 
G01 X23.8341 Y28.6131 
G01 X23.7287 Y28.4681 
G01 X23.6019 Y28.3413 
G01 X23.4569 Y28.2359 
G01 X23.2972 Y28.1545 
G01 X23.1267 Y28.0991 
G01 X22.9496 Y28.0711 
G01 X22.7704 Y28.0711 
G01 X22.5933 Y28.0991 
G01 X22.4228 Y28.1545 
G01 X22.2631 Y28.2359 
G01 X22.1181 Y28.3413 
G01 X21.9913 Y28.4681 
G00 Z2.0000 
G00 X21.9913 Y31.0081 
G01 Z-0.0250 F254.00 
G01 X21.8859 Y31.1531 F508.00 
G01 X21.8045 Y31.3128 
G01 X21.7491 Y31.4833 
G01 X21.7211 Y31.6604 
G01 X21.7211 Y31.8396 
G01 X21.7491 Y32.0167 
G01 X21.8045 Y32.1872 
G01 X21.8859 Y32.3469 
G01 X21.9913 Y32.4919 
G01 X22.1181 Y32.6187 
G01 X22.2631 Y32.7241 
G01 X22.4228 Y32.8055 
G01 X22.5933 Y32.8609 
G01 X22.7704 Y32.8889 
G01 X22.9496 Y32.8889 
G01 X23.1267 Y32.8609 
G01 X23.2972 Y32.8055 
G01 X23.4569 Y32.7241 
G01 X23.6019 Y32.6187 
G01 X23.7287 Y32.4919 
G01 X23.8341 Y32.3469 
G01 X23.9155 Y32.1872 
G01 X23.9311 Y32.1389 
G01 X29.2709 Y32.1389 
G01 X29.4080 Y32.1022 
G01 X29.5309 Y32.0312 
G01 X31.4000 Y30.1621 
G01 X31.6691 Y30.4312 
G01 X31.7920 Y30.5022 
G01 X31.9291 Y30.5389 
G01 X34.8216 Y30.5389 
G01 X34.8422 Y30.5887 
G01 X34.8813 Y30.6277 
G01 X34.9324 Y30.6489 
G01 X35.1201 Y30.6489 
G01 X35.1310 Y30.6747 
G01 X35.1518 Y30.7015 
G01 X35.1688 Y30.7309 
G01 X35.1951 Y30.7573 
G01 X35.2180 Y30.7867 
G01 X35.2451 Y30.8072 
G01 X35.2691 Y30.8312 
G01 X35.3014 Y30.8499 
G01 X35.3311 Y30.8724 
G01 X35.3626 Y30.8852 
G01 X35.3920 Y30.9022 
G01 X35.4280 Y30.9118 
G01 X35.4626 Y30.9259 
G01 X35.4963 Y30.9301 
G01 X35.5290 Y30.9389 
G01 X35.5663 Y30.9389 
G01 X35.6034 Y30.9435 
G01 X35.6370 Y30.9389 
G01 X38.9768 Y30.9389 
G01 X39.4464 Y31.4085 
G01 X39.4238 Y31.4780 
G01 X39.3931 Y31.6719 
G01 X39.3931 Y31.8681 
G01 X39.4238 Y32.0620 
G01 X39.4845 Y32.2486 
G01 X39.5736 Y32.4235 
G01 X39.6889 Y32.5823 
G01 X39.8277 Y32.7211 
G01 X39.9865 Y32.8364 
G01 X40.1614 Y32.9255 
G01 X40.3480 Y32.9862 
G01 X40.5419 Y33.0169 
G01 X40.7381 Y33.0169 
G01 X40.9320 Y32.9862 
G01 X41.1186 Y32.9255 
G01 X41.2935 Y32.8364 
G01 X41.4523 Y32.7211 
G01 X41.5911 Y32.5823 
G01 X41.7064 Y32.4235 
G01 X41.7955 Y32.2486 
G01 X41.8562 Y32.0620 
G01 X41.8869 Y31.8681 
G01 X41.8869 Y31.6719 
G01 X41.8562 Y31.4780 
G01 X41.7955 Y31.2914 
G01 X41.7064 Y31.1165 
G01 X41.5911 Y30.9577 
G01 X41.4523 Y30.8189 
G01 X41.2935 Y30.7036 
G01 X41.1186 Y30.6145 
G01 X40.9320 Y30.5538 
G01 X40.7381 Y30.5231 
G01 X40.5419 Y30.5231 
G01 X40.3480 Y30.5538 
G01 X40.1728 Y30.6107 
G01 X39.5309 Y29.9688 
G01 X39.4080 Y29.8978 
G01 X39.2709 Y29.8611 
G01 X36.2989 Y29.8611 
G01 X36.2989 Y29.6824 
G01 X36.2777 Y29.6313 
G01 X36.2387 Y29.5922 
G01 X36.1876 Y29.5711 
G01 X35.6405 Y29.5711 
G01 X35.4162 Y29.5026 
G01 X35.4080 Y29.4978 
G01 X35.3485 Y29.4819 
G01 X35.2896 Y29.4639 
G01 X35.2801 Y29.4636 
G01 X35.2709 Y29.4611 
G01 X35.2094 Y29.4611 
G01 X35.1478 Y29.4590 
G01 X35.1386 Y29.4611 
G01 X32.2232 Y29.4611 
G01 X32.1339 Y29.3718 
G01 X32.1339 Y28.4474 
G01 X32.1127 Y28.3963 
G01 X32.0737 Y28.3572 
G01 X32.0226 Y28.3361 
G01 X30.6974 Y28.3361 
G01 X30.6463 Y28.3572 
G01 X30.6072 Y28.3963 
G01 X30.5861 Y28.4474 
G01 X30.5861 Y29.4518 
G01 X28.9768 Y31.0611 
G01 X23.7672 Y31.0611 
G01 X23.7287 Y31.0081 
G01 X23.6019 Y30.8813 
G01 X23.4569 Y30.7759 
G01 X23.2972 Y30.6945 
G01 X23.1267 Y30.6391 
G01 X22.9496 Y30.6111 
G01 X22.7704 Y30.6111 
G01 X22.5933 Y30.6391 
G01 X22.4228 Y30.6945 
G01 X22.2631 Y30.7759 
G01 X22.1181 Y30.8813 
G01 X21.9913 Y31.0081 
G00 Z2.0000 
G00 X21.9913 Y33.5481 
G01 Z-0.0250 F254.00 
G01 X21.8859 Y33.6931 F508.00 
G01 X21.8045 Y33.8528 
G01 X21.7491 Y34.0233 
G01 X21.7211 Y34.2004 
G01 X21.7211 Y34.3796 
G01 X21.7491 Y34.5567 
G01 X21.8045 Y34.7272 
G01 X21.8859 Y34.8869 
G01 X21.9913 Y35.0319 
G01 X22.1181 Y35.1587 
G01 X22.2631 Y35.2641 
G01 X22.4228 Y35.3455 
G01 X22.5933 Y35.4009 
G01 X22.7704 Y35.4289 
G01 X22.9496 Y35.4289 
G01 X23.1267 Y35.4009 
G01 X23.2972 Y35.3455 
G01 X23.4569 Y35.2641 
G01 X23.6019 Y35.1587 
G01 X23.7287 Y35.0319 
G01 X23.7963 Y34.9389 
G01 X28.5768 Y34.9389 
G01 X30.5861 Y36.9482 
G01 X30.5861 Y37.5926 
G01 X30.6072 Y37.6437 
G01 X30.6463 Y37.6827 
G01 X30.6974 Y37.7039 
G01 X32.0226 Y37.7039 
G01 X32.0737 Y37.6827 
G01 X32.1127 Y37.6437 
G01 X32.1339 Y37.5926 
G01 X32.1339 Y37.0282 
G01 X32.6232 Y36.5389 
G01 X35.1812 Y36.5389 
G01 X35.2332 Y36.5425 
G01 X35.2519 Y36.5389 
G01 X35.2709 Y36.5389 
G01 X35.3213 Y36.5254 
G01 X35.6119 Y36.4689 
G01 X36.1876 Y36.4689 
G01 X36.2387 Y36.4477 
G01 X36.2777 Y36.4087 
G01 X36.2989 Y36.3576 
G01 X36.2989 Y36.1389 
G01 X39.2709 Y36.1389 
G01 X39.4080 Y36.1022 
G01 X39.5309 Y36.0312 
G01 X40.1449 Y35.4172 
G01 X40.1614 Y35.4255 
G01 X40.3480 Y35.4862 
G01 X40.5419 Y35.5169 
G01 X40.7381 Y35.5169 
G01 X40.9320 Y35.4862 
G01 X41.1186 Y35.4255 
G01 X41.2935 Y35.3364 
G01 X41.4523 Y35.2211 
G01 X41.5911 Y35.0823 
G01 X41.7064 Y34.9235 
G01 X41.7955 Y34.7486 
G01 X41.8562 Y34.5620 
G01 X41.8869 Y34.3681 
G01 X41.8869 Y34.1719 
G01 X41.8562 Y33.9780 
G01 X41.7955 Y33.7914 
G01 X41.7064 Y33.6165 
G01 X41.5911 Y33.4577 
G01 X41.4523 Y33.3189 
G01 X41.2935 Y33.2036 
G01 X41.1186 Y33.1145 
G01 X40.9320 Y33.0538 
G01 X40.7381 Y33.0231 
G01 X40.5419 Y33.0231 
G01 X40.3480 Y33.0538 
G01 X40.1614 Y33.1145 
G01 X39.9865 Y33.2036 
G01 X39.8277 Y33.3189 
G01 X39.6889 Y33.4577 
G01 X39.5736 Y33.6165 
G01 X39.4845 Y33.7914 
G01 X39.4238 Y33.9780 
G01 X39.3931 Y34.1719 
G01 X39.3931 Y34.3681 
G01 X39.4238 Y34.5620 
G01 X39.4366 Y34.6013 
G01 X38.9768 Y35.0611 
G01 X35.6325 Y35.0611 
G01 X35.5944 Y35.0565 
G01 X35.5619 Y35.0611 
G01 X35.5290 Y35.0611 
G01 X35.4920 Y35.0710 
G01 X35.4539 Y35.0764 
G01 X35.4237 Y35.0893 
G01 X35.3920 Y35.0978 
G01 X35.3587 Y35.1170 
G01 X35.3234 Y35.1321 
G01 X35.2975 Y35.1524 
G01 X35.2691 Y35.1688 
G01 X35.2420 Y35.1959 
G01 X35.2117 Y35.2196 
G01 X35.1920 Y35.2459 
G01 X35.1688 Y35.2691 
G01 X35.1496 Y35.3024 
G01 X35.1265 Y35.3331 
G01 X35.1142 Y35.3635 
G01 X35.0983 Y35.3911 
G01 X34.9324 Y35.3911 
G01 X34.8813 Y35.4122 
G01 X34.8422 Y35.4513 
G01 X34.8382 Y35.4611 
G01 X32.3291 Y35.4611 
G01 X32.1920 Y35.4978 
G01 X32.0691 Y35.5688 
G01 X31.6818 Y35.9561 
G01 X31.1182 Y35.9561 
G01 X29.1309 Y33.9688 
G01 X29.0080 Y33.8978 
G01 X28.8709 Y33.8611 
G01 X23.9181 Y33.8611 
G01 X23.9155 Y33.8528 
G01 X23.8341 Y33.6931 
G01 X23.7287 Y33.5481 
G01 X23.6019 Y33.4213 
G01 X23.4569 Y33.3159 
G01 X23.2972 Y33.2345 
G01 X23.1267 Y33.1791 
G01 X22.9496 Y33.1511 
G01 X22.7704 Y33.1511 
G01 X22.5933 Y33.1791 
G01 X22.4228 Y33.2345 
G01 X22.2631 Y33.3159 
G01 X22.1181 Y33.4213 
G01 X21.9913 Y33.5481 
G00 Z2.0000 
G00 X21.9913 Y36.0881 
G01 Z-0.0250 F254.00 
G01 X21.8859 Y36.2331 F508.00 
G01 X21.8045 Y36.3928 
G01 X21.7491 Y36.5633 
G01 X21.7211 Y36.7404 
G01 X21.7211 Y36.9196 
G01 X21.7491 Y37.0967 
G01 X21.8045 Y37.2672 
G01 X21.8859 Y37.4269 
G01 X21.9913 Y37.5719 
G01 X22.1181 Y37.6987 
G01 X22.2631 Y37.8041 
G01 X22.4228 Y37.8855 
G01 X22.5933 Y37.9409 
G01 X22.7704 Y37.9689 
G01 X22.9496 Y37.9689 
G01 X23.1267 Y37.9409 
G01 X23.2972 Y37.8855 
G01 X23.4569 Y37.8041 
G01 X23.6019 Y37.6987 
G01 X23.7287 Y37.5719 
G01 X23.8341 Y37.4269 
G01 X23.8789 Y37.3389 
G01 X26.2861 Y37.3389 
G01 X26.2861 Y37.5926 
G01 X26.3072 Y37.6437 
G01 X26.3463 Y37.6827 
G01 X26.3974 Y37.7039 
G01 X27.7226 Y37.7039 
G01 X27.7737 Y37.6827 
G01 X27.8128 Y37.6437 
G01 X27.8339 Y37.5926 
G01 X27.8339 Y36.0674 
G01 X27.8128 Y36.0163 
G01 X27.7737 Y35.9772 
G01 X27.7226 Y35.9561 
G01 X26.3974 Y35.9561 
G01 X26.3463 Y35.9772 
G01 X26.3072 Y36.0163 
G01 X26.2861 Y36.0674 
G01 X26.2861 Y36.2611 
G01 X23.8483 Y36.2611 
G01 X23.8341 Y36.2331 
G01 X23.7287 Y36.0881 
G01 X23.6019 Y35.9613 
G01 X23.4569 Y35.8559 
G01 X23.2972 Y35.7745 
G01 X23.1267 Y35.7191 
G01 X22.9496 Y35.6911 
G01 X22.7704 Y35.6911 
G01 X22.5933 Y35.7191 
G01 X22.4228 Y35.7745 
G01 X22.2631 Y35.8559 
G01 X22.1181 Y35.9613 
G01 X21.9913 Y36.0881 
G00 Z2.0000 
G00 X21.9913 Y38.6281 
G01 Z-0.0250 F254.00 
G01 X21.8859 Y38.7731 F508.00 
G01 X21.8045 Y38.9328 
G01 X21.7491 Y39.1033 
G01 X21.7211 Y39.2804 
G01 X21.7211 Y39.4596 
G01 X21.7491 Y39.6367 
G01 X21.8045 Y39.8072 
G01 X21.8859 Y39.9669 
G01 X21.9913 Y40.1119 
G01 X22.1181 Y40.2387 
G01 X22.2631 Y40.3441 
G01 X22.4228 Y40.4255 
G01 X22.5933 Y40.4809 
G01 X22.7704 Y40.5089 
G01 X22.9496 Y40.5089 
G01 X23.1267 Y40.4809 
G01 X23.2972 Y40.4255 
G01 X23.4569 Y40.3441 
G01 X23.6019 Y40.2387 
G01 X23.7017 Y40.1389 
G01 X25.3768 Y40.1389 
G01 X33.3688 Y48.1309 
G01 X33.4374 Y48.1995 
G01 X33.4063 Y48.2306 
G01 X33.3009 Y48.3756 
G01 X33.2195 Y48.5353 
G01 X33.1641 Y48.7058 
G01 X33.1361 Y48.8829 
G01 X33.1361 Y49.0621 
G01 X33.1641 Y49.2392 
G01 X33.2195 Y49.4097 
G01 X33.3009 Y49.5694 
G01 X33.4063 Y49.7144 
G01 X33.5331 Y49.8412 
G01 X33.6781 Y49.9466 
G01 X33.8378 Y50.0280 
G01 X34.0083 Y50.0834 
G01 X34.1854 Y50.1114 
G01 X34.3646 Y50.1114 
G01 X34.5417 Y50.0834 
G01 X34.7122 Y50.0280 
G01 X34.8719 Y49.9466 
G01 X35.0169 Y49.8412 
G01 X35.1437 Y49.7144 
G01 X35.2491 Y49.5694 
G01 X35.3305 Y49.4097 
G01 X35.3859 Y49.2392 
G01 X35.4139 Y49.0621 
G01 X35.4139 Y48.8829 
G01 X35.3859 Y48.7058 
G01 X35.3305 Y48.5353 
G01 X35.2491 Y48.3756 
G01 X35.1437 Y48.2306 
G01 X35.0169 Y48.1038 
G01 X34.8719 Y47.9984 
G01 X34.7122 Y47.9170 
G01 X34.5417 Y47.8616 
G01 X34.5199 Y47.8582 
G01 X34.5165 Y47.8456 
G01 X35.4232 Y46.9389 
G01 X37.3768 Y46.9389 
G01 X38.5774 Y48.1395 
G01 X38.4863 Y48.2306 
G01 X38.3809 Y48.3756 
G01 X38.2995 Y48.5353 
G01 X38.2441 Y48.7058 
G01 X38.2161 Y48.8829 
G01 X38.2161 Y49.0621 
G01 X38.2441 Y49.2392 
G01 X38.2995 Y49.4097 
G01 X38.3809 Y49.5694 
G01 X38.4863 Y49.7144 
G01 X38.6131 Y49.8412 
G01 X38.7581 Y49.9466 
G01 X38.9178 Y50.0280 
G01 X39.0883 Y50.0834 
G01 X39.2654 Y50.1114 
G01 X39.4446 Y50.1114 
G01 X39.6217 Y50.0834 
G01 X39.7922 Y50.0280 
G01 X39.9519 Y49.9466 
G01 X40.0969 Y49.8412 
G01 X40.2237 Y49.7144 
G01 X40.3291 Y49.5694 
G01 X40.4105 Y49.4097 
G01 X40.4659 Y49.2392 
G01 X40.4939 Y49.0621 
G01 X40.4939 Y48.8829 
G01 X40.4659 Y48.7058 
G01 X40.4105 Y48.5353 
G01 X40.3291 Y48.3756 
G01 X40.2237 Y48.2306 
G01 X40.0969 Y48.1038 
G01 X39.9519 Y47.9984 
G01 X39.7922 Y47.9170 
G01 X39.7303 Y47.8969 
G01 X39.7022 Y47.7920 
G01 X39.6312 Y47.6691 
G01 X38.0312 Y46.0691 
G01 X37.9309 Y45.9688 
G01 X37.8080 Y45.8978 
G01 X37.6709 Y45.8611 
G01 X35.1290 Y45.8611 
G01 X34.9920 Y45.8978 
G01 X34.8691 Y45.9688 
G01 X33.8000 Y47.0379 
G01 X25.9309 Y39.1688 
G01 X25.8080 Y39.0978 
G01 X25.6709 Y39.0611 
G01 X23.9571 Y39.0611 
G01 X23.9155 Y38.9328 
G01 X23.8341 Y38.7731 
G01 X23.7287 Y38.6281 
G01 X23.6019 Y38.5013 
G01 X23.4569 Y38.3959 
G01 X23.2972 Y38.3145 
G01 X23.1267 Y38.2591 
G01 X22.9496 Y38.2311 
G01 X22.7704 Y38.2311 
G01 X22.5933 Y38.2591 
G01 X22.4228 Y38.3145 
G01 X22.2631 Y38.3959 
G01 X22.1181 Y38.5013 
G01 X21.9913 Y38.6281 
G00 Z2.0000 
G00 X21.9913 Y41.1681 
G01 Z-0.0250 F254.00 
G01 X21.8859 Y41.3131 F508.00 
G01 X21.8045 Y41.4728 
G01 X21.7491 Y41.6433 
G01 X21.7211 Y41.8204 
G01 X21.7211 Y41.9996 
G01 X21.7491 Y42.1767 
G01 X21.8045 Y42.3472 
G01 X21.8859 Y42.5069 
G01 X21.9913 Y42.6519 
G01 X22.1181 Y42.7787 
G01 X22.2631 Y42.8841 
G01 X22.4228 Y42.9655 
G01 X22.5933 Y43.0209 
G01 X22.7704 Y43.0489 
G01 X22.9496 Y43.0489 
G01 X23.1267 Y43.0209 
G01 X23.2972 Y42.9655 
G01 X23.4569 Y42.8841 
G01 X23.6019 Y42.7787 
G01 X23.7287 Y42.6519 
G01 X23.8341 Y42.5069 
G01 X23.9155 Y42.3472 
G01 X23.9709 Y42.1767 
G01 X23.9989 Y41.9996 
G01 X23.9989 Y41.8204 
G01 X23.9709 Y41.6433 
G01 X23.9155 Y41.4728 
G01 X23.8341 Y41.3131 
G01 X23.7287 Y41.1681 
G01 X23.6019 Y41.0413 
G01 X23.4569 Y40.9359 
G01 X23.2972 Y40.8545 
G01 X23.1267 Y40.7991 
G01 X22.9496 Y40.7711 
G01 X22.7704 Y40.7711 
G01 X22.5933 Y40.7991 
G01 X22.4228 Y40.8545 
G01 X22.2631 Y40.9359 
G01 X22.1181 Y41.0413 
G01 X21.9913 Y41.1681 
G00 Z2.0000 
G00 X21.9913 Y43.7081 
G01 Z-0.0250 F254.00 
G01 X21.8859 Y43.8531 F508.00 
G01 X21.8045 Y44.0128 
G01 X21.7491 Y44.1833 
G01 X21.7211 Y44.3604 
G01 X21.7211 Y44.5396 
G01 X21.7491 Y44.7167 
G01 X21.8045 Y44.8872 
G01 X21.8859 Y45.0469 
G01 X21.9913 Y45.1919 
G01 X22.1181 Y45.3187 
G01 X22.2631 Y45.4241 
G01 X22.4228 Y45.5055 
G01 X22.5933 Y45.5609 
G01 X22.7704 Y45.5889 
G01 X22.9496 Y45.5889 
G01 X23.1267 Y45.5609 
G01 X23.2972 Y45.5055 
G01 X23.4569 Y45.4241 
G01 X23.6019 Y45.3187 
G01 X23.7287 Y45.1919 
G01 X23.8341 Y45.0469 
G01 X23.9155 Y44.8872 
G01 X23.9709 Y44.7167 
G01 X23.9989 Y44.5396 
G01 X23.9989 Y44.3604 
G01 X23.9709 Y44.1833 
G01 X23.9155 Y44.0128 
G01 X23.8341 Y43.8531 
G01 X23.7287 Y43.7081 
G01 X23.6019 Y43.5813 
G01 X23.4569 Y43.4759 
G01 X23.2972 Y43.3945 
G01 X23.1267 Y43.3391 
G01 X22.9496 Y43.3111 
G01 X22.7704 Y43.3111 
G01 X22.5933 Y43.3391 
G01 X22.4228 Y43.3945 
G01 X22.2631 Y43.4759 
G01 X22.1181 Y43.5813 
G01 X21.9913 Y43.7081 
G00 Z2.0000 
G00 X21.9913 Y46.2481 
G01 Z-0.0250 F254.00 
G01 X21.8859 Y46.3931 F508.00 
G01 X21.8045 Y46.5528 
G01 X21.7491 Y46.7233 
G01 X21.7211 Y46.9004 
G01 X21.7211 Y47.0796 
G01 X21.7491 Y47.2567 
G01 X21.8045 Y47.4272 
G01 X21.8859 Y47.5869 
G01 X21.9913 Y47.7319 
G01 X22.1181 Y47.8587 
G01 X22.2631 Y47.9641 
G01 X22.4228 Y48.0455 
G01 X22.5933 Y48.1009 
G01 X22.7704 Y48.1289 
G01 X22.9496 Y48.1289 
G01 X23.1267 Y48.1009 
G01 X23.2972 Y48.0455 
G01 X23.4569 Y47.9641 
G01 X23.6019 Y47.8587 
G01 X23.7287 Y47.7319 
G01 X23.8341 Y47.5869 
G01 X23.9155 Y47.4272 
G01 X23.9709 Y47.2567 
G01 X23.9989 Y47.0796 
G01 X23.9989 Y46.9004 
G01 X23.9709 Y46.7233 
G01 X23.9155 Y46.5528 
G01 X23.8341 Y46.3931 
G01 X23.7287 Y46.2481 
G01 X23.6019 Y46.1213 
G01 X23.4569 Y46.0159 
G01 X23.2972 Y45.9345 
G01 X23.1267 Y45.8791 
G01 X22.9496 Y45.8511 
G01 X22.7704 Y45.8511 
G01 X22.5933 Y45.8791 
G01 X22.4228 Y45.9345 
G01 X22.2631 Y46.0159 
G01 X22.1181 Y46.1213 
G01 X21.9913 Y46.2481 
G00 Z2.0000 
G00 X20.9389 Y46.3291 
G01 Z-0.0250 F254.00 
G01 X20.9022 Y46.1920 F508.00 
G01 X20.8312 Y46.0691 
G01 X20.7309 Y45.9688 
G01 X8.7309 Y33.9688 
G01 X8.7090 Y33.9562 
G01 X8.6755 Y33.8528 
G01 X8.5941 Y33.6931 
G01 X8.4887 Y33.5481 
G01 X8.3619 Y33.4213 
G01 X8.2169 Y33.3159 
G01 X8.0572 Y33.2345 
G01 X7.8867 Y33.1791 
G01 X7.7096 Y33.1511 
G01 X7.5304 Y33.1511 
G01 X7.3533 Y33.1791 
G01 X7.1828 Y33.2345 
G01 X7.0231 Y33.3159 
G01 X6.8781 Y33.4213 
G01 X6.7513 Y33.5481 
G01 X6.6459 Y33.6931 
G01 X6.5645 Y33.8528 
G01 X6.5091 Y34.0233 
G01 X6.4811 Y34.2004 
G01 X6.4811 Y34.3796 
G01 X6.5091 Y34.5567 
G01 X6.5645 Y34.7272 
G01 X6.6459 Y34.8869 
G01 X6.7513 Y35.0319 
G01 X6.8781 Y35.1587 
G01 X7.0231 Y35.2641 
G01 X7.1828 Y35.3455 
G01 X7.3533 Y35.4009 
G01 X7.5304 Y35.4289 
G01 X7.7096 Y35.4289 
G01 X7.8867 Y35.4009 
G01 X8.0572 Y35.3455 
G01 X8.2169 Y35.2641 
G01 X8.3619 Y35.1587 
G01 X8.3793 Y35.1414 
G01 X19.8611 Y46.6232 
G01 X19.8611 Y48.0709 
G01 X19.8978 Y48.2080 
G01 X19.9688 Y48.3309 
G01 X21.1688 Y49.5309 
G01 X21.2691 Y49.6312 
G01 X21.3920 Y49.7022 
G01 X21.5291 Y49.7389 
G01 X30.8908 Y49.7389 
G01 X30.9931 Y49.8412 
G01 X31.1381 Y49.9466 
G01 X31.2978 Y50.0280 
G01 X31.4683 Y50.0834 
G01 X31.6454 Y50.1114 
G01 X31.8246 Y50.1114 
G01 X32.0017 Y50.0834 
G01 X32.1722 Y50.0280 
G01 X32.3319 Y49.9466 
G01 X32.4769 Y49.8412 
G01 X32.6037 Y49.7144 
G01 X32.7091 Y49.5694 
G01 X32.7905 Y49.4097 
G01 X32.8459 Y49.2392 
G01 X32.8739 Y49.0621 
G01 X32.8739 Y48.8829 
G01 X32.8459 Y48.7058 
G01 X32.7905 Y48.5353 
G01 X32.7091 Y48.3756 
G01 X32.6037 Y48.2306 
G01 X32.4769 Y48.1038 
G01 X32.3319 Y47.9984 
G01 X32.1722 Y47.9170 
G01 X32.0017 Y47.8616 
G01 X31.8246 Y47.8336 
G01 X31.6454 Y47.8336 
G01 X31.4683 Y47.8616 
G01 X31.2978 Y47.9170 
G01 X31.1381 Y47.9984 
G01 X30.9931 Y48.1038 
G01 X30.8663 Y48.2306 
G01 X30.7609 Y48.3756 
G01 X30.6795 Y48.5353 
G01 X30.6387 Y48.6611 
G01 X21.8232 Y48.6611 
G01 X20.9389 Y47.7768 
G01 X20.9389 Y46.3291 
G00 Z2.0000 
G00 X19.1309 Y46.7688 
G01 Z-0.0250 F254.00 
G01 X8.7309 Y36.3688 F508.00 
G01 X8.6350 Y36.3134 
G01 X8.5941 Y36.2331 
G01 X8.4887 Y36.0881 
G01 X8.3619 Y35.9613 
G01 X8.2169 Y35.8559 
G01 X8.0572 Y35.7745 
G01 X7.8867 Y35.7191 
G01 X7.7096 Y35.6911 
G01 X7.5304 Y35.6911 
G01 X7.3533 Y35.7191 
G01 X7.1828 Y35.7745 
G01 X7.0231 Y35.8559 
G01 X6.8781 Y35.9613 
G01 X6.7513 Y36.0881 
G01 X6.6459 Y36.2331 
G01 X6.5645 Y36.3928 
G01 X6.5091 Y36.5633 
G01 X6.4811 Y36.7404 
G01 X6.4811 Y36.9196 
G01 X6.5091 Y37.0967 
G01 X6.5645 Y37.2672 
G01 X6.6459 Y37.4269 
G01 X6.7513 Y37.5719 
G01 X6.8781 Y37.6987 
G01 X7.0231 Y37.8041 
G01 X7.1828 Y37.8855 
G01 X7.3533 Y37.9409 
G01 X7.5304 Y37.9689 
G01 X7.7096 Y37.9689 
G01 X7.8867 Y37.9409 
G01 X8.0572 Y37.8855 
G01 X8.2169 Y37.8041 
G01 X8.3619 Y37.6987 
G01 X8.4493 Y37.6114 
G01 X18.2611 Y47.4232 
G01 X18.2611 Y48.8709 
G01 X18.2978 Y49.0080 
G01 X18.3688 Y49.1309 
G01 X21.1688 Y51.9309 
G01 X21.2691 Y52.0312 
G01 X21.3920 Y52.1022 
G01 X21.5291 Y52.1389 
G01 X28.1768 Y52.1389 
G01 X30.3688 Y54.3309 
G01 X30.4691 Y54.4312 
G01 X30.5920 Y54.5022 
G01 X30.7291 Y54.5389 
G01 X37.6709 Y54.5389 
G01 X37.8080 Y54.5022 
G01 X37.9309 Y54.4312 
G01 X39.5309 Y52.8312 
G01 X39.6312 Y52.7309 
G01 X39.7022 Y52.6080 
G01 X39.7053 Y52.5962 
G01 X39.7922 Y52.5680 
G01 X39.9519 Y52.4866 
G01 X40.0969 Y52.3812 
G01 X40.2237 Y52.2544 
G01 X40.3291 Y52.1094 
G01 X40.4105 Y51.9497 
G01 X40.4659 Y51.7792 
G01 X40.4939 Y51.6021 
G01 X40.4939 Y51.4229 
G01 X40.4659 Y51.2458 
G01 X40.4105 Y51.0753 
G01 X40.3291 Y50.9156 
G01 X40.2237 Y50.7706 
G01 X40.0969 Y50.6438 
G01 X39.9519 Y50.5384 
G01 X39.7922 Y50.4570 
G01 X39.6217 Y50.4016 
G01 X39.4446 Y50.3736 
G01 X39.2654 Y50.3736 
G01 X39.0883 Y50.4016 
G01 X38.9178 Y50.4570 
G01 X38.7581 Y50.5384 
G01 X38.6131 Y50.6438 
G01 X38.4863 Y50.7706 
G01 X38.3809 Y50.9156 
G01 X38.2995 Y51.0753 
G01 X38.2441 Y51.2458 
G01 X38.2161 Y51.4229 
G01 X38.2161 Y51.6021 
G01 X38.2441 Y51.7792 
G01 X38.2995 Y51.9497 
G01 X38.3809 Y52.1094 
G01 X38.4863 Y52.2544 
G01 X38.5349 Y52.3030 
G01 X37.3768 Y53.4611 
G01 X31.0232 Y53.4611 
G01 X28.7309 Y51.1688 
G01 X28.6080 Y51.0978 
G01 X28.4709 Y51.0611 
G01 X21.8232 Y51.0611 
G01 X19.3389 Y48.5768 
G01 X19.3389 Y47.1290 
G01 X19.3022 Y46.9920 
G01 X19.2312 Y46.8691 
G01 X19.1309 Y46.7688 
G00 Z2.0000 
G00 X19.1076 Y51.3311 
G01 Z-0.0250 F254.00 
G01 X18.2524 Y51.3311 F508.00 
G01 X18.2013 Y51.3522 
G01 X18.1622 Y51.3913 
G01 X18.1411 Y51.4424 
G01 X18.1411 Y52.0228 
G01 X18.1370 Y52.0461 
G01 X18.1411 Y52.0934 
G01 X18.1411 Y52.6976 
G01 X18.1622 Y52.7487 
G01 X18.2013 Y52.7878 
G01 X18.2524 Y52.8089 
G01 X18.2611 Y52.8089 
G01 X18.2611 Y55.4137 
G01 X18.2474 Y55.4193 
G01 X18.2083 Y55.4584 
G01 X18.1872 Y55.5095 
G01 X18.1872 Y57.5713 
G01 X18.2083 Y57.6224 
G01 X18.2474 Y57.6615 
G01 X18.2611 Y57.6671 
G01 X18.2611 Y57.7768 
G01 X17.7768 Y58.2611 
G01 X15.4232 Y58.2611 
G01 X14.1389 Y56.9768 
G01 X14.1389 Y56.5224 
G01 X14.1177 Y56.4713 
G01 X14.0787 Y56.4322 
G01 X14.0276 Y56.4111 
G01 X13.1724 Y56.4111 
G01 X13.1213 Y56.4322 
G01 X13.0822 Y56.4713 
G01 X13.0611 Y56.5224 
G01 X13.0611 Y57.7776 
G01 X13.0822 Y57.8287 
G01 X13.1213 Y57.8678 
G01 X13.1724 Y57.8889 
G01 X13.5268 Y57.8889 
G01 X14.7688 Y59.1309 
G01 X14.8691 Y59.2312 
G01 X14.9920 Y59.3022 
G01 X15.1290 Y59.3389 
G01 X18.0709 Y59.3389 
G01 X18.2080 Y59.3022 
G01 X18.3309 Y59.2312 
G01 X18.4312 Y59.1309 
G01 X19.1309 Y58.4312 
G01 X19.2312 Y58.3309 
G01 X19.3022 Y58.2080 
G01 X19.3389 Y58.0709 
G01 X19.3389 Y57.6826 
G01 X19.8523 Y57.6826 
G01 X19.9034 Y57.6615 
G01 X19.9425 Y57.6224 
G01 X19.9636 Y57.5713 
G01 X19.9636 Y55.5095 
G01 X19.9425 Y55.4584 
G01 X19.9034 Y55.4193 
G01 X19.8523 Y55.3982 
G01 X19.3389 Y55.3982 
G01 X19.3389 Y54.5389 
G01 X23.7964 Y54.5389 
G01 X23.8259 Y54.5969 
G01 X23.9313 Y54.7419 
G01 X24.0581 Y54.8687 
G01 X24.2031 Y54.9741 
G01 X24.3628 Y55.0555 
G01 X24.5333 Y55.1109 
G01 X24.7104 Y55.1389 
G01 X24.8896 Y55.1389 
G01 X25.0667 Y55.1109 
G01 X25.2372 Y55.0555 
G01 X25.3969 Y54.9741 
G01 X25.5419 Y54.8687 
G01 X25.6687 Y54.7419 
G01 X25.7741 Y54.5969 
G01 X25.8555 Y54.4372 
G01 X25.9109 Y54.2667 
G01 X25.9389 Y54.0896 
G01 X25.9389 Y53.9104 
G01 X25.9109 Y53.7333 
G01 X25.8555 Y53.5628 
G01 X25.7741 Y53.4031 
G01 X25.6687 Y53.2581 
G01 X25.5419 Y53.1313 
G01 X25.3969 Y53.0259 
G01 X25.2372 Y52.9445 
G01 X25.0667 Y52.8891 
G01 X24.8896 Y52.8611 
G01 X24.7104 Y52.8611 
G01 X24.5333 Y52.8891 
G01 X24.3628 Y52.9445 
G01 X24.2031 Y53.0259 
G01 X24.0581 Y53.1313 
G01 X23.9313 Y53.2581 
G01 X23.8259 Y53.4031 
G01 X23.7964 Y53.4611 
G01 X19.3389 Y53.4611 
G01 X19.3389 Y52.4472 
G01 X19.3430 Y52.4239 
G01 X19.3389 Y52.3766 
G01 X19.3389 Y52.3291 
G01 X19.3328 Y52.3061 
G01 X19.3307 Y52.2825 
G01 X19.3145 Y52.2379 
G01 X19.3022 Y52.1920 
G01 X19.2903 Y52.1714 
G01 X19.2189 Y51.9751 
G01 X19.2189 Y51.4424 
G01 X19.1977 Y51.3913 
G01 X19.1587 Y51.3522 
G01 X19.1076 Y51.3311 
G00 Z2.0000 
G00 X17.3587 Y51.3522 
G01 Z-0.0250 F254.00 
G01 X17.3076 Y51.3311 F508.00 
G01 X16.4524 Y51.3311 
G01 X16.4013 Y51.3522 
G01 X16.3622 Y51.3913 
G01 X16.3411 Y51.4424 
G01 X16.3411 Y52.0056 
G01 X16.2778 Y52.2667 
G01 X16.2611 Y52.3291 
G01 X16.2611 Y52.3356 
G01 X16.2596 Y52.3420 
G01 X16.2611 Y52.4064 
G01 X16.2611 Y54.6611 
G01 X10.5389 Y54.6611 
G01 X10.5389 Y40.7291 
G01 X10.5022 Y40.5920 
G01 X10.4312 Y40.4691 
G01 X9.2312 Y39.2691 
G01 X9.1309 Y39.1688 
G01 X9.0080 Y39.0978 
G01 X8.8709 Y39.0611 
G01 X8.7171 Y39.0611 
G01 X8.6755 Y38.9328 
G01 X8.5941 Y38.7731 
G01 X8.4887 Y38.6281 
G01 X8.3619 Y38.5013 
G01 X8.2169 Y38.3959 
G01 X8.0572 Y38.3145 
G01 X7.8867 Y38.2591 
G01 X7.7096 Y38.2311 
G01 X7.5304 Y38.2311 
G01 X7.3533 Y38.2591 
G01 X7.1828 Y38.3145 
G01 X7.0231 Y38.3959 
G01 X6.8781 Y38.5013 
G01 X6.7513 Y38.6281 
G01 X6.6459 Y38.7731 
G01 X6.5645 Y38.9328 
G01 X6.5091 Y39.1033 
G01 X6.4811 Y39.2804 
G01 X6.4811 Y39.4596 
G01 X6.5091 Y39.6367 
G01 X6.5645 Y39.8072 
G01 X6.6459 Y39.9669 
G01 X6.7513 Y40.1119 
G01 X6.8781 Y40.2387 
G01 X7.0231 Y40.3441 
G01 X7.1828 Y40.4255 
G01 X7.3533 Y40.4809 
G01 X7.5304 Y40.5089 
G01 X7.7096 Y40.5089 
G01 X7.8867 Y40.4809 
G01 X8.0572 Y40.4255 
G01 X8.2169 Y40.3441 
G01 X8.3619 Y40.2387 
G01 X8.4617 Y40.1389 
G01 X8.5768 Y40.1389 
G01 X9.4611 Y41.0232 
G01 X9.4611 Y54.6611 
G01 X8.7291 Y54.6611 
G01 X8.5920 Y54.6978 
G01 X8.4691 Y54.7688 
G01 X7.6691 Y55.5688 
G01 X7.5688 Y55.6691 
G01 X7.4978 Y55.7920 
G01 X7.4611 Y55.9290 
G01 X7.4611 Y56.4111 
G01 X7.2124 Y56.4111 
G01 X7.1613 Y56.4322 
G01 X7.1222 Y56.4713 
G01 X7.1011 Y56.5224 
G01 X7.1011 Y57.7776 
G01 X7.1222 Y57.8287 
G01 X7.1613 Y57.8678 
G01 X7.2124 Y57.8889 
G01 X7.4611 Y57.8889 
G01 X7.4611 Y60.2711 
G01 X7.2124 Y60.2711 
G01 X7.1613 Y60.2922 
G01 X7.1222 Y60.3313 
G01 X7.1011 Y60.3824 
G01 X7.1011 Y62.8376 
G01 X7.1222 Y62.8887 
G01 X7.1613 Y62.9278 
G01 X7.2124 Y62.9489 
G01 X10.0676 Y62.9489 
G01 X10.1187 Y62.9278 
G01 X10.1578 Y62.8887 
G01 X10.1789 Y62.8376 
G01 X10.1789 Y60.9389 
G01 X25.9311 Y60.9389 
G01 X25.9311 Y61.0176 
G01 X25.9522 Y61.0687 
G01 X25.9913 Y61.1078 
G01 X26.0424 Y61.1289 
G01 X26.3676 Y61.1289 
G01 X26.3747 Y61.1368 
G01 X26.3791 Y61.1440 
G01 X26.4248 Y61.1869 
G01 X26.4691 Y61.2312 
G01 X26.4764 Y61.2354 
G01 X26.4825 Y61.2412 
G01 X26.5377 Y61.2708 
G01 X26.5920 Y61.3022 
G01 X26.6001 Y61.3043 
G01 X26.6075 Y61.3083 
G01 X26.6685 Y61.3227 
G01 X26.7291 Y61.3389 
G01 X26.7374 Y61.3389 
G01 X26.7456 Y61.3408 
G01 X26.8083 Y61.3389 
G01 X34.8211 Y61.3389 
G01 X34.8211 Y63.6876 
G01 X34.8422 Y63.7387 
G01 X34.8813 Y63.7777 
G01 X34.9324 Y63.7989 
G01 X38.2611 Y63.7989 
G01 X38.2611 Y69.5702 
G01 X38.2566 Y69.6110 
G01 X38.2611 Y69.6408 
G01 X38.2611 Y69.6709 
G01 X38.2717 Y69.7106 
G01 X38.2779 Y69.7513 
G01 X38.2900 Y69.7789 
G01 X38.2978 Y69.8080 
G01 X38.3184 Y69.8436 
G01 X38.3349 Y69.8812 
G01 X38.3537 Y69.9048 
G01 X38.3688 Y69.9309 
G01 X38.3978 Y69.9600 
G01 X38.4611 Y70.0390 
G01 X38.4611 Y70.4776 
G01 X38.4822 Y70.5287 
G01 X38.5213 Y70.5678 
G01 X38.5724 Y70.5889 
G01 X39.4276 Y70.5889 
G01 X39.4787 Y70.5678 
G01 X39.5177 Y70.5287 
G01 X39.5389 Y70.4776 
G01 X39.5389 Y69.8798 
G01 X39.5434 Y69.8390 
G01 X39.5389 Y69.8092 
G01 X39.5389 Y69.2224 
G01 X39.5177 Y69.1713 
G01 X39.4787 Y69.1322 
G01 X39.4276 Y69.1111 
G01 X39.3389 Y69.1111 
G01 X39.3389 Y63.7989 
G01 X41.1876 Y63.7989 
G01 X41.2387 Y63.7777 
G01 X41.2777 Y63.7387 
G01 X41.2989 Y63.6876 
G01 X41.2989 Y58.2324 
G01 X41.2777 Y58.1813 
G01 X41.2387 Y58.1422 
G01 X41.1876 Y58.1211 
G01 X41.0410 Y58.1211 
G01 X42.0312 Y57.1309 
G01 X42.1022 Y57.0080 
G01 X42.1389 Y56.8709 
G01 X42.1389 Y47.9290 
G01 X42.1022 Y47.7920 
G01 X42.0312 Y47.6691 
G01 X41.9309 Y47.5688 
G01 X36.1389 Y41.7768 
G01 X36.1389 Y38.2689 
G01 X36.1876 Y38.2689 
G01 X36.2387 Y38.2478 
G01 X36.2777 Y38.2087 
G01 X36.2989 Y38.1576 
G01 X36.2989 Y37.3024 
G01 X36.2777 Y37.2513 
G01 X36.2387 Y37.2122 
G01 X36.1876 Y37.1911 
G01 X35.5909 Y37.1911 
G01 X35.5512 Y37.1865 
G01 X35.5203 Y37.1911 
G01 X34.9324 Y37.1911 
G01 X34.8813 Y37.2122 
G01 X34.8422 Y37.2513 
G01 X34.8211 Y37.3024 
G01 X34.8211 Y38.1576 
G01 X34.8422 Y38.2087 
G01 X34.8813 Y38.2478 
G01 X34.9324 Y38.2689 
G01 X35.0611 Y38.2689 
G01 X35.0611 Y42.0709 
G01 X35.0978 Y42.2080 
G01 X35.1688 Y42.3309 
G01 X41.0611 Y48.2232 
G01 X41.0611 Y56.5768 
G01 X39.5168 Y58.1211 
G01 X34.9324 Y58.1211 
G01 X34.8813 Y58.1422 
G01 X34.8422 Y58.1813 
G01 X34.8211 Y58.2324 
G01 X34.8211 Y60.2611 
G01 X27.4089 Y60.2611 
G01 X27.4089 Y60.1624 
G01 X27.3878 Y60.1113 
G01 X27.3487 Y60.0722 
G01 X27.2976 Y60.0511 
G01 X26.8406 Y60.0511 
G01 X26.7482 Y59.9860 
G01 X26.7309 Y59.9688 
G01 X26.6904 Y59.9454 
G01 X26.6521 Y59.9185 
G01 X26.6292 Y59.9100 
G01 X26.6080 Y59.8978 
G01 X26.5628 Y59.8857 
G01 X26.5189 Y59.8696 
G01 X26.4946 Y59.8674 
G01 X26.4709 Y59.8611 
G01 X26.4242 Y59.8611 
G01 X26.3776 Y59.8569 
G01 X26.3535 Y59.8611 
G01 X8.5389 Y59.8611 
G01 X8.5389 Y57.8475 
G01 X8.5578 Y57.8287 
G01 X8.5789 Y57.7776 
G01 X8.5789 Y56.5224 
G01 X8.5578 Y56.4713 
G01 X8.5389 Y56.4525 
G01 X8.5389 Y56.2232 
G01 X9.0232 Y55.7389 
G01 X15.9012 Y55.7389 
G01 X15.9012 Y57.5713 
G01 X15.9223 Y57.6224 
G01 X15.9614 Y57.6615 
G01 X16.0125 Y57.6826 
G01 X17.5663 Y57.6826 
G01 X17.6174 Y57.6615 
G01 X17.6564 Y57.6224 
G01 X17.6776 Y57.5713 
G01 X17.6776 Y55.5095 
G01 X17.6564 Y55.4584 
G01 X17.6174 Y55.4193 
G01 X17.5663 Y55.3982 
G01 X17.3389 Y55.3982 
G01 X17.3389 Y52.7959 
G01 X17.3587 Y52.7878 
G01 X17.3977 Y52.7487 
G01 X17.4189 Y52.6976 
G01 X17.4189 Y52.1344 
G01 X17.4204 Y52.1280 
G01 X17.4189 Y52.0636 
G01 X17.4189 Y51.4424 
G01 X17.3977 Y51.3913 
G01 X17.3587 Y51.3522 
G00 Z2.0000 
G00 X20.4943 Y55.4584 
G01 Z-0.0250 F254.00 
G01 X20.4732 Y55.5095 F508.00 
G01 X20.4732 Y57.5713 
G01 X20.4943 Y57.6224 
G01 X20.5334 Y57.6615 
G01 X20.5845 Y57.6826 
G01 X22.1383 Y57.6826 
G01 X22.1894 Y57.6615 
G01 X22.2284 Y57.6224 
G01 X22.2496 Y57.5713 
G01 X22.2496 Y57.3389 
G01 X24.5768 Y57.3389 
G01 X25.9311 Y58.6932 
G01 X25.9311 Y59.2176 
G01 X25.9522 Y59.2687 
G01 X25.9913 Y59.3077 
G01 X26.0424 Y59.3289 
G01 X26.6214 Y59.3289 
G01 X26.6434 Y59.3329 
G01 X26.6714 Y59.3306 
G01 X26.7088 Y59.3335 
G01 X26.7291 Y59.3389 
G01 X26.7793 Y59.3389 
G01 X26.8294 Y59.3428 
G01 X26.8500 Y59.3389 
G01 X30.3454 Y59.3389 
G01 X30.3615 Y59.3422 
G01 X30.4161 Y59.3389 
G01 X30.4709 Y59.3389 
G01 X30.4868 Y59.3347 
G01 X30.5031 Y59.3337 
G01 X30.5474 Y59.3189 
G01 X31.5876 Y59.3189 
G01 X31.6387 Y59.2978 
G01 X31.6777 Y59.2587 
G01 X31.6989 Y59.2076 
G01 X31.6989 Y58.1524 
G01 X31.6777 Y58.1013 
G01 X31.6387 Y58.0622 
G01 X31.5876 Y58.0411 
G01 X29.9324 Y58.0411 
G01 X29.8813 Y58.0622 
G01 X29.8422 Y58.1013 
G01 X29.8211 Y58.1524 
G01 X29.8211 Y58.2611 
G01 X27.3218 Y58.2611 
G01 X27.2976 Y58.2511 
G01 X26.9524 Y58.2511 
G01 X26.8556 Y58.1114 
G01 X26.8312 Y58.0691 
G01 X26.8154 Y58.0533 
G01 X26.8027 Y58.0349 
G01 X26.7654 Y58.0033 
G01 X25.1309 Y56.3688 
G01 X25.0080 Y56.2978 
G01 X24.8709 Y56.2611 
G01 X22.2496 Y56.2611 
G01 X22.2496 Y55.5095 
G01 X22.2284 Y55.4584 
G01 X22.1894 Y55.4193 
G01 X22.1383 Y55.3982 
G01 X20.5845 Y55.3982 
G01 X20.5334 Y55.4193 
G01 X20.4943 Y55.4584 
G00 Z2.0000 
G00 X20.9826 Y61.6974 
G01 Z-0.0250 F254.00 
G01 X17.1174 Y61.6974 F508.00 
G01 X17.0663 Y61.7185 
G01 X17.0272 Y61.7576 
G01 X17.0061 Y61.8087 
G01 X17.0061 Y63.8705 
G01 X17.0272 Y63.9216 
G01 X17.0663 Y63.9607 
G01 X17.1174 Y63.9818 
G01 X20.9826 Y63.9818 
G01 X21.0337 Y63.9607 
G01 X21.0727 Y63.9216 
G01 X21.0939 Y63.8705 
G01 X21.0939 Y61.8087 
G01 X21.0727 Y61.7576 
G01 X21.0337 Y61.7185 
G01 X20.9826 Y61.6974 
G00 Z2.0000 
G00 X20.9897 Y67.6004 
G01 Z-0.0250 F254.00 
G01 X20.8439 Y67.7064 F508.00 
G01 X20.7164 Y67.8339 
G01 X20.6105 Y67.9797 
G01 X20.5286 Y68.1404 
G01 X20.4729 Y68.3118 
G01 X20.4447 Y68.4899 
G01 X20.4447 Y68.6701 
G01 X20.4729 Y68.8482 
G01 X20.5286 Y69.0196 
G01 X20.6105 Y69.1803 
G01 X20.7164 Y69.3261 
G01 X20.8439 Y69.4536 
G01 X20.9897 Y69.5595 
G01 X21.1504 Y69.6414 
G01 X21.3218 Y69.6971 
G01 X21.4999 Y69.7253 
G01 X21.6801 Y69.7253 
G01 X21.8582 Y69.6971 
G01 X22.0296 Y69.6414 
G01 X22.1903 Y69.5595 
G01 X22.3361 Y69.4536 
G01 X22.4636 Y69.3261 
G01 X22.5695 Y69.1803 
G01 X22.6514 Y69.0196 
G01 X22.7071 Y68.8482 
G01 X22.7353 Y68.6701 
G01 X22.7353 Y68.4899 
G01 X22.7071 Y68.3118 
G01 X22.6514 Y68.1404 
G01 X22.5695 Y67.9797 
G01 X22.4636 Y67.8339 
G01 X22.3361 Y67.7064 
G01 X22.1903 Y67.6004 
G01 X22.0296 Y67.5186 
G01 X21.8582 Y67.4629 
G01 X21.6801 Y67.4347 
G01 X21.4999 Y67.4347 
G01 X21.3218 Y67.4629 
G01 X21.1504 Y67.5186 
G01 X20.9897 Y67.6004 
G00 Z2.0000 
G00 X19.7961 Y67.7064 
G01 Z-0.0250 F254.00 
G01 X19.6503 Y67.6004 F508.00 
G01 X19.4896 Y67.5186 
G01 X19.3182 Y67.4629 
G01 X19.1401 Y67.4347 
G01 X18.9599 Y67.4347 
G01 X18.7818 Y67.4629 
G01 X18.6104 Y67.5186 
G01 X18.4497 Y67.6004 
G01 X18.3039 Y67.7064 
G01 X18.1764 Y67.8339 
G01 X18.0705 Y67.9797 
G01 X17.9886 Y68.1404 
G01 X17.9329 Y68.3118 
G01 X17.9047 Y68.4899 
G01 X17.9047 Y68.6701 
G01 X17.9329 Y68.8482 
G01 X17.9886 Y69.0196 
G01 X18.0705 Y69.1803 
G01 X18.1764 Y69.3261 
G01 X18.3039 Y69.4536 
G01 X18.4497 Y69.5595 
G01 X18.6104 Y69.6414 
G01 X18.7818 Y69.6971 
G01 X18.9599 Y69.7253 
G01 X19.1401 Y69.7253 
G01 X19.3182 Y69.6971 
G01 X19.4896 Y69.6414 
G01 X19.6503 Y69.5595 
G01 X19.7961 Y69.4536 
G01 X19.9236 Y69.3261 
G01 X20.0295 Y69.1803 
G01 X20.1114 Y69.0196 
G01 X20.1671 Y68.8482 
G01 X20.1953 Y68.6701 
G01 X20.1953 Y68.4899 
G01 X20.1671 Y68.3118 
G01 X20.1114 Y68.1404 
G01 X20.0295 Y67.9797 
G01 X19.9236 Y67.8339 
G01 X19.7961 Y67.7064 
G00 Z2.0000 
G00 X17.2561 Y67.7064 
G01 Z-0.0250 F254.00 
G01 X17.1103 Y67.6004 F508.00 
G01 X16.9496 Y67.5186 
G01 X16.7782 Y67.4629 
G01 X16.6001 Y67.4347 
G01 X16.4199 Y67.4347 
G01 X16.2418 Y67.4629 
G01 X16.0704 Y67.5186 
G01 X15.9097 Y67.6004 
G01 X15.7639 Y67.7064 
G01 X15.6364 Y67.8339 
G01 X15.5305 Y67.9797 
G01 X15.4486 Y68.1404 
G01 X15.3929 Y68.3118 
G01 X15.3647 Y68.4899 
G01 X15.3647 Y68.6701 
G01 X15.3929 Y68.8482 
G01 X15.4486 Y69.0196 
G01 X15.5305 Y69.1803 
G01 X15.6364 Y69.3261 
G01 X15.7639 Y69.4536 
G01 X15.9097 Y69.5595 
G01 X16.0704 Y69.6414 
G01 X16.2418 Y69.6971 
G01 X16.4199 Y69.7253 
G01 X16.6001 Y69.7253 
G01 X16.7782 Y69.6971 
G01 X16.9496 Y69.6414 
G01 X17.1103 Y69.5595 
G01 X17.2561 Y69.4536 
G01 X17.3836 Y69.3261 
G01 X17.4895 Y69.1803 
G01 X17.5714 Y69.0196 
G01 X17.6271 Y68.8482 
G01 X17.6553 Y68.6701 
G01 X17.6553 Y68.4899 
G01 X17.6271 Y68.3118 
G01 X17.5714 Y68.1404 
G01 X17.4895 Y67.9797 
G01 X17.3836 Y67.8339 
G01 X17.2561 Y67.7064 
G00 Z2.0000 
G00 X17.2561 Y72.7864 
G01 Z-0.0250 F254.00 
G01 X17.1103 Y72.6804 F508.00 
G01 X16.9496 Y72.5986 
G01 X16.7782 Y72.5429 
G01 X16.6001 Y72.5147 
G01 X16.4199 Y72.5147 
G01 X16.2418 Y72.5429 
G01 X16.1386 Y72.5764 
G01 X13.5309 Y69.9688 
G01 X13.4080 Y69.8978 
G01 X13.2709 Y69.8611 
G01 X6.7290 Y69.8611 
G01 X6.5920 Y69.8978 
G01 X6.4691 Y69.9688 
G01 X6.3688 Y70.0691 
G01 X4.1768 Y72.2611 
G01 X4.0789 Y72.2611 
G01 X4.0789 Y71.7824 
G01 X4.0578 Y71.7313 
G01 X4.0187 Y71.6922 
G01 X3.9676 Y71.6711 
G01 X1.1124 Y71.6711 
G01 X1.0613 Y71.6922 
G01 X1.0222 Y71.7313 
G01 X1.0011 Y71.7824 
G01 X1.0011 Y74.2376 
G01 X1.0222 Y74.2887 
G01 X1.0613 Y74.3277 
G01 X1.1124 Y74.3489 
G01 X3.9676 Y74.3489 
G01 X4.0187 Y74.3277 
G01 X4.0578 Y74.2887 
G01 X4.0789 Y74.2376 
G01 X4.0789 Y73.3389 
G01 X4.4709 Y73.3389 
G01 X4.6080 Y73.3022 
G01 X4.7309 Y73.2312 
G01 X7.0232 Y70.9389 
G01 X12.9768 Y70.9389 
G01 X15.4019 Y73.3640 
G01 X15.3929 Y73.3918 
G01 X15.3647 Y73.5699 
G01 X15.3647 Y73.7501 
G01 X15.3929 Y73.9282 
G01 X15.4486 Y74.0996 
G01 X15.5305 Y74.2603 
G01 X15.6364 Y74.4061 
G01 X15.7639 Y74.5336 
G01 X15.9097 Y74.6395 
G01 X16.0704 Y74.7214 
G01 X16.2418 Y74.7771 
G01 X16.4199 Y74.8053 
G01 X16.6001 Y74.8053 
G01 X16.7782 Y74.7771 
G01 X16.9496 Y74.7214 
G01 X17.1103 Y74.6395 
G01 X17.2561 Y74.5336 
G01 X17.3836 Y74.4061 
G01 X17.4895 Y74.2603 
G01 X17.5714 Y74.0996 
G01 X17.6271 Y73.9282 
G01 X17.6553 Y73.7501 
G01 X17.6553 Y73.5699 
G01 X17.6271 Y73.3918 
G01 X17.5714 Y73.2204 
G01 X17.4895 Y73.0597 
G01 X17.3836 Y72.9139 
G01 X17.2561 Y72.7864 
G00 Z2.0000 
G00 X18.1764 Y72.9139 
G01 Z-0.0250 F254.00 
G01 X18.0705 Y73.0597 F508.00 
G01 X17.9886 Y73.2204 
G01 X17.9329 Y73.3918 
G01 X17.9047 Y73.5699 
G01 X17.9047 Y73.7501 
G01 X17.9329 Y73.9282 
G01 X17.9886 Y74.0996 
G01 X18.0705 Y74.2603 
G01 X18.1764 Y74.4061 
G01 X18.3039 Y74.5336 
G01 X18.4497 Y74.6395 
G01 X18.6104 Y74.7214 
G01 X18.7818 Y74.7771 
G01 X18.9599 Y74.8053 
G01 X19.1401 Y74.8053 
G01 X19.3182 Y74.7771 
G01 X19.4896 Y74.7214 
G01 X19.6503 Y74.6395 
G01 X19.7961 Y74.5336 
G01 X19.9236 Y74.4061 
G01 X20.0295 Y74.2603 
G01 X20.1114 Y74.0996 
G01 X20.1671 Y73.9282 
G01 X20.1953 Y73.7501 
G01 X20.1953 Y73.5699 
G01 X20.1671 Y73.3918 
G01 X20.1114 Y73.2204 
G01 X20.0295 Y73.0597 
G01 X19.9236 Y72.9139 
G01 X19.8859 Y72.8762 
G01 X21.0232 Y71.7389 
G01 X22.4709 Y71.7389 
G01 X22.6080 Y71.7022 
G01 X22.7309 Y71.6312 
G01 X22.8312 Y71.5309 
G01 X24.6232 Y69.7389 
G01 X25.8953 Y69.7389 
G01 X25.9074 Y69.7439 
G01 X27.4326 Y69.7439 
G01 X27.4837 Y69.7228 
G01 X27.5227 Y69.6837 
G01 X27.5439 Y69.6326 
G01 X27.5439 Y68.3074 
G01 X27.5227 Y68.2563 
G01 X27.4837 Y68.2172 
G01 X27.4326 Y68.1961 
G01 X25.9074 Y68.1961 
G01 X25.8563 Y68.2172 
G01 X25.8172 Y68.2563 
G01 X25.7961 Y68.3074 
G01 X25.7961 Y68.6611 
G01 X24.3290 Y68.6611 
G01 X24.1920 Y68.6978 
G01 X24.0691 Y68.7688 
G01 X22.1768 Y70.6611 
G01 X20.7291 Y70.6611 
G01 X20.5920 Y70.6978 
G01 X20.4691 Y70.7688 
G01 X18.8691 Y72.3688 
G01 X18.7688 Y72.4691 
G01 X18.7133 Y72.5652 
G01 X18.6104 Y72.5986 
G01 X18.4497 Y72.6804 
G01 X18.3039 Y72.7864 
G01 X18.1764 Y72.9139 
G00 Z2.0000 
G00 X20.7164 Y72.9139 
G01 Z-0.0250 F254.00 
G01 X20.6105 Y73.0597 F508.00 
G01 X20.5286 Y73.2204 
G01 X20.4729 Y73.3918 
G01 X20.4447 Y73.5699 
G01 X20.4447 Y73.7501 
G01 X20.4729 Y73.9282 
G01 X20.5286 Y74.0996 
G01 X20.6105 Y74.2603 
G01 X20.7164 Y74.4061 
G01 X20.8439 Y74.5336 
G01 X20.9897 Y74.6395 
G01 X21.1504 Y74.7214 
G01 X21.3218 Y74.7771 
G01 X21.4999 Y74.8053 
G01 X21.6801 Y74.8053 
G01 X21.8582 Y74.7771 
G01 X22.0296 Y74.7214 
G01 X22.1903 Y74.6395 
G01 X22.3361 Y74.5336 
G01 X22.4636 Y74.4061 
G01 X22.5695 Y74.2603 
G01 X22.6514 Y74.0996 
G01 X22.7071 Y73.9282 
G01 X22.7353 Y73.7501 
G01 X22.7353 Y73.5699 
G01 X22.7071 Y73.3918 
G01 X22.6514 Y73.2204 
G01 X22.5695 Y73.0597 
G01 X22.4636 Y72.9139 
G01 X22.3361 Y72.7864 
G01 X22.1903 Y72.6804 
G01 X22.0296 Y72.5986 
G01 X21.8582 Y72.5429 
G01 X21.6801 Y72.5147 
G01 X21.4999 Y72.5147 
G01 X21.3218 Y72.5429 
G01 X21.1504 Y72.5986 
G01 X20.9897 Y72.6804 
G01 X20.8439 Y72.7864 
G01 X20.7164 Y72.9139 
G00 Z2.0000 
G00 X25.7961 Y72.6074 
G01 Z-0.0250 F254.00 
G01 X25.7961 Y73.9326 F508.00 
G01 X25.8172 Y73.9837 
G01 X25.8563 Y74.0228 
G01 X25.9074 Y74.0439 
G01 X26.4911 Y74.0439 
G01 X26.4959 Y74.0467 
G01 X26.5201 Y74.0659 
G01 X26.5571 Y74.0820 
G01 X26.5920 Y74.1022 
G01 X26.6218 Y74.1102 
G01 X26.6502 Y74.1225 
G01 X26.6901 Y74.1285 
G01 X26.7291 Y74.1389 
G01 X26.7600 Y74.1389 
G01 X26.7905 Y74.1435 
G01 X26.8306 Y74.1389 
G01 X30.0111 Y74.1389 
G01 X30.0111 Y74.5276 
G01 X30.0322 Y74.5787 
G01 X30.0713 Y74.6178 
G01 X30.1224 Y74.6389 
G01 X33.3776 Y74.6389 
G01 X33.4287 Y74.6178 
G01 X33.4678 Y74.5787 
G01 X33.4889 Y74.5276 
G01 X33.4889 Y72.6924 
G01 X33.4678 Y72.6413 
G01 X33.4287 Y72.6022 
G01 X33.3776 Y72.5811 
G01 X30.1224 Y72.5811 
G01 X30.0713 Y72.6022 
G01 X30.0322 Y72.6413 
G01 X30.0111 Y72.6924 
G01 X30.0111 Y73.0611 
G01 X27.5439 Y73.0611 
G01 X27.5439 Y72.6074 
G01 X27.5227 Y72.5563 
G01 X27.4837 Y72.5172 
G01 X27.4326 Y72.4961 
G01 X25.9074 Y72.4961 
G01 X25.8563 Y72.5172 
G01 X25.8172 Y72.5563 
G01 X25.7961 Y72.6074 
G00 Z2.0000 
G00 X39.8661 Y72.8134 
G01 Z-0.0250 F254.00 
G01 X39.8661 Y74.5066 F508.00 
G01 X41.0634 Y75.7039 
G01 X42.7566 Y75.7039 
G01 X43.9539 Y74.5066 
G01 X43.9539 Y72.8134 
G01 X42.7566 Y71.6161 
G01 X41.0634 Y71.6161 
G01 X39.8661 Y72.8134 
G00 Z2.0000 
G00 X37.6837 Y52.2544 
G01 Z-0.0250 F254.00 
G01 X37.7891 Y52.1094 F508.00 
G01 X37.8705 Y51.9497 
G01 X37.9259 Y51.7792 
G01 X37.9539 Y51.6021 
G01 X37.9539 Y51.4229 
G01 X37.9259 Y51.2458 
G01 X37.8705 Y51.0753 
G01 X37.7891 Y50.9156 
G01 X37.6837 Y50.7706 
G01 X37.5569 Y50.6438 
G01 X37.4119 Y50.5384 
G01 X37.2522 Y50.4570 
G01 X37.0817 Y50.4016 
G01 X36.9046 Y50.3736 
G01 X36.7254 Y50.3736 
G01 X36.5483 Y50.4016 
G01 X36.3778 Y50.4570 
G01 X36.2181 Y50.5384 
G01 X36.0731 Y50.6438 
G01 X35.9463 Y50.7706 
G01 X35.8409 Y50.9156 
G01 X35.7595 Y51.0753 
G01 X35.7041 Y51.2458 
G01 X35.6761 Y51.4229 
G01 X35.6761 Y51.6021 
G01 X35.7041 Y51.7792 
G01 X35.7595 Y51.9497 
G01 X35.8409 Y52.1094 
G01 X35.9463 Y52.2544 
G01 X36.0731 Y52.3812 
G01 X36.2181 Y52.4866 
G01 X36.3778 Y52.5680 
G01 X36.5483 Y52.6234 
G01 X36.7254 Y52.6514 
G01 X36.9046 Y52.6514 
G01 X37.0817 Y52.6234 
G01 X37.2522 Y52.5680 
G01 X37.4119 Y52.4866 
G01 X37.5569 Y52.3812 
G01 X37.6837 Y52.2544 
G00 Z2.0000 
G00 X35.1437 Y52.2544 
G01 Z-0.0250 F254.00 
G01 X35.2491 Y52.1094 F508.00 
G01 X35.3305 Y51.9497 
G01 X35.3859 Y51.7792 
G01 X35.4139 Y51.6021 
G01 X35.4139 Y51.4229 
G01 X35.3859 Y51.2458 
G01 X35.3305 Y51.0753 
G01 X35.2491 Y50.9156 
G01 X35.1437 Y50.7706 
G01 X35.0169 Y50.6438 
G01 X34.8719 Y50.5384 
G01 X34.7122 Y50.4570 
G01 X34.5417 Y50.4016 
G01 X34.3646 Y50.3736 
G01 X34.1854 Y50.3736 
G01 X34.0083 Y50.4016 
G01 X33.8378 Y50.4570 
G01 X33.6781 Y50.5384 
G01 X33.5331 Y50.6438 
G01 X33.4063 Y50.7706 
G01 X33.3009 Y50.9156 
G01 X33.2195 Y51.0753 
G01 X33.1641 Y51.2458 
G01 X33.1361 Y51.4229 
G01 X33.1361 Y51.6021 
G01 X33.1641 Y51.7792 
G01 X33.2195 Y51.9497 
G01 X33.3009 Y52.1094 
G01 X33.4063 Y52.2544 
G01 X33.5331 Y52.3812 
G01 X33.6781 Y52.4866 
G01 X33.8378 Y52.5680 
G01 X34.0083 Y52.6234 
G01 X34.1854 Y52.6514 
G01 X34.3646 Y52.6514 
G01 X34.5417 Y52.6234 
G01 X34.7122 Y52.5680 
G01 X34.8719 Y52.4866 
G01 X35.0169 Y52.3812 
G01 X35.1437 Y52.2544 
G00 Z2.0000 
G00 X32.6037 Y52.2544 
G01 Z-0.0250 F254.00 
G01 X32.7091 Y52.1094 F508.00 
G01 X32.7905 Y51.9497 
G01 X32.8459 Y51.7792 
G01 X32.8739 Y51.6021 
G01 X32.8739 Y51.4229 
G01 X32.8459 Y51.2458 
G01 X32.7905 Y51.0753 
G01 X32.7091 Y50.9156 
G01 X32.6037 Y50.7706 
G01 X32.4769 Y50.6438 
G01 X32.3319 Y50.5384 
G01 X32.1722 Y50.4570 
G01 X32.0017 Y50.4016 
G01 X31.8246 Y50.3736 
G01 X31.6454 Y50.3736 
G01 X31.4683 Y50.4016 
G01 X31.2978 Y50.4570 
G01 X31.1381 Y50.5384 
G01 X30.9931 Y50.6438 
G01 X30.8663 Y50.7706 
G01 X30.7609 Y50.9156 
G01 X30.6795 Y51.0753 
G01 X30.6241 Y51.2458 
G01 X30.5961 Y51.4229 
G01 X30.5961 Y51.6021 
G01 X30.6241 Y51.7792 
G01 X30.6795 Y51.9497 
G01 X30.7609 Y52.1094 
G01 X30.8663 Y52.2544 
G01 X30.9931 Y52.3812 
G01 X31.1381 Y52.4866 
G01 X31.2978 Y52.5680 
G01 X31.4683 Y52.6234 
G01 X31.6454 Y52.6514 
G01 X31.8246 Y52.6514 
G01 X32.0017 Y52.6234 
G01 X32.1722 Y52.5680 
G01 X32.3319 Y52.4866 
G01 X32.4769 Y52.3812 
G01 X32.6037 Y52.2544 
G00 Z2.0000 
G00 X36.0731 Y49.8412 
G01 Z-0.0250 F254.00 
G01 X36.2181 Y49.9466 F508.00 
G01 X36.3778 Y50.0280 
G01 X36.5483 Y50.0834 
G01 X36.7254 Y50.1114 
G01 X36.9046 Y50.1114 
G01 X37.0817 Y50.0834 
G01 X37.2522 Y50.0280 
G01 X37.4119 Y49.9466 
G01 X37.5569 Y49.8412 
G01 X37.6837 Y49.7144 
G01 X37.7891 Y49.5694 
G01 X37.8705 Y49.4097 
G01 X37.9259 Y49.2392 
G01 X37.9539 Y49.0621 
G01 X37.9539 Y48.8829 
G01 X37.9259 Y48.7058 
G01 X37.8705 Y48.5353 
G01 X37.7891 Y48.3756 
G01 X37.6837 Y48.2306 
G01 X37.5569 Y48.1038 
G01 X37.4119 Y47.9984 
G01 X37.2522 Y47.9170 
G01 X37.0817 Y47.8616 
G01 X36.9046 Y47.8336 
G01 X36.7254 Y47.8336 
G01 X36.5483 Y47.8616 
G01 X36.3778 Y47.9170 
G01 X36.2181 Y47.9984 
G01 X36.0731 Y48.1038 
G01 X35.9463 Y48.2306 
G01 X35.8409 Y48.3756 
G01 X35.7595 Y48.5353 
G01 X35.7041 Y48.7058 
G01 X35.6761 Y48.8829 
G01 X35.6761 Y49.0621 
G01 X35.7041 Y49.2392 
G01 X35.7595 Y49.4097 
G01 X35.8409 Y49.5694 
G01 X35.9463 Y49.7144 
G01 X36.0731 Y49.8412 
G00 Z2.0000 
G00 X36.1876 Y28.8489 
G01 Z-0.0250 F254.00 
G01 X36.2387 Y28.8278 F508.00 
G01 X36.2777 Y28.7887 
G01 X36.2989 Y28.7376 
G01 X36.2989 Y27.8824 
G01 X36.2777 Y27.8313 
G01 X36.2387 Y27.7922 
G01 X36.1876 Y27.7711 
G01 X35.7600 Y27.7711 
G01 X35.5669 Y27.6047 
G01 X31.3389 Y23.3768 
G01 X31.3389 Y23.3389 
G01 X32.0709 Y23.3389 
G01 X32.2080 Y23.3022 
G01 X32.3309 Y23.2312 
G01 X38.2000 Y17.3621 
G01 X39.4758 Y18.6379 
G01 X39.4238 Y18.7980 
G01 X39.3931 Y18.9919 
G01 X39.3931 Y19.1881 
G01 X39.4238 Y19.3820 
G01 X39.4845 Y19.5686 
G01 X39.5736 Y19.7435 
G01 X39.6889 Y19.9023 
G01 X39.8277 Y20.0411 
G01 X39.9865 Y20.1564 
G01 X40.1614 Y20.2455 
G01 X40.3480 Y20.3062 
G01 X40.5419 Y20.3369 
G01 X40.7381 Y20.3369 
G01 X40.9320 Y20.3062 
G01 X41.1186 Y20.2455 
G01 X41.2935 Y20.1564 
G01 X41.4523 Y20.0411 
G01 X41.5911 Y19.9023 
G01 X41.7064 Y19.7435 
G01 X41.7955 Y19.5686 
G01 X41.8562 Y19.3820 
G01 X41.8869 Y19.1881 
G01 X41.8869 Y18.9919 
G01 X41.8562 Y18.7980 
G01 X41.7955 Y18.6114 
G01 X41.7064 Y18.4365 
G01 X41.5911 Y18.2777 
G01 X41.4523 Y18.1389 
G01 X41.2935 Y18.0236 
G01 X41.1186 Y17.9345 
G01 X40.9320 Y17.8738 
G01 X40.7381 Y17.8431 
G01 X40.5419 Y17.8431 
G01 X40.3480 Y17.8738 
G01 X40.2634 Y17.9013 
G01 X38.6312 Y16.2691 
G01 X38.5309 Y16.1688 
G01 X35.1309 Y12.7688 
G01 X35.0080 Y12.6978 
G01 X34.8709 Y12.6611 
G01 X31.1290 Y12.6611 
G01 X30.9920 Y12.6978 
G01 X30.8691 Y12.7688 
G01 X29.1028 Y14.5351 
G01 X29.0992 Y14.5263 
G01 X29.0601 Y14.4872 
G01 X29.0090 Y14.4661 
G01 X26.8710 Y14.4661 
G01 X26.8199 Y14.4872 
G01 X26.7808 Y14.5263 
G01 X26.7597 Y14.5774 
G01 X26.7597 Y18.4426 
G01 X26.7808 Y18.4937 
G01 X26.8199 Y18.5328 
G01 X26.8710 Y18.5539 
G01 X29.0090 Y18.5539 
G01 X29.0601 Y18.5328 
G01 X29.0992 Y18.4937 
G01 X29.1203 Y18.4426 
G01 X29.1203 Y16.0418 
G01 X31.4232 Y13.7389 
G01 X34.5768 Y13.7389 
G01 X37.4379 Y16.6000 
G01 X31.7768 Y22.2611 
G01 X31.2189 Y22.2611 
G01 X31.2189 Y22.0624 
G01 X31.1977 Y22.0113 
G01 X31.1587 Y21.9722 
G01 X31.1076 Y21.9511 
G01 X30.5466 Y21.9511 
G01 X30.5424 Y21.9500 
G01 X30.4756 Y21.9511 
G01 X29.8524 Y21.9511 
G01 X29.8013 Y21.9722 
G01 X29.7622 Y22.0113 
G01 X29.7411 Y22.0624 
G01 X29.7411 Y22.9176 
G01 X29.7622 Y22.9687 
G01 X29.8013 Y23.0078 
G01 X29.8524 Y23.0289 
G01 X30.2611 Y23.0289 
G01 X30.2611 Y23.6709 
G01 X30.2978 Y23.8080 
G01 X30.3688 Y23.9309 
G01 X34.7831 Y28.3453 
G01 X34.7946 Y28.3621 
G01 X34.8211 Y28.3849 
G01 X34.8211 Y28.7376 
G01 X34.8422 Y28.7887 
G01 X34.8813 Y28.8278 
G01 X34.9324 Y28.8489 
G01 X35.5094 Y28.8489 
G01 X35.5294 Y28.8527 
G01 X35.5801 Y28.8489 
G01 X36.1876 Y28.8489 
G00 Z2.0000 
G00 X35.6626 Y25.7389 
G01 Z-0.0250 F254.00 
G01 X39.6709 Y25.7389 F508.00 
G01 X39.8080 Y25.7022 
G01 X39.9309 Y25.6312 
G01 X40.2785 Y25.2836 
G01 X40.3480 Y25.3062 
G01 X40.5419 Y25.3369 
G01 X40.7381 Y25.3369 
G01 X40.9320 Y25.3062 
G01 X41.1186 Y25.2455 
G01 X41.2935 Y25.1564 
G01 X41.4523 Y25.0411 
G01 X41.5911 Y24.9023 
G01 X41.7064 Y24.7435 
G01 X41.7955 Y24.5686 
G01 X41.8562 Y24.3820 
G01 X41.8869 Y24.1881 
G01 X41.8869 Y23.9919 
G01 X41.8562 Y23.7980 
G01 X41.7955 Y23.6114 
G01 X41.7064 Y23.4365 
G01 X41.5911 Y23.2777 
G01 X41.4523 Y23.1389 
G01 X41.2935 Y23.0236 
G01 X41.1186 Y22.9345 
G01 X40.9320 Y22.8738 
G01 X40.7381 Y22.8431 
G01 X40.5419 Y22.8431 
G01 X40.3480 Y22.8738 
G01 X40.1614 Y22.9345 
G01 X39.9865 Y23.0236 
G01 X39.8277 Y23.1389 
G01 X39.6889 Y23.2777 
G01 X39.5736 Y23.4365 
G01 X39.4845 Y23.6114 
G01 X39.4238 Y23.7980 
G01 X39.3931 Y23.9919 
G01 X39.3931 Y24.1881 
G01 X39.4238 Y24.3820 
G01 X39.4807 Y24.5572 
G01 X39.3768 Y24.6611 
G01 X36.2989 Y24.6611 
G01 X36.2989 Y24.6024 
G01 X36.2777 Y24.5513 
G01 X36.2387 Y24.5122 
G01 X36.1876 Y24.4911 
G01 X35.5683 Y24.4911 
G01 X35.5056 Y24.4892 
G01 X35.4974 Y24.4911 
G01 X34.9324 Y24.4911 
G01 X34.8813 Y24.5122 
G01 X34.8422 Y24.5513 
G01 X34.8211 Y24.6024 
G01 X34.8211 Y25.4576 
G01 X34.8422 Y25.5087 
G01 X34.8813 Y25.5478 
G01 X34.9324 Y25.5689 
G01 X35.2068 Y25.5689 
G01 X35.2131 Y25.5752 
G01 X35.2560 Y25.6209 
G01 X35.2632 Y25.6253 
G01 X35.2691 Y25.6312 
G01 X35.3233 Y25.6625 
G01 X35.3767 Y25.6956 
G01 X35.3847 Y25.6980 
G01 X35.3920 Y25.7022 
G01 X35.4525 Y25.7184 
G01 X35.5125 Y25.7365 
G01 X35.5209 Y25.7367 
G01 X35.5290 Y25.7389 
G01 X35.5917 Y25.7389 
G01 X35.6544 Y25.7408 
G01 X35.6626 Y25.7389 
G00 Z2.0000 
G00 X35.5923 Y23.7689 
G01 Z-0.0250 F254.00 
G01 X36.1876 Y23.7689 F508.00 
G01 X36.2387 Y23.7477 
G01 X36.2475 Y23.7389 
G01 X38.0709 Y23.7389 
G01 X38.2080 Y23.7022 
G01 X38.3309 Y23.6312 
G01 X39.6346 Y22.3275 
G01 X39.6889 Y22.4023 
G01 X39.8277 Y22.5411 
G01 X39.9865 Y22.6564 
G01 X40.1614 Y22.7455 
G01 X40.3480 Y22.8062 
G01 X40.5419 Y22.8369 
G01 X40.7381 Y22.8369 
G01 X40.9320 Y22.8062 
G01 X41.1186 Y22.7455 
G01 X41.2935 Y22.6564 
G01 X41.4523 Y22.5411 
G01 X41.5911 Y22.4023 
G01 X41.7064 Y22.2435 
G01 X41.7955 Y22.0686 
G01 X41.8562 Y21.8820 
G01 X41.8869 Y21.6881 
G01 X41.8869 Y21.4919 
G01 X41.8562 Y21.2980 
G01 X41.7955 Y21.1114 
G01 X41.7064 Y20.9365 
G01 X41.5911 Y20.7777 
G01 X41.4523 Y20.6389 
G01 X41.2935 Y20.5236 
G01 X41.1186 Y20.4345 
G01 X40.9320 Y20.3738 
G01 X40.7381 Y20.3431 
G01 X40.5419 Y20.3431 
G01 X40.3480 Y20.3738 
G01 X40.1614 Y20.4345 
G01 X39.9865 Y20.5236 
G01 X39.8277 Y20.6389 
G01 X39.6889 Y20.7777 
G01 X39.5736 Y20.9365 
G01 X39.5071 Y21.0670 
G01 X39.3920 Y21.0978 
G01 X39.2691 Y21.1688 
G01 X39.1688 Y21.2691 
G01 X37.7768 Y22.6611 
G01 X35.6383 Y22.6611 
G01 X35.6060 Y22.6565 
G01 X35.5676 Y22.6611 
G01 X35.5290 Y22.6611 
G01 X35.4975 Y22.6696 
G01 X35.4651 Y22.6735 
G01 X35.4293 Y22.6878 
G01 X35.4171 Y22.6911 
G01 X34.9324 Y22.6911 
G01 X34.8813 Y22.7122 
G01 X34.8422 Y22.7513 
G01 X34.8211 Y22.8024 
G01 X34.8211 Y23.6576 
G01 X34.8422 Y23.7087 
G01 X34.8813 Y23.7477 
G01 X34.9324 Y23.7689 
G01 X35.5217 Y23.7689 
G01 X35.5540 Y23.7735 
G01 X35.5923 Y23.7689 
G00 Z2.0000 
G00 X41.0634 Y5.8539 
G01 Z-0.0250 F254.00 
G01 X42.7566 Y5.8539 F508.00 
G01 X43.9539 Y4.6566 
G01 X43.9539 Y2.9634 
G01 X42.7566 Y1.7661 
G01 X41.0634 Y1.7661 
G01 X39.8661 Y2.9634 
G01 X39.8661 Y4.6566 
G01 X41.0634 Y5.8539 
G00 Z2.0000 
G00 X8.3619 Y18.1813 
G01 Z-0.0250 F254.00 
G01 X8.2169 Y18.0759 F508.00 
G01 X8.0572 Y17.9945 
G01 X7.8867 Y17.9391 
G01 X7.7096 Y17.9111 
G01 X7.5304 Y17.9111 
G01 X7.3533 Y17.9391 
G01 X7.1828 Y17.9945 
G01 X7.0231 Y18.0759 
G01 X6.8781 Y18.1813 
G01 X6.7513 Y18.3081 
G01 X6.6459 Y18.4531 
G01 X6.5645 Y18.6128 
G01 X6.5091 Y18.7833 
G01 X6.4811 Y18.9604 
G01 X6.4811 Y19.1396 
G01 X6.5091 Y19.3167 
G01 X6.5645 Y19.4872 
G01 X6.6459 Y19.6469 
G01 X6.7513 Y19.7919 
G01 X6.8781 Y19.9187 
G01 X7.0231 Y20.0241 
G01 X7.1828 Y20.1055 
G01 X7.3533 Y20.1609 
G01 X7.5304 Y20.1889 
G01 X7.7096 Y20.1889 
G01 X7.8867 Y20.1609 
G01 X8.0572 Y20.1055 
G01 X8.2169 Y20.0241 
G01 X8.3619 Y19.9187 
G01 X8.4887 Y19.7919 
G01 X8.5941 Y19.6469 
G01 X8.6755 Y19.4872 
G01 X8.7309 Y19.3167 
G01 X8.7589 Y19.1396 
G01 X8.7589 Y18.9604 
G01 X8.7309 Y18.7833 
G01 X8.6755 Y18.6128 
G01 X8.5941 Y18.4531 
G01 X8.4887 Y18.3081 
G01 X8.3619 Y18.1813 
G00 Z2.0000 
G00 X8.3619 Y20.7213 
G01 Z-0.0250 F254.00 
G01 X8.2169 Y20.6159 F508.00 
G01 X8.0572 Y20.5345 
G01 X7.8867 Y20.4791 
G01 X7.7096 Y20.4511 
G01 X7.5304 Y20.4511 
G01 X7.3533 Y20.4791 
G01 X7.1828 Y20.5345 
G01 X7.0231 Y20.6159 
G01 X6.8781 Y20.7213 
G01 X6.7513 Y20.8481 
G01 X6.6459 Y20.9931 
G01 X6.5645 Y21.1528 
G01 X6.5091 Y21.3233 
G01 X6.4811 Y21.5004 
G01 X6.4811 Y21.6796 
G01 X6.5091 Y21.8567 
G01 X6.5645 Y22.0272 
G01 X6.6459 Y22.1869 
G01 X6.7513 Y22.3319 
G01 X6.8781 Y22.4587 
G01 X7.0231 Y22.5641 
G01 X7.1828 Y22.6455 
G01 X7.3533 Y22.7009 
G01 X7.5304 Y22.7289 
G01 X7.7096 Y22.7289 
G01 X7.8867 Y22.7009 
G01 X8.0572 Y22.6455 
G01 X8.2169 Y22.5641 
G01 X8.3619 Y22.4587 
G01 X8.4887 Y22.3319 
G01 X8.5941 Y22.1869 
G01 X8.6755 Y22.0272 
G01 X8.7309 Y21.8567 
G01 X8.7589 Y21.6796 
G01 X8.7589 Y21.5004 
G01 X8.7309 Y21.3233 
G01 X8.6755 Y21.1528 
G01 X8.5941 Y20.9931 
G01 X8.4887 Y20.8481 
G01 X8.3619 Y20.7213 
G00 Z2.0000 
G00 X8.3619 Y23.2613 
G01 Z-0.0250 F254.00 
G01 X8.2169 Y23.1559 F508.00 
G01 X8.0572 Y23.0745 
G01 X7.8867 Y23.0191 
G01 X7.7096 Y22.9911 
G01 X7.5304 Y22.9911 
G01 X7.3533 Y23.0191 
G01 X7.1828 Y23.0745 
G01 X7.0231 Y23.1559 
G01 X6.8781 Y23.2613 
G01 X6.7513 Y23.3881 
G01 X6.6459 Y23.5331 
G01 X6.5645 Y23.6928 
G01 X6.5091 Y23.8633 
G01 X6.4811 Y24.0404 
G01 X6.4811 Y24.2196 
G01 X6.5091 Y24.3967 
G01 X6.5645 Y24.5672 
G01 X6.6459 Y24.7269 
G01 X6.7513 Y24.8719 
G01 X6.8781 Y24.9987 
G01 X7.0231 Y25.1041 
G01 X7.1828 Y25.1855 
G01 X7.3533 Y25.2409 
G01 X7.5304 Y25.2689 
G01 X7.7096 Y25.2689 
G01 X7.8867 Y25.2409 
G01 X8.0572 Y25.1855 
G01 X8.2169 Y25.1041 
G01 X8.3619 Y24.9987 
G01 X8.4887 Y24.8719 
G01 X8.5941 Y24.7269 
G01 X8.6755 Y24.5672 
G01 X8.7309 Y24.3967 
G01 X8.7589 Y24.2196 
G01 X8.7589 Y24.0404 
G01 X8.7309 Y23.8633 
G01 X8.6755 Y23.6928 
G01 X8.5941 Y23.5331 
G01 X8.4887 Y23.3881 
G01 X8.3619 Y23.2613 
G00 Z2.0000 
G00 X8.3619 Y25.8013 
G01 Z-0.0250 F254.00 
G01 X8.2169 Y25.6959 F508.00 
G01 X8.0572 Y25.6145 
G01 X7.8867 Y25.5591 
G01 X7.7096 Y25.5311 
G01 X7.5304 Y25.5311 
G01 X7.3533 Y25.5591 
G01 X7.1828 Y25.6145 
G01 X7.0231 Y25.6959 
G01 X6.8781 Y25.8013 
G01 X6.7513 Y25.9281 
G01 X6.6459 Y26.0731 
G01 X6.5645 Y26.2328 
G01 X6.5091 Y26.4033 
G01 X6.4811 Y26.5804 
G01 X6.4811 Y26.7596 
G01 X6.5091 Y26.9367 
G01 X6.5645 Y27.1072 
G01 X6.6459 Y27.2669 
G01 X6.7513 Y27.4119 
G01 X6.8781 Y27.5387 
G01 X7.0231 Y27.6441 
G01 X7.1828 Y27.7255 
G01 X7.3533 Y27.7809 
G01 X7.5304 Y27.8089 
G01 X7.7096 Y27.8089 
G01 X7.8867 Y27.7809 
G01 X8.0572 Y27.7255 
G01 X8.2169 Y27.6441 
G01 X8.3619 Y27.5387 
G01 X8.4887 Y27.4119 
G01 X8.5941 Y27.2669 
G01 X8.6755 Y27.1072 
G01 X8.7309 Y26.9367 
G01 X8.7589 Y26.7596 
G01 X8.7589 Y26.5804 
G01 X8.7309 Y26.4033 
G01 X8.6755 Y26.2328 
G01 X8.5941 Y26.0731 
G01 X8.4887 Y25.9281 
G01 X8.3619 Y25.8013 
G00 Z2.0000 
G00 X8.3619 Y28.3413 
G01 Z-0.0250 F254.00 
G01 X8.2169 Y28.2359 F508.00 
G01 X8.0572 Y28.1545 
G01 X7.8867 Y28.0991 
G01 X7.7096 Y28.0711 
G01 X7.5304 Y28.0711 
G01 X7.3533 Y28.0991 
G01 X7.1828 Y28.1545 
G01 X7.0231 Y28.2359 
G01 X6.8781 Y28.3413 
G01 X6.7513 Y28.4681 
G01 X6.6459 Y28.6131 
G01 X6.5645 Y28.7728 
G01 X6.5091 Y28.9433 
G01 X6.4811 Y29.1204 
G01 X6.4811 Y29.2996 
G01 X6.5091 Y29.4767 
G01 X6.5645 Y29.6472 
G01 X6.6459 Y29.8069 
G01 X6.7513 Y29.9519 
G01 X6.8781 Y30.0787 
G01 X7.0231 Y30.1841 
G01 X7.1828 Y30.2655 
G01 X7.3533 Y30.3209 
G01 X7.5304 Y30.3489 
G01 X7.7096 Y30.3489 
G01 X7.8867 Y30.3209 
G01 X8.0572 Y30.2655 
G01 X8.2169 Y30.1841 
G01 X8.3619 Y30.0787 
G01 X8.4887 Y29.9519 
G01 X8.5941 Y29.8069 
G01 X8.6755 Y29.6472 
G01 X8.7309 Y29.4767 
G01 X8.7589 Y29.2996 
G01 X8.7589 Y29.1204 
G01 X8.7309 Y28.9433 
G01 X8.6755 Y28.7728 
G01 X8.5941 Y28.6131 
G01 X8.4887 Y28.4681 
G01 X8.3619 Y28.3413 
G00 Z2.0000 
G00 X8.3619 Y30.8813 
G01 Z-0.0250 F254.00 
G01 X8.2169 Y30.7759 F508.00 
G01 X8.0572 Y30.6945 
G01 X7.8867 Y30.6391 
G01 X7.7096 Y30.6111 
G01 X7.5304 Y30.6111 
G01 X7.3533 Y30.6391 
G01 X7.1828 Y30.6945 
G01 X7.0231 Y30.7759 
G01 X6.8781 Y30.8813 
G01 X6.7513 Y31.0081 
G01 X6.6459 Y31.1531 
G01 X6.5645 Y31.3128 
G01 X6.5091 Y31.4833 
G01 X6.4811 Y31.6604 
G01 X6.4811 Y31.8396 
G01 X6.5091 Y32.0167 
G01 X6.5645 Y32.1872 
G01 X6.6459 Y32.3469 
G01 X6.7513 Y32.4919 
G01 X6.8781 Y32.6187 
G01 X7.0231 Y32.7241 
G01 X7.1828 Y32.8055 
G01 X7.3533 Y32.8609 
G01 X7.5304 Y32.8889 
G01 X7.7096 Y32.8889 
G01 X7.8867 Y32.8609 
G01 X8.0572 Y32.8055 
G01 X8.2169 Y32.7241 
G01 X8.3619 Y32.6187 
G01 X8.4887 Y32.4919 
G01 X8.5941 Y32.3469 
G01 X8.6755 Y32.1872 
G01 X8.7309 Y32.0167 
G01 X8.7589 Y31.8396 
G01 X8.7589 Y31.6604 
G01 X8.7309 Y31.4833 
G01 X8.6755 Y31.3128 
G01 X8.5941 Y31.1531 
G01 X8.4887 Y31.0081 
G01 X8.3619 Y30.8813 
G00 Z2.0000 
G00 X8.3619 Y41.0413 
G01 Z-0.0250 F254.00 
G01 X8.2169 Y40.9359 F508.00 
G01 X8.0572 Y40.8545 
G01 X7.8867 Y40.7991 
G01 X7.7096 Y40.7711 
G01 X7.5304 Y40.7711 
G01 X7.3533 Y40.7991 
G01 X7.1828 Y40.8545 
G01 X7.0231 Y40.9359 
G01 X6.8781 Y41.0413 
G01 X6.7513 Y41.1681 
G01 X6.6459 Y41.3131 
G01 X6.5645 Y41.4728 
G01 X6.5091 Y41.6433 
G01 X6.4811 Y41.8204 
G01 X6.4811 Y41.9996 
G01 X6.5091 Y42.1767 
G01 X6.5645 Y42.3472 
G01 X6.6459 Y42.5069 
G01 X6.7513 Y42.6519 
G01 X6.8781 Y42.7787 
G01 X7.0231 Y42.8841 
G01 X7.1828 Y42.9655 
G01 X7.3533 Y43.0209 
G01 X7.5304 Y43.0489 
G01 X7.7096 Y43.0489 
G01 X7.8867 Y43.0209 
G01 X8.0572 Y42.9655 
G01 X8.2169 Y42.8841 
G01 X8.3619 Y42.7787 
G01 X8.4887 Y42.6519 
G01 X8.5941 Y42.5069 
G01 X8.6755 Y42.3472 
G01 X8.7309 Y42.1767 
G01 X8.7589 Y41.9996 
G01 X8.7589 Y41.8204 
G01 X8.7309 Y41.6433 
G01 X8.6755 Y41.4728 
G01 X8.5941 Y41.3131 
G01 X8.4887 Y41.1681 
G01 X8.3619 Y41.0413 
G00 Z2.0000 
G00 X8.3619 Y43.5813 
G01 Z-0.0250 F254.00 
G01 X8.2169 Y43.4759 F508.00 
G01 X8.0572 Y43.3945 
G01 X7.8867 Y43.3391 
G01 X7.7096 Y43.3111 
G01 X7.5304 Y43.3111 
G01 X7.3533 Y43.3391 
G01 X7.1828 Y43.3945 
G01 X7.0231 Y43.4759 
G01 X6.8781 Y43.5813 
G01 X6.7513 Y43.7081 
G01 X6.6459 Y43.8531 
G01 X6.5645 Y44.0128 
G01 X6.5091 Y44.1833 
G01 X6.4811 Y44.3604 
G01 X6.4811 Y44.5396 
G01 X6.5091 Y44.7167 
G01 X6.5645 Y44.8872 
G01 X6.6459 Y45.0469 
G01 X6.7513 Y45.1919 
G01 X6.8781 Y45.3187 
G01 X7.0231 Y45.4241 
G01 X7.1828 Y45.5055 
G01 X7.3533 Y45.5609 
G01 X7.5304 Y45.5889 
G01 X7.7096 Y45.5889 
G01 X7.8867 Y45.5609 
G01 X8.0572 Y45.5055 
G01 X8.2169 Y45.4241 
G01 X8.3619 Y45.3187 
G01 X8.4887 Y45.1919 
G01 X8.5941 Y45.0469 
G01 X8.6755 Y44.8872 
G01 X8.7309 Y44.7167 
G01 X8.7589 Y44.5396 
G01 X8.7589 Y44.3604 
G01 X8.7309 Y44.1833 
G01 X8.6755 Y44.0128 
G01 X8.5941 Y43.8531 
G01 X8.4887 Y43.7081 
G01 X8.3619 Y43.5813 
G00 Z2.0000 
G00 X8.3619 Y46.1213 
G01 Z-0.0250 F254.00 
G01 X8.2169 Y46.0159 F508.00 
G01 X8.0572 Y45.9345 
G01 X7.8867 Y45.8791 
G01 X7.7096 Y45.8511 
G01 X7.5304 Y45.8511 
G01 X7.3533 Y45.8791 
G01 X7.1828 Y45.9345 
G01 X7.0231 Y46.0159 
G01 X6.8781 Y46.1213 
G01 X6.7513 Y46.2481 
G01 X6.6459 Y46.3931 
G01 X6.5645 Y46.5528 
G01 X6.5091 Y46.7233 
G01 X6.4811 Y46.9004 
G01 X6.4811 Y47.0796 
G01 X6.5091 Y47.2567 
G01 X6.5645 Y47.4272 
G01 X6.6459 Y47.5869 
G01 X6.7513 Y47.7319 
G01 X6.8781 Y47.8587 
G01 X7.0231 Y47.9641 
G01 X7.1828 Y48.0455 
G01 X7.3533 Y48.1009 
G01 X7.5304 Y48.1289 
G01 X7.7096 Y48.1289 
G01 X7.8867 Y48.1009 
G01 X8.0572 Y48.0455 
G01 X8.2169 Y47.9641 
G01 X8.3619 Y47.8587 
G01 X8.4887 Y47.7319 
G01 X8.5941 Y47.5869 
G01 X8.6755 Y47.4272 
G01 X8.7309 Y47.2567 
G01 X8.7589 Y47.0796 
G01 X8.7589 Y46.9004 
G01 X8.7309 Y46.7233 
G01 X8.6755 Y46.5528 
G01 X8.5941 Y46.3931 
G01 X8.4887 Y46.2481 
G01 X8.3619 Y46.1213 
G00 Z2.0000 
G00 X9.2222 Y56.4713 
G01 Z-0.0250 F254.00 
G01 X9.2011 Y56.5224 F508.00 
G01 X9.2011 Y57.7776 
G01 X9.2222 Y57.8287 
G01 X9.2613 Y57.8678 
G01 X9.3124 Y57.8889 
G01 X10.5676 Y57.8889 
G01 X10.6187 Y57.8678 
G01 X10.6578 Y57.8287 
G01 X10.6789 Y57.7776 
G01 X10.6789 Y57.7389 
G01 X11.2611 Y57.7389 
G01 X11.2611 Y57.7776 
G01 X11.2822 Y57.8287 
G01 X11.3213 Y57.8678 
G01 X11.3724 Y57.8889 
G01 X12.2276 Y57.8889 
G01 X12.2787 Y57.8678 
G01 X12.3178 Y57.8287 
G01 X12.3389 Y57.7776 
G01 X12.3389 Y57.1545 
G01 X12.3400 Y57.0881 
G01 X12.3389 Y57.0837 
G01 X12.3389 Y56.5224 
G01 X12.3178 Y56.4713 
G01 X12.2787 Y56.4322 
G01 X12.2276 Y56.4111 
G01 X11.3724 Y56.4111 
G01 X11.3213 Y56.4322 
G01 X11.2822 Y56.4713 
G01 X11.2611 Y56.5224 
G01 X11.2611 Y56.6611 
G01 X10.6789 Y56.6611 
G01 X10.6789 Y56.5224 
G01 X10.6578 Y56.4713 
G01 X10.6187 Y56.4322 
G01 X10.5676 Y56.4111 
G01 X9.3124 Y56.4111 
G01 X9.2613 Y56.4322 
G01 X9.2222 Y56.4713 
G00 Z2.0000 
G00 X4.0187 Y60.2922 
G01 Z-0.0250 F254.00 
G01 X3.9676 Y60.2711 F508.00 
G01 X1.1124 Y60.2711 
G01 X1.0613 Y60.2922 
G01 X1.0222 Y60.3313 
G01 X1.0011 Y60.3824 
G01 X1.0011 Y62.8376 
G01 X1.0222 Y62.8887 
G01 X1.0613 Y62.9278 
G01 X1.1124 Y62.9489 
G01 X3.9676 Y62.9489 
G01 X4.0187 Y62.9278 
G01 X4.0578 Y62.8887 
G01 X4.0789 Y62.8376 
G01 X4.0789 Y60.3824 
G01 X4.0578 Y60.3313 
G01 X4.0187 Y60.2922 
G00 Z2.0000 
G00 X7.1222 Y71.7313 
G01 Z-0.0250 F254.00 
G01 X7.1011 Y71.7824 F508.00 
G01 X7.1011 Y74.2376 
G01 X7.1222 Y74.2887 
G01 X7.1613 Y74.3277 
G01 X7.2124 Y74.3489 
G01 X10.0676 Y74.3489 
G01 X10.1187 Y74.3277 
G01 X10.1578 Y74.2887 
G01 X10.1789 Y74.2376 
G01 X10.1789 Y71.7824 
G01 X10.1578 Y71.7313 
G01 X10.1187 Y71.6922 
G01 X10.0676 Y71.6711 
G01 X7.2124 Y71.6711 
G01 X7.1613 Y71.6922 
G01 X7.1222 Y71.7313 
G00 Z2.0000 
G00 X15.6634 Y38.8739 
G01 Z-0.0250 F254.00 
G01 X17.3566 Y38.8739 F508.00 
G01 X18.5539 Y37.6766 
G01 X18.5539 Y35.9834 
G01 X17.3566 Y34.7861 
G01 X15.6634 Y34.7861 
G01 X14.4661 Y35.9834 
G01 X14.4661 Y37.6766 
G01 X15.6634 Y38.8739 
G00 Z2.0000 
G00 X3.9618 Y1.5633 
G01 Z-0.0250 F254.00 
G01 X3.8231 Y1.7542 F508.00 
G01 X3.7159 Y1.9645 
G01 X3.6430 Y2.1889 
G01 X3.6061 Y2.4220 
G01 X3.6061 Y2.6580 
G01 X3.6430 Y2.8911 
G01 X3.7159 Y3.1155 
G01 X3.8231 Y3.3258 
G01 X3.9618 Y3.5167 
G01 X4.1287 Y3.6836 
G01 X4.3196 Y3.8223 
G01 X4.5299 Y3.9295 
G01 X4.5611 Y3.9396 
G01 X4.5611 Y11.1627 
G01 X4.5581 Y11.1882 
G01 X4.5611 Y11.2255 
G01 X4.5611 Y11.2629 
G01 X4.5661 Y11.2881 
G01 X4.5682 Y11.3137 
G01 X4.5784 Y11.3497 
G01 X4.5857 Y11.3864 
G01 X4.5906 Y11.3984 
G01 X4.5890 Y11.4056 
G01 X4.5857 Y11.4136 
G01 X4.5751 Y11.4668 
G01 X4.5630 Y11.5198 
G01 X4.5628 Y11.5285 
G01 X4.5611 Y11.5371 
G01 X4.5611 Y11.5913 
G01 X4.5596 Y11.6456 
G01 X4.5611 Y11.6542 
G01 X4.5611 Y62.8629 
G01 X4.5857 Y62.9864 
G01 X4.6338 Y63.1026 
G01 X4.7037 Y63.2073 
G01 X4.7927 Y63.2963 
G01 X6.3927 Y64.8963 
G01 X6.4974 Y64.9662 
G01 X6.6136 Y65.0143 
G01 X6.7371 Y65.0389 
G01 X7.3354 Y65.0389 
G01 X7.9927 Y65.6963 
G01 X8.0974 Y65.7662 
G01 X8.2136 Y65.8143 
G01 X8.3371 Y65.8389 
G01 X30.1611 Y65.8389 
G01 X30.1611 Y67.5011 
G01 X30.1025 Y67.5011 
G01 X30.0147 Y67.5375 
G01 X29.9475 Y67.6047 
G01 X29.9111 Y67.6925 
G01 X29.9111 Y69.5675 
G01 X29.9475 Y69.6553 
G01 X30.0147 Y69.7225 
G01 X30.1025 Y69.7589 
G01 X32.0554 Y69.7589 
G01 X32.7927 Y70.4963 
G01 X32.8974 Y70.5662 
G01 X33.0136 Y70.6143 
G01 X33.1371 Y70.6389 
G01 X36.6510 Y70.6389 
G01 X36.6647 Y70.6525 
G01 X36.7525 Y70.6889 
G01 X37.6475 Y70.6889 
G01 X37.7353 Y70.6525 
G01 X37.8025 Y70.5853 
G01 X37.8389 Y70.4975 
G01 X37.8389 Y69.2025 
G01 X37.8025 Y69.1147 
G01 X37.7353 Y69.0475 
G01 X37.6475 Y69.0111 
G01 X36.7525 Y69.0111 
G01 X36.6647 Y69.0475 
G01 X36.5975 Y69.1147 
G01 X36.5611 Y69.2025 
G01 X36.5611 Y69.3611 
G01 X33.5889 Y69.3611 
G01 X33.5889 Y67.6925 
G01 X33.5525 Y67.6047 
G01 X33.4853 Y67.5375 
G01 X33.3975 Y67.5011 
G01 X31.6046 Y67.5011 
G01 X31.4389 Y67.3354 
G01 X31.4389 Y63.9789 
G01 X31.6075 Y63.9789 
G01 X31.6953 Y63.9425 
G01 X31.7625 Y63.8753 
G01 X31.7989 Y63.7875 
G01 X31.7989 Y62.6925 
G01 X31.7625 Y62.6047 
G01 X31.6953 Y62.5375 
G01 X31.6075 Y62.5011 
G01 X29.9125 Y62.5011 
G01 X29.8247 Y62.5375 
G01 X29.7575 Y62.6047 
G01 X29.7211 Y62.6925 
G01 X29.7211 Y63.7875 
G01 X29.7575 Y63.8753 
G01 X29.8247 Y63.9425 
G01 X29.9125 Y63.9789 
G01 X30.1611 Y63.9789 
G01 X30.1611 Y64.5611 
G01 X8.6646 Y64.5611 
G01 X8.0963 Y63.9927 
G01 X8.0073 Y63.9037 
G01 X7.9026 Y63.8338 
G01 X7.7864 Y63.7857 
G01 X7.6629 Y63.7611 
G01 X7.0646 Y63.7611 
G01 X5.8389 Y62.5354 
G01 X5.8389 Y14.2389 
G01 X10.8629 Y14.2389 
G01 X10.9864 Y14.2143 
G01 X11.1026 Y14.1662 
G01 X11.2073 Y14.0963 
G01 X11.2963 Y14.0073 
G01 X13.4646 Y11.8389 
G01 X17.2961 Y11.8389 
G01 X17.2961 Y12.2125 
G01 X17.3325 Y12.3003 
G01 X17.3997 Y12.3675 
G01 X17.4875 Y12.4039 
G01 X18.8525 Y12.4039 
G01 X18.9403 Y12.3675 
G01 X19.0075 Y12.3003 
G01 X19.0439 Y12.2125 
G01 X19.0439 Y10.6475 
G01 X19.0075 Y10.5597 
G01 X18.9403 Y10.4925 
G01 X18.8525 Y10.4561 
G01 X18.6389 Y10.4561 
G01 X18.6389 Y3.9371 
G01 X18.6143 Y3.8136 
G01 X18.5662 Y3.6974 
G01 X18.4963 Y3.5927 
G01 X17.9480 Y3.0444 
G01 X17.9978 Y2.8911 
G01 X18.0347 Y2.6580 
G01 X18.0347 Y2.4220 
G01 X17.9978 Y2.1889 
G01 X17.9249 Y1.9645 
G01 X17.8177 Y1.7542 
G01 X17.6790 Y1.5633 
G01 X17.5121 Y1.3964 
G01 X17.3212 Y1.2577 
G01 X17.1109 Y1.1505 
G01 X16.8865 Y1.0776 
G01 X16.6534 Y1.0407 
G01 X16.4174 Y1.0407 
G01 X16.1843 Y1.0776 
G01 X15.9599 Y1.1505 
G01 X15.7496 Y1.2577 
G01 X15.5587 Y1.3964 
G01 X15.3918 Y1.5633 
G01 X15.2531 Y1.7542 
G01 X15.1459 Y1.9645 
G01 X15.0730 Y2.1889 
G01 X15.0361 Y2.4220 
G01 X15.0361 Y2.6580 
G01 X15.0730 Y2.8911 
G01 X15.1459 Y3.1155 
G01 X15.2531 Y3.3258 
G01 X15.3918 Y3.5167 
G01 X15.5587 Y3.6836 
G01 X15.7496 Y3.8223 
G01 X15.9599 Y3.9295 
G01 X16.1843 Y4.0024 
G01 X16.4174 Y4.0393 
G01 X16.6534 Y4.0393 
G01 X16.8865 Y4.0024 
G01 X17.0468 Y3.9503 
G01 X17.3611 Y4.2646 
G01 X17.3611 Y10.5310 
G01 X17.3325 Y10.5597 
G01 X13.1371 Y10.5611 
G01 X13.0136 Y10.5857 
G01 X12.8974 Y10.6338 
G01 X12.7927 Y10.7037 
G01 X10.5354 Y12.9611 
G01 X5.8389 Y12.9611 
G01 X5.8389 Y12.4039 
G01 X6.1525 Y12.4039 
G01 X6.2403 Y12.3675 
G01 X6.3075 Y12.3003 
G01 X6.3439 Y12.2125 
G01 X6.3439 Y10.6475 
G01 X6.3075 Y10.5597 
G01 X6.2403 Y10.4925 
G01 X6.1525 Y10.4561 
G01 X5.8389 Y10.4561 
G01 X5.8389 Y3.8490 
G01 X5.8912 Y3.8223 
G01 X6.0821 Y3.6836 
G01 X6.2490 Y3.5167 
G01 X6.3877 Y3.3258 
G01 X6.4949 Y3.1155 
G01 X6.5678 Y2.8911 
G01 X6.6047 Y2.6580 
G01 X6.6047 Y2.4220 
G01 X6.5678 Y2.1889 
G01 X6.4949 Y1.9645 
G01 X6.3877 Y1.7542 
G01 X6.2490 Y1.5633 
G01 X6.0821 Y1.3964 
G01 X5.8912 Y1.2577 
G01 X5.6809 Y1.1505 
G01 X5.4565 Y1.0776 
G01 X5.2234 Y1.0407 
G01 X4.9874 Y1.0407 
G01 X4.7543 Y1.0776 
G01 X4.5299 Y1.1505 
G01 X4.3196 Y1.2577 
G01 X4.1287 Y1.3964 
G01 X3.9618 Y1.5633 
G00 Z2.0000 
G00 X8.9656 Y1.5633 
G01 Z-0.0250 F254.00 
G01 X8.8269 Y1.7542 F508.00 
G01 X8.7197 Y1.9645 
G01 X8.6468 Y2.1889 
G01 X8.6099 Y2.4220 
G01 X8.6099 Y2.6580 
G01 X8.6468 Y2.8911 
G01 X8.7197 Y3.1155 
G01 X8.8269 Y3.3258 
G01 X8.9656 Y3.5167 
G01 X9.1325 Y3.6836 
G01 X9.3234 Y3.8223 
G01 X9.3611 Y3.8415 
G01 X9.3611 Y10.4561 
G01 X9.0875 Y10.4561 
G01 X8.9997 Y10.4925 
G01 X8.9325 Y10.5597 
G01 X8.8961 Y10.6475 
G01 X8.8961 Y12.2125 
G01 X8.9325 Y12.3003 
G01 X8.9997 Y12.3675 
G01 X9.0875 Y12.4039 
G01 X10.4525 Y12.4039 
G01 X10.5403 Y12.3675 
G01 X10.6075 Y12.3003 
G01 X10.6439 Y12.2125 
G01 X10.6439 Y10.6475 
G01 X10.6389 Y10.6354 
G01 X10.6389 Y3.9443 
G01 X10.6847 Y3.9295 
G01 X10.8950 Y3.8223 
G01 X11.0859 Y3.6836 
G01 X11.2528 Y3.5167 
G01 X11.3915 Y3.3258 
G01 X11.4987 Y3.1155 
G01 X11.5716 Y2.8911 
G01 X11.6085 Y2.6580 
G01 X11.6085 Y2.4220 
G01 X11.5716 Y2.1889 
G01 X11.4987 Y1.9645 
G01 X11.3915 Y1.7542 
G01 X11.2528 Y1.5633 
G01 X11.0859 Y1.3964 
G01 X10.8950 Y1.2577 
G01 X10.6847 Y1.1505 
G01 X10.4603 Y1.0776 
G01 X10.2272 Y1.0407 
G01 X9.9912 Y1.0407 
G01 X9.7581 Y1.0776 
G01 X9.5337 Y1.1505 
G01 X9.3234 Y1.2577 
G01 X9.1325 Y1.3964 
G01 X8.9656 Y1.5633 
G00 Z2.0000 
G00 X20.3956 Y1.5633 
G01 Z-0.0250 F254.00 
G01 X20.2569 Y1.7542 F508.00 
G01 X20.1497 Y1.9645 
G01 X20.0768 Y2.1889 
G01 X20.0399 Y2.4220 
G01 X20.0399 Y2.6580 
G01 X20.0768 Y2.8911 
G01 X20.1497 Y3.1155 
G01 X20.2569 Y3.3258 
G01 X20.3956 Y3.5167 
G01 X20.5625 Y3.6836 
G01 X20.7534 Y3.8223 
G01 X20.9637 Y3.9295 
G01 X21.1881 Y4.0024 
G01 X21.4212 Y4.0393 
G01 X21.6572 Y4.0393 
G01 X21.7611 Y4.0228 
G01 X21.7611 Y10.4670 
G01 X21.6997 Y10.4925 
G01 X21.6325 Y10.5597 
G01 X21.5961 Y10.6475 
G01 X21.5961 Y12.2125 
G01 X21.6325 Y12.3003 
G01 X21.6997 Y12.3675 
G01 X21.7875 Y12.4039 
G01 X23.1525 Y12.4039 
G01 X23.2403 Y12.3675 
G01 X23.3075 Y12.3003 
G01 X23.3439 Y12.2125 
G01 X23.3439 Y10.6475 
G01 X23.3075 Y10.5597 
G01 X23.2403 Y10.4925 
G01 X23.1525 Y10.4561 
G01 X23.0389 Y10.4561 
G01 X23.0389 Y5.8389 
G01 X24.5261 Y5.8389 
G01 X24.5261 Y9.5725 
G01 X24.5625 Y9.6603 
G01 X24.6297 Y9.7275 
G01 X24.7175 Y9.7639 
G01 X36.2425 Y9.7639 
G01 X36.3303 Y9.7275 
G01 X36.3975 Y9.6603 
G01 X36.4339 Y9.5725 
G01 X36.4339 Y0.5875 
G01 X36.3975 Y0.4997 
G01 X36.3303 Y0.4325 
G01 X36.2425 Y0.3961 
G01 X24.7175 Y0.3961 
G01 X24.6297 Y0.4325 
G01 X24.5625 Y0.4997 
G01 X24.5261 Y0.5875 
G01 X24.5261 Y4.5611 
G01 X23.0389 Y4.5611 
G01 X23.0389 Y3.5371 
G01 X23.0143 Y3.4136 
G01 X22.9662 Y3.2974 
G01 X22.8963 Y3.1927 
G01 X22.8917 Y3.1881 
G01 X22.9287 Y3.1155 
G01 X23.0016 Y2.8911 
G01 X23.0385 Y2.6580 
G01 X23.0385 Y2.4220 
G01 X23.0016 Y2.1889 
G01 X22.9287 Y1.9645 
G01 X22.8215 Y1.7542 
G01 X22.6828 Y1.5633 
G01 X22.5159 Y1.3964 
G01 X22.3250 Y1.2577 
G01 X22.1147 Y1.1505 
G01 X21.8903 Y1.0776 
G01 X21.6572 Y1.0407 
G01 X21.4212 Y1.0407 
G01 X21.1881 Y1.0776 
G01 X20.9637 Y1.1505 
G01 X20.7534 Y1.2577 
G01 X20.5625 Y1.3964 
G01 X20.3956 Y1.5633 
G00 Z2.0000 
G00 X21.9150 Y18.2429 
G01 Z-0.0250 F254.00 
G01 X21.8004 Y18.4007 F508.00 
G01 X21.7119 Y18.5744 
G01 X21.6516 Y18.7599 
G01 X21.6211 Y18.9525 
G01 X21.6211 Y19.1475 
G01 X21.6516 Y19.3401 
G01 X21.7119 Y19.5256 
G01 X21.8004 Y19.6993 
G01 X21.9150 Y19.8571 
G01 X22.0529 Y19.9950 
G01 X22.2107 Y20.1096 
G01 X22.3844 Y20.1981 
G01 X22.5699 Y20.2584 
G01 X22.7625 Y20.2889 
G01 X22.9575 Y20.2889 
G01 X23.1501 Y20.2584 
G01 X23.3356 Y20.1981 
G01 X23.5093 Y20.1096 
G01 X23.6671 Y19.9950 
G01 X23.8050 Y19.8571 
G01 X23.8182 Y19.8389 
G01 X25.3354 Y19.8389 
G01 X26.3037 Y20.8073 
G01 X26.3927 Y20.8963 
G01 X26.4974 Y20.9662 
G01 X26.6136 Y21.0143 
G01 X26.7371 Y21.0389 
G01 X29.6411 Y21.0389 
G01 X29.6411 Y21.1375 
G01 X29.6775 Y21.2253 
G01 X29.7447 Y21.2925 
G01 X29.8325 Y21.3289 
G01 X30.4405 Y21.3289 
G01 X30.4637 Y21.3318 
G01 X30.4876 Y21.3300 
G01 X30.5115 Y21.3312 
G01 X30.5271 Y21.3289 
G01 X31.1275 Y21.3289 
G01 X31.2153 Y21.2925 
G01 X31.2825 Y21.2253 
G01 X31.3189 Y21.1375 
G01 X31.3189 Y20.7734 
G01 X31.3225 Y20.7680 
G01 X31.3506 Y20.7301 
G01 X31.3574 Y20.7158 
G01 X31.3662 Y20.7026 
G01 X31.3842 Y20.6590 
G01 X31.4045 Y20.6163 
G01 X31.4083 Y20.6010 
G01 X31.4143 Y20.5864 
G01 X31.4235 Y20.5401 
G01 X31.4350 Y20.4942 
G01 X31.4358 Y20.4784 
G01 X31.4389 Y20.4629 
G01 X31.4389 Y20.4157 
G01 X31.4412 Y20.3685 
G01 X31.4389 Y20.3529 
G01 X31.4389 Y19.0646 
G01 X31.8735 Y18.6300 
G01 X31.9311 Y18.6539 
G01 X34.1089 Y18.6539 
G01 X34.1967 Y18.6175 
G01 X34.2639 Y18.5503 
G01 X34.3003 Y18.4625 
G01 X34.3003 Y14.5575 
G01 X34.2639 Y14.4697 
G01 X34.1967 Y14.4025 
G01 X34.1089 Y14.3661 
G01 X31.9311 Y14.3661 
G01 X31.8433 Y14.4025 
G01 X31.7761 Y14.4697 
G01 X31.7397 Y14.5575 
G01 X31.7397 Y16.9568 
G01 X30.3037 Y18.3927 
G01 X30.2338 Y18.4974 
G01 X30.1857 Y18.6136 
G01 X30.1611 Y18.7371 
G01 X30.1611 Y19.7611 
G01 X27.0646 Y19.7611 
G01 X26.0073 Y18.7037 
G01 X25.9026 Y18.6338 
G01 X25.7864 Y18.5857 
G01 X25.6629 Y18.5611 
G01 X24.0013 Y18.5611 
G01 X23.9196 Y18.4007 
G01 X23.8050 Y18.2429 
G01 X23.6671 Y18.1050 
G01 X23.5093 Y17.9904 
G01 X23.3356 Y17.9019 
G01 X23.1501 Y17.8416 
G01 X22.9575 Y17.8111 
G01 X22.7625 Y17.8111 
G01 X22.5699 Y17.8416 
G01 X22.3844 Y17.9019 
G01 X22.2107 Y17.9904 
G01 X22.0529 Y18.1050 
G01 X21.9150 Y18.2429 
G00 Z2.0000 
G00 X21.9150 Y20.7829 
G01 Z-0.0250 F254.00 
G01 X21.8004 Y20.9407 F508.00 
G01 X21.7119 Y21.1144 
G01 X21.6516 Y21.2999 
G01 X21.6211 Y21.4925 
G01 X21.6211 Y21.6875 
G01 X21.6516 Y21.8801 
G01 X21.7119 Y22.0656 
G01 X21.8004 Y22.2393 
G01 X21.9150 Y22.3971 
G01 X22.0529 Y22.5350 
G01 X22.2107 Y22.6496 
G01 X22.3844 Y22.7381 
G01 X22.5699 Y22.7984 
G01 X22.7625 Y22.8289 
G01 X22.9575 Y22.8289 
G01 X23.1501 Y22.7984 
G01 X23.3356 Y22.7381 
G01 X23.5093 Y22.6496 
G01 X23.6671 Y22.5350 
G01 X23.8050 Y22.3971 
G01 X23.9196 Y22.2393 
G01 X24.0081 Y22.0656 
G01 X24.0684 Y21.8801 
G01 X24.0989 Y21.6875 
G01 X24.0989 Y21.4925 
G01 X24.0684 Y21.2999 
G01 X24.0081 Y21.1144 
G01 X23.9196 Y20.9407 
G01 X23.8050 Y20.7829 
G01 X23.6671 Y20.6450 
G01 X23.5093 Y20.5304 
G01 X23.3356 Y20.4419 
G01 X23.1501 Y20.3816 
G01 X22.9575 Y20.3511 
G01 X22.7625 Y20.3511 
G01 X22.5699 Y20.3816 
G01 X22.3844 Y20.4419 
G01 X22.2107 Y20.5304 
G01 X22.0529 Y20.6450 
G01 X21.9150 Y20.7829 
G00 Z2.0000 
G00 X21.9150 Y23.3229 
G01 Z-0.0250 F254.00 
G01 X21.8004 Y23.4807 F508.00 
G01 X21.7119 Y23.6544 
G01 X21.6516 Y23.8399 
G01 X21.6211 Y24.0325 
G01 X21.6211 Y24.2275 
G01 X21.6516 Y24.4201 
G01 X21.7119 Y24.6056 
G01 X21.8004 Y24.7793 
G01 X21.9150 Y24.9371 
G01 X22.0529 Y25.0750 
G01 X22.2107 Y25.1896 
G01 X22.3844 Y25.2781 
G01 X22.5699 Y25.3384 
G01 X22.7625 Y25.3689 
G01 X22.9575 Y25.3689 
G01 X23.1501 Y25.3384 
G01 X23.3356 Y25.2781 
G01 X23.5093 Y25.1896 
G01 X23.6671 Y25.0750 
G01 X23.8050 Y24.9371 
G01 X23.9196 Y24.7793 
G01 X24.0081 Y24.6056 
G01 X24.0684 Y24.4201 
G01 X24.0989 Y24.2275 
G01 X24.0989 Y24.0325 
G01 X24.0684 Y23.8399 
G01 X24.0081 Y23.6544 
G01 X23.9196 Y23.4807 
G01 X23.8050 Y23.3229 
G01 X23.6671 Y23.1850 
G01 X23.5093 Y23.0704 
G01 X23.3356 Y22.9819 
G01 X23.1501 Y22.9216 
G01 X22.9575 Y22.8911 
G01 X22.7625 Y22.8911 
G01 X22.5699 Y22.9216 
G01 X22.3844 Y22.9819 
G01 X22.2107 Y23.0704 
G01 X22.0529 Y23.1850 
G01 X21.9150 Y23.3229 
G00 Z2.0000 
G00 X21.9150 Y25.8629 
G01 Z-0.0250 F254.00 
G01 X21.8004 Y26.0207 F508.00 
G01 X21.7119 Y26.1944 
G01 X21.6516 Y26.3799 
G01 X21.6211 Y26.5725 
G01 X21.6211 Y26.7675 
G01 X21.6516 Y26.9601 
G01 X21.7119 Y27.1456 
G01 X21.8004 Y27.3193 
G01 X21.9150 Y27.4771 
G01 X22.0529 Y27.6150 
G01 X22.2107 Y27.7296 
G01 X22.3844 Y27.8181 
G01 X22.5699 Y27.8784 
G01 X22.7625 Y27.9089 
G01 X22.9575 Y27.9089 
G01 X23.1501 Y27.8784 
G01 X23.3356 Y27.8181 
G01 X23.5093 Y27.7296 
G01 X23.6671 Y27.6150 
G01 X23.8050 Y27.4771 
G01 X23.9196 Y27.3193 
G01 X24.0081 Y27.1456 
G01 X24.0684 Y26.9601 
G01 X24.0989 Y26.7675 
G01 X24.0989 Y26.5725 
G01 X24.0684 Y26.3799 
G01 X24.0081 Y26.1944 
G01 X23.9196 Y26.0207 
G01 X23.8050 Y25.8629 
G01 X23.6671 Y25.7250 
G01 X23.5093 Y25.6104 
G01 X23.3356 Y25.5219 
G01 X23.1501 Y25.4616 
G01 X22.9575 Y25.4311 
G01 X22.7625 Y25.4311 
G01 X22.5699 Y25.4616 
G01 X22.3844 Y25.5219 
G01 X22.2107 Y25.6104 
G01 X22.0529 Y25.7250 
G01 X21.9150 Y25.8629 
G00 Z2.0000 
G00 X21.9150 Y28.4029 
G01 Z-0.0250 F254.00 
G01 X21.8004 Y28.5607 F508.00 
G01 X21.7119 Y28.7344 
G01 X21.6516 Y28.9199 
G01 X21.6211 Y29.1125 
G01 X21.6211 Y29.3075 
G01 X21.6516 Y29.5001 
G01 X21.7119 Y29.6856 
G01 X21.8004 Y29.8593 
G01 X21.9150 Y30.0171 
G01 X22.0529 Y30.1550 
G01 X22.2107 Y30.2696 
G01 X22.3844 Y30.3581 
G01 X22.5699 Y30.4184 
G01 X22.7625 Y30.4489 
G01 X22.9575 Y30.4489 
G01 X23.1501 Y30.4184 
G01 X23.3356 Y30.3581 
G01 X23.5093 Y30.2696 
G01 X23.6671 Y30.1550 
G01 X23.8050 Y30.0171 
G01 X23.9196 Y29.8593 
G01 X23.9300 Y29.8389 
G01 X26.1861 Y29.8389 
G01 X26.1861 Y29.9925 
G01 X26.2225 Y30.0803 
G01 X26.2897 Y30.1475 
G01 X26.3775 Y30.1839 
G01 X27.7425 Y30.1839 
G01 X27.8303 Y30.1475 
G01 X27.8975 Y30.0803 
G01 X27.9339 Y29.9925 
G01 X27.9339 Y28.4275 
G01 X27.8975 Y28.3397 
G01 X27.8303 Y28.2725 
G01 X27.7425 Y28.2361 
G01 X26.3775 Y28.2361 
G01 X26.2897 Y28.2725 
G01 X26.2225 Y28.3397 
G01 X26.1861 Y28.4275 
G01 X26.1861 Y28.5611 
G01 X23.9198 Y28.5611 
G01 X23.8050 Y28.4029 
G01 X23.6671 Y28.2650 
G01 X23.5093 Y28.1504 
G01 X23.3356 Y28.0619 
G01 X23.1501 Y28.0016 
G01 X22.9575 Y27.9711 
G01 X22.7625 Y27.9711 
G01 X22.5699 Y28.0016 
G01 X22.3844 Y28.0619 
G01 X22.2107 Y28.1504 
G01 X22.0529 Y28.2650 
G01 X21.9150 Y28.4029 
G00 Z2.0000 
G00 X21.9150 Y30.9429 
G01 Z-0.0250 F254.00 
G01 X21.8004 Y31.1007 F508.00 
G01 X21.7119 Y31.2744 
G01 X21.6516 Y31.4599 
G01 X21.6211 Y31.6525 
G01 X21.6211 Y31.8475 
G01 X21.6516 Y32.0401 
G01 X21.7119 Y32.2256 
G01 X21.8004 Y32.3993 
G01 X21.9150 Y32.5571 
G01 X22.0529 Y32.6950 
G01 X22.2107 Y32.8096 
G01 X22.3844 Y32.8981 
G01 X22.5699 Y32.9584 
G01 X22.7625 Y32.9889 
G01 X22.9575 Y32.9889 
G01 X23.1501 Y32.9584 
G01 X23.3356 Y32.8981 
G01 X23.5093 Y32.8096 
G01 X23.6671 Y32.6950 
G01 X23.8050 Y32.5571 
G01 X23.9196 Y32.3993 
G01 X24.0013 Y32.2389 
G01 X29.2629 Y32.2389 
G01 X29.3864 Y32.2143 
G01 X29.5026 Y32.1662 
G01 X29.6073 Y32.0963 
G01 X31.4000 Y30.3035 
G01 X31.5927 Y30.4963 
G01 X31.6974 Y30.5662 
G01 X31.8136 Y30.6143 
G01 X31.9371 Y30.6389 
G01 X34.7548 Y30.6389 
G01 X34.7575 Y30.6453 
G01 X34.8247 Y30.7125 
G01 X34.9125 Y30.7489 
G01 X35.0639 Y30.7489 
G01 X35.0805 Y30.7772 
G01 X35.0931 Y30.7914 
G01 X35.1037 Y30.8073 
G01 X35.1348 Y30.8384 
G01 X35.1640 Y30.8713 
G01 X35.1793 Y30.8828 
G01 X35.1927 Y30.8963 
G01 X35.2293 Y30.9207 
G01 X35.2644 Y30.9473 
G01 X35.2815 Y30.9556 
G01 X35.2974 Y30.9662 
G01 X35.3380 Y30.9830 
G01 X35.3776 Y31.0022 
G01 X35.3960 Y31.0070 
G01 X35.4136 Y31.0143 
G01 X35.4568 Y31.0229 
G01 X35.4993 Y31.0340 
G01 X35.5184 Y31.0352 
G01 X35.5371 Y31.0389 
G01 X35.5810 Y31.0389 
G01 X35.6250 Y31.0415 
G01 X35.6439 Y31.0389 
G01 X38.9354 Y31.0389 
G01 X39.3323 Y31.4359 
G01 X39.3263 Y31.4546 
G01 X39.2931 Y31.6640 
G01 X39.2931 Y31.8760 
G01 X39.3263 Y32.0854 
G01 X39.3918 Y32.2870 
G01 X39.4880 Y32.4759 
G01 X39.6126 Y32.6474 
G01 X39.7626 Y32.7974 
G01 X39.9341 Y32.9220 
G01 X40.1230 Y33.0182 
G01 X40.1285 Y33.0200 
G01 X40.1230 Y33.0218 
G01 X39.9341 Y33.1180 
G01 X39.7626 Y33.2426 
G01 X39.6126 Y33.3926 
G01 X39.4880 Y33.5641 
G01 X39.3918 Y33.7530 
G01 X39.3263 Y33.9546 
G01 X39.2931 Y34.1640 
G01 X39.2931 Y34.3760 
G01 X39.3242 Y34.5723 
G01 X38.9354 Y34.9611 
G01 X35.6386 Y34.9611 
G01 X35.6144 Y34.9582 
G01 X35.5758 Y34.9611 
G01 X35.5371 Y34.9611 
G01 X35.5132 Y34.9659 
G01 X35.4889 Y34.9677 
G01 X35.4516 Y34.9781 
G01 X35.4136 Y34.9857 
G01 X35.3911 Y34.9950 
G01 X35.3677 Y35.0015 
G01 X35.3332 Y35.0190 
G01 X35.2974 Y35.0338 
G01 X35.2771 Y35.0473 
G01 X35.2554 Y35.0583 
G01 X35.2249 Y35.0822 
G01 X35.1927 Y35.1037 
G01 X35.1755 Y35.1209 
G01 X35.1563 Y35.1360 
G01 X35.1311 Y35.1654 
G01 X35.1037 Y35.1927 
G01 X35.0902 Y35.2130 
G01 X35.0743 Y35.2314 
G01 X35.0553 Y35.2652 
G01 X35.0380 Y35.2911 
G01 X34.9125 Y35.2911 
G01 X34.8247 Y35.3275 
G01 X34.7910 Y35.3611 
G01 X32.3371 Y35.3611 
G01 X32.2136 Y35.3857 
G01 X32.0974 Y35.4338 
G01 X31.9927 Y35.5037 
G01 X31.6404 Y35.8561 
G01 X31.1596 Y35.8561 
G01 X29.2073 Y33.9037 
G01 X29.1026 Y33.8338 
G01 X28.9864 Y33.7857 
G01 X28.8629 Y33.7611 
G01 X23.9810 Y33.7611 
G01 X23.9196 Y33.6407 
G01 X23.8050 Y33.4829 
G01 X23.6671 Y33.3450 
G01 X23.5093 Y33.2304 
G01 X23.3356 Y33.1419 
G01 X23.1501 Y33.0816 
G01 X22.9575 Y33.0511 
G01 X22.7625 Y33.0511 
G01 X22.5699 Y33.0816 
G01 X22.3844 Y33.1419 
G01 X22.2107 Y33.2304 
G01 X22.0529 Y33.3450 
G01 X21.9150 Y33.4829 
G01 X21.8004 Y33.6407 
G01 X21.7119 Y33.8144 
G01 X21.6516 Y33.9999 
G01 X21.6211 Y34.1925 
G01 X21.6211 Y34.3875 
G01 X21.6516 Y34.5801 
G01 X21.7119 Y34.7656 
G01 X21.8004 Y34.9393 
G01 X21.9150 Y35.0971 
G01 X22.0529 Y35.2350 
G01 X22.2107 Y35.3496 
G01 X22.3844 Y35.4381 
G01 X22.5699 Y35.4984 
G01 X22.7625 Y35.5289 
G01 X22.9575 Y35.5289 
G01 X23.1501 Y35.4984 
G01 X23.3356 Y35.4381 
G01 X23.5093 Y35.3496 
G01 X23.6671 Y35.2350 
G01 X23.8050 Y35.0971 
G01 X23.8473 Y35.0389 
G01 X28.5354 Y35.0389 
G01 X30.4861 Y36.9896 
G01 X30.4861 Y37.6125 
G01 X30.5225 Y37.7003 
G01 X30.5897 Y37.7675 
G01 X30.6775 Y37.8039 
G01 X32.0425 Y37.8039 
G01 X32.1303 Y37.7675 
G01 X32.1975 Y37.7003 
G01 X32.2339 Y37.6125 
G01 X32.2339 Y37.0696 
G01 X32.6646 Y36.6389 
G01 X35.1987 Y36.6389 
G01 X35.2602 Y36.6392 
G01 X35.2629 Y36.6389 
G01 X35.3230 Y36.6270 
G01 X35.6215 Y36.5689 
G01 X36.2075 Y36.5689 
G01 X36.2953 Y36.5325 
G01 X36.3625 Y36.4653 
G01 X36.3989 Y36.3775 
G01 X36.3989 Y36.2389 
G01 X39.2629 Y36.2389 
G01 X39.3864 Y36.2143 
G01 X39.5026 Y36.1662 
G01 X39.6073 Y36.0963 
G01 X40.1700 Y35.5335 
G01 X40.3246 Y35.5837 
G01 X40.5340 Y35.6169 
G01 X40.7460 Y35.6169 
G01 X40.9554 Y35.5837 
G01 X41.1570 Y35.5182 
G01 X41.3459 Y35.4220 
G01 X41.5174 Y35.2974 
G01 X41.6674 Y35.1474 
G01 X41.7920 Y34.9759 
G01 X41.8882 Y34.7870 
G01 X41.9537 Y34.5854 
G01 X41.9869 Y34.3760 
G01 X41.9869 Y34.1640 
G01 X41.9537 Y33.9546 
G01 X41.8882 Y33.7530 
G01 X41.7920 Y33.5641 
G01 X41.6674 Y33.3926 
G01 X41.5174 Y33.2426 
G01 X41.3459 Y33.1180 
G01 X41.1570 Y33.0218 
G01 X41.1515 Y33.0200 
G01 X41.1570 Y33.0182 
G01 X41.3459 Y32.9220 
G01 X41.5174 Y32.7974 
G01 X41.6674 Y32.6474 
G01 X41.7920 Y32.4759 
G01 X41.8882 Y32.2870 
G01 X41.9537 Y32.0854 
G01 X41.9869 Y31.8760 
G01 X41.9869 Y31.6640 
G01 X41.9537 Y31.4546 
G01 X41.8882 Y31.2530 
G01 X41.7920 Y31.0641 
G01 X41.6674 Y30.8926 
G01 X41.5174 Y30.7426 
G01 X41.3459 Y30.6180 
G01 X41.1570 Y30.5218 
G01 X40.9554 Y30.4563 
G01 X40.7460 Y30.4231 
G01 X40.5340 Y30.4231 
G01 X40.3246 Y30.4563 
G01 X40.2002 Y30.4967 
G01 X39.6073 Y29.9037 
G01 X39.5026 Y29.8338 
G01 X39.3864 Y29.7857 
G01 X39.2629 Y29.7611 
G01 X36.3989 Y29.7611 
G01 X36.3989 Y29.6625 
G01 X36.3625 Y29.5747 
G01 X36.2953 Y29.5075 
G01 X36.2075 Y29.4711 
G01 X35.6554 Y29.4711 
G01 X35.4161 Y29.3980 
G01 X35.3864 Y29.3857 
G01 X35.3561 Y29.3796 
G01 X35.3265 Y29.3706 
G01 X35.2945 Y29.3674 
G01 X35.2629 Y29.3611 
G01 X35.2320 Y29.3611 
G01 X35.2013 Y29.3580 
G01 X35.1693 Y29.3611 
G01 X32.2646 Y29.3611 
G01 X32.2339 Y29.3304 
G01 X32.2339 Y28.4275 
G01 X32.1975 Y28.3397 
G01 X32.1303 Y28.2725 
G01 X32.0425 Y28.2361 
G01 X30.6775 Y28.2361 
G01 X30.5897 Y28.2725 
G01 X30.5225 Y28.3397 
G01 X30.4861 Y28.4275 
G01 X30.4861 Y29.4104 
G01 X28.9354 Y30.9611 
G01 X23.8182 Y30.9611 
G01 X23.8050 Y30.9429 
G01 X23.6671 Y30.8050 
G01 X23.5093 Y30.6904 
G01 X23.3356 Y30.6019 
G01 X23.1501 Y30.5416 
G01 X22.9575 Y30.5111 
G01 X22.7625 Y30.5111 
G01 X22.5699 Y30.5416 
G01 X22.3844 Y30.6019 
G01 X22.2107 Y30.6904 
G01 X22.0529 Y30.8050 
G01 X21.9150 Y30.9429 
G00 Z2.0000 
G00 X21.9150 Y36.0229 
G01 Z-0.0250 F254.00 
G01 X21.8004 Y36.1807 F508.00 
G01 X21.7119 Y36.3544 
G01 X21.6516 Y36.5399 
G01 X21.6211 Y36.7325 
G01 X21.6211 Y36.9275 
G01 X21.6516 Y37.1201 
G01 X21.7119 Y37.3056 
G01 X21.8004 Y37.4793 
G01 X21.9150 Y37.6371 
G01 X22.0529 Y37.7750 
G01 X22.2107 Y37.8896 
G01 X22.3844 Y37.9781 
G01 X22.5699 Y38.0384 
G01 X22.7625 Y38.0689 
G01 X22.9575 Y38.0689 
G01 X23.1501 Y38.0384 
G01 X23.3356 Y37.9781 
G01 X23.5093 Y37.8896 
G01 X23.6671 Y37.7750 
G01 X23.8050 Y37.6371 
G01 X23.9196 Y37.4793 
G01 X23.9402 Y37.4389 
G01 X26.1861 Y37.4389 
G01 X26.1861 Y37.6125 
G01 X26.2225 Y37.7003 
G01 X26.2897 Y37.7675 
G01 X26.3775 Y37.8039 
G01 X27.7425 Y37.8039 
G01 X27.8303 Y37.7675 
G01 X27.8975 Y37.7003 
G01 X27.9339 Y37.6125 
G01 X27.9339 Y36.0475 
G01 X27.8975 Y35.9597 
G01 X27.8303 Y35.8925 
G01 X27.7425 Y35.8561 
G01 X26.3775 Y35.8561 
G01 X26.2897 Y35.8925 
G01 X26.2225 Y35.9597 
G01 X26.1861 Y36.0475 
G01 X26.1861 Y36.1611 
G01 X23.9054 Y36.1611 
G01 X23.8050 Y36.0229 
G01 X23.6671 Y35.8850 
G01 X23.5093 Y35.7704 
G01 X23.3356 Y35.6819 
G01 X23.1501 Y35.6216 
G01 X22.9575 Y35.5911 
G01 X22.7625 Y35.5911 
G01 X22.5699 Y35.6216 
G01 X22.3844 Y35.6819 
G01 X22.2107 Y35.7704 
G01 X22.0529 Y35.8850 
G01 X21.9150 Y36.0229 
G00 Z2.0000 
G00 X21.9150 Y38.5629 
G01 Z-0.0250 F254.00 
G01 X21.8004 Y38.7207 F508.00 
G01 X21.7119 Y38.8944 
G01 X21.6516 Y39.0799 
G01 X21.6211 Y39.2725 
G01 X21.6211 Y39.4675 
G01 X21.6516 Y39.6601 
G01 X21.7119 Y39.8456 
G01 X21.8004 Y40.0193 
G01 X21.9150 Y40.1771 
G01 X22.0529 Y40.3150 
G01 X22.2107 Y40.4296 
G01 X22.3844 Y40.5181 
G01 X22.5699 Y40.5784 
G01 X22.7625 Y40.6089 
G01 X22.9575 Y40.6089 
G01 X23.1501 Y40.5784 
G01 X23.3356 Y40.5181 
G01 X23.5093 Y40.4296 
G01 X23.6671 Y40.3150 
G01 X23.7432 Y40.2389 
G01 X25.3354 Y40.2389 
G01 X33.3013 Y48.2049 
G01 X33.2154 Y48.3232 
G01 X33.1269 Y48.4969 
G01 X33.0666 Y48.6824 
G01 X33.0361 Y48.8750 
G01 X33.0361 Y49.0700 
G01 X33.0666 Y49.2626 
G01 X33.1269 Y49.4481 
G01 X33.2154 Y49.6218 
G01 X33.3300 Y49.7796 
G01 X33.4679 Y49.9175 
G01 X33.6257 Y50.0321 
G01 X33.7994 Y50.1206 
G01 X33.9849 Y50.1809 
G01 X34.1775 Y50.2114 
G01 X34.3725 Y50.2114 
G01 X34.5651 Y50.1809 
G01 X34.7506 Y50.1206 
G01 X34.9243 Y50.0321 
G01 X35.0821 Y49.9175 
G01 X35.2200 Y49.7796 
G01 X35.3346 Y49.6218 
G01 X35.4231 Y49.4481 
G01 X35.4834 Y49.2626 
G01 X35.5139 Y49.0700 
G01 X35.5139 Y48.8750 
G01 X35.4834 Y48.6824 
G01 X35.4231 Y48.4969 
G01 X35.3346 Y48.3232 
G01 X35.2200 Y48.1654 
G01 X35.0821 Y48.0275 
G01 X34.9243 Y47.9129 
G01 X34.7506 Y47.8244 
G01 X34.6967 Y47.8069 
G01 X35.4646 Y47.0389 
G01 X37.3354 Y47.0389 
G01 X38.4359 Y48.1395 
G01 X38.4100 Y48.1654 
G01 X38.2954 Y48.3232 
G01 X38.2069 Y48.4969 
G01 X38.1466 Y48.6824 
G01 X38.1161 Y48.8750 
G01 X38.1161 Y49.0700 
G01 X38.1466 Y49.2626 
G01 X38.2069 Y49.4481 
G01 X38.2954 Y49.6218 
G01 X38.4100 Y49.7796 
G01 X38.5479 Y49.9175 
G01 X38.7057 Y50.0321 
G01 X38.8794 Y50.1206 
G01 X39.0649 Y50.1809 
G01 X39.2575 Y50.2114 
G01 X39.4525 Y50.2114 
G01 X39.6451 Y50.1809 
G01 X39.8306 Y50.1206 
G01 X40.0043 Y50.0321 
G01 X40.1621 Y49.9175 
G01 X40.3000 Y49.7796 
G01 X40.4146 Y49.6218 
G01 X40.5031 Y49.4481 
G01 X40.5634 Y49.2626 
G01 X40.5939 Y49.0700 
G01 X40.5939 Y48.8750 
G01 X40.5634 Y48.6824 
G01 X40.5031 Y48.4969 
G01 X40.4146 Y48.3232 
G01 X40.3000 Y48.1654 
G01 X40.1621 Y48.0275 
G01 X40.0043 Y47.9129 
G01 X39.8306 Y47.8244 
G01 X39.8155 Y47.8195 
G01 X39.8143 Y47.8136 
G01 X39.7662 Y47.6974 
G01 X39.6963 Y47.5927 
G01 X38.0963 Y45.9927 
G01 X38.0073 Y45.9037 
G01 X37.9026 Y45.8338 
G01 X37.7864 Y45.7857 
G01 X37.6629 Y45.7611 
G01 X35.1371 Y45.7611 
G01 X35.0136 Y45.7857 
G01 X34.8974 Y45.8338 
G01 X34.7927 Y45.9037 
G01 X33.8000 Y46.8965 
G01 X26.0073 Y39.1037 
G01 X25.9026 Y39.0338 
G01 X25.7864 Y38.9857 
G01 X25.6629 Y38.9611 
G01 X24.0298 Y38.9611 
G01 X24.0081 Y38.8944 
G01 X23.9196 Y38.7207 
G01 X23.8050 Y38.5629 
G01 X23.6671 Y38.4250 
G01 X23.5093 Y38.3104 
G01 X23.3356 Y38.2219 
G01 X23.1501 Y38.1616 
G01 X22.9575 Y38.1311 
G01 X22.7625 Y38.1311 
G01 X22.5699 Y38.1616 
G01 X22.3844 Y38.2219 
G01 X22.2107 Y38.3104 
G01 X22.0529 Y38.4250 
G01 X21.9150 Y38.5629 
G00 Z2.0000 
G00 X21.9150 Y41.1029 
G01 Z-0.0250 F254.00 
G01 X21.8004 Y41.2607 F508.00 
G01 X21.7119 Y41.4344 
G01 X21.6516 Y41.6199 
G01 X21.6211 Y41.8125 
G01 X21.6211 Y42.0075 
G01 X21.6516 Y42.2001 
G01 X21.7119 Y42.3856 
G01 X21.8004 Y42.5593 
G01 X21.9150 Y42.7171 
G01 X22.0529 Y42.8550 
G01 X22.2107 Y42.9696 
G01 X22.3844 Y43.0581 
G01 X22.5699 Y43.1184 
G01 X22.7625 Y43.1489 
G01 X22.9575 Y43.1489 
G01 X23.1501 Y43.1184 
G01 X23.3356 Y43.0581 
G01 X23.5093 Y42.9696 
G01 X23.6671 Y42.8550 
G01 X23.8050 Y42.7171 
G01 X23.9196 Y42.5593 
G01 X24.0081 Y42.3856 
G01 X24.0684 Y42.2001 
G01 X24.0989 Y42.0075 
G01 X24.0989 Y41.8125 
G01 X24.0684 Y41.6199 
G01 X24.0081 Y41.4344 
G01 X23.9196 Y41.2607 
G01 X23.8050 Y41.1029 
G01 X23.6671 Y40.9650 
G01 X23.5093 Y40.8504 
G01 X23.3356 Y40.7619 
G01 X23.1501 Y40.7016 
G01 X22.9575 Y40.6711 
G01 X22.7625 Y40.6711 
G01 X22.5699 Y40.7016 
G01 X22.3844 Y40.7619 
G01 X22.2107 Y40.8504 
G01 X22.0529 Y40.9650 
G01 X21.9150 Y41.1029 
G00 Z2.0000 
G00 X21.9150 Y43.6429 
G01 Z-0.0250 F254.00 
G01 X21.8004 Y43.8007 F508.00 
G01 X21.7119 Y43.9744 
G01 X21.6516 Y44.1599 
G01 X21.6211 Y44.3525 
G01 X21.6211 Y44.5475 
G01 X21.6516 Y44.7401 
G01 X21.7119 Y44.9256 
G01 X21.8004 Y45.0993 
G01 X21.9150 Y45.2571 
G01 X22.0529 Y45.3950 
G01 X22.2107 Y45.5096 
G01 X22.3844 Y45.5981 
G01 X22.5699 Y45.6584 
G01 X22.7625 Y45.6889 
G01 X22.9575 Y45.6889 
G01 X23.1501 Y45.6584 
G01 X23.3356 Y45.5981 
G01 X23.5093 Y45.5096 
G01 X23.6671 Y45.3950 
G01 X23.8050 Y45.2571 
G01 X23.9196 Y45.0993 
G01 X24.0081 Y44.9256 
G01 X24.0684 Y44.7401 
G01 X24.0989 Y44.5475 
G01 X24.0989 Y44.3525 
G01 X24.0684 Y44.1599 
G01 X24.0081 Y43.9744 
G01 X23.9196 Y43.8007 
G01 X23.8050 Y43.6429 
G01 X23.6671 Y43.5050 
G01 X23.5093 Y43.3904 
G01 X23.3356 Y43.3019 
G01 X23.1501 Y43.2416 
G01 X22.9575 Y43.2111 
G01 X22.7625 Y43.2111 
G01 X22.5699 Y43.2416 
G01 X22.3844 Y43.3019 
G01 X22.2107 Y43.3904 
G01 X22.0529 Y43.5050 
G01 X21.9150 Y43.6429 
G00 Z2.0000 
G00 X21.9150 Y46.1829 
G01 Z-0.0250 F254.00 
G01 X21.8004 Y46.3407 F508.00 
G01 X21.7119 Y46.5144 
G01 X21.6516 Y46.6999 
G01 X21.6211 Y46.8925 
G01 X21.6211 Y47.0875 
G01 X21.6516 Y47.2801 
G01 X21.7119 Y47.4656 
G01 X21.8004 Y47.6393 
G01 X21.9150 Y47.7971 
G01 X22.0529 Y47.9350 
G01 X22.2107 Y48.0496 
G01 X22.3844 Y48.1381 
G01 X22.5699 Y48.1984 
G01 X22.7625 Y48.2289 
G01 X22.9575 Y48.2289 
G01 X23.1501 Y48.1984 
G01 X23.3356 Y48.1381 
G01 X23.5093 Y48.0496 
G01 X23.6671 Y47.9350 
G01 X23.8050 Y47.7971 
G01 X23.9196 Y47.6393 
G01 X24.0081 Y47.4656 
G01 X24.0684 Y47.2801 
G01 X24.0989 Y47.0875 
G01 X24.0989 Y46.8925 
G01 X24.0684 Y46.6999 
G01 X24.0081 Y46.5144 
G01 X23.9196 Y46.3407 
G01 X23.8050 Y46.1829 
G01 X23.6671 Y46.0450 
G01 X23.5093 Y45.9304 
G01 X23.3356 Y45.8419 
G01 X23.1501 Y45.7816 
G01 X22.9575 Y45.7511 
G01 X22.7625 Y45.7511 
G01 X22.5699 Y45.7816 
G01 X22.3844 Y45.8419 
G01 X22.2107 Y45.9304 
G01 X22.0529 Y46.0450 
G01 X21.9150 Y46.1829 
G00 Z2.0000 
G00 X21.0143 Y46.2136 
G01 Z-0.0250 F254.00 
G01 X20.9662 Y46.0974 F508.00 
G01 X20.8963 Y45.9927 
G01 X20.8073 Y45.9037 
G01 X8.8073 Y33.9037 
G01 X8.7943 Y33.8951 
G01 X8.7681 Y33.8144 
G01 X8.6796 Y33.6407 
G01 X8.5650 Y33.4829 
G01 X8.4271 Y33.3450 
G01 X8.2693 Y33.2304 
G01 X8.0956 Y33.1419 
G01 X7.9101 Y33.0816 
