(.../02_pcbgcode/pcbgcode/pcb-gcode.ulp)
(Copyright 2005 - 2012 by John Johnson)
(See readme.txt for licensing terms.)
(This file generated from the board:)
(.../KarasolBaxCont/KarasolboxCont.brd)
(Current profile is .../02_pcbgcode/pcbgcode/profiles/emc.pp  )
(This file generated 3/27/2017 9:52 PM)
(Settings from pcb-machine.h)
(spindle on time = 3.0000)
(  Tool Size)
(0.1000 )
(spindle speed = 30000.0000)
(tool change at 15.0000 15.0000 19.0000 )
(feed rate xy = F508.00 )
(feed rate z  = F254.00 )
(Z Axis Settings)
(  High     Up        Down     Drill)
(19.5000 	2.0000 	-0.0250 	-1.5000 )
(Settings from pcb-defaults.h)
(isolate min = 0.0500)
(isolate max = 0.3000)
(isolate step = 0.1000)
(Generated top outlines, top drill, bottom outlines, bottom drill, )
(Unit of measure: mm)
(Metric Mode)
G21
(Absolute Coordinates)
G90
S30000
G00 Z19.5000 
G00 X0.0000 Y0.0000 
M03
G04 P3.000000
G00 Z2.0000 
G00 X4.0677 Y1.6538 
G01 Z-0.0250 F254.00 
G01 X3.9419 Y1.8270 F508.00 
G01 X3.8447 Y2.0178 
G01 X3.7785 Y2.2214 
G01 X3.7450 Y2.4329 
G01 X3.7450 Y2.6471 
G01 X3.7785 Y2.8586 
G01 X3.8447 Y3.0622 
G01 X3.9419 Y3.2530 
G01 X4.0677 Y3.4262 
G01 X4.2192 Y3.5777 
G01 X4.3924 Y3.7035 
G01 X4.5832 Y3.8007 
G01 X4.7000 Y3.8387 
G01 X4.7000 Y11.1544 
G01 X4.6963 Y11.1743 
G01 X4.7000 Y11.2200 
G01 X4.7000 Y11.2658 
G01 X4.7052 Y11.2853 
G01 X4.7068 Y11.3055 
G01 X4.7222 Y11.3487 
G01 X4.7341 Y11.3930 
G01 X4.7350 Y11.4054 
G01 X4.7316 Y11.4164 
G01 X4.7270 Y11.4250 
G01 X4.7145 Y11.4799 
G01 X4.7000 Y11.5342 
G01 X4.7000 Y11.5439 
G01 X4.6978 Y11.5534 
G01 X4.7000 Y11.6096 
G01 X4.7000 Y62.8658 
G01 X4.7341 Y62.9930 
G01 X4.7999 Y63.1070 
G01 X4.8930 Y63.2001 
G01 X6.4930 Y64.8001 
G01 X6.6070 Y64.8659 
G01 X6.7342 Y64.9000 
G01 X7.3929 Y64.9000 
G01 X8.0930 Y65.6001 
G01 X8.2070 Y65.6659 
G01 X8.3342 Y65.7000 
G01 X30.3000 Y65.7000 
G01 X30.3000 Y67.6400 
G01 X30.1301 Y67.6400 
G01 X30.0934 Y67.6552 
G01 X30.0652 Y67.6834 
G01 X30.0500 Y67.7201 
G01 X30.0500 Y69.5399 
G01 X30.0652 Y69.5766 
G01 X30.0934 Y69.6048 
G01 X30.1301 Y69.6200 
G01 X32.1129 Y69.6200 
G01 X32.8930 Y70.4001 
G01 X33.0070 Y70.4659 
G01 X33.1342 Y70.5000 
G01 X36.7125 Y70.5000 
G01 X36.7152 Y70.5066 
G01 X36.7434 Y70.5348 
G01 X36.7801 Y70.5500 
G01 X37.6199 Y70.5500 
G01 X37.6566 Y70.5348 
G01 X37.6848 Y70.5066 
G01 X37.7000 Y70.4699 
G01 X37.7000 Y69.2301 
G01 X37.6848 Y69.1934 
G01 X37.6566 Y69.1652 
G01 X37.6199 Y69.1500 
G01 X36.7801 Y69.1500 
G01 X36.7434 Y69.1652 
G01 X36.7152 Y69.1934 
G01 X36.7000 Y69.2301 
G01 X36.7000 Y69.5000 
G01 X33.4500 Y69.5000 
G01 X33.4500 Y67.7201 
G01 X33.4348 Y67.6834 
G01 X33.4066 Y67.6552 
G01 X33.3699 Y67.6400 
G01 X31.5471 Y67.6400 
G01 X31.3000 Y67.3929 
G01 X31.3000 Y63.8400 
G01 X31.5799 Y63.8400 
G01 X31.6166 Y63.8248 
G01 X31.6448 Y63.7966 
G01 X31.6600 Y63.7599 
G01 X31.6600 Y62.7201 
G01 X31.6448 Y62.6834 
G01 X31.6166 Y62.6552 
G01 X31.5799 Y62.6400 
G01 X29.9401 Y62.6400 
G01 X29.9034 Y62.6552 
G01 X29.8752 Y62.6834 
G01 X29.8600 Y62.7201 
G01 X29.8600 Y63.7599 
G01 X29.8752 Y63.7966 
G01 X29.9034 Y63.8248 
G01 X29.9401 Y63.8400 
G01 X30.3000 Y63.8400 
G01 X30.3000 Y64.7000 
G01 X8.6071 Y64.7000 
G01 X8.0001 Y64.0930 
G01 X7.9070 Y63.9999 
G01 X7.7930 Y63.9341 
G01 X7.6658 Y63.9000 
G01 X7.0071 Y63.9000 
G01 X5.7000 Y62.5929 
G01 X5.7000 Y14.1000 
G01 X10.8658 Y14.1000 
G01 X10.9930 Y14.0659 
G01 X11.1070 Y14.0001 
G01 X11.2001 Y13.9070 
G01 X13.4071 Y11.7000 
G01 X17.4350 Y11.7000 
G01 X17.4350 Y12.1849 
G01 X17.4502 Y12.2216 
G01 X17.4784 Y12.2498 
G01 X17.5151 Y12.2650 
G01 X18.8249 Y12.2650 
G01 X18.8616 Y12.2498 
G01 X18.8898 Y12.2216 
G01 X18.9050 Y12.1849 
G01 X18.9050 Y10.6751 
G01 X18.8898 Y10.6384 
G01 X18.8616 Y10.6102 
G01 X18.8249 Y10.5950 
G01 X18.5000 Y10.5950 
G01 X18.5000 Y3.9342 
G01 X18.4659 Y3.8070 
G01 X18.4001 Y3.6930 
G01 X17.7871 Y3.0800 
G01 X17.7961 Y3.0622 
G01 X17.8623 Y2.8586 
G01 X17.8958 Y2.6471 
G01 X17.8958 Y2.4329 
G01 X17.8623 Y2.2214 
G01 X17.7961 Y2.0178 
G01 X17.6989 Y1.8270 
G01 X17.5731 Y1.6538 
G01 X17.4216 Y1.5023 
G01 X17.2484 Y1.3765 
G01 X17.0576 Y1.2793 
G01 X16.8540 Y1.2131 
G01 X16.6425 Y1.1796 
G01 X16.4283 Y1.1796 
G01 X16.2168 Y1.2131 
G01 X16.0132 Y1.2793 
G01 X15.8224 Y1.3765 
G01 X15.6492 Y1.5023 
G01 X15.4977 Y1.6538 
G01 X15.3719 Y1.8270 
G01 X15.2747 Y2.0178 
G01 X15.2085 Y2.2214 
G01 X15.1750 Y2.4329 
G01 X15.1750 Y2.6471 
G01 X15.2085 Y2.8586 
G01 X15.2747 Y3.0622 
G01 X15.3719 Y3.2530 
G01 X15.4977 Y3.4262 
G01 X15.6492 Y3.5777 
G01 X15.8224 Y3.7035 
G01 X16.0132 Y3.8007 
G01 X16.2168 Y3.8669 
G01 X16.4283 Y3.9004 
G01 X16.6425 Y3.9004 
G01 X16.8540 Y3.8669 
G01 X17.0576 Y3.8007 
G01 X17.0815 Y3.7886 
G01 X17.5000 Y4.2071 
G01 X17.5000 Y10.6013 
G01 X17.4784 Y10.6102 
G01 X17.4502 Y10.6384 
G01 X17.4350 Y10.6751 
G01 X17.4350 Y10.7000 
G01 X13.1342 Y10.7000 
G01 X13.0070 Y10.7341 
G01 X12.8930 Y10.7999 
G01 X10.5929 Y13.1000 
G01 X5.7000 Y13.1000 
G01 X5.7000 Y12.2650 
G01 X6.1249 Y12.2650 
G01 X6.1616 Y12.2498 
G01 X6.1898 Y12.2216 
G01 X6.2050 Y12.1849 
G01 X6.2050 Y10.6751 
G01 X6.1898 Y10.6384 
G01 X6.1616 Y10.6102 
G01 X6.1249 Y10.5950 
G01 X5.7000 Y10.5950 
G01 X5.7000 Y3.7638 
G01 X5.8184 Y3.7035 
G01 X5.9916 Y3.5777 
G01 X6.1431 Y3.4262 
G01 X6.2689 Y3.2530 
G01 X6.3661 Y3.0622 
G01 X6.4323 Y2.8586 
G01 X6.4658 Y2.6471 
G01 X6.4658 Y2.4329 
G01 X6.4323 Y2.2214 
G01 X6.3661 Y2.0178 
G01 X6.2689 Y1.8270 
G01 X6.1431 Y1.6538 
G01 X5.9916 Y1.5023 
G01 X5.8184 Y1.3765 
G01 X5.6276 Y1.2793 
G01 X5.4240 Y1.2131 
G01 X5.2125 Y1.1796 
G01 X4.9983 Y1.1796 
G01 X4.7868 Y1.2131 
G01 X4.5832 Y1.2793 
G01 X4.3924 Y1.3765 
G01 X4.2192 Y1.5023 
G01 X4.0677 Y1.6538 
G00 Z2.0000 
G00 X9.0715 Y1.6538 
G01 Z-0.0250 F254.00 
G01 X8.9457 Y1.8270 F508.00 
G01 X8.8485 Y2.0178 
G01 X8.7823 Y2.2214 
G01 X8.7488 Y2.4329 
G01 X8.7488 Y2.6471 
G01 X8.7823 Y2.8586 
G01 X8.8485 Y3.0622 
G01 X8.9457 Y3.2530 
G01 X9.0715 Y3.4262 
G01 X9.2230 Y3.5777 
G01 X9.3962 Y3.7035 
G01 X9.5000 Y3.7564 
G01 X9.5000 Y10.5950 
G01 X9.1151 Y10.5950 
G01 X9.0784 Y10.6102 
G01 X9.0502 Y10.6384 
G01 X9.0350 Y10.6751 
G01 X9.0350 Y12.1849 
G01 X9.0502 Y12.2216 
G01 X9.0784 Y12.2498 
G01 X9.1151 Y12.2650 
G01 X10.4249 Y12.2650 
G01 X10.4616 Y12.2498 
G01 X10.4898 Y12.2216 
G01 X10.5050 Y12.1849 
G01 X10.5050 Y10.6751 
G01 X10.5000 Y10.6630 
G01 X10.5000 Y3.8434 
G01 X10.6314 Y3.8007 
G01 X10.8222 Y3.7035 
G01 X10.9954 Y3.5777 
G01 X11.1469 Y3.4262 
G01 X11.2727 Y3.2530 
G01 X11.3699 Y3.0622 
G01 X11.4361 Y2.8586 
G01 X11.4696 Y2.6471 
G01 X11.4696 Y2.4329 
G01 X11.4361 Y2.2214 
G01 X11.3699 Y2.0178 
G01 X11.2727 Y1.8270 
G01 X11.1469 Y1.6538 
G01 X10.9954 Y1.5023 
G01 X10.8222 Y1.3765 
G01 X10.6314 Y1.2793 
G01 X10.4278 Y1.2131 
G01 X10.2163 Y1.1796 
G01 X10.0021 Y1.1796 
G01 X9.7906 Y1.2131 
G01 X9.5870 Y1.2793 
G01 X9.3962 Y1.3765 
G01 X9.2230 Y1.5023 
G01 X9.0715 Y1.6538 
G00 Z2.0000 
G00 X20.5015 Y1.6538 
G01 Z-0.0250 F254.00 
G01 X20.3757 Y1.8270 F508.00 
G01 X20.2785 Y2.0178 
G01 X20.2123 Y2.2214 
G01 X20.1788 Y2.4329 
G01 X20.1788 Y2.6471 
G01 X20.2123 Y2.8586 
G01 X20.2785 Y3.0622 
G01 X20.3757 Y3.2530 
G01 X20.5015 Y3.4262 
G01 X20.6530 Y3.5777 
G01 X20.8262 Y3.7035 
G01 X21.0170 Y3.8007 
G01 X21.2206 Y3.8669 
G01 X21.4321 Y3.9004 
G01 X21.6463 Y3.9004 
G01 X21.8578 Y3.8669 
G01 X21.9000 Y3.8532 
G01 X21.9000 Y10.5950 
G01 X21.8151 Y10.5950 
G01 X21.7784 Y10.6102 
G01 X21.7502 Y10.6384 
G01 X21.7350 Y10.6751 
G01 X21.7350 Y12.1849 
G01 X21.7502 Y12.2216 
G01 X21.7784 Y12.2498 
G01 X21.8151 Y12.2650 
G01 X23.1249 Y12.2650 
G01 X23.1616 Y12.2498 
G01 X23.1898 Y12.2216 
G01 X23.2050 Y12.1849 
G01 X23.2050 Y10.6751 
G01 X23.1898 Y10.6384 
G01 X23.1616 Y10.6102 
G01 X23.1249 Y10.5950 
G01 X22.9000 Y10.5950 
G01 X22.9000 Y5.7000 
G01 X24.6650 Y5.7000 
G01 X24.6650 Y9.5449 
G01 X24.6802 Y9.5816 
G01 X24.7084 Y9.6098 
G01 X24.7451 Y9.6250 
G01 X36.2149 Y9.6250 
G01 X36.2516 Y9.6098 
G01 X36.2798 Y9.5816 
G01 X36.2950 Y9.5449 
G01 X36.2950 Y0.6151 
G01 X36.2798 Y0.5784 
G01 X36.2516 Y0.5502 
G01 X36.2149 Y0.5350 
G01 X24.7451 Y0.5350 
G01 X24.7084 Y0.5502 
G01 X24.6802 Y0.5784 
G01 X24.6650 Y0.6151 
G01 X24.6650 Y4.7000 
G01 X22.9000 Y4.7000 
G01 X22.9000 Y3.5342 
G01 X22.8659 Y3.4070 
G01 X22.8001 Y3.2930 
G01 X22.7221 Y3.2150 
G01 X22.7999 Y3.0622 
G01 X22.8661 Y2.8586 
G01 X22.8996 Y2.6471 
G01 X22.8996 Y2.4329 
G01 X22.8661 Y2.2214 
G01 X22.7999 Y2.0178 
G01 X22.7027 Y1.8270 
G01 X22.5769 Y1.6538 
G01 X22.4254 Y1.5023 
G01 X22.2522 Y1.3765 
G01 X22.0614 Y1.2793 
G01 X21.8578 Y1.2131 
G01 X21.6463 Y1.1796 
G01 X21.4321 Y1.1796 
G01 X21.2206 Y1.2131 
G01 X21.0170 Y1.2793 
G01 X20.8262 Y1.3765 
G01 X20.6530 Y1.5023 
G01 X20.5015 Y1.6538 
G00 Z2.0000 
G00 X22.0210 Y18.3334 
G01 Z-0.0250 F254.00 
G01 X21.9192 Y18.4735 F508.00 
G01 X21.8406 Y18.6277 
G01 X21.7871 Y18.7924 
G01 X21.7600 Y18.9634 
G01 X21.7600 Y19.1366 
G01 X21.7871 Y19.3076 
G01 X21.8406 Y19.4723 
G01 X21.9192 Y19.6265 
G01 X22.0210 Y19.7666 
G01 X22.1434 Y19.8890 
G01 X22.2835 Y19.9908 
G01 X22.4377 Y20.0694 
G01 X22.6024 Y20.1229 
G01 X22.7734 Y20.1500 
G01 X22.9466 Y20.1500 
G01 X23.1176 Y20.1229 
G01 X23.2823 Y20.0694 
G01 X23.4365 Y19.9908 
G01 X23.5766 Y19.8890 
G01 X23.6990 Y19.7666 
G01 X23.7474 Y19.7000 
G01 X25.3929 Y19.7000 
G01 X26.3999 Y20.7070 
G01 X26.4930 Y20.8001 
G01 X26.6070 Y20.8659 
G01 X26.7342 Y20.9000 
G01 X29.7800 Y20.9000 
G01 X29.7800 Y21.1099 
G01 X29.7952 Y21.1466 
G01 X29.8234 Y21.1748 
G01 X29.8601 Y21.1900 
G01 X30.4160 Y21.1900 
G01 X30.4695 Y21.1901 
G01 X30.5212 Y21.1926 
G01 X30.5334 Y21.1900 
G01 X31.0999 Y21.1900 
G01 X31.1366 Y21.1748 
G01 X31.1648 Y21.1466 
G01 X31.1800 Y21.1099 
G01 X31.1800 Y20.7304 
G01 X31.1845 Y20.7263 
G01 X31.1913 Y20.7158 
G01 X31.2001 Y20.7070 
G01 X31.2269 Y20.6606 
G01 X31.2559 Y20.6156 
G01 X31.2597 Y20.6038 
G01 X31.2659 Y20.5930 
G01 X31.2798 Y20.5413 
G01 X31.2962 Y20.4903 
G01 X31.2968 Y20.4779 
G01 X31.3000 Y20.4658 
G01 X31.3000 Y20.4123 
G01 X31.3026 Y20.3588 
G01 X31.3000 Y20.3466 
G01 X31.3000 Y19.0071 
G01 X31.8786 Y18.4285 
G01 X31.8786 Y18.4349 
G01 X31.8938 Y18.4716 
G01 X31.9220 Y18.4998 
G01 X31.9587 Y18.5150 
G01 X34.0813 Y18.5150 
G01 X34.1180 Y18.4998 
G01 X34.1462 Y18.4716 
G01 X34.1614 Y18.4349 
G01 X34.1614 Y14.5851 
G01 X34.1462 Y14.5484 
G01 X34.1180 Y14.5202 
G01 X34.0813 Y14.5050 
G01 X31.9587 Y14.5050 
G01 X31.9220 Y14.5202 
G01 X31.8938 Y14.5484 
G01 X31.8786 Y14.5851 
G01 X31.8786 Y17.0143 
G01 X30.3999 Y18.4930 
G01 X30.3341 Y18.6070 
G01 X30.3000 Y18.7342 
G01 X30.3000 Y19.9000 
G01 X27.0071 Y19.9000 
G01 X25.9070 Y18.7999 
G01 X25.7930 Y18.7341 
G01 X25.6658 Y18.7000 
G01 X23.9029 Y18.7000 
G01 X23.8794 Y18.6277 
G01 X23.8008 Y18.4735 
G01 X23.6990 Y18.3334 
G01 X23.5766 Y18.2110 
G01 X23.4365 Y18.1092 
G01 X23.2823 Y18.0306 
G01 X23.1176 Y17.9771 
G01 X22.9466 Y17.9500 
G01 X22.7734 Y17.9500 
G01 X22.6024 Y17.9771 
G01 X22.4377 Y18.0306 
G01 X22.2835 Y18.1092 
G01 X22.1434 Y18.2110 
G01 X22.0210 Y18.3334 
G00 Z2.0000 
G00 X22.0210 Y20.8734 
G01 Z-0.0250 F254.00 
G01 X21.9192 Y21.0135 F508.00 
G01 X21.8406 Y21.1677 
G01 X21.7871 Y21.3324 
G01 X21.7600 Y21.5034 
G01 X21.7600 Y21.6766 
G01 X21.7871 Y21.8476 
G01 X21.8406 Y22.0123 
G01 X21.9192 Y22.1665 
G01 X22.0210 Y22.3066 
G01 X22.1434 Y22.4290 
G01 X22.2835 Y22.5308 
G01 X22.4377 Y22.6094 
G01 X22.6024 Y22.6629 
G01 X22.7734 Y22.6900 
G01 X22.9466 Y22.6900 
G01 X23.1176 Y22.6629 
G01 X23.2823 Y22.6094 
G01 X23.4365 Y22.5308 
G01 X23.5766 Y22.4290 
G01 X23.6990 Y22.3066 
G01 X23.8008 Y22.1665 
G01 X23.8794 Y22.0123 
G01 X23.9329 Y21.8476 
G01 X23.9600 Y21.6766 
G01 X23.9600 Y21.5034 
G01 X23.9329 Y21.3324 
G01 X23.8794 Y21.1677 
G01 X23.8008 Y21.0135 
G01 X23.6990 Y20.8734 
G01 X23.5766 Y20.7510 
G01 X23.4365 Y20.6492 
G01 X23.2823 Y20.5706 
G01 X23.1176 Y20.5171 
G01 X22.9466 Y20.4900 
G01 X22.7734 Y20.4900 
G01 X22.6024 Y20.5171 
G01 X22.4377 Y20.5706 
G01 X22.2835 Y20.6492 
G01 X22.1434 Y20.7510 
G01 X22.0210 Y20.8734 
G00 Z2.0000 
G00 X22.0210 Y23.4134 
G01 Z-0.0250 F254.00 
G01 X21.9192 Y23.5535 F508.00 
G01 X21.8406 Y23.7077 
G01 X21.7871 Y23.8724 
G01 X21.7600 Y24.0434 
G01 X21.7600 Y24.2166 
G01 X21.7871 Y24.3876 
G01 X21.8406 Y24.5523 
G01 X21.9192 Y24.7065 
G01 X22.0210 Y24.8466 
G01 X22.1434 Y24.9690 
G01 X22.2835 Y25.0708 
G01 X22.4377 Y25.1494 
G01 X22.6024 Y25.2029 
G01 X22.7734 Y25.2300 
G01 X22.9466 Y25.2300 
G01 X23.1176 Y25.2029 
G01 X23.2823 Y25.1494 
G01 X23.4365 Y25.0708 
G01 X23.5766 Y24.9690 
G01 X23.6990 Y24.8466 
G01 X23.8008 Y24.7065 
G01 X23.8794 Y24.5523 
G01 X23.9329 Y24.3876 
G01 X23.9600 Y24.2166 
G01 X23.9600 Y24.0434 
G01 X23.9329 Y23.8724 
G01 X23.8794 Y23.7077 
G01 X23.8008 Y23.5535 
G01 X23.6990 Y23.4134 
G01 X23.5766 Y23.2910 
G01 X23.4365 Y23.1892 
G01 X23.2823 Y23.1106 
G01 X23.1176 Y23.0571 
G01 X22.9466 Y23.0300 
G01 X22.7734 Y23.0300 
G01 X22.6024 Y23.0571 
G01 X22.4377 Y23.1106 
G01 X22.2835 Y23.1892 
G01 X22.1434 Y23.2910 
G01 X22.0210 Y23.4134 
G00 Z2.0000 
G00 X22.0210 Y25.9534 
G01 Z-0.0250 F254.00 
G01 X21.9192 Y26.0935 F508.00 
G01 X21.8406 Y26.2477 
G01 X21.7871 Y26.4124 
G01 X21.7600 Y26.5834 
G01 X21.7600 Y26.7566 
G01 X21.7871 Y26.9276 
G01 X21.8406 Y27.0923 
G01 X21.9192 Y27.2465 
G01 X22.0210 Y27.3866 
G01 X22.1434 Y27.5090 
G01 X22.2835 Y27.6108 
G01 X22.4377 Y27.6894 
G01 X22.6024 Y27.7429 
G01 X22.7734 Y27.7700 
G01 X22.9466 Y27.7700 
G01 X23.1176 Y27.7429 
G01 X23.2823 Y27.6894 
G01 X23.4365 Y27.6108 
G01 X23.5766 Y27.5090 
G01 X23.6990 Y27.3866 
G01 X23.8008 Y27.2465 
G01 X23.8794 Y27.0923 
G01 X23.9329 Y26.9276 
G01 X23.9600 Y26.7566 
G01 X23.9600 Y26.5834 
G01 X23.9329 Y26.4124 
G01 X23.8794 Y26.2477 
G01 X23.8008 Y26.0935 
G01 X23.6990 Y25.9534 
G01 X23.5766 Y25.8310 
G01 X23.4365 Y25.7292 
G01 X23.2823 Y25.6506 
G01 X23.1176 Y25.5971 
G01 X22.9466 Y25.5700 
G01 X22.7734 Y25.5700 
G01 X22.6024 Y25.5971 
G01 X22.4377 Y25.6506 
G01 X22.2835 Y25.7292 
G01 X22.1434 Y25.8310 
G01 X22.0210 Y25.9534 
G00 Z2.0000 
G00 X22.0210 Y28.4934 
G01 Z-0.0250 F254.00 
G01 X21.9192 Y28.6335 F508.00 
G01 X21.8406 Y28.7877 
G01 X21.7871 Y28.9524 
G01 X21.7600 Y29.1234 
G01 X21.7600 Y29.2966 
G01 X21.7871 Y29.4676 
G01 X21.8406 Y29.6323 
G01 X21.9192 Y29.7865 
G01 X22.0210 Y29.9266 
G01 X22.1434 Y30.0490 
G01 X22.2835 Y30.1508 
G01 X22.4377 Y30.2294 
G01 X22.6024 Y30.2829 
G01 X22.7734 Y30.3100 
G01 X22.9466 Y30.3100 
G01 X23.1176 Y30.2829 
G01 X23.2823 Y30.2294 
G01 X23.4365 Y30.1508 
G01 X23.5766 Y30.0490 
G01 X23.6990 Y29.9266 
G01 X23.8008 Y29.7865 
G01 X23.8449 Y29.7000 
G01 X26.3250 Y29.7000 
G01 X26.3250 Y29.9649 
G01 X26.3402 Y30.0016 
G01 X26.3684 Y30.0298 
G01 X26.4051 Y30.0450 
G01 X27.7149 Y30.0450 
G01 X27.7516 Y30.0298 
G01 X27.7798 Y30.0016 
G01 X27.7950 Y29.9649 
G01 X27.7950 Y28.4551 
G01 X27.7798 Y28.4184 
G01 X27.7516 Y28.3902 
G01 X27.7149 Y28.3750 
G01 X26.4051 Y28.3750 
G01 X26.3684 Y28.3902 
G01 X26.3402 Y28.4184 
G01 X26.3250 Y28.4551 
G01 X26.3250 Y28.7000 
G01 X23.8347 Y28.7000 
G01 X23.8008 Y28.6335 
G01 X23.6990 Y28.4934 
G01 X23.5766 Y28.3710 
G01 X23.4365 Y28.2692 
G01 X23.2823 Y28.1906 
G01 X23.1176 Y28.1371 
G01 X22.9466 Y28.1100 
G01 X22.7734 Y28.1100 
G01 X22.6024 Y28.1371 
G01 X22.4377 Y28.1906 
G01 X22.2835 Y28.2692 
G01 X22.1434 Y28.3710 
G01 X22.0210 Y28.4934 
G00 Z2.0000 
G00 X22.0210 Y31.0334 
G01 Z-0.0250 F254.00 
G01 X21.9192 Y31.1735 F508.00 
G01 X21.8406 Y31.3277 
G01 X21.7871 Y31.4924 
G01 X21.7600 Y31.6634 
G01 X21.7600 Y31.8366 
G01 X21.7871 Y32.0076 
G01 X21.8406 Y32.1723 
G01 X21.9192 Y32.3265 
G01 X22.0210 Y32.4666 
G01 X22.1434 Y32.5890 
G01 X22.2835 Y32.6908 
G01 X22.4377 Y32.7694 
G01 X22.6024 Y32.8229 
G01 X22.7734 Y32.8500 
G01 X22.9466 Y32.8500 
G01 X23.1176 Y32.8229 
G01 X23.2823 Y32.7694 
G01 X23.4365 Y32.6908 
G01 X23.5766 Y32.5890 
G01 X23.6990 Y32.4666 
G01 X23.8008 Y32.3265 
G01 X23.8794 Y32.1723 
G01 X23.9029 Y32.1000 
G01 X29.2658 Y32.1000 
G01 X29.3930 Y32.0659 
G01 X29.5070 Y32.0001 
G01 X31.4000 Y30.1071 
G01 X31.6930 Y30.4001 
G01 X31.8070 Y30.4659 
G01 X31.9342 Y30.5000 
G01 X34.8600 Y30.5000 
G01 X34.8600 Y30.5299 
G01 X34.8752 Y30.5666 
G01 X34.9034 Y30.5948 
G01 X34.9401 Y30.6100 
G01 X35.1439 Y30.6100 
G01 X35.1514 Y30.6229 
G01 X35.1648 Y30.6548 
G01 X35.1842 Y30.6797 
G01 X35.1999 Y30.7070 
G01 X35.2244 Y30.7315 
G01 X35.2456 Y30.7588 
G01 X35.2707 Y30.7778 
G01 X35.2930 Y30.8001 
G01 X35.3230 Y30.8174 
G01 X35.3505 Y30.8383 
G01 X35.3797 Y30.8502 
G01 X35.4070 Y30.8659 
G01 X35.4404 Y30.8749 
G01 X35.4725 Y30.8879 
G01 X35.5037 Y30.8918 
G01 X35.5342 Y30.9000 
G01 X35.5688 Y30.9000 
G01 X35.6031 Y30.9043 
G01 X35.6343 Y30.9000 
G01 X38.9929 Y30.9000 
G01 X39.4907 Y31.3979 
G01 X39.4617 Y31.4871 
G01 X39.4320 Y31.6749 
G01 X39.4320 Y31.8651 
G01 X39.4617 Y32.0529 
G01 X39.5205 Y32.2337 
G01 X39.6068 Y32.4031 
G01 X39.7186 Y32.5570 
G01 X39.8530 Y32.6914 
G01 X40.0069 Y32.8032 
G01 X40.1763 Y32.8895 
G01 X40.3571 Y32.9483 
G01 X40.5449 Y32.9780 
G01 X40.7351 Y32.9780 
G01 X40.9229 Y32.9483 
G01 X41.1037 Y32.8895 
G01 X41.2731 Y32.8032 
G01 X41.4270 Y32.6914 
G01 X41.5614 Y32.5570 
G01 X41.6732 Y32.4031 
G01 X41.7595 Y32.2337 
G01 X41.8183 Y32.0529 
G01 X41.8480 Y31.8651 
G01 X41.8480 Y31.6749 
G01 X41.8183 Y31.4871 
G01 X41.7595 Y31.3063 
G01 X41.6732 Y31.1369 
G01 X41.5614 Y30.9830 
G01 X41.4270 Y30.8486 
G01 X41.2731 Y30.7368 
G01 X41.1037 Y30.6505 
G01 X40.9229 Y30.5917 
G01 X40.7351 Y30.5620 
G01 X40.5449 Y30.5620 
G01 X40.3571 Y30.5917 
G01 X40.1763 Y30.6505 
G01 X40.1639 Y30.6568 
G01 X39.5070 Y29.9999 
G01 X39.3930 Y29.9341 
G01 X39.2658 Y29.9000 
G01 X36.2600 Y29.9000 
G01 X36.2600 Y29.6901 
G01 X36.2448 Y29.6534 
G01 X36.2166 Y29.6252 
G01 X36.1799 Y29.6100 
G01 X35.6347 Y29.6100 
G01 X35.4006 Y29.5385 
G01 X35.3930 Y29.5341 
G01 X35.3379 Y29.5193 
G01 X35.2832 Y29.5026 
G01 X35.2743 Y29.5023 
G01 X35.2658 Y29.5000 
G01 X35.2087 Y29.5000 
G01 X35.1516 Y29.4980 
G01 X35.1430 Y29.5000 
G01 X32.2071 Y29.5000 
G01 X32.0950 Y29.3879 
G01 X32.0950 Y28.4551 
G01 X32.0798 Y28.4184 
G01 X32.0516 Y28.3902 
G01 X32.0149 Y28.3750 
G01 X30.7051 Y28.3750 
G01 X30.6684 Y28.3902 
G01 X30.6402 Y28.4184 
G01 X30.6250 Y28.4551 
G01 X30.6250 Y29.4679 
G01 X28.9929 Y31.1000 
G01 X23.7474 Y31.1000 
G01 X23.6990 Y31.0334 
G01 X23.5766 Y30.9110 
G01 X23.4365 Y30.8092 
G01 X23.2823 Y30.7306 
G01 X23.1176 Y30.6771 
G01 X22.9466 Y30.6500 
G01 X22.7734 Y30.6500 
G01 X22.6024 Y30.6771 
G01 X22.4377 Y30.7306 
G01 X22.2835 Y30.8092 
G01 X22.1434 Y30.9110 
G01 X22.0210 Y31.0334 
G00 Z2.0000 
G00 X22.0210 Y33.5734 
G01 Z-0.0250 F254.00 
G01 X21.9192 Y33.7135 F508.00 
G01 X21.8406 Y33.8677 
G01 X21.7871 Y34.0324 
G01 X21.7600 Y34.2034 
G01 X21.7600 Y34.3766 
G01 X21.7871 Y34.5476 
G01 X21.8406 Y34.7123 
G01 X21.9192 Y34.8665 
G01 X22.0210 Y35.0066 
G01 X22.1434 Y35.1290 
G01 X22.2835 Y35.2308 
G01 X22.4377 Y35.3094 
G01 X22.6024 Y35.3629 
G01 X22.7734 Y35.3900 
G01 X22.9466 Y35.3900 
G01 X23.1176 Y35.3629 
G01 X23.2823 Y35.3094 
G01 X23.4365 Y35.2308 
G01 X23.5766 Y35.1290 
G01 X23.6990 Y35.0066 
G01 X23.7765 Y34.9000 
G01 X28.5929 Y34.9000 
G01 X30.6250 Y36.9321 
G01 X30.6250 Y37.5849 
G01 X30.6402 Y37.6216 
G01 X30.6684 Y37.6498 
G01 X30.7051 Y37.6650 
G01 X32.0149 Y37.6650 
G01 X32.0516 Y37.6498 
G01 X32.0798 Y37.6216 
G01 X32.0950 Y37.5849 
G01 X32.0950 Y37.0121 
G01 X32.6071 Y36.5000 
G01 X35.1825 Y36.5000 
G01 X35.2308 Y36.5034 
G01 X35.2482 Y36.5000 
G01 X35.2658 Y36.5000 
G01 X35.3125 Y36.4875 
G01 X35.6082 Y36.4300 
G01 X36.1799 Y36.4300 
G01 X36.2166 Y36.4148 
G01 X36.2448 Y36.3866 
G01 X36.2600 Y36.3499 
G01 X36.2600 Y36.1000 
G01 X39.2658 Y36.1000 
G01 X39.3930 Y36.0659 
G01 X39.5070 Y36.0001 
G01 X40.1374 Y35.3697 
G01 X40.1763 Y35.3895 
G01 X40.3571 Y35.4483 
G01 X40.5449 Y35.4780 
G01 X40.7351 Y35.4780 
G01 X40.9229 Y35.4483 
G01 X41.1037 Y35.3895 
G01 X41.2731 Y35.3032 
G01 X41.4270 Y35.1914 
G01 X41.5614 Y35.0570 
G01 X41.6732 Y34.9031 
G01 X41.7595 Y34.7337 
G01 X41.8183 Y34.5529 
G01 X41.8480 Y34.3651 
G01 X41.8480 Y34.1749 
G01 X41.8183 Y33.9871 
G01 X41.7595 Y33.8063 
G01 X41.6732 Y33.6369 
G01 X41.5614 Y33.4830 
G01 X41.4270 Y33.3486 
G01 X41.2731 Y33.2368 
G01 X41.1037 Y33.1505 
G01 X40.9229 Y33.0917 
G01 X40.7351 Y33.0620 
G01 X40.5449 Y33.0620 
G01 X40.3571 Y33.0917 
G01 X40.1763 Y33.1505 
G01 X40.0069 Y33.2368 
G01 X39.8530 Y33.3486 
G01 X39.7186 Y33.4830 
G01 X39.6068 Y33.6369 
G01 X39.5205 Y33.8063 
G01 X39.4617 Y33.9871 
G01 X39.4320 Y34.1749 
G01 X39.4320 Y34.3651 
G01 X39.4617 Y34.5529 
G01 X39.4809 Y34.6120 
G01 X38.9929 Y35.1000 
G01 X35.6302 Y35.1000 
G01 X35.5948 Y35.0957 
G01 X35.5647 Y35.1000 
G01 X35.5342 Y35.1000 
G01 X35.4998 Y35.1092 
G01 X35.4645 Y35.1142 
G01 X35.4364 Y35.1262 
G01 X35.4070 Y35.1341 
G01 X35.3762 Y35.1519 
G01 X35.3434 Y35.1659 
G01 X35.3194 Y35.1847 
G01 X35.2930 Y35.1999 
G01 X35.2678 Y35.2251 
G01 X35.2398 Y35.2471 
G01 X35.2215 Y35.2714 
G01 X35.1999 Y35.2930 
G01 X35.1821 Y35.3239 
G01 X35.1607 Y35.3523 
G01 X35.1493 Y35.3806 
G01 X35.1341 Y35.4070 
G01 X35.1279 Y35.4300 
G01 X34.9401 Y35.4300 
G01 X34.9034 Y35.4452 
G01 X34.8752 Y35.4734 
G01 X34.8642 Y35.5000 
G01 X32.3342 Y35.5000 
G01 X32.2070 Y35.5341 
G01 X32.0930 Y35.5999 
G01 X31.6979 Y35.9950 
G01 X31.1021 Y35.9950 
G01 X29.1070 Y33.9999 
G01 X28.9930 Y33.9341 
G01 X28.8658 Y33.9000 
G01 X23.8899 Y33.9000 
G01 X23.8794 Y33.8677 
G01 X23.8008 Y33.7135 
G01 X23.6990 Y33.5734 
G01 X23.5766 Y33.4510 
G01 X23.4365 Y33.3492 
G01 X23.2823 Y33.2706 
G01 X23.1176 Y33.2171 
G01 X22.9466 Y33.1900 
G01 X22.7734 Y33.1900 
G01 X22.6024 Y33.2171 
G01 X22.4377 Y33.2706 
G01 X22.2835 Y33.3492 
G01 X22.1434 Y33.4510 
G01 X22.0210 Y33.5734 
G00 Z2.0000 
G00 X22.0210 Y36.1134 
G01 Z-0.0250 F254.00 
G01 X21.9192 Y36.2535 F508.00 
G01 X21.8406 Y36.4077 
G01 X21.7871 Y36.5724 
G01 X21.7600 Y36.7434 
G01 X21.7600 Y36.9166 
G01 X21.7871 Y37.0876 
G01 X21.8406 Y37.2523 
G01 X21.9192 Y37.4065 
G01 X22.0210 Y37.5466 
G01 X22.1434 Y37.6690 
G01 X22.2835 Y37.7708 
G01 X22.4377 Y37.8494 
G01 X22.6024 Y37.9029 
G01 X22.7734 Y37.9300 
G01 X22.9466 Y37.9300 
G01 X23.1176 Y37.9029 
G01 X23.2823 Y37.8494 
G01 X23.4365 Y37.7708 
G01 X23.5766 Y37.6690 
G01 X23.6990 Y37.5466 
G01 X23.8008 Y37.4065 
G01 X23.8551 Y37.3000 
G01 X26.3250 Y37.3000 
G01 X26.3250 Y37.5849 
G01 X26.3402 Y37.6216 
G01 X26.3684 Y37.6498 
G01 X26.4051 Y37.6650 
G01 X27.7149 Y37.6650 
G01 X27.7516 Y37.6498 
G01 X27.7798 Y37.6216 
G01 X27.7950 Y37.5849 
G01 X27.7950 Y36.0751 
G01 X27.7798 Y36.0384 
G01 X27.7516 Y36.0102 
G01 X27.7149 Y35.9950 
G01 X26.4051 Y35.9950 
G01 X26.3684 Y36.0102 
G01 X26.3402 Y36.0384 
G01 X26.3250 Y36.0751 
G01 X26.3250 Y36.3000 
G01 X23.8245 Y36.3000 
G01 X23.8008 Y36.2535 
G01 X23.6990 Y36.1134 
G01 X23.5766 Y35.9910 
G01 X23.4365 Y35.8892 
G01 X23.2823 Y35.8106 
G01 X23.1176 Y35.7571 
G01 X22.9466 Y35.7300 
G01 X22.7734 Y35.7300 
G01 X22.6024 Y35.7571 
G01 X22.4377 Y35.8106 
G01 X22.2835 Y35.8892 
G01 X22.1434 Y35.9910 
G01 X22.0210 Y36.1134 
G00 Z2.0000 
G00 X22.0210 Y38.6534 
G01 Z-0.0250 F254.00 
G01 X21.9192 Y38.7935 F508.00 
G01 X21.8406 Y38.9477 
G01 X21.7871 Y39.1124 
G01 X21.7600 Y39.2834 
G01 X21.7600 Y39.4566 
G01 X21.7871 Y39.6276 
G01 X21.8406 Y39.7923 
G01 X21.9192 Y39.9465 
G01 X22.0210 Y40.0866 
G01 X22.1434 Y40.2090 
G01 X22.2835 Y40.3108 
G01 X22.4377 Y40.3894 
G01 X22.6024 Y40.4429 
G01 X22.7734 Y40.4700 
G01 X22.9466 Y40.4700 
G01 X23.1176 Y40.4429 
G01 X23.2823 Y40.3894 
G01 X23.4365 Y40.3108 
G01 X23.5766 Y40.2090 
G01 X23.6856 Y40.1000 
G01 X25.3929 Y40.1000 
G01 X33.3999 Y48.1070 
G01 X33.4924 Y48.1995 
G01 X33.4360 Y48.2559 
G01 X33.3342 Y48.3960 
G01 X33.2556 Y48.5502 
G01 X33.2021 Y48.7149 
G01 X33.1750 Y48.8859 
G01 X33.1750 Y49.0591 
G01 X33.2021 Y49.2301 
G01 X33.2556 Y49.3948 
G01 X33.3342 Y49.5490 
G01 X33.4360 Y49.6891 
G01 X33.5584 Y49.8115 
G01 X33.6985 Y49.9133 
G01 X33.8527 Y49.9919 
G01 X34.0174 Y50.0454 
G01 X34.1884 Y50.0725 
G01 X34.3616 Y50.0725 
G01 X34.5326 Y50.0454 
G01 X34.6973 Y49.9919 
G01 X34.8515 Y49.9133 
G01 X34.9916 Y49.8115 
G01 X35.1140 Y49.6891 
G01 X35.2158 Y49.5490 
G01 X35.2944 Y49.3948 
G01 X35.3479 Y49.2301 
G01 X35.3750 Y49.0591 
G01 X35.3750 Y48.8859 
G01 X35.3479 Y48.7149 
G01 X35.2944 Y48.5502 
G01 X35.2158 Y48.3960 
G01 X35.1140 Y48.2559 
G01 X34.9916 Y48.1335 
G01 X34.8515 Y48.0317 
G01 X34.6973 Y47.9531 
G01 X34.5326 Y47.8996 
G01 X34.4889 Y47.8927 
G01 X34.4731 Y47.8340 
G01 X35.4071 Y46.9000 
G01 X37.3929 Y46.9000 
G01 X38.6324 Y48.1395 
G01 X38.5160 Y48.2559 
G01 X38.4142 Y48.3960 
G01 X38.3356 Y48.5502 
G01 X38.2821 Y48.7149 
G01 X38.2550 Y48.8859 
G01 X38.2550 Y49.0591 
G01 X38.2821 Y49.2301 
G01 X38.3356 Y49.3948 
G01 X38.4142 Y49.5490 
G01 X38.5160 Y49.6891 
G01 X38.6384 Y49.8115 
G01 X38.7785 Y49.9133 
G01 X38.9327 Y49.9919 
G01 X39.0974 Y50.0454 
G01 X39.2684 Y50.0725 
G01 X39.4416 Y50.0725 
G01 X39.6126 Y50.0454 
G01 X39.7773 Y49.9919 
G01 X39.9315 Y49.9133 
G01 X40.0716 Y49.8115 
G01 X40.1940 Y49.6891 
G01 X40.2958 Y49.5490 
G01 X40.3744 Y49.3948 
G01 X40.4279 Y49.2301 
G01 X40.4550 Y49.0591 
G01 X40.4550 Y48.8859 
G01 X40.4279 Y48.7149 
G01 X40.3744 Y48.5502 
G01 X40.2958 Y48.3960 
G01 X40.1940 Y48.2559 
G01 X40.0716 Y48.1335 
G01 X39.9315 Y48.0317 
G01 X39.7773 Y47.9531 
G01 X39.6982 Y47.9274 
G01 X39.6659 Y47.8070 
G01 X39.6001 Y47.6930 
G01 X38.0001 Y46.0930 
G01 X37.9070 Y45.9999 
G01 X37.7930 Y45.9341 
G01 X37.6658 Y45.9000 
G01 X35.1342 Y45.9000 
G01 X35.0070 Y45.9341 
G01 X34.8930 Y45.9999 
G01 X33.8000 Y47.0929 
G01 X25.9070 Y39.1999 
G01 X25.7930 Y39.1341 
G01 X25.6658 Y39.1000 
G01 X23.9289 Y39.1000 
G01 X23.8794 Y38.9477 
G01 X23.8008 Y38.7935 
G01 X23.6990 Y38.6534 
G01 X23.5766 Y38.5310 
G01 X23.4365 Y38.4292 
G01 X23.2823 Y38.3506 
G01 X23.1176 Y38.2971 
G01 X22.9466 Y38.2700 
G01 X22.7734 Y38.2700 
G01 X22.6024 Y38.2971 
G01 X22.4377 Y38.3506 
G01 X22.2835 Y38.4292 
G01 X22.1434 Y38.5310 
G01 X22.0210 Y38.6534 
G00 Z2.0000 
G00 X22.0210 Y41.1934 
G01 Z-0.0250 F254.00 
G01 X21.9192 Y41.3335 F508.00 
G01 X21.8406 Y41.4877 
G01 X21.7871 Y41.6524 
G01 X21.7600 Y41.8234 
G01 X21.7600 Y41.9966 
G01 X21.7871 Y42.1676 
G01 X21.8406 Y42.3323 
G01 X21.9192 Y42.4865 
G01 X22.0210 Y42.6266 
G01 X22.1434 Y42.7490 
G01 X22.2835 Y42.8508 
G01 X22.4377 Y42.9294 
G01 X22.6024 Y42.9829 
G01 X22.7734 Y43.0100 
G01 X22.9466 Y43.0100 
G01 X23.1176 Y42.9829 
G01 X23.2823 Y42.9294 
G01 X23.4365 Y42.8508 
G01 X23.5766 Y42.7490 
G01 X23.6990 Y42.6266 
G01 X23.8008 Y42.4865 
G01 X23.8794 Y42.3323 
G01 X23.9329 Y42.1676 
G01 X23.9600 Y41.9966 
G01 X23.9600 Y41.8234 
G01 X23.9329 Y41.6524 
G01 X23.8794 Y41.4877 
G01 X23.8008 Y41.3335 
G01 X23.6990 Y41.1934 
G01 X23.5766 Y41.0710 
G01 X23.4365 Y40.9692 
G01 X23.2823 Y40.8906 
G01 X23.1176 Y40.8371 
G01 X22.9466 Y40.8100 
G01 X22.7734 Y40.8100 
G01 X22.6024 Y40.8371 
G01 X22.4377 Y40.8906 
G01 X22.2835 Y40.9692 
G01 X22.1434 Y41.0710 
G01 X22.0210 Y41.1934 
G00 Z2.0000 
G00 X22.0210 Y43.7334 
G01 Z-0.0250 F254.00 
G01 X21.9192 Y43.8735 F508.00 
G01 X21.8406 Y44.0277 
G01 X21.7871 Y44.1924 
G01 X21.7600 Y44.3634 
G01 X21.7600 Y44.5366 
G01 X21.7871 Y44.7076 
G01 X21.8406 Y44.8723 
G01 X21.9192 Y45.0265 
G01 X22.0210 Y45.1666 
G01 X22.1434 Y45.2890 
G01 X22.2835 Y45.3908 
G01 X22.4377 Y45.4694 
G01 X22.6024 Y45.5229 
G01 X22.7734 Y45.5500 
G01 X22.9466 Y45.5500 
G01 X23.1176 Y45.5229 
G01 X23.2823 Y45.4694 
G01 X23.4365 Y45.3908 
G01 X23.5766 Y45.2890 
G01 X23.6990 Y45.1666 
G01 X23.8008 Y45.0265 
G01 X23.8794 Y44.8723 
G01 X23.9329 Y44.7076 
G01 X23.9600 Y44.5366 
G01 X23.9600 Y44.3634 
G01 X23.9329 Y44.1924 
G01 X23.8794 Y44.0277 
G01 X23.8008 Y43.8735 
G01 X23.6990 Y43.7334 
G01 X23.5766 Y43.6110 
G01 X23.4365 Y43.5092 
G01 X23.2823 Y43.4306 
G01 X23.1176 Y43.3771 
G01 X22.9466 Y43.3500 
G01 X22.7734 Y43.3500 
G01 X22.6024 Y43.3771 
G01 X22.4377 Y43.4306 
G01 X22.2835 Y43.5092 
G01 X22.1434 Y43.6110 
G01 X22.0210 Y43.7334 
G00 Z2.0000 
G00 X22.0210 Y46.2734 
G01 Z-0.0250 F254.00 
G01 X21.9192 Y46.4135 F508.00 
G01 X21.8406 Y46.5677 
G01 X21.7871 Y46.7324 
G01 X21.7600 Y46.9034 
G01 X21.7600 Y47.0766 
G01 X21.7871 Y47.2476 
G01 X21.8406 Y47.4123 
G01 X21.9192 Y47.5665 
G01 X22.0210 Y47.7066 
G01 X22.1434 Y47.8290 
G01 X22.2835 Y47.9308 
G01 X22.4377 Y48.0094 
G01 X22.6024 Y48.0629 
G01 X22.7734 Y48.0900 
G01 X22.9466 Y48.0900 
G01 X23.1176 Y48.0629 
G01 X23.2823 Y48.0094 
G01 X23.4365 Y47.9308 
G01 X23.5766 Y47.8290 
G01 X23.6990 Y47.7066 
G01 X23.8008 Y47.5665 
G01 X23.8794 Y47.4123 
G01 X23.9329 Y47.2476 
G01 X23.9600 Y47.0766 
G01 X23.9600 Y46.9034 
G01 X23.9329 Y46.7324 
G01 X23.8794 Y46.5677 
G01 X23.8008 Y46.4135 
G01 X23.6990 Y46.2734 
G01 X23.5766 Y46.1510 
G01 X23.4365 Y46.0492 
G01 X23.2823 Y45.9706 
G01 X23.1176 Y45.9171 
G01 X22.9466 Y45.8900 
G01 X22.7734 Y45.8900 
G01 X22.6024 Y45.9171 
G01 X22.4377 Y45.9706 
G01 X22.2835 Y46.0492 
G01 X22.1434 Y46.1510 
G01 X22.0210 Y46.2734 
G00 Z2.0000 
G00 X20.9000 Y46.3342 
G01 Z-0.0250 F254.00 
G01 X20.8659 Y46.2070 F508.00 
G01 X20.8001 Y46.0930 
G01 X20.7070 Y45.9999 
G01 X8.7070 Y33.9999 
G01 X8.6767 Y33.9824 
G01 X8.6394 Y33.8677 
G01 X8.5608 Y33.7135 
G01 X8.4590 Y33.5734 
G01 X8.3366 Y33.4510 
G01 X8.1965 Y33.3492 
G01 X8.0423 Y33.2706 
G01 X7.8776 Y33.2171 
G01 X7.7066 Y33.1900 
G01 X7.5334 Y33.1900 
G01 X7.3624 Y33.2171 
G01 X7.1977 Y33.2706 
G01 X7.0435 Y33.3492 
G01 X6.9034 Y33.4510 
G01 X6.7810 Y33.5734 
G01 X6.6792 Y33.7135 
G01 X6.6006 Y33.8677 
G01 X6.5471 Y34.0324 
G01 X6.5200 Y34.2034 
G01 X6.5200 Y34.3766 
G01 X6.5471 Y34.5476 
G01 X6.6006 Y34.7123 
G01 X6.6792 Y34.8665 
G01 X6.7810 Y35.0066 
G01 X6.9034 Y35.1290 
G01 X7.0435 Y35.2308 
G01 X7.1977 Y35.3094 
G01 X7.3624 Y35.3629 
G01 X7.5334 Y35.3900 
G01 X7.7066 Y35.3900 
G01 X7.8776 Y35.3629 
G01 X8.0423 Y35.3094 
G01 X8.1965 Y35.2308 
G01 X8.3366 Y35.1290 
G01 X8.3793 Y35.0864 
G01 X19.9000 Y46.6071 
G01 X19.9000 Y48.0658 
G01 X19.9341 Y48.1930 
G01 X19.9999 Y48.3070 
G01 X21.1999 Y49.5070 
G01 X21.2930 Y49.6001 
G01 X21.4070 Y49.6659 
G01 X21.5342 Y49.7000 
G01 X30.9069 Y49.7000 
G01 X31.0184 Y49.8115 
G01 X31.1585 Y49.9133 
G01 X31.3127 Y49.9919 
G01 X31.4774 Y50.0454 
G01 X31.6484 Y50.0725 
G01 X31.8216 Y50.0725 
G01 X31.9926 Y50.0454 
G01 X32.1573 Y49.9919 
G01 X32.3115 Y49.9133 
G01 X32.4516 Y49.8115 
G01 X32.5740 Y49.6891 
G01 X32.6758 Y49.5490 
G01 X32.7544 Y49.3948 
G01 X32.8079 Y49.2301 
G01 X32.8350 Y49.0591 
G01 X32.8350 Y48.8859 
G01 X32.8079 Y48.7149 
G01 X32.7544 Y48.5502 
G01 X32.6758 Y48.3960 
G01 X32.5740 Y48.2559 
G01 X32.4516 Y48.1335 
G01 X32.3115 Y48.0317 
G01 X32.1573 Y47.9531 
G01 X31.9926 Y47.8996 
G01 X31.8216 Y47.8725 
G01 X31.6484 Y47.8725 
G01 X31.4774 Y47.8996 
G01 X31.3127 Y47.9531 
G01 X31.1585 Y48.0317 
G01 X31.0184 Y48.1335 
G01 X30.8960 Y48.2559 
G01 X30.7942 Y48.3960 
G01 X30.7156 Y48.5502 
G01 X30.6669 Y48.7000 
G01 X21.8071 Y48.7000 
G01 X20.9000 Y47.7929 
G01 X20.9000 Y46.3342 
G00 Z2.0000 
G00 X19.1070 Y46.7999 
G01 Z-0.0250 F254.00 
G01 X8.7070 Y36.3999 F508.00 
G01 X8.6056 Y36.3413 
G01 X8.5608 Y36.2535 
G01 X8.4590 Y36.1134 
G01 X8.3366 Y35.9910 
G01 X8.1965 Y35.8892 
G01 X8.0423 Y35.8106 
G01 X7.8776 Y35.7571 
G01 X7.7066 Y35.7300 
G01 X7.5334 Y35.7300 
G01 X7.3624 Y35.7571 
G01 X7.1977 Y35.8106 
G01 X7.0435 Y35.8892 
G01 X6.9034 Y35.9910 
G01 X6.7810 Y36.1134 
G01 X6.6792 Y36.2535 
G01 X6.6006 Y36.4077 
G01 X6.5471 Y36.5724 
G01 X6.5200 Y36.7434 
G01 X6.5200 Y36.9166 
G01 X6.5471 Y37.0876 
G01 X6.6006 Y37.2523 
G01 X6.6792 Y37.4065 
G01 X6.7810 Y37.5466 
G01 X6.9034 Y37.6690 
G01 X7.0435 Y37.7708 
G01 X7.1977 Y37.8494 
G01 X7.3624 Y37.9029 
G01 X7.5334 Y37.9300 
G01 X7.7066 Y37.9300 
G01 X7.8776 Y37.9029 
G01 X8.0423 Y37.8494 
G01 X8.1965 Y37.7708 
G01 X8.3366 Y37.6690 
G01 X8.4493 Y37.5564 
G01 X18.3000 Y47.4071 
G01 X18.3000 Y48.8658 
G01 X18.3341 Y48.9930 
G01 X18.3999 Y49.1070 
G01 X21.1999 Y51.9070 
G01 X21.2930 Y52.0001 
G01 X21.4070 Y52.0659 
G01 X21.5342 Y52.1000 
G01 X28.1929 Y52.1000 
G01 X30.3999 Y54.3070 
G01 X30.4930 Y54.4001 
G01 X30.6070 Y54.4659 
G01 X30.7342 Y54.5000 
G01 X37.6658 Y54.5000 
G01 X37.7930 Y54.4659 
G01 X37.9070 Y54.4001 
G01 X39.5070 Y52.8001 
G01 X39.6001 Y52.7070 
G01 X39.6659 Y52.5930 
G01 X39.6732 Y52.5657 
G01 X39.7773 Y52.5319 
G01 X39.9315 Y52.4533 
G01 X40.0716 Y52.3515 
G01 X40.1940 Y52.2291 
G01 X40.2958 Y52.0890 
G01 X40.3744 Y51.9348 
G01 X40.4279 Y51.7701 
G01 X40.4550 Y51.5991 
G01 X40.4550 Y51.4259 
G01 X40.4279 Y51.2549 
G01 X40.3744 Y51.0902 
G01 X40.2958 Y50.9360 
G01 X40.1940 Y50.7959 
G01 X40.0716 Y50.6735 
G01 X39.9315 Y50.5717 
G01 X39.7773 Y50.4931 
G01 X39.6126 Y50.4396 
G01 X39.4416 Y50.4125 
G01 X39.2684 Y50.4125 
G01 X39.0974 Y50.4396 
G01 X38.9327 Y50.4931 
G01 X38.7785 Y50.5717 
G01 X38.6384 Y50.6735 
G01 X38.5160 Y50.7959 
G01 X38.4142 Y50.9360 
G01 X38.3356 Y51.0902 
G01 X38.2821 Y51.2549 
G01 X38.2550 Y51.4259 
G01 X38.2550 Y51.5991 
G01 X38.2821 Y51.7701 
G01 X38.3356 Y51.9348 
G01 X38.4142 Y52.0890 
G01 X38.5160 Y52.2291 
G01 X38.5899 Y52.3030 
G01 X37.3929 Y53.5000 
G01 X31.0071 Y53.5000 
G01 X28.7070 Y51.1999 
G01 X28.5930 Y51.1341 
G01 X28.4658 Y51.1000 
G01 X21.8071 Y51.1000 
G01 X19.3000 Y48.5929 
G01 X19.3000 Y47.1342 
G01 X19.2659 Y47.0070 
G01 X19.2001 Y46.8930 
G01 X19.1070 Y46.7999 
G00 Z2.0000 
G00 X19.0999 Y51.3700 
G01 Z-0.0250 F254.00 
G01 X18.2601 Y51.3700 F508.00 
G01 X18.2234 Y51.3852 
G01 X18.1952 Y51.4134 
G01 X18.1800 Y51.4501 
G01 X18.1800 Y52.0262 
G01 X18.1762 Y52.0479 
G01 X18.1800 Y52.0918 
G01 X18.1800 Y52.6899 
G01 X18.1952 Y52.7266 
G01 X18.2234 Y52.7548 
G01 X18.2601 Y52.7700 
G01 X18.3000 Y52.7700 
G01 X18.3000 Y55.4397 
G01 X18.2695 Y55.4523 
G01 X18.2413 Y55.4805 
G01 X18.2261 Y55.5172 
G01 X18.2261 Y57.5636 
G01 X18.2413 Y57.6003 
G01 X18.2695 Y57.6285 
G01 X18.3000 Y57.6411 
G01 X18.3000 Y57.7929 
G01 X17.7929 Y58.3000 
G01 X15.4071 Y58.3000 
G01 X14.1000 Y56.9929 
G01 X14.1000 Y56.5301 
G01 X14.0848 Y56.4934 
G01 X14.0566 Y56.4652 
G01 X14.0199 Y56.4500 
G01 X13.1801 Y56.4500 
G01 X13.1434 Y56.4652 
G01 X13.1152 Y56.4934 
G01 X13.1000 Y56.5301 
G01 X13.1000 Y57.7699 
G01 X13.1152 Y57.8066 
G01 X13.1434 Y57.8348 
G01 X13.1801 Y57.8500 
G01 X13.5429 Y57.8500 
G01 X14.7999 Y59.1070 
G01 X14.8930 Y59.2001 
G01 X15.0070 Y59.2659 
G01 X15.1342 Y59.3000 
G01 X18.0658 Y59.3000 
G01 X18.1930 Y59.2659 
G01 X18.3070 Y59.2001 
G01 X18.4001 Y59.1070 
G01 X19.1070 Y58.4001 
G01 X19.2001 Y58.3070 
G01 X19.2659 Y58.1930 
G01 X19.3000 Y58.0658 
G01 X19.3000 Y57.6437 
G01 X19.8446 Y57.6437 
G01 X19.8813 Y57.6285 
G01 X19.9095 Y57.6003 
G01 X19.9247 Y57.5636 
G01 X19.9247 Y55.5172 
G01 X19.9095 Y55.4805 
G01 X19.8813 Y55.4523 
G01 X19.8446 Y55.4371 
G01 X19.3000 Y55.4371 
G01 X19.3000 Y54.5000 
G01 X23.8202 Y54.5000 
G01 X23.8592 Y54.5765 
G01 X23.9610 Y54.7166 
G01 X24.0834 Y54.8390 
G01 X24.2235 Y54.9408 
G01 X24.3777 Y55.0194 
G01 X24.5424 Y55.0729 
G01 X24.7134 Y55.1000 
G01 X24.8866 Y55.1000 
G01 X25.0576 Y55.0729 
G01 X25.2223 Y55.0194 
G01 X25.3765 Y54.9408 
G01 X25.5166 Y54.8390 
G01 X25.6390 Y54.7166 
G01 X25.7408 Y54.5765 
G01 X25.8194 Y54.4223 
G01 X25.8729 Y54.2576 
G01 X25.9000 Y54.0866 
G01 X25.9000 Y53.9134 
G01 X25.8729 Y53.7424 
G01 X25.8194 Y53.5777 
G01 X25.7408 Y53.4235 
G01 X25.6390 Y53.2834 
G01 X25.5166 Y53.1610 
G01 X25.3765 Y53.0592 
G01 X25.2223 Y52.9806 
G01 X25.0576 Y52.9271 
G01 X24.8866 Y52.9000 
G01 X24.7134 Y52.9000 
G01 X24.5424 Y52.9271 
G01 X24.3777 Y52.9806 
G01 X24.2235 Y53.0592 
G01 X24.0834 Y53.1610 
G01 X23.9610 Y53.2834 
G01 X23.8592 Y53.4235 
G01 X23.8202 Y53.5000 
G01 X19.3000 Y53.5000 
G01 X19.3000 Y52.4438 
G01 X19.3038 Y52.4221 
G01 X19.3000 Y52.3782 
G01 X19.3000 Y52.3342 
G01 X19.2943 Y52.3129 
G01 X19.2924 Y52.2910 
G01 X19.2773 Y52.2496 
G01 X19.2659 Y52.2070 
G01 X19.2549 Y52.1880 
G01 X19.1800 Y51.9819 
G01 X19.1800 Y51.4501 
G01 X19.1648 Y51.4134 
G01 X19.1366 Y51.3852 
G01 X19.0999 Y51.3700 
G00 Z2.0000 
G00 X17.3366 Y51.3852 
G01 Z-0.0250 F254.00 
G01 X17.2999 Y51.3700 F508.00 
G01 X16.4601 Y51.3700 
G01 X16.4234 Y51.3852 
G01 X16.3952 Y51.4134 
G01 X16.3800 Y51.4501 
G01 X16.3800 Y52.0103 
G01 X16.3155 Y52.2764 
G01 X16.3000 Y52.3342 
G01 X16.3000 Y52.3403 
G01 X16.2986 Y52.3462 
G01 X16.3000 Y52.4060 
G01 X16.3000 Y54.7000 
G01 X10.5000 Y54.7000 
G01 X10.5000 Y40.7342 
G01 X10.4659 Y40.6070 
G01 X10.4001 Y40.4930 
G01 X9.2001 Y39.2930 
G01 X9.1070 Y39.1999 
G01 X8.9930 Y39.1341 
G01 X8.8658 Y39.1000 
G01 X8.6889 Y39.1000 
G01 X8.6394 Y38.9477 
G01 X8.5608 Y38.7935 
G01 X8.4590 Y38.6534 
G01 X8.3366 Y38.5310 
G01 X8.1965 Y38.4292 
G01 X8.0423 Y38.3506 
G01 X7.8776 Y38.2971 
G01 X7.7066 Y38.2700 
G01 X7.5334 Y38.2700 
G01 X7.3624 Y38.2971 
G01 X7.1977 Y38.3506 
G01 X7.0435 Y38.4292 
G01 X6.9034 Y38.5310 
G01 X6.7810 Y38.6534 
G01 X6.6792 Y38.7935 
G01 X6.6006 Y38.9477 
G01 X6.5471 Y39.1124 
G01 X6.5200 Y39.2834 
G01 X6.5200 Y39.4566 
G01 X6.5471 Y39.6276 
G01 X6.6006 Y39.7923 
G01 X6.6792 Y39.9465 
G01 X6.7810 Y40.0866 
G01 X6.9034 Y40.2090 
G01 X7.0435 Y40.3108 
G01 X7.1977 Y40.3894 
G01 X7.3624 Y40.4429 
G01 X7.5334 Y40.4700 
G01 X7.7066 Y40.4700 
G01 X7.8776 Y40.4429 
G01 X8.0423 Y40.3894 
G01 X8.1965 Y40.3108 
G01 X8.3366 Y40.2090 
G01 X8.4456 Y40.1000 
G01 X8.5929 Y40.1000 
G01 X9.5000 Y41.0071 
G01 X9.5000 Y54.7000 
G01 X8.7342 Y54.7000 
G01 X8.6070 Y54.7341 
G01 X8.4930 Y54.7999 
G01 X7.6930 Y55.5999 
G01 X7.5999 Y55.6930 
G01 X7.5341 Y55.8070 
G01 X7.5000 Y55.9342 
G01 X7.5000 Y56.4500 
G01 X7.2201 Y56.4500 
G01 X7.1834 Y56.4652 
G01 X7.1552 Y56.4934 
G01 X7.1400 Y56.5301 
G01 X7.1400 Y57.7699 
G01 X7.1552 Y57.8066 
G01 X7.1834 Y57.8348 
G01 X7.2201 Y57.8500 
G01 X7.5000 Y57.8500 
G01 X7.5000 Y60.3100 
G01 X7.2201 Y60.3100 
G01 X7.1834 Y60.3252 
G01 X7.1552 Y60.3534 
G01 X7.1400 Y60.3901 
G01 X7.1400 Y62.8299 
G01 X7.1552 Y62.8666 
G01 X7.1834 Y62.8948 
G01 X7.2201 Y62.9100 
G01 X10.0599 Y62.9100 
G01 X10.0966 Y62.8948 
G01 X10.1248 Y62.8666 
G01 X10.1400 Y62.8299 
G01 X10.1400 Y60.9000 
G01 X25.9700 Y60.9000 
G01 X25.9700 Y61.0099 
G01 X25.9852 Y61.0466 
G01 X26.0134 Y61.0748 
G01 X26.0501 Y61.0900 
G01 X26.3901 Y61.0900 
G01 X26.3999 Y61.1070 
G01 X26.4054 Y61.1125 
G01 X26.4095 Y61.1191 
G01 X26.4518 Y61.1589 
G01 X26.4930 Y61.2001 
G01 X26.4997 Y61.2040 
G01 X26.5054 Y61.2093 
G01 X26.5566 Y61.2368 
G01 X26.6070 Y61.2659 
G01 X26.6145 Y61.2679 
G01 X26.6214 Y61.2716 
G01 X26.6780 Y61.2849 
G01 X26.7342 Y61.3000 
G01 X26.7420 Y61.3000 
G01 X26.7496 Y61.3018 
G01 X26.8077 Y61.3000 
G01 X34.8600 Y61.3000 
G01 X34.8600 Y63.6799 
G01 X34.8752 Y63.7166 
G01 X34.9034 Y63.7448 
G01 X34.9401 Y63.7600 
G01 X38.3000 Y63.7600 
G01 X38.3000 Y69.5723 
G01 X38.2958 Y69.6102 
G01 X38.3000 Y69.6379 
G01 X38.3000 Y69.6658 
G01 X38.3099 Y69.7027 
G01 X38.3156 Y69.7404 
G01 X38.3268 Y69.7660 
G01 X38.3341 Y69.7930 
G01 X38.3531 Y69.8260 
G01 X38.3684 Y69.8609 
G01 X38.3859 Y69.8828 
G01 X38.3999 Y69.9070 
G01 X38.4269 Y69.9340 
G01 X38.5000 Y70.0254 
G01 X38.5000 Y70.4699 
G01 X38.5152 Y70.5066 
G01 X38.5434 Y70.5348 
G01 X38.5801 Y70.5500 
G01 X39.4199 Y70.5500 
G01 X39.4566 Y70.5348 
G01 X39.4848 Y70.5066 
G01 X39.5000 Y70.4699 
G01 X39.5000 Y69.8777 
G01 X39.5042 Y69.8398 
G01 X39.5000 Y69.8121 
G01 X39.5000 Y69.2301 
G01 X39.4848 Y69.1934 
G01 X39.4566 Y69.1652 
G01 X39.4199 Y69.1500 
G01 X39.3000 Y69.1500 
G01 X39.3000 Y63.7600 
G01 X41.1799 Y63.7600 
G01 X41.2166 Y63.7448 
G01 X41.2448 Y63.7166 
G01 X41.2600 Y63.6799 
G01 X41.2600 Y58.2401 
G01 X41.2448 Y58.2034 
G01 X41.2166 Y58.1752 
G01 X41.1799 Y58.1600 
G01 X40.9471 Y58.1600 
G01 X42.0001 Y57.1070 
G01 X42.0659 Y56.9930 
G01 X42.1000 Y56.8658 
G01 X42.1000 Y47.9342 
G01 X42.0659 Y47.8070 
G01 X42.0001 Y47.6930 
G01 X41.9070 Y47.5999 
G01 X36.1000 Y41.7929 
G01 X36.1000 Y38.2300 
G01 X36.1799 Y38.2300 
G01 X36.2166 Y38.2148 
G01 X36.2448 Y38.1866 
G01 X36.2600 Y38.1499 
G01 X36.2600 Y37.3101 
G01 X36.2448 Y37.2734 
G01 X36.2166 Y37.2452 
G01 X36.1799 Y37.2300 
G01 X35.5887 Y37.2300 
G01 X35.5518 Y37.2258 
G01 X35.5232 Y37.2300 
G01 X34.9401 Y37.2300 
G01 X34.9034 Y37.2452 
G01 X34.8752 Y37.2734 
G01 X34.8600 Y37.3101 
G01 X34.8600 Y38.1499 
G01 X34.8752 Y38.1866 
G01 X34.9034 Y38.2148 
G01 X34.9401 Y38.2300 
G01 X35.1000 Y38.2300 
G01 X35.1000 Y42.0658 
G01 X35.1341 Y42.1930 
G01 X35.1999 Y42.3070 
G01 X41.1000 Y48.2071 
G01 X41.1000 Y56.5929 
G01 X39.5329 Y58.1600 
G01 X34.9401 Y58.1600 
G01 X34.9034 Y58.1752 
G01 X34.8752 Y58.2034 
G01 X34.8600 Y58.2401 
G01 X34.8600 Y60.3000 
G01 X27.3700 Y60.3000 
G01 X27.3700 Y60.1701 
G01 X27.3548 Y60.1334 
G01 X27.3266 Y60.1052 
G01 X27.2899 Y60.0900 
G01 X26.8283 Y60.0900 
G01 X26.7230 Y60.0159 
G01 X26.7070 Y59.9999 
G01 X26.6694 Y59.9782 
G01 X26.6339 Y59.9532 
G01 X26.6126 Y59.9454 
G01 X26.5930 Y59.9341 
G01 X26.5511 Y59.9228 
G01 X26.5103 Y59.9079 
G01 X26.4877 Y59.9059 
G01 X26.4658 Y59.9000 
G01 X26.4224 Y59.9000 
G01 X26.3792 Y59.8961 
G01 X26.3568 Y59.9000 
G01 X8.5000 Y59.9000 
G01 X8.5000 Y57.8314 
G01 X8.5248 Y57.8066 
G01 X8.5400 Y57.7699 
G01 X8.5400 Y56.5301 
G01 X8.5248 Y56.4934 
G01 X8.5000 Y56.4686 
G01 X8.5000 Y56.2071 
G01 X9.0071 Y55.7000 
G01 X15.9401 Y55.7000 
G01 X15.9401 Y57.5636 
G01 X15.9553 Y57.6003 
G01 X15.9835 Y57.6285 
G01 X16.0202 Y57.6437 
G01 X17.5586 Y57.6437 
G01 X17.5953 Y57.6285 
G01 X17.6235 Y57.6003 
G01 X17.6387 Y57.5636 
G01 X17.6387 Y55.5172 
G01 X17.6235 Y55.4805 
G01 X17.5953 Y55.4523 
G01 X17.5586 Y55.4371 
G01 X17.3000 Y55.4371 
G01 X17.3000 Y52.7700 
G01 X17.3366 Y52.7548 
G01 X17.3648 Y52.7266 
G01 X17.3800 Y52.6899 
G01 X17.3800 Y52.1297 
G01 X17.3814 Y52.1238 
G01 X17.3800 Y52.0640 
G01 X17.3800 Y51.4501 
G01 X17.3648 Y51.4134 
G01 X17.3366 Y51.3852 
G00 Z2.0000 
G00 X20.5273 Y55.4805 
G01 Z-0.0250 F254.00 
G01 X20.5121 Y55.5172 F508.00 
G01 X20.5121 Y57.5636 
G01 X20.5273 Y57.6003 
G01 X20.5555 Y57.6285 
G01 X20.5922 Y57.6437 
G01 X22.1306 Y57.6437 
G01 X22.1673 Y57.6285 
G01 X22.1955 Y57.6003 
G01 X22.2107 Y57.5636 
G01 X22.2107 Y57.3000 
G01 X24.5929 Y57.3000 
G01 X25.9700 Y58.6771 
G01 X25.9700 Y59.2099 
G01 X25.9852 Y59.2466 
G01 X26.0134 Y59.2748 
G01 X26.0501 Y59.2900 
G01 X26.6249 Y59.2900 
G01 X26.6453 Y59.2937 
G01 X26.6713 Y59.2916 
G01 X26.7154 Y59.2950 
G01 X26.7342 Y59.3000 
G01 X26.7808 Y59.3000 
G01 X26.8273 Y59.3036 
G01 X26.8464 Y59.3000 
G01 X30.3494 Y59.3000 
G01 X30.3642 Y59.3030 
G01 X30.4150 Y59.3000 
G01 X30.4658 Y59.3000 
G01 X30.4805 Y59.2961 
G01 X30.4957 Y59.2952 
G01 X30.5411 Y59.2800 
G01 X31.5799 Y59.2800 
G01 X31.6166 Y59.2648 
G01 X31.6448 Y59.2366 
G01 X31.6600 Y59.1999 
G01 X31.6600 Y58.1601 
G01 X31.6448 Y58.1234 
G01 X31.6166 Y58.0952 
G01 X31.5799 Y58.0800 
G01 X29.9401 Y58.0800 
G01 X29.9034 Y58.0952 
G01 X29.8752 Y58.1234 
G01 X29.8600 Y58.1601 
G01 X29.8600 Y58.3000 
G01 X27.3140 Y58.3000 
G01 X27.2899 Y58.2900 
G01 X26.9320 Y58.2900 
G01 X26.8228 Y58.1322 
G01 X26.8001 Y58.0930 
G01 X26.7854 Y58.0783 
G01 X26.7736 Y58.0613 
G01 X26.7391 Y58.0320 
G01 X25.1070 Y56.3999 
G01 X24.9930 Y56.3341 
G01 X24.8658 Y56.3000 
G01 X22.2107 Y56.3000 
G01 X22.2107 Y55.5172 
G01 X22.1955 Y55.4805 
G01 X22.1673 Y55.4523 
G01 X22.1306 Y55.4371 
G01 X20.5922 Y55.4371 
G01 X20.5555 Y55.4523 
G01 X20.5273 Y55.4805 
G00 Z2.0000 
G00 X20.9749 Y61.7363 
G01 Z-0.0250 F254.00 
G01 X17.1251 Y61.7363 F508.00 
G01 X17.0884 Y61.7515 
G01 X17.0602 Y61.7797 
G01 X17.0450 Y61.8164 
G01 X17.0450 Y63.8628 
G01 X17.0602 Y63.8995 
G01 X17.0884 Y63.9277 
G01 X17.1251 Y63.9429 
G01 X20.9749 Y63.9429 
G01 X21.0116 Y63.9277 
G01 X21.0398 Y63.8995 
G01 X21.0550 Y63.8628 
G01 X21.0550 Y61.8164 
G01 X21.0398 Y61.7797 
G01 X21.0116 Y61.7515 
G01 X20.9749 Y61.7363 
G00 Z2.0000 
G00 X21.0101 Y67.6337 
G01 Z-0.0250 F254.00 
G01 X20.8692 Y67.7361 F508.00 
G01 X20.7461 Y67.8592 
G01 X20.6437 Y68.0001 
G01 X20.5647 Y68.1553 
G01 X20.5108 Y68.3209 
G01 X20.4836 Y68.4929 
G01 X20.4836 Y68.6671 
G01 X20.5108 Y68.8391 
G01 X20.5647 Y69.0047 
G01 X20.6437 Y69.1599 
G01 X20.7461 Y69.3008 
G01 X20.8692 Y69.4239 
G01 X21.0101 Y69.5263 
G01 X21.1653 Y69.6053 
G01 X21.3309 Y69.6592 
G01 X21.5029 Y69.6864 
G01 X21.6771 Y69.6864 
G01 X21.8491 Y69.6592 
G01 X22.0147 Y69.6053 
G01 X22.1699 Y69.5263 
G01 X22.3108 Y69.4239 
G01 X22.4339 Y69.3008 
G01 X22.5363 Y69.1599 
G01 X22.6153 Y69.0047 
G01 X22.6692 Y68.8391 
G01 X22.6964 Y68.6671 
G01 X22.6964 Y68.4929 
G01 X22.6692 Y68.3209 
G01 X22.6153 Y68.1553 
G01 X22.5363 Y68.0001 
G01 X22.4339 Y67.8592 
G01 X22.3108 Y67.7361 
G01 X22.1699 Y67.6337 
G01 X22.0147 Y67.5547 
G01 X21.8491 Y67.5008 
G01 X21.6771 Y67.4736 
G01 X21.5029 Y67.4736 
G01 X21.3309 Y67.5008 
G01 X21.1653 Y67.5547 
G01 X21.0101 Y67.6337 
G00 Z2.0000 
G00 X19.7708 Y67.7361 
G01 Z-0.0250 F254.00 
G01 X19.6299 Y67.6337 F508.00 
G01 X19.4747 Y67.5547 
G01 X19.3091 Y67.5008 
G01 X19.1371 Y67.4736 
G01 X18.9629 Y67.4736 
G01 X18.7909 Y67.5008 
G01 X18.6253 Y67.5547 
G01 X18.4701 Y67.6337 
G01 X18.3292 Y67.7361 
G01 X18.2061 Y67.8592 
G01 X18.1037 Y68.0001 
G01 X18.0247 Y68.1553 
G01 X17.9708 Y68.3209 
G01 X17.9436 Y68.4929 
G01 X17.9436 Y68.6671 
G01 X17.9708 Y68.8391 
G01 X18.0247 Y69.0047 
G01 X18.1037 Y69.1599 
G01 X18.2061 Y69.3008 
G01 X18.3292 Y69.4239 
G01 X18.4701 Y69.5263 
G01 X18.6253 Y69.6053 
G01 X18.7909 Y69.6592 
G01 X18.9629 Y69.6864 
G01 X19.1371 Y69.6864 
G01 X19.3091 Y69.6592 
G01 X19.4747 Y69.6053 
G01 X19.6299 Y69.5263 
G01 X19.7708 Y69.4239 
G01 X19.8939 Y69.3008 
G01 X19.9963 Y69.1599 
G01 X20.0753 Y69.0047 
G01 X20.1292 Y68.8391 
G01 X20.1564 Y68.6671 
G01 X20.1564 Y68.4929 
G01 X20.1292 Y68.3209 
G01 X20.0753 Y68.1553 
G01 X19.9963 Y68.0001 
G01 X19.8939 Y67.8592 
G01 X19.7708 Y67.7361 
G00 Z2.0000 
G00 X17.2308 Y67.7361 
G01 Z-0.0250 F254.00 
G01 X17.0899 Y67.6337 F508.00 
G01 X16.9347 Y67.5547 
G01 X16.7691 Y67.5008 
G01 X16.5971 Y67.4736 
G01 X16.4229 Y67.4736 
G01 X16.2509 Y67.5008 
G01 X16.0853 Y67.5547 
G01 X15.9301 Y67.6337 
G01 X15.7892 Y67.7361 
G01 X15.6661 Y67.8592 
G01 X15.5637 Y68.0001 
G01 X15.4847 Y68.1553 
G01 X15.4308 Y68.3209 
G01 X15.4036 Y68.4929 
G01 X15.4036 Y68.6671 
G01 X15.4308 Y68.8391 
G01 X15.4847 Y69.0047 
G01 X15.5637 Y69.1599 
G01 X15.6661 Y69.3008 
G01 X15.7892 Y69.4239 
G01 X15.9301 Y69.5263 
G01 X16.0853 Y69.6053 
G01 X16.2509 Y69.6592 
G01 X16.4229 Y69.6864 
G01 X16.5971 Y69.6864 
G01 X16.7691 Y69.6592 
G01 X16.9347 Y69.6053 
G01 X17.0899 Y69.5263 
G01 X17.2308 Y69.4239 
G01 X17.3539 Y69.3008 
G01 X17.4563 Y69.1599 
G01 X17.5353 Y69.0047 
G01 X17.5892 Y68.8391 
G01 X17.6164 Y68.6671 
G01 X17.6164 Y68.4929 
G01 X17.5892 Y68.3209 
G01 X17.5353 Y68.1553 
G01 X17.4563 Y68.0001 
G01 X17.3539 Y67.8592 
G01 X17.2308 Y67.7361 
G00 Z2.0000 
G00 X17.2308 Y72.8161 
G01 Z-0.0250 F254.00 
G01 X17.0899 Y72.7137 F508.00 
G01 X16.9347 Y72.6347 
G01 X16.7691 Y72.5808 
G01 X16.5971 Y72.5536 
G01 X16.4229 Y72.5536 
G01 X16.2509 Y72.5808 
G01 X16.1279 Y72.6208 
G01 X13.5070 Y69.9999 
G01 X13.3930 Y69.9341 
G01 X13.2658 Y69.9000 
G01 X6.7342 Y69.9000 
G01 X6.6070 Y69.9341 
G01 X6.4930 Y69.9999 
G01 X6.3999 Y70.0930 
G01 X4.1929 Y72.3000 
G01 X4.0400 Y72.3000 
G01 X4.0400 Y71.7901 
G01 X4.0248 Y71.7534 
G01 X3.9966 Y71.7252 
G01 X3.9599 Y71.7100 
G01 X1.1201 Y71.7100 
G01 X1.0834 Y71.7252 
G01 X1.0552 Y71.7534 
G01 X1.0400 Y71.7901 
G01 X1.0400 Y74.2299 
G01 X1.0552 Y74.2666 
G01 X1.0834 Y74.2948 
G01 X1.1201 Y74.3100 
G01 X3.9599 Y74.3100 
G01 X3.9966 Y74.2948 
G01 X4.0248 Y74.2666 
G01 X4.0400 Y74.2299 
G01 X4.0400 Y73.3000 
G01 X4.4658 Y73.3000 
G01 X4.5930 Y73.2659 
G01 X4.7070 Y73.2001 
G01 X7.0071 Y70.9000 
G01 X12.9929 Y70.9000 
G01 X15.4463 Y73.3534 
G01 X15.4308 Y73.4009 
G01 X15.4036 Y73.5729 
G01 X15.4036 Y73.7471 
G01 X15.4308 Y73.9191 
G01 X15.4847 Y74.0847 
G01 X15.5637 Y74.2399 
G01 X15.6661 Y74.3808 
G01 X15.7892 Y74.5039 
G01 X15.9301 Y74.6063 
G01 X16.0853 Y74.6853 
G01 X16.2509 Y74.7392 
G01 X16.4229 Y74.7664 
G01 X16.5971 Y74.7664 
G01 X16.7691 Y74.7392 
G01 X16.9347 Y74.6853 
G01 X17.0899 Y74.6063 
G01 X17.2308 Y74.5039 
G01 X17.3539 Y74.3808 
G01 X17.4563 Y74.2399 
G01 X17.5353 Y74.0847 
G01 X17.5892 Y73.9191 
G01 X17.6164 Y73.7471 
G01 X17.6164 Y73.5729 
G01 X17.5892 Y73.4009 
G01 X17.5353 Y73.2353 
G01 X17.4563 Y73.0801 
G01 X17.3539 Y72.9392 
G01 X17.2308 Y72.8161 
G00 Z2.0000 
G00 X18.2061 Y72.9392 
G01 Z-0.0250 F254.00 
G01 X18.1037 Y73.0801 F508.00 
G01 X18.0247 Y73.2353 
G01 X17.9708 Y73.4009 
G01 X17.9436 Y73.5729 
G01 X17.9436 Y73.7471 
G01 X17.9708 Y73.9191 
G01 X18.0247 Y74.0847 
G01 X18.1037 Y74.2399 
G01 X18.2061 Y74.3808 
G01 X18.3292 Y74.5039 
G01 X18.4701 Y74.6063 
G01 X18.6253 Y74.6853 
G01 X18.7909 Y74.7392 
G01 X18.9629 Y74.7664 
G01 X19.1371 Y74.7664 
G01 X19.3091 Y74.7392 
G01 X19.4747 Y74.6853 
G01 X19.6299 Y74.6063 
G01 X19.7708 Y74.5039 
G01 X19.8939 Y74.3808 
G01 X19.9963 Y74.2399 
G01 X20.0753 Y74.0847 
G01 X20.1292 Y73.9191 
G01 X20.1564 Y73.7471 
G01 X20.1564 Y73.5729 
G01 X20.1292 Y73.4009 
G01 X20.0753 Y73.2353 
G01 X19.9963 Y73.0801 
G01 X19.8939 Y72.9392 
G01 X19.8309 Y72.8762 
G01 X21.0071 Y71.7000 
G01 X22.4658 Y71.7000 
G01 X22.5930 Y71.6659 
G01 X22.7070 Y71.6001 
G01 X22.8001 Y71.5070 
G01 X24.6071 Y69.7000 
G01 X25.9030 Y69.7000 
G01 X25.9151 Y69.7050 
G01 X27.4249 Y69.7050 
G01 X27.4616 Y69.6898 
G01 X27.4898 Y69.6616 
G01 X27.5050 Y69.6249 
G01 X27.5050 Y68.3151 
G01 X27.4898 Y68.2784 
G01 X27.4616 Y68.2502 
G01 X27.4249 Y68.2350 
G01 X25.9151 Y68.2350 
G01 X25.8784 Y68.2502 
G01 X25.8502 Y68.2784 
G01 X25.8350 Y68.3151 
G01 X25.8350 Y68.7000 
G01 X24.3342 Y68.7000 
G01 X24.2070 Y68.7341 
G01 X24.0930 Y68.7999 
G01 X22.1929 Y70.7000 
G01 X20.7342 Y70.7000 
G01 X20.6070 Y70.7341 
G01 X20.4930 Y70.7999 
G01 X18.8930 Y72.3999 
G01 X18.7999 Y72.4930 
G01 X18.7395 Y72.5975 
G01 X18.6253 Y72.6347 
G01 X18.4701 Y72.7137 
G01 X18.3292 Y72.8161 
G01 X18.2061 Y72.9392 
G00 Z2.0000 
G00 X20.7461 Y72.9392 
G01 Z-0.0250 F254.00 
G01 X20.6437 Y73.0801 F508.00 
G01 X20.5647 Y73.2353 
G01 X20.5108 Y73.4009 
G01 X20.4836 Y73.5729 
G01 X20.4836 Y73.7471 
G01 X20.5108 Y73.9191 
G01 X20.5647 Y74.0847 
G01 X20.6437 Y74.2399 
G01 X20.7461 Y74.3808 
G01 X20.8692 Y74.5039 
G01 X21.0101 Y74.6063 
G01 X21.1653 Y74.6853 
G01 X21.3309 Y74.7392 
G01 X21.5029 Y74.7664 
G01 X21.6771 Y74.7664 
G01 X21.8491 Y74.7392 
G01 X22.0147 Y74.6853 
G01 X22.1699 Y74.6063 
G01 X22.3108 Y74.5039 
G01 X22.4339 Y74.3808 
G01 X22.5363 Y74.2399 
G01 X22.6153 Y74.0847 
G01 X22.6692 Y73.9191 
G01 X22.6964 Y73.7471 
G01 X22.6964 Y73.5729 
G01 X22.6692 Y73.4009 
G01 X22.6153 Y73.2353 
G01 X22.5363 Y73.0801 
G01 X22.4339 Y72.9392 
G01 X22.3108 Y72.8161 
G01 X22.1699 Y72.7137 
G01 X22.0147 Y72.6347 
G01 X21.8491 Y72.5808 
G01 X21.6771 Y72.5536 
G01 X21.5029 Y72.5536 
G01 X21.3309 Y72.5808 
G01 X21.1653 Y72.6347 
G01 X21.0101 Y72.7137 
G01 X20.8692 Y72.8161 
G01 X20.7461 Y72.9392 
G00 Z2.0000 
G00 X25.8350 Y72.6151 
G01 Z-0.0250 F254.00 
G01 X25.8350 Y73.9249 F508.00 
G01 X25.8502 Y73.9616 
G01 X25.8784 Y73.9898 
G01 X25.9151 Y74.0050 
G01 X26.5015 Y74.0050 
G01 X26.5178 Y74.0144 
G01 X26.5403 Y74.0323 
G01 X26.5746 Y74.0472 
G01 X26.6070 Y74.0659 
G01 X26.6347 Y74.0733 
G01 X26.6610 Y74.0848 
G01 X26.6980 Y74.0903 
G01 X26.7342 Y74.1000 
G01 X26.7629 Y74.1000 
G01 X26.7912 Y74.1042 
G01 X26.8284 Y74.1000 
G01 X30.0500 Y74.1000 
G01 X30.0500 Y74.5199 
G01 X30.0652 Y74.5566 
G01 X30.0934 Y74.5848 
G01 X30.1301 Y74.6000 
G01 X33.3699 Y74.6000 
G01 X33.4066 Y74.5848 
G01 X33.4348 Y74.5566 
G01 X33.4500 Y74.5199 
G01 X33.4500 Y72.7001 
G01 X33.4348 Y72.6634 
G01 X33.4066 Y72.6352 
G01 X33.3699 Y72.6200 
G01 X30.1301 Y72.6200 
G01 X30.0934 Y72.6352 
G01 X30.0652 Y72.6634 
G01 X30.0500 Y72.7001 
G01 X30.0500 Y73.1000 
G01 X27.5050 Y73.1000 
G01 X27.5050 Y72.6151 
G01 X27.4898 Y72.5784 
G01 X27.4616 Y72.5502 
G01 X27.4249 Y72.5350 
G01 X25.9151 Y72.5350 
G01 X25.8784 Y72.5502 
G01 X25.8502 Y72.5784 
G01 X25.8350 Y72.6151 
G00 Z2.0000 
G00 X39.9050 Y72.8295 
G01 Z-0.0250 F254.00 
G01 X39.9050 Y74.4905 F508.00 
G01 X41.0795 Y75.6650 
G01 X42.7405 Y75.6650 
G01 X43.9150 Y74.4905 
G01 X43.9150 Y72.8295 
G01 X42.7405 Y71.6550 
G01 X41.0795 Y71.6550 
G01 X39.9050 Y72.8295 
G00 Z2.0000 
G00 X37.6540 Y52.2291 
G01 Z-0.0250 F254.00 
G01 X37.7558 Y52.0890 F508.00 
G01 X37.8344 Y51.9348 
G01 X37.8879 Y51.7701 
G01 X37.9150 Y51.5991 
G01 X37.9150 Y51.4259 
G01 X37.8879 Y51.2549 
G01 X37.8344 Y51.0902 
G01 X37.7558 Y50.9360 
G01 X37.6540 Y50.7959 
G01 X37.5316 Y50.6735 
G01 X37.3915 Y50.5717 
G01 X37.2373 Y50.4931 
G01 X37.0726 Y50.4396 
G01 X36.9016 Y50.4125 
G01 X36.7284 Y50.4125 
G01 X36.5574 Y50.4396 
G01 X36.3927 Y50.4931 
G01 X36.2385 Y50.5717 
G01 X36.0984 Y50.6735 
G01 X35.9760 Y50.7959 
G01 X35.8742 Y50.9360 
G01 X35.7956 Y51.0902 
G01 X35.7421 Y51.2549 
G01 X35.7150 Y51.4259 
G01 X35.7150 Y51.5991 
G01 X35.7421 Y51.7701 
G01 X35.7956 Y51.9348 
G01 X35.8742 Y52.0890 
G01 X35.9760 Y52.2291 
G01 X36.0984 Y52.3515 
G01 X36.2385 Y52.4533 
G01 X36.3927 Y52.5319 
G01 X36.5574 Y52.5854 
G01 X36.7284 Y52.6125 
G01 X36.9016 Y52.6125 
G01 X37.0726 Y52.5854 
G01 X37.2373 Y52.5319 
G01 X37.3915 Y52.4533 
G01 X37.5316 Y52.3515 
G01 X37.6540 Y52.2291 
G00 Z2.0000 
G00 X37.6540 Y49.6891 
G01 Z-0.0250 F254.00 
G01 X37.7558 Y49.5490 F508.00 
G01 X37.8344 Y49.3948 
G01 X37.8879 Y49.2301 
G01 X37.9150 Y49.0591 
G01 X37.9150 Y48.8859 
G01 X37.8879 Y48.7149 
G01 X37.8344 Y48.5502 
G01 X37.7558 Y48.3960 
G01 X37.6540 Y48.2559 
G01 X37.5316 Y48.1335 
G01 X37.3915 Y48.0317 
G01 X37.2373 Y47.9531 
G01 X37.0726 Y47.8996 
G01 X36.9016 Y47.8725 
G01 X36.7284 Y47.8725 
G01 X36.5574 Y47.8996 
G01 X36.3927 Y47.9531 
G01 X36.2385 Y48.0317 
G01 X36.0984 Y48.1335 
G01 X35.9760 Y48.2559 
G01 X35.8742 Y48.3960 
G01 X35.7956 Y48.5502 
G01 X35.7421 Y48.7149 
G01 X35.7150 Y48.8859 
G01 X35.7150 Y49.0591 
G01 X35.7421 Y49.2301 
G01 X35.7956 Y49.3948 
G01 X35.8742 Y49.5490 
G01 X35.9760 Y49.6891 
G01 X36.0984 Y49.8115 
G01 X36.2385 Y49.9133 
G01 X36.3927 Y49.9919 
G01 X36.5574 Y50.0454 
G01 X36.7284 Y50.0725 
G01 X36.9016 Y50.0725 
G01 X37.0726 Y50.0454 
G01 X37.2373 Y49.9919 
G01 X37.3915 Y49.9133 
G01 X37.5316 Y49.8115 
G01 X37.6540 Y49.6891 
G00 Z2.0000 
G00 X34.9916 Y50.6735 
G01 Z-0.0250 F254.00 
G01 X34.8515 Y50.5717 F508.00 
G01 X34.6973 Y50.4931 
G01 X34.5326 Y50.4396 
G01 X34.3616 Y50.4125 
G01 X34.1884 Y50.4125 
G01 X34.0174 Y50.4396 
G01 X33.8527 Y50.4931 
G01 X33.6985 Y50.5717 
G01 X33.5584 Y50.6735 
G01 X33.4360 Y50.7959 
G01 X33.3342 Y50.9360 
G01 X33.2556 Y51.0902 
G01 X33.2021 Y51.2549 
G01 X33.1750 Y51.4259 
G01 X33.1750 Y51.5991 
G01 X33.2021 Y51.7701 
G01 X33.2556 Y51.9348 
G01 X33.3342 Y52.0890 
G01 X33.4360 Y52.2291 
G01 X33.5584 Y52.3515 
G01 X33.6985 Y52.4533 
G01 X33.8527 Y52.5319 
G01 X34.0174 Y52.5854 
G01 X34.1884 Y52.6125 
G01 X34.3616 Y52.6125 
G01 X34.5326 Y52.5854 
G01 X34.6973 Y52.5319 
G01 X34.8515 Y52.4533 
G01 X34.9916 Y52.3515 
G01 X35.1140 Y52.2291 
G01 X35.2158 Y52.0890 
G01 X35.2944 Y51.9348 
G01 X35.3479 Y51.7701 
G01 X35.3750 Y51.5991 
G01 X35.3750 Y51.4259 
G01 X35.3479 Y51.2549 
G01 X35.2944 Y51.0902 
G01 X35.2158 Y50.9360 
G01 X35.1140 Y50.7959 
G01 X34.9916 Y50.6735 
G00 Z2.0000 
G00 X32.4516 Y50.6735 
G01 Z-0.0250 F254.00 
G01 X32.3115 Y50.5717 F508.00 
G01 X32.1573 Y50.4931 
G01 X31.9926 Y50.4396 
G01 X31.8216 Y50.4125 
G01 X31.6484 Y50.4125 
G01 X31.4774 Y50.4396 
G01 X31.3127 Y50.4931 
G01 X31.1585 Y50.5717 
G01 X31.0184 Y50.6735 
G01 X30.8960 Y50.7959 
G01 X30.7942 Y50.9360 
G01 X30.7156 Y51.0902 
G01 X30.6621 Y51.2549 
G01 X30.6350 Y51.4259 
G01 X30.6350 Y51.5991 
G01 X30.6621 Y51.7701 
G01 X30.7156 Y51.9348 
G01 X30.7942 Y52.0890 
G01 X30.8960 Y52.2291 
G01 X31.0184 Y52.3515 
G01 X31.1585 Y52.4533 
G01 X31.3127 Y52.5319 
G01 X31.4774 Y52.5854 
G01 X31.6484 Y52.6125 
G01 X31.8216 Y52.6125 
G01 X31.9926 Y52.5854 
G01 X32.1573 Y52.5319 
G01 X32.3115 Y52.4533 
G01 X32.4516 Y52.3515 
G01 X32.5740 Y52.2291 
G01 X32.6758 Y52.0890 
G01 X32.7544 Y51.9348 
G01 X32.8079 Y51.7701 
G01 X32.8350 Y51.5991 
G01 X32.8350 Y51.4259 
G01 X32.8079 Y51.2549 
G01 X32.7544 Y51.0902 
G01 X32.6758 Y50.9360 
G01 X32.5740 Y50.7959 
G01 X32.4516 Y50.6735 
G00 Z2.0000 
G00 X34.9034 Y28.7948 
G01 Z-0.0250 F254.00 
G01 X34.9401 Y28.8100 F508.00 
G01 X35.5130 Y28.8100 
G01 X35.5316 Y28.8135 
G01 X35.5786 Y28.8100 
G01 X36.1799 Y28.8100 
G01 X36.2166 Y28.7948 
G01 X36.2448 Y28.7666 
G01 X36.2600 Y28.7299 
G01 X36.2600 Y27.8901 
G01 X36.2448 Y27.8534 
G01 X36.2166 Y27.8252 
G01 X36.1799 Y27.8100 
G01 X35.7456 Y27.8100 
G01 X35.5404 Y27.6333 
G01 X31.3000 Y23.3929 
G01 X31.3000 Y23.3000 
G01 X32.0658 Y23.3000 
G01 X32.1930 Y23.2659 
G01 X32.3070 Y23.2001 
G01 X38.2000 Y17.3071 
G01 X39.5202 Y18.6273 
G01 X39.4617 Y18.8071 
G01 X39.4320 Y18.9949 
G01 X39.4320 Y19.1851 
G01 X39.4617 Y19.3729 
G01 X39.5205 Y19.5537 
G01 X39.6068 Y19.7231 
G01 X39.7186 Y19.8770 
G01 X39.8530 Y20.0114 
G01 X40.0069 Y20.1232 
G01 X40.1763 Y20.2095 
G01 X40.3571 Y20.2683 
G01 X40.5449 Y20.2980 
G01 X40.7351 Y20.2980 
G01 X40.9229 Y20.2683 
G01 X41.1037 Y20.2095 
G01 X41.2731 Y20.1232 
G01 X41.4270 Y20.0114 
G01 X41.5614 Y19.8770 
G01 X41.6732 Y19.7231 
G01 X41.7595 Y19.5537 
G01 X41.8183 Y19.3729 
G01 X41.8480 Y19.1851 
G01 X41.8480 Y18.9949 
G01 X41.8183 Y18.8071 
G01 X41.7595 Y18.6263 
G01 X41.6732 Y18.4569 
G01 X41.5614 Y18.3030 
G01 X41.4270 Y18.1686 
G01 X41.2731 Y18.0568 
G01 X41.1037 Y17.9705 
G01 X40.9229 Y17.9117 
G01 X40.7351 Y17.8820 
G01 X40.5449 Y17.8820 
G01 X40.3571 Y17.9117 
G01 X40.2528 Y17.9457 
G01 X38.6001 Y16.2930 
G01 X38.5070 Y16.1999 
G01 X35.1070 Y12.7999 
G01 X34.9930 Y12.7341 
G01 X34.8658 Y12.7000 
G01 X31.1342 Y12.7000 
G01 X31.0070 Y12.7341 
G01 X30.8930 Y12.7999 
G01 X29.0814 Y14.6115 
G01 X29.0814 Y14.5851 
G01 X29.0662 Y14.5484 
G01 X29.0380 Y14.5202 
G01 X29.0013 Y14.5050 
G01 X26.8787 Y14.5050 
G01 X26.8420 Y14.5202 
G01 X26.8138 Y14.5484 
G01 X26.7986 Y14.5851 
G01 X26.7986 Y18.4349 
G01 X26.8138 Y18.4716 
G01 X26.8420 Y18.4998 
G01 X26.8787 Y18.5150 
G01 X29.0013 Y18.5150 
G01 X29.0380 Y18.4998 
G01 X29.0662 Y18.4716 
G01 X29.0814 Y18.4349 
G01 X29.0814 Y16.0257 
G01 X31.4071 Y13.7000 
G01 X34.5929 Y13.7000 
G01 X37.4929 Y16.6000 
G01 X31.7929 Y22.3000 
G01 X31.1800 Y22.3000 
G01 X31.1800 Y22.0701 
G01 X31.1648 Y22.0334 
G01 X31.1366 Y22.0052 
G01 X31.0999 Y21.9900 
G01 X30.5418 Y21.9900 
G01 X30.5379 Y21.9890 
G01 X30.4759 Y21.9900 
G01 X29.8601 Y21.9900 
G01 X29.8234 Y22.0052 
G01 X29.7952 Y22.0334 
G01 X29.7800 Y22.0701 
G01 X29.7800 Y22.9099 
G01 X29.7952 Y22.9466 
G01 X29.8234 Y22.9748 
G01 X29.8601 Y22.9900 
G01 X30.2775 Y22.9900 
G01 X30.3000 Y23.0118 
G01 X30.3000 Y23.6658 
G01 X30.3341 Y23.7930 
G01 X30.3999 Y23.9070 
G01 X34.8132 Y28.3203 
G01 X34.8239 Y28.3359 
G01 X34.8596 Y28.3667 
G01 X34.8600 Y28.7299 
G01 X34.8752 Y28.7666 
G01 X34.9034 Y28.7948 
G00 Z2.0000 
G00 X34.9034 Y25.5148 
G01 Z-0.0250 F254.00 
G01 X34.9401 Y25.5300 F508.00 
G01 X35.2229 Y25.5300 
G01 X35.2411 Y25.5482 
G01 X35.2809 Y25.5905 
G01 X35.2875 Y25.5946 
G01 X35.2930 Y25.6001 
G01 X35.3434 Y25.6292 
G01 X35.3928 Y25.6598 
G01 X35.4003 Y25.6620 
G01 X35.4070 Y25.6659 
G01 X35.4631 Y25.6810 
G01 X35.5189 Y25.6977 
G01 X35.5266 Y25.6980 
G01 X35.5342 Y25.7000 
G01 X35.5923 Y25.7000 
G01 X35.6504 Y25.7018 
G01 X35.6580 Y25.7000 
G01 X39.6658 Y25.7000 
G01 X39.7930 Y25.6659 
G01 X39.9070 Y25.6001 
G01 X40.2679 Y25.2392 
G01 X40.3571 Y25.2683 
G01 X40.5449 Y25.2980 
G01 X40.7351 Y25.2980 
G01 X40.9229 Y25.2683 
G01 X41.1037 Y25.2095 
G01 X41.2731 Y25.1232 
G01 X41.4270 Y25.0114 
G01 X41.5614 Y24.8770 
G01 X41.6732 Y24.7231 
G01 X41.7595 Y24.5537 
G01 X41.8183 Y24.3729 
G01 X41.8480 Y24.1851 
G01 X41.8480 Y23.9949 
G01 X41.8183 Y23.8071 
G01 X41.7595 Y23.6263 
G01 X41.6732 Y23.4569 
G01 X41.5614 Y23.3030 
G01 X41.4270 Y23.1686 
G01 X41.2731 Y23.0568 
G01 X41.1037 Y22.9705 
G01 X40.9229 Y22.9117 
G01 X40.7351 Y22.8820 
G01 X40.5449 Y22.8820 
G01 X40.3571 Y22.9117 
G01 X40.1763 Y22.9705 
G01 X40.0069 Y23.0568 
G01 X39.8530 Y23.1686 
G01 X39.7186 Y23.3030 
G01 X39.6068 Y23.4569 
G01 X39.5205 Y23.6263 
G01 X39.4617 Y23.8071 
G01 X39.4320 Y23.9949 
G01 X39.4320 Y24.1851 
G01 X39.4617 Y24.3729 
G01 X39.5205 Y24.5537 
G01 X39.5268 Y24.5661 
G01 X39.3929 Y24.7000 
G01 X36.2600 Y24.7000 
G01 X36.2600 Y24.6101 
G01 X36.2448 Y24.5734 
G01 X36.2166 Y24.5452 
G01 X36.1799 Y24.5300 
G01 X35.5677 Y24.5300 
G01 X35.5096 Y24.5282 
G01 X35.5020 Y24.5300 
G01 X34.9401 Y24.5300 
G01 X34.9034 Y24.5452 
G01 X34.8752 Y24.5734 
G01 X34.8600 Y24.6101 
G01 X34.8600 Y25.4499 
G01 X34.8752 Y25.4866 
G01 X34.9034 Y25.5148 
G00 Z2.0000 
G00 X34.9034 Y23.7148 
G01 Z-0.0250 F254.00 
G01 X34.9401 Y23.7300 F508.00 
G01 X35.5245 Y23.7300 
G01 X35.5545 Y23.7343 
G01 X35.5900 Y23.7300 
G01 X36.1799 Y23.7300 
G01 X36.2166 Y23.7148 
G01 X36.2314 Y23.7000 
G01 X38.0658 Y23.7000 
G01 X38.1930 Y23.6659 
G01 X38.3070 Y23.6001 
G01 X39.6393 Y22.2678 
G01 X39.7186 Y22.3770 
G01 X39.8530 Y22.5114 
G01 X40.0069 Y22.6232 
G01 X40.1763 Y22.7095 
G01 X40.3571 Y22.7683 
G01 X40.5449 Y22.7980 
G01 X40.7351 Y22.7980 
G01 X40.9229 Y22.7683 
G01 X41.1037 Y22.7095 
G01 X41.2731 Y22.6232 
G01 X41.4270 Y22.5114 
G01 X41.5614 Y22.3770 
G01 X41.6732 Y22.2231 
G01 X41.7595 Y22.0537 
G01 X41.8183 Y21.8729 
G01 X41.8480 Y21.6851 
G01 X41.8480 Y21.4949 
G01 X41.8183 Y21.3071 
G01 X41.7595 Y21.1263 
G01 X41.6732 Y20.9569 
G01 X41.5614 Y20.8030 
G01 X41.4270 Y20.6686 
G01 X41.2731 Y20.5568 
G01 X41.1037 Y20.4705 
G01 X40.9229 Y20.4117 
G01 X40.7351 Y20.3820 
G01 X40.5449 Y20.3820 
G01 X40.3571 Y20.4117 
G01 X40.1763 Y20.4705 
G01 X40.0069 Y20.5568 
G01 X39.8530 Y20.6686 
G01 X39.7186 Y20.8030 
G01 X39.6068 Y20.9569 
G01 X39.5339 Y21.1001 
G01 X39.4070 Y21.1341 
G01 X39.2930 Y21.1999 
G01 X39.1999 Y21.2930 
G01 X37.7929 Y22.7000 
G01 X35.6355 Y22.7000 
G01 X35.6055 Y22.6957 
G01 X35.5700 Y22.7000 
G01 X35.5342 Y22.7000 
G01 X35.5049 Y22.7078 
G01 X35.4748 Y22.7115 
G01 X35.4416 Y22.7248 
G01 X35.4222 Y22.7300 
G01 X34.9401 Y22.7300 
G01 X34.9034 Y22.7452 
G01 X34.8752 Y22.7734 
G01 X34.8600 Y22.8101 
G01 X34.8600 Y23.6499 
G01 X34.8752 Y23.6866 
G01 X34.9034 Y23.7148 
G00 Z2.0000 
G00 X41.0795 Y5.8150 
G01 Z-0.0250 F254.00 
G01 X42.7405 Y5.8150 F508.00 
G01 X43.9150 Y4.6405 
G01 X43.9150 Y2.9795 
G01 X42.7405 Y1.8050 
G01 X41.0795 Y1.8050 
G01 X39.9050 Y2.9795 
G01 X39.9050 Y4.6405 
G01 X41.0795 Y5.8150 
G00 Z2.0000 
G00 X8.3366 Y18.2110 
G01 Z-0.0250 F254.00 
G01 X8.1965 Y18.1092 F508.00 
G01 X8.0423 Y18.0306 
G01 X7.8776 Y17.9771 
G01 X7.7066 Y17.9500 
G01 X7.5334 Y17.9500 
G01 X7.3624 Y17.9771 
G01 X7.1977 Y18.0306 
G01 X7.0435 Y18.1092 
G01 X6.9034 Y18.2110 
G01 X6.7810 Y18.3334 
G01 X6.6792 Y18.4735 
G01 X6.6006 Y18.6277 
G01 X6.5471 Y18.7924 
G01 X6.5200 Y18.9634 
G01 X6.5200 Y19.1366 
G01 X6.5471 Y19.3076 
G01 X6.6006 Y19.4723 
G01 X6.6792 Y19.6265 
G01 X6.7810 Y19.7666 
G01 X6.9034 Y19.8890 
G01 X7.0435 Y19.9908 
G01 X7.1977 Y20.0694 
G01 X7.3624 Y20.1229 
G01 X7.5334 Y20.1500 
G01 X7.7066 Y20.1500 
G01 X7.8776 Y20.1229 
G01 X8.0423 Y20.0694 
G01 X8.1965 Y19.9908 
G01 X8.3366 Y19.8890 
G01 X8.4590 Y19.7666 
G01 X8.5608 Y19.6265 
G01 X8.6394 Y19.4723 
G01 X8.6929 Y19.3076 
G01 X8.7200 Y19.1366 
G01 X8.7200 Y18.9634 
G01 X8.6929 Y18.7924 
G01 X8.6394 Y18.6277 
G01 X8.5608 Y18.4735 
G01 X8.4590 Y18.3334 
G01 X8.3366 Y18.2110 
G00 Z2.0000 
G00 X8.3366 Y20.7510 
G01 Z-0.0250 F254.00 
G01 X8.1965 Y20.6492 F508.00 
G01 X8.0423 Y20.5706 
G01 X7.8776 Y20.5171 
G01 X7.7066 Y20.4900 
G01 X7.5334 Y20.4900 
G01 X7.3624 Y20.5171 
G01 X7.1977 Y20.5706 
G01 X7.0435 Y20.6492 
G01 X6.9034 Y20.7510 
G01 X6.7810 Y20.8734 
G01 X6.6792 Y21.0135 
G01 X6.6006 Y21.1677 
G01 X6.5471 Y21.3324 
G01 X6.5200 Y21.5034 
G01 X6.5200 Y21.6766 
G01 X6.5471 Y21.8476 
G01 X6.6006 Y22.0123 
G01 X6.6792 Y22.1665 
G01 X6.7810 Y22.3066 
G01 X6.9034 Y22.4290 
G01 X7.0435 Y22.5308 
G01 X7.1977 Y22.6094 
G01 X7.3624 Y22.6629 
G01 X7.5334 Y22.6900 
G01 X7.7066 Y22.6900 
G01 X7.8776 Y22.6629 
G01 X8.0423 Y22.6094 
G01 X8.1965 Y22.5308 
G01 X8.3366 Y22.4290 
G01 X8.4590 Y22.3066 
G01 X8.5608 Y22.1665 
G01 X8.6394 Y22.0123 
G01 X8.6929 Y21.8476 
G01 X8.7200 Y21.6766 
G01 X8.7200 Y21.5034 
G01 X8.6929 Y21.3324 
G01 X8.6394 Y21.1677 
G01 X8.5608 Y21.0135 
G01 X8.4590 Y20.8734 
G01 X8.3366 Y20.7510 
G00 Z2.0000 
G00 X8.3366 Y23.2910 
G01 Z-0.0250 F254.00 
G01 X8.1965 Y23.1892 F508.00 
G01 X8.0423 Y23.1106 
G01 X7.8776 Y23.0571 
G01 X7.7066 Y23.0300 
G01 X7.5334 Y23.0300 
G01 X7.3624 Y23.0571 
G01 X7.1977 Y23.1106 
G01 X7.0435 Y23.1892 
G01 X6.9034 Y23.2910 
G01 X6.7810 Y23.4134 
G01 X6.6792 Y23.5535 
G01 X6.6006 Y23.7077 
G01 X6.5471 Y23.8724 
G01 X6.5200 Y24.0434 
G01 X6.5200 Y24.2166 
G01 X6.5471 Y24.3876 
G01 X6.6006 Y24.5523 
G01 X6.6792 Y24.7065 
G01 X6.7810 Y24.8466 
G01 X6.9034 Y24.9690 
G01 X7.0435 Y25.0708 
G01 X7.1977 Y25.1494 
G01 X7.3624 Y25.2029 
G01 X7.5334 Y25.2300 
G01 X7.7066 Y25.2300 
G01 X7.8776 Y25.2029 
G01 X8.0423 Y25.1494 
G01 X8.1965 Y25.0708 
G01 X8.3366 Y24.9690 
G01 X8.4590 Y24.8466 
G01 X8.5608 Y24.7065 
G01 X8.6394 Y24.5523 
G01 X8.6929 Y24.3876 
G01 X8.7200 Y24.2166 
G01 X8.7200 Y24.0434 
G01 X8.6929 Y23.8724 
G01 X8.6394 Y23.7077 
G01 X8.5608 Y23.5535 
G01 X8.4590 Y23.4134 
G01 X8.3366 Y23.2910 
G00 Z2.0000 
G00 X8.3366 Y25.8310 
G01 Z-0.0250 F254.00 
G01 X8.1965 Y25.7292 F508.00 
G01 X8.0423 Y25.6506 
G01 X7.8776 Y25.5971 
G01 X7.7066 Y25.5700 
G01 X7.5334 Y25.5700 
G01 X7.3624 Y25.5971 
G01 X7.1977 Y25.6506 
G01 X7.0435 Y25.7292 
G01 X6.9034 Y25.8310 
G01 X6.7810 Y25.9534 
G01 X6.6792 Y26.0935 
G01 X6.6006 Y26.2477 
G01 X6.5471 Y26.4124 
G01 X6.5200 Y26.5834 
G01 X6.5200 Y26.7566 
G01 X6.5471 Y26.9276 
G01 X6.6006 Y27.0923 
G01 X6.6792 Y27.2465 
G01 X6.7810 Y27.3866 
G01 X6.9034 Y27.5090 
G01 X7.0435 Y27.6108 
G01 X7.1977 Y27.6894 
G01 X7.3624 Y27.7429 
G01 X7.5334 Y27.7700 
G01 X7.7066 Y27.7700 
G01 X7.8776 Y27.7429 
G01 X8.0423 Y27.6894 
G01 X8.1965 Y27.6108 
G01 X8.3366 Y27.5090 
G01 X8.4590 Y27.3866 
G01 X8.5608 Y27.2465 
G01 X8.6394 Y27.0923 
G01 X8.6929 Y26.9276 
G01 X8.7200 Y26.7566 
G01 X8.7200 Y26.5834 
G01 X8.6929 Y26.4124 
G01 X8.6394 Y26.2477 
G01 X8.5608 Y26.0935 
G01 X8.4590 Y25.9534 
G01 X8.3366 Y25.8310 
G00 Z2.0000 
G00 X8.3366 Y28.3710 
G01 Z-0.0250 F254.00 
G01 X8.1965 Y28.2692 F508.00 
G01 X8.0423 Y28.1906 
G01 X7.8776 Y28.1371 
G01 X7.7066 Y28.1100 
G01 X7.5334 Y28.1100 
G01 X7.3624 Y28.1371 
G01 X7.1977 Y28.1906 
G01 X7.0435 Y28.2692 
G01 X6.9034 Y28.3710 
G01 X6.7810 Y28.4934 
G01 X6.6792 Y28.6335 
G01 X6.6006 Y28.7877 
G01 X6.5471 Y28.9524 
G01 X6.5200 Y29.1234 
G01 X6.5200 Y29.2966 
G01 X6.5471 Y29.4676 
G01 X6.6006 Y29.6323 
G01 X6.6792 Y29.7865 
G01 X6.7810 Y29.9266 
G01 X6.9034 Y30.0490 
G01 X7.0435 Y30.1508 
G01 X7.1977 Y30.2294 
G01 X7.3624 Y30.2829 
G01 X7.5334 Y30.3100 
G01 X7.7066 Y30.3100 
G01 X7.8776 Y30.2829 
G01 X8.0423 Y30.2294 
G01 X8.1965 Y30.1508 
G01 X8.3366 Y30.0490 
G01 X8.4590 Y29.9266 
G01 X8.5608 Y29.7865 
G01 X8.6394 Y29.6323 
G01 X8.6929 Y29.4676 
G01 X8.7200 Y29.2966 
G01 X8.7200 Y29.1234 
G01 X8.6929 Y28.9524 
G01 X8.6394 Y28.7877 
G01 X8.5608 Y28.6335 
G01 X8.4590 Y28.4934 
G01 X8.3366 Y28.3710 
G00 Z2.0000 
G00 X8.3366 Y30.9110 
G01 Z-0.0250 F254.00 
G01 X8.1965 Y30.8092 F508.00 
G01 X8.0423 Y30.7306 
G01 X7.8776 Y30.6771 
G01 X7.7066 Y30.6500 
G01 X7.5334 Y30.6500 
G01 X7.3624 Y30.6771 
G01 X7.1977 Y30.7306 
G01 X7.0435 Y30.8092 
G01 X6.9034 Y30.9110 
G01 X6.7810 Y31.0334 
G01 X6.6792 Y31.1735 
G01 X6.6006 Y31.3277 
G01 X6.5471 Y31.4924 
G01 X6.5200 Y31.6634 
G01 X6.5200 Y31.8366 
G01 X6.5471 Y32.0076 
G01 X6.6006 Y32.1723 
G01 X6.6792 Y32.3265 
G01 X6.7810 Y32.4666 
G01 X6.9034 Y32.5890 
G01 X7.0435 Y32.6908 
G01 X7.1977 Y32.7694 
G01 X7.3624 Y32.8229 
G01 X7.5334 Y32.8500 
G01 X7.7066 Y32.8500 
G01 X7.8776 Y32.8229 
G01 X8.0423 Y32.7694 
G01 X8.1965 Y32.6908 
G01 X8.3366 Y32.5890 
G01 X8.4590 Y32.4666 
G01 X8.5608 Y32.3265 
G01 X8.6394 Y32.1723 
G01 X8.6929 Y32.0076 
G01 X8.7200 Y31.8366 
G01 X8.7200 Y31.6634 
G01 X8.6929 Y31.4924 
G01 X8.6394 Y31.3277 
G01 X8.5608 Y31.1735 
G01 X8.4590 Y31.0334 
G01 X8.3366 Y30.9110 
G00 Z2.0000 
G00 X8.3366 Y41.0710 
G01 Z-0.0250 F254.00 
G01 X8.1965 Y40.9692 F508.00 
G01 X8.0423 Y40.8906 
G01 X7.8776 Y40.8371 
G01 X7.7066 Y40.8100 
G01 X7.5334 Y40.8100 
G01 X7.3624 Y40.8371 
G01 X7.1977 Y40.8906 
G01 X7.0435 Y40.9692 
G01 X6.9034 Y41.0710 
G01 X6.7810 Y41.1934 
G01 X6.6792 Y41.3335 
G01 X6.6006 Y41.4877 
G01 X6.5471 Y41.6524 
G01 X6.5200 Y41.8234 
G01 X6.5200 Y41.9966 
G01 X6.5471 Y42.1676 
G01 X6.6006 Y42.3323 
G01 X6.6792 Y42.4865 
G01 X6.7810 Y42.6266 
G01 X6.9034 Y42.7490 
G01 X7.0435 Y42.8508 
G01 X7.1977 Y42.9294 
G01 X7.3624 Y42.9829 
G01 X7.5334 Y43.0100 
G01 X7.7066 Y43.0100 
G01 X7.8776 Y42.9829 
G01 X8.0423 Y42.9294 
G01 X8.1965 Y42.8508 
G01 X8.3366 Y42.7490 
G01 X8.4590 Y42.6266 
G01 X8.5608 Y42.4865 
G01 X8.6394 Y42.3323 
G01 X8.6929 Y42.1676 
G01 X8.7200 Y41.9966 
G01 X8.7200 Y41.8234 
G01 X8.6929 Y41.6524 
G01 X8.6394 Y41.4877 
G01 X8.5608 Y41.3335 
G01 X8.4590 Y41.1934 
G01 X8.3366 Y41.0710 
G00 Z2.0000 
G00 X8.3366 Y43.6110 
G01 Z-0.0250 F254.00 
G01 X8.1965 Y43.5092 F508.00 
G01 X8.0423 Y43.4306 
G01 X7.8776 Y43.3771 
G01 X7.7066 Y43.3500 
G01 X7.5334 Y43.3500 
G01 X7.3624 Y43.3771 
G01 X7.1977 Y43.4306 
G01 X7.0435 Y43.5092 
G01 X6.9034 Y43.6110 
G01 X6.7810 Y43.7334 
G01 X6.6792 Y43.8735 
G01 X6.6006 Y44.0277 
G01 X6.5471 Y44.1924 
G01 X6.5200 Y44.3634 
G01 X6.5200 Y44.5366 
G01 X6.5471 Y44.7076 
G01 X6.6006 Y44.8723 
G01 X6.6792 Y45.0265 
G01 X6.7810 Y45.1666 
G01 X6.9034 Y45.2890 
G01 X7.0435 Y45.3908 
G01 X7.1977 Y45.4694 
G01 X7.3624 Y45.5229 
G01 X7.5334 Y45.5500 
G01 X7.7066 Y45.5500 
G01 X7.8776 Y45.5229 
G01 X8.0423 Y45.4694 
G01 X8.1965 Y45.3908 
G01 X8.3366 Y45.2890 
G01 X8.4590 Y45.1666 
G01 X8.5608 Y45.0265 
G01 X8.6394 Y44.8723 
G01 X8.6929 Y44.7076 
G01 X8.7200 Y44.5366 
G01 X8.7200 Y44.3634 
G01 X8.6929 Y44.1924 
G01 X8.6394 Y44.0277 
G01 X8.5608 Y43.8735 
G01 X8.4590 Y43.7334 
G01 X8.3366 Y43.6110 
G00 Z2.0000 
G00 X8.3366 Y46.1510 
G01 Z-0.0250 F254.00 
G01 X8.1965 Y46.0492 F508.00 
G01 X8.0423 Y45.9706 
G01 X7.8776 Y45.9171 
G01 X7.7066 Y45.8900 
G01 X7.5334 Y45.8900 
G01 X7.3624 Y45.9171 
G01 X7.1977 Y45.9706 
G01 X7.0435 Y46.0492 
G01 X6.9034 Y46.1510 
G01 X6.7810 Y46.2734 
G01 X6.6792 Y46.4135 
G01 X6.6006 Y46.5677 
G01 X6.5471 Y46.7324 
G01 X6.5200 Y46.9034 
G01 X6.5200 Y47.0766 
G01 X6.5471 Y47.2476 
G01 X6.6006 Y47.4123 
G01 X6.6792 Y47.5665 
G01 X6.7810 Y47.7066 
G01 X6.9034 Y47.8290 
G01 X7.0435 Y47.9308 
G01 X7.1977 Y48.0094 
G01 X7.3624 Y48.0629 
G01 X7.5334 Y48.0900 
G01 X7.7066 Y48.0900 
G01 X7.8776 Y48.0629 
G01 X8.0423 Y48.0094 
G01 X8.1965 Y47.9308 
G01 X8.3366 Y47.8290 
G01 X8.4590 Y47.7066 
G01 X8.5608 Y47.5665 
G01 X8.6394 Y47.4123 
G01 X8.6929 Y47.2476 
G01 X8.7200 Y47.0766 
G01 X8.7200 Y46.9034 
G01 X8.6929 Y46.7324 
G01 X8.6394 Y46.5677 
G01 X8.5608 Y46.4135 
G01 X8.4590 Y46.2734 
G01 X8.3366 Y46.1510 
G00 Z2.0000 
G00 X9.2552 Y56.4934 
G01 Z-0.0250 F254.00 
G01 X9.2400 Y56.5301 F508.00 
G01 X9.2400 Y57.7699 
G01 X9.2552 Y57.8066 
G01 X9.2834 Y57.8348 
G01 X9.3201 Y57.8500 
G01 X10.5599 Y57.8500 
G01 X10.5966 Y57.8348 
G01 X10.6248 Y57.8066 
G01 X10.6400 Y57.7699 
G01 X10.6400 Y57.7000 
G01 X11.3000 Y57.7000 
G01 X11.3000 Y57.7699 
G01 X11.3152 Y57.8066 
G01 X11.3434 Y57.8348 
G01 X11.3801 Y57.8500 
G01 X12.2199 Y57.8500 
G01 X12.2566 Y57.8348 
G01 X12.2848 Y57.8066 
G01 X12.3000 Y57.7699 
G01 X12.3000 Y57.1542 
G01 X12.3010 Y57.0926 
G01 X12.3000 Y57.0884 
G01 X12.3000 Y56.5301 
G01 X12.2848 Y56.4934 
G01 X12.2566 Y56.4652 
G01 X12.2199 Y56.4500 
G01 X11.3801 Y56.4500 
G01 X11.3434 Y56.4652 
G01 X11.3152 Y56.4934 
G01 X11.3000 Y56.5301 
G01 X11.3000 Y56.7000 
G01 X10.6400 Y56.7000 
G01 X10.6400 Y56.5301 
G01 X10.6248 Y56.4934 
G01 X10.5966 Y56.4652 
G01 X10.5599 Y56.4500 
G01 X9.3201 Y56.4500 
G01 X9.2834 Y56.4652 
G01 X9.2552 Y56.4934 
G00 Z2.0000 
G00 X3.9966 Y60.3252 
G01 Z-0.0250 F254.00 
G01 X3.9599 Y60.3100 F508.00 
G01 X1.1201 Y60.3100 
G01 X1.0834 Y60.3252 
G01 X1.0552 Y60.3534 
G01 X1.0400 Y60.3901 
G01 X1.0400 Y62.8299 
G01 X1.0552 Y62.8666 
G01 X1.0834 Y62.8948 
G01 X1.1201 Y62.9100 
G01 X3.9599 Y62.9100 
G01 X3.9966 Y62.8948 
G01 X4.0248 Y62.8666 
G01 X4.0400 Y62.8299 
G01 X4.0400 Y60.3901 
G01 X4.0248 Y60.3534 
G01 X3.9966 Y60.3252 
G00 Z2.0000 
G00 X7.1552 Y71.7534 
G01 Z-0.0250 F254.00 
G01 X7.1400 Y71.7901 F508.00 
G01 X7.1400 Y74.2299 
G01 X7.1552 Y74.2666 
G01 X7.1834 Y74.2948 
G01 X7.2201 Y74.3100 
G01 X10.0599 Y74.3100 
G01 X10.0966 Y74.2948 
G01 X10.1248 Y74.2666 
G01 X10.1400 Y74.2299 
G01 X10.1400 Y71.7901 
G01 X10.1248 Y71.7534 
G01 X10.0966 Y71.7252 
G01 X10.0599 Y71.7100 
G01 X7.2201 Y71.7100 
G01 X7.1834 Y71.7252 
G01 X7.1552 Y71.7534 
G00 Z2.0000 
G00 X15.6795 Y38.8350 
G01 Z-0.0250 F254.00 
G01 X17.3405 Y38.8350 F508.00 
G01 X18.5150 Y37.6605 
G01 X18.5150 Y35.9995 
G01 X17.3405 Y34.8250 
G01 X15.6795 Y34.8250 
G01 X14.5050 Y35.9995 
G01 X14.5050 Y37.6605 
G01 X15.6795 Y38.8350 
G00 Z2.0000 
G00 X3.9915 Y1.5886 
G01 Z-0.0250 F254.00 
G01 X3.8564 Y1.7746 F508.00 
G01 X3.7520 Y1.9794 
G01 X3.6810 Y2.1980 
G01 X3.6450 Y2.4251 
G01 X3.6450 Y2.6549 
G01 X3.6810 Y2.8820 
G01 X3.7520 Y3.1006 
G01 X3.8564 Y3.3054 
G01 X3.9915 Y3.4914 
G01 X4.1540 Y3.6539 
G01 X4.3400 Y3.7890 
G01 X4.5448 Y3.8934 
G01 X4.6000 Y3.9113 
G01 X4.6000 Y11.1650 
G01 X4.5972 Y11.1889 
G01 X4.6000 Y11.2240 
G01 X4.6000 Y11.2591 
G01 X4.6047 Y11.2827 
G01 X4.6066 Y11.3068 
G01 X4.6162 Y11.3406 
G01 X4.6231 Y11.3750 
G01 X4.6323 Y11.3973 
G01 X4.6280 Y11.4094 
G01 X4.6262 Y11.4174 
G01 X4.6231 Y11.4250 
G01 X4.6131 Y11.4750 
G01 X4.6018 Y11.5247 
G01 X4.6016 Y11.5328 
G01 X4.6000 Y11.5409 
G01 X4.6000 Y11.5919 
G01 X4.5986 Y11.6428 
G01 X4.6000 Y11.6509 
G01 X4.6000 Y62.8591 
G01 X4.6231 Y62.9750 
G01 X4.6683 Y63.0842 
G01 X4.7340 Y63.1825 
G01 X4.8175 Y63.2660 
G01 X6.4175 Y64.8660 
G01 X6.5158 Y64.9317 
G01 X6.6250 Y64.9769 
G01 X6.7409 Y65.0000 
G01 X7.3515 Y65.0000 
G01 X8.0175 Y65.6660 
G01 X8.1158 Y65.7317 
G01 X8.2250 Y65.7769 
G01 X8.3409 Y65.8000 
G01 X30.2000 Y65.8000 
G01 X30.2000 Y67.5400 
G01 X30.1102 Y67.5400 
G01 X30.0367 Y67.5704 
G01 X29.9804 Y67.6267 
G01 X29.9500 Y67.7002 
G01 X29.9500 Y69.5598 
G01 X29.9804 Y69.6333 
G01 X30.0367 Y69.6895 
G01 X30.1102 Y69.7200 
G01 X32.0715 Y69.7200 
G01 X32.8175 Y70.4660 
G01 X32.9158 Y70.5317 
G01 X33.0250 Y70.5769 
G01 X33.1409 Y70.6000 
G01 X36.6672 Y70.6000 
G01 X36.6867 Y70.6196 
G01 X36.7602 Y70.6500 
G01 X37.6398 Y70.6500 
G01 X37.7133 Y70.6196 
G01 X37.7696 Y70.5633 
G01 X37.8000 Y70.4898 
G01 X37.8000 Y69.2102 
G01 X37.7696 Y69.1367 
G01 X37.7133 Y69.0804 
G01 X37.6398 Y69.0500 
G01 X36.7602 Y69.0500 
G01 X36.6867 Y69.0804 
G01 X36.6304 Y69.1367 
G01 X36.6000 Y69.2102 
G01 X36.6000 Y69.4000 
G01 X33.5500 Y69.4000 
G01 X33.5500 Y67.7002 
G01 X33.5196 Y67.6267 
G01 X33.4633 Y67.5704 
G01 X33.3898 Y67.5400 
G01 X31.5885 Y67.5400 
G01 X31.4000 Y67.3515 
G01 X31.4000 Y63.9400 
G01 X31.5998 Y63.9400 
G01 X31.6733 Y63.9096 
G01 X31.7296 Y63.8533 
G01 X31.7600 Y63.7798 
G01 X31.7600 Y62.7002 
G01 X31.7296 Y62.6267 
G01 X31.6733 Y62.5704 
G01 X31.5998 Y62.5400 
G01 X29.9202 Y62.5400 
G01 X29.8467 Y62.5704 
G01 X29.7904 Y62.6267 
G01 X29.7600 Y62.7002 
G01 X29.7600 Y63.7798 
G01 X29.7904 Y63.8533 
G01 X29.8467 Y63.9096 
G01 X29.9202 Y63.9400 
G01 X30.2000 Y63.9400 
G01 X30.2000 Y64.6000 
G01 X8.6485 Y64.6000 
G01 X8.0660 Y64.0175 
G01 X7.9825 Y63.9340 
G01 X7.8842 Y63.8683 
G01 X7.7750 Y63.8231 
G01 X7.6591 Y63.8000 
G01 X7.0485 Y63.8000 
G01 X5.8000 Y62.5515 
G01 X5.8000 Y14.2000 
G01 X10.8591 Y14.2000 
G01 X10.9750 Y14.1769 
G01 X11.0842 Y14.1317 
G01 X11.1825 Y14.0660 
G01 X11.2660 Y13.9825 
G01 X13.4485 Y11.8000 
G01 X17.3350 Y11.8000 
G01 X17.3350 Y12.2048 
G01 X17.3654 Y12.2783 
G01 X17.4217 Y12.3346 
G01 X17.4952 Y12.3650 
G01 X18.8448 Y12.3650 
G01 X18.9183 Y12.3346 
G01 X18.9746 Y12.2783 
G01 X19.0050 Y12.2048 
G01 X19.0050 Y10.6552 
G01 X18.9746 Y10.5817 
G01 X18.9183 Y10.5254 
G01 X18.8448 Y10.4950 
G01 X18.6000 Y10.4950 
G01 X18.6000 Y3.9409 
G01 X18.5769 Y3.8250 
G01 X18.5317 Y3.7158 
G01 X18.4660 Y3.6175 
G01 X17.9036 Y3.0551 
G01 X17.9598 Y2.8820 
G01 X17.9958 Y2.6549 
G01 X17.9958 Y2.4251 
G01 X17.9598 Y2.1980 
G01 X17.8888 Y1.9794 
G01 X17.7844 Y1.7746 
G01 X17.6493 Y1.5886 
G01 X17.4868 Y1.4261 
G01 X17.3008 Y1.2910 
G01 X17.0960 Y1.1866 
G01 X16.8774 Y1.1156 
G01 X16.6503 Y1.0796 
G01 X16.4205 Y1.0796 
G01 X16.1934 Y1.1156 
G01 X15.9748 Y1.1866 
G01 X15.7700 Y1.2910 
G01 X15.5840 Y1.4261 
G01 X15.4215 Y1.5886 
G01 X15.2864 Y1.7746 
G01 X15.1820 Y1.9794 
G01 X15.1110 Y2.1980 
G01 X15.0750 Y2.4251 
G01 X15.0750 Y2.6549 
G01 X15.1110 Y2.8820 
G01 X15.1820 Y3.1006 
G01 X15.2864 Y3.3054 
G01 X15.4215 Y3.4914 
G01 X15.5840 Y3.6539 
G01 X15.7700 Y3.7890 
G01 X15.9748 Y3.8934 
G01 X16.1934 Y3.9644 
G01 X16.4205 Y4.0004 
G01 X16.6503 Y4.0004 
G01 X16.8774 Y3.9644 
G01 X17.0574 Y3.9059 
G01 X17.4000 Y4.2485 
G01 X17.4000 Y10.5472 
G01 X17.3654 Y10.5817 
G01 X17.3579 Y10.6000 
G01 X13.1409 Y10.6000 
G01 X13.0250 Y10.6231 
G01 X12.9158 Y10.6683 
G01 X12.8175 Y10.7340 
G01 X10.5515 Y13.0000 
G01 X5.8000 Y13.0000 
G01 X5.8000 Y12.3650 
G01 X6.1448 Y12.3650 
G01 X6.2183 Y12.3346 
G01 X6.2746 Y12.2783 
G01 X6.3050 Y12.2048 
G01 X6.3050 Y10.6552 
G01 X6.2746 Y10.5817 
G01 X6.2183 Y10.5254 
G01 X6.1448 Y10.4950 
G01 X5.8000 Y10.4950 
G01 X5.8000 Y3.8251 
G01 X5.8708 Y3.7890 
G01 X6.0568 Y3.6539 
G01 X6.2193 Y3.4914 
G01 X6.3544 Y3.3054 
G01 X6.4588 Y3.1006 
G01 X6.5298 Y2.8820 
G01 X6.5658 Y2.6549 
G01 X6.5658 Y2.4251 
G01 X6.5298 Y2.1980 
G01 X6.4588 Y1.9794 
G01 X6.3544 Y1.7746 
G01 X6.2193 Y1.5886 
G01 X6.0568 Y1.4261 
G01 X5.8708 Y1.2910 
G01 X5.6660 Y1.1866 
G01 X5.4474 Y1.1156 
G01 X5.2203 Y1.0796 
G01 X4.9905 Y1.0796 
G01 X4.7634 Y1.1156 
G01 X4.5448 Y1.1866 
G01 X4.3400 Y1.2910 
G01 X4.1540 Y1.4261 
G01 X3.9915 Y1.5886 
G00 Z2.0000 
G00 X8.9953 Y1.5886 
G01 Z-0.0250 F254.00 
G01 X8.8602 Y1.7746 F508.00 
G01 X8.7558 Y1.9794 
G01 X8.6848 Y2.1980 
G01 X8.6488 Y2.4251 
G01 X8.6488 Y2.6549 
G01 X8.6848 Y2.8820 
G01 X8.7558 Y3.1006 
G01 X8.8602 Y3.3054 
G01 X8.9953 Y3.4914 
G01 X9.1578 Y3.6539 
G01 X9.3438 Y3.7890 
G01 X9.4000 Y3.8177 
G01 X9.4000 Y10.4950 
G01 X9.0952 Y10.4950 
G01 X9.0217 Y10.5254 
G01 X8.9654 Y10.5817 
G01 X8.9350 Y10.6552 
G01 X8.9350 Y12.2048 
G01 X8.9654 Y12.2783 
G01 X9.0217 Y12.3346 
G01 X9.0952 Y12.3650 
G01 X10.4448 Y12.3650 
G01 X10.5183 Y12.3346 
G01 X10.5746 Y12.2783 
G01 X10.6050 Y12.2048 
G01 X10.6050 Y10.6552 
G01 X10.6000 Y10.6431 
G01 X10.6000 Y3.9161 
G01 X10.6698 Y3.8934 
G01 X10.8746 Y3.7890 
G01 X11.0606 Y3.6539 
G01 X11.2231 Y3.4914 
G01 X11.3582 Y3.3054 
G01 X11.4626 Y3.1006 
G01 X11.5336 Y2.8820 
G01 X11.5696 Y2.6549 
G01 X11.5696 Y2.4251 
G01 X11.5336 Y2.1980 
G01 X11.4626 Y1.9794 
G01 X11.3582 Y1.7746 
G01 X11.2231 Y1.5886 
G01 X11.0606 Y1.4261 
G01 X10.8746 Y1.2910 
G01 X10.6698 Y1.1866 
G01 X10.4512 Y1.1156 
G01 X10.2241 Y1.0796 
G01 X9.9943 Y1.0796 
G01 X9.7672 Y1.1156 
G01 X9.5486 Y1.1866 
G01 X9.3438 Y1.2910 
G01 X9.1578 Y1.4261 
G01 X8.9953 Y1.5886 
G00 Z2.0000 
G00 X20.4253 Y1.5886 
G01 Z-0.0250 F254.00 
G01 X20.2902 Y1.7746 F508.00 
G01 X20.1858 Y1.9794 
G01 X20.1148 Y2.1980 
G01 X20.0788 Y2.4251 
G01 X20.0788 Y2.6549 
G01 X20.1148 Y2.8820 
G01 X20.1858 Y3.1006 
G01 X20.2902 Y3.3054 
G01 X20.4253 Y3.4914 
G01 X20.5878 Y3.6539 
G01 X20.7738 Y3.7890 
G01 X20.9786 Y3.8934 
G01 X21.1972 Y3.9644 
G01 X21.4243 Y4.0004 
G01 X21.6541 Y4.0004 
G01 X21.8000 Y3.9773 
G01 X21.8000 Y10.4950 
G01 X21.7952 Y10.4950 
G01 X21.7217 Y10.5254 
G01 X21.6654 Y10.5817 
G01 X21.6350 Y10.6552 
G01 X21.6350 Y12.2048 
G01 X21.6654 Y12.2783 
G01 X21.7217 Y12.3346 
G01 X21.7952 Y12.3650 
G01 X23.1448 Y12.3650 
G01 X23.2183 Y12.3346 
G01 X23.2746 Y12.2783 
G01 X23.3050 Y12.2048 
G01 X23.3050 Y10.6552 
G01 X23.2746 Y10.5817 
G01 X23.2183 Y10.5254 
G01 X23.1448 Y10.4950 
G01 X23.0000 Y10.4950 
G01 X23.0000 Y5.8000 
G01 X24.5650 Y5.8000 
G01 X24.5650 Y9.5648 
G01 X24.5954 Y9.6383 
G01 X24.6517 Y9.6946 
G01 X24.7252 Y9.7250 
G01 X36.2348 Y9.7250 
G01 X36.3083 Y9.6946 
G01 X36.3646 Y9.6383 
G01 X36.3950 Y9.5648 
G01 X36.3950 Y0.5952 
G01 X36.3646 Y0.5217 
G01 X36.3083 Y0.4654 
G01 X36.2348 Y0.4350 
G01 X24.7252 Y0.4350 
G01 X24.6517 Y0.4654 
G01 X24.5954 Y0.5217 
G01 X24.5650 Y0.5952 
G01 X24.5650 Y4.6000 
G01 X23.0000 Y4.6000 
G01 X23.0000 Y3.5409 
G01 X22.9769 Y3.4250 
G01 X22.9317 Y3.3158 
G01 X22.8660 Y3.2175 
G01 X22.8442 Y3.1956 
G01 X22.8926 Y3.1006 
G01 X22.9636 Y2.8820 
G01 X22.9996 Y2.6549 
G01 X22.9996 Y2.4251 
G01 X22.9636 Y2.1980 
G01 X22.8926 Y1.9794 
G01 X22.7882 Y1.7746 
G01 X22.6531 Y1.5886 
G01 X22.4906 Y1.4261 
G01 X22.3046 Y1.2910 
G01 X22.0998 Y1.1866 
G01 X21.8812 Y1.1156 
G01 X21.6541 Y1.0796 
G01 X21.4243 Y1.0796 
G01 X21.1972 Y1.1156 
G01 X20.9786 Y1.1866 
G01 X20.7738 Y1.2910 
G01 X20.5878 Y1.4261 
G01 X20.4253 Y1.5886 
G00 Z2.0000 
G00 X21.9447 Y18.2683 
G01 Z-0.0250 F254.00 
G01 X21.8337 Y18.4211 F508.00 
G01 X21.7479 Y18.5894 
G01 X21.6895 Y18.7690 
G01 X21.6600 Y18.9556 
G01 X21.6600 Y19.1444 
G01 X21.6895 Y19.3310 
G01 X21.7479 Y19.5106 
G01 X21.8337 Y19.6789 
G01 X21.9447 Y19.8317 
G01 X22.0783 Y19.9653 
G01 X22.2311 Y20.0763 
G01 X22.3994 Y20.1621 
G01 X22.5790 Y20.2204 
G01 X22.7656 Y20.2500 
G01 X22.9544 Y20.2500 
G01 X23.1410 Y20.2204 
G01 X23.3206 Y20.1621 
G01 X23.4889 Y20.0763 
G01 X23.6417 Y19.9653 
G01 X23.7753 Y19.8317 
G01 X23.7984 Y19.8000 
G01 X25.3515 Y19.8000 
G01 X26.3340 Y20.7825 
G01 X26.4175 Y20.8660 
G01 X26.5158 Y20.9317 
G01 X26.6250 Y20.9769 
G01 X26.7409 Y21.0000 
G01 X29.6800 Y21.0000 
G01 X29.6800 Y21.1298 
G01 X29.7104 Y21.2033 
G01 X29.7667 Y21.2596 
G01 X29.8402 Y21.2900 
G01 X30.4429 Y21.2900 
G01 X30.4647 Y21.2927 
G01 X30.4871 Y21.2911 
G01 X30.5096 Y21.2922 
G01 X30.5242 Y21.2900 
G01 X31.1198 Y21.2900 
G01 X31.1933 Y21.2596 
G01 X31.2496 Y21.2033 
G01 X31.2800 Y21.1298 
G01 X31.2800 Y20.7616 
G01 X31.2907 Y20.7456 
G01 X31.3171 Y20.7100 
G01 X31.3235 Y20.6965 
G01 X31.3317 Y20.6842 
G01 X31.3487 Y20.6432 
G01 X31.3676 Y20.6031 
G01 X31.3713 Y20.5887 
G01 X31.3769 Y20.5750 
G01 X31.3856 Y20.5315 
G01 X31.3964 Y20.4885 
G01 X31.3971 Y20.4737 
G01 X31.4000 Y20.4591 
G01 X31.4000 Y20.4147 
G01 X31.4022 Y20.3704 
G01 X31.4000 Y20.3558 
G01 X31.4000 Y19.0485 
G01 X31.8646 Y18.5839 
G01 X31.9388 Y18.6150 
G01 X34.1012 Y18.6150 
G01 X34.1747 Y18.5846 
G01 X34.2309 Y18.5283 
G01 X34.2614 Y18.4548 
G01 X34.2614 Y14.5652 
G01 X34.2309 Y14.4917 
G01 X34.1747 Y14.4354 
G01 X34.1012 Y14.4050 
G01 X31.9388 Y14.4050 
G01 X31.8653 Y14.4354 
G01 X31.8090 Y14.4917 
G01 X31.7786 Y14.5652 
G01 X31.7786 Y16.9729 
G01 X30.3340 Y18.4175 
G01 X30.2683 Y18.5158 
G01 X30.2231 Y18.6250 
G01 X30.2000 Y18.7409 
G01 X30.2000 Y19.8000 
G01 X27.0485 Y19.8000 
G01 X25.9825 Y18.7340 
G01 X25.8842 Y18.6683 
G01 X25.7750 Y18.6231 
G01 X25.6591 Y18.6000 
G01 X23.9755 Y18.6000 
G01 X23.9721 Y18.5894 
G01 X23.8863 Y18.4211 
G01 X23.7753 Y18.2683 
G01 X23.6417 Y18.1347 
G01 X23.4889 Y18.0237 
G01 X23.3206 Y17.9379 
G01 X23.1410 Y17.8795 
G01 X22.9544 Y17.8500 
G01 X22.7656 Y17.8500 
G01 X22.5790 Y17.8795 
G01 X22.3994 Y17.9379 
G01 X22.2311 Y18.0237 
G01 X22.0783 Y18.1347 
G01 X21.9447 Y18.2683 
G00 Z2.0000 
G00 X21.9447 Y20.8083 
G01 Z-0.0250 F254.00 
G01 X21.8337 Y20.9611 F508.00 
G01 X21.7479 Y21.1294 
G01 X21.6895 Y21.3090 
G01 X21.6600 Y21.4956 
G01 X21.6600 Y21.6844 
G01 X21.6895 Y21.8710 
G01 X21.7479 Y22.0506 
G01 X21.8337 Y22.2189 
G01 X21.9447 Y22.3717 
G01 X22.0783 Y22.5053 
G01 X22.2311 Y22.6163 
G01 X22.3994 Y22.7021 
G01 X22.5790 Y22.7605 
G01 X22.7656 Y22.7900 
G01 X22.9544 Y22.7900 
G01 X23.1410 Y22.7605 
G01 X23.3206 Y22.7021 
G01 X23.4889 Y22.6163 
G01 X23.6417 Y22.5053 
G01 X23.7753 Y22.3717 
G01 X23.8863 Y22.2189 
G01 X23.9721 Y22.0506 
G01 X24.0305 Y21.8710 
G01 X24.0600 Y21.6844 
G01 X24.0600 Y21.4956 
G01 X24.0305 Y21.3090 
G01 X23.9721 Y21.1294 
G01 X23.8863 Y20.9611 
G01 X23.7753 Y20.8083 
G01 X23.6417 Y20.6747 
G01 X23.4889 Y20.5637 
G01 X23.3206 Y20.4779 
G01 X23.1410 Y20.4195 
G01 X22.9544 Y20.3900 
G01 X22.7656 Y20.3900 
G01 X22.5790 Y20.4195 
G01 X22.3994 Y20.4779 
G01 X22.2311 Y20.5637 
G01 X22.0783 Y20.6747 
G01 X21.9447 Y20.8083 
G00 Z2.0000 
G00 X21.9447 Y23.3483 
G01 Z-0.0250 F254.00 
G01 X21.8337 Y23.5011 F508.00 
G01 X21.7479 Y23.6694 
G01 X21.6895 Y23.8490 
G01 X21.6600 Y24.0356 
G01 X21.6600 Y24.2244 
G01 X21.6895 Y24.4110 
G01 X21.7479 Y24.5906 
G01 X21.8337 Y24.7589 
G01 X21.9447 Y24.9117 
G01 X22.0783 Y25.0453 
G01 X22.2311 Y25.1563 
G01 X22.3994 Y25.2421 
G01 X22.5790 Y25.3005 
G01 X22.7656 Y25.3300 
G01 X22.9544 Y25.3300 
G01 X23.1410 Y25.3005 
G01 X23.3206 Y25.2421 
G01 X23.4889 Y25.1563 
G01 X23.6417 Y25.0453 
G01 X23.7753 Y24.9117 
G01 X23.8863 Y24.7589 
G01 X23.9721 Y24.5906 
G01 X24.0305 Y24.4110 
G01 X24.0600 Y24.2244 
G01 X24.0600 Y24.0356 
G01 X24.0305 Y23.8490 
G01 X23.9721 Y23.6694 
G01 X23.8863 Y23.5011 
G01 X23.7753 Y23.3483 
G01 X23.6417 Y23.2147 
G01 X23.4889 Y23.1037 
G01 X23.3206 Y23.0179 
G01 X23.1410 Y22.9595 
G01 X22.9544 Y22.9300 
G01 X22.7656 Y22.9300 
G01 X22.5790 Y22.9595 
G01 X22.3994 Y23.0179 
G01 X22.2311 Y23.1037 
G01 X22.0783 Y23.2147 
G01 X21.9447 Y23.3483 
G00 Z2.0000 
G00 X21.9447 Y25.8883 
G01 Z-0.0250 F254.00 
G01 X21.8337 Y26.0411 F508.00 
G01 X21.7479 Y26.2094 
G01 X21.6895 Y26.3890 
G01 X21.6600 Y26.5756 
G01 X21.6600 Y26.7644 
G01 X21.6895 Y26.9510 
G01 X21.7479 Y27.1306 
G01 X21.8337 Y27.2989 
G01 X21.9447 Y27.4517 
G01 X22.0783 Y27.5853 
G01 X22.2311 Y27.6963 
G01 X22.3994 Y27.7821 
G01 X22.5790 Y27.8405 
G01 X22.7656 Y27.8700 
G01 X22.9544 Y27.8700 
G01 X23.1410 Y27.8405 
G01 X23.3206 Y27.7821 
G01 X23.4889 Y27.6963 
G01 X23.6417 Y27.5853 
G01 X23.7753 Y27.4517 
G01 X23.8863 Y27.2989 
G01 X23.9721 Y27.1306 
G01 X24.0305 Y26.9510 
G01 X24.0600 Y26.7644 
G01 X24.0600 Y26.5756 
G01 X24.0305 Y26.3890 
G01 X23.9721 Y26.2094 
G01 X23.8863 Y26.0411 
G01 X23.7753 Y25.8883 
G01 X23.6417 Y25.7547 
G01 X23.4889 Y25.6437 
G01 X23.3206 Y25.5579 
G01 X23.1410 Y25.4995 
G01 X22.9544 Y25.4700 
G01 X22.7656 Y25.4700 
G01 X22.5790 Y25.4995 
G01 X22.3994 Y25.5579 
G01 X22.2311 Y25.6437 
G01 X22.0783 Y25.7547 
G01 X21.9447 Y25.8883 
G00 Z2.0000 
G00 X21.9447 Y28.4283 
G01 Z-0.0250 F254.00 
G01 X21.8337 Y28.5811 F508.00 
G01 X21.7479 Y28.7494 
G01 X21.6895 Y28.9290 
G01 X21.6600 Y29.1156 
G01 X21.6600 Y29.3044 
G01 X21.6895 Y29.4910 
G01 X21.7479 Y29.6706 
G01 X21.8337 Y29.8389 
G01 X21.9447 Y29.9917 
G01 X22.0783 Y30.1253 
G01 X22.2311 Y30.2363 
G01 X22.3994 Y30.3221 
G01 X22.5790 Y30.3804 
G01 X22.7656 Y30.4100 
G01 X22.9544 Y30.4100 
G01 X23.1410 Y30.3804 
G01 X23.3206 Y30.3221 
G01 X23.4889 Y30.2363 
G01 X23.6417 Y30.1253 
G01 X23.7753 Y29.9917 
G01 X23.8863 Y29.8389 
G01 X23.9062 Y29.8000 
G01 X26.2250 Y29.8000 
G01 X26.2250 Y29.9848 
G01 X26.2554 Y30.0583 
G01 X26.3117 Y30.1146 
G01 X26.3852 Y30.1450 
G01 X27.7348 Y30.1450 
G01 X27.8083 Y30.1146 
G01 X27.8646 Y30.0583 
G01 X27.8950 Y29.9848 
G01 X27.8950 Y28.4352 
G01 X27.8646 Y28.3617 
G01 X27.8083 Y28.3054 
G01 X27.7348 Y28.2750 
G01 X26.3852 Y28.2750 
G01 X26.3117 Y28.3054 
G01 X26.2554 Y28.3617 
G01 X26.2250 Y28.4352 
G01 X26.2250 Y28.6000 
G01 X23.8960 Y28.6000 
G01 X23.8863 Y28.5811 
G01 X23.7753 Y28.4283 
G01 X23.6417 Y28.2947 
G01 X23.4889 Y28.1837 
G01 X23.3206 Y28.0979 
G01 X23.1410 Y28.0395 
G01 X22.9544 Y28.0100 
G01 X22.7656 Y28.0100 
G01 X22.5790 Y28.0395 
G01 X22.3994 Y28.0979 
G01 X22.2311 Y28.1837 
G01 X22.0783 Y28.2947 
G01 X21.9447 Y28.4283 
G00 Z2.0000 
G00 X21.9447 Y30.9683 
G01 Z-0.0250 F254.00 
G01 X21.8337 Y31.1211 F508.00 
G01 X21.7479 Y31.2894 
G01 X21.6895 Y31.4690 
G01 X21.6600 Y31.6556 
G01 X21.6600 Y31.8444 
G01 X21.6895 Y32.0310 
G01 X21.7479 Y32.2106 
G01 X21.8337 Y32.3789 
G01 X21.9447 Y32.5317 
G01 X22.0783 Y32.6653 
G01 X22.2311 Y32.7763 
G01 X22.3994 Y32.8621 
G01 X22.5790 Y32.9205 
G01 X22.7656 Y32.9500 
G01 X22.9544 Y32.9500 
G01 X23.1410 Y32.9205 
G01 X23.3206 Y32.8621 
G01 X23.4889 Y32.7763 
G01 X23.6417 Y32.6653 
G01 X23.7753 Y32.5317 
G01 X23.8863 Y32.3789 
G01 X23.9721 Y32.2106 
G01 X23.9755 Y32.2000 
G01 X29.2591 Y32.2000 
G01 X29.3750 Y32.1769 
G01 X29.4842 Y32.1317 
G01 X29.5825 Y32.0660 
G01 X31.4000 Y30.2485 
G01 X31.6175 Y30.4660 
G01 X31.7158 Y30.5317 
G01 X31.8250 Y30.5769 
G01 X31.9409 Y30.6000 
G01 X34.7808 Y30.6000 
G01 X34.7904 Y30.6233 
G01 X34.8467 Y30.6796 
G01 X34.9202 Y30.7100 
G01 X35.0855 Y30.7100 
G01 X35.0912 Y30.7185 
G01 X35.1121 Y30.7542 
G01 X35.1240 Y30.7676 
G01 X35.1339 Y30.7825 
G01 X35.1631 Y30.8117 
G01 X35.1906 Y30.8426 
G01 X35.2049 Y30.8534 
G01 X35.2175 Y30.8660 
G01 X35.2519 Y30.8890 
G01 X35.2848 Y30.9139 
G01 X35.3009 Y30.9218 
G01 X35.3158 Y30.9317 
G01 X35.3540 Y30.9475 
G01 X35.3911 Y30.9656 
G01 X35.4084 Y30.9701 
G01 X35.4250 Y30.9769 
G01 X35.4655 Y30.9850 
G01 X35.5055 Y30.9954 
G01 X35.5233 Y30.9965 
G01 X35.5409 Y31.0000 
G01 X35.5822 Y31.0000 
G01 X35.6234 Y31.0024 
G01 X35.6412 Y31.0000 
G01 X38.9515 Y31.0000 
G01 X39.3767 Y31.4252 
G01 X39.3642 Y31.4637 
G01 X39.3320 Y31.6671 
G01 X39.3320 Y31.8729 
G01 X39.3642 Y32.0763 
G01 X39.4278 Y32.2721 
G01 X39.5213 Y32.4555 
G01 X39.6423 Y32.6221 
G01 X39.7879 Y32.7677 
G01 X39.9545 Y32.8887 
G01 X40.1379 Y32.9822 
G01 X40.2543 Y33.0200 
G01 X40.1379 Y33.0578 
G01 X39.9545 Y33.1513 
G01 X39.7879 Y33.2723 
G01 X39.6423 Y33.4179 
G01 X39.5213 Y33.5845 
G01 X39.4278 Y33.7679 
G01 X39.3642 Y33.9637 
G01 X39.3320 Y34.1671 
G01 X39.3320 Y34.3729 
G01 X39.3642 Y34.5763 
G01 X39.3669 Y34.5846 
G01 X38.9515 Y35.0000 
G01 X35.6362 Y35.0000 
G01 X35.6135 Y34.9973 
G01 X35.5773 Y35.0000 
G01 X35.5409 Y35.0000 
G01 X35.5185 Y35.0045 
G01 X35.4957 Y35.0062 
G01 X35.4607 Y35.0160 
G01 X35.4250 Y35.0231 
G01 X35.4039 Y35.0318 
G01 X35.3818 Y35.0380 
G01 X35.3494 Y35.0544 
G01 X35.3158 Y35.0683 
G01 X35.2968 Y35.0810 
G01 X35.2764 Y35.0913 
G01 X35.2478 Y35.1138 
G01 X35.2175 Y35.1339 
G01 X35.2014 Y35.1501 
G01 X35.1834 Y35.1642 
G01 X35.1596 Y35.1918 
G01 X35.1339 Y35.2175 
G01 X35.1213 Y35.2365 
G01 X35.1063 Y35.2539 
G01 X35.0885 Y35.2856 
G01 X35.0683 Y35.3158 
G01 X35.0624 Y35.3300 
G01 X34.9202 Y35.3300 
G01 X34.8467 Y35.3604 
G01 X34.8072 Y35.4000 
G01 X32.3409 Y35.4000 
G01 X32.2250 Y35.4231 
G01 X32.1158 Y35.4683 
G01 X32.0175 Y35.5340 
G01 X31.6565 Y35.8950 
G01 X31.1435 Y35.8950 
G01 X29.1825 Y33.9340 
G01 X29.0842 Y33.8683 
G01 X28.9750 Y33.8231 
G01 X28.8591 Y33.8000 
G01 X23.9571 Y33.8000 
G01 X23.8863 Y33.6611 
G01 X23.7753 Y33.5083 
G01 X23.6417 Y33.3747 
G01 X23.4889 Y33.2637 
G01 X23.3206 Y33.1779 
G01 X23.1410 Y33.1195 
G01 X22.9544 Y33.0900 
G01 X22.7656 Y33.0900 
G01 X22.5790 Y33.1195 
G01 X22.3994 Y33.1779 
G01 X22.2311 Y33.2637 
G01 X22.0783 Y33.3747 
G01 X21.9447 Y33.5083 
G01 X21.8337 Y33.6611 
G01 X21.7479 Y33.8294 
G01 X21.6895 Y34.0090 
G01 X21.6600 Y34.1956 
G01 X21.6600 Y34.3844 
G01 X21.6895 Y34.5710 
G01 X21.7479 Y34.7506 
G01 X21.8337 Y34.9189 
G01 X21.9447 Y35.0717 
G01 X22.0783 Y35.2053 
G01 X22.2311 Y35.3163 
G01 X22.3994 Y35.4021 
G01 X22.5790 Y35.4605 
G01 X22.7656 Y35.4900 
G01 X22.9544 Y35.4900 
G01 X23.1410 Y35.4605 
G01 X23.3206 Y35.4021 
G01 X23.4889 Y35.3163 
G01 X23.6417 Y35.2053 
G01 X23.7753 Y35.0717 
G01 X23.8274 Y35.0000 
G01 X28.5515 Y35.0000 
G01 X30.5250 Y36.9735 
G01 X30.5250 Y37.6048 
G01 X30.5554 Y37.6783 
G01 X30.6117 Y37.7345 
G01 X30.6852 Y37.7650 
G01 X32.0348 Y37.7650 
G01 X32.1083 Y37.7345 
G01 X32.1645 Y37.6783 
G01 X32.1950 Y37.6048 
G01 X32.1950 Y37.0535 
G01 X32.6485 Y36.6000 
G01 X35.1985 Y36.6000 
G01 X35.2565 Y36.6002 
G01 X35.2591 Y36.6000 
G01 X35.3156 Y36.5888 
G01 X35.6178 Y36.5300 
G01 X36.1998 Y36.5300 
G01 X36.2733 Y36.4995 
G01 X36.3296 Y36.4433 
G01 X36.3600 Y36.3698 
G01 X36.3600 Y36.2000 
G01 X39.2591 Y36.2000 
G01 X39.3750 Y36.1769 
G01 X39.4842 Y36.1317 
G01 X39.5825 Y36.0660 
G01 X40.1594 Y35.4891 
G01 X40.3337 Y35.5458 
G01 X40.5371 Y35.5780 
G01 X40.7429 Y35.5780 
G01 X40.9463 Y35.5458 
G01 X41.1421 Y35.4822 
G01 X41.3255 Y35.3887 
G01 X41.4921 Y35.2677 
G01 X41.6377 Y35.1221 
G01 X41.7587 Y34.9555 
G01 X41.8522 Y34.7721 
G01 X41.9158 Y34.5763 
G01 X41.9480 Y34.3729 
G01 X41.9480 Y34.1671 
G01 X41.9158 Y33.9637 
G01 X41.8522 Y33.7679 
G01 X41.7587 Y33.5845 
G01 X41.6377 Y33.4179 
G01 X41.4921 Y33.2723 
G01 X41.3255 Y33.1513 
G01 X41.1421 Y33.0578 
G01 X41.0257 Y33.0200 
G01 X41.1421 Y32.9822 
G01 X41.3255 Y32.8887 
G01 X41.4921 Y32.7677 
G01 X41.6377 Y32.6221 
G01 X41.7587 Y32.4555 
G01 X41.8522 Y32.2721 
G01 X41.9158 Y32.0763 
G01 X41.9480 Y31.8729 
G01 X41.9480 Y31.6671 
G01 X41.9158 Y31.4637 
G01 X41.8522 Y31.2679 
G01 X41.7587 Y31.0845 
G01 X41.6377 Y30.9179 
G01 X41.4921 Y30.7723 
G01 X41.3255 Y30.6513 
G01 X41.1421 Y30.5578 
G01 X40.9463 Y30.4942 
G01 X40.7429 Y30.4620 
G01 X40.5371 Y30.4620 
G01 X40.3337 Y30.4942 
G01 X40.1896 Y30.5410 
G01 X39.5825 Y29.9340 
G01 X39.4842 Y29.8683 
G01 X39.3750 Y29.8231 
G01 X39.2591 Y29.8000 
G01 X36.3600 Y29.8000 
G01 X36.3600 Y29.6702 
G01 X36.3296 Y29.5967 
G01 X36.2733 Y29.5404 
G01 X36.1998 Y29.5100 
G01 X35.6496 Y29.5100 
G01 X35.4030 Y29.4346 
G01 X35.3750 Y29.4231 
G01 X35.3465 Y29.4174 
G01 X35.3188 Y29.4089 
G01 X35.2887 Y29.4059 
G01 X35.2591 Y29.4000 
G01 X35.2301 Y29.4000 
G01 X35.2012 Y29.3971 
G01 X35.1711 Y29.4000 
G01 X32.2485 Y29.4000 
G01 X32.1950 Y29.3465 
G01 X32.1950 Y28.4352 
G01 X32.1645 Y28.3617 
G01 X32.1083 Y28.3054 
G01 X32.0348 Y28.2750 
G01 X30.6852 Y28.2750 
G01 X30.6117 Y28.3054 
G01 X30.5554 Y28.3617 
G01 X30.5250 Y28.4352 
G01 X30.5250 Y29.4265 
G01 X28.9515 Y31.0000 
G01 X23.7984 Y31.0000 
G01 X23.7753 Y30.9683 
G01 X23.6417 Y30.8347 
G01 X23.4889 Y30.7237 
G01 X23.3206 Y30.6379 
G01 X23.1410 Y30.5795 
G01 X22.9544 Y30.5500 
G01 X22.7656 Y30.5500 
G01 X22.5790 Y30.5795 
G01 X22.3994 Y30.6379 
G01 X22.2311 Y30.7237 
G01 X22.0783 Y30.8347 
G01 X21.9447 Y30.9683 
G00 Z2.0000 
G00 X21.9447 Y36.0483 
G01 Z-0.0250 F254.00 
G01 X21.8337 Y36.2011 F508.00 
G01 X21.7479 Y36.3694 
G01 X21.6895 Y36.5490 
G01 X21.6600 Y36.7356 
G01 X21.6600 Y36.9244 
G01 X21.6895 Y37.1110 
G01 X21.7479 Y37.2906 
G01 X21.8337 Y37.4589 
G01 X21.9447 Y37.6117 
G01 X22.0783 Y37.7453 
G01 X22.2311 Y37.8563 
G01 X22.3994 Y37.9421 
G01 X22.5790 Y38.0005 
G01 X22.7656 Y38.0300 
G01 X22.9544 Y38.0300 
G01 X23.1410 Y38.0005 
G01 X23.3206 Y37.9421 
G01 X23.4889 Y37.8563 
G01 X23.6417 Y37.7453 
G01 X23.7753 Y37.6117 
G01 X23.8863 Y37.4589 
G01 X23.9164 Y37.4000 
G01 X26.2250 Y37.4000 
G01 X26.2250 Y37.6048 
G01 X26.2554 Y37.6783 
G01 X26.3117 Y37.7345 
G01 X26.3852 Y37.7650 
G01 X27.7348 Y37.7650 
G01 X27.8083 Y37.7345 
G01 X27.8646 Y37.6783 
G01 X27.8950 Y37.6048 
G01 X27.8950 Y36.0552 
G01 X27.8646 Y35.9817 
G01 X27.8083 Y35.9254 
G01 X27.7348 Y35.8950 
G01 X26.3852 Y35.8950 
G01 X26.3117 Y35.9254 
G01 X26.2554 Y35.9817 
G01 X26.2250 Y36.0552 
G01 X26.2250 Y36.2000 
G01 X23.8856 Y36.2000 
G01 X23.7753 Y36.0483 
G01 X23.6417 Y35.9147 
G01 X23.4889 Y35.8037 
G01 X23.3206 Y35.7179 
G01 X23.1410 Y35.6595 
G01 X22.9544 Y35.6300 
G01 X22.7656 Y35.6300 
G01 X22.5790 Y35.6595 
G01 X22.3994 Y35.7179 
G01 X22.2311 Y35.8037 
G01 X22.0783 Y35.9147 
G01 X21.9447 Y36.0483 
G00 Z2.0000 
G00 X21.9447 Y38.5883 
G01 Z-0.0250 F254.00 
G01 X21.8337 Y38.7411 F508.00 
G01 X21.7479 Y38.9094 
G01 X21.6895 Y39.0890 
G01 X21.6600 Y39.2756 
G01 X21.6600 Y39.4644 
G01 X21.6895 Y39.6510 
G01 X21.7479 Y39.8306 
G01 X21.8337 Y39.9989 
G01 X21.9447 Y40.1517 
G01 X22.0783 Y40.2853 
G01 X22.2311 Y40.3963 
G01 X22.3994 Y40.4821 
G01 X22.5790 Y40.5404 
G01 X22.7656 Y40.5700 
G01 X22.9544 Y40.5700 
G01 X23.1410 Y40.5404 
G01 X23.3206 Y40.4821 
G01 X23.4889 Y40.3963 
G01 X23.6417 Y40.2853 
G01 X23.7271 Y40.2000 
G01 X25.3515 Y40.2000 
G01 X33.3340 Y48.1825 
G01 X33.3523 Y48.2009 
G01 X33.2487 Y48.3436 
G01 X33.1629 Y48.5119 
G01 X33.1045 Y48.6915 
G01 X33.0750 Y48.8781 
G01 X33.0750 Y49.0669 
G01 X33.1045 Y49.2535 
G01 X33.1629 Y49.4331 
G01 X33.2487 Y49.6014 
G01 X33.3597 Y49.7542 
G01 X33.4933 Y49.8878 
G01 X33.6461 Y49.9988 
G01 X33.8144 Y50.0846 
G01 X33.9940 Y50.1429 
G01 X34.1806 Y50.1725 
G01 X34.3694 Y50.1725 
G01 X34.5560 Y50.1429 
G01 X34.7356 Y50.0846 
G01 X34.9039 Y49.9988 
G01 X35.0567 Y49.8878 
G01 X35.1903 Y49.7542 
G01 X35.3013 Y49.6014 
G01 X35.3871 Y49.4331 
G01 X35.4455 Y49.2535 
G01 X35.4750 Y49.0669 
G01 X35.4750 Y48.8781 
G01 X35.4455 Y48.6915 
G01 X35.3871 Y48.5119 
G01 X35.3013 Y48.3436 
G01 X35.1903 Y48.1908 
G01 X35.0567 Y48.0572 
G01 X34.9039 Y47.9462 
G01 X34.7356 Y47.8604 
G01 X34.6243 Y47.8242 
G01 X35.4485 Y47.0000 
G01 X37.3515 Y47.0000 
G01 X38.4910 Y48.1395 
G01 X38.4397 Y48.1908 
G01 X38.3287 Y48.3436 
G01 X38.2429 Y48.5119 
G01 X38.1845 Y48.6915 
G01 X38.1550 Y48.8781 
G01 X38.1550 Y49.0669 
G01 X38.1845 Y49.2535 
G01 X38.2429 Y49.4331 
G01 X38.3287 Y49.6014 
G01 X38.4397 Y49.7542 
G01 X38.5733 Y49.8878 
G01 X38.7261 Y49.9988 
G01 X38.8944 Y50.0846 
G01 X39.0740 Y50.1429 
G01 X39.2606 Y50.1725 
G01 X39.4494 Y50.1725 
G01 X39.6360 Y50.1429 
G01 X39.8156 Y50.0846 
G01 X39.9839 Y49.9988 
G01 X40.1367 Y49.8878 
G01 X40.2703 Y49.7542 
G01 X40.3813 Y49.6014 
G01 X40.4671 Y49.4331 
G01 X40.5254 Y49.2535 
G01 X40.5550 Y49.0669 
G01 X40.5550 Y48.8781 
G01 X40.5254 Y48.6915 
G01 X40.4671 Y48.5119 
G01 X40.3813 Y48.3436 
G01 X40.2703 Y48.1908 
G01 X40.1367 Y48.0572 
G01 X39.9839 Y47.9462 
G01 X39.8156 Y47.8604 
G01 X39.7818 Y47.8494 
G01 X39.7769 Y47.8250 
G01 X39.7317 Y47.7158 
G01 X39.6660 Y47.6175 
G01 X38.0660 Y46.0175 
G01 X37.9825 Y45.9340 
G01 X37.8842 Y45.8683 
G01 X37.7750 Y45.8231 
G01 X37.6591 Y45.8000 
G01 X35.1409 Y45.8000 
G01 X35.0250 Y45.8231 
G01 X34.9158 Y45.8683 
G01 X34.8175 Y45.9340 
G01 X33.8000 Y46.9515 
G01 X25.9825 Y39.1339 
G01 X25.8842 Y39.0683 
G01 X25.7750 Y39.0231 
G01 X25.6591 Y39.0000 
G01 X24.0015 Y39.0000 
G01 X23.9721 Y38.9094 
G01 X23.8863 Y38.7411 
G01 X23.7753 Y38.5883 
G01 X23.6417 Y38.4547 
G01 X23.4889 Y38.3437 
G01 X23.3206 Y38.2579 
G01 X23.1410 Y38.1995 
G01 X22.9544 Y38.1700 
G01 X22.7656 Y38.1700 
G01 X22.5790 Y38.1995 
G01 X22.3994 Y38.2579 
G01 X22.2311 Y38.3437 
G01 X22.0783 Y38.4547 
G01 X21.9447 Y38.5883 
G00 Z2.0000 
G00 X21.9447 Y41.1283 
G01 Z-0.0250 F254.00 
G01 X21.8337 Y41.2811 F508.00 
G01 X21.7479 Y41.4494 
G01 X21.6895 Y41.6290 
G01 X21.6600 Y41.8156 
G01 X21.6600 Y42.0044 
G01 X21.6895 Y42.1910 
G01 X21.7479 Y42.3706 
G01 X21.8337 Y42.5389 
G01 X21.9447 Y42.6917 
G01 X22.0783 Y42.8253 
G01 X22.2311 Y42.9363 
G01 X22.3994 Y43.0221 
G01 X22.5790 Y43.0804 
G01 X22.7656 Y43.1100 
G01 X22.9544 Y43.1100 
G01 X23.1410 Y43.0804 
G01 X23.3206 Y43.0221 
G01 X23.4889 Y42.9363 
G01 X23.6417 Y42.8253 
G01 X23.7753 Y42.6917 
G01 X23.8863 Y42.5389 
G01 X23.9721 Y42.3706 
G01 X24.0305 Y42.1910 
G01 X24.0600 Y42.0044 
G01 X24.0600 Y41.8156 
G01 X24.0305 Y41.6290 
G01 X23.9721 Y41.4494 
G01 X23.8863 Y41.2811 
G01 X23.7753 Y41.1283 
G01 X23.6417 Y40.9947 
G01 X23.4889 Y40.8837 
G01 X23.3206 Y40.7979 
G01 X23.1410 Y40.7395 
G01 X22.9544 Y40.7100 
G01 X22.7656 Y40.7100 
G01 X22.5790 Y40.7395 
G01 X22.3994 Y40.7979 
G01 X22.2311 Y40.8837 
G01 X22.0783 Y40.9947 
G01 X21.9447 Y41.1283 
G00 Z2.0000 
G00 X21.9447 Y43.6683 
G01 Z-0.0250 F254.00 
G01 X21.8337 Y43.8211 F508.00 
G01 X21.7479 Y43.9894 
G01 X21.6895 Y44.1690 
G01 X21.6600 Y44.3556 
G01 X21.6600 Y44.5444 
G01 X21.6895 Y44.7310 
G01 X21.7479 Y44.9106 
G01 X21.8337 Y45.0789 
G01 X21.9447 Y45.2317 
G01 X22.0783 Y45.3653 
G01 X22.2311 Y45.4763 
G01 X22.3994 Y45.5621 
G01 X22.5790 Y45.6205 
G01 X22.7656 Y45.6500 
G01 X22.9544 Y45.6500 
G01 X23.1410 Y45.6205 
G01 X23.3206 Y45.5621 
G01 X23.4889 Y45.4763 
G01 X23.6417 Y45.3653 
G01 X23.7753 Y45.2317 
G01 X23.8863 Y45.0789 
G01 X23.9721 Y44.9106 
G01 X24.0305 Y44.7310 
G01 X24.0600 Y44.5444 
G01 X24.0600 Y44.3556 
G01 X24.0305 Y44.1690 
G01 X23.9721 Y43.9894 
G01 X23.8863 Y43.8211 
G01 X23.7753 Y43.6683 
G01 X23.6417 Y43.5347 
G01 X23.4889 Y43.4237 
G01 X23.3206 Y43.3379 
G01 X23.1410 Y43.2795 
G01 X22.9544 Y43.2500 
G01 X22.7656 Y43.2500 
G01 X22.5790 Y43.2795 
G01 X22.3994 Y43.3379 
G01 X22.2311 Y43.4237 
G01 X22.0783 Y43.5347 
G01 X21.9447 Y43.6683 
G00 Z2.0000 
G00 X21.9447 Y46.2082 
G01 Z-0.0250 F254.00 
G01 X21.8337 Y46.3611 F508.00 
G01 X21.7479 Y46.5294 
G01 X21.6895 Y46.7090 
G01 X21.6600 Y46.8956 
G01 X21.6600 Y47.0844 
G01 X21.6895 Y47.2710 
G01 X21.7479 Y47.4506 
G01 X21.8337 Y47.6189 
G01 X21.9447 Y47.7717 
G01 X22.0783 Y47.9053 
G01 X22.2311 Y48.0163 
G01 X22.3994 Y48.1021 
G01 X22.5790 Y48.1605 
G01 X22.7656 Y48.1900 
G01 X22.9544 Y48.1900 
G01 X23.1410 Y48.1605 
G01 X23.3206 Y48.1021 
G01 X23.4889 Y48.0163 
G01 X23.6417 Y47.9053 
G01 X23.7753 Y47.7717 
G01 X23.8863 Y47.6189 
G01 X23.9721 Y47.4506 
G01 X24.0305 Y47.2710 
G01 X24.0600 Y47.0844 
G01 X24.0600 Y46.8956 
G01 X24.0305 Y46.7090 
G01 X23.9721 Y46.5294 
G01 X23.8863 Y46.3611 
