(.../pcb-gcode-3.6.0.4/pcb-gcode.ulp)
(Copyright 2005 - 2012 by John Johnson)
(See readme.txt for licensing terms.)
(This file generated from the board:)
(.../eagle/ARMEDBASE_V0/MCU/MCU.brd)
(Current profile is .../pcb-gcode-3.6.0.4/profiles/emc.pp  )
(This file generated 6/27/2014 10:16:15 AM)
(Settings from pcb-machine.h)
(  Tool Size)
(0.2000 )
(Z Axis Settings)
(  High     Up        Down     Drill)
(12.7000 	2.5400 	-0.1500 	-0.8128 )
(spindle on time = 3.0000)
(milling depth = -0.1500)
(text depth = -0.1270)
(tool change at 12.7000 15.2400 25.4000 )
(feed rate xy = F508.00 )
(feed rate z  = F254.00 )
(Settings from pcb-defaults.h)
(isolate min = 0.0154)
(isolate max = 0.5080)
(isolate step = 0.1270)
(Generated top outlines, top drill, bottom outlines, bottom drill, )
(Unit of measure: mm)
(Metric Mode)
G21
(Absolute Coordinates)
G90
G00 X0.0000 Y0.0000 
M03
G04 P3.000000
G00 Z2.5400 
G00 X92.3680 Y30.8780 
G01 Z-0.1500 F254.00 
G01 X92.3680 Y30.0462 F508.00 
G01 X92.1170 Y29.7952 
G01 X91.9217 Y29.7952 
G01 X91.6707 Y30.0462 
G01 X91.6707 Y30.8780 
G01 X92.3680 Y30.8780 
G00 Z2.5400 
G00 X90.9603 Y29.7952 
G01 Z-0.1500 F254.00 
G01 X90.7650 Y29.7952 F508.00 
G01 X90.5140 Y30.0462 
G01 X90.5140 Y30.8780 
G01 X91.2113 Y30.8780 
G01 X91.2113 Y30.0462 
G01 X90.9603 Y29.7952 
G00 Z2.5400 
G00 X91.7314 Y44.9108 
G01 Z-0.1500 F254.00 
G01 X92.2728 Y44.3694 F508.00 
G01 X91.7314 Y43.8280 
G01 X91.6707 Y43.8280 
G01 X91.6707 Y44.9108 
G01 X91.7314 Y44.9108 
G00 Z2.5400 
G00 X92.3680 Y42.5720 
G01 Z-0.1500 F254.00 
G01 X92.3680 Y41.7402 F508.00 
G01 X92.1170 Y41.4892 
G01 X91.5361 Y41.4892 
G01 X91.2851 Y41.7402 
G01 X91.2851 Y42.5720 
G01 X92.3680 Y42.5720 
G00 Z2.5400 
G00 X92.1170 Y34.4728 
G01 Z-0.1500 F254.00 
G01 X90.7650 Y34.4728 F508.00 
G01 X90.5140 Y34.7238 
G01 X90.5140 Y35.5556 
G01 X92.3680 Y35.5556 
G01 X92.3680 Y34.7238 
G01 X92.1170 Y34.4728 
G00 Z2.5400 
G00 X91.7314 Y28.5392 
G01 Z-0.1500 F254.00 
G01 X92.2728 Y27.9978 F508.00 
G01 X91.7314 Y27.4564 
G01 X91.6707 Y27.4564 
G01 X91.6707 Y28.5392 
G01 X91.7314 Y28.5392 
G00 Z2.5400 
G00 X47.3826 Y5.9284 
G01 Z-0.1500 F254.00 
G01 X47.3826 Y4.2316 F508.00 
G01 X47.4163 Y4.0621 
G01 X47.4825 Y3.9024 
G01 X47.5785 Y3.7587 
G01 X47.7007 Y3.6365 
G01 X47.8444 Y3.5405 
G01 X48.0041 Y3.4743 
G01 X48.1736 Y3.4406 
G01 X48.3464 Y3.4406 
G01 X48.5159 Y3.4743 
G01 X48.6756 Y3.5405 
G01 X48.8193 Y3.6365 
G01 X48.9415 Y3.7587 
G01 X49.0375 Y3.9024 
G01 X49.1037 Y4.0621 
G01 X49.1374 Y4.2316 
G01 X49.1374 Y5.9284 
G01 X49.1037 Y6.0979 
G01 X49.0375 Y6.2576 
G01 X48.9415 Y6.4013 
G01 X48.8193 Y6.5235 
G01 X48.6756 Y6.6195 
G01 X48.5159 Y6.6857 
G01 X48.3464 Y6.7194 
G01 X48.1736 Y6.7194 
G01 X48.0041 Y6.6857 
G01 X47.8444 Y6.6195 
G01 X47.7007 Y6.5235 
G01 X47.5785 Y6.4013 
G01 X47.4825 Y6.2576 
G01 X47.4163 Y6.0979 
G01 X47.3826 Y5.9284 
G00 Z2.5400 
G00 X16.9316 Y37.2226 
G01 Z-0.1500 F254.00 
G01 X18.6284 Y37.2226 F508.00 
G01 X18.7979 Y37.2563 
G01 X18.9576 Y37.3225 
G01 X19.1013 Y37.4185 
G01 X19.2235 Y37.5407 
G01 X19.3195 Y37.6844 
G01 X19.3857 Y37.8441 
G01 X19.4194 Y38.0136 
G01 X19.4194 Y38.1864 
G01 X19.3857 Y38.3559 
G01 X19.3195 Y38.5156 
G01 X19.2235 Y38.6593 
G01 X19.1013 Y38.7815 
G01 X18.9576 Y38.8775 
G01 X18.7979 Y38.9437 
G01 X18.6284 Y38.9774 
G01 X16.9316 Y38.9774 
G01 X16.7621 Y38.9437 
G01 X16.6024 Y38.8775 
G01 X16.4587 Y38.7815 
G01 X16.3365 Y38.6593 
G01 X16.2405 Y38.5156 
G01 X16.1743 Y38.3559 
G01 X16.1406 Y38.1864 
G01 X16.1406 Y38.0136 
G01 X16.1743 Y37.8441 
G01 X16.2405 Y37.6844 
G01 X16.3365 Y37.5407 
G01 X16.4587 Y37.4185 
G01 X16.6024 Y37.3225 
G01 X16.7621 Y37.2563 
G01 X16.9316 Y37.2226 
G00 Z2.5400 
G00 X16.9316 Y34.6826 
G01 Z-0.1500 F254.00 
G01 X18.6284 Y34.6826 F508.00 
G01 X18.7979 Y34.7163 
G01 X18.9576 Y34.7825 
G01 X19.1013 Y34.8785 
G01 X19.2235 Y35.0007 
G01 X19.3195 Y35.1444 
G01 X19.3857 Y35.3041 
G01 X19.4194 Y35.4736 
G01 X19.4194 Y35.6464 
G01 X19.3857 Y35.8159 
G01 X19.3195 Y35.9756 
G01 X19.2235 Y36.1193 
G01 X19.1013 Y36.2415 
G01 X18.9576 Y36.3375 
G01 X18.7979 Y36.4037 
G01 X18.6284 Y36.4374 
G01 X16.9316 Y36.4374 
G01 X16.7621 Y36.4037 
G01 X16.6024 Y36.3375 
G01 X16.4587 Y36.2415 
G01 X16.3365 Y36.1193 
G01 X16.2405 Y35.9756 
G01 X16.1743 Y35.8159 
G01 X16.1406 Y35.6464 
G01 X16.1406 Y35.4736 
G01 X16.1743 Y35.3041 
G01 X16.2405 Y35.1444 
G01 X16.3365 Y35.0007 
G01 X16.4587 Y34.8785 
G01 X16.6024 Y34.7825 
G01 X16.7621 Y34.7163 
G01 X16.9316 Y34.6826 
G00 Z2.5400 
G00 X16.9316 Y32.1426 
G01 Z-0.1500 F254.00 
G01 X18.4821 Y32.1426 F508.00 
G01 X24.1629 Y26.4617 
G01 X24.1506 Y26.4318 
G01 X24.1266 Y26.3114 
G01 X24.1266 Y26.1886 
G01 X24.1506 Y26.0682 
G01 X24.1975 Y25.9547 
G01 X24.2658 Y25.8526 
G01 X24.3526 Y25.7658 
G01 X24.4547 Y25.6975 
G01 X24.5682 Y25.6506 
G01 X24.6886 Y25.6266 
G01 X24.8114 Y25.6266 
G01 X24.9318 Y25.6506 
G01 X25.0453 Y25.6975 
G01 X25.1474 Y25.7658 
G01 X25.2342 Y25.8526 
G01 X25.3024 Y25.9547 
G01 X25.3494 Y26.0682 
G01 X25.3734 Y26.1886 
G01 X25.3734 Y26.3114 
G01 X25.3494 Y26.4318 
G01 X25.3024 Y26.5453 
G01 X25.2342 Y26.6474 
G01 X25.1474 Y26.7342 
G01 X25.0453 Y26.8024 
G01 X24.9318 Y26.8494 
G01 X24.8114 Y26.8734 
G01 X24.6886 Y26.8734 
G01 X24.5682 Y26.8494 
G01 X24.5383 Y26.8371 
G01 X19.0627 Y32.3127 
G01 X19.1013 Y32.3385 
G01 X19.2235 Y32.4607 
G01 X19.3195 Y32.6044 
G01 X19.3857 Y32.7641 
G01 X19.4194 Y32.9336 
G01 X19.4194 Y33.1064 
G01 X19.3857 Y33.2759 
G01 X19.3195 Y33.4356 
G01 X19.2235 Y33.5793 
G01 X19.1013 Y33.7015 
G01 X18.9576 Y33.7975 
G01 X18.7979 Y33.8637 
G01 X18.6284 Y33.8974 
G01 X16.9316 Y33.8974 
G01 X16.7621 Y33.8637 
G01 X16.6024 Y33.7975 
G01 X16.4587 Y33.7015 
G01 X16.3365 Y33.5793 
G01 X16.2405 Y33.4356 
G01 X16.1743 Y33.2759 
G01 X16.1406 Y33.1064 
G01 X16.1406 Y32.9336 
G01 X16.1743 Y32.7641 
G01 X16.2405 Y32.6044 
G01 X16.3365 Y32.4607 
G01 X16.4587 Y32.3385 
G01 X16.6024 Y32.2425 
G01 X16.7621 Y32.1763 
G01 X16.9316 Y32.1426 
G00 Z2.5400 
G00 X16.9316 Y29.6026 
G01 Z-0.1500 F254.00 
G01 X18.6284 Y29.6026 F508.00 
G01 X18.7979 Y29.6363 
G01 X18.9576 Y29.7025 
G01 X19.1013 Y29.7985 
G01 X19.2235 Y29.9207 
G01 X19.3195 Y30.0644 
G01 X19.3857 Y30.2241 
G01 X19.4194 Y30.3936 
G01 X19.4194 Y30.5664 
G01 X19.3857 Y30.7359 
G01 X19.3195 Y30.8956 
G01 X19.2235 Y31.0393 
G01 X19.1013 Y31.1615 
G01 X18.9576 Y31.2575 
G01 X18.7979 Y31.3237 
G01 X18.6284 Y31.3574 
G01 X16.9316 Y31.3574 
G01 X16.7621 Y31.3237 
G01 X16.6024 Y31.2575 
G01 X16.4587 Y31.1615 
G01 X16.3365 Y31.0393 
G01 X16.2405 Y30.8956 
G01 X16.1743 Y30.7359 
G01 X16.1406 Y30.5664 
G01 X16.1406 Y30.3936 
G01 X16.1743 Y30.2241 
G01 X16.2405 Y30.0644 
G01 X16.3365 Y29.9207 
G01 X16.4587 Y29.7985 
G01 X16.6024 Y29.7025 
G01 X16.7621 Y29.6363 
G01 X16.9316 Y29.6026 
G00 Z2.5400 
G00 X16.9316 Y27.0626 
G01 Z-0.1500 F254.00 
G01 X18.6284 Y27.0626 F508.00 
G01 X18.7979 Y27.0963 
G01 X18.9576 Y27.1625 
G01 X19.1013 Y27.2585 
G01 X19.2235 Y27.3807 
G01 X19.3195 Y27.5244 
G01 X19.3857 Y27.6841 
G01 X19.4194 Y27.8536 
G01 X19.4194 Y28.0264 
G01 X19.3857 Y28.1959 
G01 X19.3195 Y28.3556 
G01 X19.2235 Y28.4993 
G01 X19.1013 Y28.6215 
G01 X18.9576 Y28.7175 
G01 X18.7979 Y28.7837 
G01 X18.6284 Y28.8174 
G01 X16.9316 Y28.8174 
G01 X16.7621 Y28.7837 
G01 X16.6024 Y28.7175 
G01 X16.4587 Y28.6215 
G01 X16.3365 Y28.4993 
G01 X16.2405 Y28.3556 
G01 X16.1743 Y28.1959 
G01 X16.1406 Y28.0264 
G01 X16.1406 Y27.8536 
G01 X16.1743 Y27.6841 
G01 X16.2405 Y27.5244 
G01 X16.3365 Y27.3807 
G01 X16.4587 Y27.2585 
G01 X16.6024 Y27.1625 
G01 X16.7621 Y27.0963 
G01 X16.9316 Y27.0626 
G00 Z2.5400 
G00 X16.9316 Y24.5226 
G01 Z-0.1500 F254.00 
G01 X18.6284 Y24.5226 F508.00 
G01 X18.7979 Y24.5563 
G01 X18.9576 Y24.6225 
G01 X19.1013 Y24.7185 
G01 X19.2235 Y24.8407 
G01 X19.3195 Y24.9844 
G01 X19.3857 Y25.1441 
G01 X19.4194 Y25.3136 
G01 X19.4194 Y25.4864 
G01 X19.3857 Y25.6559 
G01 X19.3195 Y25.8156 
G01 X19.2235 Y25.9593 
G01 X19.1013 Y26.0815 
G01 X18.9576 Y26.1775 
G01 X18.7979 Y26.2437 
G01 X18.6284 Y26.2774 
G01 X16.9316 Y26.2774 
G01 X16.7621 Y26.2437 
G01 X16.6024 Y26.1775 
G01 X16.4587 Y26.0815 
G01 X16.3365 Y25.9593 
G01 X16.2405 Y25.8156 
G01 X16.1743 Y25.6559 
G01 X16.1406 Y25.4864 
G01 X16.1406 Y25.3136 
G01 X16.1743 Y25.1441 
G01 X16.2405 Y24.9844 
G01 X16.3365 Y24.8407 
G01 X16.4587 Y24.7185 
G01 X16.6024 Y24.6225 
G01 X16.7621 Y24.5563 
G01 X16.9316 Y24.5226 
G00 Z2.5400 
G00 X16.9316 Y21.9826 
G01 Z-0.1500 F254.00 
G01 X18.6284 Y21.9826 F508.00 
G01 X18.7979 Y22.0163 
G01 X18.9576 Y22.0825 
G01 X19.1013 Y22.1785 
G01 X19.2235 Y22.3007 
G01 X19.3195 Y22.4444 
G01 X19.3857 Y22.6041 
G01 X19.4194 Y22.7736 
G01 X19.4194 Y22.9464 
G01 X19.3857 Y23.1159 
G01 X19.3195 Y23.2756 
G01 X19.2235 Y23.4193 
G01 X19.1013 Y23.5415 
G01 X18.9576 Y23.6375 
G01 X18.7979 Y23.7037 
G01 X18.6284 Y23.7374 
G01 X16.9316 Y23.7374 
G01 X16.7621 Y23.7037 
G01 X16.6024 Y23.6375 
G01 X16.4587 Y23.5415 
G01 X16.3365 Y23.4193 
G01 X16.2405 Y23.2756 
G01 X16.1743 Y23.1159 
G01 X16.1406 Y22.9464 
G01 X16.1406 Y22.7736 
G01 X16.1743 Y22.6041 
G01 X16.2405 Y22.4444 
G01 X16.3365 Y22.3007 
G01 X16.4587 Y22.1785 
G01 X16.6024 Y22.0825 
G01 X16.7621 Y22.0163 
G01 X16.9316 Y21.9826 
G00 Z2.5400 
G00 X73.2384 Y36.4374 
G01 Z-0.1500 F254.00 
G01 X71.5416 Y36.4374 F508.00 
G01 X71.3721 Y36.4037 
G01 X71.2124 Y36.3375 
G01 X71.0687 Y36.2415 
G01 X70.9465 Y36.1193 
G01 X70.8505 Y35.9756 
G01 X70.7843 Y35.8159 
G01 X70.7506 Y35.6464 
G01 X70.7506 Y35.4736 
G01 X70.7843 Y35.3041 
G01 X70.8505 Y35.1444 
G01 X70.9465 Y35.0007 
G01 X71.0687 Y34.8785 
G01 X71.2124 Y34.7825 
G01 X71.3721 Y34.7163 
G01 X71.5416 Y34.6826 
G01 X73.2384 Y34.6826 
G01 X73.4079 Y34.7163 
G01 X73.5676 Y34.7825 
G01 X73.7113 Y34.8785 
G01 X73.8335 Y35.0007 
G01 X73.9295 Y35.1444 
G01 X73.9957 Y35.3041 
G01 X74.0294 Y35.4736 
G01 X74.0294 Y35.6464 
G01 X73.9957 Y35.8159 
G01 X73.9295 Y35.9756 
G01 X73.8335 Y36.1193 
G01 X73.7113 Y36.2415 
G01 X73.5676 Y36.3375 
G01 X73.4079 Y36.4037 
G01 X73.2384 Y36.4374 
G00 Z2.5400 
G00 X73.2384 Y38.9774 
G01 Z-0.1500 F254.00 
G01 X71.5416 Y38.9774 F508.00 
G01 X71.3721 Y38.9437 
G01 X71.2124 Y38.8775 
G01 X71.0687 Y38.7815 
G01 X70.9465 Y38.6593 
G01 X70.8505 Y38.5156 
G01 X70.7843 Y38.3559 
G01 X70.7506 Y38.1864 
G01 X70.7506 Y38.0136 
G01 X70.7843 Y37.8441 
G01 X70.8505 Y37.6844 
G01 X70.9465 Y37.5407 
G01 X71.0687 Y37.4185 
G01 X71.2124 Y37.3225 
G01 X71.3721 Y37.2563 
G01 X71.5416 Y37.2226 
G01 X73.2384 Y37.2226 
G01 X73.4079 Y37.2563 
G01 X73.5676 Y37.3225 
G01 X73.7113 Y37.4185 
G01 X73.8335 Y37.5407 
G01 X73.9295 Y37.6844 
G01 X73.9957 Y37.8441 
G01 X74.0294 Y38.0136 
G01 X74.0294 Y38.1864 
G01 X73.9957 Y38.3559 
G01 X73.9295 Y38.5156 
G01 X73.8335 Y38.6593 
G01 X73.7113 Y38.7815 
G01 X73.5676 Y38.8775 
G01 X73.4079 Y38.9437 
G01 X73.2384 Y38.9774 
G00 Z2.5400 
G00 X73.2384 Y41.5174 
G01 Z-0.1500 F254.00 
G01 X71.5416 Y41.5174 F508.00 
G01 X71.3721 Y41.4837 
G01 X71.2124 Y41.4175 
G01 X71.0687 Y41.3215 
G01 X70.9465 Y41.1993 
G01 X70.8505 Y41.0556 
G01 X70.7843 Y40.8959 
G01 X70.7506 Y40.7264 
G01 X70.7506 Y40.5536 
G01 X70.7843 Y40.3841 
G01 X70.8505 Y40.2244 
G01 X70.9465 Y40.0807 
G01 X71.0687 Y39.9585 
G01 X71.2124 Y39.8625 
G01 X71.3721 Y39.7963 
G01 X71.5416 Y39.7626 
G01 X73.2384 Y39.7626 
G01 X73.4079 Y39.7963 
G01 X73.5676 Y39.8625 
G01 X73.7113 Y39.9585 
G01 X73.8335 Y40.0807 
G01 X73.9295 Y40.2244 
G01 X73.9957 Y40.3841 
G01 X74.0294 Y40.5536 
G01 X74.0294 Y40.7264 
G01 X73.9957 Y40.8959 
G01 X73.9295 Y41.0556 
G01 X73.8335 Y41.1993 
G01 X73.7113 Y41.3215 
G01 X73.5676 Y41.4175 
G01 X73.4079 Y41.4837 
G01 X73.2384 Y41.5174 
G00 Z2.5400 
G00 X73.2384 Y44.0574 
G01 Z-0.1500 F254.00 
G01 X71.5416 Y44.0574 F508.00 
G01 X71.3721 Y44.0237 
G01 X71.2124 Y43.9575 
G01 X71.0687 Y43.8615 
G01 X70.9465 Y43.7393 
G01 X70.8505 Y43.5956 
G01 X70.7843 Y43.4359 
G01 X70.7506 Y43.2664 
G01 X70.7506 Y43.0936 
G01 X70.7843 Y42.9241 
G01 X70.8505 Y42.7644 
G01 X70.9465 Y42.6207 
G01 X71.0687 Y42.4985 
G01 X71.2124 Y42.4025 
G01 X71.3721 Y42.3363 
G01 X71.5416 Y42.3026 
G01 X73.2384 Y42.3026 
G01 X73.4079 Y42.3363 
G01 X73.5676 Y42.4025 
G01 X73.7113 Y42.4985 
G01 X73.8335 Y42.6207 
G01 X73.9295 Y42.7644 
G01 X73.9957 Y42.9241 
G01 X74.0294 Y43.0936 
G01 X74.0294 Y43.2664 
G01 X73.9957 Y43.4359 
G01 X73.9295 Y43.5956 
G01 X73.8335 Y43.7393 
G01 X73.7113 Y43.8615 
G01 X73.5676 Y43.9575 
G01 X73.4079 Y44.0237 
G01 X73.2384 Y44.0574 
G00 Z2.5400 
G00 X73.2384 Y5.9574 
G01 Z-0.1500 F254.00 
G01 X71.5416 Y5.9574 F508.00 
G01 X71.3721 Y5.9237 
G01 X71.2124 Y5.8575 
G01 X71.0687 Y5.7615 
G01 X70.9465 Y5.6393 
G01 X70.8505 Y5.4956 
G01 X70.7843 Y5.3359 
G01 X70.7506 Y5.1664 
G01 X70.7506 Y4.9936 
G01 X70.7843 Y4.8241 
G01 X70.8505 Y4.6644 
G01 X70.9465 Y4.5207 
G01 X71.0687 Y4.3985 
G01 X71.2124 Y4.3025 
G01 X71.3721 Y4.2363 
G01 X71.5416 Y4.2026 
G01 X73.2384 Y4.2026 
G01 X73.4079 Y4.2363 
G01 X73.5676 Y4.3025 
G01 X73.7113 Y4.3985 
G01 X73.8335 Y4.5207 
G01 X73.9295 Y4.6644 
G01 X73.9957 Y4.8241 
G01 X74.0294 Y4.9936 
G01 X74.0294 Y5.1664 
G01 X73.9957 Y5.3359 
G01 X73.9295 Y5.4956 
G01 X73.8335 Y5.6393 
G01 X73.7113 Y5.7615 
G01 X73.5676 Y5.8575 
G01 X73.4079 Y5.9237 
G01 X73.2384 Y5.9574 
G00 Z2.5400 
G00 X73.2384 Y8.4974 
G01 Z-0.1500 F254.00 
G01 X71.5416 Y8.4974 F508.00 
G01 X71.3721 Y8.4637 
G01 X71.2124 Y8.3975 
G01 X71.0687 Y8.3015 
G01 X70.9465 Y8.1793 
G01 X70.8505 Y8.0356 
G01 X70.7843 Y7.8759 
G01 X70.7506 Y7.7064 
G01 X70.7506 Y7.5336 
G01 X70.7843 Y7.3641 
G01 X70.8505 Y7.2044 
G01 X70.9465 Y7.0607 
G01 X71.0687 Y6.9385 
G01 X71.2124 Y6.8425 
G01 X71.3721 Y6.7763 
G01 X71.5416 Y6.7426 
G01 X73.2384 Y6.7426 
G01 X73.4079 Y6.7763 
G01 X73.5676 Y6.8425 
G01 X73.7113 Y6.9385 
G01 X73.8335 Y7.0607 
G01 X73.9295 Y7.2044 
G01 X73.9957 Y7.3641 
G01 X74.0294 Y7.5336 
G01 X74.0294 Y7.7064 
G01 X73.9957 Y7.8759 
G01 X73.9295 Y8.0356 
G01 X73.8335 Y8.1793 
G01 X73.7113 Y8.3015 
G01 X73.5676 Y8.3975 
G01 X73.4079 Y8.4637 
G01 X73.2384 Y8.4974 
G00 Z2.5400 
G00 X71.5416 Y11.0374 
G01 Z-0.1500 F254.00 
G01 X71.3721 Y11.0037 F508.00 
G01 X71.2124 Y10.9375 
G01 X71.0687 Y10.8415 
G01 X70.9465 Y10.7193 
G01 X70.8505 Y10.5756 
G01 X70.7843 Y10.4159 
G01 X70.7506 Y10.2464 
G01 X70.7506 Y10.0736 
G01 X70.7843 Y9.9041 
G01 X70.8505 Y9.7444 
G01 X70.9465 Y9.6007 
G01 X71.0687 Y9.4785 
G01 X71.2124 Y9.3825 
G01 X71.3721 Y9.3163 
G01 X71.5416 Y9.2826 
G01 X73.2384 Y9.2826 
G01 X73.4079 Y9.3163 
G01 X73.5676 Y9.3825 
G01 X73.7113 Y9.4785 
G01 X73.8335 Y9.6007 
G01 X73.9295 Y9.7444 
G01 X73.9957 Y9.9041 
G01 X74.0294 Y10.0736 
G01 X74.0294 Y10.2464 
G01 X73.9957 Y10.4159 
G01 X73.9295 Y10.5756 
G01 X73.8335 Y10.7193 
G01 X73.7113 Y10.8415 
G01 X73.5676 Y10.9375 
G01 X73.5643 Y10.9389 
G01 X74.6630 Y12.0376 
G01 X74.7124 Y12.0870 
G01 X74.7473 Y12.1476 
G01 X74.7654 Y12.2151 
G01 X74.7654 Y13.0349 
G01 X74.7473 Y13.1024 
G01 X74.7124 Y13.1630 
G01 X73.4582 Y14.4171 
G01 X73.5676 Y14.4625 
G01 X73.7113 Y14.5585 
G01 X73.8335 Y14.6807 
G01 X73.9295 Y14.8244 
G01 X73.9957 Y14.9841 
G01 X74.0294 Y15.1536 
G01 X74.0294 Y15.3264 
G01 X73.9957 Y15.4959 
G01 X73.9295 Y15.6556 
G01 X73.8335 Y15.7993 
G01 X73.7113 Y15.9215 
G01 X73.6127 Y15.9874 
G01 X74.6630 Y17.0376 
G01 X74.7124 Y17.0870 
G01 X74.7473 Y17.1476 
G01 X74.7654 Y17.2151 
G01 X74.7654 Y22.3901 
G01 X79.4624 Y27.0870 
G01 X79.4973 Y27.1476 
G01 X79.5154 Y27.2151 
G01 X79.5154 Y50.0349 
G01 X79.4973 Y50.1024 
G01 X79.4624 Y50.1630 
G01 X79.4130 Y50.2124 
G01 X79.0354 Y50.5899 
G01 X79.0354 Y51.6930 
G01 X79.0178 Y51.7354 
G01 X78.9854 Y51.7678 
G01 X78.9430 Y51.7854 
G01 X77.8970 Y51.7854 
G01 X77.8546 Y51.7678 
G01 X77.8222 Y51.7354 
G01 X77.8046 Y51.6930 
G01 X77.8046 Y50.2470 
G01 X77.8222 Y50.2046 
G01 X77.8546 Y50.1722 
G01 X77.8970 Y50.1546 
G01 X78.7201 Y50.1546 
G01 X78.9846 Y49.8901 
G01 X78.9846 Y27.3599 
G01 X74.3370 Y22.7124 
G01 X74.2876 Y22.6630 
G01 X72.8221 Y21.1974 
G01 X71.5416 Y21.1974 
G01 X71.3721 Y21.1637 
G01 X71.2124 Y21.0975 
G01 X71.0687 Y21.0015 
G01 X70.9465 Y20.8793 
G01 X70.8505 Y20.7356 
G01 X70.7843 Y20.5759 
G01 X70.7506 Y20.4064 
G01 X70.7506 Y20.2336 
G01 X70.7843 Y20.0641 
G01 X70.8505 Y19.9044 
G01 X70.9465 Y19.7607 
G01 X71.0687 Y19.6385 
G01 X71.2124 Y19.5425 
G01 X71.3721 Y19.4763 
G01 X71.5416 Y19.4426 
G01 X73.2384 Y19.4426 
G01 X73.4079 Y19.4763 
G01 X73.5676 Y19.5425 
G01 X73.7113 Y19.6385 
G01 X73.8335 Y19.7607 
G01 X73.9295 Y19.9044 
G01 X73.9957 Y20.0641 
G01 X74.0294 Y20.2336 
G01 X74.0294 Y20.4064 
G01 X73.9957 Y20.5759 
G01 X73.9295 Y20.7356 
G01 X73.8335 Y20.8793 
G01 X73.7113 Y21.0015 
G01 X73.5676 Y21.0975 
G01 X73.5006 Y21.1253 
G01 X74.2346 Y21.8593 
G01 X74.2346 Y17.3599 
G01 X72.9921 Y16.1174 
G01 X71.5416 Y16.1174 
G01 X71.3721 Y16.0837 
G01 X71.2124 Y16.0175 
G01 X71.0687 Y15.9215 
G01 X70.9465 Y15.7993 
G01 X70.8505 Y15.6556 
G01 X70.7843 Y15.4959 
G01 X70.7506 Y15.3264 
G01 X70.7506 Y15.1536 
G01 X70.7843 Y14.9841 
G01 X70.8505 Y14.8244 
G01 X70.9465 Y14.6807 
G01 X71.0687 Y14.5585 
G01 X71.2124 Y14.4625 
G01 X71.3721 Y14.3963 
G01 X71.5416 Y14.3626 
G01 X72.7621 Y14.3626 
G01 X74.2346 Y12.8901 
G01 X74.2346 Y12.3599 
G01 X72.9121 Y11.0374 
G01 X71.5416 Y11.0374 
G00 Z2.5400 
G00 X73.2384 Y18.6574 
G01 Z-0.1500 F254.00 
G01 X71.5416 Y18.6574 F508.00 
G01 X71.3721 Y18.6237 
G01 X71.2124 Y18.5575 
G01 X71.0687 Y18.4615 
G01 X70.9465 Y18.3393 
G01 X70.8505 Y18.1956 
G01 X70.7843 Y18.0359 
G01 X70.7506 Y17.8664 
G01 X70.7506 Y17.6936 
G01 X70.7843 Y17.5241 
G01 X70.8505 Y17.3644 
G01 X70.9465 Y17.2207 
G01 X71.0687 Y17.0985 
G01 X71.2124 Y17.0025 
G01 X71.3721 Y16.9363 
G01 X71.5416 Y16.9026 
G01 X73.2384 Y16.9026 
G01 X73.4079 Y16.9363 
G01 X73.5676 Y17.0025 
G01 X73.7113 Y17.0985 
G01 X73.8335 Y17.2207 
G01 X73.9295 Y17.3644 
G01 X73.9957 Y17.5241 
G01 X74.0294 Y17.6936 
G01 X74.0294 Y17.8664 
G01 X73.9957 Y18.0359 
G01 X73.9295 Y18.1956 
G01 X73.8335 Y18.3393 
G01 X73.7113 Y18.4615 
G01 X73.5676 Y18.5575 
G01 X73.4079 Y18.6237 
G01 X73.2384 Y18.6574 
G00 Z2.5400 
G00 X73.2384 Y23.7374 
G01 Z-0.1500 F254.00 
G01 X71.5416 Y23.7374 F508.00 
G01 X71.3721 Y23.7037 
G01 X71.2124 Y23.6375 
G01 X71.0687 Y23.5415 
G01 X70.9465 Y23.4193 
G01 X70.8505 Y23.2756 
G01 X70.7843 Y23.1159 
G01 X70.7506 Y22.9464 
G01 X70.7506 Y22.7736 
G01 X70.7843 Y22.6041 
G01 X70.8505 Y22.4444 
G01 X70.9465 Y22.3007 
G01 X71.0687 Y22.1785 
G01 X71.2124 Y22.0825 
G01 X71.3721 Y22.0163 
G01 X71.5416 Y21.9826 
G01 X73.2384 Y21.9826 
G01 X73.4079 Y22.0163 
G01 X73.5676 Y22.0825 
G01 X73.7113 Y22.1785 
G01 X73.8335 Y22.3007 
G01 X73.9295 Y22.4444 
G01 X73.9957 Y22.6041 
G01 X74.0294 Y22.7736 
G01 X74.0294 Y22.9464 
G01 X73.9957 Y23.1159 
G01 X73.9295 Y23.2756 
G01 X73.8335 Y23.4193 
G01 X73.7113 Y23.5415 
G01 X73.5676 Y23.6375 
G01 X73.4079 Y23.7037 
G01 X73.2384 Y23.7374 
G00 Z2.5400 
G00 X4.0024 Y10.3240 
G01 Z-0.1500 F254.00 
G01 X6.1576 Y10.3240 F508.00 
G01 X6.3296 Y10.3512 
G01 X6.4952 Y10.4050 
G01 X6.6503 Y10.4841 
G01 X6.7911 Y10.5864 
G01 X6.9142 Y10.7095 
G01 X7.0165 Y10.8503 
G01 X7.0956 Y11.0054 
G01 X7.1494 Y11.1710 
G01 X7.1766 Y11.3430 
G01 X7.1766 Y11.5170 
G01 X7.1494 Y11.6890 
G01 X7.0956 Y11.8546 
G01 X7.0165 Y12.0097 
G01 X6.9142 Y12.1505 
G01 X6.7911 Y12.2736 
G01 X6.6503 Y12.3759 
G01 X6.4952 Y12.4550 
G01 X6.3296 Y12.5088 
G01 X6.1576 Y12.5360 
G01 X5.0154 Y12.5360 
G01 X5.0154 Y32.6401 
G01 X9.3576 Y36.9823 
G01 X9.3825 Y36.9224 
G01 X9.4785 Y36.7787 
G01 X9.6007 Y36.6565 
G01 X9.7444 Y36.5605 
G01 X9.9041 Y36.4943 
G01 X10.0736 Y36.4606 
G01 X10.2464 Y36.4606 
G01 X10.4159 Y36.4943 
G01 X10.5756 Y36.5605 
G01 X10.7193 Y36.6565 
G01 X10.8415 Y36.7787 
G01 X10.9375 Y36.9224 
G01 X11.0037 Y37.0821 
G01 X11.0374 Y37.2516 
G01 X11.0374 Y38.9484 
G01 X11.0037 Y39.1179 
G01 X10.9375 Y39.2776 
G01 X10.8415 Y39.4213 
G01 X10.7193 Y39.5435 
G01 X10.5756 Y39.6395 
G01 X10.4159 Y39.7057 
G01 X10.2464 Y39.7394 
G01 X10.0736 Y39.7394 
G01 X9.9041 Y39.7057 
G01 X9.7444 Y39.6395 
G01 X9.6007 Y39.5435 
G01 X9.4785 Y39.4213 
G01 X9.3825 Y39.2776 
G01 X9.3163 Y39.1179 
G01 X9.2826 Y38.9484 
G01 X9.2826 Y37.6579 
G01 X4.5870 Y32.9624 
G01 X4.5376 Y32.9130 
G01 X4.5027 Y32.8524 
G01 X4.4846 Y32.7849 
G01 X4.4846 Y12.5360 
G01 X4.0024 Y12.5360 
G01 X3.8304 Y12.5088 
G01 X3.6648 Y12.4550 
G01 X3.5097 Y12.3759 
G01 X3.3689 Y12.2736 
G01 X3.2458 Y12.1505 
G01 X3.1435 Y12.0097 
G01 X3.0644 Y11.8546 
G01 X3.0106 Y11.6890 
G01 X2.9834 Y11.5170 
G01 X2.9834 Y11.3430 
G01 X3.0106 Y11.1710 
G01 X3.0644 Y11.0054 
G01 X3.1435 Y10.8503 
G01 X3.2458 Y10.7095 
G01 X3.3689 Y10.5864 
G01 X3.5097 Y10.4841 
G01 X3.6648 Y10.4050 
G01 X3.8304 Y10.3512 
G01 X4.0024 Y10.3240 
G00 Z2.5400 
G00 X29.4016 Y57.0686 
G01 Z-0.1500 F254.00 
G01 X29.4016 Y57.2314 F508.00 
G01 X29.3698 Y57.3911 
G01 X29.3075 Y57.5415 
G01 X29.2171 Y57.6769 
G01 X29.1019 Y57.7921 
G01 X28.9665 Y57.8825 
G01 X28.8161 Y57.9448 
G01 X28.6564 Y57.9766 
G01 X28.4936 Y57.9766 
G01 X28.3339 Y57.9448 
G01 X28.1835 Y57.8825 
G01 X28.0481 Y57.7921 
G01 X27.9329 Y57.6769 
G01 X27.8425 Y57.5415 
G01 X27.7802 Y57.3911 
G01 X27.7484 Y57.2314 
G01 X27.7484 Y57.0686 
G01 X27.7802 Y56.9089 
G01 X27.8425 Y56.7585 
G01 X27.9329 Y56.6231 
G01 X28.0481 Y56.5079 
G01 X28.1835 Y56.4175 
G01 X28.3339 Y56.3552 
G01 X28.4846 Y56.3252 
G01 X28.4846 Y52.7854 
G01 X28.4170 Y52.7854 
G01 X28.3746 Y52.7678 
G01 X28.3422 Y52.7354 
G01 X28.3246 Y52.6930 
G01 X28.3246 Y51.4470 
G01 X28.3422 Y51.4046 
G01 X28.3746 Y51.3722 
G01 X28.4170 Y51.3546 
G01 X29.2630 Y51.3546 
G01 X29.3054 Y51.3722 
G01 X29.3378 Y51.4046 
G01 X29.3554 Y51.4470 
G01 X29.3554 Y51.7346 
G01 X31.6046 Y51.7346 
G01 X31.6046 Y51.4470 
G01 X31.6222 Y51.4046 
G01 X31.6546 Y51.3722 
G01 X31.6970 Y51.3546 
G01 X32.5430 Y51.3546 
G01 X32.5854 Y51.3722 
G01 X32.6178 Y51.4046 
G01 X32.6354 Y51.4470 
G01 X32.6354 Y52.6930 
G01 X32.6178 Y52.7354 
G01 X32.5854 Y52.7678 
G01 X32.5430 Y52.7854 
G01 X31.6970 Y52.7854 
G01 X31.6546 Y52.7678 
G01 X31.6222 Y52.7354 
G01 X31.6046 Y52.6930 
G01 X31.6046 Y52.2654 
G01 X29.3554 Y52.2654 
G01 X29.3554 Y52.6930 
G01 X29.3378 Y52.7354 
G01 X29.3054 Y52.7678 
G01 X29.2630 Y52.7854 
G01 X29.0154 Y52.7854 
G01 X29.0154 Y56.4501 
G01 X29.1019 Y56.5079 
G01 X29.2171 Y56.6231 
G01 X29.3075 Y56.7585 
G01 X29.3698 Y56.9089 
G01 X29.4016 Y57.0686 
G00 Z2.5400 
G00 X8.4974 Y37.2516 
G01 Z-0.1500 F254.00 
G01 X8.4974 Y38.9484 F508.00 
G01 X8.4637 Y39.1179 
G01 X8.3975 Y39.2776 
G01 X8.3015 Y39.4213 
G01 X8.1793 Y39.5435 
G01 X8.0356 Y39.6395 
G01 X7.8759 Y39.7057 
G01 X7.7654 Y39.7277 
G01 X7.7654 Y44.3901 
G01 X9.1378 Y45.7624 
G01 X9.1961 Y45.7327 
G01 X9.3541 Y45.6814 
G01 X9.5182 Y45.6554 
G01 X9.6842 Y45.6554 
G01 X9.8483 Y45.6814 
G01 X10.0063 Y45.7327 
G01 X10.1542 Y45.8081 
G01 X10.2886 Y45.9057 
G01 X10.4061 Y46.0232 
G01 X10.5037 Y46.1576 
G01 X10.5791 Y46.3055 
G01 X10.6304 Y46.4635 
G01 X10.6564 Y46.6275 
G01 X10.6564 Y46.7936 
G01 X10.6304 Y46.9577 
G01 X10.5791 Y47.1157 
G01 X10.5037 Y47.2636 
G01 X10.4061 Y47.3980 
G01 X10.2886 Y47.5155 
G01 X10.1542 Y47.6131 
G01 X10.0063 Y47.6885 
G01 X9.8483 Y47.7398 
G01 X9.6842 Y47.7658 
G01 X9.5182 Y47.7658 
G01 X9.3541 Y47.7398 
G01 X9.1961 Y47.6885 
G01 X9.0482 Y47.6131 
G01 X8.9138 Y47.5155 
G01 X8.7963 Y47.3980 
G01 X8.6987 Y47.2636 
G01 X8.6233 Y47.1157 
G01 X8.5720 Y46.9577 
G01 X8.5460 Y46.7936 
G01 X8.5460 Y46.6275 
G01 X8.5720 Y46.4635 
G01 X8.6233 Y46.3055 
G01 X8.6987 Y46.1576 
G01 X8.7339 Y46.1092 
G01 X7.2876 Y44.6630 
G01 X7.2527 Y44.6024 
G01 X7.2346 Y44.5349 
G01 X7.2346 Y39.6520 
G01 X7.2044 Y39.6395 
G01 X7.0607 Y39.5435 
G01 X6.9385 Y39.4213 
G01 X6.8425 Y39.2776 
G01 X6.7763 Y39.1179 
G01 X6.7426 Y38.9484 
G01 X6.7426 Y37.2516 
G01 X6.7763 Y37.0821 
G01 X6.8425 Y36.9224 
G01 X6.9385 Y36.7787 
G01 X7.0607 Y36.6565 
G01 X7.2044 Y36.5605 
G01 X7.3641 Y36.4943 
G01 X7.5336 Y36.4606 
G01 X7.7064 Y36.4606 
G01 X7.8759 Y36.4943 
G01 X8.0356 Y36.5605 
G01 X8.1793 Y36.6565 
G01 X8.3015 Y36.7787 
G01 X8.3975 Y36.9224 
G01 X8.4637 Y37.0821 
G01 X8.4974 Y37.2516 
G00 Z2.5400 
G00 X62.7644 Y62.5178 
G01 Z-0.1500 F254.00 
G01 X62.7644 Y62.9846 F508.00 
G01 X66.3901 Y62.9846 
G01 X70.9846 Y58.3901 
G01 X70.9846 Y52.8599 
G01 X70.9101 Y52.7854 
G01 X70.3270 Y52.7854 
G01 X70.2846 Y52.7678 
G01 X70.2522 Y52.7354 
G01 X70.2346 Y52.6930 
G01 X70.2346 Y51.4470 
G01 X70.2522 Y51.4046 
G01 X70.2846 Y51.3722 
G01 X70.3270 Y51.3546 
G01 X70.4846 Y51.3546 
G01 X70.4846 Y48.9754 
G01 X70.3270 Y48.9754 
G01 X70.2846 Y48.9578 
G01 X70.2522 Y48.9254 
G01 X70.2346 Y48.8830 
G01 X70.2346 Y48.1099 
G01 X65.4981 Y43.3734 
G01 X65.4386 Y43.3734 
G01 X65.3182 Y43.3494 
G01 X65.2047 Y43.3024 
G01 X65.1026 Y43.2342 
G01 X65.0158 Y43.1474 
G01 X64.9476 Y43.0453 
G01 X64.9006 Y42.9318 
G01 X64.8766 Y42.8114 
G01 X64.8766 Y42.6886 
G01 X64.9006 Y42.5682 
G01 X64.9476 Y42.4547 
G01 X64.9846 Y42.3993 
G01 X64.9846 Y28.6099 
G01 X63.8901 Y27.5154 
G01 X49.7654 Y27.5154 
G01 X49.7654 Y32.0349 
G01 X49.7473 Y32.1024 
G01 X49.7124 Y32.1630 
G01 X49.6630 Y32.2124 
G01 X49.0358 Y32.8395 
G01 X49.0358 Y33.7568 
G01 X49.0060 Y33.9067 
G01 X48.9475 Y34.0479 
G01 X48.8626 Y34.1749 
G01 X48.7545 Y34.2830 
G01 X48.6275 Y34.3679 
G01 X48.4863 Y34.4264 
G01 X48.3364 Y34.4562 
G01 X48.1836 Y34.4562 
G01 X48.0337 Y34.4264 
G01 X47.8925 Y34.3679 
G01 X47.7655 Y34.2830 
G01 X47.6574 Y34.1749 
G01 X47.5725 Y34.0479 
G01 X47.5140 Y33.9067 
G01 X47.4842 Y33.7568 
G01 X47.4842 Y32.2832 
G01 X47.5140 Y32.1333 
G01 X47.5725 Y31.9921 
G01 X47.6574 Y31.8651 
G01 X47.7655 Y31.7570 
G01 X47.8925 Y31.6721 
G01 X48.0337 Y31.6136 
G01 X48.1836 Y31.5838 
G01 X48.3364 Y31.5838 
G01 X48.4863 Y31.6136 
G01 X48.6275 Y31.6721 
G01 X48.7545 Y31.7570 
G01 X48.8626 Y31.8651 
G01 X48.9475 Y31.9921 
G01 X49.0017 Y32.1230 
G01 X49.2346 Y31.8901 
G01 X49.2346 Y24.3599 
G01 X45.7654 Y20.8907 
G01 X45.7654 Y23.0349 
G01 X45.7473 Y23.1024 
G01 X45.7124 Y23.1630 
G01 X45.6630 Y23.2124 
G01 X43.9558 Y24.9195 
G01 X43.9558 Y26.1368 
G01 X43.9260 Y26.2867 
G01 X43.8675 Y26.4279 
G01 X43.7826 Y26.5549 
G01 X43.6745 Y26.6630 
G01 X43.5475 Y26.7479 
G01 X43.4063 Y26.8064 
G01 X43.2564 Y26.8362 
G01 X43.1036 Y26.8362 
G01 X42.9537 Y26.8064 
G01 X42.8125 Y26.7479 
G01 X42.6855 Y26.6630 
G01 X42.5774 Y26.5549 
G01 X42.4925 Y26.4279 
G01 X42.4340 Y26.2867 
G01 X42.4042 Y26.1368 
G01 X42.4042 Y24.6632 
G01 X42.4340 Y24.5133 
G01 X42.4925 Y24.3721 
G01 X42.5774 Y24.2451 
G01 X42.6855 Y24.1370 
G01 X42.8125 Y24.0521 
G01 X42.9537 Y23.9936 
G01 X43.1036 Y23.9638 
G01 X43.2564 Y23.9638 
G01 X43.4063 Y23.9936 
G01 X43.5475 Y24.0521 
G01 X43.6745 Y24.1370 
G01 X43.7826 Y24.2451 
G01 X43.8215 Y24.3032 
G01 X45.2346 Y22.8901 
G01 X45.2346 Y6.5729 
G01 X45.1607 Y6.5235 
G01 X45.0385 Y6.4013 
G01 X44.9425 Y6.2576 
G01 X44.8763 Y6.0979 
G01 X44.8426 Y5.9284 
G01 X44.8426 Y4.2316 
G01 X44.8763 Y4.0621 
G01 X44.9425 Y3.9024 
G01 X45.0385 Y3.7587 
G01 X45.1607 Y3.6365 
G01 X45.3044 Y3.5405 
G01 X45.4641 Y3.4743 
G01 X45.6336 Y3.4406 
G01 X45.8064 Y3.4406 
G01 X45.9759 Y3.4743 
G01 X46.1356 Y3.5405 
G01 X46.2793 Y3.6365 
G01 X46.4015 Y3.7587 
G01 X46.4975 Y3.9024 
G01 X46.5637 Y4.0621 
G01 X46.5974 Y4.2316 
G01 X46.5974 Y5.9284 
G01 X46.5637 Y6.0979 
G01 X46.4975 Y6.2576 
G01 X46.4015 Y6.4013 
G01 X46.2793 Y6.5235 
G01 X46.1356 Y6.6195 
G01 X45.9759 Y6.6857 
G01 X45.8064 Y6.7194 
G01 X45.7654 Y6.7194 
G01 X45.7654 Y20.1401 
G01 X49.7124 Y24.0870 
G01 X49.7473 Y24.1476 
G01 X49.7654 Y24.2151 
G01 X49.7654 Y26.9846 
G01 X63.8901 Y26.9846 
G01 X64.4846 Y26.3901 
G01 X64.4846 Y20.2151 
G01 X64.5027 Y20.1476 
G01 X64.5376 Y20.0870 
G01 X64.5870 Y20.0376 
G01 X71.1733 Y13.4514 
G01 X71.0687 Y13.3815 
G01 X70.9465 Y13.2593 
G01 X70.8505 Y13.1156 
G01 X70.7843 Y12.9559 
G01 X70.7506 Y12.7864 
G01 X70.7506 Y12.6136 
G01 X70.7843 Y12.4441 
G01 X70.8505 Y12.2844 
G01 X70.9465 Y12.1407 
G01 X71.0687 Y12.0185 
G01 X71.2124 Y11.9225 
G01 X71.3721 Y11.8563 
G01 X71.5416 Y11.8226 
G01 X73.2384 Y11.8226 
G01 X73.4079 Y11.8563 
G01 X73.5676 Y11.9225 
G01 X73.7113 Y12.0185 
G01 X73.8335 Y12.1407 
G01 X73.9295 Y12.2844 
G01 X73.9957 Y12.4441 
G01 X74.0294 Y12.6136 
G01 X74.0294 Y12.7864 
G01 X73.9957 Y12.9559 
G01 X73.9295 Y13.1156 
G01 X73.8335 Y13.2593 
G01 X73.7113 Y13.3815 
G01 X73.5676 Y13.4775 
G01 X73.4079 Y13.5437 
G01 X73.2384 Y13.5774 
G01 X71.7979 Y13.5774 
G01 X65.0154 Y20.3599 
G01 X65.0154 Y26.5349 
G01 X64.9973 Y26.6024 
G01 X64.9624 Y26.6630 
G01 X64.3753 Y27.2500 
G01 X65.4624 Y28.3370 
G01 X65.4973 Y28.3976 
G01 X65.5154 Y28.4651 
G01 X65.5154 Y42.1266 
G01 X65.5614 Y42.1266 
G01 X65.6818 Y42.1506 
G01 X65.7953 Y42.1975 
G01 X65.8974 Y42.2658 
G01 X65.9842 Y42.3526 
G01 X66.0524 Y42.4547 
G01 X66.0994 Y42.5682 
G01 X66.1234 Y42.6886 
G01 X66.1234 Y42.8114 
G01 X66.0994 Y42.9318 
G01 X66.0524 Y43.0453 
G01 X65.9996 Y43.1243 
G01 X70.4199 Y47.5446 
G01 X71.1730 Y47.5446 
G01 X71.2154 Y47.5622 
G01 X71.2478 Y47.5946 
G01 X71.2654 Y47.6370 
G01 X71.2654 Y48.8830 
G01 X71.2478 Y48.9254 
G01 X71.2154 Y48.9578 
G01 X71.1730 Y48.9754 
G01 X71.0154 Y48.9754 
G01 X71.0154 Y51.3546 
G01 X71.1730 Y51.3546 
G01 X71.2154 Y51.3722 
G01 X71.2478 Y51.4046 
G01 X71.2654 Y51.4470 
G01 X71.2654 Y52.3901 
G01 X71.4130 Y52.5376 
G01 X71.4624 Y52.5870 
G01 X71.4973 Y52.6476 
G01 X71.5154 Y52.7151 
G01 X71.5154 Y58.5349 
G01 X71.4973 Y58.6024 
G01 X71.4624 Y58.6630 
G01 X66.7124 Y63.4130 
G01 X66.6630 Y63.4624 
G01 X66.6024 Y63.4973 
G01 X66.5349 Y63.5154 
G01 X62.7644 Y63.5154 
G01 X62.7644 Y64.1422 
G01 X62.7319 Y64.3053 
G01 X62.6683 Y64.4590 
G01 X62.5759 Y64.5973 
G01 X62.4583 Y64.7149 
G01 X62.3200 Y64.8073 
G01 X62.1663 Y64.8709 
G01 X62.0032 Y64.9034 
G01 X61.8368 Y64.9034 
G01 X61.6737 Y64.8709 
G01 X61.5200 Y64.8073 
G01 X61.3817 Y64.7149 
G01 X61.2641 Y64.5973 
G01 X61.1717 Y64.4590 
G01 X61.1081 Y64.3053 
G01 X61.0756 Y64.1422 
G01 X61.0756 Y62.5178 
G01 X61.1081 Y62.3547 
G01 X61.1717 Y62.2010 
G01 X61.2641 Y62.0627 
G01 X61.3817 Y61.9451 
G01 X61.5200 Y61.8527 
G01 X61.6737 Y61.7891 
G01 X61.8368 Y61.7566 
G01 X62.0032 Y61.7566 
G01 X62.1663 Y61.7891 
G01 X62.3200 Y61.8527 
G01 X62.4583 Y61.9451 
G01 X62.5759 Y62.0627 
G01 X62.6683 Y62.2010 
G01 X62.7319 Y62.3547 
G01 X62.7644 Y62.5178 
G00 Z2.5400 
G00 X58.2644 Y62.5178 
G01 Z-0.1500 F254.00 
G01 X58.2644 Y64.1422 F508.00 
G01 X58.2319 Y64.3053 
G01 X58.1683 Y64.4590 
G01 X58.0759 Y64.5973 
G01 X57.9583 Y64.7149 
G01 X57.8200 Y64.8073 
G01 X57.6663 Y64.8709 
G01 X57.5032 Y64.9034 
G01 X57.3368 Y64.9034 
G01 X57.1737 Y64.8709 
G01 X57.0200 Y64.8073 
G01 X56.8817 Y64.7149 
G01 X56.7641 Y64.5973 
G01 X56.6717 Y64.4590 
G01 X56.6081 Y64.3053 
G01 X56.5756 Y64.1422 
G01 X56.5756 Y62.5178 
G01 X56.6081 Y62.3547 
G01 X56.6717 Y62.2010 
G01 X56.7641 Y62.0627 
G01 X56.8817 Y61.9451 
G01 X57.0200 Y61.8527 
G01 X57.1737 Y61.7891 
G01 X57.3368 Y61.7566 
G01 X57.5032 Y61.7566 
G01 X57.6663 Y61.7891 
G01 X57.8200 Y61.8527 
G01 X57.9583 Y61.9451 
G01 X58.0759 Y62.0627 
G01 X58.1683 Y62.2010 
G01 X58.2319 Y62.3547 
G01 X58.2644 Y62.5178 
G00 Z2.5400 
G00 X60.2644 Y62.5178 
G01 Z-0.1500 F254.00 
G01 X60.2644 Y64.1422 F508.00 
G01 X60.2319 Y64.3053 
G01 X60.1683 Y64.4590 
G01 X60.0759 Y64.5973 
G01 X59.9583 Y64.7149 
G01 X59.8200 Y64.8073 
G01 X59.6663 Y64.8709 
G01 X59.5032 Y64.9034 
G01 X59.3368 Y64.9034 
G01 X59.1737 Y64.8709 
G01 X59.0200 Y64.8073 
G01 X58.8817 Y64.7149 
G01 X58.7641 Y64.5973 
G01 X58.6717 Y64.4590 
G01 X58.6081 Y64.3053 
G01 X58.5756 Y64.1422 
G01 X58.5756 Y62.5178 
G01 X58.6081 Y62.3547 
G01 X58.6717 Y62.2010 
G01 X58.7641 Y62.0627 
G01 X58.8817 Y61.9451 
G01 X59.0200 Y61.8527 
G01 X59.1737 Y61.7891 
G01 X59.3368 Y61.7566 
G01 X59.5032 Y61.7566 
G01 X59.6663 Y61.7891 
G01 X59.8200 Y61.8527 
G01 X59.9583 Y61.9451 
G01 X60.0759 Y62.0627 
G01 X60.1683 Y62.2010 
G01 X60.2319 Y62.3547 
G01 X60.2644 Y62.5178 
G00 Z2.5400 
G00 X78.8854 Y46.3670 
G01 Z-0.1500 F254.00 
G01 X78.8854 Y47.6130 F508.00 
G01 X78.8678 Y47.6554 
G01 X78.8354 Y47.6878 
G01 X78.7930 Y47.7054 
G01 X77.9470 Y47.7054 
G01 X77.9046 Y47.6878 
G01 X77.8722 Y47.6554 
G01 X77.8546 Y47.6130 
G01 X77.8546 Y46.7299 
G01 X76.0870 Y44.9624 
G01 X76.0376 Y44.9130 
G01 X76.0027 Y44.8524 
G01 X75.9846 Y44.7849 
G01 X75.9846 Y35.5648 
G01 X75.9547 Y35.5524 
G01 X75.8526 Y35.4842 
G01 X75.7658 Y35.3974 
G01 X75.6976 Y35.2953 
G01 X75.6506 Y35.1818 
G01 X75.6266 Y35.0614 
G01 X75.6266 Y34.9386 
G01 X75.6506 Y34.8182 
G01 X75.6976 Y34.7047 
G01 X75.7658 Y34.6026 
G01 X75.8526 Y34.5158 
G01 X75.9547 Y34.4475 
G01 X76.0682 Y34.4006 
G01 X76.1886 Y34.3766 
G01 X76.3114 Y34.3766 
G01 X76.4318 Y34.4006 
G01 X76.5453 Y34.4475 
G01 X76.6474 Y34.5158 
G01 X76.7342 Y34.6026 
G01 X76.8024 Y34.7047 
G01 X76.8494 Y34.8182 
G01 X76.8734 Y34.9386 
G01 X76.8734 Y35.0614 
G01 X76.8494 Y35.1818 
G01 X76.8024 Y35.2953 
G01 X76.7342 Y35.3974 
G01 X76.6474 Y35.4842 
G01 X76.5453 Y35.5524 
G01 X76.5154 Y35.5648 
G01 X76.5154 Y44.6401 
G01 X78.1499 Y46.2746 
G01 X78.7930 Y46.2746 
G01 X78.8354 Y46.2922 
G01 X78.8678 Y46.3246 
G01 X78.8854 Y46.3670 
G00 Z2.5400 
G00 X77.1354 Y50.2470 
G01 Z-0.1500 F254.00 
G01 X77.1354 Y51.6930 F508.00 
G01 X77.1178 Y51.7354 
G01 X77.0854 Y51.7678 
G01 X77.0430 Y51.7854 
G01 X75.9970 Y51.7854 
G01 X75.9546 Y51.7678 
G01 X75.9222 Y51.7354 
G01 X75.9046 Y51.6930 
G01 X75.9046 Y50.2470 
G01 X75.9222 Y50.2046 
G01 X75.9546 Y50.1722 
G01 X75.9970 Y50.1546 
G01 X76.2346 Y50.1546 
G01 X76.2346 Y47.7054 
G01 X76.1470 Y47.7054 
G01 X76.1046 Y47.6878 
G01 X76.0722 Y47.6554 
G01 X76.0546 Y47.6130 
G01 X76.0546 Y46.3670 
G01 X76.0722 Y46.3246 
G01 X76.1046 Y46.2922 
G01 X76.1470 Y46.2746 
G01 X76.9930 Y46.2746 
G01 X77.0354 Y46.2922 
G01 X77.0678 Y46.3246 
G01 X77.0854 Y46.3670 
G01 X77.0854 Y47.6130 
G01 X77.0678 Y47.6554 
G01 X77.0354 Y47.6878 
G01 X76.9930 Y47.7054 
G01 X76.7654 Y47.7054 
G01 X76.7654 Y50.1546 
G01 X77.0430 Y50.1546 
G01 X77.0854 Y50.1722 
G01 X77.1178 Y50.2046 
G01 X77.1354 Y50.2470 
G00 Z2.5400 
G00 X78.0854 Y52.4470 
G01 Z-0.1500 F254.00 
G01 X78.0854 Y53.4601 F508.00 
G01 X80.9130 Y56.2876 
G01 X80.9624 Y56.3370 
G01 X80.9973 Y56.3976 
G01 X81.0154 Y56.4651 
G01 X81.0154 Y57.5696 
G01 X81.5480 Y57.5696 
G01 X81.5904 Y57.5872 
G01 X81.6228 Y57.6196 
G01 X81.6404 Y57.6620 
G01 X81.6404 Y59.1780 
G01 X81.6228 Y59.2204 
G01 X81.5904 Y59.2528 
G01 X81.5480 Y59.2704 
G01 X81.0154 Y59.2704 
G01 X81.0154 Y62.1695 
G01 X81.0426 Y62.1738 
G01 X81.2481 Y62.2406 
G01 X81.4407 Y62.3387 
G01 X81.6155 Y62.4657 
G01 X81.7682 Y62.6184 
G01 X81.8952 Y62.7932 
G01 X81.9933 Y62.9858 
G01 X82.0601 Y63.1913 
G01 X82.0939 Y63.4047 
G01 X82.0939 Y66.1353 
G01 X82.0601 Y66.3487 
G01 X81.9933 Y66.5542 
G01 X81.8952 Y66.7468 
G01 X81.7682 Y66.9216 
G01 X81.6155 Y67.0743 
G01 X81.4407 Y67.2013 
G01 X81.2481 Y67.2994 
G01 X81.0426 Y67.3662 
G01 X80.8292 Y67.4000 
G01 X80.6132 Y67.4000 
G01 X80.3998 Y67.3662 
G01 X80.1943 Y67.2994 
G01 X80.0017 Y67.2013 
G01 X79.8269 Y67.0743 
G01 X79.6742 Y66.9216 
G01 X79.5472 Y66.7468 
G01 X79.4491 Y66.5542 
G01 X79.3823 Y66.3487 
G01 X79.3485 Y66.1353 
G01 X79.3485 Y63.4047 
G01 X79.3823 Y63.1913 
G01 X79.4491 Y62.9858 
G01 X79.5472 Y62.7932 
G01 X79.6742 Y62.6184 
G01 X79.8269 Y62.4657 
G01 X80.0017 Y62.3387 
G01 X80.1943 Y62.2406 
G01 X80.3998 Y62.1738 
G01 X80.4846 Y62.1604 
G01 X80.4846 Y59.2704 
G01 X80.2320 Y59.2704 
G01 X80.1896 Y59.2528 
G01 X80.1572 Y59.2204 
G01 X80.1396 Y59.1780 
G01 X80.1396 Y57.6620 
G01 X80.1572 Y57.6196 
G01 X80.1896 Y57.5872 
G01 X80.2320 Y57.5696 
G01 X80.4846 Y57.5696 
G01 X80.4846 Y56.6099 
G01 X77.8601 Y53.9854 
G01 X76.9470 Y53.9854 
G01 X76.9046 Y53.9678 
G01 X76.8722 Y53.9354 
G01 X76.8546 Y53.8930 
G01 X76.8546 Y52.4470 
G01 X76.8722 Y52.4046 
G01 X76.9046 Y52.3722 
G01 X76.9470 Y52.3546 
G01 X77.9930 Y52.3546 
G01 X78.0354 Y52.3722 
G01 X78.0678 Y52.4046 
G01 X78.0854 Y52.4470 
G00 Z2.5400 
G00 X4.1540 Y46.6275 
G01 Z-0.1500 F254.00 
G01 X4.1540 Y46.7936 F508.00 
G01 X4.1280 Y46.9577 
G01 X4.0767 Y47.1157 
G01 X4.0013 Y47.2636 
G01 X3.9037 Y47.3980 
G01 X3.7862 Y47.5155 
G01 X3.6518 Y47.6131 
G01 X3.5039 Y47.6885 
G01 X3.3459 Y47.7398 
G01 X3.1818 Y47.7658 
G01 X3.0158 Y47.7658 
G01 X2.8517 Y47.7398 
G01 X2.6937 Y47.6885 
G01 X2.5458 Y47.6131 
G01 X2.4114 Y47.5155 
G01 X2.2939 Y47.3980 
G01 X2.1963 Y47.2636 
G01 X2.1209 Y47.1157 
G01 X2.0696 Y46.9577 
G01 X2.0436 Y46.7936 
G01 X2.0436 Y46.6275 
G01 X2.0696 Y46.4635 
G01 X2.1209 Y46.3055 
G01 X2.1963 Y46.1576 
G01 X2.2939 Y46.0232 
G01 X2.4114 Y45.9057 
G01 X2.5458 Y45.8081 
G01 X2.6937 Y45.7327 
G01 X2.8517 Y45.6814 
G01 X3.0158 Y45.6554 
G01 X3.1818 Y45.6554 
G01 X3.3459 Y45.6814 
G01 X3.5039 Y45.7327 
G01 X3.6518 Y45.8081 
G01 X3.7862 Y45.9057 
G01 X3.9037 Y46.0232 
G01 X4.0013 Y46.1576 
G01 X4.0767 Y46.3055 
G01 X4.1280 Y46.4635 
G01 X4.1540 Y46.6275 
G00 Z2.5400 
G00 X4.1540 Y42.1063 
G01 Z-0.1500 F254.00 
G01 X4.1540 Y42.2724 F508.00 
G01 X4.1280 Y42.4365 
G01 X4.0767 Y42.5945 
G01 X4.0013 Y42.7424 
G01 X3.9037 Y42.8768 
G01 X3.7862 Y42.9943 
G01 X3.6518 Y43.0919 
G01 X3.5039 Y43.1673 
G01 X3.3459 Y43.2186 
G01 X3.1818 Y43.2446 
G01 X3.0158 Y43.2446 
G01 X2.8517 Y43.2186 
G01 X2.6937 Y43.1673 
G01 X2.5458 Y43.0919 
G01 X2.4114 Y42.9943 
G01 X2.2939 Y42.8768 
G01 X2.1963 Y42.7424 
G01 X2.1209 Y42.5945 
G01 X2.0696 Y42.4365 
G01 X2.0436 Y42.2724 
G01 X2.0436 Y42.1063 
G01 X2.0696 Y41.9423 
G01 X2.1209 Y41.7843 
G01 X2.1963 Y41.6364 
G01 X2.2939 Y41.5020 
G01 X2.4114 Y41.3845 
G01 X2.5458 Y41.2869 
G01 X2.6937 Y41.2115 
G01 X2.8517 Y41.1602 
G01 X3.0158 Y41.1342 
G01 X3.1818 Y41.1342 
G01 X3.3459 Y41.1602 
G01 X3.5039 Y41.2115 
G01 X3.6518 Y41.2869 
G01 X3.7862 Y41.3845 
G01 X3.9037 Y41.5020 
G01 X4.0013 Y41.6364 
G01 X4.0767 Y41.7843 
G01 X4.1280 Y41.9423 
G01 X4.1540 Y42.1063 
G00 Z2.5400 
G00 X8.7446 Y56.5030 
G01 Z-0.1500 F254.00 
G01 X8.7446 Y55.2570 F508.00 
G01 X8.7622 Y55.2146 
G01 X8.7946 Y55.1822 
G01 X8.8370 Y55.1646 
G01 X9.6830 Y55.1646 
G01 X9.7254 Y55.1822 
G01 X9.7578 Y55.2146 
G01 X9.7754 Y55.2570 
G01 X9.7754 Y55.9001 
G01 X10.6099 Y56.7346 
G01 X13.2346 Y56.7346 
G01 X13.2346 Y46.1099 
G01 X10.1903 Y43.0657 
G01 X10.1542 Y43.0919 
G01 X10.0063 Y43.1673 
G01 X9.8483 Y43.2186 
G01 X9.6842 Y43.2446 
G01 X9.5182 Y43.2446 
G01 X9.3541 Y43.2186 
G01 X9.1961 Y43.1673 
G01 X9.0482 Y43.0919 
G01 X8.9138 Y42.9943 
G01 X8.7963 Y42.8768 
G01 X8.6987 Y42.7424 
G01 X8.6233 Y42.5945 
G01 X8.5720 Y42.4365 
G01 X8.5460 Y42.2724 
G01 X8.5460 Y42.1063 
G01 X8.5720 Y41.9423 
G01 X8.6233 Y41.7843 
G01 X8.6987 Y41.6364 
G01 X8.7963 Y41.5020 
G01 X8.9138 Y41.3845 
G01 X9.0482 Y41.2869 
G01 X9.1961 Y41.2115 
G01 X9.3541 Y41.1602 
G01 X9.5182 Y41.1342 
G01 X9.6842 Y41.1342 
G01 X9.8483 Y41.1602 
G01 X10.0063 Y41.2115 
G01 X10.1542 Y41.2869 
G01 X10.2886 Y41.3845 
G01 X10.4061 Y41.5020 
G01 X10.5037 Y41.6364 
G01 X10.5791 Y41.7843 
G01 X10.6304 Y41.9423 
G01 X10.6564 Y42.1063 
G01 X10.6564 Y42.2724 
G01 X10.6304 Y42.4365 
G01 X10.5791 Y42.5945 
G01 X10.5422 Y42.6669 
G01 X13.7124 Y45.8370 
G01 X13.7473 Y45.8976 
G01 X13.7654 Y45.9651 
G01 X13.7654 Y57.0349 
G01 X13.7473 Y57.1024 
G01 X13.7124 Y57.1630 
G01 X13.6630 Y57.2124 
G01 X13.6024 Y57.2473 
G01 X13.5349 Y57.2654 
G01 X10.4651 Y57.2654 
G01 X10.3976 Y57.2473 
G01 X10.3370 Y57.2124 
G01 X10.2876 Y57.1630 
G01 X9.7092 Y56.5845 
G01 X9.6830 Y56.5954 
G01 X8.8370 Y56.5954 
G01 X8.7946 Y56.5778 
G01 X8.7622 Y56.5454 
G01 X8.7446 Y56.5030 
G00 Z2.5400 
G00 X10.5446 Y56.5030 
G01 Z-0.1500 F254.00 
G01 X10.5446 Y55.6699 F508.00 
G01 X9.2500 Y54.3753 
G01 X8.5154 Y55.1099 
G01 X8.5154 Y56.3901 
G01 X10.9624 Y58.8370 
G01 X10.9973 Y58.8976 
G01 X11.0154 Y58.9651 
G01 X11.0154 Y60.4846 
G01 X15.6401 Y60.4846 
G01 X16.4846 Y59.6401 
G01 X16.4846 Y46.4354 
G01 X16.4570 Y46.4354 
G01 X16.4146 Y46.4178 
G01 X16.3822 Y46.3854 
G01 X16.3646 Y46.3430 
G01 X16.3646 Y45.0970 
G01 X16.3822 Y45.0546 
G01 X16.4146 Y45.0222 
G01 X16.4570 Y45.0046 
G01 X17.1201 Y45.0046 
G01 X17.7876 Y44.3370 
G01 X17.8370 Y44.2876 
G01 X17.8976 Y44.2527 
G01 X17.9651 Y44.2346 
G01 X19.7849 Y44.2346 
G01 X19.8524 Y44.2527 
G01 X19.9130 Y44.2876 
G01 X19.9624 Y44.3370 
G01 X19.9973 Y44.3976 
G01 X20.0154 Y44.4651 
G01 X20.0154 Y48.6401 
G01 X20.2161 Y48.8407 
G01 X20.2246 Y48.8322 
G01 X20.2670 Y48.8146 
G01 X21.1130 Y48.8146 
G01 X21.1554 Y48.8322 
G01 X21.1878 Y48.8646 
G01 X21.2054 Y48.9070 
G01 X21.2054 Y50.1530 
G01 X21.1878 Y50.1954 
G01 X21.1554 Y50.2278 
G01 X21.1130 Y50.2454 
G01 X20.2670 Y50.2454 
G01 X20.2246 Y50.2278 
G01 X20.1922 Y50.1954 
G01 X20.1746 Y50.1530 
G01 X20.1746 Y49.5499 
G01 X19.5376 Y48.9130 
G01 X19.5027 Y48.8524 
G01 X19.4846 Y48.7849 
G01 X19.4846 Y44.7654 
G01 X18.1099 Y44.7654 
G01 X17.3954 Y45.4799 
G01 X17.3954 Y46.3430 
G01 X17.3778 Y46.3854 
G01 X17.3454 Y46.4178 
G01 X17.3030 Y46.4354 
G01 X17.0154 Y46.4354 
G01 X17.0154 Y59.7849 
G01 X16.9973 Y59.8524 
G01 X16.9624 Y59.9130 
G01 X15.9624 Y60.9130 
G01 X15.9130 Y60.9624 
G01 X15.8524 Y60.9973 
G01 X15.7849 Y61.0154 
G01 X10.7151 Y61.0154 
G01 X10.6476 Y60.9973 
G01 X10.5870 Y60.9624 
G01 X10.5376 Y60.9130 
G01 X10.5027 Y60.8524 
G01 X10.4846 Y60.7849 
G01 X10.4846 Y59.1099 
G01 X8.0870 Y56.7124 
G01 X8.0376 Y56.6630 
G01 X8.0027 Y56.6024 
G01 X7.9846 Y56.5349 
G01 X7.9846 Y54.9651 
G01 X8.0027 Y54.8976 
G01 X8.0376 Y54.8370 
G01 X8.9846 Y53.8901 
G01 X8.9846 Y48.6099 
G01 X5.0870 Y44.7124 
G01 X5.0376 Y44.6630 
G01 X5.0027 Y44.6024 
G01 X4.9846 Y44.5349 
G01 X4.9846 Y39.7376 
G01 X4.8241 Y39.7057 
G01 X4.6644 Y39.6395 
G01 X4.5207 Y39.5435 
G01 X4.3985 Y39.4213 
G01 X4.3025 Y39.2776 
G01 X4.2363 Y39.1179 
G01 X4.2026 Y38.9484 
G01 X4.2026 Y37.2516 
G01 X4.2363 Y37.0821 
G01 X4.3025 Y36.9224 
G01 X4.3985 Y36.7787 
G01 X4.5207 Y36.6565 
G01 X4.6644 Y36.5605 
G01 X4.8241 Y36.4943 
G01 X4.9936 Y36.4606 
G01 X5.1664 Y36.4606 
G01 X5.3359 Y36.4943 
G01 X5.4956 Y36.5605 
G01 X5.6393 Y36.6565 
G01 X5.7615 Y36.7787 
G01 X5.8575 Y36.9224 
G01 X5.9237 Y37.0821 
G01 X5.9574 Y37.2516 
G01 X5.9574 Y38.9484 
G01 X5.9237 Y39.1179 
G01 X5.8575 Y39.2776 
G01 X5.7615 Y39.4213 
G01 X5.6393 Y39.5435 
G01 X5.5154 Y39.6263 
G01 X5.5154 Y44.3901 
G01 X9.4624 Y48.3370 
G01 X9.4973 Y48.3976 
G01 X9.5154 Y48.4651 
G01 X9.5154 Y53.8901 
G01 X10.7899 Y55.1646 
G01 X11.4830 Y55.1646 
G01 X11.5254 Y55.1822 
G01 X11.5578 Y55.2146 
G01 X11.5754 Y55.2570 
G01 X11.5754 Y56.5030 
G01 X11.5578 Y56.5454 
G01 X11.5254 Y56.5778 
G01 X11.4830 Y56.5954 
G01 X10.6370 Y56.5954 
G01 X10.5946 Y56.5778 
G01 X10.5622 Y56.5454 
G01 X10.5446 Y56.5030 
G00 Z2.5400 
G00 X45.0730 Y48.1146 
G01 Z-0.1500 F254.00 
G01 X45.1154 Y48.1322 F508.00 
G01 X45.1478 Y48.1646 
G01 X45.1654 Y48.2070 
G01 X45.1654 Y49.0530 
G01 X45.1478 Y49.0954 
G01 X45.1154 Y49.1278 
G01 X45.0730 Y49.1454 
G01 X43.8270 Y49.1454 
G01 X43.7846 Y49.1278 
G01 X43.7522 Y49.0954 
G01 X43.7346 Y49.0530 
G01 X43.7346 Y48.3599 
G01 X43.0870 Y47.7124 
G01 X43.0376 Y47.6630 
G01 X43.0027 Y47.6024 
G01 X42.9846 Y47.5349 
G01 X42.9846 Y34.4325 
G01 X42.9537 Y34.4264 
G01 X42.8125 Y34.3679 
G01 X42.6855 Y34.2830 
G01 X42.5774 Y34.1749 
G01 X42.4925 Y34.0479 
G01 X42.4340 Y33.9067 
G01 X42.4042 Y33.7568 
G01 X42.4042 Y32.2832 
G01 X42.4340 Y32.1333 
G01 X42.4925 Y31.9921 
G01 X42.5774 Y31.8651 
G01 X42.6855 Y31.7570 
G01 X42.8125 Y31.6721 
G01 X42.9537 Y31.6136 
G01 X43.1036 Y31.5838 
G01 X43.2564 Y31.5838 
G01 X43.4063 Y31.6136 
G01 X43.5475 Y31.6721 
G01 X43.6745 Y31.7570 
G01 X43.7826 Y31.8651 
G01 X43.8675 Y31.9921 
G01 X43.9260 Y32.1333 
G01 X43.9558 Y32.2832 
G01 X43.9558 Y33.7568 
G01 X43.9260 Y33.9067 
G01 X43.8675 Y34.0479 
G01 X43.7826 Y34.1749 
G01 X43.6745 Y34.2830 
G01 X43.5475 Y34.3679 
G01 X43.5154 Y34.3812 
G01 X43.5154 Y47.3901 
G01 X44.2399 Y48.1146 
G01 X45.0730 Y48.1146 
G00 Z2.5400 
G00 X51.9314 Y40.9980 
G01 Z-0.1500 F254.00 
G01 X51.9314 Y42.8220 F508.00 
G01 X51.9138 Y42.8644 
G01 X51.8814 Y42.8968 
G01 X51.8390 Y42.9144 
G01 X46.7130 Y42.9144 
G01 X46.6706 Y42.8968 
G01 X46.6382 Y42.8644 
G01 X46.6206 Y42.8220 
G01 X46.6206 Y40.9980 
G01 X46.6382 Y40.9556 
G01 X46.6706 Y40.9232 
G01 X46.7130 Y40.9056 
G01 X48.0303 Y40.9056 
G01 X46.5870 Y39.4624 
G01 X46.5376 Y39.4130 
G01 X46.5027 Y39.3524 
G01 X46.4846 Y39.2849 
G01 X46.4846 Y35.3148 
G01 X46.4547 Y35.3024 
G01 X46.3526 Y35.2342 
G01 X46.2658 Y35.1474 
G01 X46.1975 Y35.0453 
G01 X46.1506 Y34.9318 
G01 X46.1266 Y34.8114 
G01 X46.1266 Y34.6886 
G01 X46.1506 Y34.5682 
G01 X46.1975 Y34.4547 
G01 X46.2658 Y34.3526 
G01 X46.3526 Y34.2658 
G01 X46.4547 Y34.1975 
G01 X46.5682 Y34.1506 
G01 X46.6886 Y34.1266 
G01 X46.8114 Y34.1266 
G01 X46.9318 Y34.1506 
G01 X47.0453 Y34.1975 
G01 X47.1474 Y34.2658 
G01 X47.2342 Y34.3526 
G01 X47.3024 Y34.4547 
G01 X47.3494 Y34.5682 
G01 X47.3734 Y34.6886 
G01 X47.3734 Y34.8114 
G01 X47.3494 Y34.9318 
G01 X47.3024 Y35.0453 
G01 X47.2342 Y35.1474 
G01 X47.1474 Y35.2342 
G01 X47.0453 Y35.3024 
G01 X47.0154 Y35.3148 
G01 X47.0154 Y39.1401 
G01 X48.7809 Y40.9056 
G01 X51.8390 Y40.9056 
G01 X51.8814 Y40.9232 
G01 X51.9138 Y40.9556 
G01 X51.9314 Y40.9980 
G00 Z2.5400 
G00 X64.2758 Y24.6632 
G01 Z-0.1500 F254.00 
G01 X64.2758 Y26.1368 F508.00 
G01 X64.2460 Y26.2867 
G01 X64.1875 Y26.4279 
G01 X64.1026 Y26.5549 
G01 X63.9945 Y26.6630 
G01 X63.8675 Y26.7479 
G01 X63.7263 Y26.8064 
G01 X63.5764 Y26.8362 
G01 X63.4236 Y26.8362 
G01 X63.2737 Y26.8064 
G01 X63.1325 Y26.7479 
G01 X63.0055 Y26.6630 
G01 X62.8974 Y26.5549 
G01 X62.8125 Y26.4279 
G01 X62.7540 Y26.2867 
G01 X62.7242 Y26.1368 
G01 X62.7242 Y24.6632 
G01 X62.7540 Y24.5133 
G01 X62.8125 Y24.3721 
G01 X62.8974 Y24.2451 
G01 X63.0055 Y24.1370 
G01 X63.1325 Y24.0521 
G01 X63.2346 Y24.0098 
G01 X63.2346 Y6.6818 
G01 X63.0844 Y6.6195 
G01 X62.9407 Y6.5235 
G01 X62.8185 Y6.4013 
G01 X62.7225 Y6.2576 
G01 X62.6563 Y6.0979 
G01 X62.6226 Y5.9284 
G01 X62.6226 Y4.2316 
G01 X62.6563 Y4.0621 
G01 X62.7225 Y3.9024 
G01 X62.8185 Y3.7587 
G01 X62.9407 Y3.6365 
G01 X63.0844 Y3.5405 
G01 X63.2441 Y3.4743 
G01 X63.4136 Y3.4406 
G01 X63.5864 Y3.4406 
G01 X63.7559 Y3.4743 
G01 X63.9156 Y3.5405 
G01 X64.0593 Y3.6365 
G01 X64.1815 Y3.7587 
G01 X64.2775 Y3.9024 
G01 X64.3437 Y4.0621 
G01 X64.3774 Y4.2316 
G01 X64.3774 Y5.9284 
G01 X64.3437 Y6.0979 
G01 X64.2775 Y6.2576 
G01 X64.1815 Y6.4013 
G01 X64.0593 Y6.5235 
G01 X63.9156 Y6.6195 
G01 X63.7654 Y6.6818 
G01 X63.7654 Y24.0098 
G01 X63.8675 Y24.0521 
G01 X63.9945 Y24.1370 
G01 X64.1026 Y24.2451 
G01 X64.1875 Y24.3721 
G01 X64.2460 Y24.5133 
G01 X64.2758 Y24.6632 
G00 Z2.5400 
G00 X59.1958 Y24.6632 
G01 Z-0.1500 F254.00 
G01 X59.1958 Y26.1368 F508.00 
G01 X59.1660 Y26.2867 
G01 X59.1075 Y26.4279 
G01 X59.0226 Y26.5549 
G01 X58.9145 Y26.6630 
G01 X58.7875 Y26.7479 
G01 X58.6463 Y26.8064 
G01 X58.4964 Y26.8362 
G01 X58.3436 Y26.8362 
G01 X58.1937 Y26.8064 
G01 X58.0525 Y26.7479 
G01 X57.9255 Y26.6630 
G01 X57.8174 Y26.5549 
G01 X57.7325 Y26.4279 
G01 X57.6740 Y26.2867 
G01 X57.6442 Y26.1368 
G01 X57.6442 Y24.6632 
G01 X57.6740 Y24.5133 
G01 X57.7325 Y24.3721 
G01 X57.8174 Y24.2451 
G01 X57.9255 Y24.1370 
G01 X58.0525 Y24.0521 
G01 X58.1937 Y23.9936 
G01 X58.2346 Y23.9855 
G01 X58.2346 Y6.6997 
G01 X58.1641 Y6.6857 
G01 X58.0044 Y6.6195 
G01 X57.8607 Y6.5235 
G01 X57.7385 Y6.4013 
G01 X57.6425 Y6.2576 
G01 X57.5763 Y6.0979 
G01 X57.5426 Y5.9284 
G01 X57.5426 Y4.2316 
G01 X57.5763 Y4.0621 
G01 X57.6425 Y3.9024 
G01 X57.7385 Y3.7587 
G01 X57.8607 Y3.6365 
G01 X58.0044 Y3.5405 
G01 X58.1641 Y3.4743 
G01 X58.3336 Y3.4406 
G01 X58.5064 Y3.4406 
G01 X58.6759 Y3.4743 
G01 X58.8356 Y3.5405 
G01 X58.9793 Y3.6365 
G01 X59.1015 Y3.7587 
G01 X59.1975 Y3.9024 
G01 X59.2637 Y4.0621 
G01 X59.2974 Y4.2316 
G01 X59.2974 Y5.9284 
G01 X59.2637 Y6.0979 
G01 X59.1975 Y6.2576 
G01 X59.1015 Y6.4013 
G01 X58.9793 Y6.5235 
G01 X58.8356 Y6.6195 
G01 X58.7654 Y6.6486 
G01 X58.7654 Y24.0430 
G01 X58.7875 Y24.0521 
G01 X58.9145 Y24.1370 
G01 X59.0226 Y24.2451 
G01 X59.1075 Y24.3721 
G01 X59.1660 Y24.5133 
G01 X59.1958 Y24.6632 
G00 Z2.5400 
G00 X54.1158 Y24.6632 
G01 Z-0.1500 F254.00 
G01 X54.1158 Y26.1368 F508.00 
G01 X54.0860 Y26.2867 
G01 X54.0275 Y26.4279 
G01 X53.9426 Y26.5549 
G01 X53.8345 Y26.6630 
G01 X53.7075 Y26.7479 
G01 X53.5663 Y26.8064 
G01 X53.4164 Y26.8362 
G01 X53.2636 Y26.8362 
G01 X53.1137 Y26.8064 
G01 X52.9725 Y26.7479 
G01 X52.8455 Y26.6630 
G01 X52.7374 Y26.5549 
G01 X52.6525 Y26.4279 
G01 X52.5940 Y26.2867 
G01 X52.5642 Y26.1368 
G01 X52.5642 Y24.6632 
G01 X52.5940 Y24.5133 
G01 X52.6525 Y24.3721 
G01 X52.7374 Y24.2451 
G01 X52.8455 Y24.1370 
G01 X52.9725 Y24.0521 
G01 X53.1137 Y23.9936 
G01 X53.2636 Y23.9638 
G01 X53.4164 Y23.9638 
G01 X53.5663 Y23.9936 
G01 X53.7075 Y24.0521 
G01 X53.8345 Y24.1370 
G01 X53.9426 Y24.2451 
G01 X54.0275 Y24.3721 
G01 X54.0860 Y24.5133 
G01 X54.1158 Y24.6632 
G00 Z2.5400 
G00 X51.5758 Y24.6632 
G01 Z-0.1500 F254.00 
G01 X51.5758 Y26.1368 F508.00 
G01 X51.5460 Y26.2867 
G01 X51.4875 Y26.4279 
G01 X51.4026 Y26.5549 
G01 X51.2945 Y26.6630 
G01 X51.1675 Y26.7479 
G01 X51.0263 Y26.8064 
G01 X50.8764 Y26.8362 
G01 X50.7236 Y26.8362 
G01 X50.5737 Y26.8064 
G01 X50.4325 Y26.7479 
G01 X50.3055 Y26.6630 
G01 X50.1974 Y26.5549 
G01 X50.1125 Y26.4279 
G01 X50.0540 Y26.2867 
G01 X50.0242 Y26.1368 
G01 X50.0242 Y24.6632 
G01 X50.0540 Y24.5133 
G01 X50.1125 Y24.3721 
G01 X50.1974 Y24.2451 
G01 X50.3055 Y24.1370 
G01 X50.4325 Y24.0521 
G01 X50.5737 Y23.9936 
G01 X50.7236 Y23.9638 
G01 X50.8764 Y23.9638 
G01 X51.0263 Y23.9936 
G01 X51.1675 Y24.0521 
G01 X51.2945 Y24.1370 
G01 X51.4026 Y24.2451 
G01 X51.4875 Y24.3721 
G01 X51.5460 Y24.5133 
G01 X51.5758 Y24.6632 
G00 Z2.5400 
G00 X46.4958 Y24.6632 
G01 Z-0.1500 F254.00 
G01 X46.4958 Y26.1368 F508.00 
G01 X46.4660 Y26.2867 
G01 X46.4075 Y26.4279 
G01 X46.3226 Y26.5549 
G01 X46.2145 Y26.6630 
G01 X46.0875 Y26.7479 
G01 X45.9463 Y26.8064 
G01 X45.7964 Y26.8362 
G01 X45.6436 Y26.8362 
G01 X45.4937 Y26.8064 
G01 X45.3525 Y26.7479 
G01 X45.2255 Y26.6630 
G01 X45.1174 Y26.5549 
G01 X45.0325 Y26.4279 
G01 X44.9740 Y26.2867 
G01 X44.9442 Y26.1368 
G01 X44.9442 Y24.6632 
G01 X44.9740 Y24.5133 
G01 X45.0325 Y24.3721 
G01 X45.1174 Y24.2451 
G01 X45.2255 Y24.1370 
G01 X45.3525 Y24.0521 
G01 X45.4937 Y23.9936 
G01 X45.6436 Y23.9638 
G01 X45.7964 Y23.9638 
G01 X45.9463 Y23.9936 
G01 X46.0875 Y24.0521 
G01 X46.2145 Y24.1370 
G01 X46.3226 Y24.2451 
G01 X46.4075 Y24.3721 
G01 X46.4660 Y24.5133 
G01 X46.4958 Y24.6632 
G00 Z2.5400 
G00 X41.4158 Y24.6632 
G01 Z-0.1500 F254.00 
G01 X41.4158 Y26.1368 F508.00 
G01 X41.3860 Y26.2867 
G01 X41.3275 Y26.4279 
G01 X41.2426 Y26.5549 
G01 X41.1345 Y26.6630 
G01 X41.0075 Y26.7479 
G01 X40.8663 Y26.8064 
G01 X40.7164 Y26.8362 
G01 X40.5636 Y26.8362 
G01 X40.4137 Y26.8064 
G01 X40.2725 Y26.7479 
G01 X40.1455 Y26.6630 
G01 X40.0374 Y26.5549 
G01 X39.9525 Y26.4279 
G01 X39.9510 Y26.4243 
G01 X38.3371 Y28.0383 
G01 X38.3494 Y28.0682 
G01 X38.3734 Y28.1886 
G01 X38.3734 Y28.3114 
G01 X38.3494 Y28.4318 
G01 X38.3024 Y28.5453 
G01 X38.2342 Y28.6474 
G01 X38.1474 Y28.7342 
G01 X38.0453 Y28.8024 
G01 X37.9318 Y28.8494 
G01 X37.8114 Y28.8734 
G01 X37.6886 Y28.8734 
G01 X37.5682 Y28.8494 
G01 X37.4547 Y28.8024 
G01 X37.3526 Y28.7342 
G01 X37.2658 Y28.6474 
G01 X37.1975 Y28.5453 
G01 X37.1506 Y28.4318 
G01 X37.1266 Y28.3114 
G01 X37.1266 Y28.1886 
G01 X37.1506 Y28.0682 
G01 X37.1975 Y27.9547 
G01 X37.2658 Y27.8526 
G01 X37.3526 Y27.7658 
G01 X37.4547 Y27.6975 
G01 X37.5682 Y27.6506 
G01 X37.6886 Y27.6266 
G01 X37.8114 Y27.6266 
G01 X37.9318 Y27.6506 
G01 X37.9617 Y27.6629 
G01 X39.8642 Y25.7605 
G01 X39.8642 Y24.6632 
G01 X39.8940 Y24.5133 
G01 X39.9525 Y24.3721 
G01 X40.0374 Y24.2451 
G01 X40.1455 Y24.1370 
G01 X40.2725 Y24.0521 
G01 X40.4137 Y23.9936 
G01 X40.5636 Y23.9638 
G01 X40.7164 Y23.9638 
G01 X40.8663 Y23.9936 
G01 X41.0075 Y24.0521 
G01 X41.1345 Y24.1370 
G01 X41.2426 Y24.2451 
G01 X41.3275 Y24.3721 
G01 X41.3860 Y24.5133 
G01 X41.4158 Y24.6632 
G00 Z2.5400 
G00 X38.8758 Y26.1368 
G01 Z-0.1500 F254.00 
G01 X38.8460 Y26.2867 F508.00 
G01 X38.7875 Y26.4279 
G01 X38.7026 Y26.5549 
G01 X38.5945 Y26.6630 
G01 X38.4675 Y26.7479 
G01 X38.3263 Y26.8064 
G01 X38.1764 Y26.8362 
G01 X38.0236 Y26.8362 
G01 X37.8737 Y26.8064 
G01 X37.7325 Y26.7479 
G01 X37.6055 Y26.6630 
G01 X37.4974 Y26.5549 
G01 X37.4125 Y26.4279 
G01 X37.3540 Y26.2867 
G01 X37.3242 Y26.1368 
G01 X37.3242 Y24.6632 
G01 X37.3540 Y24.5133 
G01 X37.4125 Y24.3721 
G01 X37.4974 Y24.2451 
G01 X37.6055 Y24.1370 
G01 X37.7325 Y24.0521 
G01 X37.8737 Y23.9936 
G01 X38.0236 Y23.9638 
G01 X38.1764 Y23.9638 
G01 X38.3263 Y23.9936 
G01 X38.4675 Y24.0521 
G01 X38.5945 Y24.1370 
G01 X38.7026 Y24.2451 
G01 X38.7735 Y24.3512 
G01 X41.6629 Y21.4617 
G01 X41.6506 Y21.4318 
G01 X41.6266 Y21.3114 
G01 X41.6266 Y21.1886 
G01 X41.6506 Y21.0682 
G01 X41.6975 Y20.9547 
G01 X41.7658 Y20.8526 
G01 X41.8526 Y20.7658 
G01 X41.9547 Y20.6975 
G01 X42.0682 Y20.6506 
G01 X42.1886 Y20.6266 
G01 X42.3114 Y20.6266 
G01 X42.4318 Y20.6506 
G01 X42.5453 Y20.6975 
G01 X42.6474 Y20.7658 
G01 X42.7342 Y20.8526 
G01 X42.8024 Y20.9547 
G01 X42.8494 Y21.0682 
G01 X42.8734 Y21.1886 
G01 X42.8734 Y21.3114 
G01 X42.8494 Y21.4318 
G01 X42.8024 Y21.5453 
G01 X42.7342 Y21.6474 
G01 X42.6474 Y21.7342 
G01 X42.5453 Y21.8024 
G01 X42.4318 Y21.8494 
G01 X42.3114 Y21.8734 
G01 X42.1886 Y21.8734 
G01 X42.0682 Y21.8494 
G01 X42.0383 Y21.8371 
G01 X38.8758 Y24.9995 
G01 X38.8758 Y26.1368 
G00 Z2.5400 
G00 X36.3358 Y26.1368 
G01 Z-0.1500 F254.00 
G01 X36.3060 Y26.2867 F508.00 
G01 X36.2475 Y26.4279 
G01 X36.1626 Y26.5549 
G01 X36.0545 Y26.6630 
G01 X35.9275 Y26.7479 
G01 X35.7863 Y26.8064 
G01 X35.6364 Y26.8362 
G01 X35.4836 Y26.8362 
G01 X35.3337 Y26.8064 
G01 X35.1925 Y26.7479 
G01 X35.0655 Y26.6630 
G01 X34.9574 Y26.5549 
G01 X34.8725 Y26.4279 
G01 X34.8140 Y26.2867 
G01 X34.7842 Y26.1368 
G01 X34.7842 Y24.6632 
G01 X34.8140 Y24.5133 
G01 X34.8725 Y24.3721 
G01 X34.9574 Y24.2451 
G01 X35.0655 Y24.1370 
G01 X35.1925 Y24.0521 
G01 X35.3337 Y23.9936 
G01 X35.4836 Y23.9638 
G01 X35.6364 Y23.9638 
G01 X35.7863 Y23.9936 
G01 X35.9275 Y24.0521 
G01 X36.0545 Y24.1370 
G01 X36.1626 Y24.2451 
G01 X36.2475 Y24.3721 
G01 X36.2490 Y24.3757 
G01 X38.4129 Y22.2117 
G01 X38.4006 Y22.1818 
G01 X38.3766 Y22.0614 
G01 X38.3766 Y21.9386 
G01 X38.4006 Y21.8182 
G01 X38.4475 Y21.7047 
G01 X38.5158 Y21.6026 
G01 X38.6026 Y21.5158 
G01 X38.7047 Y21.4475 
G01 X38.8182 Y21.4006 
G01 X38.9386 Y21.3766 
G01 X39.0614 Y21.3766 
G01 X39.1818 Y21.4006 
G01 X39.2953 Y21.4475 
G01 X39.3974 Y21.5158 
G01 X39.4842 Y21.6026 
G01 X39.5524 Y21.7047 
G01 X39.5994 Y21.8182 
G01 X39.6234 Y21.9386 
G01 X39.6234 Y22.0614 
G01 X39.5994 Y22.1818 
G01 X39.5524 Y22.2953 
G01 X39.4842 Y22.3974 
G01 X39.3974 Y22.4842 
G01 X39.2953 Y22.5524 
G01 X39.1818 Y22.5994 
G01 X39.0614 Y22.6234 
G01 X38.9386 Y22.6234 
G01 X38.8182 Y22.5994 
G01 X38.7883 Y22.5871 
G01 X36.3358 Y25.0395 
G01 X36.3358 Y26.1368 
G00 Z2.5400 
G00 X33.7958 Y24.6632 
G01 Z-0.1500 F254.00 
G01 X33.7958 Y26.1368 F508.00 
G01 X33.7660 Y26.2867 
G01 X33.7075 Y26.4279 
G01 X33.6226 Y26.5549 
G01 X33.5145 Y26.6630 
G01 X33.3875 Y26.7479 
G01 X33.2463 Y26.8064 
G01 X33.0964 Y26.8362 
G01 X32.9436 Y26.8362 
G01 X32.7937 Y26.8064 
G01 X32.6525 Y26.7479 
G01 X32.5255 Y26.6630 
G01 X32.4174 Y26.5549 
G01 X32.3785 Y26.4968 
G01 X28.8371 Y30.0383 
G01 X28.8494 Y30.0682 
G01 X28.8734 Y30.1886 
G01 X28.8734 Y30.3114 
G01 X28.8494 Y30.4318 
G01 X28.8024 Y30.5453 
G01 X28.7342 Y30.6474 
G01 X28.6474 Y30.7342 
G01 X28.5453 Y30.8024 
G01 X28.4318 Y30.8494 
G01 X28.3114 Y30.8734 
G01 X28.1886 Y30.8734 
G01 X28.0682 Y30.8494 
G01 X27.9547 Y30.8024 
G01 X27.8526 Y30.7342 
G01 X27.7658 Y30.6474 
G01 X27.6975 Y30.5453 
G01 X27.6506 Y30.4318 
G01 X27.6266 Y30.3114 
G01 X27.6266 Y30.1886 
G01 X27.6506 Y30.0682 
G01 X27.6975 Y29.9547 
G01 X27.7658 Y29.8526 
G01 X27.8526 Y29.7658 
G01 X27.9547 Y29.6975 
G01 X28.0682 Y29.6506 
G01 X28.1886 Y29.6266 
G01 X28.3114 Y29.6266 
G01 X28.4318 Y29.6506 
G01 X28.4617 Y29.6629 
G01 X32.2442 Y25.8805 
G01 X32.2442 Y24.6632 
G01 X32.2740 Y24.5133 
G01 X32.3325 Y24.3721 
G01 X32.4174 Y24.2451 
G01 X32.5255 Y24.1370 
G01 X32.6525 Y24.0521 
G01 X32.7937 Y23.9936 
G01 X32.9436 Y23.9638 
G01 X33.0964 Y23.9638 
G01 X33.2463 Y23.9936 
G01 X33.3875 Y24.0521 
G01 X33.5145 Y24.1370 
G01 X33.6226 Y24.2451 
G01 X33.7075 Y24.3721 
G01 X33.7660 Y24.5133 
G01 X33.7958 Y24.6632 
G00 Z2.5400 
G00 X31.2558 Y24.6632 
G01 Z-0.1500 F254.00 
G01 X31.2558 Y26.1368 F508.00 
G01 X31.2260 Y26.2867 
G01 X31.1675 Y26.4279 
G01 X31.0826 Y26.5549 
G01 X30.9745 Y26.6630 
G01 X30.8475 Y26.7479 
G01 X30.7063 Y26.8064 
G01 X30.5564 Y26.8362 
G01 X30.4036 Y26.8362 
G01 X30.2537 Y26.8064 
G01 X30.1125 Y26.7479 
G01 X29.9855 Y26.6630 
G01 X29.8774 Y26.5549 
G01 X29.7925 Y26.4279 
G01 X29.7340 Y26.2867 
G01 X29.7042 Y26.1368 
G01 X29.7042 Y24.6632 
G01 X29.7340 Y24.5133 
G01 X29.7925 Y24.3721 
G01 X29.8774 Y24.2451 
G01 X29.9855 Y24.1370 
G01 X30.1125 Y24.0521 
G01 X30.2537 Y23.9936 
G01 X30.4036 Y23.9638 
G01 X30.5564 Y23.9638 
G01 X30.7063 Y23.9936 
G01 X30.8475 Y24.0521 
G01 X30.9745 Y24.1370 
G01 X31.0826 Y24.2451 
G01 X31.1675 Y24.3721 
G01 X31.2260 Y24.5133 
G01 X31.2558 Y24.6632 
G00 Z2.5400 
G00 X31.2558 Y32.2832 
G01 Z-0.1500 F254.00 
G01 X31.2558 Y33.7568 F508.00 
G01 X31.2260 Y33.9067 
G01 X31.1675 Y34.0479 
G01 X31.0826 Y34.1749 
G01 X30.9745 Y34.2830 
G01 X30.8475 Y34.3679 
G01 X30.7063 Y34.4264 
G01 X30.5564 Y34.4562 
G01 X30.4036 Y34.4562 
G01 X30.2537 Y34.4264 
G01 X30.1125 Y34.3679 
G01 X29.9855 Y34.2830 
G01 X29.8774 Y34.1749 
G01 X29.7925 Y34.0479 
G01 X29.7340 Y33.9067 
G01 X29.7042 Y33.7568 
G01 X29.7042 Y32.2832 
G01 X29.7340 Y32.1333 
G01 X29.7925 Y31.9921 
G01 X29.8774 Y31.8651 
G01 X29.9855 Y31.7570 
G01 X30.1125 Y31.6721 
G01 X30.2537 Y31.6136 
G01 X30.4036 Y31.5838 
G01 X30.5564 Y31.5838 
G01 X30.7063 Y31.6136 
G01 X30.8475 Y31.6721 
G01 X30.9745 Y31.7570 
G01 X31.0826 Y31.8651 
G01 X31.1675 Y31.9921 
G01 X31.2260 Y32.1333 
G01 X31.2558 Y32.2832 
G00 Z2.5400 
G00 X33.7958 Y32.2832 
G01 Z-0.1500 F254.00 
G01 X33.7958 Y33.7568 F508.00 
G01 X33.7660 Y33.9067 
G01 X33.7075 Y34.0479 
G01 X33.6226 Y34.1749 
G01 X33.5145 Y34.2830 
G01 X33.3875 Y34.3679 
G01 X33.2463 Y34.4264 
G01 X33.0964 Y34.4562 
G01 X32.9436 Y34.4562 
G01 X32.7937 Y34.4264 
G01 X32.6525 Y34.3679 
G01 X32.5255 Y34.2830 
G01 X32.4174 Y34.1749 
G01 X32.3325 Y34.0479 
G01 X32.2740 Y33.9067 
G01 X32.2442 Y33.7568 
G01 X32.2442 Y32.2832 
G01 X32.2740 Y32.1333 
G01 X32.3325 Y31.9921 
G01 X32.4174 Y31.8651 
G01 X32.5255 Y31.7570 
G01 X32.6525 Y31.6721 
G01 X32.7937 Y31.6136 
G01 X32.9436 Y31.5838 
G01 X33.0964 Y31.5838 
G01 X33.2463 Y31.6136 
G01 X33.3875 Y31.6721 
G01 X33.5145 Y31.7570 
G01 X33.6226 Y31.8651 
G01 X33.7075 Y31.9921 
G01 X33.7660 Y32.1333 
G01 X33.7958 Y32.2832 
G00 Z2.5400 
G00 X36.3358 Y32.2832 
G01 Z-0.1500 F254.00 
G01 X36.3358 Y33.7568 F508.00 
G01 X36.3060 Y33.9067 
G01 X36.2475 Y34.0479 
G01 X36.1626 Y34.1749 
G01 X36.0545 Y34.2830 
G01 X35.9275 Y34.3679 
G01 X35.7863 Y34.4264 
G01 X35.6364 Y34.4562 
G01 X35.4836 Y34.4562 
G01 X35.3337 Y34.4264 
G01 X35.1925 Y34.3679 
G01 X35.0655 Y34.2830 
G01 X34.9574 Y34.1749 
G01 X34.8725 Y34.0479 
G01 X34.8140 Y33.9067 
G01 X34.7842 Y33.7568 
G01 X34.7842 Y32.2832 
G01 X34.8140 Y32.1333 
G01 X34.8725 Y31.9921 
G01 X34.9574 Y31.8651 
G01 X35.0655 Y31.7570 
G01 X35.1925 Y31.6721 
G01 X35.3337 Y31.6136 
G01 X35.4836 Y31.5838 
G01 X35.6364 Y31.5838 
G01 X35.7863 Y31.6136 
G01 X35.9275 Y31.6721 
G01 X36.0545 Y31.7570 
G01 X36.1626 Y31.8651 
G01 X36.2475 Y31.9921 
G01 X36.3060 Y32.1333 
G01 X36.3358 Y32.2832 
G00 Z2.5400 
G00 X38.8758 Y32.2832 
G01 Z-0.1500 F254.00 
G01 X38.8758 Y33.7568 F508.00 
G01 X38.8460 Y33.9067 
G01 X38.7875 Y34.0479 
G01 X38.7026 Y34.1749 
G01 X38.5945 Y34.2830 
G01 X38.4675 Y34.3679 
G01 X38.3263 Y34.4264 
G01 X38.1764 Y34.4562 
G01 X38.0236 Y34.4562 
G01 X37.8737 Y34.4264 
G01 X37.7325 Y34.3679 
G01 X37.6055 Y34.2830 
G01 X37.4974 Y34.1749 
G01 X37.4125 Y34.0479 
G01 X37.3540 Y33.9067 
G01 X37.3242 Y33.7568 
G01 X37.3242 Y32.2832 
G01 X37.3540 Y32.1333 
G01 X37.4125 Y31.9921 
G01 X37.4974 Y31.8651 
G01 X37.6055 Y31.7570 
G01 X37.7325 Y31.6721 
G01 X37.8737 Y31.6136 
G01 X38.0236 Y31.5838 
G01 X38.1764 Y31.5838 
G01 X38.3263 Y31.6136 
G01 X38.4675 Y31.6721 
G01 X38.5945 Y31.7570 
G01 X38.7026 Y31.8651 
G01 X38.7875 Y31.9921 
G01 X38.8460 Y32.1333 
G01 X38.8758 Y32.2832 
G00 Z2.5400 
G00 X41.4158 Y32.2832 
G01 Z-0.1500 F254.00 
G01 X41.4158 Y33.7568 F508.00 
G01 X41.3860 Y33.9067 
G01 X41.3275 Y34.0479 
G01 X41.2426 Y34.1749 
G01 X41.1345 Y34.2830 
G01 X41.0075 Y34.3679 
G01 X40.8663 Y34.4264 
G01 X40.7164 Y34.4562 
G01 X40.5636 Y34.4562 
G01 X40.4137 Y34.4264 
G01 X40.2725 Y34.3679 
G01 X40.1455 Y34.2830 
G01 X40.0374 Y34.1749 
G01 X40.0154 Y34.1420 
G01 X40.0154 Y40.9056 
G01 X42.1870 Y40.9056 
G01 X42.2294 Y40.9232 
G01 X42.2618 Y40.9556 
G01 X42.2794 Y40.9980 
G01 X42.2794 Y42.8220 
G01 X42.2618 Y42.8644 
G01 X42.2294 Y42.8968 
G01 X42.1870 Y42.9144 
G01 X40.0154 Y42.9144 
G01 X40.0154 Y47.6401 
G01 X40.4899 Y48.1146 
G01 X41.2630 Y48.1146 
G01 X41.3054 Y48.1322 
G01 X41.3378 Y48.1646 
G01 X41.3554 Y48.2070 
G01 X41.3554 Y49.0530 
G01 X41.3378 Y49.0954 
G01 X41.3054 Y49.1278 
G01 X41.2630 Y49.1454 
G01 X40.0170 Y49.1454 
G01 X39.9746 Y49.1278 
G01 X39.9422 Y49.0954 
G01 X39.9246 Y49.0530 
G01 X39.9246 Y48.2999 
G01 X39.5870 Y47.9624 
G01 X39.5376 Y47.9130 
G01 X39.5027 Y47.8524 
G01 X39.4846 Y47.7849 
G01 X39.4846 Y42.9144 
G01 X37.0610 Y42.9144 
G01 X37.0186 Y42.8968 
G01 X36.9862 Y42.8644 
G01 X36.9686 Y42.8220 
G01 X36.9686 Y40.9980 
G01 X36.9862 Y40.9556 
G01 X37.0186 Y40.9232 
G01 X37.0610 Y40.9056 
G01 X39.4846 Y40.9056 
G01 X39.4846 Y33.9651 
G01 X39.5027 Y33.8976 
G01 X39.5376 Y33.8370 
G01 X39.5870 Y33.7876 
G01 X39.8642 Y33.5105 
G01 X39.8642 Y32.2832 
G01 X39.8940 Y32.1333 
G01 X39.9525 Y31.9921 
G01 X40.0374 Y31.8651 
G01 X40.1455 Y31.7570 
G01 X40.2725 Y31.6721 
G01 X40.4137 Y31.6136 
G01 X40.5636 Y31.5838 
G01 X40.7164 Y31.5838 
G01 X40.8663 Y31.6136 
G01 X41.0075 Y31.6721 
G01 X41.1345 Y31.7570 
G01 X41.2426 Y31.8651 
G01 X41.3275 Y31.9921 
G01 X41.3860 Y32.1333 
G01 X41.4158 Y32.2832 
G00 Z2.5400 
G00 X51.5758 Y32.2832 
G01 Z-0.1500 F254.00 
G01 X51.5758 Y33.7568 F508.00 
G01 X51.5460 Y33.9067 
G01 X51.4875 Y34.0479 
G01 X51.4026 Y34.1749 
G01 X51.2945 Y34.2830 
G01 X51.1675 Y34.3679 
G01 X51.0263 Y34.4264 
G01 X50.8764 Y34.4562 
G01 X50.7236 Y34.4562 
G01 X50.5737 Y34.4264 
G01 X50.4325 Y34.3679 
G01 X50.3055 Y34.2830 
G01 X50.1974 Y34.1749 
G01 X50.1125 Y34.0479 
G01 X50.0540 Y33.9067 
G01 X50.0242 Y33.7568 
G01 X50.0242 Y32.2832 
G01 X50.0540 Y32.1333 
G01 X50.1125 Y31.9921 
G01 X50.1974 Y31.8651 
G01 X50.3055 Y31.7570 
G01 X50.4325 Y31.6721 
G01 X50.5737 Y31.6136 
G01 X50.7236 Y31.5838 
G01 X50.8764 Y31.5838 
G01 X51.0263 Y31.6136 
G01 X51.1675 Y31.6721 
G01 X51.2945 Y31.7570 
G01 X51.4026 Y31.8651 
G01 X51.4875 Y31.9921 
G01 X51.5460 Y32.1333 
G01 X51.5758 Y32.2832 
G00 Z2.5400 
G00 X54.1158 Y32.2832 
G01 Z-0.1500 F254.00 
G01 X54.1158 Y33.7568 F508.00 
G01 X54.0860 Y33.9067 
G01 X54.0275 Y34.0479 
G01 X53.9426 Y34.1749 
G01 X53.8345 Y34.2830 
G01 X53.7075 Y34.3679 
G01 X53.5663 Y34.4264 
G01 X53.4164 Y34.4562 
G01 X53.2636 Y34.4562 
G01 X53.1137 Y34.4264 
G01 X52.9725 Y34.3679 
G01 X52.8455 Y34.2830 
G01 X52.7374 Y34.1749 
G01 X52.6525 Y34.0479 
G01 X52.5940 Y33.9067 
G01 X52.5642 Y33.7568 
G01 X52.5642 Y32.2832 
G01 X52.5940 Y32.1333 
G01 X52.6525 Y31.9921 
G01 X52.7374 Y31.8651 
G01 X52.8455 Y31.7570 
G01 X52.9725 Y31.6721 
G01 X53.1137 Y31.6136 
G01 X53.2636 Y31.5838 
G01 X53.4164 Y31.5838 
G01 X53.5663 Y31.6136 
G01 X53.7075 Y31.6721 
G01 X53.8345 Y31.7570 
G01 X53.9426 Y31.8651 
G01 X54.0275 Y31.9921 
G01 X54.0860 Y32.1333 
G01 X54.1158 Y32.2832 
G00 Z2.5400 
G00 X56.6558 Y32.2832 
G01 Z-0.1500 F254.00 
G01 X56.6558 Y33.5305 F508.00 
G01 X62.2883 Y39.1629 
G01 X62.3182 Y39.1506 
G01 X62.4386 Y39.1266 
G01 X62.5614 Y39.1266 
G01 X62.6818 Y39.1506 
G01 X62.7953 Y39.1975 
G01 X62.8974 Y39.2658 
G01 X62.9842 Y39.3526 
G01 X63.0524 Y39.4547 
G01 X63.0994 Y39.5682 
G01 X63.1234 Y39.6886 
G01 X63.1234 Y39.8114 
G01 X63.0994 Y39.9318 
G01 X63.0524 Y40.0453 
G01 X62.9842 Y40.1474 
G01 X62.8974 Y40.2342 
G01 X62.7953 Y40.3024 
G01 X62.6818 Y40.3494 
G01 X62.5614 Y40.3734 
G01 X62.4386 Y40.3734 
G01 X62.3182 Y40.3494 
G01 X62.2047 Y40.3024 
G01 X62.1026 Y40.2342 
G01 X62.0158 Y40.1474 
G01 X61.9475 Y40.0453 
G01 X61.9006 Y39.9318 
G01 X61.8766 Y39.8114 
G01 X61.8766 Y39.6886 
G01 X61.9006 Y39.5682 
G01 X61.9129 Y39.5383 
G01 X56.5094 Y34.1348 
G01 X56.4826 Y34.1749 
G01 X56.3745 Y34.2830 
G01 X56.2475 Y34.3679 
G01 X56.1063 Y34.4264 
G01 X55.9564 Y34.4562 
G01 X55.8036 Y34.4562 
G01 X55.6537 Y34.4264 
G01 X55.5125 Y34.3679 
G01 X55.3855 Y34.2830 
G01 X55.2774 Y34.1749 
G01 X55.1925 Y34.0479 
G01 X55.1340 Y33.9067 
G01 X55.1042 Y33.7568 
G01 X55.1042 Y32.2832 
G01 X55.1340 Y32.1333 
G01 X55.1925 Y31.9921 
G01 X55.2774 Y31.8651 
G01 X55.3855 Y31.7570 
G01 X55.5125 Y31.6721 
G01 X55.6537 Y31.6136 
G01 X55.8036 Y31.5838 
G01 X55.9564 Y31.5838 
G01 X56.1063 Y31.6136 
G01 X56.2475 Y31.6721 
G01 X56.3745 Y31.7570 
G01 X56.4826 Y31.8651 
G01 X56.5675 Y31.9921 
G01 X56.6260 Y32.1333 
G01 X56.6558 Y32.2832 
G00 Z2.5400 
G00 X59.1958 Y32.2832 
G01 Z-0.1500 F254.00 
G01 X59.1958 Y33.5705 F508.00 
G01 X63.6630 Y38.0376 
G01 X63.7124 Y38.0870 
G01 X63.7473 Y38.1476 
G01 X63.7654 Y38.2151 
G01 X63.7654 Y54.3593 
G01 X64.4846 Y53.6401 
G01 X64.4846 Y52.9855 
G01 X64.3908 Y52.9855 
G01 X63.8545 Y52.4492 
G01 X63.8545 Y51.6908 
G01 X64.3908 Y51.1545 
G01 X65.1492 Y51.1545 
G01 X65.6855 Y51.6908 
G01 X65.6855 Y52.4492 
G01 X65.1492 Y52.9855 
G01 X65.0154 Y52.9855 
G01 X65.0154 Y53.7849 
G01 X64.9973 Y53.8524 
G01 X64.9624 Y53.9130 
G01 X63.7124 Y55.1630 
G01 X62.9454 Y55.9299 
G01 X62.9454 Y56.6730 
G01 X62.9278 Y56.7154 
G01 X62.8954 Y56.7478 
G01 X62.8530 Y56.7654 
G01 X61.6070 Y56.7654 
G01 X61.5646 Y56.7478 
G01 X61.5322 Y56.7154 
G01 X61.5146 Y56.6730 
G01 X61.5146 Y55.8270 
G01 X61.5322 Y55.7846 
G01 X61.5646 Y55.7522 
G01 X61.6070 Y55.7346 
G01 X62.3901 Y55.7346 
G01 X63.2346 Y54.8901 
G01 X63.2346 Y38.3599 
G01 X59.0334 Y34.1587 
G01 X59.0226 Y34.1749 
G01 X58.9145 Y34.2830 
G01 X58.7875 Y34.3679 
G01 X58.6463 Y34.4264 
G01 X58.4964 Y34.4562 
G01 X58.3436 Y34.4562 
G01 X58.1937 Y34.4264 
G01 X58.0525 Y34.3679 
G01 X57.9255 Y34.2830 
G01 X57.8174 Y34.1749 
G01 X57.7325 Y34.0479 
G01 X57.6740 Y33.9067 
G01 X57.6442 Y33.7568 
G01 X57.6442 Y32.2832 
G01 X57.6740 Y32.1333 
G01 X57.7325 Y31.9921 
G01 X57.8174 Y31.8651 
G01 X57.9255 Y31.7570 
G01 X58.0525 Y31.6721 
G01 X58.1937 Y31.6136 
G01 X58.3436 Y31.5838 
G01 X58.4964 Y31.5838 
G01 X58.6463 Y31.6136 
G01 X58.7875 Y31.6721 
G01 X58.9145 Y31.7570 
G01 X59.0226 Y31.8651 
G01 X59.1075 Y31.9921 
G01 X59.1660 Y32.1333 
G01 X59.1958 Y32.2832 
G00 Z2.5400 
G00 X60.0826 Y5.9284 
G01 Z-0.1500 F254.00 
G01 X60.0826 Y4.2316 F508.00 
G01 X60.1163 Y4.0621 
G01 X60.1825 Y3.9024 
G01 X60.2785 Y3.7587 
G01 X60.4007 Y3.6365 
G01 X60.5444 Y3.5405 
G01 X60.7041 Y3.4743 
G01 X60.8736 Y3.4406 
G01 X61.0464 Y3.4406 
G01 X61.2159 Y3.4743 
G01 X61.3756 Y3.5405 
G01 X61.5193 Y3.6365 
G01 X61.6415 Y3.7587 
G01 X61.7375 Y3.9024 
G01 X61.8037 Y4.0621 
G01 X61.8374 Y4.2316 
G01 X61.8374 Y5.9284 
G01 X61.8037 Y6.0979 
G01 X61.7375 Y6.2576 
G01 X61.6415 Y6.4013 
G01 X61.5193 Y6.5235 
G01 X61.3756 Y6.6195 
G01 X61.2654 Y6.6652 
G01 X61.2654 Y24.0264 
G01 X61.3275 Y24.0521 
G01 X61.4545 Y24.1370 
G01 X61.5626 Y24.2451 
G01 X61.6475 Y24.3721 
G01 X61.7060 Y24.5133 
G01 X61.7358 Y24.6632 
G01 X61.7358 Y26.1368 
G01 X61.7060 Y26.2867 
G01 X61.6475 Y26.4279 
G01 X61.5626 Y26.5549 
G01 X61.4545 Y26.6630 
G01 X61.3275 Y26.7479 
G01 X61.1863 Y26.8064 
G01 X61.0364 Y26.8362 
G01 X60.8836 Y26.8362 
G01 X60.7337 Y26.8064 
G01 X60.5925 Y26.7479 
G01 X60.4655 Y26.6630 
G01 X60.3574 Y26.5549 
G01 X60.2725 Y26.4279 
G01 X60.2140 Y26.2867 
G01 X60.1842 Y26.1368 
G01 X60.1842 Y24.6632 
G01 X60.2140 Y24.5133 
G01 X60.2725 Y24.3721 
G01 X60.3574 Y24.2451 
G01 X60.4655 Y24.1370 
G01 X60.5925 Y24.0521 
G01 X60.7337 Y23.9936 
G01 X60.7346 Y6.6918 
G01 X60.7041 Y6.6857 
G01 X60.5444 Y6.6195 
G01 X60.4007 Y6.5235 
G01 X60.2785 Y6.4013 
G01 X60.1825 Y6.2576 
G01 X60.1163 Y6.0979 
G01 X60.0826 Y5.9284 
G00 Z2.5400 
G00 X55.0026 Y5.9284 
G01 Z-0.1500 F254.00 
G01 X55.0026 Y4.2316 F508.00 
G01 X55.0363 Y4.0621 
G01 X55.1025 Y3.9024 
G01 X55.1985 Y3.7587 
G01 X55.3207 Y3.6365 
G01 X55.4644 Y3.5405 
G01 X55.6241 Y3.4743 
G01 X55.7936 Y3.4406 
G01 X55.9664 Y3.4406 
G01 X56.1359 Y3.4743 
G01 X56.2956 Y3.5405 
G01 X56.4393 Y3.6365 
G01 X56.5615 Y3.7587 
G01 X56.6575 Y3.9024 
G01 X56.7237 Y4.0621 
G01 X56.7574 Y4.2316 
G01 X56.7574 Y5.9284 
G01 X56.7237 Y6.0979 
G01 X56.6575 Y6.2576 
G01 X56.5615 Y6.4013 
G01 X56.4393 Y6.5235 
G01 X56.2956 Y6.6195 
G01 X56.2654 Y6.6321 
G01 X56.2654 Y24.0641 
G01 X56.3745 Y24.1370 
G01 X56.4826 Y24.2451 
G01 X56.5675 Y24.3721 
G01 X56.6260 Y24.5133 
G01 X56.6558 Y24.6632 
G01 X56.6558 Y26.1368 
G01 X56.6260 Y26.2867 
G01 X56.5675 Y26.4279 
G01 X56.4826 Y26.5549 
G01 X56.3745 Y26.6630 
G01 X56.2475 Y26.7479 
G01 X56.1063 Y26.8064 
G01 X55.9564 Y26.8362 
G01 X55.8036 Y26.8362 
G01 X55.6537 Y26.8064 
G01 X55.5125 Y26.7479 
G01 X55.3855 Y26.6630 
G01 X55.2774 Y26.5549 
G01 X55.1925 Y26.4279 
G01 X55.1340 Y26.2867 
G01 X55.1042 Y26.1368 
G01 X55.1042 Y24.6632 
G01 X55.1340 Y24.5133 
G01 X55.1925 Y24.3721 
G01 X55.2774 Y24.2451 
G01 X55.3855 Y24.1370 
G01 X55.5125 Y24.0521 
G01 X55.6537 Y23.9936 
G01 X55.7346 Y23.9775 
G01 X55.7346 Y6.7077 
G01 X55.6241 Y6.6857 
G01 X55.4644 Y6.6195 
G01 X55.3207 Y6.5235 
G01 X55.1985 Y6.4013 
G01 X55.1025 Y6.2576 
G01 X55.0363 Y6.0979 
G01 X55.0026 Y5.9284 
G00 Z2.5400 
G00 X57.7730 Y56.7654 
G01 Z-0.1500 F254.00 
G01 X57.5154 Y56.7654 F508.00 
G01 X57.5154 Y56.9846 
G01 X62.8901 Y56.9846 
G01 X64.4846 Y55.3901 
G01 X64.4846 Y54.7151 
G01 X64.5027 Y54.6476 
G01 X64.5376 Y54.5870 
G01 X64.5870 Y54.5376 
G01 X64.6476 Y54.5027 
G01 X64.7151 Y54.4846 
G01 X68.2849 Y54.4846 
G01 X68.3524 Y54.5027 
G01 X68.4130 Y54.5376 
G01 X68.4624 Y54.5870 
G01 X69.1099 Y55.2346 
G01 X70.0530 Y55.2346 
G01 X70.0954 Y55.2522 
G01 X70.1278 Y55.2846 
G01 X70.1454 Y55.3270 
G01 X70.1454 Y56.7730 
G01 X70.1278 Y56.8154 
G01 X70.0954 Y56.8478 
G01 X70.0530 Y56.8654 
G01 X69.0070 Y56.8654 
G01 X68.9646 Y56.8478 
G01 X68.9322 Y56.8154 
G01 X68.9146 Y56.7730 
G01 X68.9146 Y55.7899 
G01 X68.1401 Y55.0154 
G01 X65.0154 Y55.0154 
G01 X65.0154 Y55.5349 
G01 X64.9973 Y55.6024 
G01 X64.9624 Y55.6630 
G01 X63.2124 Y57.4130 
G01 X63.1630 Y57.4624 
G01 X63.1024 Y57.4973 
G01 X63.0349 Y57.5154 
G01 X57.2151 Y57.5154 
G01 X57.1476 Y57.4973 
G01 X57.0870 Y57.4624 
G01 X57.0376 Y57.4130 
G01 X57.0027 Y57.3524 
G01 X56.9846 Y57.2849 
G01 X56.9846 Y56.7654 
G01 X56.8599 Y56.7654 
G01 X56.2654 Y57.3599 
G01 X56.2654 Y62.2849 
G01 X56.2473 Y62.3524 
G01 X56.2124 Y62.4130 
G01 X56.1630 Y62.4624 
G01 X55.7644 Y62.8609 
G01 X55.7644 Y64.1422 
G01 X55.7319 Y64.3053 
G01 X55.6683 Y64.4590 
G01 X55.5759 Y64.5973 
G01 X55.4583 Y64.7149 
G01 X55.3200 Y64.8073 
G01 X55.1663 Y64.8709 
G01 X55.0032 Y64.9034 
G01 X54.8368 Y64.9034 
G01 X54.6737 Y64.8709 
G01 X54.5200 Y64.8073 
G01 X54.3817 Y64.7149 
G01 X54.2641 Y64.5973 
G01 X54.1717 Y64.4590 
G01 X54.1081 Y64.3053 
G01 X54.0756 Y64.1422 
G01 X54.0756 Y62.5178 
G01 X54.1081 Y62.3547 
G01 X54.1717 Y62.2010 
G01 X54.2641 Y62.0627 
G01 X54.3817 Y61.9451 
G01 X54.5200 Y61.8527 
G01 X54.6737 Y61.7891 
G01 X54.8368 Y61.7566 
G01 X55.0032 Y61.7566 
G01 X55.1663 Y61.7891 
G01 X55.3200 Y61.8527 
G01 X55.4583 Y61.9451 
G01 X55.5759 Y62.0627 
G01 X55.6683 Y62.2010 
G01 X55.6699 Y62.2048 
G01 X55.7346 Y62.1401 
G01 X55.7346 Y58.1099 
G01 X48.5701 Y50.9454 
G01 X47.6370 Y50.9454 
G01 X47.5946 Y50.9278 
G01 X47.5622 Y50.8954 
G01 X47.5446 Y50.8530 
G01 X47.5446 Y50.7654 
G01 X45.1654 Y50.7654 
G01 X45.1654 Y50.8530 
G01 X45.1478 Y50.8954 
G01 X45.1154 Y50.9278 
G01 X45.0730 Y50.9454 
G01 X43.8270 Y50.9454 
G01 X43.7846 Y50.9278 
G01 X43.7522 Y50.8954 
G01 X43.7346 Y50.8530 
G01 X43.7346 Y50.7654 
G01 X41.5154 Y50.7654 
G01 X41.5154 Y58.8950 
G01 X41.6665 Y58.9575 
G01 X41.8019 Y59.0479 
G01 X41.9171 Y59.1631 
G01 X42.0075 Y59.2985 
G01 X42.0698 Y59.4489 
G01 X42.1016 Y59.6086 
G01 X42.1016 Y59.7714 
G01 X42.0698 Y59.9311 
G01 X42.0075 Y60.0815 
G01 X41.9171 Y60.2169 
G01 X41.8019 Y60.3321 
G01 X41.6665 Y60.4225 
G01 X41.5161 Y60.4848 
G01 X41.3564 Y60.5166 
G01 X41.1936 Y60.5166 
G01 X41.0339 Y60.4848 
G01 X40.8835 Y60.4225 
G01 X40.7481 Y60.3321 
G01 X40.6329 Y60.2169 
G01 X40.5425 Y60.0815 
G01 X40.4802 Y59.9311 
G01 X40.4484 Y59.7714 
G01 X40.4484 Y59.6086 
G01 X40.4802 Y59.4489 
G01 X40.5425 Y59.2985 
G01 X40.6329 Y59.1631 
G01 X40.7481 Y59.0479 
G01 X40.8835 Y58.9575 
G01 X40.9846 Y58.9156 
G01 X40.9846 Y50.9454 
G01 X40.0170 Y50.9454 
G01 X39.9746 Y50.9278 
G01 X39.9422 Y50.8954 
G01 X39.9246 Y50.8530 
G01 X39.9246 Y50.0070 
G01 X39.9422 Y49.9646 
G01 X39.9746 Y49.9322 
G01 X40.0170 Y49.9146 
G01 X41.2630 Y49.9146 
G01 X41.3054 Y49.9322 
G01 X41.3378 Y49.9646 
G01 X41.3554 Y50.0070 
G01 X41.3554 Y50.2346 
G01 X43.7346 Y50.2346 
G01 X43.7346 Y50.0070 
G01 X43.7522 Y49.9646 
G01 X43.7846 Y49.9322 
G01 X43.8270 Y49.9146 
G01 X45.0730 Y49.9146 
G01 X45.1154 Y49.9322 
G01 X45.1478 Y49.9646 
G01 X45.1654 Y50.0070 
G01 X45.1654 Y50.2346 
G01 X45.4846 Y50.2346 
G01 X45.4846 Y34.4226 
G01 X45.3525 Y34.3679 
G01 X45.2255 Y34.2830 
G01 X45.1174 Y34.1749 
G01 X45.0325 Y34.0479 
G01 X44.9740 Y33.9067 
G01 X44.9442 Y33.7568 
G01 X44.9442 Y32.2832 
G01 X44.9740 Y32.1333 
G01 X45.0325 Y31.9921 
G01 X45.1174 Y31.8651 
G01 X45.2255 Y31.7570 
G01 X45.3525 Y31.6721 
G01 X45.4846 Y31.6174 
G01 X45.4846 Y30.3599 
G01 X41.7876 Y26.6630 
G01 X41.7527 Y26.6024 
G01 X41.7346 Y26.5349 
G01 X41.7346 Y24.2151 
G01 X41.7527 Y24.1476 
G01 X41.7876 Y24.0870 
G01 X41.8370 Y24.0376 
G01 X42.9846 Y22.8901 
G01 X42.9846 Y6.6977 
G01 X42.9241 Y6.6857 
G01 X42.7644 Y6.6195 
G01 X42.6207 Y6.5235 
G01 X42.4985 Y6.4013 
G01 X42.4025 Y6.2576 
G01 X42.3363 Y6.0979 
G01 X42.3026 Y5.9284 
G01 X42.3026 Y5.5154 
G01 X41.5174 Y5.5154 
G01 X41.5174 Y5.9284 
G01 X41.4837 Y6.0979 
G01 X41.4175 Y6.2576 
G01 X41.3215 Y6.4013 
G01 X41.1993 Y6.5235 
G01 X41.0556 Y6.6195 
G01 X40.8959 Y6.6857 
G01 X40.7264 Y6.7194 
G01 X40.5536 Y6.7194 
G01 X40.3841 Y6.6857 
G01 X40.2244 Y6.6195 
G01 X40.0807 Y6.5235 
G01 X39.9585 Y6.4013 
G01 X39.8625 Y6.2576 
G01 X39.7963 Y6.0979 
G01 X39.7626 Y5.9284 
G01 X39.7626 Y4.2316 
G01 X39.7963 Y4.0621 
G01 X39.8625 Y3.9024 
G01 X39.9585 Y3.7587 
G01 X40.0807 Y3.6365 
G01 X40.2244 Y3.5405 
G01 X40.3841 Y3.4743 
G01 X40.5536 Y3.4406 
G01 X40.7264 Y3.4406 
G01 X40.8959 Y3.4743 
G01 X41.0556 Y3.5405 
G01 X41.1993 Y3.6365 
G01 X41.3215 Y3.7587 
G01 X41.4175 Y3.9024 
G01 X41.4837 Y4.0621 
G01 X41.5174 Y4.2316 
G01 X41.5174 Y4.9846 
G01 X42.3026 Y4.9846 
G01 X42.3026 Y4.2316 
G01 X42.3363 Y4.0621 
G01 X42.4025 Y3.9024 
G01 X42.4985 Y3.7587 
G01 X42.6207 Y3.6365 
G01 X42.7644 Y3.5405 
G01 X42.9241 Y3.4743 
G01 X43.0936 Y3.4406 
G01 X43.2664 Y3.4406 
G01 X43.4359 Y3.4743 
G01 X43.5956 Y3.5405 
G01 X43.7393 Y3.6365 
G01 X43.8615 Y3.7587 
G01 X43.9575 Y3.9024 
G01 X44.0237 Y4.0621 
G01 X44.0574 Y4.2316 
G01 X44.0574 Y5.9284 
G01 X44.0237 Y6.0979 
G01 X43.9575 Y6.2576 
G01 X43.8615 Y6.4013 
G01 X43.7393 Y6.5235 
G01 X43.5956 Y6.6195 
G01 X43.5154 Y6.6528 
G01 X43.5154 Y23.0349 
G01 X43.4973 Y23.1024 
G01 X43.4624 Y23.1630 
G01 X42.2654 Y24.3599 
G01 X42.2654 Y26.3901 
G01 X45.4846 Y29.6093 
G01 X45.4846 Y27.9651 
G01 X45.5027 Y27.8976 
G01 X45.5376 Y27.8370 
G01 X45.5870 Y27.7876 
G01 X47.4842 Y25.8905 
G01 X47.4842 Y24.6632 
G01 X47.5140 Y24.5133 
G01 X47.5725 Y24.3721 
G01 X47.6574 Y24.2451 
G01 X47.7655 Y24.1370 
G01 X47.8925 Y24.0521 
G01 X48.0337 Y23.9936 
G01 X48.1836 Y23.9638 
G01 X48.3364 Y23.9638 
G01 X48.4863 Y23.9936 
G01 X48.6275 Y24.0521 
G01 X48.7545 Y24.1370 
G01 X48.8626 Y24.2451 
G01 X48.9475 Y24.3721 
G01 X49.0060 Y24.5133 
G01 X49.0358 Y24.6632 
G01 X49.0358 Y26.1368 
G01 X49.0060 Y26.2867 
G01 X48.9475 Y26.4279 
G01 X48.8626 Y26.5549 
G01 X48.7545 Y26.6630 
G01 X48.6275 Y26.7479 
G01 X48.4863 Y26.8064 
G01 X48.3364 Y26.8362 
G01 X48.1836 Y26.8362 
G01 X48.0337 Y26.8064 
G01 X47.8925 Y26.7479 
G01 X47.7655 Y26.6630 
G01 X47.6574 Y26.5549 
G01 X47.6225 Y26.5028 
G01 X46.0154 Y28.1099 
G01 X46.0154 Y31.6422 
G01 X46.0875 Y31.6721 
G01 X46.2145 Y31.7570 
G01 X46.3226 Y31.8651 
G01 X46.4075 Y31.9921 
G01 X46.4660 Y32.1333 
G01 X46.4958 Y32.2832 
G01 X46.4958 Y33.7568 
G01 X46.4660 Y33.9067 
G01 X46.4075 Y34.0479 
G01 X46.3226 Y34.1749 
G01 X46.2145 Y34.2830 
G01 X46.0875 Y34.3679 
G01 X46.0154 Y34.3978 
G01 X46.0154 Y50.2346 
G01 X47.5446 Y50.2346 
G01 X47.5446 Y50.0070 
G01 X47.5622 Y49.9646 
G01 X47.5946 Y49.9322 
G01 X47.6370 Y49.9146 
G01 X48.8830 Y49.9146 
G01 X48.9254 Y49.9322 
G01 X48.9578 Y49.9646 
G01 X48.9754 Y50.0070 
G01 X48.9754 Y50.6001 
G01 X55.7346 Y57.3593 
G01 X55.7346 Y57.2151 
G01 X55.7527 Y57.1476 
G01 X55.7876 Y57.0870 
G01 X56.4346 Y56.4401 
G01 X56.4346 Y55.8270 
G01 X56.4522 Y55.7846 
G01 X56.4846 Y55.7522 
G01 X56.5270 Y55.7346 
G01 X56.9846 Y55.7346 
G01 X56.9846 Y52.9855 
G01 X56.7708 Y52.9855 
G01 X56.2345 Y52.4492 
G01 X56.2345 Y51.6908 
G01 X56.7708 Y51.1545 
G01 X57.5292 Y51.1545 
G01 X58.0655 Y51.6908 
G01 X58.0655 Y52.4492 
G01 X57.5292 Y52.9855 
G01 X57.5154 Y52.9855 
G01 X57.5154 Y55.7346 
G01 X57.7730 Y55.7346 
G01 X57.8154 Y55.7522 
G01 X57.8478 Y55.7846 
G01 X57.8654 Y55.8270 
G01 X57.8654 Y56.6730 
G01 X57.8478 Y56.7154 
G01 X57.8154 Y56.7478 
G01 X57.7730 Y56.7654 
G00 Z2.5400 
G00 X31.6046 Y48.8830 
G01 Z-0.1500 F254.00 
G01 X31.6046 Y47.6370 F508.00 
G01 X31.6222 Y47.5946 
G01 X31.6546 Y47.5622 
G01 X31.6970 Y47.5446 
G01 X32.5430 Y47.5446 
G01 X32.5692 Y47.5555 
G01 X35.4129 Y44.7117 
G01 X35.4006 Y44.6818 
G01 X35.3766 Y44.5614 
G01 X35.3766 Y44.4386 
G01 X35.4006 Y44.3182 
G01 X35.4475 Y44.2047 
G01 X35.5158 Y44.1026 
G01 X35.6026 Y44.0158 
G01 X35.7047 Y43.9475 
G01 X35.8182 Y43.9006 
G01 X35.9386 Y43.8766 
G01 X36.0614 Y43.8766 
G01 X36.1818 Y43.9006 
G01 X36.2953 Y43.9475 
G01 X36.3974 Y44.0158 
G01 X36.4842 Y44.1026 
G01 X36.5524 Y44.2047 
G01 X36.5994 Y44.3182 
G01 X36.6234 Y44.4386 
G01 X36.6234 Y44.5614 
G01 X36.5994 Y44.6818 
G01 X36.5524 Y44.7953 
G01 X36.4842 Y44.8974 
G01 X36.3974 Y44.9842 
G01 X36.2953 Y45.0524 
G01 X36.1818 Y45.0994 
G01 X36.0614 Y45.1234 
G01 X35.9386 Y45.1234 
G01 X35.8182 Y45.0994 
G01 X35.7883 Y45.0871 
G01 X32.6354 Y48.2399 
G01 X32.6354 Y48.8830 
G01 X32.6178 Y48.9254 
G01 X32.5854 Y48.9578 
G01 X32.5430 Y48.9754 
G01 X31.6970 Y48.9754 
G01 X31.6546 Y48.9578 
G01 X31.6222 Y48.9254 
G01 X31.6046 Y48.8830 
G00 Z2.5400 
G00 X69.4654 Y47.6370 
G01 Z-0.1500 F254.00 
G01 X69.4654 Y48.8830 F508.00 
G01 X69.4478 Y48.9254 
G01 X69.4154 Y48.9578 
G01 X69.3730 Y48.9754 
G01 X68.5270 Y48.9754 
G01 X68.4846 Y48.9578 
G01 X68.4522 Y48.9254 
G01 X68.4346 Y48.8830 
G01 X68.4346 Y48.3099 
G01 X65.3197 Y45.1950 
G01 X65.1492 Y45.3655 
G01 X64.3908 Y45.3655 
G01 X63.8545 Y44.8292 
G01 X63.8545 Y44.0708 
G01 X64.2346 Y43.6907 
G01 X64.2346 Y36.8599 
G01 X61.5561 Y34.1814 
G01 X61.4545 Y34.2830 
G01 X61.3275 Y34.3679 
G01 X61.1863 Y34.4264 
G01 X61.0364 Y34.4562 
G01 X60.8836 Y34.4562 
G01 X60.7337 Y34.4264 
G01 X60.5925 Y34.3679 
G01 X60.4655 Y34.2830 
G01 X60.3574 Y34.1749 
G01 X60.2725 Y34.0479 
G01 X60.2140 Y33.9067 
G01 X60.1842 Y33.7568 
G01 X60.1842 Y32.2832 
G01 X60.2140 Y32.1333 
G01 X60.2725 Y31.9921 
G01 X60.3574 Y31.8651 
G01 X60.4655 Y31.7570 
G01 X60.5925 Y31.6721 
G01 X60.7337 Y31.6136 
G01 X60.8836 Y31.5838 
G01 X61.0364 Y31.5838 
G01 X61.1863 Y31.6136 
G01 X61.3275 Y31.6721 
G01 X61.4545 Y31.7570 
G01 X61.5626 Y31.8651 
G01 X61.6475 Y31.9921 
G01 X61.7060 Y32.1333 
G01 X61.7358 Y32.2832 
G01 X61.7358 Y33.6105 
G01 X64.6630 Y36.5376 
G01 X64.7124 Y36.5870 
G01 X64.7473 Y36.6476 
G01 X64.7654 Y36.7151 
G01 X64.7654 Y43.5345 
G01 X65.1492 Y43.5345 
G01 X65.6855 Y44.0708 
G01 X65.6855 Y44.8102 
G01 X68.4611 Y47.5857 
G01 X68.4846 Y47.5622 
G01 X68.5270 Y47.5446 
G01 X69.3730 Y47.5446 
G01 X69.4154 Y47.5622 
G01 X69.4478 Y47.5946 
G01 X69.4654 Y47.6370 
G00 Z2.5400 
G00 X58.0655 Y44.0708 
G01 Z-0.1500 F254.00 
G01 X58.0655 Y44.8292 F508.00 
G01 X57.5292 Y45.3655 
G01 X56.7708 Y45.3655 
G01 X56.2345 Y44.8292 
G01 X56.2345 Y44.0708 
G01 X56.7708 Y43.5345 
G01 X57.5292 Y43.5345 
G01 X58.0655 Y44.0708 
G00 Z2.5400 
G00 X58.0655 Y46.6108 
G01 Z-0.1500 F254.00 
G01 X58.0655 Y47.3692 F508.00 
G01 X57.5292 Y47.9055 
G01 X56.7708 Y47.9055 
G01 X56.2345 Y47.3692 
G01 X56.2345 Y46.6108 
G01 X56.7708 Y46.0745 
G01 X57.5292 Y46.0745 
G01 X58.0655 Y46.6108 
G00 Z2.5400 
G00 X58.0655 Y49.1508 
G01 Z-0.1500 F254.00 
G01 X58.0655 Y49.9092 F508.00 
G01 X57.5292 Y50.4455 
G01 X56.7708 Y50.4455 
G01 X56.2345 Y49.9092 
G01 X56.2345 Y49.1508 
G01 X56.7708 Y48.6145 
G01 X57.5292 Y48.6145 
G01 X58.0655 Y49.1508 
G00 Z2.5400 
G00 X40.8316 Y57.0686 
G01 Z-0.1500 F254.00 
G01 X40.8316 Y57.2314 F508.00 
G01 X40.7998 Y57.3911 
G01 X40.7375 Y57.5415 
G01 X40.6471 Y57.6769 
G01 X40.5319 Y57.7921 
G01 X40.3965 Y57.8825 
G01 X40.2461 Y57.9448 
G01 X40.0864 Y57.9766 
G01 X39.9236 Y57.9766 
G01 X39.7639 Y57.9448 
G01 X39.6135 Y57.8825 
G01 X39.4781 Y57.7921 
G01 X39.3629 Y57.6769 
G01 X39.2725 Y57.5415 
G01 X39.2102 Y57.3911 
G01 X39.1784 Y57.2314 
G01 X39.1784 Y57.0686 
G01 X39.2102 Y56.9089 
G01 X39.2725 Y56.7585 
G01 X39.3629 Y56.6231 
G01 X39.4781 Y56.5079 
G01 X39.6135 Y56.4175 
G01 X39.7639 Y56.3552 
G01 X39.9236 Y56.3234 
G01 X40.0864 Y56.3234 
G01 X40.2461 Y56.3552 
G01 X40.3965 Y56.4175 
G01 X40.5319 Y56.5079 
G01 X40.6471 Y56.6231 
G01 X40.7375 Y56.7585 
G01 X40.7998 Y56.9089 
G01 X40.8316 Y57.0686 
G00 Z2.5400 
G00 X43.3716 Y57.0686 
G01 Z-0.1500 F254.00 
G01 X43.3716 Y57.2314 F508.00 
G01 X43.3398 Y57.3911 
G01 X43.2775 Y57.5415 
G01 X43.1871 Y57.6769 
G01 X43.0719 Y57.7921 
G01 X42.9365 Y57.8825 
G01 X42.7861 Y57.9448 
G01 X42.6264 Y57.9766 
G01 X42.4636 Y57.9766 
G01 X42.3039 Y57.9448 
G01 X42.1535 Y57.8825 
G01 X42.0181 Y57.7921 
G01 X41.9029 Y57.6769 
G01 X41.8125 Y57.5415 
G01 X41.7502 Y57.3911 
G01 X41.7184 Y57.2314 
G01 X41.7184 Y57.0686 
G01 X41.7502 Y56.9089 
G01 X41.8125 Y56.7585 
G01 X41.9029 Y56.6231 
G01 X42.0181 Y56.5079 
G01 X42.1535 Y56.4175 
G01 X42.3039 Y56.3552 
G01 X42.4636 Y56.3234 
G01 X42.6264 Y56.3234 
G01 X42.7861 Y56.3552 
G01 X42.9365 Y56.4175 
G01 X43.0719 Y56.5079 
G01 X43.1871 Y56.6231 
G01 X43.2775 Y56.7585 
G01 X43.3398 Y56.9089 
G01 X43.3716 Y57.0686 
G00 Z2.5400 
G00 X44.6416 Y59.6086 
G01 Z-0.1500 F254.00 
G01 X44.6416 Y59.7714 F508.00 
G01 X44.6098 Y59.9311 
G01 X44.5475 Y60.0815 
G01 X44.4571 Y60.2169 
G01 X44.3419 Y60.3321 
G01 X44.2065 Y60.4225 
G01 X44.0561 Y60.4848 
G01 X43.8964 Y60.5166 
G01 X43.7336 Y60.5166 
G01 X43.5739 Y60.4848 
G01 X43.4442 Y60.4311 
G01 X42.7124 Y61.1630 
G01 X42.6630 Y61.2124 
G01 X42.6024 Y61.2473 
G01 X42.5349 Y61.2654 
G01 X29.9651 Y61.2654 
G01 X29.8976 Y61.2473 
G01 X29.8370 Y61.2124 
G01 X29.7876 Y61.1630 
G01 X29.7527 Y61.1024 
G01 X29.7346 Y61.0349 
G01 X29.7346 Y60.5108 
G01 X29.6039 Y60.4848 
G01 X29.4535 Y60.4225 
G01 X29.3181 Y60.3321 
G01 X29.2029 Y60.2169 
G01 X29.1125 Y60.0815 
G01 X29.0502 Y59.9311 
G01 X29.0184 Y59.7714 
G01 X29.0184 Y59.6086 
G01 X29.0502 Y59.4489 
G01 X29.1125 Y59.2985 
G01 X29.2029 Y59.1631 
G01 X29.3181 Y59.0479 
G01 X29.4535 Y58.9575 
G01 X29.6039 Y58.8952 
G01 X29.7346 Y58.8692 
G01 X29.7346 Y55.9651 
G01 X29.7527 Y55.8976 
G01 X29.7876 Y55.8370 
G01 X29.8370 Y55.7876 
G01 X33.4046 Y52.2201 
G01 X33.4046 Y51.4470 
G01 X33.4222 Y51.4046 
G01 X33.4546 Y51.3722 
G01 X33.4970 Y51.3546 
G01 X33.7346 Y51.3546 
G01 X33.7346 Y48.9754 
G01 X33.4970 Y48.9754 
G01 X33.4546 Y48.9578 
G01 X33.4222 Y48.9254 
G01 X33.4046 Y48.8830 
G01 X33.4046 Y47.6370 
G01 X33.4222 Y47.5946 
G01 X33.4546 Y47.5622 
G01 X33.4970 Y47.5446 
G01 X34.3430 Y47.5446 
G01 X34.3854 Y47.5622 
G01 X34.4178 Y47.5946 
G01 X34.4354 Y47.6370 
G01 X34.4354 Y48.8830 
G01 X34.4178 Y48.9254 
G01 X34.3854 Y48.9578 
G01 X34.3430 Y48.9754 
G01 X34.2654 Y48.9754 
G01 X34.2654 Y51.3546 
G01 X34.3430 Y51.3546 
G01 X34.3854 Y51.3722 
G01 X34.4178 Y51.4046 
G01 X34.4354 Y51.4470 
G01 X34.4354 Y52.6930 
G01 X34.4178 Y52.7354 
G01 X34.3854 Y52.7678 
G01 X34.3430 Y52.7854 
G01 X33.5899 Y52.7854 
G01 X30.2654 Y56.1099 
G01 X30.2654 Y58.9768 
G01 X30.3719 Y59.0479 
G01 X30.4871 Y59.1631 
G01 X30.5775 Y59.2985 
G01 X30.6398 Y59.4489 
G01 X30.6716 Y59.6086 
G01 X30.6716 Y59.7714 
G01 X30.6398 Y59.9311 
G01 X30.5775 Y60.0815 
G01 X30.4871 Y60.2169 
G01 X30.3719 Y60.3321 
G01 X30.2654 Y60.4032 
G01 X30.2654 Y60.7346 
G01 X42.3901 Y60.7346 
G01 X43.0710 Y60.0537 
G01 X43.0202 Y59.9311 
G01 X42.9884 Y59.7714 
G01 X42.9884 Y59.6086 
G01 X43.0202 Y59.4489 
G01 X43.0825 Y59.2985 
G01 X43.1729 Y59.1631 
G01 X43.2881 Y59.0479 
G01 X43.4235 Y58.9575 
G01 X43.5739 Y58.8952 
G01 X43.7336 Y58.8634 
G01 X43.8964 Y58.8634 
G01 X44.0561 Y58.8952 
G01 X44.2065 Y58.9575 
G01 X44.3419 Y59.0479 
G01 X44.4571 Y59.1631 
G01 X44.5475 Y59.2985 
G01 X44.6098 Y59.4489 
G01 X44.6416 Y59.6086 
G00 Z2.5400 
G00 X68.2454 Y55.3270 
G01 Z-0.1500 F254.00 
G01 X68.2454 Y56.7730 F508.00 
G01 X68.2278 Y56.8154 
G01 X68.1954 Y56.8478 
G01 X68.1530 Y56.8654 
G01 X67.1070 Y56.8654 
G01 X67.0646 Y56.8478 
G01 X67.0322 Y56.8154 
G01 X67.0146 Y56.7730 
G01 X67.0146 Y56.5154 
G01 X65.1099 Y56.5154 
G01 X63.4624 Y58.1630 
G01 X63.4130 Y58.2124 
G01 X63.3524 Y58.2473 
G01 X63.2849 Y58.2654 
G01 X62.9454 Y58.2654 
G01 X62.9454 Y58.4730 
G01 X62.9278 Y58.5154 
G01 X62.8954 Y58.5478 
G01 X62.8530 Y58.5654 
G01 X61.6070 Y58.5654 
G01 X61.5646 Y58.5478 
G01 X61.5322 Y58.5154 
G01 X61.5146 Y58.4730 
G01 X61.5146 Y58.2654 
G01 X57.8654 Y58.2654 
G01 X57.8654 Y58.4730 
G01 X57.8478 Y58.5154 
G01 X57.8154 Y58.5478 
G01 X57.7730 Y58.5654 
G01 X56.5270 Y58.5654 
G01 X56.4846 Y58.5478 
G01 X56.4522 Y58.5154 
G01 X56.4346 Y58.4730 
G01 X56.4346 Y57.6270 
G01 X56.4522 Y57.5846 
G01 X56.4846 Y57.5522 
G01 X56.5270 Y57.5346 
G01 X57.7730 Y57.5346 
G01 X57.8154 Y57.5522 
G01 X57.8478 Y57.5846 
G01 X57.8654 Y57.6270 
G01 X57.8654 Y57.7346 
G01 X61.5146 Y57.7346 
G01 X61.5146 Y57.6270 
G01 X61.5322 Y57.5846 
G01 X61.5646 Y57.5522 
G01 X61.6070 Y57.5346 
G01 X62.8530 Y57.5346 
G01 X62.8954 Y57.5522 
G01 X62.9278 Y57.5846 
G01 X62.9454 Y57.6270 
G01 X62.9454 Y57.7346 
G01 X63.1401 Y57.7346 
G01 X64.8370 Y56.0376 
G01 X64.8976 Y56.0027 
G01 X64.9651 Y55.9846 
G01 X67.0146 Y55.9846 
G01 X67.0146 Y55.3270 
G01 X67.0322 Y55.2846 
G01 X67.0646 Y55.2522 
G01 X67.1070 Y55.2346 
G01 X68.1530 Y55.2346 
G01 X68.1954 Y55.2522 
G01 X68.2278 Y55.2846 
G01 X68.2454 Y55.3270 
G00 Z2.5400 
G00 X69.1954 Y57.5270 
G01 Z-0.1500 F254.00 
G01 X69.1954 Y57.9846 F508.00 
G01 X70.2346 Y57.9846 
G01 X70.2346 Y53.8599 
G01 X69.1601 Y52.7854 
G01 X68.5270 Y52.7854 
G01 X68.4846 Y52.7678 
G01 X68.4522 Y52.7354 
G01 X68.4346 Y52.6930 
G01 X68.4346 Y52.0599 
G01 X65.6855 Y49.3108 
G01 X65.6855 Y49.9092 
G01 X65.1492 Y50.4455 
G01 X64.3908 Y50.4455 
G01 X63.8545 Y49.9092 
G01 X63.8545 Y49.1508 
G01 X64.3908 Y48.6145 
G01 X64.9892 Y48.6145 
G01 X64.8370 Y48.4624 
G01 X64.7876 Y48.4130 
G01 X64.7527 Y48.3524 
G01 X64.7346 Y48.2849 
G01 X64.7346 Y47.9055 
G01 X64.3908 Y47.9055 
G01 X63.8545 Y47.3692 
G01 X63.8545 Y46.6108 
G01 X64.3908 Y46.0745 
G01 X65.1492 Y46.0745 
G01 X65.6855 Y46.6108 
G01 X65.6855 Y47.3692 
G01 X65.2654 Y47.7893 
G01 X65.2654 Y48.1401 
G01 X65.6630 Y48.5376 
G01 X65.7124 Y48.5870 
G01 X68.4937 Y51.3684 
G01 X68.5270 Y51.3546 
G01 X69.3730 Y51.3546 
G01 X69.4154 Y51.3722 
G01 X69.4478 Y51.4046 
G01 X69.4654 Y51.4470 
G01 X69.4654 Y52.3401 
G01 X70.7124 Y53.5870 
G01 X70.7473 Y53.6476 
G01 X70.7654 Y53.7151 
G01 X70.7654 Y58.2849 
G01 X70.7473 Y58.3524 
G01 X70.7124 Y58.4130 
G01 X70.6630 Y58.4624 
G01 X70.6024 Y58.4973 
G01 X70.5349 Y58.5154 
G01 X69.1954 Y58.5154 
G01 X69.1954 Y58.9730 
G01 X69.1778 Y59.0154 
G01 X69.1454 Y59.0478 
G01 X69.1030 Y59.0654 
G01 X68.0570 Y59.0654 
G01 X68.0146 Y59.0478 
G01 X67.9822 Y59.0154 
G01 X67.9646 Y58.9730 
G01 X67.9646 Y57.5270 
G01 X67.9822 Y57.4846 
G01 X68.0146 Y57.4522 
G01 X68.0570 Y57.4346 
G01 X69.1030 Y57.4346 
G01 X69.1454 Y57.4522 
G01 X69.1778 Y57.4846 
G01 X69.1954 Y57.5270 
G00 Z2.5400 
G00 X75.3861 Y66.1353 
G01 Z-0.1500 F254.00 
G01 X75.3861 Y63.4047 F508.00 
G01 X75.4199 Y63.1913 
G01 X75.4867 Y62.9858 
G01 X75.5848 Y62.7932 
G01 X75.7118 Y62.6184 
G01 X75.8645 Y62.4657 
G01 X76.0393 Y62.3387 
G01 X76.2319 Y62.2406 
G01 X76.4374 Y62.1738 
G01 X76.4846 Y62.1663 
G01 X76.4846 Y59.2704 
G01 X75.9320 Y59.2704 
G01 X75.8896 Y59.2528 
G01 X75.8572 Y59.2204 
G01 X75.8396 Y59.1780 
G01 X75.8396 Y57.6620 
G01 X75.8572 Y57.6196 
G01 X75.8896 Y57.5872 
G01 X75.9320 Y57.5696 
G01 X77.2480 Y57.5696 
G01 X77.2904 Y57.5872 
G01 X77.3228 Y57.6196 
G01 X77.3404 Y57.6620 
G01 X77.3404 Y59.1780 
G01 X77.3228 Y59.2204 
G01 X77.2904 Y59.2528 
G01 X77.2480 Y59.2704 
G01 X77.0154 Y59.2704 
G01 X77.0154 Y62.1635 
G01 X77.0802 Y62.1738 
G01 X77.2857 Y62.2406 
G01 X77.4783 Y62.3387 
G01 X77.6531 Y62.4657 
G01 X77.8058 Y62.6184 
G01 X77.9328 Y62.7932 
G01 X78.0309 Y62.9858 
G01 X78.0977 Y63.1913 
G01 X78.1315 Y63.4047 
G01 X78.1315 Y66.1353 
G01 X78.0977 Y66.3487 
G01 X78.0309 Y66.5542 
G01 X77.9328 Y66.7468 
G01 X77.8058 Y66.9216 
G01 X77.6531 Y67.0743 
G01 X77.4783 Y67.2013 
G01 X77.2857 Y67.2994 
G01 X77.0802 Y67.3662 
G01 X76.8668 Y67.4000 
G01 X76.6508 Y67.4000 
G01 X76.4374 Y67.3662 
G01 X76.2319 Y67.2994 
G01 X76.0393 Y67.2013 
G01 X75.8645 Y67.0743 
G01 X75.7118 Y66.9216 
G01 X75.5848 Y66.7468 
G01 X75.4867 Y66.5542 
G01 X75.4199 Y66.3487 
G01 X75.3861 Y66.1353 
G00 Z2.5400 
G00 X1.6079 Y58.7364 
G01 Z-0.1500 F254.00 
G01 X3.4721 Y58.7364 F508.00 
G01 X3.6564 Y58.7730 
G01 X3.8299 Y58.8449 
G01 X3.9861 Y58.9493 
G01 X4.1189 Y59.0821 
G01 X4.2233 Y59.2383 
G01 X4.2952 Y59.4118 
G01 X4.3318 Y59.5961 
G01 X4.3318 Y59.7839 
G01 X4.2952 Y59.9682 
G01 X4.2233 Y60.1417 
G01 X4.1189 Y60.2979 
G01 X3.9861 Y60.4307 
G01 X3.8299 Y60.5351 
G01 X3.6564 Y60.6070 
G01 X3.4721 Y60.6436 
G01 X1.6079 Y60.6436 
G01 X1.4236 Y60.6070 
G01 X1.2501 Y60.5351 
G01 X1.0939 Y60.4307 
G01 X0.9611 Y60.2979 
G01 X0.8567 Y60.1417 
G01 X0.7848 Y59.9682 
G01 X0.7482 Y59.7839 
G01 X0.7482 Y59.5961 
G01 X0.7848 Y59.4118 
G01 X0.8567 Y59.2383 
G01 X0.9611 Y59.0821 
G01 X1.0939 Y58.9493 
G01 X1.2501 Y58.8449 
G01 X1.4236 Y58.7730 
G01 X1.6079 Y58.7364 
G00 Z2.5400 
G00 X1.6079 Y54.9264 
G01 Z-0.1500 F254.00 
G01 X3.4721 Y54.9264 F508.00 
G01 X3.6564 Y54.9630 
G01 X3.8299 Y55.0349 
G01 X3.9861 Y55.1393 
G01 X4.1189 Y55.2721 
G01 X4.2233 Y55.4283 
G01 X4.2952 Y55.6018 
G01 X4.3318 Y55.7861 
G01 X4.3318 Y55.9739 
G01 X4.2952 Y56.1582 
G01 X4.2233 Y56.3317 
G01 X4.1189 Y56.4879 
G01 X3.9861 Y56.6207 
G01 X3.8299 Y56.7251 
G01 X3.6564 Y56.7970 
G01 X3.4721 Y56.8336 
G01 X1.6079 Y56.8336 
G01 X1.4236 Y56.7970 
G01 X1.2501 Y56.7251 
G01 X1.0939 Y56.6207 
G01 X0.9611 Y56.4879 
G01 X0.8567 Y56.3317 
G01 X0.7848 Y56.1582 
G01 X0.7482 Y55.9739 
G01 X0.7482 Y55.7861 
G01 X0.7848 Y55.6018 
G01 X0.8567 Y55.4283 
G01 X0.9611 Y55.2721 
G01 X1.0939 Y55.1393 
G01 X1.2501 Y55.0349 
G01 X1.4236 Y54.9630 
G01 X1.6079 Y54.9264 
G00 Z2.5400 
G00 X1.6079 Y51.1164 
G01 Z-0.1500 F254.00 
G01 X3.4721 Y51.1164 F508.00 
G01 X3.6564 Y51.1530 
G01 X3.8299 Y51.2249 
G01 X3.9861 Y51.3293 
G01 X4.1189 Y51.4621 
G01 X4.2233 Y51.6183 
G01 X4.2952 Y51.7918 
G01 X4.3318 Y51.9761 
G01 X4.3318 Y51.9846 
G01 X7.2596 Y51.9846 
G01 X7.2596 Y51.3120 
G01 X7.2772 Y51.2696 
G01 X7.3096 Y51.2372 
G01 X7.3520 Y51.2196 
G01 X8.6680 Y51.2196 
G01 X8.7104 Y51.2372 
G01 X8.7428 Y51.2696 
G01 X8.7604 Y51.3120 
G01 X8.7604 Y52.8280 
G01 X8.7428 Y52.8704 
G01 X8.7104 Y52.9028 
G01 X8.6680 Y52.9204 
G01 X7.3520 Y52.9204 
G01 X7.3096 Y52.9028 
G01 X7.2772 Y52.8704 
G01 X7.2596 Y52.8280 
G01 X7.2596 Y52.5154 
G01 X4.2259 Y52.5154 
G01 X4.2233 Y52.5217 
G01 X4.1189 Y52.6779 
G01 X3.9861 Y52.8107 
G01 X3.8299 Y52.9151 
G01 X3.6564 Y52.9870 
G01 X3.4721 Y53.0236 
G01 X1.6079 Y53.0236 
G01 X1.4236 Y52.9870 
G01 X1.2501 Y52.9151 
G01 X1.0939 Y52.8107 
G01 X0.9611 Y52.6779 
G01 X0.8567 Y52.5217 
G01 X0.7848 Y52.3482 
G01 X0.7482 Y52.1639 
G01 X0.7482 Y51.9761 
G01 X0.7848 Y51.7918 
G01 X0.8567 Y51.6183 
G01 X0.9611 Y51.4621 
G01 X1.0939 Y51.3293 
G01 X1.2501 Y51.2249 
G01 X1.4236 Y51.1530 
G01 X1.6079 Y51.1164 
G00 Z2.5400 
G00 X13.0604 Y51.3120 
G01 Z-0.1500 F254.00 
G01 X13.0604 Y52.8280 F508.00 
G01 X13.0428 Y52.8704 
G01 X13.0104 Y52.9028 
G01 X12.9680 Y52.9204 
G01 X11.6520 Y52.9204 
G01 X11.6096 Y52.9028 
G01 X11.5772 Y52.8704 
G01 X11.5596 Y52.8280 
G01 X11.5596 Y51.6849 
G01 X10.8370 Y50.9624 
G01 X10.7876 Y50.9130 
G01 X10.7527 Y50.8524 
G01 X10.7346 Y50.7849 
G01 X10.7346 Y45.6099 
G01 X8.0870 Y42.9624 
G01 X8.0376 Y42.9130 
G01 X8.0027 Y42.8524 
G01 X7.9846 Y42.7849 
G01 X7.9846 Y41.4651 
G01 X8.0027 Y41.3976 
G01 X8.0376 Y41.3370 
G01 X8.7876 Y40.5870 
G01 X8.8370 Y40.5376 
G01 X8.8976 Y40.5027 
G01 X8.9651 Y40.4846 
G01 X22.1401 Y40.4846 
G01 X25.4846 Y37.1401 
G01 X25.4846 Y13.4651 
G01 X25.5027 Y13.3976 
G01 X25.5376 Y13.3370 
G01 X25.5870 Y13.2876 
G01 X26.4552 Y12.4195 
G01 X26.3697 Y12.3759 
G01 X26.2289 Y12.2736 
G01 X26.1058 Y12.1505 
G01 X26.0035 Y12.0097 
G01 X25.9244 Y11.8546 
G01 X25.8706 Y11.6890 
G01 X25.8434 Y11.5170 
G01 X25.8434 Y11.3430 
G01 X25.8706 Y11.1710 
G01 X25.9244 Y11.0054 
G01 X26.0035 Y10.8503 
G01 X26.1058 Y10.7095 
G01 X26.2289 Y10.5864 
G01 X26.3697 Y10.4841 
G01 X26.5248 Y10.4050 
G01 X26.6904 Y10.3512 
G01 X26.8624 Y10.3240 
G01 X29.0176 Y10.3240 
G01 X29.1896 Y10.3512 
G01 X29.3552 Y10.4050 
G01 X29.5103 Y10.4841 
G01 X29.6511 Y10.5864 
G01 X29.7742 Y10.7095 
G01 X29.8765 Y10.8503 
G01 X29.9556 Y11.0054 
G01 X30.0094 Y11.1710 
G01 X30.0366 Y11.3430 
G01 X30.0366 Y11.5170 
G01 X30.0094 Y11.6890 
G01 X29.9556 Y11.8546 
G01 X29.8765 Y12.0097 
G01 X29.7742 Y12.1505 
G01 X29.6511 Y12.2736 
G01 X29.5103 Y12.3759 
G01 X29.3552 Y12.4550 
G01 X29.1896 Y12.5088 
G01 X29.0176 Y12.5360 
G01 X27.0893 Y12.5360 
G01 X26.0154 Y13.6099 
G01 X26.0154 Y37.2849 
G01 X25.9973 Y37.3524 
G01 X25.9624 Y37.4130 
G01 X22.5154 Y40.8599 
G01 X22.5154 Y45.0046 
G01 X22.9130 Y45.0046 
G01 X22.9554 Y45.0222 
G01 X22.9878 Y45.0546 
G01 X23.0054 Y45.0970 
G01 X23.0054 Y45.8801 
G01 X26.1630 Y49.0376 
G01 X26.2124 Y49.0870 
G01 X26.2473 Y49.1476 
G01 X26.2654 Y49.2151 
G01 X26.2654 Y56.3530 
G01 X26.2761 Y56.3552 
G01 X26.4265 Y56.4175 
G01 X26.5619 Y56.5079 
G01 X26.6771 Y56.6231 
G01 X26.7675 Y56.7585 
G01 X26.8298 Y56.9089 
G01 X26.8616 Y57.0686 
G01 X26.8616 Y57.2314 
G01 X26.8298 Y57.3911 
G01 X26.7675 Y57.5415 
G01 X26.6771 Y57.6769 
G01 X26.5619 Y57.7921 
G01 X26.4265 Y57.8825 
G01 X26.2761 Y57.9448 
G01 X26.1164 Y57.9766 
G01 X25.9536 Y57.9766 
G01 X25.7939 Y57.9448 
G01 X25.6435 Y57.8825 
G01 X25.5081 Y57.7921 
G01 X25.3929 Y57.6769 
G01 X25.3025 Y57.5415 
G01 X25.2402 Y57.3911 
G01 X25.2084 Y57.2314 
G01 X25.2084 Y57.0686 
G01 X25.2402 Y56.9089 
G01 X25.3025 Y56.7585 
G01 X25.3929 Y56.6231 
G01 X25.5081 Y56.5079 
G01 X25.6435 Y56.4175 
G01 X25.7346 Y56.3797 
G01 X25.7346 Y49.3599 
G01 X22.8101 Y46.4354 
G01 X22.0670 Y46.4354 
G01 X22.0246 Y46.4178 
G01 X21.9922 Y46.3854 
G01 X21.9746 Y46.3430 
G01 X21.9746 Y45.0970 
G01 X21.9846 Y45.0729 
G01 X21.9846 Y41.0154 
G01 X9.1099 Y41.0154 
G01 X8.5154 Y41.6099 
G01 X8.5154 Y42.6401 
G01 X11.2124 Y45.3370 
G01 X11.2473 Y45.3976 
G01 X11.2654 Y45.4651 
G01 X11.2654 Y50.6401 
G01 X11.8449 Y51.2196 
G01 X12.9680 Y51.2196 
G01 X13.0104 Y51.2372 
G01 X13.0428 Y51.2696 
G01 X13.0604 Y51.3120 
G00 Z2.5400 
G00 X17.3770 Y55.1646 
G01 Z-0.1500 F254.00 
G01 X17.7346 Y55.1646 F508.00 
G01 X17.7346 Y46.2151 
G01 X17.7527 Y46.1476 
G01 X17.7876 Y46.0870 
G01 X17.8370 Y46.0376 
G01 X18.1646 Y45.7101 
G01 X18.1646 Y45.0970 
G01 X18.1822 Y45.0546 
G01 X18.2146 Y45.0222 
G01 X18.2570 Y45.0046 
G01 X19.1030 Y45.0046 
G01 X19.1454 Y45.0222 
G01 X19.1778 Y45.0546 
G01 X19.1954 Y45.0970 
G01 X19.1954 Y46.3430 
G01 X19.1778 Y46.3854 
G01 X19.1454 Y46.4178 
G01 X19.1030 Y46.4354 
G01 X18.2654 Y46.4354 
G01 X18.2654 Y55.1646 
G01 X18.6230 Y55.1646 
G01 X18.6654 Y55.1822 
G01 X18.6978 Y55.2146 
G01 X18.7154 Y55.2570 
G01 X18.7154 Y56.5030 
G01 X18.6978 Y56.5454 
G01 X18.6654 Y56.5778 
G01 X18.6230 Y56.5954 
G01 X17.3770 Y56.5954 
G01 X17.3346 Y56.5778 
G01 X17.3022 Y56.5454 
G01 X17.2846 Y56.5030 
G01 X17.2846 Y55.2570 
G01 X17.3022 Y55.2146 
G01 X17.3346 Y55.1822 
G01 X17.3770 Y55.1646 
G00 Z2.5400 
G00 X15.1572 Y60.4376 
G01 Z-0.1500 F254.00 
G01 X12.7828 Y60.4376 F508.00 
G01 X12.5950 Y60.4079 
G01 X12.4142 Y60.3491 
G01 X12.2449 Y60.2628 
G01 X12.0911 Y60.1511 
G01 X11.9567 Y60.0167 
G01 X11.8450 Y59.8629 
G01 X11.7587 Y59.6936 
G01 X11.6999 Y59.5128 
G01 X11.6702 Y59.3250 
G01 X11.6702 Y59.1350 
G01 X11.6999 Y58.9472 
G01 X11.7587 Y58.7664 
G01 X11.8450 Y58.5971 
G01 X11.9567 Y58.4433 
G01 X12.0911 Y58.3089 
G01 X12.2449 Y58.1972 
G01 X12.4142 Y58.1109 
G01 X12.5950 Y58.0521 
G01 X12.7828 Y58.0224 
G01 X15.1572 Y58.0224 
G01 X15.3450 Y58.0521 
G01 X15.5258 Y58.1109 
G01 X15.6951 Y58.1972 
G01 X15.8489 Y58.3089 
G01 X15.9833 Y58.4433 
G01 X16.0950 Y58.5971 
G01 X16.1813 Y58.7664 
G01 X16.2401 Y58.9472 
G01 X16.2698 Y59.1350 
G01 X16.2698 Y59.3250 
G01 X16.2401 Y59.5128 
G01 X16.1813 Y59.6936 
G01 X16.0950 Y59.8629 
G01 X15.9833 Y60.0167 
G01 X15.8489 Y60.1511 
G01 X15.6951 Y60.2628 
G01 X15.5258 Y60.3491 
G01 X15.3450 Y60.4079 
G01 X15.1572 Y60.4376 
G00 Z2.5400 
G00 X15.1572 Y66.4376 
G01 Z-0.1500 F254.00 
G01 X12.7828 Y66.4376 F508.00 
G01 X12.5950 Y66.4079 
G01 X12.4142 Y66.3491 
G01 X12.2449 Y66.2628 
G01 X12.0911 Y66.1511 
G01 X11.9567 Y66.0167 
G01 X11.8450 Y65.8629 
G01 X11.7587 Y65.6936 
G01 X11.6999 Y65.5128 
G01 X11.6702 Y65.3250 
G01 X11.6702 Y65.1350 
G01 X11.6999 Y64.9472 
G01 X11.7587 Y64.7664 
G01 X11.8450 Y64.5971 
G01 X11.9567 Y64.4433 
G01 X12.0911 Y64.3089 
G01 X12.2449 Y64.1972 
G01 X12.4142 Y64.1109 
G01 X12.5950 Y64.0521 
G01 X12.7828 Y64.0224 
G01 X14.6023 Y64.0224 
G01 X19.7346 Y58.8901 
G01 X19.7346 Y56.5954 
G01 X19.4770 Y56.5954 
G01 X19.4346 Y56.5778 
G01 X19.4022 Y56.5454 
G01 X19.3846 Y56.5030 
G01 X19.3846 Y55.2570 
G01 X19.4022 Y55.2146 
G01 X19.4346 Y55.1822 
G01 X19.4770 Y55.1646 
G01 X20.4601 Y55.1646 
G01 X21.9846 Y53.6401 
G01 X21.9846 Y50.1771 
G01 X21.9746 Y50.1530 
G01 X21.9746 Y48.9070 
G01 X21.9846 Y48.8829 
G01 X21.9846 Y47.3599 
G01 X21.0601 Y46.4354 
G01 X20.2670 Y46.4354 
G01 X20.2246 Y46.4178 
G01 X20.1922 Y46.3854 
G01 X20.1746 Y46.3430 
G01 X20.1746 Y45.0970 
G01 X20.1922 Y45.0546 
G01 X20.2246 Y45.0222 
G01 X20.2670 Y45.0046 
G01 X21.1130 Y45.0046 
G01 X21.1554 Y45.0222 
G01 X21.1878 Y45.0546 
G01 X21.2054 Y45.0970 
G01 X21.2054 Y45.8301 
G01 X22.4130 Y47.0376 
G01 X22.4624 Y47.0870 
G01 X22.4973 Y47.1476 
G01 X22.5154 Y47.2151 
G01 X22.5154 Y48.8146 
G01 X22.9130 Y48.8146 
G01 X22.9554 Y48.8322 
G01 X22.9878 Y48.8646 
G01 X23.0054 Y48.9070 
G01 X23.0054 Y50.1530 
G01 X22.9878 Y50.1954 
G01 X22.9554 Y50.2278 
G01 X22.9130 Y50.2454 
G01 X22.5154 Y50.2454 
G01 X22.5154 Y53.7849 
G01 X22.4973 Y53.8524 
G01 X22.4624 Y53.9130 
G01 X22.4130 Y53.9624 
G01 X20.8154 Y55.5599 
G01 X20.8154 Y56.5030 
G01 X20.7978 Y56.5454 
G01 X20.7654 Y56.5778 
G01 X20.7230 Y56.5954 
G01 X20.2654 Y56.5954 
G01 X20.2654 Y58.2346 
G01 X26.9846 Y58.2346 
G01 X26.9846 Y52.7854 
G01 X26.6170 Y52.7854 
G01 X26.5746 Y52.7678 
G01 X26.5422 Y52.7354 
G01 X26.5246 Y52.6930 
G01 X26.5246 Y51.4470 
G01 X26.5422 Y51.4046 
G01 X26.5746 Y51.3722 
G01 X26.6170 Y51.3546 
G01 X27.4630 Y51.3546 
G01 X27.5054 Y51.3722 
G01 X27.5378 Y51.4046 
G01 X27.5554 Y51.4470 
G01 X27.5554 Y52.6930 
G01 X27.5378 Y52.7354 
G01 X27.5154 Y52.7578 
G01 X27.5154 Y58.8891 
G01 X27.5461 Y58.8952 
G01 X27.6965 Y58.9575 
G01 X27.8319 Y59.0479 
G01 X27.9471 Y59.1631 
G01 X28.0375 Y59.2985 
G01 X28.0998 Y59.4489 
G01 X28.1316 Y59.6086 
G01 X28.1316 Y59.7714 
G01 X28.0998 Y59.9311 
G01 X28.0375 Y60.0815 
G01 X27.9471 Y60.2169 
G01 X27.8319 Y60.3321 
G01 X27.6965 Y60.4225 
G01 X27.5461 Y60.4848 
G01 X27.3864 Y60.5166 
G01 X27.2236 Y60.5166 
G01 X27.0639 Y60.4848 
G01 X26.9135 Y60.4225 
G01 X26.7781 Y60.3321 
G01 X26.6629 Y60.2169 
G01 X26.5725 Y60.0815 
G01 X26.5102 Y59.9311 
G01 X26.4784 Y59.7714 
G01 X26.4784 Y59.6086 
G01 X26.5102 Y59.4489 
G01 X26.5725 Y59.2985 
G01 X26.6629 Y59.1631 
G01 X26.7781 Y59.0479 
G01 X26.9135 Y58.9575 
G01 X26.9846 Y58.9280 
G01 X26.9846 Y58.7654 
G01 X20.2654 Y58.7654 
G01 X20.2654 Y59.0349 
G01 X20.2473 Y59.1024 
G01 X20.2124 Y59.1630 
G01 X15.3262 Y64.0492 
G01 X15.3450 Y64.0521 
G01 X15.5258 Y64.1109 
G01 X15.6951 Y64.1972 
