(.../pcb-gcode-3.6.0.4/pcb-gcode.ulp)
(Copyright 2005 - 2012 by John Johnson)
(See readme.txt for licensing terms.)
(This file generated from the board:)
(.../eagle/ARMEDBASE_V0/MCU/MCU.brd)
(Current profile is .../pcb-gcode-3.6.0.4/profiles/emc.pp  )
(This file generated 6/27/2014 10:16:30 AM)
(Settings from pcb-machine.h)
(  Tool Size)
(0.2000 )
(Z Axis Settings)
(  High     Up        Down     Drill)
(12.7000 	2.5400 	-0.1500 	-0.8128 )
(spindle on time = 3.0000)
(milling depth = -0.1500)
(text depth = -0.1270)
(tool change at 12.7000 15.2400 25.4000 )
(feed rate xy = F508.00 )
(feed rate z  = F254.00 )
(Settings from pcb-defaults.h)
(isolate min = 0.0154)
(isolate max = 0.5080)
(isolate step = 0.1270)
(Generated top outlines, top drill, bottom outlines, bottom drill, )
(Unit of measure: mm)
(Metric Mode)
G21
(Absolute Coordinates)
G90
G00 X0.0000 Y0.0000 
M03
G04 P3.000000
G00 Z2.5400 
G00 X-19.3569 Y28.2654 
G01 Z-0.1500 F254.00 
G01 X-19.3195 Y28.3556 F508.00 
G01 X-19.2235 Y28.4993 
G01 X-19.1013 Y28.6215 
G01 X-18.9576 Y28.7175 
G01 X-18.7979 Y28.7837 
G01 X-18.6284 Y28.8174 
G01 X-16.9316 Y28.8174 
G01 X-16.7621 Y28.7837 
G01 X-16.6024 Y28.7175 
G01 X-16.4587 Y28.6215 
G01 X-16.3365 Y28.4993 
G01 X-16.2405 Y28.3556 
G01 X-16.1743 Y28.1959 
G01 X-16.1406 Y28.0264 
G01 X-16.1406 Y27.8536 
G01 X-16.1743 Y27.6841 
G01 X-16.2405 Y27.5244 
G01 X-16.3365 Y27.3807 
G01 X-16.4587 Y27.2585 
G01 X-16.6024 Y27.1625 
G01 X-16.7621 Y27.0963 
G01 X-16.9316 Y27.0626 
G01 X-18.6284 Y27.0626 
G01 X-18.7979 Y27.0963 
G01 X-18.9576 Y27.1625 
G01 X-19.1013 Y27.2585 
G01 X-19.2235 Y27.3807 
G01 X-19.3195 Y27.5244 
G01 X-19.3857 Y27.6841 
G01 X-19.3957 Y27.7346 
G01 X-37.3993 Y27.7346 
G01 X-37.4547 Y27.6975 
G01 X-37.5682 Y27.6506 
G01 X-37.6886 Y27.6266 
G01 X-37.8114 Y27.6266 
G01 X-37.9318 Y27.6506 
G01 X-38.0453 Y27.6975 
G01 X-38.1474 Y27.7658 
G01 X-38.2342 Y27.8526 
G01 X-38.3024 Y27.9547 
G01 X-38.3494 Y28.0682 
G01 X-38.3734 Y28.1886 
G01 X-38.3734 Y28.3114 
G01 X-38.3494 Y28.4318 
G01 X-38.3024 Y28.5453 
G01 X-38.2342 Y28.6474 
G01 X-38.1474 Y28.7342 
G01 X-38.0453 Y28.8024 
G01 X-37.9318 Y28.8494 
G01 X-37.8114 Y28.8734 
G01 X-37.6886 Y28.8734 
G01 X-37.5682 Y28.8494 
G01 X-37.4547 Y28.8024 
G01 X-37.3526 Y28.7342 
G01 X-37.2658 Y28.6474 
G01 X-37.1975 Y28.5453 
G01 X-37.1506 Y28.4318 
G01 X-37.1266 Y28.3114 
G01 X-37.1266 Y28.2654 
G01 X-19.3569 Y28.2654 
G00 Z2.5400 
G00 X-97.4734 Y3.6643 
G01 Z-0.1500 F254.00 
G01 X-97.4734 Y3.9557 F508.00 
G01 X-97.4354 Y4.2447 
G01 X-97.3599 Y4.5262 
G01 X-97.2484 Y4.7955 
G01 X-97.1027 Y5.0479 
G01 X-96.9252 Y5.2791 
G01 X-96.7191 Y5.4852 
G01 X-96.4879 Y5.6627 
G01 X-96.2355 Y5.8084 
G01 X-95.9662 Y5.9199 
G01 X-95.6847 Y5.9954 
G01 X-95.3957 Y6.0334 
G01 X-95.1043 Y6.0334 
G01 X-94.8153 Y5.9954 
G01 X-94.5338 Y5.9199 
G01 X-94.2645 Y5.8084 
G01 X-94.0121 Y5.6627 
G01 X-93.7809 Y5.4852 
G01 X-93.5748 Y5.2791 
G01 X-93.3973 Y5.0479 
G01 X-93.2516 Y4.7955 
G01 X-93.1401 Y4.5262 
G01 X-93.0646 Y4.2447 
G01 X-93.0266 Y3.9557 
G01 X-93.0266 Y3.6643 
G01 X-93.0646 Y3.3753 
G01 X-93.1401 Y3.0938 
G01 X-93.2516 Y2.8245 
G01 X-93.3973 Y2.5721 
G01 X-93.5748 Y2.3409 
G01 X-93.7809 Y2.1348 
G01 X-94.0121 Y1.9573 
G01 X-94.2645 Y1.8116 
G01 X-94.5338 Y1.7001 
G01 X-94.8153 Y1.6246 
G01 X-95.1043 Y1.5866 
G01 X-95.3957 Y1.5866 
G01 X-95.6847 Y1.6246 
G01 X-95.9662 Y1.7001 
G01 X-96.2355 Y1.8116 
G01 X-96.4879 Y1.9573 
G01 X-96.7191 Y2.1348 
G01 X-96.9252 Y2.3409 
G01 X-97.1027 Y2.5721 
G01 X-97.2484 Y2.8245 
G01 X-97.3599 Y3.0938 
G01 X-97.4354 Y3.3753 
G01 X-97.4734 Y3.6643 
G00 Z2.5400 
G00 X-97.4734 Y65.8943 
G01 Z-0.1500 F254.00 
G01 X-97.4734 Y66.1857 F508.00 
G01 X-97.4354 Y66.4747 
G01 X-97.3599 Y66.7562 
G01 X-97.2484 Y67.0255 
G01 X-97.1027 Y67.2779 
G01 X-96.9252 Y67.5091 
G01 X-96.7191 Y67.7152 
G01 X-96.4879 Y67.8927 
G01 X-96.2355 Y68.0384 
G01 X-95.9662 Y68.1499 
G01 X-95.6847 Y68.2254 
G01 X-95.3957 Y68.2634 
G01 X-95.1043 Y68.2634 
G01 X-94.8153 Y68.2254 
G01 X-94.5338 Y68.1499 
G01 X-94.2645 Y68.0384 
G01 X-94.0121 Y67.8927 
G01 X-93.7809 Y67.7152 
G01 X-93.5748 Y67.5091 
G01 X-93.3973 Y67.2779 
G01 X-93.2516 Y67.0255 
G01 X-93.1401 Y66.7562 
G01 X-93.0646 Y66.4747 
G01 X-93.0266 Y66.1857 
G01 X-93.0266 Y65.8943 
G01 X-93.0646 Y65.6053 
G01 X-93.1401 Y65.3238 
G01 X-93.2516 Y65.0545 
G01 X-93.3973 Y64.8021 
G01 X-93.5748 Y64.5709 
G01 X-93.7809 Y64.3648 
G01 X-94.0121 Y64.1873 
G01 X-94.2645 Y64.0416 
G01 X-94.5338 Y63.9301 
G01 X-94.8153 Y63.8546 
G01 X-95.1043 Y63.8166 
G01 X-95.3957 Y63.8166 
G01 X-95.6847 Y63.8546 
G01 X-95.9662 Y63.9301 
G01 X-96.2355 Y64.0416 
G01 X-96.4879 Y64.1873 
G01 X-96.7191 Y64.3648 
G01 X-96.9252 Y64.5709 
G01 X-97.1027 Y64.8021 
G01 X-97.2484 Y65.0545 
G01 X-97.3599 Y65.3238 
G01 X-97.4354 Y65.6053 
G01 X-97.4734 Y65.8943 
G00 Z2.5400 
G00 X-6.0334 Y3.6643 
G01 Z-0.1500 F254.00 
G01 X-6.0334 Y3.9557 F508.00 
G01 X-5.9954 Y4.2447 
G01 X-5.9199 Y4.5262 
G01 X-5.8084 Y4.7955 
G01 X-5.6627 Y5.0479 
G01 X-5.4852 Y5.2791 
G01 X-5.2791 Y5.4852 
G01 X-5.0479 Y5.6627 
G01 X-4.7955 Y5.8084 
G01 X-4.5262 Y5.9199 
G01 X-4.2447 Y5.9954 
G01 X-3.9557 Y6.0334 
G01 X-3.6643 Y6.0334 
G01 X-3.3753 Y5.9954 
G01 X-3.0938 Y5.9199 
G01 X-2.8245 Y5.8084 
G01 X-2.5721 Y5.6627 
G01 X-2.3409 Y5.4852 
G01 X-2.1348 Y5.2791 
G01 X-1.9573 Y5.0479 
G01 X-1.8116 Y4.7955 
G01 X-1.7001 Y4.5262 
G01 X-1.6246 Y4.2447 
G01 X-1.5866 Y3.9557 
G01 X-1.5866 Y3.6643 
G01 X-1.6246 Y3.3753 
G01 X-1.7001 Y3.0938 
G01 X-1.8116 Y2.8245 
G01 X-1.9573 Y2.5721 
G01 X-2.1348 Y2.3409 
G01 X-2.3409 Y2.1348 
G01 X-2.5721 Y1.9573 
G01 X-2.8245 Y1.8116 
G01 X-3.0938 Y1.7001 
G01 X-3.3753 Y1.6246 
G01 X-3.6643 Y1.5866 
G01 X-3.9557 Y1.5866 
G01 X-4.2447 Y1.6246 
G01 X-4.5262 Y1.7001 
G01 X-4.7955 Y1.8116 
G01 X-5.0479 Y1.9573 
G01 X-5.2791 Y2.1348 
G01 X-5.4852 Y2.3409 
G01 X-5.6627 Y2.5721 
G01 X-5.8084 Y2.8245 
G01 X-5.9199 Y3.0938 
G01 X-5.9954 Y3.3753 
G01 X-6.0334 Y3.6643 
G00 Z2.5400 
G00 X-6.0334 Y65.8943 
G01 Z-0.1500 F254.00 
G01 X-6.0334 Y66.1857 F508.00 
G01 X-5.9954 Y66.4747 
G01 X-5.9199 Y66.7562 
G01 X-5.8084 Y67.0255 
G01 X-5.6627 Y67.2779 
G01 X-5.4852 Y67.5091 
G01 X-5.2791 Y67.7152 
G01 X-5.0479 Y67.8927 
G01 X-4.7955 Y68.0384 
G01 X-4.5262 Y68.1499 
G01 X-4.2447 Y68.2254 
G01 X-3.9557 Y68.2634 
G01 X-3.6643 Y68.2634 
G01 X-3.3753 Y68.2254 
G01 X-3.0938 Y68.1499 
G01 X-2.8245 Y68.0384 
G01 X-2.5721 Y67.8927 
G01 X-2.3409 Y67.7152 
G01 X-2.1348 Y67.5091 
G01 X-1.9573 Y67.2779 
G01 X-1.8116 Y67.0255 
G01 X-1.7001 Y66.7562 
G01 X-1.6246 Y66.4747 
G01 X-1.5866 Y66.1857 
G01 X-1.5866 Y65.8943 
G01 X-1.6246 Y65.6053 
G01 X-1.7001 Y65.3238 
G01 X-1.8116 Y65.0545 
G01 X-1.9573 Y64.8021 
G01 X-2.1348 Y64.5709 
G01 X-2.3409 Y64.3648 
G01 X-2.5721 Y64.1873 
G01 X-2.8245 Y64.0416 
G01 X-3.0938 Y63.9301 
G01 X-3.3753 Y63.8546 
G01 X-3.6643 Y63.8166 
G01 X-3.9557 Y63.8166 
G01 X-4.2447 Y63.8546 
G01 X-4.5262 Y63.9301 
G01 X-4.7955 Y64.0416 
G01 X-5.0479 Y64.1873 
G01 X-5.2791 Y64.3648 
G01 X-5.4852 Y64.5709 
G01 X-5.6627 Y64.8021 
G01 X-5.8084 Y65.0545 
G01 X-5.9199 Y65.3238 
G01 X-5.9954 Y65.6053 
G01 X-6.0334 Y65.8943 
G00 Z2.5400 
G00 X-10.3776 Y61.0428 
G01 Z-0.1500 F254.00 
G01 X-10.3776 Y63.4172 F508.00 
G01 X-10.3479 Y63.6050 
G01 X-10.2891 Y63.7858 
G01 X-10.2028 Y63.9551 
G01 X-10.0911 Y64.1089 
G01 X-9.9567 Y64.2433 
G01 X-9.8029 Y64.3550 
G01 X-9.6336 Y64.4413 
G01 X-9.4528 Y64.5001 
G01 X-9.2650 Y64.5298 
G01 X-9.0750 Y64.5298 
G01 X-8.8872 Y64.5001 
G01 X-8.7064 Y64.4413 
G01 X-8.5371 Y64.3550 
G01 X-8.3833 Y64.2433 
G01 X-8.2489 Y64.1089 
G01 X-8.1372 Y63.9551 
G01 X-8.0509 Y63.7858 
G01 X-7.9921 Y63.6050 
G01 X-7.9624 Y63.4172 
G01 X-7.9624 Y61.0428 
G01 X-7.9921 Y60.8550 
G01 X-8.0509 Y60.6742 
G01 X-8.1372 Y60.5049 
G01 X-8.2489 Y60.3511 
G01 X-8.3833 Y60.2167 
G01 X-8.5371 Y60.1050 
G01 X-8.7064 Y60.0187 
G01 X-8.8872 Y59.9599 
G01 X-9.0750 Y59.9302 
G01 X-9.2650 Y59.9302 
G01 X-9.4528 Y59.9599 
G01 X-9.6336 Y60.0187 
G01 X-9.8029 Y60.1050 
G01 X-9.9567 Y60.2167 
G01 X-10.0911 Y60.3511 
G01 X-10.2028 Y60.5049 
G01 X-10.2891 Y60.6742 
G01 X-10.3479 Y60.8550 
G01 X-10.3776 Y61.0428 
G00 Z2.5400 
G00 X-15.1572 Y66.4376 
G01 Z-0.1500 F254.00 
G01 X-12.7828 Y66.4376 F508.00 
G01 X-12.5950 Y66.4079 
G01 X-12.4142 Y66.3491 
G01 X-12.2449 Y66.2628 
G01 X-12.0911 Y66.1511 
G01 X-11.9567 Y66.0167 
G01 X-11.8450 Y65.8629 
G01 X-11.7587 Y65.6936 
G01 X-11.6999 Y65.5128 
G01 X-11.6702 Y65.3250 
G01 X-11.6702 Y65.1350 
G01 X-11.6999 Y64.9472 
G01 X-11.7587 Y64.7664 
G01 X-11.8450 Y64.5971 
G01 X-11.9567 Y64.4433 
G01 X-12.0911 Y64.3089 
G01 X-12.2449 Y64.1972 
G01 X-12.4142 Y64.1109 
G01 X-12.5950 Y64.0521 
G01 X-12.7828 Y64.0224 
G01 X-15.1572 Y64.0224 
G01 X-15.3450 Y64.0521 
G01 X-15.5258 Y64.1109 
G01 X-15.6951 Y64.1972 
G01 X-15.8489 Y64.3089 
G01 X-15.9833 Y64.4433 
G01 X-16.0950 Y64.5971 
G01 X-16.1813 Y64.7664 
G01 X-16.2401 Y64.9472 
G01 X-16.2698 Y65.1350 
G01 X-16.2698 Y65.3250 
G01 X-16.2401 Y65.5128 
G01 X-16.1813 Y65.6936 
G01 X-16.0950 Y65.8629 
G01 X-15.9833 Y66.0167 
G01 X-15.8489 Y66.1511 
G01 X-15.6951 Y66.2628 
G01 X-15.5258 Y66.3491 
G01 X-15.3450 Y66.4079 
G01 X-15.1572 Y66.4376 
G00 Z2.5400 
G00 X-1.6079 Y51.1164 
G01 Z-0.1500 F254.00 
G01 X-3.4721 Y51.1164 F508.00 
G01 X-3.6564 Y51.1530 
G01 X-3.8299 Y51.2249 
G01 X-3.9861 Y51.3293 
G01 X-4.1189 Y51.4621 
G01 X-4.2233 Y51.6183 
G01 X-4.2952 Y51.7918 
G01 X-4.3318 Y51.9761 
G01 X-4.3318 Y52.1639 
G01 X-4.2952 Y52.3482 
G01 X-4.2233 Y52.5217 
G01 X-4.1189 Y52.6779 
G01 X-3.9861 Y52.8107 
G01 X-3.8299 Y52.9151 
G01 X-3.6564 Y52.9870 
G01 X-3.4721 Y53.0236 
G01 X-1.6079 Y53.0236 
G01 X-1.4236 Y52.9870 
G01 X-1.2501 Y52.9151 
G01 X-1.0939 Y52.8107 
G01 X-0.9611 Y52.6779 
G01 X-0.8567 Y52.5217 
G01 X-0.7848 Y52.3482 
G01 X-0.7482 Y52.1639 
G01 X-0.7482 Y51.9761 
G01 X-0.7848 Y51.7918 
G01 X-0.8567 Y51.6183 
G01 X-0.9611 Y51.4621 
G01 X-1.0939 Y51.3293 
G01 X-1.2501 Y51.2249 
G01 X-1.4236 Y51.1530 
G01 X-1.6079 Y51.1164 
G00 Z2.5400 
G00 X-1.6079 Y54.9264 
G01 Z-0.1500 F254.00 
G01 X-3.4721 Y54.9264 F508.00 
G01 X-3.6564 Y54.9630 
G01 X-3.8299 Y55.0349 
G01 X-3.9861 Y55.1393 
G01 X-4.1189 Y55.2721 
G01 X-4.2233 Y55.4283 
G01 X-4.2952 Y55.6018 
G01 X-4.3318 Y55.7861 
G01 X-4.3318 Y55.9739 
G01 X-4.2952 Y56.1582 
G01 X-4.2233 Y56.3317 
G01 X-4.1189 Y56.4879 
G01 X-3.9861 Y56.6207 
G01 X-3.8422 Y56.7169 
G01 X-5.8599 Y58.7346 
G01 X-11.7749 Y58.7346 
G01 X-11.8450 Y58.5971 
G01 X-11.9567 Y58.4433 
G01 X-12.0911 Y58.3089 
G01 X-12.2449 Y58.1972 
G01 X-12.4142 Y58.1109 
G01 X-12.5950 Y58.0521 
G01 X-12.7828 Y58.0224 
G01 X-15.1572 Y58.0224 
G01 X-15.3450 Y58.0521 
G01 X-15.5258 Y58.1109 
G01 X-15.6951 Y58.1972 
G01 X-15.8489 Y58.3089 
G01 X-15.9833 Y58.4433 
G01 X-16.0950 Y58.5971 
G01 X-16.1813 Y58.7664 
G01 X-16.2401 Y58.9472 
G01 X-16.2698 Y59.1350 
G01 X-16.2698 Y59.3250 
G01 X-16.2401 Y59.5128 
G01 X-16.1813 Y59.6936 
G01 X-16.0950 Y59.8629 
G01 X-15.9833 Y60.0167 
G01 X-15.8489 Y60.1511 
G01 X-15.6951 Y60.2628 
G01 X-15.5258 Y60.3491 
G01 X-15.3450 Y60.4079 
G01 X-15.1572 Y60.4376 
G01 X-12.7828 Y60.4376 
G01 X-12.5950 Y60.4079 
G01 X-12.4142 Y60.3491 
G01 X-12.2449 Y60.2628 
G01 X-12.0911 Y60.1511 
G01 X-11.9567 Y60.0167 
G01 X-11.8450 Y59.8629 
G01 X-11.7587 Y59.6936 
G01 X-11.6999 Y59.5128 
G01 X-11.6702 Y59.3250 
G01 X-11.6702 Y59.2654 
G01 X-5.7151 Y59.2654 
G01 X-5.6476 Y59.2473 
G01 X-5.5870 Y59.2124 
G01 X-5.5376 Y59.1630 
G01 X-3.2083 Y56.8336 
G01 X-1.6079 Y56.8336 
G01 X-1.4236 Y56.7970 
G01 X-1.2501 Y56.7251 
G01 X-1.0939 Y56.6207 
G01 X-0.9611 Y56.4879 
G01 X-0.8567 Y56.3317 
G01 X-0.7848 Y56.1582 
G01 X-0.7482 Y55.9739 
G01 X-0.7482 Y55.7861 
G01 X-0.7848 Y55.6018 
G01 X-0.8567 Y55.4283 
G01 X-0.9611 Y55.2721 
G01 X-1.0939 Y55.1393 
G01 X-1.2501 Y55.0349 
G01 X-1.4236 Y54.9630 
G01 X-1.6079 Y54.9264 
G00 Z2.5400 
G00 X-1.6079 Y58.7364 
G01 Z-0.1500 F254.00 
G01 X-3.4721 Y58.7364 F508.00 
G01 X-3.6564 Y58.7730 
G01 X-3.8299 Y58.8449 
G01 X-3.9861 Y58.9493 
G01 X-4.1189 Y59.0821 
G01 X-4.2233 Y59.2383 
G01 X-4.2952 Y59.4118 
G01 X-4.3318 Y59.5961 
G01 X-4.3318 Y59.7839 
G01 X-4.2952 Y59.9682 
G01 X-4.2233 Y60.1417 
G01 X-4.1189 Y60.2979 
G01 X-3.9861 Y60.4307 
G01 X-3.8299 Y60.5351 
G01 X-3.6564 Y60.6070 
G01 X-3.4721 Y60.6436 
G01 X-1.6079 Y60.6436 
G01 X-1.4236 Y60.6070 
G01 X-1.2501 Y60.5351 
G01 X-1.0939 Y60.4307 
G01 X-0.9611 Y60.2979 
G01 X-0.8567 Y60.1417 
G01 X-0.7848 Y59.9682 
G01 X-0.7482 Y59.7839 
G01 X-0.7482 Y59.5961 
G01 X-0.7848 Y59.4118 
G01 X-0.8567 Y59.2383 
G01 X-0.9611 Y59.0821 
G01 X-1.0939 Y58.9493 
G01 X-1.2501 Y58.8449 
G01 X-1.4236 Y58.7730 
G01 X-1.6079 Y58.7364 
G00 Z2.5400 
G00 X-79.3485 Y66.1353 
G01 Z-0.1500 F254.00 
G01 X-79.3485 Y63.4047 F508.00 
G01 X-79.3823 Y63.1913 
G01 X-79.4491 Y62.9858 
G01 X-79.5472 Y62.7932 
G01 X-79.6742 Y62.6184 
G01 X-79.8269 Y62.4657 
G01 X-80.0017 Y62.3387 
G01 X-80.1943 Y62.2406 
G01 X-80.3998 Y62.1738 
G01 X-80.6132 Y62.1400 
G01 X-80.8292 Y62.1400 
G01 X-81.0426 Y62.1738 
G01 X-81.2481 Y62.2406 
G01 X-81.4407 Y62.3387 
G01 X-81.6155 Y62.4657 
G01 X-81.7682 Y62.6184 
G01 X-81.8952 Y62.7932 
G01 X-81.9933 Y62.9858 
G01 X-82.0601 Y63.1913 
G01 X-82.0939 Y63.4047 
G01 X-82.0939 Y66.1353 
G01 X-82.0601 Y66.3487 
G01 X-81.9933 Y66.5542 
G01 X-81.8952 Y66.7468 
G01 X-81.7682 Y66.9216 
G01 X-81.6155 Y67.0743 
G01 X-81.4407 Y67.2013 
G01 X-81.2481 Y67.2994 
G01 X-81.0426 Y67.3662 
G01 X-80.8292 Y67.4000 
G01 X-80.6132 Y67.4000 
G01 X-80.3998 Y67.3662 
G01 X-80.1943 Y67.2994 
G01 X-80.0017 Y67.2013 
G01 X-79.8269 Y67.0743 
G01 X-79.6742 Y66.9216 
G01 X-79.5472 Y66.7468 
G01 X-79.4491 Y66.5542 
G01 X-79.3823 Y66.3487 
G01 X-79.3485 Y66.1353 
G00 Z2.5400 
G00 X-75.3861 Y66.1353 
G01 Z-0.1500 F254.00 
G01 X-75.3861 Y63.7614 F508.00 
G01 X-72.8901 Y61.2654 
G01 X-43.4651 Y61.2654 
G01 X-43.3976 Y61.2473 
G01 X-43.3370 Y61.2124 
G01 X-42.3370 Y60.2124 
G01 X-42.2876 Y60.1630 
G01 X-42.2527 Y60.1024 
G01 X-42.2346 Y60.0349 
G01 X-42.2346 Y58.7654 
G01 X-27.4651 Y58.7654 
G01 X-27.3976 Y58.7473 
G01 X-27.3370 Y58.7124 
G01 X-26.4749 Y57.8502 
G01 X-26.4265 Y57.8825 
G01 X-26.2761 Y57.9448 
G01 X-26.1164 Y57.9766 
G01 X-25.9536 Y57.9766 
G01 X-25.7939 Y57.9448 
G01 X-25.6435 Y57.8825 
G01 X-25.5081 Y57.7921 
G01 X-25.3929 Y57.6769 
G01 X-25.3025 Y57.5415 
G01 X-25.2402 Y57.3911 
G01 X-25.2084 Y57.2314 
G01 X-25.2084 Y57.0686 
G01 X-25.2402 Y56.9089 
G01 X-25.3025 Y56.7585 
G01 X-25.3929 Y56.6231 
G01 X-25.5081 Y56.5079 
G01 X-25.6435 Y56.4175 
G01 X-25.7939 Y56.3552 
G01 X-25.9536 Y56.3234 
G01 X-26.1164 Y56.3234 
G01 X-26.2761 Y56.3552 
G01 X-26.4265 Y56.4175 
G01 X-26.5619 Y56.5079 
G01 X-26.6771 Y56.6231 
G01 X-26.7675 Y56.7585 
G01 X-26.8298 Y56.9089 
G01 X-26.8616 Y57.0686 
G01 X-26.8616 Y57.2314 
G01 X-26.8298 Y57.3911 
G01 X-26.8113 Y57.4359 
G01 X-27.6099 Y58.2346 
G01 X-38.6401 Y58.2346 
G01 X-39.2968 Y57.5779 
G01 X-39.2725 Y57.5415 
G01 X-39.2102 Y57.3911 
G01 X-39.1784 Y57.2314 
G01 X-39.1784 Y57.0686 
G01 X-39.2102 Y56.9089 
G01 X-39.2725 Y56.7585 
G01 X-39.3629 Y56.6231 
G01 X-39.4781 Y56.5079 
G01 X-39.6135 Y56.4175 
G01 X-39.7639 Y56.3552 
G01 X-39.9236 Y56.3234 
G01 X-40.0864 Y56.3234 
G01 X-40.2461 Y56.3552 
G01 X-40.3965 Y56.4175 
G01 X-40.5319 Y56.5079 
G01 X-40.6471 Y56.6231 
G01 X-40.7375 Y56.7585 
G01 X-40.7998 Y56.9089 
G01 X-40.8316 Y57.0686 
G01 X-40.8316 Y57.2314 
G01 X-40.7998 Y57.3911 
G01 X-40.7375 Y57.5415 
G01 X-40.6471 Y57.6769 
G01 X-40.5319 Y57.7921 
G01 X-40.3965 Y57.8825 
G01 X-40.2461 Y57.9448 
G01 X-40.0864 Y57.9766 
G01 X-39.9236 Y57.9766 
G01 X-39.7639 Y57.9448 
G01 X-39.7049 Y57.9204 
G01 X-39.3907 Y58.2346 
G01 X-42.5349 Y58.2346 
G01 X-42.6024 Y58.2527 
G01 X-42.6630 Y58.2876 
G01 X-42.7124 Y58.3370 
G01 X-42.7473 Y58.3976 
G01 X-42.7654 Y58.4651 
G01 X-42.7654 Y59.8901 
G01 X-43.6099 Y60.7346 
G01 X-73.0349 Y60.7346 
G01 X-73.1024 Y60.7527 
G01 X-73.1630 Y60.7876 
G01 X-73.2124 Y60.8370 
G01 X-75.4559 Y63.0805 
G01 X-75.4867 Y62.9858 
G01 X-75.5848 Y62.7932 
G01 X-75.7118 Y62.6184 
G01 X-75.8645 Y62.4657 
G01 X-76.0393 Y62.3387 
G01 X-76.2319 Y62.2406 
G01 X-76.4374 Y62.1738 
G01 X-76.6508 Y62.1400 
G01 X-76.8668 Y62.1400 
G01 X-77.0802 Y62.1738 
G01 X-77.2857 Y62.2406 
G01 X-77.4783 Y62.3387 
G01 X-77.6531 Y62.4657 
G01 X-77.8058 Y62.6184 
G01 X-77.9328 Y62.7932 
G01 X-78.0309 Y62.9858 
G01 X-78.0977 Y63.1913 
G01 X-78.1315 Y63.4047 
G01 X-78.1315 Y66.1353 
G01 X-78.0977 Y66.3487 
G01 X-78.0309 Y66.5542 
G01 X-77.9328 Y66.7468 
G01 X-77.8058 Y66.9216 
G01 X-77.6531 Y67.0743 
G01 X-77.4783 Y67.2013 
G01 X-77.2857 Y67.2994 
G01 X-77.0802 Y67.3662 
G01 X-76.8668 Y67.4000 
G01 X-76.6508 Y67.4000 
G01 X-76.4374 Y67.3662 
G01 X-76.2319 Y67.2994 
G01 X-76.0393 Y67.2013 
G01 X-75.8645 Y67.0743 
G01 X-75.7118 Y66.9216 
G01 X-75.5848 Y66.7468 
G01 X-75.4867 Y66.5542 
G01 X-75.4199 Y66.3487 
G01 X-75.3861 Y66.1353 
G00 Z2.5400 
G00 X-65.6855 Y44.0708 
G01 Z-0.1500 F254.00 
G01 X-65.6855 Y44.8292 F508.00 
G01 X-65.1492 Y45.3655 
G01 X-64.3908 Y45.3655 
G01 X-63.8545 Y44.8292 
G01 X-63.8545 Y44.0708 
G01 X-64.3908 Y43.5345 
G01 X-65.1492 Y43.5345 
G01 X-65.6855 Y44.0708 
G00 Z2.5400 
G00 X-65.6855 Y46.6108 
G01 Z-0.1500 F254.00 
G01 X-65.6855 Y47.3692 F508.00 
G01 X-65.1492 Y47.9055 
G01 X-64.3908 Y47.9055 
G01 X-63.8545 Y47.3692 
G01 X-63.8545 Y46.6108 
G01 X-64.3908 Y46.0745 
G01 X-65.1492 Y46.0745 
G01 X-65.6855 Y46.6108 
G00 Z2.5400 
G00 X-65.6855 Y49.1508 
G01 Z-0.1500 F254.00 
G01 X-65.6855 Y49.9092 F508.00 
G01 X-65.1492 Y50.4455 
G01 X-64.3908 Y50.4455 
G01 X-63.8545 Y49.9092 
G01 X-63.8545 Y49.1508 
G01 X-64.3908 Y48.6145 
G01 X-65.1492 Y48.6145 
G01 X-65.6855 Y49.1508 
G00 Z2.5400 
G00 X-65.6855 Y51.6908 
G01 Z-0.1500 F254.00 
G01 X-65.6855 Y52.4492 F508.00 
G01 X-65.1492 Y52.9855 
G01 X-64.3908 Y52.9855 
G01 X-63.8545 Y52.4492 
G01 X-63.8545 Y51.6908 
G01 X-64.3908 Y51.1545 
G01 X-65.1492 Y51.1545 
G01 X-65.6855 Y51.6908 
G00 Z2.5400 
G00 X-58.0655 Y51.6908 
G01 Z-0.1500 F254.00 
G01 X-58.0655 Y52.4492 F508.00 
G01 X-57.5292 Y52.9855 
G01 X-56.7708 Y52.9855 
G01 X-56.2345 Y52.4492 
G01 X-56.2345 Y51.6908 
G01 X-56.7708 Y51.1545 
G01 X-57.5292 Y51.1545 
G01 X-58.0655 Y51.6908 
G00 Z2.5400 
G00 X-58.0655 Y49.1508 
G01 Z-0.1500 F254.00 
G01 X-58.0655 Y49.9092 F508.00 
G01 X-57.5292 Y50.4455 
G01 X-56.7708 Y50.4455 
G01 X-56.7253 Y50.4000 
G01 X-47.4130 Y59.7124 
G01 X-47.3524 Y59.7473 
G01 X-47.2849 Y59.7654 
G01 X-44.6416 Y59.7654 
G01 X-44.6416 Y59.7714 
G01 X-44.6098 Y59.9311 
G01 X-44.5475 Y60.0815 
G01 X-44.4571 Y60.2169 
G01 X-44.3419 Y60.3321 
G01 X-44.2065 Y60.4225 
G01 X-44.0561 Y60.4848 
G01 X-43.8964 Y60.5166 
G01 X-43.7336 Y60.5166 
G01 X-43.5739 Y60.4848 
G01 X-43.4235 Y60.4225 
G01 X-43.2881 Y60.3321 
G01 X-43.1729 Y60.2169 
G01 X-43.0825 Y60.0815 
G01 X-43.0202 Y59.9311 
G01 X-42.9884 Y59.7714 
G01 X-42.9884 Y59.6086 
G01 X-43.0202 Y59.4489 
G01 X-43.0825 Y59.2985 
G01 X-43.1729 Y59.1631 
G01 X-43.2881 Y59.0479 
G01 X-43.4235 Y58.9575 
G01 X-43.5739 Y58.8952 
G01 X-43.7336 Y58.8634 
G01 X-43.8964 Y58.8634 
G01 X-44.0561 Y58.8952 
G01 X-44.2065 Y58.9575 
G01 X-44.3419 Y59.0479 
G01 X-44.4571 Y59.1631 
G01 X-44.5049 Y59.2346 
G01 X-47.1401 Y59.2346 
G01 X-56.3500 Y50.0247 
G01 X-56.2345 Y49.9092 
G01 X-56.2345 Y49.1508 
G01 X-56.7708 Y48.6145 
G01 X-57.5292 Y48.6145 
G01 X-58.0655 Y49.1508 
G00 Z2.5400 
G00 X-55.0026 Y5.9284 
G01 Z-0.1500 F254.00 
G01 X-55.0026 Y4.2316 F508.00 
G01 X-55.0363 Y4.0621 
G01 X-55.1025 Y3.9024 
G01 X-55.1985 Y3.7587 
G01 X-55.3207 Y3.6365 
G01 X-55.4644 Y3.5405 
G01 X-55.6241 Y3.4743 
G01 X-55.7936 Y3.4406 
G01 X-55.9664 Y3.4406 
G01 X-56.1359 Y3.4743 
G01 X-56.2956 Y3.5405 
G01 X-56.4393 Y3.6365 
G01 X-56.5615 Y3.7587 
G01 X-56.6575 Y3.9024 
G01 X-56.7237 Y4.0621 
G01 X-56.7574 Y4.2316 
G01 X-56.7574 Y5.9284 
G01 X-56.7237 Y6.0979 
G01 X-56.6575 Y6.2576 
G01 X-56.5615 Y6.4013 
G01 X-56.4393 Y6.5235 
G01 X-56.2956 Y6.6195 
G01 X-56.1359 Y6.6857 
G01 X-55.9664 Y6.7194 
G01 X-55.7936 Y6.7194 
G01 X-55.6241 Y6.6857 
G01 X-55.4644 Y6.6195 
G01 X-55.3207 Y6.5235 
G01 X-55.1985 Y6.4013 
G01 X-55.1025 Y6.2576 
G01 X-55.0363 Y6.0979 
G01 X-55.0026 Y5.9284 
G00 Z2.5400 
G00 X-57.5426 Y5.9284 
G01 Z-0.1500 F254.00 
G01 X-57.5426 Y4.2316 F508.00 
G01 X-57.5763 Y4.0621 
G01 X-57.6425 Y3.9024 
G01 X-57.7385 Y3.7587 
G01 X-57.8607 Y3.6365 
G01 X-58.0044 Y3.5405 
G01 X-58.1641 Y3.4743 
G01 X-58.3336 Y3.4406 
G01 X-58.5064 Y3.4406 
G01 X-58.6759 Y3.4743 
G01 X-58.8356 Y3.5405 
G01 X-58.9793 Y3.6365 
G01 X-59.1015 Y3.7587 
G01 X-59.1975 Y3.9024 
G01 X-59.2637 Y4.0621 
G01 X-59.2974 Y4.2316 
G01 X-59.2974 Y5.9284 
G01 X-59.2637 Y6.0979 
G01 X-59.1975 Y6.2576 
G01 X-59.1015 Y6.4013 
G01 X-58.9793 Y6.5235 
G01 X-58.8356 Y6.6195 
G01 X-58.6759 Y6.6857 
G01 X-58.5064 Y6.7194 
G01 X-58.3336 Y6.7194 
G01 X-58.1641 Y6.6857 
G01 X-58.0044 Y6.6195 
G01 X-57.8607 Y6.5235 
G01 X-57.7385 Y6.4013 
G01 X-57.6425 Y6.2576 
G01 X-57.5763 Y6.0979 
G01 X-57.5426 Y5.9284 
G00 Z2.5400 
G00 X-60.0826 Y5.9284 
G01 Z-0.1500 F254.00 
G01 X-60.0826 Y4.2316 F508.00 
G01 X-60.1163 Y4.0621 
G01 X-60.1825 Y3.9024 
G01 X-60.2785 Y3.7587 
G01 X-60.4007 Y3.6365 
G01 X-60.5444 Y3.5405 
G01 X-60.7041 Y3.4743 
G01 X-60.8736 Y3.4406 
G01 X-61.0464 Y3.4406 
G01 X-61.2159 Y3.4743 
G01 X-61.3756 Y3.5405 
G01 X-61.5193 Y3.6365 
G01 X-61.6415 Y3.7587 
G01 X-61.7375 Y3.9024 
G01 X-61.8037 Y4.0621 
G01 X-61.8374 Y4.2316 
G01 X-61.8374 Y5.9284 
G01 X-61.8037 Y6.0979 
G01 X-61.7375 Y6.2576 
G01 X-61.6415 Y6.4013 
G01 X-61.5193 Y6.5235 
G01 X-61.3756 Y6.6195 
G01 X-61.2159 Y6.6857 
G01 X-61.0464 Y6.7194 
G01 X-60.8736 Y6.7194 
G01 X-60.7041 Y6.6857 
G01 X-60.5444 Y6.6195 
G01 X-60.4007 Y6.5235 
G01 X-60.2785 Y6.4013 
G01 X-60.1825 Y6.2576 
G01 X-60.1163 Y6.0979 
G01 X-60.0826 Y5.9284 
G00 Z2.5400 
G00 X-62.6226 Y5.9284 
G01 Z-0.1500 F254.00 
G01 X-62.6226 Y4.2316 F508.00 
G01 X-62.6563 Y4.0621 
G01 X-62.7225 Y3.9024 
G01 X-62.8185 Y3.7587 
G01 X-62.9407 Y3.6365 
G01 X-63.0844 Y3.5405 
G01 X-63.2441 Y3.4743 
G01 X-63.4136 Y3.4406 
G01 X-63.5864 Y3.4406 
G01 X-63.7559 Y3.4743 
G01 X-63.9156 Y3.5405 
G01 X-64.0593 Y3.6365 
G01 X-64.1815 Y3.7587 
G01 X-64.2775 Y3.9024 
G01 X-64.3437 Y4.0621 
G01 X-64.3774 Y4.2316 
G01 X-64.3774 Y5.9284 
G01 X-64.3437 Y6.0979 
G01 X-64.2775 Y6.2576 
G01 X-64.1815 Y6.4013 
G01 X-64.0593 Y6.5235 
G01 X-63.9156 Y6.6195 
G01 X-63.7559 Y6.6857 
G01 X-63.5864 Y6.7194 
G01 X-63.4136 Y6.7194 
G01 X-63.2441 Y6.6857 
G01 X-63.0844 Y6.6195 
G01 X-62.9407 Y6.5235 
G01 X-62.8185 Y6.4013 
G01 X-62.7225 Y6.2576 
G01 X-62.6563 Y6.0979 
G01 X-62.6226 Y5.9284 
G00 Z2.5400 
G00 X-64.2758 Y32.2832 
G01 Z-0.1500 F254.00 
G01 X-64.2758 Y33.7568 F508.00 
G01 X-64.2460 Y33.9067 
G01 X-64.1875 Y34.0479 
G01 X-64.1026 Y34.1749 
G01 X-63.9945 Y34.2830 
G01 X-63.8675 Y34.3679 
G01 X-63.7263 Y34.4264 
G01 X-63.5764 Y34.4562 
G01 X-63.4236 Y34.4562 
G01 X-63.2737 Y34.4264 
G01 X-63.1325 Y34.3679 
G01 X-63.0055 Y34.2830 
G01 X-62.8974 Y34.1749 
G01 X-62.8125 Y34.0479 
G01 X-62.7540 Y33.9067 
G01 X-62.7242 Y33.7568 
G01 X-62.7242 Y32.2832 
G01 X-62.7540 Y32.1333 
G01 X-62.8125 Y31.9921 
G01 X-62.8974 Y31.8651 
G01 X-63.0055 Y31.7570 
G01 X-63.1325 Y31.6721 
G01 X-63.2737 Y31.6136 
G01 X-63.4236 Y31.5838 
G01 X-63.5764 Y31.5838 
G01 X-63.7263 Y31.6136 
G01 X-63.8675 Y31.6721 
G01 X-63.9945 Y31.7570 
G01 X-64.1026 Y31.8651 
G01 X-64.1875 Y31.9921 
G01 X-64.2460 Y32.1333 
G01 X-64.2758 Y32.2832 
G00 Z2.5400 
G00 X-61.7358 Y32.2832 
G01 Z-0.1500 F254.00 
G01 X-61.7358 Y33.7568 F508.00 
G01 X-61.7060 Y33.9067 
G01 X-61.6475 Y34.0479 
G01 X-61.5626 Y34.1749 
G01 X-61.4545 Y34.2830 
G01 X-61.3275 Y34.3679 
G01 X-61.1863 Y34.4264 
G01 X-61.0364 Y34.4562 
G01 X-60.8836 Y34.4562 
G01 X-60.7337 Y34.4264 
G01 X-60.5925 Y34.3679 
G01 X-60.4655 Y34.2830 
G01 X-60.3574 Y34.1749 
G01 X-60.2725 Y34.0479 
G01 X-60.2140 Y33.9067 
G01 X-60.1842 Y33.7568 
G01 X-60.1842 Y32.2832 
G01 X-60.2140 Y32.1333 
G01 X-60.2725 Y31.9921 
G01 X-60.3574 Y31.8651 
G01 X-60.4655 Y31.7570 
G01 X-60.5925 Y31.6721 
G01 X-60.7337 Y31.6136 
G01 X-60.8836 Y31.5838 
G01 X-61.0364 Y31.5838 
G01 X-61.1863 Y31.6136 
G01 X-61.3275 Y31.6721 
G01 X-61.4545 Y31.7570 
G01 X-61.5626 Y31.8651 
G01 X-61.6475 Y31.9921 
G01 X-61.7060 Y32.1333 
G01 X-61.7358 Y32.2832 
G00 Z2.5400 
G00 X-59.1958 Y32.2832 
G01 Z-0.1500 F254.00 
G01 X-59.1958 Y33.7568 F508.00 
G01 X-59.1660 Y33.9067 
G01 X-59.1075 Y34.0479 
G01 X-59.0226 Y34.1749 
G01 X-58.9145 Y34.2830 
G01 X-58.7875 Y34.3679 
G01 X-58.6463 Y34.4264 
G01 X-58.4964 Y34.4562 
G01 X-58.3436 Y34.4562 
G01 X-58.1937 Y34.4264 
G01 X-58.0525 Y34.3679 
G01 X-57.9255 Y34.2830 
G01 X-57.8174 Y34.1749 
G01 X-57.7325 Y34.0479 
G01 X-57.6740 Y33.9067 
G01 X-57.6442 Y33.7568 
G01 X-57.6442 Y32.2832 
G01 X-57.6740 Y32.1333 
G01 X-57.7325 Y31.9921 
G01 X-57.8174 Y31.8651 
G01 X-57.9255 Y31.7570 
G01 X-58.0525 Y31.6721 
G01 X-58.1937 Y31.6136 
G01 X-58.3436 Y31.5838 
G01 X-58.4964 Y31.5838 
G01 X-58.6463 Y31.6136 
G01 X-58.7875 Y31.6721 
G01 X-58.9145 Y31.7570 
G01 X-59.0226 Y31.8651 
G01 X-59.1075 Y31.9921 
G01 X-59.1660 Y32.1333 
G01 X-59.1958 Y32.2832 
G00 Z2.5400 
G00 X-56.6558 Y32.2832 
G01 Z-0.1500 F254.00 
G01 X-56.6558 Y33.7568 F508.00 
G01 X-56.6260 Y33.9067 
G01 X-56.5675 Y34.0479 
G01 X-56.4826 Y34.1749 
G01 X-56.3745 Y34.2830 
G01 X-56.2475 Y34.3679 
G01 X-56.1063 Y34.4264 
G01 X-55.9564 Y34.4562 
G01 X-55.8036 Y34.4562 
G01 X-55.6537 Y34.4264 
G01 X-55.5125 Y34.3679 
G01 X-55.3855 Y34.2830 
G01 X-55.2774 Y34.1749 
G01 X-55.1925 Y34.0479 
G01 X-55.1340 Y33.9067 
G01 X-55.1042 Y33.7568 
G01 X-55.1042 Y32.2832 
G01 X-55.1340 Y32.1333 
G01 X-55.1925 Y31.9921 
G01 X-55.2774 Y31.8651 
G01 X-55.3855 Y31.7570 
G01 X-55.5125 Y31.6721 
G01 X-55.6537 Y31.6136 
G01 X-55.8036 Y31.5838 
G01 X-55.9564 Y31.5838 
G01 X-56.1063 Y31.6136 
G01 X-56.2475 Y31.6721 
G01 X-56.3745 Y31.7570 
G01 X-56.4826 Y31.8651 
G01 X-56.5675 Y31.9921 
G01 X-56.6260 Y32.1333 
G01 X-56.6558 Y32.2832 
G00 Z2.5400 
G00 X-51.5758 Y32.2832 
G01 Z-0.1500 F254.00 
G01 X-51.5758 Y33.4505 F508.00 
G01 X-52.6099 Y34.4846 
G01 X-70.6401 Y34.4846 
G01 X-71.0376 Y34.0870 
G01 X-71.0870 Y34.0376 
G01 X-71.1476 Y34.0027 
G01 X-71.2151 Y33.9846 
G01 X-73.5349 Y33.9846 
G01 X-73.6024 Y34.0027 
G01 X-73.6630 Y34.0376 
G01 X-73.7124 Y34.0870 
G01 X-74.6630 Y35.0376 
G01 X-74.7124 Y35.0870 
G01 X-74.7473 Y35.1476 
G01 X-74.7654 Y35.2151 
G01 X-74.7654 Y38.0349 
G01 X-74.7473 Y38.1024 
G01 X-74.7124 Y38.1630 
G01 X-74.6630 Y38.2124 
G01 X-74.6024 Y38.2473 
G01 X-74.5349 Y38.2654 
G01 X-74.0137 Y38.2654 
G01 X-73.9957 Y38.3559 
G01 X-73.9295 Y38.5156 
G01 X-73.8335 Y38.6593 
G01 X-73.7113 Y38.7815 
G01 X-73.5676 Y38.8775 
G01 X-73.4079 Y38.9437 
G01 X-73.2384 Y38.9774 
G01 X-71.5416 Y38.9774 
G01 X-71.3721 Y38.9437 
G01 X-71.2124 Y38.8775 
G01 X-71.0687 Y38.7815 
G01 X-70.9465 Y38.6593 
G01 X-70.8505 Y38.5156 
G01 X-70.7843 Y38.3559 
G01 X-70.7506 Y38.1864 
G01 X-70.7506 Y38.0136 
G01 X-70.7843 Y37.8441 
G01 X-70.8505 Y37.6844 
G01 X-70.9465 Y37.5407 
G01 X-71.0687 Y37.4185 
G01 X-71.2124 Y37.3225 
G01 X-71.3721 Y37.2563 
G01 X-71.5416 Y37.2226 
G01 X-73.2384 Y37.2226 
G01 X-73.4079 Y37.2563 
G01 X-73.5676 Y37.3225 
G01 X-73.7113 Y37.4185 
G01 X-73.8335 Y37.5407 
G01 X-73.9295 Y37.6844 
G01 X-73.9503 Y37.7346 
G01 X-74.2346 Y37.7346 
G01 X-74.2346 Y35.3599 
G01 X-73.3901 Y34.5154 
G01 X-71.3599 Y34.5154 
G01 X-70.9130 Y34.9624 
G01 X-70.8524 Y34.9973 
G01 X-70.7849 Y35.0154 
G01 X-52.4651 Y35.0154 
G01 X-52.3976 Y34.9973 
G01 X-52.3370 Y34.9624 
G01 X-52.2876 Y34.9130 
G01 X-51.4615 Y34.0868 
G01 X-51.4026 Y34.1749 
G01 X-51.2945 Y34.2830 
G01 X-51.1675 Y34.3679 
G01 X-51.0263 Y34.4264 
G01 X-50.8764 Y34.4562 
G01 X-50.7236 Y34.4562 
G01 X-50.5737 Y34.4264 
G01 X-50.4325 Y34.3679 
G01 X-50.3055 Y34.2830 
G01 X-50.1974 Y34.1749 
G01 X-50.1125 Y34.0479 
G01 X-50.0540 Y33.9067 
G01 X-50.0242 Y33.7568 
G01 X-50.0242 Y32.2832 
G01 X-50.0540 Y32.1333 
G01 X-50.1125 Y31.9921 
G01 X-50.1974 Y31.8651 
G01 X-50.3055 Y31.7570 
G01 X-50.4325 Y31.6721 
G01 X-50.5737 Y31.6136 
G01 X-50.7236 Y31.5838 
G01 X-50.8764 Y31.5838 
G01 X-51.0263 Y31.6136 
G01 X-51.1675 Y31.6721 
G01 X-51.2945 Y31.7570 
G01 X-51.4026 Y31.8651 
G01 X-51.4875 Y31.9921 
G01 X-51.5460 Y32.1333 
G01 X-51.5758 Y32.2832 
G00 Z2.5400 
G00 X-49.0358 Y32.2832 
G01 Z-0.1500 F254.00 
G01 X-49.0358 Y33.7568 F508.00 
G01 X-49.0060 Y33.9067 
G01 X-48.9475 Y34.0479 
G01 X-48.8626 Y34.1749 
G01 X-48.7545 Y34.2830 
G01 X-48.6275 Y34.3679 
G01 X-48.4863 Y34.4264 
G01 X-48.3364 Y34.4562 
G01 X-48.1836 Y34.4562 
G01 X-48.0337 Y34.4264 
G01 X-47.8925 Y34.3679 
G01 X-47.7655 Y34.2830 
G01 X-47.6574 Y34.1749 
G01 X-47.5725 Y34.0479 
G01 X-47.5140 Y33.9067 
G01 X-47.4842 Y33.7568 
G01 X-47.4842 Y32.2832 
G01 X-47.5140 Y32.1333 
G01 X-47.5725 Y31.9921 
G01 X-47.6574 Y31.8651 
G01 X-47.7655 Y31.7570 
G01 X-47.8925 Y31.6721 
G01 X-48.0337 Y31.6136 
G01 X-48.1836 Y31.5838 
G01 X-48.3364 Y31.5838 
G01 X-48.4863 Y31.6136 
G01 X-48.6275 Y31.6721 
G01 X-48.7545 Y31.7570 
G01 X-48.8626 Y31.8651 
G01 X-48.9475 Y31.9921 
G01 X-49.0060 Y32.1333 
G01 X-49.0358 Y32.2832 
G00 Z2.5400 
G00 X-46.4958 Y32.2832 
G01 Z-0.1500 F254.00 
G01 X-46.4958 Y33.7568 F508.00 
G01 X-46.4660 Y33.9067 
G01 X-46.4075 Y34.0479 
G01 X-46.3226 Y34.1749 
G01 X-46.2145 Y34.2830 
G01 X-46.0875 Y34.3679 
G01 X-45.9463 Y34.4264 
G01 X-45.7964 Y34.4562 
G01 X-45.6436 Y34.4562 
G01 X-45.4937 Y34.4264 
G01 X-45.3525 Y34.3679 
G01 X-45.2255 Y34.2830 
G01 X-45.1174 Y34.1749 
G01 X-45.0325 Y34.0479 
G01 X-44.9740 Y33.9067 
G01 X-44.9442 Y33.7568 
G01 X-44.9442 Y32.2832 
G01 X-44.9740 Y32.1333 
G01 X-45.0325 Y31.9921 
G01 X-45.1174 Y31.8651 
G01 X-45.2255 Y31.7570 
G01 X-45.3525 Y31.6721 
G01 X-45.4937 Y31.6136 
G01 X-45.6436 Y31.5838 
G01 X-45.7964 Y31.5838 
G01 X-45.9463 Y31.6136 
G01 X-46.0875 Y31.6721 
G01 X-46.2145 Y31.7570 
G01 X-46.3226 Y31.8651 
G01 X-46.4075 Y31.9921 
G01 X-46.4660 Y32.1333 
G01 X-46.4958 Y32.2832 
G00 Z2.5400 
G00 X-41.4158 Y32.2832 
G01 Z-0.1500 F254.00 
G01 X-41.4158 Y33.7568 F508.00 
G01 X-41.3860 Y33.9067 
G01 X-41.3275 Y34.0479 
G01 X-41.2426 Y34.1749 
G01 X-41.1345 Y34.2830 
G01 X-41.0075 Y34.3679 
G01 X-40.8663 Y34.4264 
G01 X-40.7164 Y34.4562 
G01 X-40.5636 Y34.4562 
G01 X-40.4137 Y34.4264 
G01 X-40.2725 Y34.3679 
G01 X-40.1455 Y34.2830 
G01 X-40.0374 Y34.1749 
G01 X-39.9525 Y34.0479 
G01 X-39.8940 Y33.9067 
G01 X-39.8642 Y33.7568 
G01 X-39.8642 Y32.2832 
G01 X-39.8940 Y32.1333 
G01 X-39.9525 Y31.9921 
G01 X-40.0374 Y31.8651 
G01 X-40.1455 Y31.7570 
G01 X-40.2725 Y31.6721 
G01 X-40.4137 Y31.6136 
G01 X-40.5636 Y31.5838 
G01 X-40.7164 Y31.5838 
G01 X-40.8663 Y31.6136 
G01 X-41.0075 Y31.6721 
G01 X-41.1345 Y31.7570 
G01 X-41.2426 Y31.8651 
G01 X-41.3275 Y31.9921 
G01 X-41.3860 Y32.1333 
G01 X-41.4158 Y32.2832 
G00 Z2.5400 
G00 X-33.7958 Y33.7568 
G01 Z-0.1500 F254.00 
G01 X-33.7660 Y33.9067 F508.00 
G01 X-33.7075 Y34.0479 
G01 X-33.6226 Y34.1749 
G01 X-33.5145 Y34.2830 
G01 X-33.3875 Y34.3679 
G01 X-33.2463 Y34.4264 
G01 X-33.0964 Y34.4562 
G01 X-32.9436 Y34.4562 
G01 X-32.7937 Y34.4264 
G01 X-32.6525 Y34.3679 
G01 X-32.5255 Y34.2830 
G01 X-32.4174 Y34.1749 
G01 X-32.3325 Y34.0479 
G01 X-32.2740 Y33.9067 
G01 X-32.2442 Y33.7568 
G01 X-32.2442 Y32.2832 
G01 X-32.2740 Y32.1333 
G01 X-32.3325 Y31.9921 
G01 X-32.4174 Y31.8651 
G01 X-32.5255 Y31.7570 
G01 X-32.6525 Y31.6721 
G01 X-32.7937 Y31.6136 
G01 X-32.9436 Y31.5838 
G01 X-33.0964 Y31.5838 
G01 X-33.2463 Y31.6136 
G01 X-33.3875 Y31.6721 
G01 X-33.5145 Y31.7570 
G01 X-33.6226 Y31.8651 
G01 X-33.7075 Y31.9921 
G01 X-33.7588 Y32.1159 
G01 X-35.5870 Y30.2876 
G01 X-35.6476 Y30.2527 
G01 X-35.7151 Y30.2346 
G01 X-71.7849 Y30.2346 
G01 X-71.8524 Y30.2527 
G01 X-71.9130 Y30.2876 
G01 X-71.9624 Y30.3370 
G01 X-76.0383 Y34.4129 
G01 X-76.0682 Y34.4006 
G01 X-76.1886 Y34.3766 
G01 X-76.3114 Y34.3766 
G01 X-76.4318 Y34.4006 
G01 X-76.5453 Y34.4475 
G01 X-76.6474 Y34.5158 
G01 X-76.7342 Y34.6026 
G01 X-76.8024 Y34.7047 
G01 X-76.8494 Y34.8182 
G01 X-76.8734 Y34.9386 
G01 X-76.8734 Y35.0614 
G01 X-76.8494 Y35.1818 
G01 X-76.8024 Y35.2953 
G01 X-76.7342 Y35.3974 
G01 X-76.6474 Y35.4842 
G01 X-76.5453 Y35.5524 
G01 X-76.4318 Y35.5994 
G01 X-76.3114 Y35.6234 
G01 X-76.1886 Y35.6234 
G01 X-76.0682 Y35.5994 
G01 X-75.9547 Y35.5524 
G01 X-75.8526 Y35.4842 
G01 X-75.7658 Y35.3974 
G01 X-75.6976 Y35.2953 
G01 X-75.6506 Y35.1818 
G01 X-75.6266 Y35.0614 
G01 X-75.6266 Y34.9386 
G01 X-75.6506 Y34.8182 
G01 X-75.6629 Y34.7883 
G01 X-71.6401 Y30.7654 
G01 X-35.8599 Y30.7654 
G01 X-33.7958 Y32.8295 
G01 X-33.7958 Y33.7568 
G00 Z2.5400 
G00 X-31.2558 Y32.2832 
G01 Z-0.1500 F254.00 
G01 X-31.2558 Y33.7568 F508.00 
G01 X-31.2260 Y33.9067 
G01 X-31.1675 Y34.0479 
G01 X-31.0826 Y34.1749 
G01 X-30.9745 Y34.2830 
G01 X-30.8475 Y34.3679 
G01 X-30.7063 Y34.4264 
G01 X-30.5564 Y34.4562 
G01 X-30.4036 Y34.4562 
G01 X-30.2537 Y34.4264 
G01 X-30.1125 Y34.3679 
G01 X-29.9855 Y34.2830 
G01 X-29.8774 Y34.1749 
G01 X-29.8065 Y34.0688 
G01 X-28.2124 Y35.6630 
G01 X-28.1630 Y35.7124 
G01 X-28.1024 Y35.7473 
G01 X-28.0349 Y35.7654 
G01 X-19.3957 Y35.7654 
G01 X-19.3857 Y35.8159 
G01 X-19.3195 Y35.9756 
G01 X-19.2235 Y36.1193 
G01 X-19.1013 Y36.2415 
G01 X-18.9576 Y36.3375 
G01 X-18.7979 Y36.4037 
G01 X-18.6284 Y36.4374 
G01 X-16.9316 Y36.4374 
G01 X-16.7621 Y36.4037 
G01 X-16.6024 Y36.3375 
G01 X-16.4587 Y36.2415 
G01 X-16.3365 Y36.1193 
G01 X-16.2405 Y35.9756 
G01 X-16.1743 Y35.8159 
G01 X-16.1406 Y35.6464 
G01 X-16.1406 Y35.4736 
G01 X-16.1743 Y35.3041 
G01 X-16.2405 Y35.1444 
G01 X-16.3365 Y35.0007 
G01 X-16.4587 Y34.8785 
G01 X-16.6024 Y34.7825 
G01 X-16.7621 Y34.7163 
G01 X-16.9316 Y34.6826 
G01 X-18.6284 Y34.6826 
G01 X-18.7979 Y34.7163 
G01 X-18.9576 Y34.7825 
G01 X-19.1013 Y34.8785 
G01 X-19.2235 Y35.0007 
G01 X-19.3195 Y35.1444 
G01 X-19.3569 Y35.2346 
G01 X-27.8901 Y35.2346 
G01 X-29.7042 Y33.4205 
G01 X-29.7042 Y32.2832 
G01 X-29.7340 Y32.1333 
G01 X-29.7925 Y31.9921 
G01 X-29.8774 Y31.8651 
G01 X-29.9855 Y31.7570 
G01 X-30.1125 Y31.6721 
G01 X-30.2537 Y31.6136 
G01 X-30.4036 Y31.5838 
G01 X-30.5564 Y31.5838 
G01 X-30.7063 Y31.6136 
G01 X-30.8475 Y31.6721 
G01 X-30.9745 Y31.7570 
G01 X-31.0826 Y31.8651 
G01 X-31.1675 Y31.9921 
G01 X-31.2260 Y32.1333 
G01 X-31.2558 Y32.2832 
G00 Z2.5400 
G00 X-31.2558 Y24.6632 
G01 Z-0.1500 F254.00 
G01 X-31.2558 Y26.1368 F508.00 
G01 X-31.2260 Y26.2867 
G01 X-31.1675 Y26.4279 
G01 X-31.0826 Y26.5549 
G01 X-30.9745 Y26.6630 
G01 X-30.8475 Y26.7479 
G01 X-30.7063 Y26.8064 
G01 X-30.5564 Y26.8362 
G01 X-30.4036 Y26.8362 
G01 X-30.2537 Y26.8064 
G01 X-30.1125 Y26.7479 
G01 X-29.9855 Y26.6630 
G01 X-29.8774 Y26.5549 
G01 X-29.7925 Y26.4279 
G01 X-29.7647 Y26.3607 
G01 X-29.7124 Y26.4130 
G01 X-29.6630 Y26.4624 
G01 X-29.6024 Y26.4973 
G01 X-29.5349 Y26.5154 
G01 X-25.3148 Y26.5154 
G01 X-25.3024 Y26.5453 
G01 X-25.2342 Y26.6474 
G01 X-25.1474 Y26.7342 
G01 X-25.0453 Y26.8024 
G01 X-24.9318 Y26.8494 
G01 X-24.8114 Y26.8734 
G01 X-24.6886 Y26.8734 
G01 X-24.5682 Y26.8494 
G01 X-24.4547 Y26.8024 
G01 X-24.3526 Y26.7342 
G01 X-24.2658 Y26.6474 
G01 X-24.1975 Y26.5453 
G01 X-24.1506 Y26.4318 
G01 X-24.1266 Y26.3114 
G01 X-24.1266 Y26.1886 
G01 X-24.1506 Y26.0682 
G01 X-24.1975 Y25.9547 
G01 X-24.2658 Y25.8526 
G01 X-24.3526 Y25.7658 
G01 X-24.4547 Y25.6975 
G01 X-24.5682 Y25.6506 
G01 X-24.6886 Y25.6266 
G01 X-24.8114 Y25.6266 
G01 X-24.9318 Y25.6506 
G01 X-25.0453 Y25.6975 
G01 X-25.1474 Y25.7658 
G01 X-25.2342 Y25.8526 
G01 X-25.3024 Y25.9547 
G01 X-25.3148 Y25.9846 
G01 X-29.3901 Y25.9846 
G01 X-29.7042 Y25.6705 
G01 X-29.7042 Y24.6632 
G01 X-29.7340 Y24.5133 
G01 X-29.7925 Y24.3721 
G01 X-29.8774 Y24.2451 
G01 X-29.9855 Y24.1370 
G01 X-30.1125 Y24.0521 
G01 X-30.2537 Y23.9936 
G01 X-30.4036 Y23.9638 
G01 X-30.5564 Y23.9638 
G01 X-30.7063 Y23.9936 
G01 X-30.8475 Y24.0521 
G01 X-30.9745 Y24.1370 
G01 X-31.0826 Y24.2451 
G01 X-31.1675 Y24.3721 
G01 X-31.2260 Y24.5133 
G01 X-31.2558 Y24.6632 
G00 Z2.5400 
G00 X-33.7958 Y24.6632 
G01 Z-0.1500 F254.00 
G01 X-33.7958 Y26.1368 F508.00 
G01 X-33.7660 Y26.2867 
G01 X-33.7075 Y26.4279 
G01 X-33.6226 Y26.5549 
G01 X-33.5145 Y26.6630 
G01 X-33.3875 Y26.7479 
G01 X-33.2463 Y26.8064 
G01 X-33.0964 Y26.8362 
G01 X-32.9436 Y26.8362 
G01 X-32.7937 Y26.8064 
G01 X-32.6525 Y26.7479 
G01 X-32.5255 Y26.6630 
G01 X-32.4174 Y26.5549 
G01 X-32.3325 Y26.4279 
G01 X-32.2740 Y26.2867 
G01 X-32.2442 Y26.1368 
G01 X-32.2442 Y24.6632 
G01 X-32.2740 Y24.5133 
G01 X-32.3325 Y24.3721 
G01 X-32.4174 Y24.2451 
G01 X-32.5255 Y24.1370 
G01 X-32.6525 Y24.0521 
G01 X-32.7937 Y23.9936 
G01 X-32.9436 Y23.9638 
G01 X-33.0964 Y23.9638 
G01 X-33.2463 Y23.9936 
G01 X-33.3875 Y24.0521 
G01 X-33.5145 Y24.1370 
G01 X-33.6226 Y24.2451 
G01 X-33.7075 Y24.3721 
G01 X-33.7660 Y24.5133 
G01 X-33.7958 Y24.6632 
G00 Z2.5400 
G00 X-36.3358 Y24.6632 
G01 Z-0.1500 F254.00 
G01 X-36.3358 Y26.1368 F508.00 
G01 X-36.3060 Y26.2867 
G01 X-36.2475 Y26.4279 
G01 X-36.1626 Y26.5549 
G01 X-36.0545 Y26.6630 
G01 X-35.9275 Y26.7479 
G01 X-35.7863 Y26.8064 
G01 X-35.6364 Y26.8362 
G01 X-35.4836 Y26.8362 
G01 X-35.3337 Y26.8064 
G01 X-35.1925 Y26.7479 
G01 X-35.0655 Y26.6630 
G01 X-34.9574 Y26.5549 
G01 X-34.8725 Y26.4279 
G01 X-34.8140 Y26.2867 
G01 X-34.7842 Y26.1368 
G01 X-34.7842 Y24.6632 
G01 X-34.8140 Y24.5133 
G01 X-34.8725 Y24.3721 
G01 X-34.9574 Y24.2451 
G01 X-35.0655 Y24.1370 
G01 X-35.1925 Y24.0521 
G01 X-35.3337 Y23.9936 
G01 X-35.4836 Y23.9638 
G01 X-35.6364 Y23.9638 
G01 X-35.7863 Y23.9936 
G01 X-35.9275 Y24.0521 
G01 X-36.0545 Y24.1370 
G01 X-36.1626 Y24.2451 
G01 X-36.2475 Y24.3721 
G01 X-36.3060 Y24.5133 
G01 X-36.3358 Y24.6632 
G00 Z2.5400 
G00 X-38.8758 Y24.6632 
G01 Z-0.1500 F254.00 
G01 X-38.8758 Y26.1368 F508.00 
G01 X-38.8460 Y26.2867 
G01 X-38.7875 Y26.4279 
G01 X-38.7026 Y26.5549 
G01 X-38.5945 Y26.6630 
G01 X-38.4675 Y26.7479 
G01 X-38.3263 Y26.8064 
G01 X-38.1764 Y26.8362 
G01 X-38.0236 Y26.8362 
G01 X-37.8737 Y26.8064 
G01 X-37.7325 Y26.7479 
G01 X-37.6055 Y26.6630 
G01 X-37.4974 Y26.5549 
G01 X-37.4125 Y26.4279 
G01 X-37.3540 Y26.2867 
G01 X-37.3242 Y26.1368 
G01 X-37.3242 Y24.6632 
G01 X-37.3540 Y24.5133 
G01 X-37.4125 Y24.3721 
G01 X-37.4974 Y24.2451 
G01 X-37.6055 Y24.1370 
G01 X-37.7325 Y24.0521 
G01 X-37.8737 Y23.9936 
G01 X-38.0236 Y23.9638 
G01 X-38.1764 Y23.9638 
G01 X-38.3263 Y23.9936 
G01 X-38.4675 Y24.0521 
G01 X-38.5945 Y24.1370 
G01 X-38.7026 Y24.2451 
G01 X-38.7875 Y24.3721 
G01 X-38.8460 Y24.5133 
G01 X-38.8758 Y24.6632 
G00 Z2.5400 
G00 X-41.4158 Y24.6632 
G01 Z-0.1500 F254.00 
G01 X-41.4158 Y26.1368 F508.00 
G01 X-41.3860 Y26.2867 
G01 X-41.3275 Y26.4279 
G01 X-41.2426 Y26.5549 
G01 X-41.1345 Y26.6630 
G01 X-41.0075 Y26.7479 
G01 X-40.8663 Y26.8064 
G01 X-40.7164 Y26.8362 
G01 X-40.5636 Y26.8362 
G01 X-40.4137 Y26.8064 
G01 X-40.2725 Y26.7479 
G01 X-40.1455 Y26.6630 
G01 X-40.0374 Y26.5549 
G01 X-39.9525 Y26.4279 
G01 X-39.8940 Y26.2867 
G01 X-39.8642 Y26.1368 
G01 X-39.8642 Y24.6632 
G01 X-39.8940 Y24.5133 
G01 X-39.9525 Y24.3721 
G01 X-40.0374 Y24.2451 
G01 X-40.1455 Y24.1370 
G01 X-40.2725 Y24.0521 
G01 X-40.4137 Y23.9936 
G01 X-40.5636 Y23.9638 
G01 X-40.7164 Y23.9638 
G01 X-40.8663 Y23.9936 
G01 X-41.0075 Y24.0521 
G01 X-41.1345 Y24.1370 
G01 X-41.2426 Y24.2451 
G01 X-41.3275 Y24.3721 
G01 X-41.3860 Y24.5133 
G01 X-41.4158 Y24.6632 
G00 Z2.5400 
G00 X-43.9558 Y24.6632 
G01 Z-0.1500 F254.00 
G01 X-43.9558 Y26.1368 F508.00 
G01 X-43.9260 Y26.2867 
G01 X-43.8675 Y26.4279 
G01 X-43.7826 Y26.5549 
G01 X-43.6745 Y26.6630 
G01 X-43.5475 Y26.7479 
G01 X-43.4063 Y26.8064 
G01 X-43.2564 Y26.8362 
G01 X-43.1036 Y26.8362 
G01 X-42.9537 Y26.8064 
G01 X-42.8125 Y26.7479 
G01 X-42.6855 Y26.6630 
G01 X-42.5774 Y26.5549 
G01 X-42.4925 Y26.4279 
G01 X-42.4340 Y26.2867 
G01 X-42.4042 Y26.1368 
G01 X-42.4042 Y24.6632 
G01 X-42.4340 Y24.5133 
G01 X-42.4925 Y24.3721 
G01 X-42.5774 Y24.2451 
G01 X-42.6855 Y24.1370 
G01 X-42.8125 Y24.0521 
G01 X-42.9537 Y23.9936 
G01 X-43.1036 Y23.9638 
G01 X-43.2564 Y23.9638 
G01 X-43.4063 Y23.9936 
G01 X-43.5475 Y24.0521 
G01 X-43.6745 Y24.1370 
G01 X-43.7826 Y24.2451 
G01 X-43.8675 Y24.3721 
G01 X-43.9260 Y24.5133 
G01 X-43.9558 Y24.6632 
G00 Z2.5400 
G00 X-46.4958 Y24.6632 
G01 Z-0.1500 F254.00 
G01 X-46.4958 Y26.1368 F508.00 
G01 X-46.4660 Y26.2867 
G01 X-46.4075 Y26.4279 
G01 X-46.3226 Y26.5549 
G01 X-46.2145 Y26.6630 
G01 X-46.0875 Y26.7479 
G01 X-45.9463 Y26.8064 
G01 X-45.7964 Y26.8362 
G01 X-45.6436 Y26.8362 
G01 X-45.4937 Y26.8064 
G01 X-45.3525 Y26.7479 
G01 X-45.2255 Y26.6630 
G01 X-45.1174 Y26.5549 
G01 X-45.0325 Y26.4279 
G01 X-44.9740 Y26.2867 
G01 X-44.9442 Y26.1368 
G01 X-44.9442 Y24.6632 
G01 X-44.9740 Y24.5133 
G01 X-45.0325 Y24.3721 
G01 X-45.1174 Y24.2451 
G01 X-45.2255 Y24.1370 
G01 X-45.3525 Y24.0521 
G01 X-45.4937 Y23.9936 
G01 X-45.6436 Y23.9638 
G01 X-45.7964 Y23.9638 
G01 X-45.9463 Y23.9936 
G01 X-46.0875 Y24.0521 
G01 X-46.2145 Y24.1370 
G01 X-46.3226 Y24.2451 
G01 X-46.4075 Y24.3721 
G01 X-46.4660 Y24.5133 
G01 X-46.4958 Y24.6632 
G00 Z2.5400 
G00 X-49.0358 Y24.6632 
G01 Z-0.1500 F254.00 
G01 X-49.0358 Y26.1368 F508.00 
G01 X-49.0060 Y26.2867 
G01 X-48.9475 Y26.4279 
G01 X-48.8626 Y26.5549 
G01 X-48.7545 Y26.6630 
G01 X-48.6275 Y26.7479 
G01 X-48.4863 Y26.8064 
G01 X-48.3364 Y26.8362 
G01 X-48.1836 Y26.8362 
G01 X-48.0337 Y26.8064 
G01 X-47.8925 Y26.7479 
G01 X-47.7655 Y26.6630 
G01 X-47.6574 Y26.5549 
G01 X-47.5725 Y26.4279 
G01 X-47.5140 Y26.2867 
G01 X-47.4842 Y26.1368 
G01 X-47.4842 Y24.6632 
G01 X-47.5140 Y24.5133 
G01 X-47.5725 Y24.3721 
G01 X-47.6574 Y24.2451 
G01 X-47.7655 Y24.1370 
G01 X-47.8925 Y24.0521 
G01 X-48.0337 Y23.9936 
G01 X-48.1836 Y23.9638 
G01 X-48.3364 Y23.9638 
G01 X-48.4863 Y23.9936 
G01 X-48.6275 Y24.0521 
G01 X-48.7545 Y24.1370 
G01 X-48.8626 Y24.2451 
G01 X-48.9475 Y24.3721 
G01 X-49.0060 Y24.5133 
G01 X-49.0358 Y24.6632 
G00 Z2.5400 
G00 X-51.5758 Y24.6632 
G01 Z-0.1500 F254.00 
G01 X-51.5758 Y26.1368 F508.00 
G01 X-51.5460 Y26.2867 
G01 X-51.4875 Y26.4279 
G01 X-51.4026 Y26.5549 
G01 X-51.2945 Y26.6630 
G01 X-51.1675 Y26.7479 
G01 X-51.0263 Y26.8064 
G01 X-50.8764 Y26.8362 
G01 X-50.7236 Y26.8362 
G01 X-50.5737 Y26.8064 
G01 X-50.4325 Y26.7479 
G01 X-50.3055 Y26.6630 
G01 X-50.1974 Y26.5549 
G01 X-50.1465 Y26.4788 
G01 X-49.2124 Y27.4130 
G01 X-49.1630 Y27.4624 
G01 X-49.1024 Y27.4973 
G01 X-49.0349 Y27.5154 
G01 X-19.7151 Y27.5154 
G01 X-19.6476 Y27.4973 
G01 X-19.5870 Y27.4624 
G01 X-18.4021 Y26.2774 
G01 X-16.9316 Y26.2774 
G01 X-16.7621 Y26.2437 
G01 X-16.6024 Y26.1775 
G01 X-16.4587 Y26.0815 
G01 X-16.3365 Y25.9593 
G01 X-16.2405 Y25.8156 
G01 X-16.1743 Y25.6559 
G01 X-16.1406 Y25.4864 
G01 X-16.1406 Y25.3136 
G01 X-16.1743 Y25.1441 
G01 X-16.2405 Y24.9844 
G01 X-16.3365 Y24.8407 
G01 X-16.4587 Y24.7185 
G01 X-16.6024 Y24.6225 
G01 X-16.7621 Y24.5563 
G01 X-16.9316 Y24.5226 
G01 X-18.6284 Y24.5226 
G01 X-18.7979 Y24.5563 
G01 X-18.9576 Y24.6225 
G01 X-19.1013 Y24.7185 
G01 X-19.2235 Y24.8407 
G01 X-19.3195 Y24.9844 
G01 X-19.3857 Y25.1441 
G01 X-19.4194 Y25.3136 
G01 X-19.4194 Y25.4864 
G01 X-19.3857 Y25.6559 
G01 X-19.3195 Y25.8156 
G01 X-19.2235 Y25.9593 
G01 X-19.1013 Y26.0815 
G01 X-19.0147 Y26.1394 
G01 X-19.8599 Y26.9846 
G01 X-48.8901 Y26.9846 
G01 X-50.0242 Y25.8505 
G01 X-50.0242 Y24.6632 
G01 X-50.0540 Y24.5133 
G01 X-50.1125 Y24.3721 
G01 X-50.1974 Y24.2451 
G01 X-50.3055 Y24.1370 
G01 X-50.4325 Y24.0521 
G01 X-50.5737 Y23.9936 
G01 X-50.7236 Y23.9638 
G01 X-50.8764 Y23.9638 
G01 X-51.0263 Y23.9936 
G01 X-51.1675 Y24.0521 
G01 X-51.2945 Y24.1370 
G01 X-51.4026 Y24.2451 
G01 X-51.4875 Y24.3721 
G01 X-51.5460 Y24.5133 
G01 X-51.5758 Y24.6632 
G00 Z2.5400 
G00 X-54.1158 Y24.6632 
G01 Z-0.1500 F254.00 
G01 X-54.1158 Y26.1368 F508.00 
G01 X-54.0860 Y26.2867 
G01 X-54.0275 Y26.4279 
G01 X-53.9426 Y26.5549 
G01 X-53.8345 Y26.6630 
G01 X-53.7075 Y26.7479 
G01 X-53.5663 Y26.8064 
G01 X-53.4164 Y26.8362 
G01 X-53.2636 Y26.8362 
G01 X-53.1137 Y26.8064 
G01 X-52.9725 Y26.7479 
G01 X-52.8455 Y26.6630 
G01 X-52.7374 Y26.5549 
G01 X-52.6525 Y26.4279 
G01 X-52.5940 Y26.2867 
G01 X-52.5642 Y26.1368 
G01 X-52.5642 Y24.9395 
G01 X-50.8901 Y23.2654 
G01 X-19.3238 Y23.2654 
G01 X-19.3195 Y23.2756 
G01 X-19.2235 Y23.4193 
G01 X-19.1013 Y23.5415 
G01 X-18.9576 Y23.6375 
G01 X-18.7979 Y23.7037 
G01 X-18.6284 Y23.7374 
G01 X-16.9316 Y23.7374 
G01 X-16.7621 Y23.7037 
G01 X-16.6024 Y23.6375 
G01 X-16.4587 Y23.5415 
G01 X-16.3365 Y23.4193 
G01 X-16.2405 Y23.2756 
G01 X-16.1743 Y23.1159 
G01 X-16.1406 Y22.9464 
G01 X-16.1406 Y22.7736 
G01 X-16.1743 Y22.6041 
G01 X-16.2405 Y22.4444 
G01 X-16.3365 Y22.3007 
G01 X-16.4587 Y22.1785 
G01 X-16.6024 Y22.0825 
G01 X-16.7621 Y22.0163 
G01 X-16.9316 Y21.9826 
G01 X-18.6284 Y21.9826 
G01 X-18.7979 Y22.0163 
G01 X-18.9576 Y22.0825 
G01 X-19.1013 Y22.1785 
G01 X-19.2235 Y22.3007 
G01 X-19.3195 Y22.4444 
G01 X-19.3857 Y22.6041 
G01 X-19.4116 Y22.7346 
G01 X-51.0349 Y22.7346 
G01 X-51.1024 Y22.7527 
G01 X-51.1630 Y22.7876 
G01 X-51.2124 Y22.8370 
G01 X-52.6905 Y24.3152 
G01 X-52.7374 Y24.2451 
G01 X-52.8455 Y24.1370 
G01 X-52.9725 Y24.0521 
G01 X-53.1137 Y23.9936 
G01 X-53.2636 Y23.9638 
G01 X-53.4164 Y23.9638 
G01 X-53.5663 Y23.9936 
G01 X-53.7075 Y24.0521 
G01 X-53.8345 Y24.1370 
G01 X-53.9426 Y24.2451 
G01 X-54.0275 Y24.3721 
G01 X-54.0860 Y24.5133 
G01 X-54.1158 Y24.6632 
G00 Z2.5400 
G00 X-56.6558 Y24.6632 
G01 Z-0.1500 F254.00 
G01 X-56.6558 Y26.1368 F508.00 
G01 X-56.6260 Y26.2867 
G01 X-56.5675 Y26.4279 
G01 X-56.4826 Y26.5549 
G01 X-56.3745 Y26.6630 
G01 X-56.2475 Y26.7479 
G01 X-56.1063 Y26.8064 
G01 X-55.9564 Y26.8362 
G01 X-55.8036 Y26.8362 
G01 X-55.6537 Y26.8064 
G01 X-55.5125 Y26.7479 
G01 X-55.3855 Y26.6630 
G01 X-55.2774 Y26.5549 
G01 X-55.1925 Y26.4279 
G01 X-55.1340 Y26.2867 
G01 X-55.1042 Y26.1368 
G01 X-55.1042 Y24.6632 
G01 X-55.1340 Y24.5133 
G01 X-55.1925 Y24.3721 
G01 X-55.2774 Y24.2451 
G01 X-55.3855 Y24.1370 
G01 X-55.5125 Y24.0521 
G01 X-55.6537 Y23.9936 
G01 X-55.8036 Y23.9638 
G01 X-55.9564 Y23.9638 
G01 X-56.1063 Y23.9936 
G01 X-56.2475 Y24.0521 
G01 X-56.3745 Y24.1370 
G01 X-56.4826 Y24.2451 
G01 X-56.5675 Y24.3721 
G01 X-56.6260 Y24.5133 
G01 X-56.6558 Y24.6632 
G00 Z2.5400 
G00 X-59.1958 Y24.6632 
G01 Z-0.1500 F254.00 
G01 X-59.1958 Y26.1368 F508.00 
G01 X-59.1660 Y26.2867 
G01 X-59.1075 Y26.4279 
G01 X-59.0226 Y26.5549 
G01 X-58.9145 Y26.6630 
G01 X-58.7875 Y26.7479 
G01 X-58.6463 Y26.8064 
G01 X-58.4964 Y26.8362 
G01 X-58.3436 Y26.8362 
G01 X-58.1937 Y26.8064 
G01 X-58.0525 Y26.7479 
G01 X-57.9255 Y26.6630 
G01 X-57.8174 Y26.5549 
G01 X-57.7325 Y26.4279 
G01 X-57.6740 Y26.2867 
G01 X-57.6442 Y26.1368 
G01 X-57.6442 Y24.6632 
G01 X-57.6740 Y24.5133 
G01 X-57.7325 Y24.3721 
G01 X-57.8174 Y24.2451 
G01 X-57.9255 Y24.1370 
G01 X-58.0525 Y24.0521 
G01 X-58.1937 Y23.9936 
G01 X-58.3436 Y23.9638 
G01 X-58.4964 Y23.9638 
G01 X-58.6463 Y23.9936 
G01 X-58.7875 Y24.0521 
G01 X-58.9145 Y24.1370 
G01 X-59.0226 Y24.2451 
G01 X-59.1075 Y24.3721 
G01 X-59.1660 Y24.5133 
G01 X-59.1958 Y24.6632 
G00 Z2.5400 
G00 X-61.7358 Y24.6632 
G01 Z-0.1500 F254.00 
G01 X-61.7358 Y26.1368 F508.00 
G01 X-61.7060 Y26.2867 
G01 X-61.6475 Y26.4279 
G01 X-61.5626 Y26.5549 
G01 X-61.4545 Y26.6630 
G01 X-61.3275 Y26.7479 
G01 X-61.1863 Y26.8064 
G01 X-61.0364 Y26.8362 
G01 X-60.8836 Y26.8362 
G01 X-60.7337 Y26.8064 
G01 X-60.5925 Y26.7479 
G01 X-60.4655 Y26.6630 
G01 X-60.3574 Y26.5549 
G01 X-60.2725 Y26.4279 
G01 X-60.2140 Y26.2867 
G01 X-60.1842 Y26.1368 
G01 X-60.1842 Y24.6632 
G01 X-60.2140 Y24.5133 
G01 X-60.2725 Y24.3721 
G01 X-60.3574 Y24.2451 
G01 X-60.4655 Y24.1370 
G01 X-60.5925 Y24.0521 
G01 X-60.7337 Y23.9936 
G01 X-60.8836 Y23.9638 
G01 X-61.0364 Y23.9638 
G01 X-61.1863 Y23.9936 
G01 X-61.3275 Y24.0521 
G01 X-61.4545 Y24.1370 
G01 X-61.5626 Y24.2451 
G01 X-61.6475 Y24.3721 
G01 X-61.7060 Y24.5133 
G01 X-61.7358 Y24.6632 
G00 Z2.5400 
G00 X-64.2758 Y24.6632 
G01 Z-0.1500 F254.00 
G01 X-64.2758 Y26.1368 F508.00 
G01 X-64.2460 Y26.2867 
G01 X-64.1875 Y26.4279 
G01 X-64.1026 Y26.5549 
G01 X-63.9945 Y26.6630 
G01 X-63.8675 Y26.7479 
G01 X-63.7263 Y26.8064 
G01 X-63.5764 Y26.8362 
G01 X-63.4236 Y26.8362 
G01 X-63.2737 Y26.8064 
G01 X-63.1325 Y26.7479 
G01 X-63.0055 Y26.6630 
G01 X-62.8974 Y26.5549 
G01 X-62.8125 Y26.4279 
G01 X-62.7540 Y26.2867 
G01 X-62.7242 Y26.1368 
G01 X-62.7242 Y24.6632 
G01 X-62.7540 Y24.5133 
G01 X-62.8125 Y24.3721 
G01 X-62.8974 Y24.2451 
G01 X-63.0055 Y24.1370 
G01 X-63.1325 Y24.0521 
G01 X-63.2737 Y23.9936 
G01 X-63.4236 Y23.9638 
G01 X-63.5764 Y23.9638 
G01 X-63.7263 Y23.9936 
G01 X-63.8675 Y24.0521 
G01 X-63.9945 Y24.1370 
G01 X-64.1026 Y24.2451 
G01 X-64.1875 Y24.3721 
G01 X-64.2460 Y24.5133 
G01 X-64.2758 Y24.6632 
G00 Z2.5400 
G00 X-10.6564 Y42.1063 
G01 Z-0.1500 F254.00 
G01 X-10.6564 Y42.2724 F508.00 
G01 X-10.6304 Y42.4365 
G01 X-10.5791 Y42.5945 
G01 X-10.5422 Y42.6669 
G01 X-11.1099 Y43.2346 
G01 X-51.9352 Y43.2346 
G01 X-51.9475 Y43.2047 
G01 X-52.0158 Y43.1026 
G01 X-52.1026 Y43.0158 
G01 X-52.2047 Y42.9475 
G01 X-52.3182 Y42.9006 
G01 X-52.4386 Y42.8766 
G01 X-52.5614 Y42.8766 
G01 X-52.6818 Y42.9006 
G01 X-52.7953 Y42.9475 
G01 X-52.8974 Y43.0158 
G01 X-52.9842 Y43.1026 
G01 X-53.0524 Y43.2047 
G01 X-53.0994 Y43.3182 
G01 X-53.1234 Y43.4386 
G01 X-53.1234 Y43.5614 
G01 X-53.0994 Y43.6818 
G01 X-53.0524 Y43.7953 
G01 X-52.9842 Y43.8974 
G01 X-52.8974 Y43.9842 
G01 X-52.7953 Y44.0524 
G01 X-52.6818 Y44.0994 
G01 X-52.5614 Y44.1234 
G01 X-52.4386 Y44.1234 
G01 X-52.3182 Y44.0994 
G01 X-52.2047 Y44.0524 
G01 X-52.1026 Y43.9842 
G01 X-52.0158 Y43.8974 
G01 X-51.9475 Y43.7953 
G01 X-51.9352 Y43.7654 
G01 X-10.9651 Y43.7654 
G01 X-10.8976 Y43.7473 
G01 X-10.8370 Y43.7124 
G01 X-10.7876 Y43.6630 
G01 X-10.1903 Y43.0657 
G01 X-10.1542 Y43.0919 
G01 X-10.0063 Y43.1673 
G01 X-9.8483 Y43.2186 
G01 X-9.6842 Y43.2446 
G01 X-9.5182 Y43.2446 
G01 X-9.3541 Y43.2186 
G01 X-9.1961 Y43.1673 
G01 X-9.0482 Y43.0919 
G01 X-8.9138 Y42.9943 
G01 X-8.7963 Y42.8768 
G01 X-8.6987 Y42.7424 
G01 X-8.6233 Y42.5945 
G01 X-8.5720 Y42.4365 
G01 X-8.5460 Y42.2724 
G01 X-8.5460 Y42.1063 
G01 X-8.5720 Y41.9423 
G01 X-8.6233 Y41.7843 
G01 X-8.6987 Y41.6364 
G01 X-8.7963 Y41.5020 
G01 X-8.9138 Y41.3845 
G01 X-9.0482 Y41.2869 
G01 X-9.1961 Y41.2115 
G01 X-9.3541 Y41.1602 
G01 X-9.5182 Y41.1342 
G01 X-9.6842 Y41.1342 
G01 X-9.8483 Y41.1602 
G01 X-10.0063 Y41.2115 
G01 X-10.1542 Y41.2869 
G01 X-10.2886 Y41.3845 
G01 X-10.4061 Y41.5020 
G01 X-10.5037 Y41.6364 
G01 X-10.5791 Y41.7843 
G01 X-10.6304 Y41.9423 
G01 X-10.6564 Y42.1063 
G00 Z2.5400 
G00 X-4.1540 Y42.1063 
G01 Z-0.1500 F254.00 
G01 X-4.1540 Y42.2724 F508.00 
G01 X-4.1280 Y42.4365 
G01 X-4.0767 Y42.5945 
G01 X-4.0013 Y42.7424 
G01 X-3.9037 Y42.8768 
G01 X-3.7862 Y42.9943 
G01 X-3.6518 Y43.0919 
G01 X-3.5039 Y43.1673 
G01 X-3.3459 Y43.2186 
G01 X-3.1818 Y43.2446 
G01 X-3.0158 Y43.2446 
G01 X-2.8517 Y43.2186 
G01 X-2.6937 Y43.1673 
G01 X-2.5458 Y43.0919 
G01 X-2.4114 Y42.9943 
G01 X-2.2939 Y42.8768 
G01 X-2.1963 Y42.7424 
G01 X-2.1209 Y42.5945 
G01 X-2.0696 Y42.4365 
G01 X-2.0436 Y42.2724 
G01 X-2.0436 Y42.1063 
G01 X-2.0696 Y41.9423 
G01 X-2.1209 Y41.7843 
G01 X-2.1963 Y41.6364 
G01 X-2.2939 Y41.5020 
G01 X-2.4114 Y41.3845 
G01 X-2.5458 Y41.2869 
G01 X-2.6937 Y41.2115 
G01 X-2.8517 Y41.1602 
G01 X-3.0158 Y41.1342 
G01 X-3.1818 Y41.1342 
G01 X-3.3459 Y41.1602 
G01 X-3.5039 Y41.2115 
G01 X-3.6518 Y41.2869 
G01 X-3.7862 Y41.3845 
G01 X-3.9037 Y41.5020 
G01 X-4.0013 Y41.6364 
G01 X-4.0767 Y41.7843 
G01 X-4.1280 Y41.9423 
G01 X-4.1540 Y42.1063 
G00 Z2.5400 
G00 X-4.1540 Y46.6275 
G01 Z-0.1500 F254.00 
G01 X-4.1540 Y46.7936 F508.00 
G01 X-4.1280 Y46.9577 
G01 X-4.0767 Y47.1157 
G01 X-4.0013 Y47.2636 
G01 X-3.9037 Y47.3980 
G01 X-3.7862 Y47.5155 
G01 X-3.6518 Y47.6131 
G01 X-3.5039 Y47.6885 
G01 X-3.3459 Y47.7398 
G01 X-3.1818 Y47.7658 
G01 X-3.0158 Y47.7658 
G01 X-2.8517 Y47.7398 
G01 X-2.6937 Y47.6885 
G01 X-2.5458 Y47.6131 
G01 X-2.4114 Y47.5155 
G01 X-2.2939 Y47.3980 
G01 X-2.1963 Y47.2636 
G01 X-2.1209 Y47.1157 
G01 X-2.0696 Y46.9577 
G01 X-2.0436 Y46.7936 
G01 X-2.0436 Y46.6275 
G01 X-2.0696 Y46.4635 
G01 X-2.1209 Y46.3055 
G01 X-2.1963 Y46.1576 
G01 X-2.2939 Y46.0232 
G01 X-2.4114 Y45.9057 
G01 X-2.5458 Y45.8081 
G01 X-2.6937 Y45.7327 
G01 X-2.8517 Y45.6814 
G01 X-3.0158 Y45.6554 
G01 X-3.1818 Y45.6554 
G01 X-3.3459 Y45.6814 
G01 X-3.5039 Y45.7327 
G01 X-3.6518 Y45.8081 
G01 X-3.7862 Y45.9057 
G01 X-3.9037 Y46.0232 
G01 X-4.0013 Y46.1576 
G01 X-4.0767 Y46.3055 
G01 X-4.1280 Y46.4635 
G01 X-4.1540 Y46.6275 
G00 Z2.5400 
G00 X-60.2644 Y62.5178 
G01 Z-0.1500 F254.00 
G01 X-60.2644 Y64.1422 F508.00 
G01 X-60.2319 Y64.3053 
G01 X-60.1683 Y64.4590 
G01 X-60.0759 Y64.5973 
G01 X-59.9583 Y64.7149 
G01 X-59.8200 Y64.8073 
G01 X-59.6663 Y64.8709 
G01 X-59.5032 Y64.9034 
G01 X-59.3368 Y64.9034 
G01 X-59.1737 Y64.8709 
G01 X-59.0200 Y64.8073 
G01 X-58.8817 Y64.7149 
G01 X-58.7641 Y64.5973 
G01 X-58.6717 Y64.4590 
G01 X-58.6081 Y64.3053 
G01 X-58.5756 Y64.1422 
G01 X-58.5756 Y62.5178 
G01 X-58.6081 Y62.3547 
G01 X-58.6717 Y62.2010 
G01 X-58.7641 Y62.0627 
G01 X-58.8817 Y61.9451 
G01 X-59.0200 Y61.8527 
G01 X-59.1737 Y61.7891 
G01 X-59.3368 Y61.7566 
G01 X-59.5032 Y61.7566 
G01 X-59.6663 Y61.7891 
G01 X-59.8200 Y61.8527 
G01 X-59.9583 Y61.9451 
G01 X-60.0759 Y62.0627 
G01 X-60.1683 Y62.2010 
G01 X-60.2319 Y62.3547 
G01 X-60.2644 Y62.5178 
G00 Z2.5400 
G00 X-58.2644 Y62.5178 
G01 Z-0.1500 F254.00 
G01 X-58.2644 Y64.1422 F508.00 
G01 X-58.2319 Y64.3053 
G01 X-58.1683 Y64.4590 
G01 X-58.0759 Y64.5973 
G01 X-57.9583 Y64.7149 
G01 X-57.8200 Y64.8073 
G01 X-57.6663 Y64.8709 
G01 X-57.5032 Y64.9034 
G01 X-57.3368 Y64.9034 
G01 X-57.1737 Y64.8709 
G01 X-57.0200 Y64.8073 
G01 X-56.8817 Y64.7149 
G01 X-56.7641 Y64.5973 
G01 X-56.6717 Y64.4590 
G01 X-56.6081 Y64.3053 
G01 X-56.5756 Y64.1422 
G01 X-56.5756 Y62.5178 
G01 X-56.6081 Y62.3547 
G01 X-56.6717 Y62.2010 
G01 X-56.7641 Y62.0627 
G01 X-56.8817 Y61.9451 
G01 X-57.0200 Y61.8527 
G01 X-57.1737 Y61.7891 
G01 X-57.3368 Y61.7566 
G01 X-57.5032 Y61.7566 
G01 X-57.6663 Y61.7891 
G01 X-57.8200 Y61.8527 
G01 X-57.9583 Y61.9451 
G01 X-58.0759 Y62.0627 
G01 X-58.1683 Y62.2010 
G01 X-58.2319 Y62.3547 
G01 X-58.2644 Y62.5178 
G00 Z2.5400 
G00 X-62.7644 Y62.5178 
G01 Z-0.1500 F254.00 
G01 X-62.7644 Y64.1422 F508.00 
G01 X-62.7319 Y64.3053 
G01 X-62.6683 Y64.4590 
G01 X-62.5759 Y64.5973 
G01 X-62.4583 Y64.7149 
G01 X-62.3200 Y64.8073 
G01 X-62.1663 Y64.8709 
G01 X-62.0032 Y64.9034 
G01 X-61.8368 Y64.9034 
G01 X-61.6737 Y64.8709 
G01 X-61.5200 Y64.8073 
G01 X-61.3817 Y64.7149 
G01 X-61.2641 Y64.5973 
G01 X-61.1717 Y64.4590 
G01 X-61.1081 Y64.3053 
G01 X-61.0756 Y64.1422 
G01 X-61.0756 Y62.5178 
G01 X-61.1081 Y62.3547 
G01 X-61.1717 Y62.2010 
G01 X-61.2641 Y62.0627 
G01 X-61.3817 Y61.9451 
G01 X-61.5200 Y61.8527 
G01 X-61.6737 Y61.7891 
G01 X-61.8368 Y61.7566 
G01 X-62.0032 Y61.7566 
G01 X-62.1663 Y61.7891 
G01 X-62.3200 Y61.8527 
G01 X-62.4583 Y61.9451 
G01 X-62.5759 Y62.0627 
G01 X-62.6683 Y62.2010 
G01 X-62.7319 Y62.3547 
G01 X-62.7644 Y62.5178 
G00 Z2.5400 
G00 X-55.7644 Y62.5178 
G01 Z-0.1500 F254.00 
G01 X-55.7644 Y64.1422 F508.00 
G01 X-55.7319 Y64.3053 
G01 X-55.6683 Y64.4590 
G01 X-55.5759 Y64.5973 
G01 X-55.4583 Y64.7149 
G01 X-55.3200 Y64.8073 
G01 X-55.1663 Y64.8709 
G01 X-55.0032 Y64.9034 
G01 X-54.8368 Y64.9034 
G01 X-54.6737 Y64.8709 
G01 X-54.5200 Y64.8073 
G01 X-54.3817 Y64.7149 
G01 X-54.2641 Y64.5973 
G01 X-54.1717 Y64.4590 
G01 X-54.1081 Y64.3053 
G01 X-54.0756 Y64.1422 
G01 X-54.0756 Y62.5178 
G01 X-54.1081 Y62.3547 
G01 X-54.1717 Y62.2010 
G01 X-54.2641 Y62.0627 
G01 X-54.3817 Y61.9451 
G01 X-54.5200 Y61.8527 
G01 X-54.6737 Y61.7891 
G01 X-54.8368 Y61.7566 
G01 X-55.0032 Y61.7566 
G01 X-55.1663 Y61.7891 
G01 X-55.3200 Y61.8527 
G01 X-55.4583 Y61.9451 
G01 X-55.5759 Y62.0627 
G01 X-55.6683 Y62.2010 
G01 X-55.7319 Y62.3547 
G01 X-55.7644 Y62.5178 
G00 Z2.5400 
G00 X-11.0374 Y37.2516 
G01 Z-0.1500 F254.00 
G01 X-11.0374 Y38.9484 F508.00 
G01 X-11.0037 Y39.1179 
G01 X-10.9375 Y39.2776 
G01 X-10.8415 Y39.4213 
G01 X-10.7193 Y39.5435 
G01 X-10.5756 Y39.6395 
G01 X-10.4159 Y39.7057 
G01 X-10.2464 Y39.7394 
G01 X-10.0736 Y39.7394 
G01 X-9.9041 Y39.7057 
G01 X-9.7444 Y39.6395 
G01 X-9.6007 Y39.5435 
G01 X-9.4785 Y39.4213 
G01 X-9.3825 Y39.2776 
G01 X-9.3163 Y39.1179 
G01 X-9.2826 Y38.9484 
G01 X-9.2826 Y37.2516 
G01 X-9.3163 Y37.0821 
G01 X-9.3825 Y36.9224 
G01 X-9.4785 Y36.7787 
G01 X-9.6007 Y36.6565 
G01 X-9.7444 Y36.5605 
G01 X-9.9041 Y36.4943 
G01 X-10.0736 Y36.4606 
G01 X-10.2464 Y36.4606 
G01 X-10.4159 Y36.4943 
G01 X-10.5756 Y36.5605 
G01 X-10.7193 Y36.6565 
G01 X-10.8415 Y36.7787 
G01 X-10.9375 Y36.9224 
G01 X-11.0037 Y37.0821 
G01 X-11.0374 Y37.2516 
G00 Z2.5400 
G00 X-8.4974 Y37.2516 
G01 Z-0.1500 F254.00 
G01 X-8.4974 Y38.9484 F508.00 
G01 X-8.4637 Y39.1179 
G01 X-8.3975 Y39.2776 
G01 X-8.3015 Y39.4213 
G01 X-8.1793 Y39.5435 
G01 X-8.0356 Y39.6395 
G01 X-7.8759 Y39.7057 
G01 X-7.7064 Y39.7394 
G01 X-7.5336 Y39.7394 
G01 X-7.3641 Y39.7057 
G01 X-7.2044 Y39.6395 
G01 X-7.0607 Y39.5435 
G01 X-6.9385 Y39.4213 
G01 X-6.8425 Y39.2776 
G01 X-6.7763 Y39.1179 
G01 X-6.7426 Y38.9484 
G01 X-6.7426 Y37.2516 
G01 X-6.7763 Y37.0821 
G01 X-6.8425 Y36.9224 
G01 X-6.9385 Y36.7787 
G01 X-7.0607 Y36.6565 
G01 X-7.2044 Y36.5605 
G01 X-7.3641 Y36.4943 
G01 X-7.5336 Y36.4606 
G01 X-7.7064 Y36.4606 
G01 X-7.8759 Y36.4943 
G01 X-8.0356 Y36.5605 
G01 X-8.1793 Y36.6565 
G01 X-8.3015 Y36.7787 
G01 X-8.3975 Y36.9224 
G01 X-8.4637 Y37.0821 
G01 X-8.4974 Y37.2516 
G00 Z2.5400 
G00 X-5.9574 Y37.2516 
G01 Z-0.1500 F254.00 
G01 X-5.9574 Y38.9484 F508.00 
G01 X-5.9237 Y39.1179 
G01 X-5.8575 Y39.2776 
G01 X-5.7615 Y39.4213 
G01 X-5.6393 Y39.5435 
G01 X-5.5154 Y39.6263 
G01 X-5.5154 Y44.2346 
G01 X-35.4352 Y44.2346 
G01 X-35.4475 Y44.2047 
G01 X-35.5158 Y44.1026 
G01 X-35.6026 Y44.0158 
G01 X-35.7047 Y43.9475 
G01 X-35.8182 Y43.9006 
G01 X-35.9386 Y43.8766 
G01 X-36.0614 Y43.8766 
G01 X-36.1818 Y43.9006 
G01 X-36.2953 Y43.9475 
G01 X-36.3974 Y44.0158 
G01 X-36.4842 Y44.1026 
G01 X-36.5524 Y44.2047 
G01 X-36.5648 Y44.2346 
G01 X-56.2345 Y44.2346 
G01 X-56.2345 Y44.0708 
G01 X-56.7708 Y43.5345 
G01 X-57.5292 Y43.5345 
G01 X-57.5597 Y43.5650 
G01 X-58.5376 Y42.5870 
G01 X-58.5870 Y42.5376 
G01 X-58.6476 Y42.5027 
G01 X-58.7151 Y42.4846 
G01 X-64.9352 Y42.4846 
G01 X-64.9476 Y42.4547 
G01 X-65.0158 Y42.3526 
G01 X-65.1026 Y42.2658 
G01 X-65.2047 Y42.1975 
G01 X-65.3182 Y42.1506 
G01 X-65.4386 Y42.1266 
G01 X-65.5614 Y42.1266 
G01 X-65.6818 Y42.1506 
G01 X-65.7953 Y42.1975 
G01 X-65.8974 Y42.2658 
G01 X-65.9842 Y42.3526 
G01 X-66.0524 Y42.4547 
G01 X-66.0994 Y42.5682 
G01 X-66.1234 Y42.6886 
G01 X-66.1234 Y42.8114 
G01 X-66.0994 Y42.9318 
G01 X-66.0524 Y43.0453 
G01 X-65.9842 Y43.1474 
G01 X-65.8974 Y43.2342 
G01 X-65.7953 Y43.3024 
G01 X-65.6818 Y43.3494 
G01 X-65.5614 Y43.3734 
G01 X-65.4386 Y43.3734 
G01 X-65.3182 Y43.3494 
G01 X-65.2047 Y43.3024 
G01 X-65.1026 Y43.2342 
G01 X-65.0158 Y43.1474 
G01 X-64.9476 Y43.0453 
G01 X-64.9352 Y43.0154 
G01 X-58.8599 Y43.0154 
G01 X-57.9350 Y43.9403 
G01 X-58.0655 Y44.0708 
G01 X-58.0655 Y44.8292 
G01 X-57.5292 Y45.3655 
G01 X-56.7708 Y45.3655 
G01 X-56.2345 Y44.8292 
G01 X-56.2345 Y44.7654 
G01 X-36.5648 Y44.7654 
G01 X-36.5524 Y44.7953 
G01 X-36.4842 Y44.8974 
G01 X-36.3974 Y44.9842 
G01 X-36.2953 Y45.0524 
G01 X-36.1818 Y45.0994 
G01 X-36.0614 Y45.1234 
G01 X-35.9386 Y45.1234 
G01 X-35.8182 Y45.0994 
G01 X-35.7047 Y45.0524 
G01 X-35.6026 Y44.9842 
G01 X-35.5158 Y44.8974 
G01 X-35.4475 Y44.7953 
G01 X-35.4352 Y44.7654 
G01 X-5.2151 Y44.7654 
G01 X-5.1476 Y44.7473 
G01 X-5.0870 Y44.7124 
G01 X-5.0376 Y44.6630 
G01 X-5.0027 Y44.6024 
G01 X-4.9846 Y44.5349 
G01 X-4.9846 Y39.7376 
G01 X-4.8241 Y39.7057 
G01 X-4.6644 Y39.6395 
G01 X-4.5207 Y39.5435 
G01 X-4.3985 Y39.4213 
G01 X-4.3025 Y39.2776 
G01 X-4.2363 Y39.1179 
G01 X-4.2026 Y38.9484 
G01 X-4.2026 Y37.2516 
G01 X-4.2363 Y37.0821 
G01 X-4.3025 Y36.9224 
G01 X-4.3985 Y36.7787 
G01 X-4.5207 Y36.6565 
G01 X-4.6644 Y36.5605 
G01 X-4.8241 Y36.4943 
G01 X-4.9936 Y36.4606 
G01 X-5.1664 Y36.4606 
G01 X-5.3359 Y36.4943 
G01 X-5.4956 Y36.5605 
G01 X-5.6393 Y36.6565 
G01 X-5.7615 Y36.7787 
G01 X-5.8575 Y36.9224 
G01 X-5.9237 Y37.0821 
G01 X-5.9574 Y37.2516 
G00 Z2.5400 
G00 X-30.6716 Y59.6086 
G01 Z-0.1500 F254.00 
G01 X-30.6716 Y59.7714 F508.00 
G01 X-30.6398 Y59.9311 
G01 X-30.5775 Y60.0815 
G01 X-30.4871 Y60.2169 
G01 X-30.3719 Y60.3321 
G01 X-30.2365 Y60.4225 
G01 X-30.0861 Y60.4848 
G01 X-29.9264 Y60.5166 
G01 X-29.7636 Y60.5166 
G01 X-29.6039 Y60.4848 
G01 X-29.4535 Y60.4225 
G01 X-29.3181 Y60.3321 
G01 X-29.2029 Y60.2169 
G01 X-29.1125 Y60.0815 
G01 X-29.0502 Y59.9311 
G01 X-29.0184 Y59.7714 
G01 X-29.0184 Y59.6086 
G01 X-29.0502 Y59.4489 
G01 X-29.1125 Y59.2985 
G01 X-29.2029 Y59.1631 
G01 X-29.3181 Y59.0479 
G01 X-29.4535 Y58.9575 
G01 X-29.6039 Y58.8952 
G01 X-29.7636 Y58.8634 
G01 X-29.9264 Y58.8634 
G01 X-30.0861 Y58.8952 
G01 X-30.2365 Y58.9575 
G01 X-30.3719 Y59.0479 
G01 X-30.4871 Y59.1631 
G01 X-30.5775 Y59.2985 
G01 X-30.6398 Y59.4489 
G01 X-30.6716 Y59.6086 
G00 Z2.5400 
G00 X-29.4016 Y57.0686 
G01 Z-0.1500 F254.00 
G01 X-29.4016 Y57.2314 F508.00 
G01 X-29.3698 Y57.3911 
G01 X-29.3075 Y57.5415 
G01 X-29.2171 Y57.6769 
G01 X-29.1019 Y57.7921 
G01 X-28.9665 Y57.8825 
G01 X-28.8161 Y57.9448 
G01 X-28.6564 Y57.9766 
G01 X-28.4936 Y57.9766 
G01 X-28.3339 Y57.9448 
G01 X-28.1835 Y57.8825 
G01 X-28.0481 Y57.7921 
G01 X-27.9329 Y57.6769 
G01 X-27.8425 Y57.5415 
G01 X-27.7802 Y57.3911 
G01 X-27.7484 Y57.2314 
G01 X-27.7484 Y57.0686 
G01 X-27.7802 Y56.9089 
G01 X-27.8425 Y56.7585 
G01 X-27.9329 Y56.6231 
G01 X-28.0481 Y56.5079 
G01 X-28.1835 Y56.4175 
G01 X-28.3339 Y56.3552 
G01 X-28.4936 Y56.3234 
G01 X-28.6564 Y56.3234 
G01 X-28.8161 Y56.3552 
G01 X-28.9599 Y56.4147 
G01 X-29.5870 Y55.7876 
G01 X-29.6476 Y55.7527 
G01 X-29.7151 Y55.7346 
G01 X-41.5349 Y55.7346 
G01 X-41.6024 Y55.7527 
G01 X-41.6630 Y55.7876 
G01 X-41.7124 Y55.8370 
G01 X-42.2520 Y56.3767 
G01 X-42.3039 Y56.3552 
G01 X-42.4636 Y56.3234 
G01 X-42.6264 Y56.3234 
G01 X-42.7861 Y56.3552 
G01 X-42.9365 Y56.4175 
G01 X-43.0719 Y56.5079 
G01 X-43.1871 Y56.6231 
G01 X-43.2616 Y56.7346 
G01 X-46.8901 Y56.7346 
G01 X-56.2450 Y47.3797 
G01 X-56.2345 Y47.3692 
G01 X-56.2345 Y46.6108 
G01 X-56.7708 Y46.0745 
G01 X-57.5292 Y46.0745 
G01 X-58.0655 Y46.6108 
G01 X-58.0655 Y47.3692 
G01 X-57.5292 Y47.9055 
G01 X-56.7708 Y47.9055 
G01 X-56.6203 Y47.7550 
G01 X-47.2124 Y57.1630 
G01 X-47.1630 Y57.2124 
G01 X-47.1024 Y57.2473 
G01 X-47.0349 Y57.2654 
G01 X-43.3648 Y57.2654 
G01 X-43.3398 Y57.3911 
G01 X-43.2775 Y57.5415 
G01 X-43.1871 Y57.6769 
G01 X-43.0719 Y57.7921 
G01 X-42.9365 Y57.8825 
G01 X-42.7861 Y57.9448 
G01 X-42.6264 Y57.9766 
G01 X-42.4636 Y57.9766 
G01 X-42.3039 Y57.9448 
G01 X-42.1535 Y57.8825 
G01 X-42.0181 Y57.7921 
G01 X-41.9029 Y57.6769 
G01 X-41.8125 Y57.5415 
G01 X-41.7502 Y57.3911 
G01 X-41.7184 Y57.2314 
G01 X-41.7184 Y57.0686 
G01 X-41.7502 Y56.9089 
G01 X-41.8125 Y56.7585 
G01 X-41.8408 Y56.7161 
G01 X-41.3901 Y56.2654 
G01 X-29.8599 Y56.2654 
G01 X-29.3249 Y56.8004 
G01 X-29.3698 Y56.9089 
G01 X-29.4016 Y57.0686 
G00 Z2.5400 
G00 X-28.1316 Y59.6086 
G01 Z-0.1500 F254.00 
G01 X-28.1316 Y59.7714 F508.00 
G01 X-28.0998 Y59.9311 
G01 X-28.0871 Y59.9618 
G01 X-28.8599 Y60.7346 
G01 X-39.8901 Y60.7346 
G01 X-40.5427 Y60.0819 
G01 X-40.4802 Y59.9311 
G01 X-40.4484 Y59.7714 
G01 X-40.4484 Y59.6086 
G01 X-40.4802 Y59.4489 
G01 X-40.5425 Y59.2985 
G01 X-40.6329 Y59.1631 
G01 X-40.7481 Y59.0479 
G01 X-40.8835 Y58.9575 
G01 X-41.0339 Y58.8952 
G01 X-41.1936 Y58.8634 
G01 X-41.3564 Y58.8634 
G01 X-41.5161 Y58.8952 
G01 X-41.6665 Y58.9575 
G01 X-41.8019 Y59.0479 
G01 X-41.9171 Y59.1631 
G01 X-42.0075 Y59.2985 
G01 X-42.0698 Y59.4489 
G01 X-42.1016 Y59.6086 
G01 X-42.1016 Y59.7714 
G01 X-42.0698 Y59.9311 
G01 X-42.0075 Y60.0815 
G01 X-41.9171 Y60.2169 
G01 X-41.8019 Y60.3321 
G01 X-41.6665 Y60.4225 
G01 X-41.5161 Y60.4848 
G01 X-41.3564 Y60.5166 
G01 X-41.1936 Y60.5166 
G01 X-41.0339 Y60.4848 
G01 X-40.9325 Y60.4428 
G01 X-40.1630 Y61.2124 
G01 X-40.1024 Y61.2473 
G01 X-40.0349 Y61.2654 
G01 X-28.7151 Y61.2654 
G01 X-28.6476 Y61.2473 
G01 X-28.5870 Y61.2124 
G01 X-28.5376 Y61.1630 
G01 X-27.7569 Y60.3822 
G01 X-27.6965 Y60.4225 
G01 X-27.5461 Y60.4848 
G01 X-27.3864 Y60.5166 
G01 X-27.2236 Y60.5166 
G01 X-27.0639 Y60.4848 
G01 X-26.9135 Y60.4225 
G01 X-26.7781 Y60.3321 
G01 X-26.6629 Y60.2169 
G01 X-26.5725 Y60.0815 
G01 X-26.5102 Y59.9311 
G01 X-26.4784 Y59.7714 
G01 X-26.4784 Y59.7654 
G01 X-22.4651 Y59.7654 
G01 X-22.3976 Y59.7473 
G01 X-22.3370 Y59.7124 
G01 X-22.2876 Y59.6630 
G01 X-10.2026 Y47.5779 
G01 X-10.1542 Y47.6131 
G01 X-10.0063 Y47.6885 
G01 X-9.8483 Y47.7398 
G01 X-9.6842 Y47.7658 
G01 X-9.5182 Y47.7658 
G01 X-9.3541 Y47.7398 
G01 X-9.1961 Y47.6885 
G01 X-9.0482 Y47.6131 
G01 X-8.9138 Y47.5155 
G01 X-8.7963 Y47.3980 
G01 X-8.6987 Y47.2636 
G01 X-8.6233 Y47.1157 
G01 X-8.5720 Y46.9577 
G01 X-8.5460 Y46.7936 
G01 X-8.5460 Y46.6275 
G01 X-8.5720 Y46.4635 
G01 X-8.6233 Y46.3055 
G01 X-8.6987 Y46.1576 
G01 X-8.7963 Y46.0232 
G01 X-8.9138 Y45.9057 
G01 X-9.0482 Y45.8081 
G01 X-9.1961 Y45.7327 
G01 X-9.3541 Y45.6814 
G01 X-9.5182 Y45.6554 
G01 X-9.6842 Y45.6554 
G01 X-9.8483 Y45.6814 
G01 X-10.0063 Y45.7327 
G01 X-10.1542 Y45.8081 
G01 X-10.2886 Y45.9057 
G01 X-10.4061 Y46.0232 
G01 X-10.5037 Y46.1576 
G01 X-10.5791 Y46.3055 
G01 X-10.6304 Y46.4635 
G01 X-10.6564 Y46.6275 
G01 X-10.6564 Y46.7936 
G01 X-10.6304 Y46.9577 
G01 X-10.5791 Y47.1157 
G01 X-10.5494 Y47.1740 
G01 X-22.6099 Y59.2346 
G01 X-26.6151 Y59.2346 
G01 X-26.6629 Y59.1631 
G01 X-26.7781 Y59.0479 
G01 X-26.9135 Y58.9575 
G01 X-27.0639 Y58.8952 
G01 X-27.2236 Y58.8634 
G01 X-27.3864 Y58.8634 
G01 X-27.5461 Y58.8952 
G01 X-27.6965 Y58.9575 
G01 X-27.8319 Y59.0479 
G01 X-27.9471 Y59.1631 
G01 X-28.0375 Y59.2985 
G01 X-28.0998 Y59.4489 
G01 X-28.1316 Y59.6086 
G00 Z2.5400 
G00 X-26.8624 Y10.3240 
G01 Z-0.1500 F254.00 
G01 X-29.0176 Y10.3240 F508.00 
G01 X-29.1896 Y10.3512 
G01 X-29.3552 Y10.4050 
G01 X-29.5103 Y10.4841 
G01 X-29.6511 Y10.5864 
G01 X-29.7742 Y10.7095 
G01 X-29.8765 Y10.8503 
G01 X-29.9450 Y10.9846 
G01 X-42.1401 Y10.9846 
G01 X-47.3826 Y5.7421 
G01 X-47.3826 Y4.2316 
G01 X-47.4163 Y4.0621 
G01 X-47.4825 Y3.9024 
G01 X-47.5785 Y3.7587 
G01 X-47.7007 Y3.6365 
G01 X-47.8444 Y3.5405 
G01 X-48.0041 Y3.4743 
G01 X-48.1736 Y3.4406 
G01 X-48.3464 Y3.4406 
G01 X-48.5159 Y3.4743 
G01 X-48.6756 Y3.5405 
G01 X-48.8193 Y3.6365 
G01 X-48.9415 Y3.7587 
G01 X-49.0375 Y3.9024 
G01 X-49.1037 Y4.0621 
G01 X-49.1374 Y4.2316 
G01 X-49.1374 Y5.9284 
G01 X-49.1037 Y6.0979 
G01 X-49.0375 Y6.2576 
G01 X-48.9415 Y6.4013 
G01 X-48.8193 Y6.5235 
G01 X-48.6756 Y6.6195 
G01 X-48.5159 Y6.6857 
G01 X-48.3464 Y6.7194 
G01 X-48.1736 Y6.7194 
G01 X-48.0041 Y6.6857 
G01 X-47.8444 Y6.6195 
G01 X-47.7007 Y6.5235 
G01 X-47.5785 Y6.4013 
G01 X-47.5366 Y6.3387 
G01 X-42.4624 Y11.4130 
G01 X-42.4130 Y11.4624 
G01 X-42.3524 Y11.4973 
G01 X-42.2849 Y11.5154 
G01 X-30.0366 Y11.5154 
G01 X-30.0094 Y11.6890 
G01 X-29.9556 Y11.8546 
G01 X-29.8765 Y12.0097 
G01 X-29.7742 Y12.1505 
G01 X-29.6511 Y12.2736 
G01 X-29.5103 Y12.3759 
G01 X-29.3552 Y12.4550 
G01 X-29.1896 Y12.5088 
G01 X-29.0176 Y12.5360 
G01 X-26.8624 Y12.5360 
G01 X-26.6904 Y12.5088 
G01 X-26.5248 Y12.4550 
G01 X-26.3697 Y12.3759 
G01 X-26.2289 Y12.2736 
G01 X-26.1058 Y12.1505 
G01 X-26.0035 Y12.0097 
G01 X-25.9244 Y11.8546 
G01 X-25.8706 Y11.6890 
G01 X-25.8434 Y11.5170 
G01 X-25.8434 Y11.3430 
G01 X-25.8706 Y11.1710 
G01 X-25.9244 Y11.0054 
G01 X-26.0035 Y10.8503 
G01 X-26.1058 Y10.7095 
G01 X-26.2289 Y10.5864 
G01 X-26.3697 Y10.4841 
G01 X-26.5248 Y10.4050 
G01 X-26.6904 Y10.3512 
G01 X-26.8624 Y10.3240 
G00 Z2.5400 
G00 X-4.0024 Y10.3240 
G01 Z-0.1500 F254.00 
G01 X-6.1576 Y10.3240 F508.00 
G01 X-6.3296 Y10.3512 
G01 X-6.4952 Y10.4050 
G01 X-6.6503 Y10.4841 
G01 X-6.7911 Y10.5864 
G01 X-6.9142 Y10.7095 
G01 X-7.0165 Y10.8503 
G01 X-7.0956 Y11.0054 
G01 X-7.1494 Y11.1710 
G01 X-7.1766 Y11.3430 
G01 X-7.1766 Y11.5170 
G01 X-7.1494 Y11.6890 
G01 X-7.0956 Y11.8546 
G01 X-7.0165 Y12.0097 
G01 X-6.9142 Y12.1505 
G01 X-6.7911 Y12.2736 
G01 X-6.6503 Y12.3759 
G01 X-6.4952 Y12.4550 
G01 X-6.3296 Y12.5088 
G01 X-6.1576 Y12.5360 
G01 X-4.0024 Y12.5360 
G01 X-3.8304 Y12.5088 
G01 X-3.6648 Y12.4550 
G01 X-3.5097 Y12.3759 
G01 X-3.3689 Y12.2736 
G01 X-3.2458 Y12.1505 
G01 X-3.1435 Y12.0097 
G01 X-3.0644 Y11.8546 
G01 X-3.0106 Y11.6890 
G01 X-2.9834 Y11.5170 
G01 X-2.9834 Y11.3430 
G01 X-3.0106 Y11.1710 
G01 X-3.0644 Y11.0054 
G01 X-3.1435 Y10.8503 
G01 X-3.2458 Y10.7095 
G01 X-3.3689 Y10.5864 
G01 X-3.5097 Y10.4841 
G01 X-3.6648 Y10.4050 
G01 X-3.8304 Y10.3512 
G01 X-4.0024 Y10.3240 
G00 Z2.5400 
G00 X-73.2384 Y21.1974 
G01 Z-0.1500 F254.00 
G01 X-71.5416 Y21.1974 F508.00 
G01 X-71.3721 Y21.1637 
G01 X-71.2124 Y21.0975 
G01 X-71.0687 Y21.0015 
G01 X-70.9465 Y20.8793 
G01 X-70.8505 Y20.7356 
G01 X-70.7843 Y20.5759 
G01 X-70.7506 Y20.4064 
G01 X-70.7506 Y20.2336 
G01 X-70.7843 Y20.0641 
G01 X-70.8505 Y19.9044 
G01 X-70.9465 Y19.7607 
G01 X-71.0687 Y19.6385 
G01 X-71.2124 Y19.5425 
G01 X-71.3721 Y19.4763 
G01 X-71.5416 Y19.4426 
G01 X-73.2384 Y19.4426 
G01 X-73.4079 Y19.4763 
G01 X-73.5676 Y19.5425 
G01 X-73.7113 Y19.6385 
G01 X-73.8335 Y19.7607 
G01 X-73.9295 Y19.9044 
G01 X-73.9957 Y20.0641 
G01 X-74.0294 Y20.2336 
G01 X-74.0294 Y20.4064 
G01 X-73.9957 Y20.5759 
G01 X-73.9295 Y20.7356 
G01 X-73.8335 Y20.8793 
G01 X-73.7113 Y21.0015 
G01 X-73.5676 Y21.0975 
G01 X-73.4079 Y21.1637 
G01 X-73.2384 Y21.1974 
G00 Z2.5400 
G00 X-73.2384 Y16.1174 
G01 Z-0.1500 F254.00 
G01 X-71.5416 Y16.1174 F508.00 
G01 X-71.3721 Y16.0837 
G01 X-71.2124 Y16.0175 
G01 X-71.0687 Y15.9215 
G01 X-70.9465 Y15.7993 
G01 X-70.8505 Y15.6556 
G01 X-70.7843 Y15.4959 
G01 X-70.7506 Y15.3264 
G01 X-70.7506 Y15.1536 
G01 X-70.7843 Y14.9841 
G01 X-70.8505 Y14.8244 
G01 X-70.9465 Y14.6807 
G01 X-71.0687 Y14.5585 
G01 X-71.2124 Y14.4625 
G01 X-71.3721 Y14.3963 
G01 X-71.5416 Y14.3626 
G01 X-73.2384 Y14.3626 
G01 X-73.4079 Y14.3963 
G01 X-73.5676 Y14.4625 
G01 X-73.7113 Y14.5585 
G01 X-73.8335 Y14.6807 
G01 X-73.9295 Y14.8244 
G01 X-73.9957 Y14.9841 
G01 X-74.0294 Y15.1536 
G01 X-74.0294 Y15.3264 
G01 X-73.9957 Y15.4959 
G01 X-73.9295 Y15.6556 
G01 X-73.8335 Y15.7993 
G01 X-73.7113 Y15.9215 
G01 X-73.5676 Y16.0175 
G01 X-73.4079 Y16.0837 
G01 X-73.2384 Y16.1174 
G00 Z2.5400 
G00 X-73.2384 Y13.5774 
G01 Z-0.1500 F254.00 
G01 X-71.5416 Y13.5774 F508.00 
G01 X-71.3721 Y13.5437 
G01 X-71.2124 Y13.4775 
G01 X-71.0687 Y13.3815 
G01 X-70.9465 Y13.2593 
G01 X-70.8505 Y13.1156 
G01 X-70.7843 Y12.9559 
G01 X-70.7506 Y12.7864 
G01 X-70.7506 Y12.6136 
G01 X-70.7843 Y12.4441 
G01 X-70.8505 Y12.2844 
G01 X-70.9465 Y12.1407 
G01 X-71.0687 Y12.0185 
G01 X-71.2124 Y11.9225 
G01 X-71.3721 Y11.8563 
G01 X-71.5416 Y11.8226 
G01 X-73.2384 Y11.8226 
G01 X-73.4079 Y11.8563 
G01 X-73.5676 Y11.9225 
G01 X-73.7113 Y12.0185 
G01 X-73.8335 Y12.1407 
G01 X-73.9295 Y12.2844 
G01 X-73.9957 Y12.4441 
G01 X-74.0294 Y12.6136 
G01 X-74.0294 Y12.7864 
G01 X-73.9957 Y12.9559 
G01 X-73.9295 Y13.1156 
G01 X-73.8335 Y13.2593 
G01 X-73.7113 Y13.3815 
G01 X-73.5676 Y13.4775 
G01 X-73.4079 Y13.5437 
G01 X-73.2384 Y13.5774 
G00 Z2.5400 
G00 X-73.2384 Y11.0374 
G01 Z-0.1500 F254.00 
G01 X-71.5416 Y11.0374 F508.00 
G01 X-71.3721 Y11.0037 
G01 X-71.2124 Y10.9375 
G01 X-71.0687 Y10.8415 
G01 X-70.9465 Y10.7193 
G01 X-70.8505 Y10.5756 
G01 X-70.7843 Y10.4159 
G01 X-70.7506 Y10.2464 
G01 X-70.7506 Y10.0736 
G01 X-70.7843 Y9.9041 
G01 X-70.8505 Y9.7444 
G01 X-70.9465 Y9.6007 
G01 X-71.0687 Y9.4785 
G01 X-71.2124 Y9.3825 
G01 X-71.2440 Y9.3694 
G01 X-65.1401 Y3.2654 
G01 X-45.3599 Y3.2654 
G01 X-44.0574 Y4.5679 
G01 X-44.0574 Y5.9284 
G01 X-44.0237 Y6.0979 
G01 X-43.9575 Y6.2576 
G01 X-43.8615 Y6.4013 
G01 X-43.7393 Y6.5235 
G01 X-43.5956 Y6.6195 
G01 X-43.4359 Y6.6857 
G01 X-43.2664 Y6.7194 
G01 X-43.0936 Y6.7194 
G01 X-42.9241 Y6.6857 
G01 X-42.7644 Y6.6195 
G01 X-42.6207 Y6.5235 
G01 X-42.4985 Y6.4013 
G01 X-42.4025 Y6.2576 
G01 X-42.3363 Y6.0979 
G01 X-42.3026 Y5.9284 
G01 X-42.3026 Y4.2316 
G01 X-42.3363 Y4.0621 
G01 X-42.4025 Y3.9024 
G01 X-42.4985 Y3.7587 
G01 X-42.6207 Y3.6365 
G01 X-42.7644 Y3.5405 
G01 X-42.9241 Y3.4743 
G01 X-43.0936 Y3.4406 
G01 X-43.2664 Y3.4406 
G01 X-43.4359 Y3.4743 
G01 X-43.5956 Y3.5405 
G01 X-43.7393 Y3.6365 
G01 X-43.8615 Y3.7587 
G01 X-43.9575 Y3.9024 
G01 X-43.9619 Y3.9128 
G01 X-45.0870 Y2.7876 
G01 X-45.1476 Y2.7527 
G01 X-45.2151 Y2.7346 
G01 X-65.2849 Y2.7346 
G01 X-65.3524 Y2.7527 
G01 X-65.4130 Y2.7876 
G01 X-65.4624 Y2.8370 
G01 X-71.9079 Y9.2826 
G01 X-73.2384 Y9.2826 
G01 X-73.4079 Y9.3163 
G01 X-73.5676 Y9.3825 
G01 X-73.7113 Y9.4785 
G01 X-73.8335 Y9.6007 
G01 X-73.9295 Y9.7444 
G01 X-73.9957 Y9.9041 
G01 X-74.0294 Y10.0736 
G01 X-74.0294 Y10.2464 
G01 X-73.9957 Y10.4159 
G01 X-73.9295 Y10.5756 
G01 X-73.8335 Y10.7193 
G01 X-73.7113 Y10.8415 
G01 X-73.5676 Y10.9375 
G01 X-73.4079 Y11.0037 
G01 X-73.2384 Y11.0374 
G00 Z2.5400 
G00 X-73.2384 Y8.4974 
G01 Z-0.1500 F254.00 
G01 X-71.5416 Y8.4974 F508.00 
G01 X-71.3721 Y8.4637 
G01 X-71.2124 Y8.3975 
G01 X-71.0687 Y8.3015 
G01 X-70.9465 Y8.1793 
G01 X-70.8505 Y8.0356 
G01 X-70.7843 Y7.8759 
G01 X-70.7506 Y7.7064 
G01 X-70.7506 Y7.5336 
G01 X-70.7843 Y7.3641 
G01 X-70.8505 Y7.2044 
G01 X-70.9465 Y7.0607 
G01 X-71.0687 Y6.9385 
G01 X-71.2124 Y6.8425 
G01 X-71.3721 Y6.7763 
G01 X-71.5416 Y6.7426 
G01 X-73.2384 Y6.7426 
G01 X-73.4079 Y6.7763 
G01 X-73.5676 Y6.8425 
G01 X-73.7113 Y6.9385 
G01 X-73.8335 Y7.0607 
G01 X-73.9295 Y7.2044 
G01 X-73.9957 Y7.3641 
G01 X-74.0294 Y7.5336 
G01 X-74.0294 Y7.7064 
G01 X-73.9957 Y7.8759 
G01 X-73.9295 Y8.0356 
G01 X-73.8335 Y8.1793 
G01 X-73.7113 Y8.3015 
G01 X-73.5676 Y8.3975 
G01 X-73.4079 Y8.4637 
G01 X-73.2384 Y8.4974 
G00 Z2.5400 
G00 X-73.2384 Y5.9574 
G01 Z-0.1500 F254.00 
G01 X-71.5416 Y5.9574 F508.00 
G01 X-71.3721 Y5.9237 
G01 X-71.2124 Y5.8575 
G01 X-71.0687 Y5.7615 
G01 X-70.9465 Y5.6393 
G01 X-70.8505 Y5.4956 
G01 X-70.7843 Y5.3359 
G01 X-70.7506 Y5.1664 
G01 X-70.7506 Y4.9936 
G01 X-70.7843 Y4.8241 
G01 X-70.8505 Y4.6644 
G01 X-70.9465 Y4.5207 
G01 X-71.0687 Y4.3985 
G01 X-71.2124 Y4.3025 
G01 X-71.3721 Y4.2363 
G01 X-71.5416 Y4.2026 
G01 X-73.2384 Y4.2026 
G01 X-73.4079 Y4.2363 
G01 X-73.5676 Y4.3025 
G01 X-73.7113 Y4.3985 
G01 X-73.8335 Y4.5207 
G01 X-73.9295 Y4.6644 
G01 X-73.9957 Y4.8241 
G01 X-74.0294 Y4.9936 
G01 X-74.0294 Y5.1664 
G01 X-73.9957 Y5.3359 
G01 X-73.9295 Y5.4956 
G01 X-73.8335 Y5.6393 
G01 X-73.7113 Y5.7615 
G01 X-73.5676 Y5.8575 
G01 X-73.4079 Y5.9237 
G01 X-73.2384 Y5.9574 
G00 Z2.5400 
G00 X-73.2384 Y44.0574 
G01 Z-0.1500 F254.00 
G01 X-71.5416 Y44.0574 F508.00 
G01 X-71.3721 Y44.0237 
G01 X-71.2124 Y43.9575 
G01 X-71.0687 Y43.8615 
G01 X-70.9465 Y43.7393 
G01 X-70.8505 Y43.5956 
G01 X-70.7843 Y43.4359 
G01 X-70.7506 Y43.2664 
G01 X-70.7506 Y43.0936 
G01 X-70.7843 Y42.9241 
G01 X-70.8505 Y42.7644 
G01 X-70.9465 Y42.6207 
G01 X-71.0687 Y42.4985 
G01 X-71.2124 Y42.4025 
G01 X-71.2582 Y42.3835 
G01 X-70.8901 Y42.0154 
G01 X-64.4651 Y42.0154 
G01 X-64.3976 Y41.9973 
G01 X-64.3370 Y41.9624 
G01 X-64.2876 Y41.9130 
G01 X-62.7117 Y40.3371 
G01 X-62.6818 Y40.3494 
G01 X-62.5614 Y40.3734 
G01 X-62.4386 Y40.3734 
G01 X-62.3182 Y40.3494 
G01 X-62.2047 Y40.3024 
G01 X-62.1026 Y40.2342 
G01 X-62.0158 Y40.1474 
G01 X-61.9475 Y40.0453 
G01 X-61.9006 Y39.9318 
G01 X-61.8766 Y39.8114 
G01 X-61.8766 Y39.6886 
G01 X-61.9006 Y39.5682 
G01 X-61.9475 Y39.4547 
G01 X-62.0158 Y39.3526 
G01 X-62.1026 Y39.2658 
G01 X-62.2047 Y39.1975 
G01 X-62.3182 Y39.1506 
G01 X-62.4386 Y39.1266 
G01 X-62.5614 Y39.1266 
G01 X-62.6818 Y39.1506 
G01 X-62.7953 Y39.1975 
G01 X-62.8974 Y39.2658 
G01 X-62.9842 Y39.3526 
G01 X-63.0524 Y39.4547 
G01 X-63.0994 Y39.5682 
G01 X-63.1234 Y39.6886 
G01 X-63.1234 Y39.8114 
G01 X-63.0994 Y39.9318 
G01 X-63.0871 Y39.9617 
G01 X-64.6099 Y41.4846 
G01 X-71.0349 Y41.4846 
G01 X-71.1024 Y41.5027 
G01 X-71.1630 Y41.5376 
G01 X-71.9279 Y42.3026 
G01 X-73.2384 Y42.3026 
G01 X-73.4079 Y42.3363 
G01 X-73.5676 Y42.4025 
G01 X-73.7113 Y42.4985 
G01 X-73.8335 Y42.6207 
G01 X-73.9295 Y42.7644 
G01 X-73.9957 Y42.9241 
G01 X-74.0294 Y43.0936 
G01 X-74.0294 Y43.2664 
G01 X-73.9957 Y43.4359 
G01 X-73.9295 Y43.5956 
G01 X-73.8335 Y43.7393 
G01 X-73.7113 Y43.8615 
G01 X-73.5676 Y43.9575 
G01 X-73.4079 Y44.0237 
G01 X-73.2384 Y44.0574 
G00 Z2.5400 
G00 X-73.2384 Y41.5174 
G01 Z-0.1500 F254.00 
G01 X-71.5416 Y41.5174 F508.00 
G01 X-71.3721 Y41.4837 
G01 X-71.2124 Y41.4175 
G01 X-71.0687 Y41.3215 
G01 X-70.9465 Y41.1993 
G01 X-70.8505 Y41.0556 
G01 X-70.7843 Y40.8959 
G01 X-70.7506 Y40.7264 
G01 X-70.7506 Y40.5536 
G01 X-70.7843 Y40.3841 
G01 X-70.8505 Y40.2244 
G01 X-70.9465 Y40.0807 
G01 X-71.0687 Y39.9585 
G01 X-71.2124 Y39.8625 
G01 X-71.3721 Y39.7963 
G01 X-71.5416 Y39.7626 
G01 X-73.2384 Y39.7626 
G01 X-73.4079 Y39.7963 
G01 X-73.5676 Y39.8625 
G01 X-73.7113 Y39.9585 
G01 X-73.8335 Y40.0807 
G01 X-73.9295 Y40.2244 
G01 X-73.9338 Y40.2346 
G01 X-74.9846 Y40.2346 
G01 X-74.9846 Y35.1099 
G01 X-71.3901 Y31.5154 
G01 X-55.3599 Y31.5154 
G01 X-54.1158 Y32.7595 
G01 X-54.1158 Y33.7568 
G01 X-54.0860 Y33.9067 
G01 X-54.0275 Y34.0479 
G01 X-53.9426 Y34.1749 
G01 X-53.8345 Y34.2830 
G01 X-53.7075 Y34.3679 
G01 X-53.5663 Y34.4264 
G01 X-53.4164 Y34.4562 
G01 X-53.2636 Y34.4562 
G01 X-53.1137 Y34.4264 
G01 X-52.9725 Y34.3679 
G01 X-52.8455 Y34.2830 
G01 X-52.7374 Y34.1749 
G01 X-52.6525 Y34.0479 
G01 X-52.5940 Y33.9067 
G01 X-52.5642 Y33.7568 
G01 X-52.5642 Y32.2832 
G01 X-52.5940 Y32.1333 
G01 X-52.6525 Y31.9921 
G01 X-52.7374 Y31.8651 
G01 X-52.8455 Y31.7570 
G01 X-52.9725 Y31.6721 
G01 X-53.1137 Y31.6136 
G01 X-53.2636 Y31.5838 
G01 X-53.4164 Y31.5838 
G01 X-53.5663 Y31.6136 
G01 X-53.7075 Y31.6721 
G01 X-53.8345 Y31.7570 
G01 X-53.9426 Y31.8651 
G01 X-54.0275 Y31.9921 
G01 X-54.0583 Y32.0664 
G01 X-55.0376 Y31.0870 
G01 X-55.0870 Y31.0376 
G01 X-55.1476 Y31.0027 
G01 X-55.2151 Y30.9846 
G01 X-71.5349 Y30.9846 
G01 X-71.6024 Y31.0027 
G01 X-71.6630 Y31.0376 
G01 X-75.4130 Y34.7876 
G01 X-75.4624 Y34.8370 
G01 X-75.4973 Y34.8976 
G01 X-75.5154 Y34.9651 
G01 X-75.5154 Y40.5349 
G01 X-75.4973 Y40.6024 
G01 X-75.4624 Y40.6630 
G01 X-75.4130 Y40.7124 
G01 X-75.3524 Y40.7473 
G01 X-75.2849 Y40.7654 
G01 X-74.0216 Y40.7654 
G01 X-73.9957 Y40.8959 
G01 X-73.9295 Y41.0556 
G01 X-73.8335 Y41.1993 
G01 X-73.7113 Y41.3215 
G01 X-73.5676 Y41.4175 
G01 X-73.4079 Y41.4837 
G01 X-73.2384 Y41.5174 
G00 Z2.5400 
G00 X-73.2384 Y36.4374 
G01 Z-0.1500 F254.00 
G01 X-71.5416 Y36.4374 F508.00 
G01 X-71.3721 Y36.4037 
G01 X-71.2124 Y36.3375 
G01 X-71.0687 Y36.2415 
G01 X-70.9465 Y36.1193 
G01 X-70.8770 Y36.0154 
G01 X-40.7151 Y36.0154 
G01 X-40.6476 Y35.9973 
G01 X-40.5870 Y35.9624 
G01 X-40.5376 Y35.9130 
G01 X-38.7415 Y34.1168 
G01 X-38.7026 Y34.1749 
G01 X-38.5945 Y34.2830 
G01 X-38.4675 Y34.3679 
G01 X-38.3263 Y34.4264 
G01 X-38.1764 Y34.4562 
G01 X-38.0236 Y34.4562 
G01 X-37.8737 Y34.4264 
G01 X-37.7325 Y34.3679 
G01 X-37.6055 Y34.2830 
G01 X-37.4974 Y34.1749 
G01 X-37.4125 Y34.0479 
G01 X-37.3540 Y33.9067 
G01 X-37.3242 Y33.7568 
G01 X-37.3242 Y32.2832 
G01 X-37.3540 Y32.1333 
G01 X-37.4125 Y31.9921 
G01 X-37.4974 Y31.8651 
G01 X-37.6055 Y31.7570 
G01 X-37.7325 Y31.6721 
G01 X-37.8737 Y31.6136 
G01 X-38.0236 Y31.5838 
G01 X-38.1764 Y31.5838 
G01 X-38.3263 Y31.6136 
G01 X-38.4675 Y31.6721 
G01 X-38.5945 Y31.7570 
G01 X-38.7026 Y31.8651 
G01 X-38.7875 Y31.9921 
G01 X-38.8460 Y32.1333 
G01 X-38.8758 Y32.2832 
G01 X-38.8758 Y33.5005 
G01 X-40.8599 Y35.4846 
G01 X-70.7506 Y35.4846 
G01 X-70.7506 Y35.4736 
G01 X-70.7843 Y35.3041 
G01 X-70.8505 Y35.1444 
G01 X-70.9465 Y35.0007 
G01 X-71.0687 Y34.8785 
G01 X-71.2124 Y34.7825 
G01 X-71.3721 Y34.7163 
G01 X-71.5416 Y34.6826 
G01 X-73.2384 Y34.6826 
G01 X-73.4079 Y34.7163 
G01 X-73.5676 Y34.7825 
G01 X-73.7113 Y34.8785 
G01 X-73.8335 Y35.0007 
G01 X-73.9295 Y35.1444 
G01 X-73.9957 Y35.3041 
G01 X-74.0294 Y35.4736 
G01 X-74.0294 Y35.6464 
G01 X-73.9957 Y35.8159 
G01 X-73.9295 Y35.9756 
G01 X-73.8335 Y36.1193 
G01 X-73.7113 Y36.2415 
G01 X-73.5676 Y36.3375 
G01 X-73.4079 Y36.4037 
G01 X-73.2384 Y36.4374 
G00 Z2.5400 
G00 X-16.9316 Y29.6026 
G01 Z-0.1500 F254.00 
G01 X-18.6284 Y29.6026 F508.00 
G01 X-18.7979 Y29.6363 
G01 X-18.9576 Y29.7025 
G01 X-19.1013 Y29.7985 
G01 X-19.2235 Y29.9207 
G01 X-19.2662 Y29.9846 
G01 X-27.6852 Y29.9846 
G01 X-27.6975 Y29.9547 
G01 X-27.7658 Y29.8526 
G01 X-27.8526 Y29.7658 
G01 X-27.9547 Y29.6975 
G01 X-28.0682 Y29.6506 
G01 X-28.1886 Y29.6266 
G01 X-28.3114 Y29.6266 
G01 X-28.4318 Y29.6506 
G01 X-28.5453 Y29.6975 
G01 X-28.6474 Y29.7658 
G01 X-28.7342 Y29.8526 
G01 X-28.8024 Y29.9547 
G01 X-28.8494 Y30.0682 
G01 X-28.8734 Y30.1886 
G01 X-28.8734 Y30.3114 
G01 X-28.8494 Y30.4318 
G01 X-28.8024 Y30.5453 
G01 X-28.7342 Y30.6474 
G01 X-28.6474 Y30.7342 
G01 X-28.5453 Y30.8024 
G01 X-28.4318 Y30.8494 
G01 X-28.3114 Y30.8734 
G01 X-28.1886 Y30.8734 
G01 X-28.0682 Y30.8494 
G01 X-27.9547 Y30.8024 
G01 X-27.8526 Y30.7342 
G01 X-27.7658 Y30.6474 
G01 X-27.6975 Y30.5453 
G01 X-27.6852 Y30.5154 
G01 X-19.4194 Y30.5154 
G01 X-19.4194 Y30.5664 
G01 X-19.3857 Y30.7359 
G01 X-19.3195 Y30.8956 
G01 X-19.2235 Y31.0393 
G01 X-19.1013 Y31.1615 
G01 X-18.9576 Y31.2575 
G01 X-18.7979 Y31.3237 
G01 X-18.6284 Y31.3574 
G01 X-16.9316 Y31.3574 
G01 X-16.7621 Y31.3237 
G01 X-16.6024 Y31.2575 
G01 X-16.4587 Y31.1615 
G01 X-16.3365 Y31.0393 
G01 X-16.2405 Y30.8956 
G01 X-16.1743 Y30.7359 
G01 X-16.1406 Y30.5664 
G01 X-16.1406 Y30.3936 
G01 X-16.1743 Y30.2241 
G01 X-16.2405 Y30.0644 
G01 X-16.3365 Y29.9207 
G01 X-16.4587 Y29.7985 
G01 X-16.6024 Y29.7025 
G01 X-16.7621 Y29.6363 
G01 X-16.9316 Y29.6026 
G00 Z2.5400 
G00 X-16.9316 Y32.1426 
G01 Z-0.1500 F254.00 
G01 X-18.6284 Y32.1426 F508.00 
G01 X-18.7979 Y32.1763 
G01 X-18.9576 Y32.2425 
G01 X-19.1013 Y32.3385 
G01 X-19.2235 Y32.4607 
G01 X-19.3195 Y32.6044 
G01 X-19.3857 Y32.7641 
G01 X-19.4194 Y32.9336 
G01 X-19.4194 Y33.1064 
G01 X-19.3857 Y33.2759 
G01 X-19.3195 Y33.4356 
G01 X-19.2235 Y33.5793 
G01 X-19.1013 Y33.7015 
G01 X-18.9576 Y33.7975 
G01 X-18.7979 Y33.8637 
G01 X-18.6284 Y33.8974 
G01 X-16.9316 Y33.8974 
G01 X-16.7621 Y33.8637 
G01 X-16.6024 Y33.7975 
G01 X-16.4587 Y33.7015 
G01 X-16.3365 Y33.5793 
G01 X-16.2405 Y33.4356 
G01 X-16.1743 Y33.2759 
G01 X-16.1406 Y33.1064 
G01 X-16.1406 Y32.9336 
G01 X-16.1743 Y32.7641 
G01 X-16.2405 Y32.6044 
G01 X-16.3365 Y32.4607 
G01 X-16.4587 Y32.3385 
G01 X-16.6024 Y32.2425 
G01 X-16.7621 Y32.1763 
G01 X-16.9316 Y32.1426 
G00 Z2.5400 
G00 X-16.9316 Y37.2226 
G01 Z-0.1500 F254.00 
G01 X-18.6284 Y37.2226 F508.00 
G01 X-18.7979 Y37.2563 
G01 X-18.9576 Y37.3225 
G01 X-19.1013 Y37.4185 
G01 X-19.2235 Y37.5407 
G01 X-19.3195 Y37.6844 
G01 X-19.3403 Y37.7346 
G01 X-30.6401 Y37.7346 
G01 X-34.7842 Y33.5905 
G01 X-34.7842 Y32.2832 
G01 X-34.8140 Y32.1333 
G01 X-34.8725 Y31.9921 
G01 X-34.9574 Y31.8651 
G01 X-35.0655 Y31.7570 
G01 X-35.1925 Y31.6721 
G01 X-35.3337 Y31.6136 
G01 X-35.4836 Y31.5838 
G01 X-35.6364 Y31.5838 
G01 X-35.7863 Y31.6136 
G01 X-35.9275 Y31.6721 
G01 X-36.0545 Y31.7570 
G01 X-36.1626 Y31.8651 
G01 X-36.2475 Y31.9921 
G01 X-36.3060 Y32.1333 
G01 X-36.3358 Y32.2832 
G01 X-36.3358 Y33.7568 
G01 X-36.3060 Y33.9067 
G01 X-36.2475 Y34.0479 
G01 X-36.1626 Y34.1749 
G01 X-36.0545 Y34.2830 
G01 X-35.9275 Y34.3679 
G01 X-35.7863 Y34.4264 
G01 X-35.6364 Y34.4562 
G01 X-35.4836 Y34.4562 
G01 X-35.3337 Y34.4264 
G01 X-35.1925 Y34.3679 
G01 X-35.0655 Y34.2830 
G01 X-34.9574 Y34.1749 
G01 X-34.9546 Y34.1707 
G01 X-30.9624 Y38.1630 
G01 X-30.9130 Y38.2124 
G01 X-30.8524 Y38.2473 
G01 X-30.7849 Y38.2654 
G01 X-19.4037 Y38.2654 
G01 X-19.3857 Y38.3559 
G01 X-19.3195 Y38.5156 
G01 X-19.2235 Y38.6593 
G01 X-19.1013 Y38.7815 
G01 X-18.9576 Y38.8775 
G01 X-18.7979 Y38.9437 
G01 X-18.6284 Y38.9774 
G01 X-16.9316 Y38.9774 
G01 X-16.7621 Y38.9437 
G01 X-16.6024 Y38.8775 
G01 X-16.4587 Y38.7815 
G01 X-16.3365 Y38.6593 
G01 X-16.2405 Y38.5156 
G01 X-16.1743 Y38.3559 
G01 X-16.1406 Y38.1864 
G01 X-16.1406 Y38.0136 
G01 X-16.1743 Y37.8441 
G01 X-16.2405 Y37.6844 
G01 X-16.3365 Y37.5407 
G01 X-16.4587 Y37.4185 
G01 X-16.6024 Y37.3225 
G01 X-16.7621 Y37.2563 
G01 X-16.9316 Y37.2226 
G00 Z2.5400 
G00 X-39.7626 Y5.9284 
G01 Z-0.1500 F254.00 
G01 X-39.7626 Y4.2316 F508.00 
G01 X-39.7963 Y4.0621 
G01 X-39.8625 Y3.9024 
G01 X-39.9585 Y3.7587 
G01 X-40.0807 Y3.6365 
G01 X-40.2244 Y3.5405 
G01 X-40.3841 Y3.4743 
G01 X-40.5536 Y3.4406 
G01 X-40.7264 Y3.4406 
G01 X-40.8959 Y3.4743 
G01 X-41.0556 Y3.5405 
G01 X-41.1993 Y3.6365 
G01 X-41.3215 Y3.7587 
G01 X-41.4175 Y3.9024 
G01 X-41.4837 Y4.0621 
G01 X-41.5174 Y4.2316 
G01 X-41.5174 Y5.9284 
G01 X-41.4837 Y6.0979 
G01 X-41.4175 Y6.2576 
G01 X-41.3215 Y6.4013 
G01 X-41.1993 Y6.5235 
G01 X-41.0556 Y6.6195 
G01 X-40.8959 Y6.6857 
G01 X-40.7264 Y6.7194 
G01 X-40.5536 Y6.7194 
G01 X-40.3841 Y6.6857 
G01 X-40.2244 Y6.6195 
G01 X-40.0807 Y6.5235 
G01 X-39.9585 Y6.4013 
G01 X-39.8625 Y6.2576 
G01 X-39.7963 Y6.0979 
G01 X-39.7626 Y5.9284 
G00 Z2.5400 
G00 X-44.8426 Y5.9284 
G01 Z-0.1500 F254.00 
G01 X-44.8426 Y4.2316 F508.00 
G01 X-44.8763 Y4.0621 
G01 X-44.9425 Y3.9024 
G01 X-45.0385 Y3.7587 
G01 X-45.1607 Y3.6365 
G01 X-45.3044 Y3.5405 
G01 X-45.4641 Y3.4743 
G01 X-45.6336 Y3.4406 
G01 X-45.8064 Y3.4406 
G01 X-45.9759 Y3.4743 
G01 X-46.1356 Y3.5405 
G01 X-46.2793 Y3.6365 
G01 X-46.4015 Y3.7587 
G01 X-46.4975 Y3.9024 
G01 X-46.5637 Y4.0621 
G01 X-46.5974 Y4.2316 
G01 X-46.5974 Y5.9284 
G01 X-46.5637 Y6.0979 
G01 X-46.4975 Y6.2576 
G01 X-46.4015 Y6.4013 
G01 X-46.2793 Y6.5235 
G01 X-46.1356 Y6.6195 
G01 X-45.9759 Y6.6857 
G01 X-45.8064 Y6.7194 
G01 X-45.6336 Y6.7194 
G01 X-45.4641 Y6.6857 
G01 X-45.3044 Y6.6195 
G01 X-45.1607 Y6.5235 
G01 X-45.0385 Y6.4013 
G01 X-44.9425 Y6.2576 
G01 X-44.8763 Y6.0979 
G01 X-44.8426 Y5.9284 
G00 Z2.5400 
G00 X-44.7849 Y35.0154 
G01 Z-0.1500 F254.00 
G01 X-44.7151 Y35.0154 F508.00 
G01 X-44.6476 Y34.9973 
G01 X-44.5870 Y34.9624 
G01 X-43.7894 Y34.1647 
G01 X-43.7826 Y34.1749 
G01 X-43.6745 Y34.2830 
G01 X-43.5475 Y34.3679 
G01 X-43.4063 Y34.4264 
G01 X-43.2564 Y34.4562 
G01 X-43.1036 Y34.4562 
G01 X-42.9537 Y34.4264 
G01 X-42.8125 Y34.3679 
G01 X-42.6855 Y34.2830 
G01 X-42.5774 Y34.1749 
G01 X-42.4925 Y34.0479 
G01 X-42.4340 Y33.9067 
G01 X-42.4042 Y33.7568 
G01 X-42.4042 Y32.2832 
G01 X-42.4340 Y32.1333 
G01 X-42.4925 Y31.9921 
G01 X-42.5774 Y31.8651 
G01 X-42.6855 Y31.7570 
G01 X-42.8125 Y31.6721 
G01 X-42.9537 Y31.6136 
G01 X-43.1036 Y31.5838 
G01 X-43.2564 Y31.5838 
G01 X-43.4063 Y31.6136 
G01 X-43.5475 Y31.6721 
G01 X-43.6745 Y31.7570 
G01 X-43.7826 Y31.8651 
G01 X-43.8675 Y31.9921 
G01 X-43.9260 Y32.1333 
G01 X-43.9558 Y32.2832 
G01 X-43.9558 Y33.5805 
G01 X-44.8599 Y34.4846 
G01 X-46.1852 Y34.4846 
G01 X-46.1975 Y34.4547 
G01 X-46.2658 Y34.3526 
G01 X-46.3526 Y34.2658 
G01 X-46.4547 Y34.1975 
G01 X-46.5682 Y34.1506 
G01 X-46.6886 Y34.1266 
G01 X-46.8114 Y34.1266 
G01 X-46.9318 Y34.1506 
G01 X-47.0453 Y34.1975 
G01 X-47.1474 Y34.2658 
G01 X-47.2342 Y34.3526 
G01 X-47.3024 Y34.4547 
G01 X-47.3494 Y34.5682 
G01 X-47.3734 Y34.6886 
G01 X-47.3734 Y34.8114 
G01 X-47.3494 Y34.9318 
G01 X-47.3024 Y35.0453 
G01 X-47.2342 Y35.1474 
G01 X-47.1474 Y35.2342 
G01 X-47.0453 Y35.3024 
G01 X-46.9318 Y35.3494 
G01 X-46.8114 Y35.3734 
G01 X-46.6886 Y35.3734 
G01 X-46.5682 Y35.3494 
G01 X-46.4547 Y35.3024 
G01 X-46.3526 Y35.2342 
G01 X-46.2658 Y35.1474 
G01 X-46.1975 Y35.0453 
G01 X-46.1852 Y35.0154 
G01 X-44.7849 Y35.0154 
G00 Z2.5400 
G00 X-45.2876 Y17.8370 
G01 Z-0.1500 F254.00 
G01 X-45.3370 Y17.7876 F508.00 
G01 X-45.3976 Y17.7527 
G01 X-45.4651 Y17.7346 
G01 X-70.7506 Y17.7346 
G01 X-70.7506 Y17.6936 
G01 X-70.7843 Y17.5241 
G01 X-70.8505 Y17.3644 
G01 X-70.9465 Y17.2207 
G01 X-71.0687 Y17.0985 
G01 X-71.2124 Y17.0025 
G01 X-71.3721 Y16.9363 
G01 X-71.5416 Y16.9026 
G01 X-73.2384 Y16.9026 
G01 X-73.4079 Y16.9363 
G01 X-73.5676 Y17.0025 
G01 X-73.7113 Y17.0985 
G01 X-73.8335 Y17.2207 
G01 X-73.9295 Y17.3644 
G01 X-73.9957 Y17.5241 
G01 X-74.0294 Y17.6936 
G01 X-74.0294 Y17.8664 
G01 X-73.9957 Y18.0359 
G01 X-73.9295 Y18.1956 
G01 X-73.8335 Y18.3393 
G01 X-73.7113 Y18.4615 
G01 X-73.5676 Y18.5575 
G01 X-73.4079 Y18.6237 
G01 X-73.2384 Y18.6574 
G01 X-71.5416 Y18.6574 
G01 X-71.3721 Y18.6237 
G01 X-71.2124 Y18.5575 
G01 X-71.0687 Y18.4615 
G01 X-70.9465 Y18.3393 
G01 X-70.8971 Y18.2654 
G01 X-45.6099 Y18.2654 
G01 X-42.8371 Y21.0383 
G01 X-42.8494 Y21.0682 
G01 X-42.8734 Y21.1886 
G01 X-42.8734 Y21.3114 
G01 X-42.8494 Y21.4318 
G01 X-42.8024 Y21.5453 
G01 X-42.7342 Y21.6474 
G01 X-42.6474 Y21.7342 
G01 X-42.5453 Y21.8024 
G01 X-42.4318 Y21.8494 
G01 X-42.3114 Y21.8734 
G01 X-42.1886 Y21.8734 
G01 X-42.0682 Y21.8494 
G01 X-41.9547 Y21.8024 
G01 X-41.8526 Y21.7342 
G01 X-41.7658 Y21.6474 
G01 X-41.6975 Y21.5453 
G01 X-41.6506 Y21.4318 
G01 X-41.6266 Y21.3114 
G01 X-41.6266 Y21.1886 
G01 X-41.6506 Y21.0682 
G01 X-41.6975 Y20.9547 
G01 X-41.7658 Y20.8526 
G01 X-41.8526 Y20.7658 
G01 X-41.9547 Y20.6975 
G01 X-42.0682 Y20.6506 
G01 X-42.1886 Y20.6266 
G01 X-42.3114 Y20.6266 
G01 X-42.4318 Y20.6506 
G01 X-42.4617 Y20.6629 
G01 X-45.2876 Y17.8370 
G00 Z2.5400 
G00 X-71.5315 Y21.9846 
G01 Z-0.1500 F254.00 
G01 X-71.5416 Y21.9826 F508.00 
G01 X-73.2384 Y21.9826 
G01 X-73.4079 Y22.0163 
G01 X-73.5676 Y22.0825 
G01 X-73.7113 Y22.1785 
G01 X-73.8335 Y22.3007 
G01 X-73.9295 Y22.4444 
G01 X-73.9957 Y22.6041 
G01 X-74.0294 Y22.7736 
G01 X-74.0294 Y22.9464 
G01 X-73.9957 Y23.1159 
G01 X-73.9295 Y23.2756 
G01 X-73.8335 Y23.4193 
G01 X-73.7113 Y23.5415 
G01 X-73.5676 Y23.6375 
G01 X-73.4079 Y23.7037 
G01 X-73.2384 Y23.7374 
G01 X-71.5416 Y23.7374 
G01 X-71.3721 Y23.7037 
G01 X-71.2124 Y23.6375 
G01 X-71.0687 Y23.5415 
G01 X-70.9465 Y23.4193 
G01 X-70.8505 Y23.2756 
G01 X-70.7843 Y23.1159 
G01 X-70.7506 Y22.9464 
G01 X-70.7506 Y22.7736 
G01 X-70.7843 Y22.6041 
G01 X-70.8210 Y22.5154 
G01 X-39.3507 Y22.5154 
G01 X-39.2953 Y22.5524 
G01 X-39.1818 Y22.5994 
G01 X-39.0614 Y22.6234 
G01 X-38.9386 Y22.6234 
G01 X-38.8182 Y22.5994 
G01 X-38.7047 Y22.5524 
G01 X-38.6026 Y22.4842 
G01 X-38.5158 Y22.3974 
G01 X-38.4475 Y22.2953 
G01 X-38.4006 Y22.1818 
G01 X-38.3766 Y22.0614 
G01 X-38.3766 Y21.9386 
G01 X-38.4006 Y21.8182 
G01 X-38.4475 Y21.7047 
G01 X-38.5158 Y21.6026 
G01 X-38.6026 Y21.5158 
G01 X-38.7047 Y21.4475 
G01 X-38.8182 Y21.4006 
G01 X-38.9386 Y21.3766 
G01 X-39.0614 Y21.3766 
G01 X-39.1818 Y21.4006 
G01 X-39.2953 Y21.4475 
G01 X-39.3974 Y21.5158 
G01 X-39.4842 Y21.6026 
G01 X-39.5524 Y21.7047 
G01 X-39.5994 Y21.8182 
G01 X-39.6234 Y21.9386 
G01 X-39.6234 Y21.9846 
G01 X-71.5315 Y21.9846 
G00 Z2.5400 
G00 X-27.9129 Y58.9493 
G01 Z-0.1500 F254.00 
G01 X-28.0457 Y59.0821 F508.00 
G01 X-28.1501 Y59.2383 
G01 X-28.2219 Y59.4118 
G01 X-28.2586 Y59.5961 
G01 X-28.2586 Y59.7839 
G01 X-28.2304 Y59.9255 
G01 X-28.9125 Y60.6076 
G01 X-29.5701 Y60.6076 
G01 X-29.5668 Y60.6070 
G01 X-29.3933 Y60.5351 
G01 X-29.2371 Y60.4307 
G01 X-29.1043 Y60.2979 
G01 X-28.9999 Y60.1417 
G01 X-28.9280 Y59.9682 
G01 X-28.8914 Y59.7839 
G01 X-28.8914 Y59.5961 
G01 X-28.9280 Y59.4118 
G01 X-28.9999 Y59.2383 
G01 X-29.1043 Y59.0821 
G01 X-29.2371 Y58.9493 
G01 X-29.3223 Y58.8924 
G01 X-27.8277 Y58.8924 
G01 X-27.9129 Y58.9493 
G00 Z2.5400 
G00 X-41.8829 Y58.9493 
G01 Z-0.1500 F254.00 
G01 X-42.0157 Y59.0821 F508.00 
G01 X-42.1076 Y59.2196 
G01 X-42.1076 Y58.8924 
G01 X-41.7977 Y58.8924 
G01 X-41.8829 Y58.9493 
G00 Z2.5400 
G00 X-30.3677 Y58.8924 
G01 Z-0.1500 F254.00 
G01 X-30.4529 Y58.9493 F508.00 
G01 X-30.5857 Y59.0821 
G01 X-30.6901 Y59.2383 
G01 X-30.7620 Y59.4118 
G01 X-30.7986 Y59.5961 
G01 X-30.7986 Y59.7839 
G01 X-30.7620 Y59.9682 
G01 X-30.6901 Y60.1417 
G01 X-30.5857 Y60.2979 
G01 X-30.4529 Y60.4307 
G01 X-30.2967 Y60.5351 
G01 X-30.1232 Y60.6070 
G01 X-30.1199 Y60.6076 
G01 X-39.8375 Y60.6076 
G01 X-40.3929 Y60.0522 
G01 X-40.3580 Y59.9682 
G01 X-40.3214 Y59.7839 
G01 X-40.3214 Y59.5961 
G01 X-40.3580 Y59.4118 
G01 X-40.4299 Y59.2383 
G01 X-40.5343 Y59.0821 
G01 X-40.6671 Y58.9493 
G01 X-40.7523 Y58.8924 
G01 X-38.6983 Y58.8924 
G01 X-30.3677 Y58.8924 
G00 Z2.5400 
G00 X-36.4413 Y43.8924 
G01 Z-0.1500 F254.00 
G01 X-36.4783 Y43.9171 F508.00 
G01 X-36.5829 Y44.0216 
G01 X-36.6403 Y44.1076 
G01 X-52.0587 Y44.1076 
G01 X-52.0216 Y44.0829 
G01 X-51.9171 Y43.9783 
G01 X-51.8597 Y43.8924 
G01 X-36.4413 Y43.8924 
G00 Z2.5400 
G00 X-19.4915 Y27.6076 
G01 Z-0.1500 F254.00 
G01 X-19.5846 Y27.6076 F508.00 
G01 X-19.5091 Y27.5640 
G01 X-19.4482 Y27.5031 
G01 X-19.4915 Y27.6076 
G00 Z2.5400 
G00 X-29.9045 Y26.7616 
G01 Z-0.1500 F254.00 
G01 X-29.7788 Y26.6359 F508.00 
G01 X-29.7336 Y26.5683 
G01 X-29.6515 Y26.6157 
G01 X-29.5517 Y26.6424 
G01 X-25.3903 Y26.6424 
G01 X-25.3329 Y26.7284 
G01 X-25.2284 Y26.8329 
G01 X-25.1913 Y26.8576 
G01 X-30.0481 Y26.8576 
G01 X-29.9045 Y26.7616 
G00 Z2.5400 
G00 X-55.1788 Y34.2559 
G01 Z-0.1500 F254.00 
G01 X-55.0800 Y34.1080 F508.00 
G01 X-55.0119 Y33.9437 
G01 X-54.9772 Y33.7693 
G01 X-54.9772 Y32.2707 
G01 X-55.0119 Y32.0963 
G01 X-55.0495 Y32.0054 
G01 X-54.2428 Y32.8121 
G01 X-54.2428 Y33.7693 
G01 X-54.2081 Y33.9437 
G01 X-54.1400 Y34.1080 
G01 X-54.0412 Y34.2559 
G01 X-53.9395 Y34.3576 
G01 X-55.2805 Y34.3576 
G01 X-55.1788 Y34.2559 
G00 Z2.5400 
G00 X-57.7188 Y34.2559 
G01 Z-0.1500 F254.00 
G01 X-57.6200 Y34.1080 F508.00 
G01 X-57.5519 Y33.9437 
G01 X-57.5172 Y33.7693 
G01 X-57.5172 Y32.2707 
G01 X-57.5519 Y32.0963 
G01 X-57.6200 Y31.9320 
G01 X-57.7188 Y31.7841 
G01 X-57.8445 Y31.6584 
G01 X-57.8684 Y31.6424 
G01 X-56.4316 Y31.6424 
G01 X-56.4555 Y31.6584 
G01 X-56.5812 Y31.7841 
G01 X-56.6800 Y31.9320 
G01 X-56.7481 Y32.0963 
G01 X-56.7828 Y32.2707 
G01 X-56.7828 Y33.7693 
G01 X-56.7481 Y33.9437 
G01 X-56.6800 Y34.1080 
G01 X-56.5812 Y34.2559 
G01 X-56.4795 Y34.3576 
G01 X-57.8205 Y34.3576 
G01 X-57.7188 Y34.2559 
G00 Z2.5400 
G00 X-60.2588 Y34.2559 
G01 Z-0.1500 F254.00 
G01 X-60.1600 Y34.1080 F508.00 
G01 X-60.0919 Y33.9437 
G01 X-60.0572 Y33.7693 
G01 X-60.0572 Y32.2707 
G01 X-60.0919 Y32.0963 
G01 X-60.1600 Y31.9320 
G01 X-60.2588 Y31.7841 
G01 X-60.3845 Y31.6584 
G01 X-60.4084 Y31.6424 
G01 X-58.9716 Y31.6424 
G01 X-58.9955 Y31.6584 
G01 X-59.1212 Y31.7841 
G01 X-59.2200 Y31.9320 
G01 X-59.2881 Y32.0963 
G01 X-59.3228 Y32.2707 
G01 X-59.3228 Y33.7693 
G01 X-59.2881 Y33.9437 
G01 X-59.2200 Y34.1080 
G01 X-59.1212 Y34.2559 
G01 X-59.0195 Y34.3576 
G01 X-60.3605 Y34.3576 
G01 X-60.2588 Y34.2559 
G00 Z2.5400 
G00 X-62.7988 Y34.2559 
G01 Z-0.1500 F254.00 
G01 X-62.7000 Y34.1080 F508.00 
G01 X-62.6319 Y33.9437 
G01 X-62.5972 Y33.7693 
G01 X-62.5972 Y32.2707 
G01 X-62.6319 Y32.0963 
G01 X-62.7000 Y31.9320 
G01 X-62.7988 Y31.7841 
G01 X-62.9245 Y31.6584 
G01 X-62.9484 Y31.6424 
G01 X-61.5116 Y31.6424 
G01 X-61.5355 Y31.6584 
G01 X-61.6612 Y31.7841 
G01 X-61.7600 Y31.9320 
G01 X-61.8281 Y32.0963 
G01 X-61.8628 Y32.2707 
G01 X-61.8628 Y33.7693 
G01 X-61.8281 Y33.9437 
G01 X-61.7600 Y34.1080 
G01 X-61.6612 Y34.2559 
G01 X-61.5595 Y34.3576 
G01 X-62.9005 Y34.3576 
G01 X-62.7988 Y34.2559 
G00 Z2.5400 
G00 X-71.3375 Y31.6424 
G01 Z-0.1500 F254.00 
G01 X-64.0516 Y31.6424 F508.00 
G01 X-64.0755 Y31.6584 
G01 X-64.2012 Y31.7841 
G01 X-64.3000 Y31.9320 
G01 X-64.3681 Y32.0963 
G01 X-64.4028 Y32.2707 
G01 X-64.4028 Y33.7693 
G01 X-64.3681 Y33.9437 
G01 X-64.3000 Y34.1080 
G01 X-64.2012 Y34.2559 
G01 X-64.0995 Y34.3576 
G01 X-70.5875 Y34.3576 
G01 X-70.9360 Y34.0091 
G01 X-71.0091 Y33.9360 
G01 X-71.0985 Y33.8843 
G01 X-71.1983 Y33.8576 
G01 X-73.5517 Y33.8576 
G01 X-71.3375 Y31.6424 
G00 Z2.5400 
G00 X-47.2556 Y4.2191 
G01 Z-0.1500 F254.00 
G01 X-47.2942 Y4.0250 F508.00 
G01 X-47.3699 Y3.8422 
G01 X-47.4798 Y3.6777 
G01 X-47.6197 Y3.5378 
G01 X-47.7842 Y3.4279 
G01 X-47.8700 Y3.3924 
G01 X-46.1100 Y3.3924 
G01 X-46.1958 Y3.4279 
G01 X-46.3603 Y3.5378 
G01 X-46.5002 Y3.6777 
G01 X-46.6101 Y3.8422 
G01 X-46.6858 Y4.0250 
G01 X-46.7244 Y4.2191 
G01 X-46.7244 Y5.9409 
G01 X-46.6858 Y6.1350 
G01 X-46.6101 Y6.3178 
G01 X-46.5754 Y6.3697 
G01 X-47.2556 Y5.6895 
G01 X-47.2556 Y4.2191 
G00 Z2.5400 
G00 X-42.1756 Y5.9409 
G01 Z-0.1500 F254.00 
G01 X-42.1756 Y4.2191 F508.00 
G01 X-42.2142 Y4.0250 
G01 X-42.2899 Y3.8422 
G01 X-42.3998 Y3.6777 
G01 X-42.5397 Y3.5378 
G01 X-42.7042 Y3.4279 
G01 X-42.8870 Y3.3522 
G01 X-43.0811 Y3.3136 
G01 X-43.2789 Y3.3136 
G01 X-43.4730 Y3.3522 
G01 X-43.6558 Y3.4279 
G01 X-43.8203 Y3.5378 
G01 X-43.9602 Y3.6777 
G01 X-43.9831 Y3.7120 
G01 X-45.0091 Y2.6860 
G01 X-45.0985 Y2.6343 
G01 X-45.1983 Y2.6076 
G01 X-65.3017 Y2.6076 
G01 X-65.4015 Y2.6343 
G01 X-65.4909 Y2.6860 
G01 X-65.5640 Y2.7591 
G01 X-70.6484 Y7.8434 
G01 X-70.6236 Y7.7189 
G01 X-70.6236 Y7.5211 
G01 X-70.6622 Y7.3270 
G01 X-70.7379 Y7.1442 
G01 X-70.8478 Y6.9797 
G01 X-70.9877 Y6.8398 
G01 X-71.1522 Y6.7299 
G01 X-71.3350 Y6.6542 
G01 X-71.5291 Y6.6156 
G01 X-73.2509 Y6.6156 
G01 X-73.4450 Y6.6542 
G01 X-73.6278 Y6.7299 
G01 X-73.7923 Y6.8398 
G01 X-73.9322 Y6.9797 
G01 X-74.0421 Y7.1442 
G01 X-74.1178 Y7.3270 
G01 X-74.1564 Y7.5211 
G01 X-74.1564 Y7.7189 
G01 X-74.1178 Y7.9130 
G01 X-74.0421 Y8.0958 
G01 X-73.9322 Y8.2603 
G01 X-73.7923 Y8.4002 
G01 X-73.6278 Y8.5101 
G01 X-73.4450 Y8.5858 
G01 X-73.2509 Y8.6244 
G01 X-71.5291 Y8.6244 
G01 X-71.4046 Y8.5996 
G01 X-71.9605 Y9.1556 
G01 X-73.2509 Y9.1556 
G01 X-73.4450 Y9.1942 
G01 X-73.6278 Y9.2699 
G01 X-73.7923 Y9.3798 
G01 X-73.9322 Y9.5197 
G01 X-74.0421 Y9.6842 
G01 X-74.1178 Y9.8670 
G01 X-74.1564 Y10.0611 
G01 X-74.1564 Y10.2589 
G01 X-74.1178 Y10.4530 
G01 X-74.0421 Y10.6358 
G01 X-73.9322 Y10.8003 
G01 X-73.7923 Y10.9402 
G01 X-73.6278 Y11.0501 
G01 X-73.4450 Y11.1258 
G01 X-73.2509 Y11.1644 
G01 X-71.5291 Y11.1644 
G01 X-71.3350 Y11.1258 
G01 X-71.1522 Y11.0501 
G01 X-70.9877 Y10.9402 
G01 X-70.8478 Y10.8003 
G01 X-70.7379 Y10.6358 
G01 X-70.6622 Y10.4530 
G01 X-70.6236 Y10.2589 
G01 X-70.6236 Y10.0611 
G01 X-70.6622 Y9.8670 
G01 X-70.7379 Y9.6842 
G01 X-70.8478 Y9.5197 
G01 X-70.9877 Y9.3798 
G01 X-71.0400 Y9.3449 
G01 X-65.0875 Y3.3924 
G01 X-63.8900 Y3.3924 
G01 X-63.9758 Y3.4279 
G01 X-64.1403 Y3.5378 
G01 X-64.2802 Y3.6777 
G01 X-64.3901 Y3.8422 
G01 X-64.4658 Y4.0250 
G01 X-64.5044 Y4.2191 
G01 X-64.5044 Y5.9409 
G01 X-64.4658 Y6.1350 
G01 X-64.3901 Y6.3178 
G01 X-64.2802 Y6.4823 
G01 X-64.1403 Y6.6222 
G01 X-63.9758 Y6.7321 
G01 X-63.7930 Y6.8078 
G01 X-63.5989 Y6.8464 
G01 X-63.4011 Y6.8464 
G01 X-63.2070 Y6.8078 
G01 X-63.0242 Y6.7321 
G01 X-62.8597 Y6.6222 
G01 X-62.7198 Y6.4823 
G01 X-62.6099 Y6.3178 
G01 X-62.5342 Y6.1350 
G01 X-62.4956 Y5.9409 
G01 X-62.4956 Y4.2191 
G01 X-62.5342 Y4.0250 
G01 X-62.6099 Y3.8422 
G01 X-62.7198 Y3.6777 
G01 X-62.8597 Y3.5378 
G01 X-63.0242 Y3.4279 
G01 X-63.1100 Y3.3924 
G01 X-61.3500 Y3.3924 
G01 X-61.4358 Y3.4279 
G01 X-61.6003 Y3.5378 
G01 X-61.7402 Y3.6777 
G01 X-61.8501 Y3.8422 
G01 X-61.9258 Y4.0250 
G01 X-61.9644 Y4.2191 
G01 X-61.9644 Y5.9409 
G01 X-61.9258 Y6.1350 
G01 X-61.8501 Y6.3178 
G01 X-61.7402 Y6.4823 
G01 X-61.6003 Y6.6222 
G01 X-61.4358 Y6.7321 
G01 X-61.2530 Y6.8078 
G01 X-61.0589 Y6.8464 
G01 X-60.8611 Y6.8464 
G01 X-60.6670 Y6.8078 
G01 X-60.4842 Y6.7321 
G01 X-60.3197 Y6.6222 
G01 X-60.1798 Y6.4823 
G01 X-60.0699 Y6.3178 
G01 X-59.9942 Y6.1350 
G01 X-59.9556 Y5.9409 
G01 X-59.9556 Y4.2191 
G01 X-59.9942 Y4.0250 
G01 X-60.0699 Y3.8422 
G01 X-60.1798 Y3.6777 
G01 X-60.3197 Y3.5378 
G01 X-60.4842 Y3.4279 
G01 X-60.5700 Y3.3924 
G01 X-58.8100 Y3.3924 
G01 X-58.8958 Y3.4279 
G01 X-59.0603 Y3.5378 
G01 X-59.2002 Y3.6777 
G01 X-59.3101 Y3.8422 
G01 X-59.3858 Y4.0250 
G01 X-59.4244 Y4.2191 
G01 X-59.4244 Y5.9409 
G01 X-59.3858 Y6.1350 
G01 X-59.3101 Y6.3178 
G01 X-59.2002 Y6.4823 
G01 X-59.0603 Y6.6222 
G01 X-58.8958 Y6.7321 
G01 X-58.7130 Y6.8078 
G01 X-58.5189 Y6.8464 
G01 X-58.3211 Y6.8464 
G01 X-58.1270 Y6.8078 
G01 X-57.9442 Y6.7321 
G01 X-57.7797 Y6.6222 
G01 X-57.6398 Y6.4823 
G01 X-57.5299 Y6.3178 
G01 X-57.4542 Y6.1350 
G01 X-57.4156 Y5.9409 
G01 X-57.4156 Y4.2191 
G01 X-57.4542 Y4.0250 
G01 X-57.5299 Y3.8422 
G01 X-57.6398 Y3.6777 
G01 X-57.7797 Y3.5378 
G01 X-57.9442 Y3.4279 
G01 X-58.0300 Y3.3924 
G01 X-56.2700 Y3.3924 
G01 X-56.3558 Y3.4279 
G01 X-56.5203 Y3.5378 
G01 X-56.6602 Y3.6777 
G01 X-56.7701 Y3.8422 
G01 X-56.8458 Y4.0250 
G01 X-56.8844 Y4.2191 
G01 X-56.8844 Y5.9409 
G01 X-56.8458 Y6.1350 
G01 X-56.7701 Y6.3178 
G01 X-56.6602 Y6.4823 
G01 X-56.5203 Y6.6222 
G01 X-56.3558 Y6.7321 
G01 X-56.1730 Y6.8078 
G01 X-55.9789 Y6.8464 
G01 X-55.7811 Y6.8464 
G01 X-55.5870 Y6.8078 
G01 X-55.4042 Y6.7321 
G01 X-55.2397 Y6.6222 
G01 X-55.0998 Y6.4823 
G01 X-54.9899 Y6.3178 
G01 X-54.9142 Y6.1350 
G01 X-54.8756 Y5.9409 
G01 X-54.8756 Y4.2191 
G01 X-54.9142 Y4.0250 
