(.../pcb-gcode-3.6.0.4/pcb-gcode.ulp)
(Copyright 2005 - 2012 by John Johnson)
(See readme.txt for licensing terms.)
(This file generated from the board:)
(.../eagle/ARMEDBASE_V0/MCU/MCU.brd)
(Current profile is .../pcb-gcode-3.6.0.4/profiles/emc.pp  )
(This file generated 6/27/2014 3:24:11 PM)
(Settings from pcb-machine.h)
(  Tool Size)
(0.1000 )
(Z Axis Settings)
(  High     Up        Down     Drill)
(12.7000 	2.5400 	-0.1500 	-0.8128 )
(spindle on time = 3.0000)
(milling depth = -0.1500)
(text depth = -0.1270)
(tool change at 12.7000 15.2400 25.4000 )
(feed rate xy = F508.00 )
(feed rate z  = F254.00 )
(Settings from pcb-defaults.h)
(isolate min = 0.0154)
(isolate max = 0.5080)
(isolate step = 0.1270)
(Generated top outlines, top drill, bottom outlines, bottom drill, )
(Unit of measure: mm)
(Metric Mode)
G21
(Absolute Coordinates)
G90
G00 X0.0000 Y0.0000 
M03
G04 P3.000000
G00 Z2.5400 
G00 X-59.8599 Y40.2346 
G01 Z-0.1500 F254.00 
G01 X-70.9038 Y40.2346 F508.00 
G01 X-70.9853 Y40.1126 
G01 X-71.1006 Y39.9973 
G01 X-71.2361 Y39.9068 
G01 X-71.3867 Y39.8444 
G01 X-71.5465 Y39.8126 
G01 X-73.2335 Y39.8126 
G01 X-73.3933 Y39.8444 
G01 X-73.5439 Y39.9068 
G01 X-73.6794 Y39.9973 
G01 X-73.7947 Y40.1126 
G01 X-73.8852 Y40.2481 
G01 X-73.9476 Y40.3987 
G01 X-73.9794 Y40.5585 
G01 X-73.9794 Y40.7215 
G01 X-73.9476 Y40.8813 
G01 X-73.8852 Y41.0319 
G01 X-73.7947 Y41.1674 
G01 X-73.6794 Y41.2827 
G01 X-73.5439 Y41.3732 
G01 X-73.3933 Y41.4356 
G01 X-73.2335 Y41.4674 
G01 X-71.5465 Y41.4674 
G01 X-71.3867 Y41.4356 
G01 X-71.2361 Y41.3732 
G01 X-71.1006 Y41.2827 
G01 X-70.9853 Y41.1674 
G01 X-70.8948 Y41.0319 
G01 X-70.8324 Y40.8813 
G01 X-70.8093 Y40.7654 
G01 X-59.7151 Y40.7654 
G01 X-59.6476 Y40.7473 
G01 X-59.5870 Y40.7124 
G01 X-56.4222 Y37.5475 
G01 X-56.3255 Y37.5734 
G01 X-56.1745 Y37.5734 
G01 X-56.0287 Y37.5343 
G01 X-55.8979 Y37.4588 
G01 X-55.7912 Y37.3521 
G01 X-55.7157 Y37.2213 
G01 X-55.6766 Y37.0755 
G01 X-55.6766 Y36.9245 
G01 X-55.7157 Y36.7787 
G01 X-55.7912 Y36.6479 
G01 X-55.8979 Y36.5412 
G01 X-56.0287 Y36.4657 
G01 X-56.1745 Y36.4266 
G01 X-56.3255 Y36.4266 
G01 X-56.4713 Y36.4657 
G01 X-56.6021 Y36.5412 
G01 X-56.7088 Y36.6479 
G01 X-56.7843 Y36.7787 
G01 X-56.8234 Y36.9245 
G01 X-56.8234 Y37.0755 
G01 X-56.7975 Y37.1722 
G01 X-59.8599 Y40.2346 
G00 Z2.5400 
G00 X-45.0349 Y35.2654 
G01 Z-0.1500 F254.00 
G01 X-44.9651 Y35.2654 F508.00 
G01 X-44.8976 Y35.2473 
G01 X-44.8370 Y35.2124 
G01 X-43.7534 Y34.1287 
G01 X-43.7438 Y34.1431 
G01 X-43.6427 Y34.2442 
G01 X-43.5238 Y34.3236 
G01 X-43.3917 Y34.3783 
G01 X-43.2515 Y34.4062 
G01 X-43.1085 Y34.4062 
G01 X-42.9683 Y34.3783 
G01 X-42.8362 Y34.3236 
G01 X-42.7173 Y34.2442 
G01 X-42.6162 Y34.1431 
G01 X-42.5368 Y34.0242 
G01 X-42.4821 Y33.8921 
G01 X-42.4542 Y33.7519 
G01 X-42.4542 Y32.2881 
G01 X-42.4821 Y32.1479 
G01 X-42.5368 Y32.0158 
G01 X-42.6162 Y31.8969 
G01 X-42.7173 Y31.7958 
G01 X-42.8362 Y31.7164 
G01 X-42.9683 Y31.6617 
G01 X-43.1085 Y31.6338 
G01 X-43.2515 Y31.6338 
G01 X-43.3917 Y31.6617 
G01 X-43.5238 Y31.7164 
G01 X-43.6427 Y31.7958 
G01 X-43.7438 Y31.8969 
G01 X-43.8232 Y32.0158 
G01 X-43.8779 Y32.1479 
G01 X-43.9058 Y32.2881 
G01 X-43.9058 Y33.5305 
G01 X-45.1099 Y34.7346 
G01 X-46.2411 Y34.7346 
G01 X-46.2912 Y34.6479 
G01 X-46.3979 Y34.5412 
G01 X-46.5287 Y34.4657 
G01 X-46.6745 Y34.4266 
G01 X-46.8255 Y34.4266 
G01 X-46.9713 Y34.4657 
G01 X-47.1021 Y34.5412 
G01 X-47.2088 Y34.6479 
G01 X-47.2843 Y34.7787 
G01 X-47.3234 Y34.9245 
G01 X-47.3234 Y35.0755 
G01 X-47.2843 Y35.2213 
G01 X-47.2088 Y35.3521 
G01 X-47.1021 Y35.4588 
G01 X-46.9713 Y35.5343 
G01 X-46.8255 Y35.5734 
G01 X-46.6745 Y35.5734 
G01 X-46.5287 Y35.5343 
G01 X-46.3979 Y35.4588 
G01 X-46.2912 Y35.3521 
G01 X-46.2411 Y35.2654 
G01 X-45.0349 Y35.2654 
G00 Z2.5400 
G00 X-58.5349 Y53.7654 
G01 Z-0.1500 F254.00 
G01 X-58.4651 Y53.7654 F508.00 
G01 X-58.3976 Y53.7473 
G01 X-58.3370 Y53.7124 
G01 X-57.5343 Y52.9097 
G01 X-57.5085 Y52.9355 
G01 X-56.7915 Y52.9355 
G01 X-56.2845 Y52.4285 
G01 X-56.2845 Y51.7115 
G01 X-56.7915 Y51.2045 
G01 X-57.5085 Y51.2045 
G01 X-58.0155 Y51.7115 
G01 X-58.0155 Y52.4285 
G01 X-57.9097 Y52.5343 
G01 X-58.6099 Y53.2346 
G01 X-66.4911 Y53.2346 
G01 X-66.5412 Y53.1479 
G01 X-66.6479 Y53.0412 
G01 X-66.7787 Y52.9657 
G01 X-66.9245 Y52.9266 
G01 X-67.0755 Y52.9266 
G01 X-67.2213 Y52.9657 
G01 X-67.3521 Y53.0412 
G01 X-67.4588 Y53.1479 
G01 X-67.5343 Y53.2787 
G01 X-67.5734 Y53.4245 
G01 X-67.5734 Y53.5755 
G01 X-67.5343 Y53.7213 
G01 X-67.4588 Y53.8521 
G01 X-67.3521 Y53.9588 
G01 X-67.2213 Y54.0343 
G01 X-67.0755 Y54.0734 
G01 X-66.9245 Y54.0734 
G01 X-66.7787 Y54.0343 
G01 X-66.6479 Y53.9588 
G01 X-66.5412 Y53.8521 
G01 X-66.4911 Y53.7654 
G01 X-58.5349 Y53.7654 
G00 Z2.5400 
G00 X-10.3276 Y61.0467 
G01 Z-0.1500 F254.00 
G01 X-10.3276 Y63.4133 F508.00 
G01 X-10.2991 Y63.5933 
G01 X-10.2428 Y63.7666 
G01 X-10.1601 Y63.9289 
G01 X-10.0530 Y64.0763 
G01 X-9.9241 Y64.2052 
G01 X-9.7767 Y64.3123 
G01 X-9.6144 Y64.3950 
G01 X-9.4411 Y64.4513 
G01 X-9.2611 Y64.4798 
G01 X-9.0789 Y64.4798 
G01 X-8.8989 Y64.4513 
G01 X-8.7256 Y64.3950 
G01 X-8.5633 Y64.3123 
G01 X-8.4159 Y64.2052 
G01 X-8.2870 Y64.0763 
G01 X-8.1799 Y63.9289 
G01 X-8.0972 Y63.7666 
G01 X-8.0409 Y63.5933 
G01 X-8.0124 Y63.4133 
G01 X-8.0124 Y61.0467 
G01 X-8.0409 Y60.8667 
G01 X-8.0972 Y60.6934 
G01 X-8.1799 Y60.5311 
G01 X-8.2870 Y60.3837 
G01 X-8.4159 Y60.2548 
G01 X-8.5633 Y60.1477 
G01 X-8.7256 Y60.0650 
G01 X-8.8989 Y60.0087 
G01 X-9.0789 Y59.9802 
G01 X-9.2611 Y59.9802 
G01 X-9.4411 Y60.0087 
G01 X-9.6144 Y60.0650 
G01 X-9.7767 Y60.1477 
G01 X-9.9241 Y60.2548 
G01 X-10.0530 Y60.3837 
G01 X-10.1601 Y60.5311 
G01 X-10.2428 Y60.6934 
G01 X-10.2991 Y60.8667 
G01 X-10.3276 Y61.0467 
G00 Z2.5400 
G00 X-15.1533 Y66.3876 
G01 Z-0.1500 F254.00 
G01 X-12.7867 Y66.3876 F508.00 
G01 X-12.6067 Y66.3591 
G01 X-12.4334 Y66.3028 
G01 X-12.2711 Y66.2201 
G01 X-12.1237 Y66.1130 
G01 X-11.9948 Y65.9841 
G01 X-11.8877 Y65.8367 
G01 X-11.8050 Y65.6744 
G01 X-11.7487 Y65.5011 
G01 X-11.7202 Y65.3211 
G01 X-11.7202 Y65.1389 
G01 X-11.7487 Y64.9589 
G01 X-11.8050 Y64.7856 
G01 X-11.8877 Y64.6233 
G01 X-11.9948 Y64.4759 
G01 X-12.1237 Y64.3470 
G01 X-12.2711 Y64.2399 
G01 X-12.4334 Y64.1572 
G01 X-12.6067 Y64.1009 
G01 X-12.7867 Y64.0724 
G01 X-15.1533 Y64.0724 
G01 X-15.3333 Y64.1009 
G01 X-15.5066 Y64.1572 
G01 X-15.6689 Y64.2399 
G01 X-15.8163 Y64.3470 
G01 X-15.9452 Y64.4759 
G01 X-16.0523 Y64.6233 
G01 X-16.1350 Y64.7856 
G01 X-16.1913 Y64.9589 
G01 X-16.2198 Y65.1389 
G01 X-16.2198 Y65.3211 
G01 X-16.1913 Y65.5011 
G01 X-16.1350 Y65.6744 
G01 X-16.0523 Y65.8367 
G01 X-15.9452 Y65.9841 
G01 X-15.8163 Y66.1130 
G01 X-15.6689 Y66.2201 
G01 X-15.5066 Y66.3028 
G01 X-15.3333 Y66.3591 
G01 X-15.1533 Y66.3876 
G00 Z2.5400 
G00 X-1.6128 Y51.1664 
G01 Z-0.1500 F254.00 
G01 X-3.4672 Y51.1664 F508.00 
G01 X-3.6418 Y51.2011 
G01 X-3.8062 Y51.2692 
G01 X-3.9542 Y51.3681 
G01 X-4.0801 Y51.4940 
G01 X-4.1790 Y51.6420 
G01 X-4.2471 Y51.8064 
G01 X-4.2818 Y51.9810 
G01 X-4.2818 Y52.1590 
G01 X-4.2471 Y52.3336 
G01 X-4.1790 Y52.4980 
G01 X-4.0801 Y52.6460 
G01 X-3.9542 Y52.7719 
G01 X-3.8062 Y52.8708 
G01 X-3.6418 Y52.9389 
G01 X-3.4672 Y52.9736 
G01 X-1.6128 Y52.9736 
G01 X-1.4382 Y52.9389 
G01 X-1.2738 Y52.8708 
G01 X-1.1258 Y52.7719 
G01 X-0.9999 Y52.6460 
G01 X-0.9010 Y52.4980 
G01 X-0.8329 Y52.3336 
G01 X-0.7982 Y52.1590 
G01 X-0.7982 Y51.9810 
G01 X-0.8329 Y51.8064 
G01 X-0.9010 Y51.6420 
G01 X-0.9999 Y51.4940 
G01 X-1.1258 Y51.3681 
G01 X-1.2738 Y51.2692 
G01 X-1.4382 Y51.2011 
G01 X-1.6128 Y51.1664 
G00 Z2.5400 
G00 X-1.6128 Y54.9764 
G01 Z-0.1500 F254.00 
G01 X-3.4672 Y54.9764 F508.00 
G01 X-3.6418 Y55.0111 
G01 X-3.8062 Y55.0792 
G01 X-3.9542 Y55.1781 
G01 X-4.0801 Y55.3040 
G01 X-4.1790 Y55.4520 
G01 X-4.2471 Y55.6164 
G01 X-4.2818 Y55.7910 
G01 X-4.2818 Y55.9690 
G01 X-4.2471 Y56.1436 
G01 X-4.1790 Y56.3080 
G01 X-4.0801 Y56.4560 
G01 X-3.9542 Y56.5819 
G01 X-3.8062 Y56.6808 
G01 X-5.8599 Y58.7346 
G01 X-11.8310 Y58.7346 
G01 X-11.8877 Y58.6233 
G01 X-11.9948 Y58.4759 
G01 X-12.1237 Y58.3470 
G01 X-12.2711 Y58.2399 
G01 X-12.4334 Y58.1572 
G01 X-12.6067 Y58.1009 
G01 X-12.7867 Y58.0724 
G01 X-15.1533 Y58.0724 
G01 X-15.3333 Y58.1009 
G01 X-15.5066 Y58.1572 
G01 X-15.6689 Y58.2399 
G01 X-15.8163 Y58.3470 
G01 X-15.9452 Y58.4759 
G01 X-16.0523 Y58.6233 
G01 X-16.1350 Y58.7856 
G01 X-16.1913 Y58.9589 
G01 X-16.2198 Y59.1389 
G01 X-16.2198 Y59.3211 
G01 X-16.1913 Y59.5011 
G01 X-16.1350 Y59.6744 
G01 X-16.0523 Y59.8367 
G01 X-15.9452 Y59.9841 
G01 X-15.8163 Y60.1130 
G01 X-15.6689 Y60.2201 
G01 X-15.5066 Y60.3028 
G01 X-15.3333 Y60.3591 
G01 X-15.1533 Y60.3876 
G01 X-12.7867 Y60.3876 
G01 X-12.6067 Y60.3591 
G01 X-12.4334 Y60.3028 
G01 X-12.2711 Y60.2201 
G01 X-12.1237 Y60.1130 
G01 X-11.9948 Y59.9841 
G01 X-11.8877 Y59.8367 
G01 X-11.8050 Y59.6744 
G01 X-11.7487 Y59.5011 
G01 X-11.7202 Y59.3211 
G01 X-11.7202 Y59.2654 
G01 X-5.7151 Y59.2654 
G01 X-5.6476 Y59.2473 
G01 X-5.5870 Y59.2124 
G01 X-5.5376 Y59.1630 
G01 X-3.1583 Y56.7836 
G01 X-1.6128 Y56.7836 
G01 X-1.4382 Y56.7489 
G01 X-1.2738 Y56.6808 
G01 X-1.1258 Y56.5819 
G01 X-0.9999 Y56.4560 
G01 X-0.9010 Y56.3080 
G01 X-0.8329 Y56.1436 
G01 X-0.7982 Y55.9690 
G01 X-0.7982 Y55.7910 
G01 X-0.8329 Y55.6164 
G01 X-0.9010 Y55.4520 
G01 X-0.9999 Y55.3040 
G01 X-1.1258 Y55.1781 
G01 X-1.2738 Y55.0792 
G01 X-1.4382 Y55.0111 
G01 X-1.6128 Y54.9764 
G00 Z2.5400 
G00 X-1.6128 Y58.7864 
G01 Z-0.1500 F254.00 
G01 X-3.4672 Y58.7864 F508.00 
G01 X-3.6418 Y58.8211 
G01 X-3.8062 Y58.8892 
G01 X-3.9542 Y58.9881 
G01 X-4.0801 Y59.1140 
G01 X-4.1790 Y59.2620 
G01 X-4.2471 Y59.4264 
G01 X-4.2818 Y59.6010 
G01 X-4.2818 Y59.7790 
G01 X-4.2471 Y59.9536 
G01 X-4.1790 Y60.1180 
G01 X-4.0801 Y60.2660 
G01 X-3.9542 Y60.3919 
G01 X-3.8062 Y60.4908 
G01 X-3.6418 Y60.5589 
G01 X-3.4672 Y60.5936 
G01 X-1.6128 Y60.5936 
G01 X-1.4382 Y60.5589 
G01 X-1.2738 Y60.4908 
G01 X-1.1258 Y60.3919 
G01 X-0.9999 Y60.2660 
G01 X-0.9010 Y60.1180 
G01 X-0.8329 Y59.9536 
G01 X-0.7982 Y59.7790 
G01 X-0.7982 Y59.6010 
G01 X-0.8329 Y59.4264 
G01 X-0.9010 Y59.2620 
G01 X-0.9999 Y59.1140 
G01 X-1.1258 Y58.9881 
G01 X-1.2738 Y58.8892 
G01 X-1.4382 Y58.8211 
G01 X-1.6128 Y58.7864 
G00 Z2.5400 
G00 X-79.3985 Y66.1314 
G01 Z-0.1500 F254.00 
G01 X-79.3985 Y63.4086 F508.00 
G01 X-79.4311 Y63.2030 
G01 X-79.4954 Y63.0050 
G01 X-79.5899 Y62.8195 
G01 X-79.7123 Y62.6510 
G01 X-79.8595 Y62.5038 
G01 X-80.0280 Y62.3814 
G01 X-80.2135 Y62.2869 
G01 X-80.4115 Y62.2226 
G01 X-80.6171 Y62.1900 
G01 X-80.8253 Y62.1900 
G01 X-81.0309 Y62.2226 
G01 X-81.2289 Y62.2869 
G01 X-81.4144 Y62.3814 
G01 X-81.5829 Y62.5038 
G01 X-81.7301 Y62.6510 
G01 X-81.8525 Y62.8195 
G01 X-81.9470 Y63.0050 
G01 X-82.0113 Y63.2030 
G01 X-82.0439 Y63.4086 
G01 X-82.0439 Y66.1314 
G01 X-82.0113 Y66.3370 
G01 X-81.9470 Y66.5350 
G01 X-81.8525 Y66.7205 
G01 X-81.7301 Y66.8890 
G01 X-81.5829 Y67.0362 
G01 X-81.4144 Y67.1586 
G01 X-81.2289 Y67.2531 
G01 X-81.0309 Y67.3174 
G01 X-80.8253 Y67.3500 
G01 X-80.6171 Y67.3500 
G01 X-80.4115 Y67.3174 
G01 X-80.2135 Y67.2531 
G01 X-80.0280 Y67.1586 
G01 X-79.8595 Y67.0362 
G01 X-79.7123 Y66.8890 
G01 X-79.5899 Y66.7205 
G01 X-79.4954 Y66.5350 
G01 X-79.4311 Y66.3370 
G01 X-79.3985 Y66.1314 
G00 Z2.5400 
G00 X-75.4361 Y66.1314 
G01 Z-0.1500 F254.00 
G01 X-75.4361 Y63.8114 F508.00 
G01 X-72.8901 Y61.2654 
G01 X-43.2151 Y61.2654 
G01 X-43.1476 Y61.2473 
G01 X-43.0870 Y61.2124 
G01 X-42.3370 Y60.4624 
G01 X-42.2876 Y60.4130 
G01 X-42.2527 Y60.3524 
G01 X-42.2346 Y60.2849 
G01 X-42.2346 Y58.7654 
G01 X-38.9651 Y58.7654 
G01 X-38.8976 Y58.7473 
G01 X-38.8750 Y58.7343 
G01 X-38.8524 Y58.7473 
G01 X-38.7849 Y58.7654 
G01 X-27.4651 Y58.7654 
G01 X-27.3976 Y58.7473 
G01 X-27.3370 Y58.7124 
G01 X-26.4388 Y57.8142 
G01 X-26.4029 Y57.8382 
G01 X-26.2615 Y57.8968 
G01 X-26.1115 Y57.9266 
G01 X-25.9585 Y57.9266 
G01 X-25.8085 Y57.8968 
G01 X-25.6671 Y57.8382 
G01 X-25.5399 Y57.7532 
G01 X-25.4318 Y57.6451 
G01 X-25.3468 Y57.5179 
G01 X-25.2882 Y57.3765 
G01 X-25.2661 Y57.2654 
G01 X-22.4651 Y57.2654 
G01 X-22.3976 Y57.2473 
G01 X-22.3370 Y57.2124 
G01 X-22.2876 Y57.1630 
G01 X-17.9222 Y52.7975 
G01 X-17.8255 Y52.8234 
G01 X-17.6745 Y52.8234 
G01 X-17.5287 Y52.7843 
G01 X-17.3979 Y52.7088 
G01 X-17.2912 Y52.6021 
G01 X-17.2157 Y52.4713 
G01 X-17.1766 Y52.3255 
G01 X-17.1766 Y52.1745 
G01 X-17.2157 Y52.0287 
G01 X-17.2912 Y51.8979 
G01 X-17.3979 Y51.7912 
G01 X-17.5287 Y51.7157 
G01 X-17.6745 Y51.6766 
G01 X-17.8255 Y51.6766 
G01 X-17.9713 Y51.7157 
G01 X-18.1021 Y51.7912 
G01 X-18.2088 Y51.8979 
G01 X-18.2843 Y52.0287 
G01 X-18.3234 Y52.1745 
G01 X-18.3234 Y52.3255 
G01 X-18.2975 Y52.4222 
G01 X-22.6099 Y56.7346 
G01 X-25.3786 Y56.7346 
G01 X-25.4318 Y56.6549 
G01 X-25.5399 Y56.5468 
G01 X-25.6671 Y56.4618 
G01 X-25.8085 Y56.4032 
G01 X-25.9585 Y56.3734 
G01 X-26.1115 Y56.3734 
G01 X-26.2615 Y56.4032 
G01 X-26.4029 Y56.4618 
G01 X-26.5301 Y56.5468 
G01 X-26.6382 Y56.6549 
G01 X-26.7232 Y56.7821 
G01 X-26.7818 Y56.9235 
G01 X-26.8116 Y57.0735 
G01 X-26.8116 Y57.2265 
G01 X-26.7818 Y57.3765 
G01 X-26.7730 Y57.3977 
G01 X-27.6099 Y58.2346 
G01 X-38.6401 Y58.2346 
G01 X-38.6626 Y58.2120 
G01 X-38.7120 Y58.1626 
G01 X-39.3328 Y57.5419 
G01 X-39.3168 Y57.5179 
G01 X-39.2582 Y57.3765 
G01 X-39.2284 Y57.2265 
G01 X-39.2284 Y57.0735 
G01 X-39.2582 Y56.9235 
G01 X-39.3168 Y56.7821 
G01 X-39.4018 Y56.6549 
G01 X-39.5099 Y56.5468 
G01 X-39.6371 Y56.4618 
G01 X-39.7785 Y56.4032 
G01 X-39.9285 Y56.3734 
G01 X-40.0815 Y56.3734 
G01 X-40.2315 Y56.4032 
G01 X-40.3729 Y56.4618 
G01 X-40.5001 Y56.5468 
G01 X-40.6082 Y56.6549 
G01 X-40.6932 Y56.7821 
G01 X-40.7518 Y56.9235 
G01 X-40.7816 Y57.0735 
G01 X-40.7816 Y57.2265 
G01 X-40.7518 Y57.3765 
G01 X-40.6932 Y57.5179 
G01 X-40.6082 Y57.6451 
G01 X-40.5001 Y57.7532 
G01 X-40.3729 Y57.8382 
G01 X-40.2315 Y57.8968 
G01 X-40.0815 Y57.9266 
G01 X-39.9285 Y57.9266 
G01 X-39.7785 Y57.8968 
G01 X-39.7432 Y57.8821 
G01 X-39.3907 Y58.2346 
G01 X-42.5349 Y58.2346 
G01 X-42.6024 Y58.2527 
G01 X-42.6630 Y58.2876 
G01 X-42.7124 Y58.3370 
G01 X-42.7473 Y58.3976 
G01 X-42.7654 Y58.4651 
G01 X-42.7654 Y60.1401 
G01 X-43.3599 Y60.7346 
G01 X-73.0349 Y60.7346 
G01 X-73.1024 Y60.7527 
G01 X-73.1630 Y60.7876 
G01 X-73.2124 Y60.8370 
G01 X-75.4956 Y63.1202 
G01 X-75.5330 Y63.0050 
G01 X-75.6275 Y62.8195 
G01 X-75.7499 Y62.6510 
G01 X-75.8971 Y62.5038 
G01 X-76.0656 Y62.3814 
G01 X-76.2511 Y62.2869 
G01 X-76.4491 Y62.2226 
G01 X-76.6547 Y62.1900 
G01 X-76.8629 Y62.1900 
G01 X-77.0685 Y62.2226 
G01 X-77.2665 Y62.2869 
G01 X-77.4520 Y62.3814 
G01 X-77.6205 Y62.5038 
G01 X-77.7677 Y62.6510 
G01 X-77.8901 Y62.8195 
G01 X-77.9846 Y63.0050 
G01 X-78.0489 Y63.2030 
G01 X-78.0815 Y63.4086 
G01 X-78.0815 Y66.1314 
G01 X-78.0489 Y66.3370 
G01 X-77.9846 Y66.5350 
G01 X-77.8901 Y66.7205 
G01 X-77.7677 Y66.8890 
G01 X-77.6205 Y67.0362 
G01 X-77.4520 Y67.1586 
G01 X-77.2665 Y67.2531 
G01 X-77.0685 Y67.3174 
G01 X-76.8629 Y67.3500 
G01 X-76.6547 Y67.3500 
G01 X-76.4491 Y67.3174 
G01 X-76.2511 Y67.2531 
G01 X-76.0656 Y67.1586 
G01 X-75.8971 Y67.0362 
G01 X-75.7499 Y66.8890 
G01 X-75.6275 Y66.7205 
G01 X-75.5330 Y66.5350 
G01 X-75.4687 Y66.3370 
G01 X-75.4361 Y66.1314 
G00 Z2.5400 
G00 X-42.0516 Y59.6135 
G01 Z-0.1500 F254.00 
G01 X-42.0516 Y59.7665 F508.00 
G01 X-42.0218 Y59.9165 
G01 X-41.9632 Y60.0579 
G01 X-41.8782 Y60.1851 
G01 X-41.7701 Y60.2932 
G01 X-41.6429 Y60.3782 
G01 X-41.5015 Y60.4368 
G01 X-41.3515 Y60.4666 
G01 X-41.1985 Y60.4666 
G01 X-41.0485 Y60.4368 
G01 X-40.9708 Y60.4046 
G01 X-40.1630 Y61.2124 
G01 X-40.1024 Y61.2473 
G01 X-40.0349 Y61.2654 
G01 X-28.7151 Y61.2654 
G01 X-28.6476 Y61.2473 
G01 X-28.5870 Y61.2124 
G01 X-28.5376 Y61.1630 
G01 X-27.7208 Y60.3462 
G01 X-27.6729 Y60.3782 
G01 X-27.5315 Y60.4368 
G01 X-27.3815 Y60.4666 
G01 X-27.2285 Y60.4666 
G01 X-27.0785 Y60.4368 
G01 X-26.9371 Y60.3782 
G01 X-26.8099 Y60.2932 
G01 X-26.7018 Y60.1851 
G01 X-26.6168 Y60.0579 
G01 X-26.5582 Y59.9165 
G01 X-26.5284 Y59.7665 
G01 X-26.5284 Y59.6135 
G01 X-26.5582 Y59.4635 
G01 X-26.6168 Y59.3221 
G01 X-26.7018 Y59.1949 
G01 X-26.8099 Y59.0868 
G01 X-26.9371 Y59.0018 
G01 X-27.0785 Y58.9432 
G01 X-27.2285 Y58.9134 
G01 X-27.3815 Y58.9134 
G01 X-27.5315 Y58.9432 
G01 X-27.6729 Y59.0018 
G01 X-27.8001 Y59.0868 
G01 X-27.9082 Y59.1949 
G01 X-27.9932 Y59.3221 
G01 X-28.0518 Y59.4635 
G01 X-28.0816 Y59.6135 
G01 X-28.0816 Y59.7665 
G01 X-28.0518 Y59.9165 
G01 X-28.0489 Y59.9235 
G01 X-28.8599 Y60.7346 
G01 X-39.8901 Y60.7346 
G01 X-40.5809 Y60.0437 
G01 X-40.5282 Y59.9165 
G01 X-40.4984 Y59.7665 
G01 X-40.4984 Y59.6135 
G01 X-40.5282 Y59.4635 
G01 X-40.5868 Y59.3221 
G01 X-40.6718 Y59.1949 
G01 X-40.7799 Y59.0868 
G01 X-40.9071 Y59.0018 
G01 X-41.0485 Y58.9432 
G01 X-41.1985 Y58.9134 
G01 X-41.3515 Y58.9134 
G01 X-41.5015 Y58.9432 
G01 X-41.6429 Y59.0018 
G01 X-41.7701 Y59.0868 
G01 X-41.8782 Y59.1949 
G01 X-41.9632 Y59.3221 
G01 X-42.0218 Y59.4635 
G01 X-42.0516 Y59.6135 
G00 Z2.5400 
G00 X-65.6355 Y44.0915 
G01 Z-0.1500 F254.00 
G01 X-65.6355 Y44.8085 F508.00 
G01 X-65.1285 Y45.3155 
G01 X-64.4115 Y45.3155 
G01 X-63.9045 Y44.8085 
G01 X-63.9045 Y44.0915 
G01 X-64.4115 Y43.5845 
G01 X-65.1285 Y43.5845 
G01 X-65.6355 Y44.0915 
G00 Z2.5400 
G00 X-65.6355 Y46.6315 
G01 Z-0.1500 F254.00 
G01 X-65.6355 Y47.3485 F508.00 
G01 X-65.1285 Y47.8555 
G01 X-64.4115 Y47.8555 
G01 X-63.9045 Y47.3485 
G01 X-63.9045 Y46.6315 
G01 X-64.4115 Y46.1245 
G01 X-65.1285 Y46.1245 
G01 X-65.6355 Y46.6315 
G00 Z2.5400 
G00 X-65.6355 Y49.1715 
G01 Z-0.1500 F254.00 
G01 X-65.6355 Y49.8885 F508.00 
G01 X-65.1285 Y50.3955 
G01 X-64.4115 Y50.3955 
G01 X-63.9045 Y49.8885 
G01 X-63.9045 Y49.1715 
G01 X-64.4115 Y48.6645 
G01 X-65.1285 Y48.6645 
G01 X-65.6355 Y49.1715 
G00 Z2.5400 
G00 X-65.6355 Y51.7115 
G01 Z-0.1500 F254.00 
G01 X-65.6355 Y52.4285 F508.00 
G01 X-65.1285 Y52.9355 
G01 X-64.4115 Y52.9355 
G01 X-63.9045 Y52.4285 
G01 X-63.9045 Y51.7115 
G01 X-64.4115 Y51.2045 
G01 X-65.1285 Y51.2045 
G01 X-65.6355 Y51.7115 
G00 Z2.5400 
G00 X-58.0155 Y49.1715 
G01 Z-0.1500 F254.00 
G01 X-58.0155 Y49.8885 F508.00 
G01 X-57.5085 Y50.3955 
G01 X-56.7915 Y50.3955 
G01 X-56.7607 Y50.3647 
G01 X-47.4624 Y59.6630 
G01 X-47.4130 Y59.7124 
G01 X-47.3524 Y59.7473 
G01 X-47.2849 Y59.7654 
G01 X-44.5916 Y59.7654 
G01 X-44.5618 Y59.9165 
G01 X-44.5032 Y60.0579 
G01 X-44.4182 Y60.1851 
G01 X-44.3101 Y60.2932 
G01 X-44.1829 Y60.3782 
G01 X-44.0415 Y60.4368 
G01 X-43.8915 Y60.4666 
G01 X-43.7385 Y60.4666 
G01 X-43.5885 Y60.4368 
G01 X-43.4471 Y60.3782 
G01 X-43.3199 Y60.2932 
G01 X-43.2118 Y60.1851 
G01 X-43.1268 Y60.0579 
G01 X-43.0682 Y59.9165 
G01 X-43.0384 Y59.7665 
G01 X-43.0384 Y59.6135 
G01 X-43.0682 Y59.4635 
G01 X-43.1268 Y59.3221 
G01 X-43.2118 Y59.1949 
G01 X-43.3199 Y59.0868 
G01 X-43.4471 Y59.0018 
G01 X-43.5885 Y58.9432 
G01 X-43.7385 Y58.9134 
G01 X-43.8915 Y58.9134 
G01 X-44.0415 Y58.9432 
G01 X-44.1829 Y59.0018 
G01 X-44.3101 Y59.0868 
G01 X-44.4182 Y59.1949 
G01 X-44.4447 Y59.2346 
G01 X-47.1401 Y59.2346 
G01 X-56.3853 Y49.9893 
G01 X-56.2845 Y49.8885 
G01 X-56.2845 Y49.1715 
G01 X-56.7915 Y48.6645 
G01 X-57.5085 Y48.6645 
G01 X-58.0155 Y49.1715 
G00 Z2.5400 
G00 X-58.0155 Y44.0915 
G01 Z-0.1500 F254.00 
G01 X-58.0155 Y44.8085 F508.00 
G01 X-57.5085 Y45.3155 
G01 X-56.7915 Y45.3155 
G01 X-56.2845 Y44.8085 
G01 X-56.2845 Y44.7654 
G01 X-36.5089 Y44.7654 
G01 X-36.4588 Y44.8521 
G01 X-36.3521 Y44.9588 
G01 X-36.2213 Y45.0343 
G01 X-36.0755 Y45.0734 
G01 X-35.9245 Y45.0734 
G01 X-35.7787 Y45.0343 
G01 X-35.6479 Y44.9588 
G01 X-35.5412 Y44.8521 
G01 X-35.4911 Y44.7654 
G01 X-18.2589 Y44.7654 
G01 X-18.2088 Y44.8521 
G01 X-18.1021 Y44.9588 
G01 X-17.9713 Y45.0343 
G01 X-17.8255 Y45.0734 
G01 X-17.6745 Y45.0734 
G01 X-17.5287 Y45.0343 
G01 X-17.3979 Y44.9588 
G01 X-17.2912 Y44.8521 
G01 X-17.2411 Y44.7654 
G01 X-5.2151 Y44.7654 
G01 X-5.1476 Y44.7473 
G01 X-5.0870 Y44.7124 
G01 X-5.0376 Y44.6630 
G01 X-5.0027 Y44.6024 
G01 X-4.9846 Y44.5349 
G01 X-4.9846 Y39.6866 
G01 X-4.8387 Y39.6576 
G01 X-4.6881 Y39.5952 
G01 X-4.5526 Y39.5047 
G01 X-4.4373 Y39.3894 
G01 X-4.3468 Y39.2539 
G01 X-4.2844 Y39.1033 
G01 X-4.2526 Y38.9435 
G01 X-4.2526 Y37.2565 
G01 X-4.2844 Y37.0967 
G01 X-4.3468 Y36.9461 
G01 X-4.4373 Y36.8106 
G01 X-4.5526 Y36.6953 
G01 X-4.6881 Y36.6048 
G01 X-4.8387 Y36.5424 
G01 X-4.9985 Y36.5106 
G01 X-5.1615 Y36.5106 
G01 X-5.3213 Y36.5424 
G01 X-5.4719 Y36.6048 
G01 X-5.6074 Y36.6953 
G01 X-5.7227 Y36.8106 
G01 X-5.8132 Y36.9461 
G01 X-5.8756 Y37.0967 
G01 X-5.9074 Y37.2565 
G01 X-5.9074 Y38.9435 
G01 X-5.8756 Y39.1033 
G01 X-5.8132 Y39.2539 
G01 X-5.7227 Y39.3894 
G01 X-5.6074 Y39.5047 
G01 X-5.5154 Y39.5662 
G01 X-5.5154 Y44.2346 
G01 X-17.2411 Y44.2346 
G01 X-17.2912 Y44.1479 
G01 X-17.3979 Y44.0412 
G01 X-17.5287 Y43.9657 
G01 X-17.6745 Y43.9266 
G01 X-17.8255 Y43.9266 
G01 X-17.9713 Y43.9657 
G01 X-18.1021 Y44.0412 
G01 X-18.2088 Y44.1479 
G01 X-18.2589 Y44.2346 
G01 X-35.4911 Y44.2346 
G01 X-35.5412 Y44.1479 
G01 X-35.6479 Y44.0412 
G01 X-35.7787 Y43.9657 
G01 X-35.9245 Y43.9266 
G01 X-36.0755 Y43.9266 
G01 X-36.2213 Y43.9657 
G01 X-36.3521 Y44.0412 
G01 X-36.4588 Y44.1479 
G01 X-36.5089 Y44.2346 
G01 X-56.2845 Y44.2346 
G01 X-56.2845 Y44.0915 
G01 X-56.7915 Y43.5845 
G01 X-57.5085 Y43.5845 
G01 X-57.5243 Y43.6003 
G01 X-58.7876 Y42.3370 
G01 X-58.8370 Y42.2876 
G01 X-58.8976 Y42.2527 
G01 X-58.9651 Y42.2346 
G01 X-64.2411 Y42.2346 
G01 X-64.2912 Y42.1479 
G01 X-64.3979 Y42.0412 
G01 X-64.5287 Y41.9657 
G01 X-64.6745 Y41.9266 
G01 X-64.8255 Y41.9266 
G01 X-64.9713 Y41.9657 
G01 X-65.1021 Y42.0412 
G01 X-65.2088 Y42.1479 
G01 X-65.2843 Y42.2787 
G01 X-65.3234 Y42.4245 
G01 X-65.3234 Y42.5755 
G01 X-65.2843 Y42.7213 
G01 X-65.2088 Y42.8521 
G01 X-65.1021 Y42.9588 
G01 X-64.9713 Y43.0343 
G01 X-64.8255 Y43.0734 
G01 X-64.6745 Y43.0734 
G01 X-64.5287 Y43.0343 
G01 X-64.3979 Y42.9588 
G01 X-64.2912 Y42.8521 
G01 X-64.2411 Y42.7654 
G01 X-59.1099 Y42.7654 
G01 X-57.8997 Y43.9757 
G01 X-58.0155 Y44.0915 
G00 Z2.5400 
G00 X-55.0526 Y5.9235 
G01 Z-0.1500 F254.00 
G01 X-55.0526 Y4.2365 F508.00 
G01 X-55.0844 Y4.0767 
G01 X-55.1468 Y3.9261 
G01 X-55.2373 Y3.7906 
G01 X-55.3526 Y3.6753 
G01 X-55.4881 Y3.5848 
G01 X-55.6387 Y3.5224 
G01 X-55.7985 Y3.4906 
G01 X-55.9615 Y3.4906 
G01 X-56.1213 Y3.5224 
G01 X-56.2719 Y3.5848 
G01 X-56.4074 Y3.6753 
G01 X-56.5227 Y3.7906 
G01 X-56.6132 Y3.9261 
G01 X-56.6756 Y4.0767 
G01 X-56.7074 Y4.2365 
G01 X-56.7074 Y5.9235 
G01 X-56.6756 Y6.0833 
G01 X-56.6132 Y6.2339 
G01 X-56.5227 Y6.3694 
G01 X-56.4074 Y6.4847 
G01 X-56.2719 Y6.5752 
G01 X-56.1213 Y6.6376 
G01 X-55.9615 Y6.6694 
G01 X-55.7985 Y6.6694 
G01 X-55.6387 Y6.6376 
G01 X-55.4881 Y6.5752 
G01 X-55.3526 Y6.4847 
G01 X-55.2373 Y6.3694 
G01 X-55.1468 Y6.2339 
G01 X-55.0844 Y6.0833 
G01 X-55.0526 Y5.9235 
G00 Z2.5400 
G00 X-57.5926 Y5.9235 
G01 Z-0.1500 F254.00 
G01 X-57.5926 Y4.2365 F508.00 
G01 X-57.6244 Y4.0767 
G01 X-57.6868 Y3.9261 
G01 X-57.7773 Y3.7906 
G01 X-57.8926 Y3.6753 
G01 X-58.0281 Y3.5848 
G01 X-58.1787 Y3.5224 
G01 X-58.3385 Y3.4906 
G01 X-58.5015 Y3.4906 
G01 X-58.6613 Y3.5224 
G01 X-58.8119 Y3.5848 
G01 X-58.9474 Y3.6753 
G01 X-59.0627 Y3.7906 
G01 X-59.1532 Y3.9261 
G01 X-59.2156 Y4.0767 
G01 X-59.2474 Y4.2365 
G01 X-59.2474 Y5.9235 
G01 X-59.2156 Y6.0833 
G01 X-59.1532 Y6.2339 
G01 X-59.0627 Y6.3694 
G01 X-58.9474 Y6.4847 
G01 X-58.8119 Y6.5752 
G01 X-58.6613 Y6.6376 
G01 X-58.5015 Y6.6694 
G01 X-58.3385 Y6.6694 
G01 X-58.1787 Y6.6376 
G01 X-58.0281 Y6.5752 
G01 X-57.8926 Y6.4847 
G01 X-57.7773 Y6.3694 
G01 X-57.6868 Y6.2339 
G01 X-57.6244 Y6.0833 
G01 X-57.5926 Y5.9235 
G00 Z2.5400 
G00 X-60.1326 Y5.9235 
G01 Z-0.1500 F254.00 
G01 X-60.1326 Y4.2365 F508.00 
G01 X-60.1644 Y4.0767 
G01 X-60.2268 Y3.9261 
G01 X-60.3173 Y3.7906 
G01 X-60.4326 Y3.6753 
G01 X-60.5681 Y3.5848 
G01 X-60.7187 Y3.5224 
G01 X-60.8785 Y3.4906 
G01 X-61.0415 Y3.4906 
G01 X-61.2013 Y3.5224 
G01 X-61.3519 Y3.5848 
G01 X-61.4874 Y3.6753 
G01 X-61.6027 Y3.7906 
G01 X-61.6932 Y3.9261 
G01 X-61.7556 Y4.0767 
G01 X-61.7874 Y4.2365 
G01 X-61.7874 Y5.9235 
G01 X-61.7556 Y6.0833 
G01 X-61.6932 Y6.2339 
G01 X-61.6027 Y6.3694 
G01 X-61.4874 Y6.4847 
G01 X-61.3519 Y6.5752 
G01 X-61.2013 Y6.6376 
G01 X-61.0415 Y6.6694 
G01 X-60.8785 Y6.6694 
G01 X-60.7187 Y6.6376 
G01 X-60.5681 Y6.5752 
G01 X-60.4326 Y6.4847 
G01 X-60.3173 Y6.3694 
G01 X-60.2268 Y6.2339 
G01 X-60.1644 Y6.0833 
G01 X-60.1326 Y5.9235 
G00 Z2.5400 
G00 X-62.6726 Y5.9235 
G01 Z-0.1500 F254.00 
G01 X-62.6726 Y4.2365 F508.00 
G01 X-62.7044 Y4.0767 
G01 X-62.7668 Y3.9261 
G01 X-62.8573 Y3.7906 
G01 X-62.9726 Y3.6753 
G01 X-63.1081 Y3.5848 
G01 X-63.2587 Y3.5224 
G01 X-63.4185 Y3.4906 
G01 X-63.5815 Y3.4906 
G01 X-63.7413 Y3.5224 
G01 X-63.8919 Y3.5848 
G01 X-64.0274 Y3.6753 
G01 X-64.1427 Y3.7906 
G01 X-64.2332 Y3.9261 
G01 X-64.2956 Y4.0767 
G01 X-64.3274 Y4.2365 
G01 X-64.3274 Y5.9235 
G01 X-64.2956 Y6.0833 
G01 X-64.2332 Y6.2339 
G01 X-64.1427 Y6.3694 
G01 X-64.0274 Y6.4847 
G01 X-63.8919 Y6.5752 
G01 X-63.7413 Y6.6376 
G01 X-63.5815 Y6.6694 
G01 X-63.4185 Y6.6694 
G01 X-63.2587 Y6.6376 
G01 X-63.1081 Y6.5752 
G01 X-62.9726 Y6.4847 
G01 X-62.8573 Y6.3694 
G01 X-62.7668 Y6.2339 
G01 X-62.7044 Y6.0833 
G01 X-62.6726 Y5.9235 
G00 Z2.5400 
G00 X-64.2258 Y32.2881 
G01 Z-0.1500 F254.00 
G01 X-64.2258 Y33.7519 F508.00 
G01 X-64.1979 Y33.8921 
G01 X-64.1432 Y34.0242 
G01 X-64.0638 Y34.1431 
G01 X-63.9627 Y34.2442 
G01 X-63.8438 Y34.3236 
G01 X-63.7117 Y34.3783 
G01 X-63.5715 Y34.4062 
G01 X-63.4285 Y34.4062 
G01 X-63.2883 Y34.3783 
G01 X-63.1562 Y34.3236 
G01 X-63.0373 Y34.2442 
G01 X-62.9362 Y34.1431 
G01 X-62.8568 Y34.0242 
G01 X-62.8021 Y33.8921 
G01 X-62.7742 Y33.7519 
G01 X-62.7742 Y32.2881 
G01 X-62.8021 Y32.1479 
G01 X-62.8568 Y32.0158 
G01 X-62.9362 Y31.8969 
G01 X-63.0373 Y31.7958 
G01 X-63.1562 Y31.7164 
G01 X-63.2883 Y31.6617 
G01 X-63.4285 Y31.6338 
G01 X-63.5715 Y31.6338 
G01 X-63.7117 Y31.6617 
G01 X-63.8438 Y31.7164 
G01 X-63.9627 Y31.7958 
G01 X-64.0638 Y31.8969 
G01 X-64.1432 Y32.0158 
G01 X-64.1979 Y32.1479 
G01 X-64.2258 Y32.2881 
G00 Z2.5400 
G00 X-61.6858 Y32.2881 
G01 Z-0.1500 F254.00 
G01 X-61.6858 Y33.7519 F508.00 
G01 X-61.6579 Y33.8921 
G01 X-61.6032 Y34.0242 
G01 X-61.5238 Y34.1431 
G01 X-61.4227 Y34.2442 
G01 X-61.3038 Y34.3236 
G01 X-61.1717 Y34.3783 
G01 X-61.0315 Y34.4062 
G01 X-60.8885 Y34.4062 
G01 X-60.7483 Y34.3783 
G01 X-60.6162 Y34.3236 
G01 X-60.4973 Y34.2442 
G01 X-60.3962 Y34.1431 
G01 X-60.3168 Y34.0242 
G01 X-60.2621 Y33.8921 
G01 X-60.2342 Y33.7519 
G01 X-60.2342 Y32.2881 
G01 X-60.2621 Y32.1479 
G01 X-60.3168 Y32.0158 
G01 X-60.3962 Y31.8969 
G01 X-60.4973 Y31.7958 
G01 X-60.6162 Y31.7164 
G01 X-60.7483 Y31.6617 
G01 X-60.8885 Y31.6338 
G01 X-61.0315 Y31.6338 
G01 X-61.1717 Y31.6617 
G01 X-61.3038 Y31.7164 
G01 X-61.4227 Y31.7958 
G01 X-61.5238 Y31.8969 
G01 X-61.6032 Y32.0158 
G01 X-61.6579 Y32.1479 
G01 X-61.6858 Y32.2881 
G00 Z2.5400 
G00 X-59.1458 Y32.2881 
G01 Z-0.1500 F254.00 
G01 X-59.1458 Y33.7519 F508.00 
G01 X-59.1179 Y33.8921 
G01 X-59.0632 Y34.0242 
G01 X-58.9838 Y34.1431 
G01 X-58.8827 Y34.2442 
G01 X-58.7638 Y34.3236 
G01 X-58.6317 Y34.3783 
G01 X-58.4915 Y34.4062 
G01 X-58.3485 Y34.4062 
G01 X-58.2083 Y34.3783 
G01 X-58.0762 Y34.3236 
G01 X-57.9573 Y34.2442 
G01 X-57.8562 Y34.1431 
G01 X-57.7768 Y34.0242 
G01 X-57.7221 Y33.8921 
G01 X-57.6942 Y33.7519 
G01 X-57.6942 Y32.2881 
G01 X-57.7221 Y32.1479 
G01 X-57.7768 Y32.0158 
G01 X-57.8562 Y31.8969 
G01 X-57.9573 Y31.7958 
G01 X-58.0762 Y31.7164 
G01 X-58.2083 Y31.6617 
G01 X-58.3485 Y31.6338 
G01 X-58.4915 Y31.6338 
G01 X-58.6317 Y31.6617 
G01 X-58.7638 Y31.7164 
G01 X-58.8827 Y31.7958 
G01 X-58.9838 Y31.8969 
G01 X-59.0632 Y32.0158 
G01 X-59.1179 Y32.1479 
G01 X-59.1458 Y32.2881 
G00 Z2.5400 
G00 X-54.0658 Y32.2881 
G01 Z-0.1500 F254.00 
G01 X-54.0658 Y33.7519 F508.00 
G01 X-54.0379 Y33.8921 
G01 X-53.9832 Y34.0242 
G01 X-53.9038 Y34.1431 
G01 X-53.8027 Y34.2442 
G01 X-53.6838 Y34.3236 
G01 X-53.5517 Y34.3783 
G01 X-53.4115 Y34.4062 
G01 X-53.2685 Y34.4062 
G01 X-53.1283 Y34.3783 
G01 X-52.9962 Y34.3236 
G01 X-52.8773 Y34.2442 
G01 X-52.7762 Y34.1431 
G01 X-52.6968 Y34.0242 
G01 X-52.6421 Y33.8921 
G01 X-52.6142 Y33.7519 
G01 X-52.6142 Y32.2881 
G01 X-52.6421 Y32.1479 
G01 X-52.6968 Y32.0158 
G01 X-52.7762 Y31.8969 
G01 X-52.8773 Y31.7958 
G01 X-52.9962 Y31.7164 
G01 X-53.1283 Y31.6617 
G01 X-53.2685 Y31.6338 
G01 X-53.4115 Y31.6338 
G01 X-53.5517 Y31.6617 
G01 X-53.6838 Y31.7164 
G01 X-53.8027 Y31.7958 
G01 X-53.9038 Y31.8969 
G01 X-53.9832 Y32.0158 
G01 X-54.0379 Y32.1479 
G01 X-54.0658 Y32.2881 
G00 Z2.5400 
G00 X-51.5258 Y32.2881 
G01 Z-0.1500 F254.00 
G01 X-51.5258 Y33.4005 F508.00 
G01 X-52.8599 Y34.7346 
G01 X-68.7411 Y34.7346 
G01 X-68.7912 Y34.6479 
G01 X-68.8979 Y34.5412 
G01 X-69.0287 Y34.4657 
G01 X-69.1745 Y34.4266 
G01 X-69.3255 Y34.4266 
G01 X-69.4713 Y34.4657 
G01 X-69.6021 Y34.5412 
G01 X-69.7088 Y34.6479 
G01 X-69.7843 Y34.7787 
G01 X-69.8234 Y34.9245 
G01 X-69.8234 Y35.0755 
G01 X-69.7843 Y35.2213 
G01 X-69.7088 Y35.3521 
G01 X-69.6021 Y35.4588 
G01 X-69.4713 Y35.5343 
G01 X-69.3255 Y35.5734 
G01 X-69.1745 Y35.5734 
G01 X-69.0287 Y35.5343 
G01 X-68.8979 Y35.4588 
G01 X-68.7912 Y35.3521 
G01 X-68.7411 Y35.2654 
G01 X-52.7151 Y35.2654 
G01 X-52.6476 Y35.2473 
G01 X-52.5870 Y35.2124 
G01 X-52.5376 Y35.1630 
G01 X-51.4254 Y34.0508 
G01 X-51.3638 Y34.1431 
G01 X-51.2627 Y34.2442 
G01 X-51.1438 Y34.3236 
G01 X-51.0117 Y34.3783 
G01 X-50.8715 Y34.4062 
G01 X-50.7285 Y34.4062 
G01 X-50.5883 Y34.3783 
G01 X-50.4562 Y34.3236 
G01 X-50.3373 Y34.2442 
G01 X-50.2362 Y34.1431 
G01 X-50.1568 Y34.0242 
G01 X-50.1021 Y33.8921 
G01 X-50.0742 Y33.7519 
G01 X-50.0742 Y32.2881 
G01 X-50.1021 Y32.1479 
G01 X-50.1568 Y32.0158 
G01 X-50.2362 Y31.8969 
G01 X-50.3373 Y31.7958 
G01 X-50.4562 Y31.7164 
G01 X-50.5883 Y31.6617 
G01 X-50.7285 Y31.6338 
G01 X-50.8715 Y31.6338 
G01 X-51.0117 Y31.6617 
G01 X-51.1438 Y31.7164 
G01 X-51.2627 Y31.7958 
G01 X-51.3638 Y31.8969 
G01 X-51.4432 Y32.0158 
G01 X-51.4979 Y32.1479 
G01 X-51.5258 Y32.2881 
G00 Z2.5400 
G00 X-48.9858 Y32.2881 
G01 Z-0.1500 F254.00 
G01 X-48.9858 Y33.7519 F508.00 
G01 X-48.9579 Y33.8921 
G01 X-48.9032 Y34.0242 
G01 X-48.8238 Y34.1431 
G01 X-48.7227 Y34.2442 
G01 X-48.6038 Y34.3236 
G01 X-48.4717 Y34.3783 
G01 X-48.3315 Y34.4062 
G01 X-48.1885 Y34.4062 
G01 X-48.0483 Y34.3783 
G01 X-47.9162 Y34.3236 
G01 X-47.7973 Y34.2442 
G01 X-47.6962 Y34.1431 
G01 X-47.6168 Y34.0242 
G01 X-47.5621 Y33.8921 
G01 X-47.5342 Y33.7519 
G01 X-47.5342 Y32.2881 
G01 X-47.5621 Y32.1479 
G01 X-47.6168 Y32.0158 
G01 X-47.6962 Y31.8969 
G01 X-47.7973 Y31.7958 
G01 X-47.9162 Y31.7164 
G01 X-48.0483 Y31.6617 
G01 X-48.1885 Y31.6338 
G01 X-48.3315 Y31.6338 
G01 X-48.4717 Y31.6617 
G01 X-48.6038 Y31.7164 
G01 X-48.7227 Y31.7958 
G01 X-48.8238 Y31.8969 
G01 X-48.9032 Y32.0158 
G01 X-48.9579 Y32.1479 
G01 X-48.9858 Y32.2881 
G00 Z2.5400 
G00 X-46.4458 Y32.2881 
G01 Z-0.1500 F254.00 
G01 X-46.4458 Y33.7519 F508.00 
G01 X-46.4179 Y33.8921 
G01 X-46.3632 Y34.0242 
G01 X-46.2838 Y34.1431 
G01 X-46.1827 Y34.2442 
G01 X-46.0638 Y34.3236 
G01 X-45.9317 Y34.3783 
G01 X-45.7915 Y34.4062 
G01 X-45.6485 Y34.4062 
G01 X-45.5083 Y34.3783 
G01 X-45.3762 Y34.3236 
G01 X-45.2573 Y34.2442 
G01 X-45.1562 Y34.1431 
G01 X-45.0768 Y34.0242 
G01 X-45.0221 Y33.8921 
G01 X-44.9942 Y33.7519 
G01 X-44.9942 Y32.2881 
G01 X-45.0221 Y32.1479 
G01 X-45.0768 Y32.0158 
G01 X-45.1562 Y31.8969 
G01 X-45.2573 Y31.7958 
G01 X-45.3762 Y31.7164 
G01 X-45.5083 Y31.6617 
G01 X-45.6485 Y31.6338 
G01 X-45.7915 Y31.6338 
G01 X-45.9317 Y31.6617 
G01 X-46.0638 Y31.7164 
G01 X-46.1827 Y31.7958 
G01 X-46.2838 Y31.8969 
G01 X-46.3632 Y32.0158 
G01 X-46.4179 Y32.1479 
G01 X-46.4458 Y32.2881 
G00 Z2.5400 
G00 X-41.3658 Y32.2881 
G01 Z-0.1500 F254.00 
G01 X-41.3658 Y33.7519 F508.00 
G01 X-41.3379 Y33.8921 
G01 X-41.2832 Y34.0242 
G01 X-41.2038 Y34.1431 
G01 X-41.1027 Y34.2442 
G01 X-40.9838 Y34.3236 
G01 X-40.8517 Y34.3783 
G01 X-40.7115 Y34.4062 
G01 X-40.5685 Y34.4062 
G01 X-40.4283 Y34.3783 
G01 X-40.2962 Y34.3236 
G01 X-40.1773 Y34.2442 
G01 X-40.0762 Y34.1431 
G01 X-39.9968 Y34.0242 
G01 X-39.9421 Y33.8921 
G01 X-39.9142 Y33.7519 
G01 X-39.9142 Y32.2881 
G01 X-39.9421 Y32.1479 
G01 X-39.9968 Y32.0158 
G01 X-40.0762 Y31.8969 
G01 X-40.1773 Y31.7958 
G01 X-40.2962 Y31.7164 
G01 X-40.4283 Y31.6617 
G01 X-40.5685 Y31.6338 
G01 X-40.7115 Y31.6338 
G01 X-40.8517 Y31.6617 
G01 X-40.9838 Y31.7164 
G01 X-41.1027 Y31.7958 
G01 X-41.2038 Y31.8969 
G01 X-41.2832 Y32.0158 
G01 X-41.3379 Y32.1479 
G01 X-41.3658 Y32.2881 
G00 Z2.5400 
G00 X-33.7458 Y33.7519 
G01 Z-0.1500 F254.00 
G01 X-33.7179 Y33.8921 F508.00 
G01 X-33.6632 Y34.0242 
G01 X-33.5838 Y34.1431 
G01 X-33.4827 Y34.2442 
G01 X-33.3638 Y34.3236 
G01 X-33.2317 Y34.3783 
G01 X-33.0915 Y34.4062 
G01 X-32.9485 Y34.4062 
G01 X-32.8083 Y34.3783 
G01 X-32.6762 Y34.3236 
G01 X-32.5573 Y34.2442 
G01 X-32.4562 Y34.1431 
G01 X-32.3768 Y34.0242 
G01 X-32.3221 Y33.8921 
G01 X-32.2942 Y33.7519 
G01 X-32.2942 Y32.2881 
G01 X-32.3221 Y32.1479 
G01 X-32.3768 Y32.0158 
G01 X-32.4562 Y31.8969 
G01 X-32.5573 Y31.7958 
G01 X-32.6762 Y31.7164 
G01 X-32.8083 Y31.6617 
G01 X-32.9485 Y31.6338 
G01 X-33.0915 Y31.6338 
G01 X-33.2317 Y31.6617 
G01 X-33.3638 Y31.7164 
G01 X-33.4827 Y31.7958 
G01 X-33.5838 Y31.8969 
G01 X-33.6632 Y32.0158 
G01 X-33.7179 Y32.1479 
G01 X-33.7194 Y32.1553 
G01 X-35.8370 Y30.0376 
G01 X-35.8976 Y30.0027 
G01 X-35.9651 Y29.9846 
G01 X-70.7849 Y29.9846 
G01 X-70.8524 Y30.0027 
G01 X-70.9130 Y30.0376 
G01 X-70.9624 Y30.0870 
G01 X-75.3278 Y34.4525 
G01 X-75.4245 Y34.4266 
G01 X-75.5755 Y34.4266 
G01 X-75.7213 Y34.4657 
G01 X-75.8521 Y34.5412 
G01 X-75.9588 Y34.6479 
G01 X-76.0343 Y34.7787 
G01 X-76.0734 Y34.9245 
G01 X-76.0734 Y35.0755 
G01 X-76.0343 Y35.2213 
G01 X-75.9588 Y35.3521 
G01 X-75.8521 Y35.4588 
G01 X-75.7213 Y35.5343 
G01 X-75.5755 Y35.5734 
G01 X-75.4245 Y35.5734 
G01 X-75.2787 Y35.5343 
G01 X-75.1479 Y35.4588 
G01 X-75.0412 Y35.3521 
G01 X-74.9657 Y35.2213 
G01 X-74.9266 Y35.0755 
G01 X-74.9266 Y34.9245 
G01 X-74.9525 Y34.8278 
G01 X-70.6401 Y30.5154 
G01 X-36.1099 Y30.5154 
G01 X-33.7458 Y32.8795 
G01 X-33.7458 Y33.7519 
G00 Z2.5400 
G00 X-31.2058 Y32.2881 
G01 Z-0.1500 F254.00 
G01 X-31.2058 Y33.7519 F508.00 
G01 X-31.1779 Y33.8921 
G01 X-31.1232 Y34.0242 
G01 X-31.0438 Y34.1431 
G01 X-30.9427 Y34.2442 
G01 X-30.8238 Y34.3236 
G01 X-30.6917 Y34.3783 
G01 X-30.5515 Y34.4062 
G01 X-30.4085 Y34.4062 
G01 X-30.2683 Y34.3783 
G01 X-30.1362 Y34.3236 
G01 X-30.0173 Y34.2442 
G01 X-29.9162 Y34.1431 
G01 X-29.8425 Y34.0328 
G01 X-28.2124 Y35.6630 
G01 X-28.1630 Y35.7124 
G01 X-28.1024 Y35.7473 
G01 X-28.0349 Y35.7654 
G01 X-19.3448 Y35.7654 
G01 X-19.3376 Y35.8013 
G01 X-19.2752 Y35.9519 
G01 X-19.1847 Y36.0874 
G01 X-19.0694 Y36.2027 
G01 X-18.9339 Y36.2932 
G01 X-18.7833 Y36.3556 
G01 X-18.6235 Y36.3874 
G01 X-16.9365 Y36.3874 
G01 X-16.7767 Y36.3556 
G01 X-16.6261 Y36.2932 
G01 X-16.4906 Y36.2027 
G01 X-16.3753 Y36.0874 
G01 X-16.2848 Y35.9519 
G01 X-16.2224 Y35.8013 
G01 X-16.1906 Y35.6415 
G01 X-16.1906 Y35.4785 
G01 X-16.2224 Y35.3187 
G01 X-16.2848 Y35.1681 
G01 X-16.3753 Y35.0326 
G01 X-16.4906 Y34.9173 
G01 X-16.6261 Y34.8268 
G01 X-16.7767 Y34.7644 
G01 X-16.9365 Y34.7326 
G01 X-18.6235 Y34.7326 
G01 X-18.7833 Y34.7644 
G01 X-18.9339 Y34.8268 
G01 X-19.0694 Y34.9173 
G01 X-19.1847 Y35.0326 
G01 X-19.2752 Y35.1681 
G01 X-19.3028 Y35.2346 
G01 X-27.8901 Y35.2346 
G01 X-29.7542 Y33.3705 
G01 X-29.7542 Y32.2881 
G01 X-29.7821 Y32.1479 
G01 X-29.8368 Y32.0158 
G01 X-29.9162 Y31.8969 
G01 X-30.0173 Y31.7958 
G01 X-30.1362 Y31.7164 
G01 X-30.2683 Y31.6617 
G01 X-30.4085 Y31.6338 
G01 X-30.5515 Y31.6338 
G01 X-30.6917 Y31.6617 
G01 X-30.8238 Y31.7164 
G01 X-30.9427 Y31.7958 
G01 X-31.0438 Y31.8969 
G01 X-31.1232 Y32.0158 
G01 X-31.1779 Y32.1479 
G01 X-31.2058 Y32.2881 
G00 Z2.5400 
G00 X-31.2058 Y24.6681 
G01 Z-0.1500 F254.00 
G01 X-31.2058 Y26.1319 F508.00 
G01 X-31.1779 Y26.2721 
G01 X-31.1232 Y26.4042 
G01 X-31.0438 Y26.5231 
G01 X-30.9427 Y26.6242 
G01 X-30.8238 Y26.7036 
G01 X-30.6917 Y26.7583 
G01 X-30.5515 Y26.7862 
G01 X-30.4085 Y26.7862 
G01 X-30.2683 Y26.7583 
G01 X-30.1362 Y26.7036 
G01 X-30.0173 Y26.6242 
G01 X-29.9162 Y26.5231 
G01 X-29.8368 Y26.4042 
G01 X-29.8029 Y26.3224 
G01 X-29.2124 Y26.9130 
G01 X-29.1630 Y26.9624 
G01 X-29.1024 Y26.9973 
G01 X-29.0349 Y27.0154 
G01 X-24.7589 Y27.0154 
G01 X-24.7088 Y27.1021 
G01 X-24.6021 Y27.2088 
G01 X-24.4713 Y27.2843 
G01 X-24.3255 Y27.3234 
G01 X-24.1745 Y27.3234 
G01 X-24.0287 Y27.2843 
G01 X-23.8979 Y27.2088 
G01 X-23.7912 Y27.1021 
G01 X-23.7157 Y26.9713 
G01 X-23.6766 Y26.8255 
G01 X-23.6766 Y26.6745 
G01 X-23.7157 Y26.5287 
G01 X-23.7912 Y26.3979 
G01 X-23.8979 Y26.2912 
G01 X-24.0287 Y26.2157 
G01 X-24.1745 Y26.1766 
G01 X-24.3255 Y26.1766 
G01 X-24.4713 Y26.2157 
G01 X-24.6021 Y26.2912 
G01 X-24.7088 Y26.3979 
G01 X-24.7589 Y26.4846 
G01 X-28.8901 Y26.4846 
G01 X-29.7542 Y25.6205 
G01 X-29.7542 Y24.6681 
G01 X-29.7821 Y24.5279 
G01 X-29.8368 Y24.3958 
G01 X-29.9162 Y24.2769 
G01 X-30.0173 Y24.1758 
G01 X-30.1362 Y24.0964 
G01 X-30.2683 Y24.0417 
G01 X-30.4085 Y24.0138 
G01 X-30.5515 Y24.0138 
G01 X-30.6917 Y24.0417 
G01 X-30.8238 Y24.0964 
G01 X-30.9427 Y24.1758 
G01 X-31.0438 Y24.2769 
G01 X-31.1232 Y24.3958 
G01 X-31.1779 Y24.5279 
G01 X-31.2058 Y24.6681 
G00 Z2.5400 
G00 X-33.7458 Y24.6681 
G01 Z-0.1500 F254.00 
G01 X-33.7458 Y26.1319 F508.00 
G01 X-33.7179 Y26.2721 
G01 X-33.6632 Y26.4042 
G01 X-33.5838 Y26.5231 
G01 X-33.4827 Y26.6242 
G01 X-33.3638 Y26.7036 
G01 X-33.2317 Y26.7583 
G01 X-33.0915 Y26.7862 
G01 X-32.9485 Y26.7862 
G01 X-32.8083 Y26.7583 
G01 X-32.6762 Y26.7036 
G01 X-32.5573 Y26.6242 
G01 X-32.4562 Y26.5231 
G01 X-32.3768 Y26.4042 
G01 X-32.3221 Y26.2721 
G01 X-32.2942 Y26.1319 
G01 X-32.2942 Y24.6681 
G01 X-32.3221 Y24.5279 
G01 X-32.3768 Y24.3958 
G01 X-32.4562 Y24.2769 
G01 X-32.5573 Y24.1758 
G01 X-32.6762 Y24.0964 
G01 X-32.8083 Y24.0417 
G01 X-32.9485 Y24.0138 
G01 X-33.0915 Y24.0138 
G01 X-33.2317 Y24.0417 
G01 X-33.3638 Y24.0964 
G01 X-33.4827 Y24.1758 
G01 X-33.5838 Y24.2769 
G01 X-33.6632 Y24.3958 
G01 X-33.7179 Y24.5279 
G01 X-33.7458 Y24.6681 
G00 Z2.5400 
G00 X-36.2858 Y24.6681 
G01 Z-0.1500 F254.00 
G01 X-36.2858 Y26.1319 F508.00 
G01 X-36.2579 Y26.2721 
G01 X-36.2032 Y26.4042 
G01 X-36.1238 Y26.5231 
G01 X-36.0227 Y26.6242 
G01 X-35.9038 Y26.7036 
G01 X-35.7717 Y26.7583 
G01 X-35.6315 Y26.7862 
G01 X-35.4885 Y26.7862 
G01 X-35.3483 Y26.7583 
G01 X-35.2162 Y26.7036 
G01 X-35.0973 Y26.6242 
G01 X-34.9962 Y26.5231 
G01 X-34.9168 Y26.4042 
G01 X-34.8621 Y26.2721 
G01 X-34.8342 Y26.1319 
G01 X-34.8342 Y24.6681 
G01 X-34.8621 Y24.5279 
G01 X-34.9168 Y24.3958 
G01 X-34.9962 Y24.2769 
G01 X-35.0973 Y24.1758 
G01 X-35.2162 Y24.0964 
G01 X-35.3483 Y24.0417 
G01 X-35.4885 Y24.0138 
G01 X-35.6315 Y24.0138 
G01 X-35.7717 Y24.0417 
G01 X-35.9038 Y24.0964 
G01 X-36.0227 Y24.1758 
G01 X-36.1238 Y24.2769 
G01 X-36.2032 Y24.3958 
G01 X-36.2579 Y24.5279 
G01 X-36.2858 Y24.6681 
G00 Z2.5400 
G00 X-38.8258 Y24.6681 
G01 Z-0.1500 F254.00 
G01 X-38.8258 Y26.1319 F508.00 
G01 X-38.7979 Y26.2721 
G01 X-38.7432 Y26.4042 
G01 X-38.6638 Y26.5231 
G01 X-38.5627 Y26.6242 
G01 X-38.4438 Y26.7036 
G01 X-38.3117 Y26.7583 
G01 X-38.1715 Y26.7862 
G01 X-38.0285 Y26.7862 
G01 X-37.8883 Y26.7583 
G01 X-37.7562 Y26.7036 
G01 X-37.6373 Y26.6242 
G01 X-37.5362 Y26.5231 
G01 X-37.4568 Y26.4042 
G01 X-37.4021 Y26.2721 
G01 X-37.3742 Y26.1319 
G01 X-37.3742 Y24.6681 
G01 X-37.4021 Y24.5279 
G01 X-37.4568 Y24.3958 
G01 X-37.5362 Y24.2769 
G01 X-37.6373 Y24.1758 
G01 X-37.7562 Y24.0964 
G01 X-37.8883 Y24.0417 
G01 X-38.0285 Y24.0138 
G01 X-38.1715 Y24.0138 
G01 X-38.3117 Y24.0417 
G01 X-38.4438 Y24.0964 
G01 X-38.5627 Y24.1758 
G01 X-38.6638 Y24.2769 
G01 X-38.7432 Y24.3958 
G01 X-38.7979 Y24.5279 
G01 X-38.8258 Y24.6681 
G00 Z2.5400 
G00 X-43.9058 Y24.6681 
G01 Z-0.1500 F254.00 
G01 X-43.9058 Y26.1319 F508.00 
G01 X-43.8779 Y26.2721 
G01 X-43.8232 Y26.4042 
G01 X-43.7438 Y26.5231 
G01 X-43.6427 Y26.6242 
G01 X-43.5238 Y26.7036 
G01 X-43.3917 Y26.7583 
G01 X-43.2515 Y26.7862 
G01 X-43.1085 Y26.7862 
G01 X-42.9683 Y26.7583 
G01 X-42.8362 Y26.7036 
G01 X-42.7173 Y26.6242 
G01 X-42.6162 Y26.5231 
G01 X-42.5368 Y26.4042 
G01 X-42.4821 Y26.2721 
G01 X-42.4542 Y26.1319 
G01 X-42.4542 Y24.6681 
G01 X-42.4821 Y24.5279 
G01 X-42.5368 Y24.3958 
G01 X-42.6162 Y24.2769 
G01 X-42.7173 Y24.1758 
G01 X-42.8362 Y24.0964 
G01 X-42.9683 Y24.0417 
G01 X-43.1085 Y24.0138 
G01 X-43.2515 Y24.0138 
G01 X-43.3917 Y24.0417 
G01 X-43.5238 Y24.0964 
G01 X-43.6427 Y24.1758 
G01 X-43.7438 Y24.2769 
G01 X-43.8232 Y24.3958 
G01 X-43.8779 Y24.5279 
G01 X-43.9058 Y24.6681 
G00 Z2.5400 
G00 X-46.4458 Y24.6681 
G01 Z-0.1500 F254.00 
G01 X-46.4458 Y26.1319 F508.00 
G01 X-46.4179 Y26.2721 
G01 X-46.3632 Y26.4042 
G01 X-46.2838 Y26.5231 
G01 X-46.1827 Y26.6242 
G01 X-46.0638 Y26.7036 
G01 X-45.9317 Y26.7583 
G01 X-45.7915 Y26.7862 
G01 X-45.6485 Y26.7862 
G01 X-45.5083 Y26.7583 
G01 X-45.3762 Y26.7036 
G01 X-45.2573 Y26.6242 
G01 X-45.1562 Y26.5231 
G01 X-45.0768 Y26.4042 
G01 X-45.0221 Y26.2721 
G01 X-44.9942 Y26.1319 
G01 X-44.9942 Y24.6681 
G01 X-45.0221 Y24.5279 
G01 X-45.0768 Y24.3958 
G01 X-45.1562 Y24.2769 
G01 X-45.2573 Y24.1758 
G01 X-45.3762 Y24.0964 
G01 X-45.5083 Y24.0417 
G01 X-45.6485 Y24.0138 
G01 X-45.7915 Y24.0138 
G01 X-45.9317 Y24.0417 
G01 X-46.0638 Y24.0964 
G01 X-46.1827 Y24.1758 
G01 X-46.2838 Y24.2769 
G01 X-46.3632 Y24.3958 
G01 X-46.4179 Y24.5279 
G01 X-46.4458 Y24.6681 
G00 Z2.5400 
G00 X-48.9858 Y24.6681 
G01 Z-0.1500 F254.00 
G01 X-48.9858 Y26.1319 F508.00 
G01 X-48.9579 Y26.2721 
G01 X-48.9032 Y26.4042 
G01 X-48.8238 Y26.5231 
G01 X-48.7227 Y26.6242 
G01 X-48.6038 Y26.7036 
G01 X-48.4717 Y26.7583 
G01 X-48.3315 Y26.7862 
G01 X-48.1885 Y26.7862 
G01 X-48.0483 Y26.7583 
G01 X-47.9162 Y26.7036 
G01 X-47.7973 Y26.6242 
G01 X-47.6962 Y26.5231 
G01 X-47.6168 Y26.4042 
G01 X-47.5621 Y26.2721 
G01 X-47.5342 Y26.1319 
G01 X-47.5342 Y24.6681 
G01 X-47.5621 Y24.5279 
G01 X-47.6168 Y24.3958 
G01 X-47.6962 Y24.2769 
G01 X-47.7973 Y24.1758 
G01 X-47.9162 Y24.0964 
G01 X-48.0483 Y24.0417 
G01 X-48.1885 Y24.0138 
G01 X-48.3315 Y24.0138 
G01 X-48.4717 Y24.0417 
G01 X-48.6038 Y24.0964 
G01 X-48.7227 Y24.1758 
G01 X-48.8238 Y24.2769 
G01 X-48.9032 Y24.3958 
G01 X-48.9579 Y24.5279 
G01 X-48.9858 Y24.6681 
G00 Z2.5400 
G00 X-51.5258 Y24.6681 
G01 Z-0.1500 F254.00 
G01 X-51.5258 Y26.1319 F508.00 
G01 X-51.4979 Y26.2721 
G01 X-51.4432 Y26.4042 
G01 X-51.3638 Y26.5231 
G01 X-51.2627 Y26.6242 
G01 X-51.1438 Y26.7036 
G01 X-51.0117 Y26.7583 
G01 X-50.8715 Y26.7862 
G01 X-50.7285 Y26.7862 
G01 X-50.5883 Y26.7583 
G01 X-50.4562 Y26.7036 
G01 X-50.3373 Y26.6242 
G01 X-50.2362 Y26.5231 
G01 X-50.1568 Y26.4042 
G01 X-50.1021 Y26.2721 
G01 X-50.0742 Y26.1319 
G01 X-50.0742 Y24.9495 
G01 X-48.8901 Y23.7654 
G01 X-19.8599 Y23.7654 
G01 X-18.9487 Y24.6766 
G01 X-19.0694 Y24.7573 
G01 X-19.1847 Y24.8726 
G01 X-19.2752 Y25.0081 
G01 X-19.3376 Y25.1587 
G01 X-19.3694 Y25.3185 
G01 X-19.3694 Y25.4815 
G01 X-19.3376 Y25.6413 
G01 X-19.2752 Y25.7919 
G01 X-19.1847 Y25.9274 
G01 X-19.0694 Y26.0427 
G01 X-18.9339 Y26.1332 
G01 X-18.7833 Y26.1956 
G01 X-18.6235 Y26.2274 
G01 X-16.9365 Y26.2274 
G01 X-16.7767 Y26.1956 
G01 X-16.6261 Y26.1332 
G01 X-16.4906 Y26.0427 
G01 X-16.3753 Y25.9274 
G01 X-16.2848 Y25.7919 
G01 X-16.2224 Y25.6413 
G01 X-16.1906 Y25.4815 
G01 X-16.1906 Y25.3185 
G01 X-16.2224 Y25.1587 
G01 X-16.2848 Y25.0081 
G01 X-16.3753 Y24.8726 
G01 X-16.4906 Y24.7573 
G01 X-16.6261 Y24.6668 
G01 X-16.7767 Y24.6044 
G01 X-16.9365 Y24.5726 
G01 X-18.3021 Y24.5726 
G01 X-19.5870 Y23.2876 
G01 X-19.6476 Y23.2527 
G01 X-19.7151 Y23.2346 
G01 X-49.0349 Y23.2346 
G01 X-49.1024 Y23.2527 
G01 X-49.1630 Y23.2876 
G01 X-49.2124 Y23.3370 
G01 X-50.2026 Y24.3273 
G01 X-50.2362 Y24.2769 
G01 X-50.3373 Y24.1758 
G01 X-50.4562 Y24.0964 
G01 X-50.5883 Y24.0417 
G01 X-50.7285 Y24.0138 
G01 X-50.8715 Y24.0138 
G01 X-51.0117 Y24.0417 
G01 X-51.1438 Y24.0964 
G01 X-51.2627 Y24.1758 
G01 X-51.3638 Y24.2769 
G01 X-51.4432 Y24.3958 
G01 X-51.4979 Y24.5279 
G01 X-51.5258 Y24.6681 
G00 Z2.5400 
G00 X-54.0658 Y24.6681 
G01 Z-0.1500 F254.00 
G01 X-54.0658 Y26.1319 F508.00 
G01 X-54.0379 Y26.2721 
G01 X-53.9832 Y26.4042 
G01 X-53.9038 Y26.5231 
G01 X-53.8027 Y26.6242 
G01 X-53.6838 Y26.7036 
G01 X-53.5517 Y26.7583 
G01 X-53.4115 Y26.7862 
G01 X-53.2685 Y26.7862 
G01 X-53.1283 Y26.7583 
G01 X-52.9962 Y26.7036 
G01 X-52.8773 Y26.6242 
G01 X-52.7762 Y26.5231 
G01 X-52.6968 Y26.4042 
G01 X-52.6421 Y26.2721 
G01 X-52.6142 Y26.1319 
G01 X-52.6142 Y24.9895 
G01 X-50.6401 Y23.0154 
G01 X-19.3547 Y23.0154 
G01 X-19.3376 Y23.1013 
G01 X-19.2752 Y23.2519 
G01 X-19.1847 Y23.3874 
G01 X-19.0694 Y23.5027 
G01 X-18.9339 Y23.5932 
G01 X-18.7833 Y23.6556 
G01 X-18.6235 Y23.6874 
G01 X-16.9365 Y23.6874 
G01 X-16.7767 Y23.6556 
G01 X-16.6261 Y23.5932 
G01 X-16.4906 Y23.5027 
G01 X-16.3753 Y23.3874 
G01 X-16.2848 Y23.2519 
G01 X-16.2224 Y23.1013 
G01 X-16.1906 Y22.9415 
G01 X-16.1906 Y22.7785 
G01 X-16.2224 Y22.6187 
G01 X-16.2848 Y22.4681 
G01 X-16.3753 Y22.3326 
G01 X-16.4906 Y22.2173 
G01 X-16.6261 Y22.1268 
G01 X-16.7767 Y22.0644 
G01 X-16.9365 Y22.0326 
G01 X-18.6235 Y22.0326 
G01 X-18.7833 Y22.0644 
G01 X-18.9339 Y22.1268 
G01 X-19.0694 Y22.2173 
G01 X-19.1847 Y22.3326 
G01 X-19.2752 Y22.4681 
G01 X-19.2821 Y22.4846 
G01 X-50.7849 Y22.4846 
G01 X-50.8524 Y22.5027 
G01 X-50.9130 Y22.5376 
G01 X-50.9624 Y22.5870 
G01 X-52.7266 Y24.3512 
G01 X-52.7762 Y24.2769 
G01 X-52.8773 Y24.1758 
G01 X-52.9962 Y24.0964 
G01 X-53.1283 Y24.0417 
G01 X-53.2685 Y24.0138 
G01 X-53.4115 Y24.0138 
G01 X-53.5517 Y24.0417 
G01 X-53.6838 Y24.0964 
G01 X-53.8027 Y24.1758 
G01 X-53.9038 Y24.2769 
G01 X-53.9832 Y24.3958 
G01 X-54.0379 Y24.5279 
G01 X-54.0658 Y24.6681 
G00 Z2.5400 
G00 X-56.6058 Y24.6681 
G01 Z-0.1500 F254.00 
G01 X-56.6058 Y26.1319 F508.00 
G01 X-56.5779 Y26.2721 
G01 X-56.5232 Y26.4042 
G01 X-56.4438 Y26.5231 
G01 X-56.3427 Y26.6242 
G01 X-56.2238 Y26.7036 
G01 X-56.0917 Y26.7583 
G01 X-55.9515 Y26.7862 
G01 X-55.8085 Y26.7862 
G01 X-55.6683 Y26.7583 
G01 X-55.5362 Y26.7036 
G01 X-55.4173 Y26.6242 
G01 X-55.3162 Y26.5231 
G01 X-55.2368 Y26.4042 
G01 X-55.1821 Y26.2721 
G01 X-55.1542 Y26.1319 
G01 X-55.1542 Y24.6681 
G01 X-55.1821 Y24.5279 
G01 X-55.2368 Y24.3958 
G01 X-55.3162 Y24.2769 
G01 X-55.4173 Y24.1758 
G01 X-55.5362 Y24.0964 
G01 X-55.6683 Y24.0417 
G01 X-55.8085 Y24.0138 
G01 X-55.9515 Y24.0138 
G01 X-56.0917 Y24.0417 
G01 X-56.2238 Y24.0964 
G01 X-56.3427 Y24.1758 
G01 X-56.4438 Y24.2769 
G01 X-56.5232 Y24.3958 
G01 X-56.5779 Y24.5279 
G01 X-56.6058 Y24.6681 
G00 Z2.5400 
G00 X-59.1458 Y24.6681 
G01 Z-0.1500 F254.00 
G01 X-59.1458 Y26.1319 F508.00 
G01 X-59.1179 Y26.2721 
G01 X-59.0632 Y26.4042 
G01 X-58.9838 Y26.5231 
G01 X-58.8827 Y26.6242 
G01 X-58.7638 Y26.7036 
G01 X-58.6317 Y26.7583 
G01 X-58.4915 Y26.7862 
G01 X-58.3485 Y26.7862 
G01 X-58.2083 Y26.7583 
G01 X-58.0762 Y26.7036 
G01 X-57.9573 Y26.6242 
G01 X-57.8562 Y26.5231 
G01 X-57.7768 Y26.4042 
G01 X-57.7221 Y26.2721 
G01 X-57.6942 Y26.1319 
G01 X-57.6942 Y24.6681 
G01 X-57.7221 Y24.5279 
G01 X-57.7768 Y24.3958 
G01 X-57.8562 Y24.2769 
G01 X-57.9573 Y24.1758 
G01 X-58.0762 Y24.0964 
G01 X-58.2083 Y24.0417 
G01 X-58.3485 Y24.0138 
G01 X-58.4915 Y24.0138 
G01 X-58.6317 Y24.0417 
G01 X-58.7638 Y24.0964 
G01 X-58.8827 Y24.1758 
G01 X-58.9838 Y24.2769 
G01 X-59.0632 Y24.3958 
G01 X-59.1179 Y24.5279 
G01 X-59.1458 Y24.6681 
G00 Z2.5400 
G00 X-61.6858 Y24.6681 
G01 Z-0.1500 F254.00 
G01 X-61.6858 Y26.1319 F508.00 
G01 X-61.6579 Y26.2721 
G01 X-61.6032 Y26.4042 
G01 X-61.5238 Y26.5231 
G01 X-61.4227 Y26.6242 
G01 X-61.3038 Y26.7036 
G01 X-61.1717 Y26.7583 
G01 X-61.0315 Y26.7862 
G01 X-60.8885 Y26.7862 
G01 X-60.7483 Y26.7583 
G01 X-60.6162 Y26.7036 
G01 X-60.4973 Y26.6242 
G01 X-60.3962 Y26.5231 
G01 X-60.3168 Y26.4042 
G01 X-60.2621 Y26.2721 
G01 X-60.2342 Y26.1319 
G01 X-60.2342 Y24.6681 
G01 X-60.2621 Y24.5279 
G01 X-60.3168 Y24.3958 
G01 X-60.3962 Y24.2769 
G01 X-60.4973 Y24.1758 
G01 X-60.6162 Y24.0964 
G01 X-60.7483 Y24.0417 
G01 X-60.8885 Y24.0138 
G01 X-61.0315 Y24.0138 
G01 X-61.1717 Y24.0417 
G01 X-61.3038 Y24.0964 
G01 X-61.4227 Y24.1758 
G01 X-61.5238 Y24.2769 
G01 X-61.6032 Y24.3958 
G01 X-61.6579 Y24.5279 
G01 X-61.6858 Y24.6681 
G00 Z2.5400 
G00 X-64.2258 Y24.6681 
G01 Z-0.1500 F254.00 
G01 X-64.2258 Y26.1319 F508.00 
G01 X-64.1979 Y26.2721 
G01 X-64.1432 Y26.4042 
G01 X-64.0638 Y26.5231 
G01 X-63.9627 Y26.6242 
G01 X-63.8438 Y26.7036 
G01 X-63.7117 Y26.7583 
G01 X-63.5715 Y26.7862 
G01 X-63.4285 Y26.7862 
G01 X-63.2883 Y26.7583 
G01 X-63.1562 Y26.7036 
G01 X-63.0373 Y26.6242 
G01 X-62.9362 Y26.5231 
G01 X-62.8568 Y26.4042 
G01 X-62.8021 Y26.2721 
G01 X-62.7742 Y26.1319 
G01 X-62.7742 Y24.6681 
G01 X-62.8021 Y24.5279 
G01 X-62.8568 Y24.3958 
G01 X-62.9362 Y24.2769 
G01 X-63.0373 Y24.1758 
G01 X-63.1562 Y24.0964 
G01 X-63.2883 Y24.0417 
G01 X-63.4285 Y24.0138 
G01 X-63.5715 Y24.0138 
G01 X-63.7117 Y24.0417 
G01 X-63.8438 Y24.0964 
G01 X-63.9627 Y24.1758 
G01 X-64.0638 Y24.2769 
G01 X-64.1432 Y24.3958 
G01 X-64.1979 Y24.5279 
G01 X-64.2258 Y24.6681 
G00 Z2.5400 
G00 X-10.6064 Y42.0904 
G01 Z-0.1500 F254.00 
G01 X-10.6064 Y42.2884 F508.00 
G01 X-10.5678 Y42.4826 
G01 X-10.5063 Y42.6310 
G01 X-11.1099 Y43.2346 
G01 X-51.7411 Y43.2346 
G01 X-51.7912 Y43.1479 
G01 X-51.8979 Y43.0412 
G01 X-52.0287 Y42.9657 
G01 X-52.1745 Y42.9266 
G01 X-52.3255 Y42.9266 
G01 X-52.4713 Y42.9657 
G01 X-52.6021 Y43.0412 
G01 X-52.7088 Y43.1479 
G01 X-52.7843 Y43.2787 
G01 X-52.8234 Y43.4245 
G01 X-52.8234 Y43.5755 
G01 X-52.7843 Y43.7213 
G01 X-52.7088 Y43.8521 
G01 X-52.6021 Y43.9588 
G01 X-52.4713 Y44.0343 
G01 X-52.3255 Y44.0734 
G01 X-52.1745 Y44.0734 
G01 X-52.0287 Y44.0343 
G01 X-51.8979 Y43.9588 
G01 X-51.7912 Y43.8521 
G01 X-51.7411 Y43.7654 
G01 X-10.9651 Y43.7654 
G01 X-10.8976 Y43.7473 
G01 X-10.8370 Y43.7124 
G01 X-10.7876 Y43.6630 
G01 X-10.1538 Y43.0291 
G01 X-10.0773 Y43.0802 
G01 X-9.8944 Y43.1560 
G01 X-9.7002 Y43.1946 
G01 X-9.5022 Y43.1946 
G01 X-9.3080 Y43.1560 
G01 X-9.1251 Y43.0802 
G01 X-8.9604 Y42.9702 
G01 X-8.8204 Y42.8302 
G01 X-8.7104 Y42.6655 
G01 X-8.6346 Y42.4826 
G01 X-8.5960 Y42.2884 
G01 X-8.5960 Y42.0904 
G01 X-8.6346 Y41.8962 
G01 X-8.7104 Y41.7133 
G01 X-8.8204 Y41.5486 
G01 X-8.9604 Y41.4086 
G01 X-9.1251 Y41.2986 
G01 X-9.3080 Y41.2228 
G01 X-9.5022 Y41.1842 
G01 X-9.7002 Y41.1842 
G01 X-9.8944 Y41.2228 
G01 X-10.0773 Y41.2986 
G01 X-10.2420 Y41.4086 
G01 X-10.3820 Y41.5486 
G01 X-10.4920 Y41.7133 
G01 X-10.5678 Y41.8962 
G01 X-10.6064 Y42.0904 
G00 Z2.5400 
G00 X-4.1040 Y42.0904 
G01 Z-0.1500 F254.00 
G01 X-4.1040 Y42.2884 F508.00 
G01 X-4.0654 Y42.4826 
G01 X-3.9896 Y42.6655 
G01 X-3.8796 Y42.8302 
G01 X-3.7396 Y42.9702 
G01 X-3.5749 Y43.0802 
G01 X-3.3920 Y43.1560 
G01 X-3.1978 Y43.1946 
G01 X-2.9998 Y43.1946 
G01 X-2.8056 Y43.1560 
G01 X-2.6227 Y43.0802 
G01 X-2.4580 Y42.9702 
G01 X-2.3180 Y42.8302 
G01 X-2.2080 Y42.6655 
G01 X-2.1322 Y42.4826 
G01 X-2.0936 Y42.2884 
G01 X-2.0936 Y42.0904 
G01 X-2.1322 Y41.8962 
G01 X-2.2080 Y41.7133 
G01 X-2.3180 Y41.5486 
G01 X-2.4580 Y41.4086 
G01 X-2.6227 Y41.2986 
G01 X-2.8056 Y41.2228 
G01 X-2.9998 Y41.1842 
G01 X-3.1978 Y41.1842 
G01 X-3.3920 Y41.2228 
G01 X-3.5749 Y41.2986 
G01 X-3.7396 Y41.4086 
G01 X-3.8796 Y41.5486 
G01 X-3.9896 Y41.7133 
G01 X-4.0654 Y41.8962 
G01 X-4.1040 Y42.0904 
G00 Z2.5400 
G00 X-10.6064 Y46.6116 
G01 Z-0.1500 F254.00 
G01 X-10.6064 Y46.8096 F508.00 
G01 X-10.5678 Y47.0038 
G01 X-10.4920 Y47.1867 
G01 X-10.3820 Y47.3514 
G01 X-10.2420 Y47.4914 
G01 X-10.0773 Y47.6014 
G01 X-9.8944 Y47.6772 
G01 X-9.7002 Y47.7158 
G01 X-9.5022 Y47.7158 
G01 X-9.3080 Y47.6772 
G01 X-9.1251 Y47.6014 
G01 X-8.9604 Y47.4914 
G01 X-8.8204 Y47.3514 
G01 X-8.7104 Y47.1867 
G01 X-8.6346 Y47.0038 
G01 X-8.5960 Y46.8096 
G01 X-8.5960 Y46.6116 
G01 X-8.6346 Y46.4174 
G01 X-8.7104 Y46.2345 
G01 X-8.8204 Y46.0698 
G01 X-8.9604 Y45.9298 
G01 X-9.1251 Y45.8198 
G01 X-9.3080 Y45.7440 
G01 X-9.5022 Y45.7054 
G01 X-9.7002 Y45.7054 
G01 X-9.8944 Y45.7440 
G01 X-10.0773 Y45.8198 
G01 X-10.2420 Y45.9298 
G01 X-10.3820 Y46.0698 
G01 X-10.4920 Y46.2345 
G01 X-10.5678 Y46.4174 
G01 X-10.6064 Y46.6116 
G00 Z2.5400 
G00 X-4.1040 Y46.6116 
G01 Z-0.1500 F254.00 
G01 X-4.1040 Y46.8096 F508.00 
G01 X-4.0654 Y47.0038 
G01 X-3.9896 Y47.1867 
G01 X-3.8796 Y47.3514 
G01 X-3.7396 Y47.4914 
G01 X-3.5749 Y47.6014 
G01 X-3.3920 Y47.6772 
G01 X-3.1978 Y47.7158 
G01 X-2.9998 Y47.7158 
G01 X-2.8056 Y47.6772 
G01 X-2.6227 Y47.6014 
G01 X-2.4580 Y47.4914 
G01 X-2.3180 Y47.3514 
G01 X-2.2080 Y47.1867 
G01 X-2.1322 Y47.0038 
G01 X-2.0936 Y46.8096 
G01 X-2.0936 Y46.6116 
G01 X-2.1322 Y46.4174 
G01 X-2.2080 Y46.2345 
G01 X-2.3180 Y46.0698 
G01 X-2.4580 Y45.9298 
G01 X-2.6227 Y45.8198 
G01 X-2.8056 Y45.7440 
G01 X-2.9998 Y45.7054 
G01 X-3.1978 Y45.7054 
G01 X-3.3920 Y45.7440 
G01 X-3.5749 Y45.8198 
G01 X-3.7396 Y45.9298 
G01 X-3.8796 Y46.0698 
G01 X-3.9896 Y46.2345 
G01 X-4.0654 Y46.4174 
G01 X-4.1040 Y46.6116 
G00 Z2.5400 
G00 X-60.2144 Y62.5228 
G01 Z-0.1500 F254.00 
G01 X-60.2144 Y64.1372 F508.00 
G01 X-60.1839 Y64.2907 
G01 X-60.1240 Y64.4353 
G01 X-60.0370 Y64.5654 
G01 X-59.9264 Y64.6760 
G01 X-59.7963 Y64.7630 
G01 X-59.6517 Y64.8229 
G01 X-59.4982 Y64.8534 
G01 X-59.3418 Y64.8534 
G01 X-59.1883 Y64.8229 
G01 X-59.0437 Y64.7630 
G01 X-58.9136 Y64.6760 
G01 X-58.8030 Y64.5654 
G01 X-58.7160 Y64.4353 
G01 X-58.6561 Y64.2907 
G01 X-58.6256 Y64.1372 
G01 X-58.6256 Y62.5228 
G01 X-58.6561 Y62.3693 
G01 X-58.7160 Y62.2247 
G01 X-58.8030 Y62.0946 
G01 X-58.9136 Y61.9840 
G01 X-59.0437 Y61.8970 
G01 X-59.1883 Y61.8371 
G01 X-59.3418 Y61.8066 
G01 X-59.4982 Y61.8066 
G01 X-59.6517 Y61.8371 
G01 X-59.7963 Y61.8970 
G01 X-59.9264 Y61.9840 
G01 X-60.0370 Y62.0946 
G01 X-60.1240 Y62.2247 
G01 X-60.1839 Y62.3693 
G01 X-60.2144 Y62.5228 
G00 Z2.5400 
G00 X-58.2144 Y62.5228 
G01 Z-0.1500 F254.00 
G01 X-58.2144 Y64.1372 F508.00 
G01 X-58.1839 Y64.2907 
G01 X-58.1240 Y64.4353 
G01 X-58.0370 Y64.5654 
G01 X-57.9264 Y64.6760 
G01 X-57.7963 Y64.7630 
G01 X-57.6517 Y64.8229 
G01 X-57.4982 Y64.8534 
G01 X-57.3418 Y64.8534 
G01 X-57.1883 Y64.8229 
G01 X-57.0437 Y64.7630 
G01 X-56.9136 Y64.6760 
G01 X-56.8030 Y64.5654 
G01 X-56.7160 Y64.4353 
G01 X-56.6561 Y64.2907 
G01 X-56.6256 Y64.1372 
G01 X-56.6256 Y62.5228 
G01 X-56.6561 Y62.3693 
G01 X-56.7160 Y62.2247 
G01 X-56.8030 Y62.0946 
G01 X-56.9136 Y61.9840 
G01 X-57.0437 Y61.8970 
G01 X-57.1883 Y61.8371 
G01 X-57.3418 Y61.8066 
G01 X-57.4982 Y61.8066 
G01 X-57.6517 Y61.8371 
G01 X-57.7963 Y61.8970 
G01 X-57.9264 Y61.9840 
G01 X-58.0370 Y62.0946 
G01 X-58.1240 Y62.2247 
G01 X-58.1839 Y62.3693 
G01 X-58.2144 Y62.5228 
G00 Z2.5400 
G00 X-62.7144 Y62.5228 
G01 Z-0.1500 F254.00 
G01 X-62.7144 Y64.1372 F508.00 
G01 X-62.6839 Y64.2907 
G01 X-62.6240 Y64.4353 
G01 X-62.5370 Y64.5654 
G01 X-62.4264 Y64.6760 
G01 X-62.2963 Y64.7630 
G01 X-62.1517 Y64.8229 
G01 X-61.9982 Y64.8534 
G01 X-61.8418 Y64.8534 
G01 X-61.6883 Y64.8229 
G01 X-61.5437 Y64.7630 
G01 X-61.4136 Y64.6760 
G01 X-61.3030 Y64.5654 
G01 X-61.2160 Y64.4353 
G01 X-61.1561 Y64.2907 
G01 X-61.1256 Y64.1372 
G01 X-61.1256 Y62.5228 
G01 X-61.1561 Y62.3693 
G01 X-61.2160 Y62.2247 
G01 X-61.3030 Y62.0946 
G01 X-61.4136 Y61.9840 
G01 X-61.5437 Y61.8970 
G01 X-61.6883 Y61.8371 
G01 X-61.8418 Y61.8066 
G01 X-61.9982 Y61.8066 
G01 X-62.1517 Y61.8371 
G01 X-62.2963 Y61.8970 
G01 X-62.4264 Y61.9840 
G01 X-62.5370 Y62.0946 
G01 X-62.6240 Y62.2247 
G01 X-62.6839 Y62.3693 
G01 X-62.7144 Y62.5228 
G00 Z2.5400 
G00 X-55.7144 Y62.5228 
G01 Z-0.1500 F254.00 
G01 X-55.7144 Y64.1372 F508.00 
G01 X-55.6839 Y64.2907 
G01 X-55.6240 Y64.4353 
G01 X-55.5370 Y64.5654 
G01 X-55.4264 Y64.6760 
G01 X-55.2963 Y64.7630 
G01 X-55.1517 Y64.8229 
G01 X-54.9982 Y64.8534 
G01 X-54.8418 Y64.8534 
G01 X-54.6883 Y64.8229 
G01 X-54.5437 Y64.7630 
G01 X-54.4136 Y64.6760 
G01 X-54.3030 Y64.5654 
G01 X-54.2160 Y64.4353 
G01 X-54.1561 Y64.2907 
G01 X-54.1256 Y64.1372 
G01 X-54.1256 Y62.5228 
G01 X-54.1561 Y62.3693 
G01 X-54.2160 Y62.2247 
G01 X-54.3030 Y62.0946 
G01 X-54.4136 Y61.9840 
G01 X-54.5437 Y61.8970 
G01 X-54.6883 Y61.8371 
G01 X-54.8418 Y61.8066 
G01 X-54.9982 Y61.8066 
G01 X-55.1517 Y61.8371 
G01 X-55.2963 Y61.8970 
G01 X-55.4264 Y61.9840 
G01 X-55.5370 Y62.0946 
G01 X-55.6240 Y62.2247 
G01 X-55.6839 Y62.3693 
G01 X-55.7144 Y62.5228 
G00 Z2.5400 
G00 X-10.9874 Y37.2565 
G01 Z-0.1500 F254.00 
G01 X-10.9874 Y38.9435 F508.00 
G01 X-10.9556 Y39.1033 
G01 X-10.8932 Y39.2539 
G01 X-10.8027 Y39.3894 
G01 X-10.6874 Y39.5047 
G01 X-10.5519 Y39.5952 
G01 X-10.4013 Y39.6576 
G01 X-10.2415 Y39.6894 
G01 X-10.0785 Y39.6894 
G01 X-9.9187 Y39.6576 
G01 X-9.7681 Y39.5952 
G01 X-9.6326 Y39.5047 
G01 X-9.5173 Y39.3894 
G01 X-9.4268 Y39.2539 
G01 X-9.3644 Y39.1033 
G01 X-9.3326 Y38.9435 
G01 X-9.3326 Y37.2565 
G01 X-9.3644 Y37.0967 
G01 X-9.4268 Y36.9461 
G01 X-9.5173 Y36.8106 
G01 X-9.6326 Y36.6953 
G01 X-9.7681 Y36.6048 
G01 X-9.9187 Y36.5424 
G01 X-10.0785 Y36.5106 
G01 X-10.2415 Y36.5106 
G01 X-10.4013 Y36.5424 
G01 X-10.5519 Y36.6048 
G01 X-10.6874 Y36.6953 
G01 X-10.8027 Y36.8106 
G01 X-10.8932 Y36.9461 
G01 X-10.9556 Y37.0967 
G01 X-10.9874 Y37.2565 
G00 Z2.5400 
G00 X-8.4474 Y37.2565 
G01 Z-0.1500 F254.00 
G01 X-8.4474 Y38.9435 F508.00 
G01 X-8.4156 Y39.1033 
G01 X-8.3532 Y39.2539 
G01 X-8.2627 Y39.3894 
G01 X-8.1474 Y39.5047 
G01 X-8.0119 Y39.5952 
G01 X-7.8613 Y39.6576 
G01 X-7.7015 Y39.6894 
G01 X-7.5385 Y39.6894 
G01 X-7.3787 Y39.6576 
G01 X-7.2281 Y39.5952 
G01 X-7.0926 Y39.5047 
G01 X-6.9773 Y39.3894 
G01 X-6.8868 Y39.2539 
G01 X-6.8244 Y39.1033 
G01 X-6.7926 Y38.9435 
G01 X-6.7926 Y37.2565 
G01 X-6.8244 Y37.0967 
G01 X-6.8868 Y36.9461 
G01 X-6.9773 Y36.8106 
G01 X-7.0926 Y36.6953 
G01 X-7.2281 Y36.6048 
G01 X-7.3787 Y36.5424 
G01 X-7.5385 Y36.5106 
G01 X-7.7015 Y36.5106 
G01 X-7.8613 Y36.5424 
G01 X-8.0119 Y36.6048 
G01 X-8.1474 Y36.6953 
G01 X-8.2627 Y36.8106 
G01 X-8.3532 Y36.9461 
G01 X-8.4156 Y37.0967 
G01 X-8.4474 Y37.2565 
G00 Z2.5400 
G00 X-30.6216 Y59.6135 
G01 Z-0.1500 F254.00 
G01 X-30.6216 Y59.7665 F508.00 
G01 X-30.5918 Y59.9165 
G01 X-30.5332 Y60.0579 
G01 X-30.4482 Y60.1851 
G01 X-30.3401 Y60.2932 
G01 X-30.2129 Y60.3782 
G01 X-30.0715 Y60.4368 
G01 X-29.9215 Y60.4666 
G01 X-29.7685 Y60.4666 
G01 X-29.6185 Y60.4368 
G01 X-29.4771 Y60.3782 
G01 X-29.3499 Y60.2932 
G01 X-29.2418 Y60.1851 
G01 X-29.1568 Y60.0579 
G01 X-29.0982 Y59.9165 
G01 X-29.0684 Y59.7665 
G01 X-29.0684 Y59.6135 
G01 X-29.0982 Y59.4635 
G01 X-29.1568 Y59.3221 
G01 X-29.2418 Y59.1949 
G01 X-29.3499 Y59.0868 
G01 X-29.4771 Y59.0018 
G01 X-29.6185 Y58.9432 
G01 X-29.7685 Y58.9134 
G01 X-29.9215 Y58.9134 
G01 X-30.0715 Y58.9432 
G01 X-30.2129 Y59.0018 
G01 X-30.3401 Y59.0868 
G01 X-30.4482 Y59.1949 
G01 X-30.5332 Y59.3221 
G01 X-30.5918 Y59.4635 
G01 X-30.6216 Y59.6135 
G00 Z2.5400 
G00 X-29.3516 Y57.0735 
G01 Z-0.1500 F254.00 
G01 X-29.3516 Y57.2265 F508.00 
G01 X-29.3218 Y57.3765 
G01 X-29.2632 Y57.5179 
G01 X-29.1782 Y57.6451 
G01 X-29.0701 Y57.7532 
G01 X-28.9429 Y57.8382 
G01 X-28.8015 Y57.8968 
G01 X-28.6515 Y57.9266 
G01 X-28.4985 Y57.9266 
G01 X-28.3485 Y57.8968 
G01 X-28.2071 Y57.8382 
G01 X-28.0799 Y57.7532 
G01 X-27.9718 Y57.6451 
G01 X-27.8868 Y57.5179 
G01 X-27.8282 Y57.3765 
G01 X-27.7984 Y57.2265 
G01 X-27.7984 Y57.0735 
G01 X-27.8282 Y56.9235 
G01 X-27.8868 Y56.7821 
G01 X-27.9718 Y56.6549 
G01 X-28.0799 Y56.5468 
G01 X-28.2071 Y56.4618 
G01 X-28.3485 Y56.4032 
G01 X-28.4985 Y56.3734 
G01 X-28.6515 Y56.3734 
G01 X-28.8015 Y56.4032 
G01 X-28.9217 Y56.4530 
G01 X-29.7876 Y55.5870 
G01 X-29.8370 Y55.5376 
G01 X-29.8976 Y55.5027 
G01 X-29.9651 Y55.4846 
G01 X-41.2849 Y55.4846 
G01 X-41.3524 Y55.5027 
G01 X-41.4130 Y55.5376 
G01 X-41.4624 Y55.5870 
G01 X-42.2903 Y56.4149 
G01 X-42.3185 Y56.4032 
G01 X-42.4685 Y56.3734 
G01 X-42.6215 Y56.3734 
G01 X-42.7715 Y56.4032 
G01 X-42.9129 Y56.4618 
G01 X-43.0401 Y56.5468 
G01 X-43.1482 Y56.6549 
G01 X-43.2014 Y56.7346 
G01 X-46.8901 Y56.7346 
G01 X-56.2845 Y47.3402 
G01 X-56.2845 Y46.6315 
G01 X-56.7915 Y46.1245 
G01 X-57.5085 Y46.1245 
G01 X-58.0155 Y46.6315 
G01 X-58.0155 Y47.3485 
G01 X-57.5085 Y47.8555 
G01 X-56.7915 Y47.8555 
G01 X-56.6557 Y47.7197 
G01 X-47.2124 Y57.1630 
G01 X-47.1630 Y57.2124 
G01 X-47.1024 Y57.2473 
G01 X-47.0349 Y57.2654 
G01 X-43.3139 Y57.2654 
G01 X-43.2918 Y57.3765 
G01 X-43.2332 Y57.5179 
G01 X-43.1482 Y57.6451 
G01 X-43.0401 Y57.7532 
G01 X-42.9129 Y57.8382 
G01 X-42.7715 Y57.8968 
G01 X-42.6215 Y57.9266 
G01 X-42.4685 Y57.9266 
G01 X-42.3185 Y57.8968 
G01 X-42.1771 Y57.8382 
G01 X-42.0499 Y57.7532 
G01 X-41.9418 Y57.6451 
G01 X-41.8568 Y57.5179 
G01 X-41.7982 Y57.3765 
G01 X-41.7684 Y57.2265 
G01 X-41.7684 Y57.0735 
G01 X-41.7982 Y56.9235 
G01 X-41.8568 Y56.7821 
G01 X-41.8768 Y56.7522 
G01 X-41.1401 Y56.0154 
G01 X-30.1099 Y56.0154 
G01 X-29.2866 Y56.8387 
G01 X-29.3218 Y56.9235 
G01 X-29.3516 Y57.0735 
G00 Z2.5400 
G00 X-4.0063 Y10.3740 
G01 Z-0.1500 F254.00 
G01 X-6.1537 Y10.3740 F508.00 
G01 X-6.3179 Y10.4000 
G01 X-6.4760 Y10.4514 
G01 X-6.6241 Y10.5268 
G01 X-6.7585 Y10.6245 
G01 X-6.8761 Y10.7421 
G01 X-6.9738 Y10.8765 
G01 X-7.0492 Y11.0246 
G01 X-7.1006 Y11.1827 
G01 X-7.1266 Y11.3469 
G01 X-7.1266 Y11.5131 
G01 X-7.1006 Y11.6773 
G01 X-7.0492 Y11.8354 
G01 X-6.9738 Y11.9835 
G01 X-6.8761 Y12.1179 
G01 X-6.7585 Y12.2355 
G01 X-6.6241 Y12.3332 
G01 X-6.4760 Y12.4086 
G01 X-6.3179 Y12.4600 
G01 X-6.1537 Y12.4860 
G01 X-4.0063 Y12.4860 
G01 X-3.8421 Y12.4600 
G01 X-3.6840 Y12.4086 
G01 X-3.5359 Y12.3332 
G01 X-3.4015 Y12.2355 
G01 X-3.2839 Y12.1179 
G01 X-3.1862 Y11.9835 
G01 X-3.1108 Y11.8354 
G01 X-3.0594 Y11.6773 
G01 X-3.0334 Y11.5131 
G01 X-3.0334 Y11.3469 
G01 X-3.0594 Y11.1827 
G01 X-3.1108 Y11.0246 
G01 X-3.1862 Y10.8765 
G01 X-3.2839 Y10.7421 
G01 X-3.4015 Y10.6245 
G01 X-3.5359 Y10.5268 
G01 X-3.6840 Y10.4514 
G01 X-3.8421 Y10.4000 
G01 X-4.0063 Y10.3740 
G00 Z2.5400 
G00 X-73.2335 Y21.1474 
G01 Z-0.1500 F254.00 
G01 X-71.5465 Y21.1474 F508.00 
G01 X-71.3867 Y21.1156 
G01 X-71.2361 Y21.0532 
G01 X-71.1006 Y20.9627 
G01 X-70.9853 Y20.8474 
G01 X-70.8948 Y20.7119 
G01 X-70.8324 Y20.5613 
G01 X-70.8006 Y20.4015 
G01 X-70.8006 Y20.2385 
G01 X-70.8324 Y20.0787 
G01 X-70.8948 Y19.9281 
G01 X-70.9853 Y19.7926 
G01 X-71.1006 Y19.6773 
G01 X-71.2361 Y19.5868 
G01 X-71.3867 Y19.5244 
G01 X-71.5465 Y19.4926 
G01 X-73.2335 Y19.4926 
G01 X-73.3933 Y19.5244 
G01 X-73.5439 Y19.5868 
G01 X-73.6794 Y19.6773 
G01 X-73.7947 Y19.7926 
G01 X-73.8852 Y19.9281 
G01 X-73.9476 Y20.0787 
G01 X-73.9794 Y20.2385 
G01 X-73.9794 Y20.4015 
G01 X-73.9476 Y20.5613 
G01 X-73.8852 Y20.7119 
G01 X-73.7947 Y20.8474 
G01 X-73.6794 Y20.9627 
G01 X-73.5439 Y21.0532 
G01 X-73.3933 Y21.1156 
G01 X-73.2335 Y21.1474 
G00 Z2.5400 
G00 X-73.2335 Y16.0674 
G01 Z-0.1500 F254.00 
G01 X-71.5465 Y16.0674 F508.00 
G01 X-71.3867 Y16.0356 
G01 X-71.2361 Y15.9732 
G01 X-71.1006 Y15.8827 
G01 X-70.9853 Y15.7674 
G01 X-70.8948 Y15.6319 
G01 X-70.8324 Y15.4813 
G01 X-70.8006 Y15.3215 
G01 X-70.8006 Y15.1585 
G01 X-70.8324 Y14.9987 
G01 X-70.8948 Y14.8481 
G01 X-70.9853 Y14.7126 
G01 X-71.1006 Y14.5973 
G01 X-71.2361 Y14.5068 
G01 X-71.3867 Y14.4444 
G01 X-71.5465 Y14.4126 
G01 X-73.2335 Y14.4126 
G01 X-73.3933 Y14.4444 
G01 X-73.5439 Y14.5068 
G01 X-73.6794 Y14.5973 
G01 X-73.7947 Y14.7126 
G01 X-73.8852 Y14.8481 
G01 X-73.9476 Y14.9987 
G01 X-73.9794 Y15.1585 
G01 X-73.9794 Y15.3215 
G01 X-73.9476 Y15.4813 
G01 X-73.8852 Y15.6319 
G01 X-73.7947 Y15.7674 
G01 X-73.6794 Y15.8827 
G01 X-73.5439 Y15.9732 
G01 X-73.3933 Y16.0356 
G01 X-73.2335 Y16.0674 
G00 Z2.5400 
G00 X-73.2335 Y13.5274 
G01 Z-0.1500 F254.00 
G01 X-71.5465 Y13.5274 F508.00 
G01 X-71.3867 Y13.4956 
G01 X-71.2361 Y13.4332 
G01 X-71.1006 Y13.3427 
G01 X-70.9853 Y13.2274 
G01 X-70.8948 Y13.0919 
G01 X-70.8324 Y12.9413 
G01 X-70.8006 Y12.7815 
G01 X-70.8006 Y12.6185 
G01 X-70.8324 Y12.4587 
G01 X-70.8948 Y12.3081 
G01 X-70.9853 Y12.1726 
G01 X-71.1006 Y12.0573 
G01 X-71.2361 Y11.9668 
G01 X-71.3867 Y11.9044 
G01 X-71.5465 Y11.8726 
G01 X-73.2335 Y11.8726 
G01 X-73.3933 Y11.9044 
G01 X-73.5439 Y11.9668 
G01 X-73.6794 Y12.0573 
G01 X-73.7947 Y12.1726 
G01 X-73.8852 Y12.3081 
G01 X-73.9476 Y12.4587 
G01 X-73.9794 Y12.6185 
G01 X-73.9794 Y12.7815 
G01 X-73.9476 Y12.9413 
G01 X-73.8852 Y13.0919 
G01 X-73.7947 Y13.2274 
G01 X-73.6794 Y13.3427 
G01 X-73.5439 Y13.4332 
G01 X-73.3933 Y13.4956 
G01 X-73.2335 Y13.5274 
G00 Z2.5400 
G00 X-73.2335 Y8.4474 
G01 Z-0.1500 F254.00 
G01 X-71.5465 Y8.4474 F508.00 
G01 X-71.3867 Y8.4156 
G01 X-71.2361 Y8.3532 
G01 X-71.1006 Y8.2627 
G01 X-70.9853 Y8.1474 
G01 X-70.8948 Y8.0119 
G01 X-70.8324 Y7.8613 
G01 X-70.8006 Y7.7015 
G01 X-70.8006 Y7.5385 
G01 X-70.8324 Y7.3787 
G01 X-70.8948 Y7.2281 
G01 X-70.9853 Y7.0926 
G01 X-71.1006 Y6.9773 
G01 X-71.2361 Y6.8868 
G01 X-71.3867 Y6.8244 
G01 X-71.5465 Y6.7926 
G01 X-73.2335 Y6.7926 
G01 X-73.3933 Y6.8244 
G01 X-73.5439 Y6.8868 
G01 X-73.6794 Y6.9773 
G01 X-73.7947 Y7.0926 
G01 X-73.8852 Y7.2281 
G01 X-73.9476 Y7.3787 
G01 X-73.9794 Y7.5385 
G01 X-73.9794 Y7.7015 
G01 X-73.9476 Y7.8613 
G01 X-73.8852 Y8.0119 
G01 X-73.7947 Y8.1474 
G01 X-73.6794 Y8.2627 
G01 X-73.5439 Y8.3532 
G01 X-73.3933 Y8.4156 
G01 X-73.2335 Y8.4474 
G00 Z2.5400 
G00 X-73.2335 Y5.9074 
G01 Z-0.1500 F254.00 
G01 X-71.5465 Y5.9074 F508.00 
G01 X-71.3867 Y5.8756 
G01 X-71.2361 Y5.8132 
G01 X-71.1006 Y5.7227 
G01 X-70.9853 Y5.6074 
G01 X-70.8948 Y5.4719 
G01 X-70.8324 Y5.3213 
G01 X-70.8006 Y5.1615 
G01 X-70.8006 Y4.9985 
G01 X-70.8324 Y4.8387 
G01 X-70.8948 Y4.6881 
G01 X-70.9853 Y4.5526 
G01 X-71.1006 Y4.4373 
G01 X-71.2361 Y4.3468 
G01 X-71.3867 Y4.2844 
G01 X-71.5465 Y4.2526 
G01 X-73.2335 Y4.2526 
G01 X-73.3933 Y4.2844 
G01 X-73.5439 Y4.3468 
G01 X-73.6794 Y4.4373 
G01 X-73.7947 Y4.5526 
G01 X-73.8852 Y4.6881 
G01 X-73.9476 Y4.8387 
G01 X-73.9794 Y4.9985 
G01 X-73.9794 Y5.1615 
G01 X-73.9476 Y5.3213 
G01 X-73.8852 Y5.4719 
G01 X-73.7947 Y5.6074 
G01 X-73.6794 Y5.7227 
G01 X-73.5439 Y5.8132 
G01 X-73.3933 Y5.8756 
G01 X-73.2335 Y5.9074 
G00 Z2.5400 
G00 X-73.2335 Y44.0074 
G01 Z-0.1500 F254.00 
G01 X-71.5465 Y44.0074 F508.00 
G01 X-71.3867 Y43.9756 
G01 X-71.2361 Y43.9132 
G01 X-71.1006 Y43.8227 
G01 X-70.9853 Y43.7074 
G01 X-70.8948 Y43.5719 
G01 X-70.8324 Y43.4213 
G01 X-70.8006 Y43.2615 
G01 X-70.8006 Y43.0985 
G01 X-70.8324 Y42.9387 
G01 X-70.8948 Y42.7881 
G01 X-70.9853 Y42.6526 
G01 X-71.1006 Y42.5373 
G01 X-71.2361 Y42.4468 
G01 X-71.3867 Y42.3844 
G01 X-71.5465 Y42.3526 
G01 X-73.2335 Y42.3526 
G01 X-73.3933 Y42.3844 
G01 X-73.5439 Y42.4468 
G01 X-73.6794 Y42.5373 
G01 X-73.7947 Y42.6526 
G01 X-73.8495 Y42.7346 
G01 X-74.2346 Y42.7346 
G01 X-74.2346 Y35.1099 
G01 X-70.3901 Y31.2654 
G01 X-58.1099 Y31.2654 
G01 X-56.6058 Y32.7695 
G01 X-56.6058 Y33.7519 
G01 X-56.5779 Y33.8921 
G01 X-56.5232 Y34.0242 
G01 X-56.4438 Y34.1431 
G01 X-56.3427 Y34.2442 
G01 X-56.2238 Y34.3236 
G01 X-56.0917 Y34.3783 
G01 X-55.9515 Y34.4062 
G01 X-55.8085 Y34.4062 
G01 X-55.6683 Y34.3783 
G01 X-55.5362 Y34.3236 
G01 X-55.4173 Y34.2442 
G01 X-55.3162 Y34.1431 
G01 X-55.2368 Y34.0242 
G01 X-55.1821 Y33.8921 
G01 X-55.1542 Y33.7519 
G01 X-55.1542 Y32.2881 
G01 X-55.1821 Y32.1479 
G01 X-55.2368 Y32.0158 
G01 X-55.3162 Y31.8969 
G01 X-55.4173 Y31.7958 
G01 X-55.5362 Y31.7164 
G01 X-55.6683 Y31.6617 
G01 X-55.8085 Y31.6338 
G01 X-55.9515 Y31.6338 
G01 X-56.0917 Y31.6617 
G01 X-56.2238 Y31.7164 
G01 X-56.3427 Y31.7958 
G01 X-56.4438 Y31.8969 
G01 X-56.5232 Y32.0158 
G01 X-56.5483 Y32.0764 
G01 X-57.7876 Y30.8370 
G01 X-57.8370 Y30.7876 
G01 X-57.8976 Y30.7527 
G01 X-57.9651 Y30.7346 
G01 X-70.5349 Y30.7346 
G01 X-70.6024 Y30.7527 
G01 X-70.6630 Y30.7876 
G01 X-74.6630 Y34.7876 
G01 X-74.7124 Y34.8370 
G01 X-74.7473 Y34.8976 
G01 X-74.7654 Y34.9651 
G01 X-74.7654 Y43.0349 
G01 X-74.7473 Y43.1024 
G01 X-74.7124 Y43.1630 
G01 X-74.6630 Y43.2124 
G01 X-74.6024 Y43.2473 
G01 X-74.5349 Y43.2654 
G01 X-73.9786 Y43.2654 
G01 X-73.9476 Y43.4213 
G01 X-73.8852 Y43.5719 
G01 X-73.7947 Y43.7074 
G01 X-73.6794 Y43.8227 
G01 X-73.5439 Y43.9132 
G01 X-73.3933 Y43.9756 
G01 X-73.2335 Y44.0074 
G00 Z2.5400 
G00 X-73.2335 Y38.9274 
G01 Z-0.1500 F254.00 
G01 X-71.5465 Y38.9274 F508.00 
G01 X-71.3867 Y38.8956 
G01 X-71.2361 Y38.8332 
G01 X-71.1006 Y38.7427 
G01 X-70.9853 Y38.6274 
G01 X-70.8948 Y38.4919 
G01 X-70.8324 Y38.3413 
G01 X-70.8006 Y38.1815 
G01 X-70.8006 Y38.0185 
G01 X-70.8324 Y37.8587 
G01 X-70.8948 Y37.7081 
G01 X-70.9853 Y37.5726 
G01 X-71.1006 Y37.4573 
G01 X-71.2361 Y37.3668 
G01 X-71.3867 Y37.3044 
G01 X-71.5465 Y37.2726 
G01 X-73.2335 Y37.2726 
G01 X-73.3933 Y37.3044 
G01 X-73.5439 Y37.3668 
G01 X-73.6794 Y37.4573 
G01 X-73.7947 Y37.5726 
G01 X-73.8852 Y37.7081 
G01 X-73.9476 Y37.8587 
G01 X-73.9794 Y38.0185 
G01 X-73.9794 Y38.1815 
G01 X-73.9476 Y38.3413 
G01 X-73.8852 Y38.4919 
G01 X-73.7947 Y38.6274 
G01 X-73.6794 Y38.7427 
G01 X-73.5439 Y38.8332 
G01 X-73.3933 Y38.8956 
G01 X-73.2335 Y38.9274 
G00 Z2.5400 
G00 X-73.2335 Y36.3874 
G01 Z-0.1500 F254.00 
G01 X-71.5465 Y36.3874 F508.00 
G01 X-71.3867 Y36.3556 
G01 X-71.2361 Y36.2932 
G01 X-71.1944 Y36.2654 
G01 X-40.9651 Y36.2654 
G01 X-40.8976 Y36.2473 
G01 X-40.8370 Y36.2124 
G01 X-40.7876 Y36.1630 
G01 X-38.7054 Y34.0807 
G01 X-38.6638 Y34.1431 
G01 X-38.5627 Y34.2442 
G01 X-38.4438 Y34.3236 
G01 X-38.3117 Y34.3783 
G01 X-38.1715 Y34.4062 
G01 X-38.0285 Y34.4062 
G01 X-37.8883 Y34.3783 
G01 X-37.7562 Y34.3236 
G01 X-37.6373 Y34.2442 
G01 X-37.5362 Y34.1431 
G01 X-37.4568 Y34.0242 
G01 X-37.4021 Y33.8921 
G01 X-37.3742 Y33.7519 
G01 X-37.3742 Y32.2881 
G01 X-37.4021 Y32.1479 
G01 X-37.4568 Y32.0158 
G01 X-37.5362 Y31.8969 
G01 X-37.6373 Y31.7958 
G01 X-37.7562 Y31.7164 
G01 X-37.8883 Y31.6617 
G01 X-38.0285 Y31.6338 
G01 X-38.1715 Y31.6338 
G01 X-38.3117 Y31.6617 
G01 X-38.4438 Y31.7164 
G01 X-38.5627 Y31.7958 
G01 X-38.6638 Y31.8969 
G01 X-38.7432 Y32.0158 
G01 X-38.7979 Y32.1479 
G01 X-38.8258 Y32.2881 
G01 X-38.8258 Y33.4505 
G01 X-41.1099 Y35.7346 
G01 X-70.8191 Y35.7346 
G01 X-70.8006 Y35.6415 
G01 X-70.8006 Y35.4785 
G01 X-70.8324 Y35.3187 
G01 X-70.8948 Y35.1681 
G01 X-70.9853 Y35.0326 
G01 X-71.1006 Y34.9173 
G01 X-71.2361 Y34.8268 
G01 X-71.3867 Y34.7644 
G01 X-71.5465 Y34.7326 
G01 X-73.2335 Y34.7326 
G01 X-73.3933 Y34.7644 
G01 X-73.5439 Y34.8268 
G01 X-73.6794 Y34.9173 
G01 X-73.7947 Y35.0326 
G01 X-73.8852 Y35.1681 
G01 X-73.9476 Y35.3187 
G01 X-73.9794 Y35.4785 
G01 X-73.9794 Y35.6415 
G01 X-73.9476 Y35.8013 
G01 X-73.8852 Y35.9519 
G01 X-73.7947 Y36.0874 
G01 X-73.6794 Y36.2027 
G01 X-73.5439 Y36.2932 
G01 X-73.3933 Y36.3556 
G01 X-73.2335 Y36.3874 
G00 Z2.5400 
G00 X-16.9365 Y27.1126 
G01 Z-0.1500 F254.00 
G01 X-18.6235 Y27.1126 F508.00 
G01 X-18.7833 Y27.1444 
G01 X-18.9339 Y27.2068 
G01 X-19.0694 Y27.2973 
G01 X-19.1847 Y27.4126 
G01 X-19.2328 Y27.4846 
G01 X-38.1401 Y27.4846 
G01 X-39.9142 Y25.7105 
G01 X-39.9142 Y24.6681 
G01 X-39.9421 Y24.5279 
G01 X-39.9968 Y24.3958 
G01 X-40.0762 Y24.2769 
G01 X-40.1773 Y24.1758 
G01 X-40.2962 Y24.0964 
G01 X-40.4283 Y24.0417 
G01 X-40.5685 Y24.0138 
G01 X-40.7115 Y24.0138 
G01 X-40.8517 Y24.0417 
G01 X-40.9838 Y24.0964 
G01 X-41.1027 Y24.1758 
G01 X-41.2038 Y24.2769 
G01 X-41.2832 Y24.3958 
G01 X-41.3379 Y24.5279 
G01 X-41.3658 Y24.6681 
G01 X-41.3658 Y26.1319 
G01 X-41.3379 Y26.2721 
G01 X-41.2832 Y26.4042 
G01 X-41.2038 Y26.5231 
G01 X-41.1027 Y26.6242 
G01 X-40.9838 Y26.7036 
G01 X-40.8517 Y26.7583 
G01 X-40.7115 Y26.7862 
G01 X-40.5685 Y26.7862 
G01 X-40.4283 Y26.7583 
G01 X-40.2962 Y26.7036 
G01 X-40.1773 Y26.6242 
G01 X-40.0762 Y26.5231 
G01 X-39.9968 Y26.4042 
G01 X-39.9893 Y26.3860 
G01 X-38.4130 Y27.9624 
G01 X-38.3524 Y27.9973 
G01 X-38.2849 Y28.0154 
G01 X-19.3694 Y28.0154 
G01 X-19.3694 Y28.0215 
G01 X-19.3376 Y28.1813 
G01 X-19.2752 Y28.3319 
G01 X-19.1847 Y28.4674 
G01 X-19.0694 Y28.5827 
G01 X-18.9339 Y28.6732 
G01 X-18.7833 Y28.7356 
G01 X-18.6235 Y28.7674 
G01 X-16.9365 Y28.7674 
G01 X-16.7767 Y28.7356 
G01 X-16.6261 Y28.6732 
G01 X-16.4906 Y28.5827 
G01 X-16.3753 Y28.4674 
G01 X-16.2848 Y28.3319 
G01 X-16.2224 Y28.1813 
G01 X-16.1906 Y28.0215 
G01 X-16.1906 Y27.8585 
G01 X-16.2224 Y27.6987 
G01 X-16.2848 Y27.5481 
G01 X-16.3753 Y27.4126 
G01 X-16.4906 Y27.2973 
G01 X-16.6261 Y27.2068 
G01 X-16.7767 Y27.1444 
G01 X-16.9365 Y27.1126 
G00 Z2.5400 
G00 X-16.9365 Y29.6526 
G01 Z-0.1500 F254.00 
G01 X-18.6235 Y29.6526 F508.00 
G01 X-18.7833 Y29.6844 
G01 X-18.9339 Y29.7468 
G01 X-19.0694 Y29.8373 
G01 X-19.1847 Y29.9526 
G01 X-19.2061 Y29.9846 
G01 X-27.7411 Y29.9846 
G01 X-27.7912 Y29.8979 
G01 X-27.8979 Y29.7912 
G01 X-28.0287 Y29.7157 
G01 X-28.1745 Y29.6766 
G01 X-28.3255 Y29.6766 
G01 X-28.4713 Y29.7157 
G01 X-28.6021 Y29.7912 
G01 X-28.7088 Y29.8979 
G01 X-28.7843 Y30.0287 
G01 X-28.8234 Y30.1745 
G01 X-28.8234 Y30.3255 
G01 X-28.7843 Y30.4713 
G01 X-28.7088 Y30.6021 
G01 X-28.6021 Y30.7088 
G01 X-28.4713 Y30.7843 
G01 X-28.3255 Y30.8234 
G01 X-28.1745 Y30.8234 
G01 X-28.0287 Y30.7843 
G01 X-27.8979 Y30.7088 
G01 X-27.7912 Y30.6021 
G01 X-27.7411 Y30.5154 
G01 X-19.3694 Y30.5154 
G01 X-19.3694 Y30.5615 
G01 X-19.3376 Y30.7213 
G01 X-19.2752 Y30.8719 
G01 X-19.1847 Y31.0074 
G01 X-19.0694 Y31.1227 
G01 X-18.9339 Y31.2132 
G01 X-18.7833 Y31.2756 
G01 X-18.6235 Y31.3074 
G01 X-16.9365 Y31.3074 
G01 X-16.7767 Y31.2756 
G01 X-16.6261 Y31.2132 
G01 X-16.4906 Y31.1227 
G01 X-16.3753 Y31.0074 
G01 X-16.2848 Y30.8719 
G01 X-16.2224 Y30.7213 
G01 X-16.1906 Y30.5615 
G01 X-16.1906 Y30.3985 
G01 X-16.2224 Y30.2387 
G01 X-16.2848 Y30.0881 
G01 X-16.3753 Y29.9526 
G01 X-16.4906 Y29.8373 
G01 X-16.6261 Y29.7468 
G01 X-16.7767 Y29.6844 
G01 X-16.9365 Y29.6526 
G00 Z2.5400 
G00 X-16.9365 Y32.1926 
G01 Z-0.1500 F254.00 
G01 X-18.6235 Y32.1926 F508.00 
G01 X-18.7833 Y32.2244 
G01 X-18.9339 Y32.2868 
G01 X-19.0694 Y32.3773 
G01 X-19.1847 Y32.4926 
G01 X-19.2752 Y32.6281 
G01 X-19.3376 Y32.7787 
G01 X-19.3694 Y32.9385 
G01 X-19.3694 Y33.1015 
G01 X-19.3376 Y33.2613 
G01 X-19.2752 Y33.4119 
G01 X-19.1847 Y33.5474 
G01 X-19.0694 Y33.6627 
G01 X-18.9339 Y33.7532 
G01 X-18.7833 Y33.8156 
G01 X-18.6235 Y33.8474 
G01 X-16.9365 Y33.8474 
G01 X-16.7767 Y33.8156 
G01 X-16.6261 Y33.7532 
G01 X-16.4906 Y33.6627 
G01 X-16.3753 Y33.5474 
G01 X-16.2848 Y33.4119 
G01 X-16.2224 Y33.2613 
G01 X-16.1906 Y33.1015 
G01 X-16.1906 Y32.9385 
G01 X-16.2224 Y32.7787 
G01 X-16.2848 Y32.6281 
G01 X-16.3753 Y32.4926 
G01 X-16.4906 Y32.3773 
G01 X-16.6261 Y32.2868 
G01 X-16.7767 Y32.2244 
G01 X-16.9365 Y32.1926 
G00 Z2.5400 
G00 X-16.9365 Y37.2726 
G01 Z-0.1500 F254.00 
G01 X-18.6235 Y37.2726 F508.00 
G01 X-18.7833 Y37.3044 
G01 X-18.9339 Y37.3668 
G01 X-19.0694 Y37.4573 
G01 X-19.1847 Y37.5726 
G01 X-19.2752 Y37.7081 
G01 X-19.2862 Y37.7346 
G01 X-30.6401 Y37.7346 
G01 X-34.8342 Y33.5405 
G01 X-34.8342 Y32.2881 
G01 X-34.8621 Y32.1479 
G01 X-34.9168 Y32.0158 
G01 X-34.9962 Y31.8969 
G01 X-35.0973 Y31.7958 
G01 X-35.2162 Y31.7164 
G01 X-35.3483 Y31.6617 
G01 X-35.4885 Y31.6338 
G01 X-35.6315 Y31.6338 
G01 X-35.7717 Y31.6617 
G01 X-35.9038 Y31.7164 
G01 X-36.0227 Y31.7958 
G01 X-36.1238 Y31.8969 
G01 X-36.2032 Y32.0158 
G01 X-36.2579 Y32.1479 
G01 X-36.2858 Y32.2881 
G01 X-36.2858 Y33.7519 
G01 X-36.2579 Y33.8921 
G01 X-36.2032 Y34.0242 
G01 X-36.1238 Y34.1431 
G01 X-36.0227 Y34.2442 
G01 X-35.9038 Y34.3236 
G01 X-35.7717 Y34.3783 
G01 X-35.6315 Y34.4062 
G01 X-35.4885 Y34.4062 
G01 X-35.3483 Y34.3783 
G01 X-35.2162 Y34.3236 
G01 X-35.0973 Y34.2442 
G01 X-34.9962 Y34.1431 
G01 X-34.9906 Y34.1347 
G01 X-30.9624 Y38.1630 
G01 X-30.9130 Y38.2124 
G01 X-30.8524 Y38.2473 
G01 X-30.7849 Y38.2654 
G01 X-19.3527 Y38.2654 
G01 X-19.3376 Y38.3413 
G01 X-19.2752 Y38.4919 
G01 X-19.1847 Y38.6274 
G01 X-19.0694 Y38.7427 
G01 X-18.9339 Y38.8332 
G01 X-18.7833 Y38.8956 
G01 X-18.6235 Y38.9274 
G01 X-16.9365 Y38.9274 
G01 X-16.7767 Y38.8956 
G01 X-16.6261 Y38.8332 
G01 X-16.4906 Y38.7427 
G01 X-16.3753 Y38.6274 
G01 X-16.2848 Y38.4919 
G01 X-16.2224 Y38.3413 
G01 X-16.1906 Y38.1815 
G01 X-16.1906 Y38.0185 
G01 X-16.2224 Y37.8587 
G01 X-16.2848 Y37.7081 
G01 X-16.3753 Y37.5726 
G01 X-16.4906 Y37.4573 
G01 X-16.6261 Y37.3668 
G01 X-16.7767 Y37.3044 
G01 X-16.9365 Y37.2726 
G00 Z2.5400 
G00 X-39.8126 Y5.9235 
G01 Z-0.1500 F254.00 
G01 X-39.8126 Y4.2365 F508.00 
G01 X-39.8444 Y4.0767 
G01 X-39.9068 Y3.9261 
G01 X-39.9973 Y3.7906 
G01 X-40.1126 Y3.6753 
G01 X-40.2481 Y3.5848 
G01 X-40.3987 Y3.5224 
G01 X-40.5585 Y3.4906 
G01 X-40.7215 Y3.4906 
G01 X-40.8813 Y3.5224 
G01 X-41.0319 Y3.5848 
G01 X-41.1674 Y3.6753 
G01 X-41.2827 Y3.7906 
G01 X-41.3732 Y3.9261 
G01 X-41.4356 Y4.0767 
G01 X-41.4674 Y4.2365 
G01 X-41.4674 Y5.9235 
G01 X-41.4356 Y6.0833 
G01 X-41.3732 Y6.2339 
G01 X-41.2827 Y6.3694 
G01 X-41.1674 Y6.4847 
G01 X-41.0319 Y6.5752 
G01 X-40.8813 Y6.6376 
G01 X-40.7215 Y6.6694 
G01 X-40.5585 Y6.6694 
G01 X-40.3987 Y6.6376 
G01 X-40.2481 Y6.5752 
G01 X-40.1126 Y6.4847 
G01 X-39.9973 Y6.3694 
G01 X-39.9068 Y6.2339 
G01 X-39.8444 Y6.0833 
G01 X-39.8126 Y5.9235 
G00 Z2.5400 
G00 X-42.3526 Y5.9235 
G01 Z-0.1500 F254.00 
G01 X-42.3526 Y4.2365 F508.00 
G01 X-42.3844 Y4.0767 
G01 X-42.4468 Y3.9261 
G01 X-42.5373 Y3.7906 
G01 X-42.6526 Y3.6753 
G01 X-42.7881 Y3.5848 
G01 X-42.9387 Y3.5224 
G01 X-43.0985 Y3.4906 
G01 X-43.2615 Y3.4906 
G01 X-43.4213 Y3.5224 
G01 X-43.5719 Y3.5848 
G01 X-43.7074 Y3.6753 
G01 X-43.8227 Y3.7906 
G01 X-43.9132 Y3.9261 
G01 X-43.9236 Y3.9511 
G01 X-45.0376 Y2.8370 
G01 X-45.0870 Y2.7876 
G01 X-45.1476 Y2.7527 
G01 X-45.2151 Y2.7346 
G01 X-65.2849 Y2.7346 
G01 X-65.3524 Y2.7527 
G01 X-65.4130 Y2.7876 
G01 X-65.4624 Y2.8370 
G01 X-71.9579 Y9.3326 
G01 X-73.2335 Y9.3326 
G01 X-73.3933 Y9.3644 
G01 X-73.5439 Y9.4268 
G01 X-73.6794 Y9.5173 
G01 X-73.7947 Y9.6326 
G01 X-73.8852 Y9.7681 
G01 X-73.9476 Y9.9187 
G01 X-73.9794 Y10.0785 
G01 X-73.9794 Y10.2415 
G01 X-73.9476 Y10.4013 
G01 X-73.8852 Y10.5519 
G01 X-73.7947 Y10.6874 
G01 X-73.6794 Y10.8027 
G01 X-73.5439 Y10.8932 
G01 X-73.3933 Y10.9556 
G01 X-73.2335 Y10.9874 
G01 X-71.5465 Y10.9874 
G01 X-71.3867 Y10.9556 
G01 X-71.2361 Y10.8932 
G01 X-71.1006 Y10.8027 
G01 X-70.9853 Y10.6874 
G01 X-70.8948 Y10.5519 
G01 X-70.8324 Y10.4013 
G01 X-70.8006 Y10.2415 
G01 X-70.8006 Y10.0785 
G01 X-70.8324 Y9.9187 
G01 X-70.8948 Y9.7681 
G01 X-70.9853 Y9.6326 
G01 X-71.1006 Y9.5173 
G01 X-71.2361 Y9.4268 
G01 X-71.2823 Y9.4076 
G01 X-65.1401 Y3.2654 
G01 X-45.3599 Y3.2654 
G01 X-44.0074 Y4.6179 
G01 X-44.0074 Y5.9235 
G01 X-43.9756 Y6.0833 
G01 X-43.9132 Y6.2339 
G01 X-43.8227 Y6.3694 
G01 X-43.7074 Y6.4847 
G01 X-43.5719 Y6.5752 
G01 X-43.4213 Y6.6376 
G01 X-43.2615 Y6.6694 
G01 X-43.0985 Y6.6694 
G01 X-42.9387 Y6.6376 
G01 X-42.7881 Y6.5752 
G01 X-42.6526 Y6.4847 
G01 X-42.5373 Y6.3694 
G01 X-42.4468 Y6.2339 
G01 X-42.3844 Y6.0833 
G01 X-42.3526 Y5.9235 
G00 Z2.5400 
G00 X-44.8926 Y5.9235 
G01 Z-0.1500 F254.00 
G01 X-44.8926 Y4.2365 F508.00 
G01 X-44.9244 Y4.0767 
G01 X-44.9868 Y3.9261 
G01 X-45.0773 Y3.7906 
G01 X-45.1926 Y3.6753 
G01 X-45.3281 Y3.5848 
G01 X-45.4787 Y3.5224 
G01 X-45.6385 Y3.4906 
G01 X-45.8015 Y3.4906 
G01 X-45.9613 Y3.5224 
G01 X-46.1119 Y3.5848 
G01 X-46.2474 Y3.6753 
G01 X-46.3627 Y3.7906 
G01 X-46.4532 Y3.9261 
G01 X-46.5156 Y4.0767 
G01 X-46.5474 Y4.2365 
G01 X-46.5474 Y5.9235 
G01 X-46.5156 Y6.0833 
G01 X-46.4532 Y6.2339 
G01 X-46.3627 Y6.3694 
G01 X-46.2474 Y6.4847 
G01 X-46.1119 Y6.5752 
G01 X-45.9613 Y6.6376 
G01 X-45.8015 Y6.6694 
G01 X-45.6385 Y6.6694 
G01 X-45.4787 Y6.6376 
G01 X-45.3281 Y6.5752 
G01 X-45.1926 Y6.4847 
G01 X-45.0773 Y6.3694 
G01 X-44.9868 Y6.2339 
G01 X-44.9244 Y6.0833 
G01 X-44.8926 Y5.9235 
G00 Z2.5400 
G00 X-47.4326 Y4.2365 
G01 Z-0.1500 F254.00 
G01 X-47.4644 Y4.0767 F508.00 
G01 X-47.5268 Y3.9261 
G01 X-47.6173 Y3.7906 
G01 X-47.7326 Y3.6753 
G01 X-47.8681 Y3.5848 
G01 X-48.0187 Y3.5224 
G01 X-48.1785 Y3.4906 
G01 X-48.3415 Y3.4906 
G01 X-48.5013 Y3.5224 
G01 X-48.6519 Y3.5848 
G01 X-48.7874 Y3.6753 
G01 X-48.9027 Y3.7906 
G01 X-48.9932 Y3.9261 
G01 X-49.0556 Y4.0767 
G01 X-49.0874 Y4.2365 
G01 X-49.0874 Y5.9235 
G01 X-49.0556 Y6.0833 
G01 X-48.9932 Y6.2339 
G01 X-48.9027 Y6.3694 
G01 X-48.7874 Y6.4847 
G01 X-48.6519 Y6.5752 
G01 X-48.5013 Y6.6376 
G01 X-48.3415 Y6.6694 
G01 X-48.1785 Y6.6694 
G01 X-48.0187 Y6.6376 
G01 X-47.8681 Y6.5752 
G01 X-47.7326 Y6.4847 
G01 X-47.6173 Y6.3694 
G01 X-47.5727 Y6.3026 
G01 X-42.4624 Y11.4130 
G01 X-42.4130 Y11.4624 
G01 X-42.3524 Y11.4973 
G01 X-42.2849 Y11.5154 
G01 X-29.9862 Y11.5154 
G01 X-29.9606 Y11.6773 
G01 X-29.9092 Y11.8354 
G01 X-29.8338 Y11.9835 
G01 X-29.7361 Y12.1179 
G01 X-29.6185 Y12.2355 
G01 X-29.4841 Y12.3332 
G01 X-29.3360 Y12.4086 
G01 X-29.1779 Y12.4600 
G01 X-29.0137 Y12.4860 
G01 X-26.8663 Y12.4860 
G01 X-26.7021 Y12.4600 
G01 X-26.5440 Y12.4086 
G01 X-26.3959 Y12.3332 
G01 X-26.2615 Y12.2355 
G01 X-26.1439 Y12.1179 
G01 X-26.0462 Y11.9835 
G01 X-25.9708 Y11.8354 
G01 X-25.9194 Y11.6773 
G01 X-25.8934 Y11.5131 
G01 X-25.8934 Y11.3469 
G01 X-25.9194 Y11.1827 
G01 X-25.9708 Y11.0246 
G01 X-26.0462 Y10.8765 
G01 X-26.1439 Y10.7421 
G01 X-26.2615 Y10.6245 
G01 X-26.3959 Y10.5268 
G01 X-26.5440 Y10.4514 
G01 X-26.7021 Y10.4000 
G01 X-26.8663 Y10.3740 
G01 X-29.0137 Y10.3740 
G01 X-29.1779 Y10.4000 
G01 X-29.3360 Y10.4514 
G01 X-29.4841 Y10.5268 
G01 X-29.6185 Y10.6245 
G01 X-29.7361 Y10.7421 
G01 X-29.8338 Y10.8765 
G01 X-29.8888 Y10.9846 
G01 X-42.1401 Y10.9846 
G01 X-47.4326 Y5.6921 
G01 X-47.4326 Y4.2365 
G00 Z2.5400 
G00 X-5.9834 Y65.8975 
G01 Z-0.1500 F254.00 
G01 X-5.9834 Y66.1825 F508.00 
G01 X-5.9462 Y66.4649 
G01 X-5.8725 Y66.7401 
G01 X-5.7634 Y67.0033 
G01 X-5.6210 Y67.2501 
G01 X-5.4476 Y67.4761 
G01 X-5.2461 Y67.6776 
G01 X-5.0201 Y67.8510 
G01 X-4.7733 Y67.9934 
G01 X-4.5101 Y68.1025 
G01 X-4.2349 Y68.1762 
G01 X-3.9525 Y68.2134 
G01 X-3.6675 Y68.2134 
G01 X-3.3851 Y68.1762 
G01 X-3.1099 Y68.1025 
G01 X-2.8467 Y67.9934 
G01 X-2.5999 Y67.8510 
G01 X-2.3739 Y67.6776 
G01 X-2.1724 Y67.4761 
G01 X-1.9990 Y67.2501 
G01 X-1.8566 Y67.0033 
G01 X-1.7475 Y66.7401 
G01 X-1.6738 Y66.4649 
G01 X-1.6366 Y66.1825 
G01 X-1.6366 Y65.8975 
G01 X-1.6738 Y65.6151 
G01 X-1.7475 Y65.3399 
G01 X-1.8566 Y65.0767 
G01 X-1.9990 Y64.8299 
G01 X-2.1724 Y64.6039 
G01 X-2.3739 Y64.4024 
G01 X-2.5999 Y64.2290 
G01 X-2.8467 Y64.0866 
G01 X-3.1099 Y63.9775 
G01 X-3.3851 Y63.9038 
G01 X-3.6675 Y63.8666 
G01 X-3.9525 Y63.8666 
G01 X-4.2349 Y63.9038 
G01 X-4.5101 Y63.9775 
G01 X-4.7733 Y64.0866 
G01 X-5.0201 Y64.2290 
G01 X-5.2461 Y64.4024 
G01 X-5.4476 Y64.6039 
G01 X-5.6210 Y64.8299 
G01 X-5.7634 Y65.0767 
G01 X-5.8725 Y65.3399 
G01 X-5.9462 Y65.6151 
G01 X-5.9834 Y65.8975 
G00 Z2.5400 
G00 X-5.9834 Y3.6675 
G01 Z-0.1500 F254.00 
G01 X-5.9834 Y3.9525 F508.00 
G01 X-5.9462 Y4.2349 
G01 X-5.8725 Y4.5101 
G01 X-5.7634 Y4.7733 
G01 X-5.6210 Y5.0201 
G01 X-5.4476 Y5.2461 
G01 X-5.2461 Y5.4476 
G01 X-5.0201 Y5.6210 
G01 X-4.7733 Y5.7634 
G01 X-4.5101 Y5.8725 
G01 X-4.2349 Y5.9462 
G01 X-3.9525 Y5.9834 
G01 X-3.6675 Y5.9834 
G01 X-3.3851 Y5.9462 
G01 X-3.1099 Y5.8725 
G01 X-2.8467 Y5.7634 
G01 X-2.5999 Y5.6210 
G01 X-2.3739 Y5.4476 
G01 X-2.1724 Y5.2461 
G01 X-1.9990 Y5.0201 
G01 X-1.8566 Y4.7733 
G01 X-1.7475 Y4.5101 
G01 X-1.6738 Y4.2349 
G01 X-1.6366 Y3.9525 
G01 X-1.6366 Y3.6675 
G01 X-1.6738 Y3.3851 
G01 X-1.7475 Y3.1099 
G01 X-1.8566 Y2.8467 
G01 X-1.9990 Y2.5999 
G01 X-2.1724 Y2.3739 
G01 X-2.3739 Y2.1724 
G01 X-2.5999 Y1.9990 
G01 X-2.8467 Y1.8566 
G01 X-3.1099 Y1.7475 
G01 X-3.3851 Y1.6738 
G01 X-3.6675 Y1.6366 
G01 X-3.9525 Y1.6366 
G01 X-4.2349 Y1.6738 
G01 X-4.5101 Y1.7475 
G01 X-4.7733 Y1.8566 
G01 X-5.0201 Y1.9990 
G01 X-5.2461 Y2.1724 
G01 X-5.4476 Y2.3739 
G01 X-5.6210 Y2.5999 
G01 X-5.7634 Y2.8467 
G01 X-5.8725 Y3.1099 
G01 X-5.9462 Y3.3851 
G01 X-5.9834 Y3.6675 
G00 Z2.5400 
G00 X-97.4234 Y65.8975 
G01 Z-0.1500 F254.00 
G01 X-97.4234 Y66.1825 F508.00 
G01 X-97.3862 Y66.4649 
G01 X-97.3125 Y66.7401 
G01 X-97.2034 Y67.0033 
G01 X-97.0610 Y67.2501 
G01 X-96.8876 Y67.4761 
G01 X-96.6861 Y67.6776 
G01 X-96.4601 Y67.8510 
G01 X-96.2133 Y67.9934 
G01 X-95.9501 Y68.1025 
G01 X-95.6749 Y68.1762 
G01 X-95.3925 Y68.2134 
G01 X-95.1075 Y68.2134 
G01 X-94.8251 Y68.1762 
G01 X-94.5499 Y68.1025 
G01 X-94.2867 Y67.9934 
G01 X-94.0399 Y67.8510 
G01 X-93.8139 Y67.6776 
G01 X-93.6124 Y67.4761 
G01 X-93.4390 Y67.2501 
G01 X-93.2966 Y67.0033 
G01 X-93.1875 Y66.7401 
G01 X-93.1138 Y66.4649 
G01 X-93.0766 Y66.1825 
G01 X-93.0766 Y65.8975 
G01 X-93.1138 Y65.6151 
G01 X-93.1875 Y65.3399 
G01 X-93.2966 Y65.0767 
G01 X-93.4390 Y64.8299 
G01 X-93.6124 Y64.6039 
G01 X-93.8139 Y64.4024 
G01 X-94.0399 Y64.2290 
G01 X-94.2867 Y64.0866 
G01 X-94.5499 Y63.9775 
G01 X-94.8251 Y63.9038 
G01 X-95.1075 Y63.8666 
G01 X-95.3925 Y63.8666 
G01 X-95.6749 Y63.9038 
G01 X-95.9501 Y63.9775 
G01 X-96.2133 Y64.0866 
G01 X-96.4601 Y64.2290 
G01 X-96.6861 Y64.4024 
G01 X-96.8876 Y64.6039 
G01 X-97.0610 Y64.8299 
G01 X-97.2034 Y65.0767 
G01 X-97.3125 Y65.3399 
G01 X-97.3862 Y65.6151 
G01 X-97.4234 Y65.8975 
G00 Z2.5400 
G00 X-97.4234 Y3.6675 
G01 Z-0.1500 F254.00 
G01 X-97.4234 Y3.9525 F508.00 
G01 X-97.3862 Y4.2349 
G01 X-97.3125 Y4.5101 
G01 X-97.2034 Y4.7733 
G01 X-97.0610 Y5.0201 
G01 X-96.8876 Y5.2461 
G01 X-96.6861 Y5.4476 
G01 X-96.4601 Y5.6210 
G01 X-96.2133 Y5.7634 
G01 X-95.9501 Y5.8725 
G01 X-95.6749 Y5.9462 
G01 X-95.3925 Y5.9834 
G01 X-95.1075 Y5.9834 
G01 X-94.8251 Y5.9462 
G01 X-94.5499 Y5.8725 
G01 X-94.2867 Y5.7634 
G01 X-94.0399 Y5.6210 
G01 X-93.8139 Y5.4476 
G01 X-93.6124 Y5.2461 
G01 X-93.4390 Y5.0201 
G01 X-93.2966 Y4.7733 
G01 X-93.1875 Y4.5101 
G01 X-93.1138 Y4.2349 
G01 X-93.0766 Y3.9525 
G01 X-93.0766 Y3.6675 
G01 X-93.1138 Y3.3851 
G01 X-93.1875 Y3.1099 
G01 X-93.2966 Y2.8467 
G01 X-93.4390 Y2.5999 
G01 X-93.6124 Y2.3739 
G01 X-93.8139 Y2.1724 
G01 X-94.0399 Y1.9990 
G01 X-94.2867 Y1.8566 
G01 X-94.5499 Y1.7475 
G01 X-94.8251 Y1.6738 
G01 X-95.1075 Y1.6366 
G01 X-95.3925 Y1.6366 
G01 X-95.6749 Y1.6738 
G01 X-95.9501 Y1.7475 
G01 X-96.2133 Y1.8566 
G01 X-96.4601 Y1.9990 
G01 X-96.6861 Y2.1724 
G01 X-96.8876 Y2.3739 
G01 X-97.0610 Y2.5999 
G01 X-97.2034 Y2.8467 
G01 X-97.3125 Y3.1099 
G01 X-97.3862 Y3.3851 
G01 X-97.4234 Y3.6675 
G00 Z2.5400 
G00 X-45.0376 Y17.8370 
G01 Z-0.1500 F254.00 
G01 X-45.0870 Y17.7876 F508.00 
G01 X-45.1476 Y17.7527 
G01 X-45.2151 Y17.7346 
G01 X-70.8006 Y17.7346 
G01 X-70.8006 Y17.6985 
G01 X-70.8324 Y17.5387 
G01 X-70.8948 Y17.3881 
G01 X-70.9853 Y17.2526 
G01 X-71.1006 Y17.1373 
G01 X-71.2361 Y17.0468 
G01 X-71.3867 Y16.9844 
G01 X-71.5465 Y16.9526 
G01 X-73.2335 Y16.9526 
G01 X-73.3933 Y16.9844 
G01 X-73.5439 Y17.0468 
G01 X-73.6794 Y17.1373 
G01 X-73.7947 Y17.2526 
G01 X-73.8852 Y17.3881 
G01 X-73.9476 Y17.5387 
G01 X-73.9794 Y17.6985 
G01 X-73.9794 Y17.8615 
G01 X-73.9476 Y18.0213 
G01 X-73.8852 Y18.1719 
G01 X-73.7947 Y18.3074 
G01 X-73.6794 Y18.4227 
G01 X-73.5439 Y18.5132 
G01 X-73.3933 Y18.5756 
G01 X-73.2335 Y18.6074 
G01 X-71.5465 Y18.6074 
G01 X-71.3867 Y18.5756 
G01 X-71.2361 Y18.5132 
G01 X-71.1006 Y18.4227 
G01 X-70.9853 Y18.3074 
G01 X-70.9572 Y18.2654 
G01 X-45.3599 Y18.2654 
G01 X-42.7975 Y20.8278 
G01 X-42.8234 Y20.9245 
G01 X-42.8234 Y21.0755 
G01 X-42.7843 Y21.2213 
G01 X-42.7088 Y21.3521 
G01 X-42.6021 Y21.4588 
G01 X-42.4713 Y21.5343 
G01 X-42.3255 Y21.5734 
G01 X-42.1745 Y21.5734 
G01 X-42.0287 Y21.5343 
G01 X-41.8979 Y21.4588 
G01 X-41.7912 Y21.3521 
G01 X-41.7157 Y21.2213 
G01 X-41.6766 Y21.0755 
G01 X-41.6766 Y20.9245 
G01 X-41.7157 Y20.7787 
G01 X-41.7912 Y20.6479 
G01 X-41.8979 Y20.5412 
G01 X-42.0287 Y20.4657 
G01 X-42.1745 Y20.4266 
G01 X-42.3255 Y20.4266 
G01 X-42.4222 Y20.4525 
G01 X-45.0376 Y17.8370 
G00 Z2.5400 
G00 X-71.4651 Y21.7346 
G01 Z-0.1500 F254.00 
G01 X-71.5349 Y21.7346 F508.00 
G01 X-71.6024 Y21.7527 
G01 X-71.6630 Y21.7876 
G01 X-71.9079 Y22.0326 
G01 X-73.2335 Y22.0326 
G01 X-73.3933 Y22.0644 
G01 X-73.5439 Y22.1268 
G01 X-73.6794 Y22.2173 
G01 X-73.7947 Y22.3326 
G01 X-73.8852 Y22.4681 
G01 X-73.9476 Y22.6187 
G01 X-73.9794 Y22.7785 
G01 X-73.9794 Y22.9415 
G01 X-73.9476 Y23.1013 
G01 X-73.8852 Y23.2519 
G01 X-73.7947 Y23.3874 
G01 X-73.6794 Y23.5027 
G01 X-73.5439 Y23.5932 
G01 X-73.3933 Y23.6556 
G01 X-73.2335 Y23.6874 
G01 X-71.5465 Y23.6874 
G01 X-71.3867 Y23.6556 
G01 X-71.2361 Y23.5932 
G01 X-71.1006 Y23.5027 
G01 X-70.9853 Y23.3874 
G01 X-70.8948 Y23.2519 
G01 X-70.8324 Y23.1013 
G01 X-70.8006 Y22.9415 
G01 X-70.8006 Y22.7785 
G01 X-70.8324 Y22.6187 
G01 X-70.8948 Y22.4681 
G01 X-70.9853 Y22.3326 
G01 X-71.0525 Y22.2654 
G01 X-39.5041 Y22.2654 
G01 X-39.4713 Y22.2843 
G01 X-39.3255 Y22.3234 
G01 X-39.1745 Y22.3234 
G01 X-39.0287 Y22.2843 
G01 X-38.8979 Y22.2088 
G01 X-38.7912 Y22.1021 
G01 X-38.7157 Y21.9713 
G01 X-38.6766 Y21.8255 
G01 X-38.6766 Y21.6745 
G01 X-38.7157 Y21.5287 
G01 X-38.7912 Y21.3979 
G01 X-38.8979 Y21.2912 
G01 X-39.0287 Y21.2157 
G01 X-39.1745 Y21.1766 
G01 X-39.3255 Y21.1766 
G01 X-39.4713 Y21.2157 
G01 X-39.6021 Y21.2912 
G01 X-39.7088 Y21.3979 
G01 X-39.7843 Y21.5287 
G01 X-39.8234 Y21.6745 
G01 X-39.8234 Y21.7346 
G01 X-71.4651 Y21.7346 
G00 Z2.5400 
G00 X-45.4416 Y3.4003 
G01 Z-0.1500 F254.00 
G01 X-45.4812 Y3.3924 F508.00 
G01 X-45.4125 Y3.3924 
G01 X-45.3785 Y3.4264 
G01 X-45.4416 Y3.4003 
G00 Z2.5400 
G00 X-30.7288 Y23.9196 
G01 Z-0.1500 F254.00 
G01 X-30.8840 Y23.9839 F508.00 
G01 X-31.0236 Y24.0772 
G01 X-31.1424 Y24.1960 
G01 X-31.2357 Y24.3356 
G01 X-31.3000 Y24.4908 
G01 X-31.3328 Y24.6556 
G01 X-31.3328 Y26.1444 
G01 X-31.3000 Y26.3092 
G01 X-31.2357 Y26.4643 
G01 X-31.1424 Y26.6040 
G01 X-31.0236 Y26.7228 
G01 X-30.8840 Y26.8161 
G01 X-30.7288 Y26.8804 
G01 X-30.5640 Y26.9132 
G01 X-30.3960 Y26.9132 
G01 X-30.2312 Y26.8804 
G01 X-30.0760 Y26.8161 
G01 X-29.9364 Y26.7228 
G01 X-29.8176 Y26.6040 
G01 X-29.7709 Y26.5341 
G01 X-29.3140 Y26.9909 
G01 X-29.2409 Y27.0640 
G01 X-29.1515 Y27.1157 
G01 X-29.0517 Y27.1424 
G01 X-24.8302 Y27.1424 
G01 X-24.7940 Y27.1965 
G01 X-24.6965 Y27.2940 
G01 X-24.6013 Y27.3576 
G01 X-38.0875 Y27.3576 
G01 X-39.7872 Y25.6579 
G01 X-39.7872 Y24.6556 
G01 X-39.8200 Y24.4908 
G01 X-39.8843 Y24.3356 
G01 X-39.9776 Y24.1960 
G01 X-40.0964 Y24.0772 
G01 X-40.2360 Y23.9839 
G01 X-40.3912 Y23.9196 
G01 X-40.5279 Y23.8924 
G01 X-38.2121 Y23.8924 
G01 X-38.3488 Y23.9196 
G01 X-38.5040 Y23.9839 
G01 X-38.6436 Y24.0772 
G01 X-38.7624 Y24.1960 
G01 X-38.8557 Y24.3356 
G01 X-38.9200 Y24.4908 
G01 X-38.9528 Y24.6556 
G01 X-38.9528 Y26.1444 
G01 X-38.9200 Y26.3092 
G01 X-38.8557 Y26.4643 
G01 X-38.7624 Y26.6040 
G01 X-38.6436 Y26.7228 
G01 X-38.5040 Y26.8161 
G01 X-38.3488 Y26.8804 
G01 X-38.1840 Y26.9132 
G01 X-38.0160 Y26.9132 
G01 X-37.8512 Y26.8804 
G01 X-37.6960 Y26.8161 
G01 X-37.5564 Y26.7228 
G01 X-37.4376 Y26.6040 
G01 X-37.3443 Y26.4643 
G01 X-37.2800 Y26.3092 
G01 X-37.2472 Y26.1444 
G01 X-37.2472 Y24.6556 
G01 X-37.2800 Y24.4908 
G01 X-37.3443 Y24.3356 
G01 X-37.4376 Y24.1960 
G01 X-37.5564 Y24.0772 
G01 X-37.6960 Y23.9839 
G01 X-37.8512 Y23.9196 
G01 X-37.9879 Y23.8924 
G01 X-35.6721 Y23.8924 
G01 X-35.8088 Y23.9196 
G01 X-35.9640 Y23.9839 
G01 X-36.1036 Y24.0772 
G01 X-36.2224 Y24.1960 
G01 X-36.3157 Y24.3356 
G01 X-36.3800 Y24.4908 
G01 X-36.4128 Y24.6556 
G01 X-36.4128 Y26.1444 
G01 X-36.3800 Y26.3092 
G01 X-36.3157 Y26.4643 
G01 X-36.2224 Y26.6040 
G01 X-36.1036 Y26.7228 
G01 X-35.9640 Y26.8161 
G01 X-35.8088 Y26.8804 
G01 X-35.6440 Y26.9132 
G01 X-35.4760 Y26.9132 
G01 X-35.3112 Y26.8804 
G01 X-35.1560 Y26.8161 
G01 X-35.0164 Y26.7228 
G01 X-34.8976 Y26.6040 
G01 X-34.8043 Y26.4643 
G01 X-34.7400 Y26.3092 
G01 X-34.7072 Y26.1444 
G01 X-34.7072 Y24.6556 
G01 X-34.7400 Y24.4908 
G01 X-34.8043 Y24.3356 
G01 X-34.8976 Y24.1960 
G01 X-35.0164 Y24.0772 
G01 X-35.1560 Y23.9839 
G01 X-35.3112 Y23.9196 
G01 X-35.4479 Y23.8924 
G01 X-33.1321 Y23.8924 
G01 X-33.2688 Y23.9196 
G01 X-33.4240 Y23.9839 
G01 X-33.5636 Y24.0772 
G01 X-33.6824 Y24.1960 
G01 X-33.7757 Y24.3356 
G01 X-33.8400 Y24.4908 
G01 X-33.8728 Y24.6556 
G01 X-33.8728 Y26.1444 
G01 X-33.8400 Y26.3092 
G01 X-33.7757 Y26.4643 
G01 X-33.6824 Y26.6040 
G01 X-33.5636 Y26.7228 
G01 X-33.4240 Y26.8161 
G01 X-33.2688 Y26.8804 
G01 X-33.1040 Y26.9132 
G01 X-32.9360 Y26.9132 
G01 X-32.7712 Y26.8804 
G01 X-32.6160 Y26.8161 
G01 X-32.4764 Y26.7228 
G01 X-32.3576 Y26.6040 
G01 X-32.2643 Y26.4643 
G01 X-32.2000 Y26.3092 
G01 X-32.1672 Y26.1444 
G01 X-32.1672 Y24.6556 
G01 X-32.2000 Y24.4908 
G01 X-32.2643 Y24.3356 
G01 X-32.3576 Y24.1960 
G01 X-32.4764 Y24.0772 
G01 X-32.6160 Y23.9839 
G01 X-32.7712 Y23.9196 
G01 X-32.9079 Y23.8924 
G01 X-30.5921 Y23.8924 
G01 X-30.7288 Y23.9196 
G00 Z2.5400 
G00 X-18.1965 Y43.9560 
G01 Z-0.1500 F254.00 
G01 X-18.2940 Y44.0535 F508.00 
G01 X-18.3302 Y44.1076 
G01 X-35.4198 Y44.1076 
G01 X-35.4560 Y44.0535 
G01 X-35.5535 Y43.9560 
G01 X-35.6487 Y43.8924 
G01 X-18.1013 Y43.8924 
G01 X-18.1965 Y43.9560 
G00 Z2.5400 
G00 X-36.3513 Y43.8924 
G01 Z-0.1500 F254.00 
G01 X-36.4465 Y43.9560 F508.00 
G01 X-36.5440 Y44.0535 
G01 X-36.5802 Y44.1076 
G01 X-51.8987 Y44.1076 
G01 X-51.8035 Y44.0440 
G01 X-51.7060 Y43.9465 
G01 X-51.6698 Y43.8924 
G01 X-36.3513 Y43.8924 
G00 Z2.5400 
G00 X-19.3912 Y23.3039 
G01 Z-0.1500 F254.00 
G01 X-19.5091 Y23.1860 F508.00 
G01 X-19.5846 Y23.1424 
G01 X-19.4581 Y23.1424 
G01 X-19.3912 Y23.3039 
G00 Z2.5400 
G00 X-38.8017 Y58.8924 
G01 Z-0.1500 F254.00 
G01 X-30.2777 Y58.8924 F508.00 
G01 X-30.4210 Y58.9881 
G01 X-30.5469 Y59.1140 
G01 X-30.6458 Y59.2620 
G01 X-30.7139 Y59.4264 
G01 X-30.7486 Y59.6010 
G01 X-30.7486 Y59.7790 
G01 X-30.7139 Y59.9536 
G01 X-30.6458 Y60.1180 
G01 X-30.5469 Y60.2660 
G01 X-30.4210 Y60.3919 
G01 X-30.2730 Y60.4908 
G01 X-30.1086 Y60.5589 
G01 X-29.9340 Y60.5936 
G01 X-29.7560 Y60.5936 
G01 X-29.5814 Y60.5589 
G01 X-29.4170 Y60.4908 
G01 X-29.2690 Y60.3919 
G01 X-29.1431 Y60.2660 
G01 X-29.0442 Y60.1180 
G01 X-28.9761 Y59.9536 
G01 X-28.9414 Y59.7790 
G01 X-28.9414 Y59.6010 
G01 X-28.9761 Y59.4264 
G01 X-29.0442 Y59.2620 
G01 X-29.1431 Y59.1140 
G01 X-29.2690 Y58.9881 
G01 X-29.4123 Y58.8924 
G01 X-27.7377 Y58.8924 
G01 X-27.8810 Y58.9881 
G01 X-28.0069 Y59.1140 
G01 X-28.1058 Y59.2620 
G01 X-28.1739 Y59.4264 
G01 X-28.2086 Y59.6010 
G01 X-28.2086 Y59.7790 
G01 X-28.1879 Y59.8830 
G01 X-28.9125 Y60.6076 
G01 X-39.8375 Y60.6076 
G01 X-40.4311 Y60.0139 
G01 X-40.4061 Y59.9536 
G01 X-40.3714 Y59.7790 
G01 X-40.3714 Y59.6010 
G01 X-40.4061 Y59.4264 
G01 X-40.4742 Y59.2620 
G01 X-40.5731 Y59.1140 
G01 X-40.6990 Y58.9881 
G01 X-40.8423 Y58.8924 
G01 X-38.9483 Y58.8924 
G01 X-38.8750 Y58.8727 
G01 X-38.8017 Y58.8924 
G00 Z2.5400 
G00 X-41.8510 Y58.9881 
G01 Z-0.1500 F254.00 
G01 X-41.9769 Y59.1140 F508.00 
G01 X-42.0758 Y59.2620 
G01 X-42.1076 Y59.3389 
G01 X-42.1076 Y58.8924 
G01 X-41.7077 Y58.8924 
G01 X-41.8510 Y58.9881 
G00 Z2.5400 
G00 X-97.5504 Y3.6592 
G01 Z-0.1500 F254.00 
G01 X-97.5504 Y3.9608 F508.00 
G01 X-97.5110 Y4.2597 
G01 X-97.4330 Y4.5510 
G01 X-97.3176 Y4.8296 
G01 X-97.1668 Y5.0908 
G01 X-96.9832 Y5.3300 
G01 X-96.7700 Y5.5432 
G01 X-96.5308 Y5.7268 
G01 X-96.2696 Y5.8776 
G01 X-95.9910 Y5.9930 
G01 X-95.6997 Y6.0710 
G01 X-95.4008 Y6.1104 
G01 X-95.0992 Y6.1104 
G01 X-94.8003 Y6.0710 
G01 X-94.5090 Y5.9930 
G01 X-94.2304 Y5.8776 
G01 X-93.9692 Y5.7268 
G01 X-93.7300 Y5.5432 
G01 X-93.5168 Y5.3300 
G01 X-93.3332 Y5.0908 
G01 X-93.1824 Y4.8296 
G01 X-93.0670 Y4.5510 
G01 X-92.9890 Y4.2597 
G01 X-92.9496 Y3.9608 
G01 X-92.9496 Y3.6592 
G01 X-92.9890 Y3.3603 
G01 X-93.0670 Y3.0690 
G01 X-93.1824 Y2.7904 
G01 X-93.3332 Y2.5292 
G01 X-93.5168 Y2.2900 
G01 X-93.7300 Y2.0768 
G01 X-93.9692 Y1.8932 
G01 X-94.2304 Y1.7424 
G01 X-94.5090 Y1.6270 
G01 X-94.8003 Y1.5490 
G01 X-95.0992 Y1.5096 
G01 X-95.4008 Y1.5096 
G01 X-95.6997 Y1.5490 
G01 X-95.9910 Y1.6270 
G01 X-96.2696 Y1.7424 
G01 X-96.5308 Y1.8932 
G01 X-96.7700 Y2.0768 
G01 X-96.9832 Y2.2900 
G01 X-97.1668 Y2.5292 
G01 X-97.3176 Y2.7904 
G01 X-97.4330 Y3.0690 
G01 X-97.5110 Y3.3603 
G01 X-97.5504 Y3.6592 
G00 Z2.5400 
G00 X-97.5504 Y65.8892 
G01 Z-0.1500 F254.00 
G01 X-97.5504 Y66.1908 F508.00 
G01 X-97.5110 Y66.4897 
G01 X-97.4330 Y66.7810 
G01 X-97.3176 Y67.0596 
G01 X-97.1668 Y67.3208 
G01 X-96.9832 Y67.5600 
G01 X-96.7700 Y67.7732 
G01 X-96.5308 Y67.9568 
G01 X-96.2696 Y68.1076 
G01 X-95.9910 Y68.2230 
G01 X-95.6997 Y68.3010 
G01 X-95.4008 Y68.3404 
G01 X-95.0992 Y68.3404 
G01 X-94.8003 Y68.3010 
G01 X-94.5090 Y68.2230 
G01 X-94.2304 Y68.1076 
G01 X-93.9692 Y67.9568 
G01 X-93.7300 Y67.7732 
G01 X-93.5168 Y67.5600 
G01 X-93.3332 Y67.3208 
G01 X-93.1824 Y67.0596 
G01 X-93.0670 Y66.7810 
G01 X-92.9890 Y66.4897 
G01 X-92.9496 Y66.1908 
G01 X-92.9496 Y65.8892 
G01 X-92.9890 Y65.5902 
G01 X-93.0670 Y65.2990 
G01 X-93.1824 Y65.0204 
G01 X-93.3332 Y64.7592 
G01 X-93.5168 Y64.5200 
G01 X-93.7300 Y64.3068 
G01 X-93.9692 Y64.1232 
G01 X-94.2304 Y63.9724 
G01 X-94.5090 Y63.8570 
G01 X-94.8003 Y63.7790 
G01 X-95.0992 Y63.7396 
G01 X-95.4008 Y63.7396 
G01 X-95.6997 Y63.7790 
G01 X-95.9910 Y63.8570 
G01 X-96.2696 Y63.9724 
G01 X-96.5308 Y64.1232 
G01 X-96.7700 Y64.3068 
G01 X-96.9832 Y64.5200 
G01 X-97.1668 Y64.7592 
G01 X-97.3176 Y65.0204 
G01 X-97.4330 Y65.2990 
G01 X-97.5110 Y65.5902 
G01 X-97.5504 Y65.8892 
G00 Z2.5400 
G00 X-6.1104 Y3.6592 
G01 Z-0.1500 F254.00 
G01 X-6.1104 Y3.9608 F508.00 
G01 X-6.0710 Y4.2597 
G01 X-5.9930 Y4.5510 
G01 X-5.8776 Y4.8296 
G01 X-5.7268 Y5.0908 
G01 X-5.5432 Y5.3300 
G01 X-5.3300 Y5.5432 
G01 X-5.0908 Y5.7268 
G01 X-4.8296 Y5.8776 
G01 X-4.5510 Y5.9930 
G01 X-4.2597 Y6.0710 
G01 X-3.9608 Y6.1104 
G01 X-3.6592 Y6.1104 
G01 X-3.3603 Y6.0710 
G01 X-3.0690 Y5.9930 
G01 X-2.7904 Y5.8776 
G01 X-2.5292 Y5.7268 
G01 X-2.2900 Y5.5432 
G01 X-2.0768 Y5.3300 
G01 X-1.8932 Y5.0908 
G01 X-1.7424 Y4.8296 
G01 X-1.6270 Y4.5510 
G01 X-1.5490 Y4.2597 
G01 X-1.5096 Y3.9608 
G01 X-1.5096 Y3.6592 
G01 X-1.5490 Y3.3603 
G01 X-1.6270 Y3.0690 
G01 X-1.7424 Y2.7904 
G01 X-1.8932 Y2.5292 
G01 X-2.0768 Y2.2900 
G01 X-2.2900 Y2.0768 
G01 X-2.5292 Y1.8932 
G01 X-2.7904 Y1.7424 
G01 X-3.0690 Y1.6270 
G01 X-3.3603 Y1.5490 
G01 X-3.6592 Y1.5096 
G01 X-3.9608 Y1.5096 
G01 X-4.2597 Y1.5490 
G01 X-4.5510 Y1.6270 
G01 X-4.8296 Y1.7424 
G01 X-5.0908 Y1.8932 
G01 X-5.3300 Y2.0768 
G01 X-5.5432 Y2.2900 
G01 X-5.7268 Y2.5292 
G01 X-5.8776 Y2.7904 
G01 X-5.9930 Y3.0690 
G01 X-6.0710 Y3.3603 
G01 X-6.1104 Y3.6592 
G00 Z2.5400 
G00 X-6.1104 Y65.8892 
G01 Z-0.1500 F254.00 
G01 X-6.1104 Y66.1908 F508.00 
G01 X-6.0710 Y66.4897 
G01 X-5.9930 Y66.7810 
G01 X-5.8776 Y67.0596 
G01 X-5.7268 Y67.3208 
G01 X-5.5432 Y67.5600 
G01 X-5.3300 Y67.7732 
G01 X-5.0908 Y67.9568 
G01 X-4.8296 Y68.1076 
G01 X-4.5510 Y68.2230 
G01 X-4.2597 Y68.3010 
G01 X-3.9608 Y68.3404 
G01 X-3.6592 Y68.3404 
G01 X-3.3603 Y68.3010 
G01 X-3.0690 Y68.2230 
G01 X-2.7904 Y68.1076 
G01 X-2.5292 Y67.9568 
G01 X-2.2900 Y67.7732 
G01 X-2.0768 Y67.5600 
G01 X-1.8932 Y67.3208 
G01 X-1.7424 Y67.0596 
G01 X-1.6270 Y66.7810 
G01 X-1.5490 Y66.4897 
G01 X-1.5096 Y66.1908 
G01 X-1.5096 Y65.8892 
G01 X-1.5490 Y65.5902 
G01 X-1.6270 Y65.2990 
G01 X-1.7424 Y65.0204 
G01 X-1.8932 Y64.7592 
G01 X-2.0768 Y64.5200 
G01 X-2.2900 Y64.3068 
G01 X-2.5292 Y64.1232 
G01 X-2.7904 Y63.9724 
G01 X-3.0690 Y63.8570 
G01 X-3.3603 Y63.7790 
G01 X-3.6592 Y63.7396 
G01 X-3.9608 Y63.7396 
G01 X-4.2597 Y63.7790 
G01 X-4.5510 Y63.8570 
G01 X-4.8296 Y63.9724 
G01 X-5.0908 Y64.1232 
G01 X-5.3300 Y64.3068 
G01 X-5.5432 Y64.5200 
G01 X-5.7268 Y64.7592 
G01 X-5.8776 Y65.0204 
G01 X-5.9930 Y65.2990 
G01 X-6.0710 Y65.5902 
G01 X-6.1104 Y65.8892 
G00 Z2.5400 
G00 X-10.4546 Y61.0367 
G01 Z-0.1500 F254.00 
G01 X-10.4546 Y63.4233 F508.00 
G01 X-10.4230 Y63.6230 
G01 X-10.3605 Y63.8153 
G01 X-10.2687 Y63.9955 
G01 X-10.1498 Y64.1591 
G01 X-10.0069 Y64.3020 
G01 X-9.8433 Y64.4209 
G01 X-9.6631 Y64.5127 
G01 X-9.4708 Y64.5752 
G01 X-9.2711 Y64.6068 
G01 X-9.0689 Y64.6068 
G01 X-8.8692 Y64.5752 
G01 X-8.6769 Y64.5127 
G01 X-8.4967 Y64.4209 
G01 X-8.3331 Y64.3020 
G01 X-8.1902 Y64.1591 
G01 X-8.0713 Y63.9955 
G01 X-7.9795 Y63.8153 
G01 X-7.9170 Y63.6230 
G01 X-7.8854 Y63.4233 
G01 X-7.8854 Y61.0367 
G01 X-7.9170 Y60.8370 
G01 X-7.9795 Y60.6447 
G01 X-8.0713 Y60.4645 
G01 X-8.1902 Y60.3009 
G01 X-8.3331 Y60.1580 
G01 X-8.4967 Y60.0391 
G01 X-8.6769 Y59.9473 
G01 X-8.8692 Y59.8848 
G01 X-9.0689 Y59.8532 
G01 X-9.2711 Y59.8532 
G01 X-9.4708 Y59.8848 
G01 X-9.6631 Y59.9473 
G01 X-9.8433 Y60.0391 
G01 X-10.0069 Y60.1580 
G01 X-10.1498 Y60.3009 
G01 X-10.2687 Y60.4645 
G01 X-10.3605 Y60.6447 
G01 X-10.4230 Y60.8370 
G01 X-10.4546 Y61.0367 
G00 Z2.5400 
G00 X-15.1633 Y66.5146 
G01 Z-0.1500 F254.00 
G01 X-12.7767 Y66.5146 F508.00 
