(.../pcb-gcode-3.6.0.4/pcb-gcode.ulp)
(Copyright 2005 - 2012 by John Johnson)
(See readme.txt for licensing terms.)
(This file generated from the board:)
(.../eagle/ARMEDBASE_V0/MCU/MCU.brd)
(Current profile is .../pcb-gcode-3.6.0.4/profiles/emc.pp  )
(This file generated 6/20/2014 1:40:04 PM)
(Settings from pcb-machine.h)
(  Tool Size)
(0.2000 )
(Z Axis Settings)
(  High     Up        Down     Drill)
(12.7000 	2.5400 	-0.1500 	-0.8128 )
(spindle on time = 3.0000)
(milling depth = -0.1500)
(text depth = -0.1270)
(tool change at 12.7000 15.2400 25.4000 )
(feed rate xy = F508.00 )
(feed rate z  = F254.00 )
(Settings from pcb-defaults.h)
(isolate min = 0.0154)
(isolate max = 0.5080)
(isolate step = 0.1270)
(Generated top outlines, top drill, bottom outlines, bottom drill, )
(Unit of measure: mm)
( Tool|       Size       |  Min Sub |  Max Sub |   Count )
( T01  3.200mm 0.1260in 0.0000in 0.0000in )
( T02  0.610mm 0.0240in 0.0000in 0.0000in )
( T03  0.800mm 0.0315in 0.0000in 0.0000in )
( T04  0.813mm 0.0320in 0.0000in 0.0000in )
( T05  0.900mm 0.0354in 0.0000in 0.0000in )
( T06  1.000mm 0.0394in 0.0000in 0.0000in )
( T07  1.016mm 0.0400in 0.0000in 0.0000in )
( T08  1.118mm 0.0440in 0.0000in 0.0000in )
( T09  1.500mm 0.0591in 0.0000in 0.0000in )
( T10  1.676mm 0.0660in 0.0000in 0.0000in )
(Metric Mode)
G21
(Absolute Coordinates)
G90
M05
G00 Z25.4000 
G00 X12.7000 Y15.2400 
M06 T01  ; 3.2000 
G01 Z0.0000 F254.00 
M06 T01  ; 3.2000 
G00 Z2.5400 
M03
G04 P3.000000
G00 Z2.540000
G00 X-31.7500 Y93.9800 
G01 Z-0.8128 F254.00 
G01 Z2.540000
(R2.5400  P1.000000)
(G00 Z2.540000)
G00 X-3.8100 Y3.8100 
G01 Z-0.812800
G01 Z2.540000
(G00 Z2.540000)
G00 X-3.8100 Y96.5200 
G01 Z-0.812800
G01 Z2.540000
(G00 Z2.540000)
G00 X-85.0900 Y3.8100 
G01 Z-0.812800
G01 Z2.540000
(G00 Z2.540000)
G00 X-85.0900 Y96.5200 
G01 Z-0.812800
G01 Z2.540000
(G00 Z2.540000)
G00 X-24.1300 Y93.9800 
G01 Z-0.812800
G01 Z2.540000
M05
G00 Z25.4000 
M06 T02  ; 0.6096 
G01 Z0.0000 F254.00 
M06 T02  ; 0.6096 
G00 Z2.5400 
M03
G04 P3.000000
G00 Z2.540000
G00 X-44.4500 Y81.2800 
G01 Z-0.8128 F254.00 
G01 Z2.540000
(R2.5400  P1.000000)
M05
G00 Z25.4000 
M06 T03  ; 0.8000 
G01 Z0.0000 F254.00 
M06 T03  ; 0.8000 
G00 Z2.5400 
M03
G04 P3.000000
G00 Z2.540000
G00 X-9.1700 Y92.7100 
G01 Z-0.8128 F254.00 
G01 Z2.540000
(R2.5400  P1.000000)
(G00 Z2.540000)
G00 X-13.9700 Y95.7100 
G01 Z-0.812800
G01 Z2.540000
M05
G00 Z25.4000 
M06 T04  ; 0.8128 
G01 Z0.0000 F254.00 
M06 T04  ; 0.8128 
G00 Z2.5400 
M03
G04 P3.000000
G00 Z2.540000
G00 X-33.0200 Y43.1800 
G01 Z-0.8128 F254.00 
G01 Z2.540000
(R2.5400  P1.000000)
(G00 Z2.540000)
G00 X-33.0200 Y45.7200 
G01 Z-0.812800
G01 Z2.540000
(G00 Z2.540000)
G00 X-33.0200 Y48.2600 
G01 Z-0.812800
G01 Z2.540000
(G00 Z2.540000)
G00 X-33.0200 Y50.8000 
G01 Z-0.812800
G01 Z2.540000
(G00 Z2.540000)
G00 X-33.0200 Y53.3400 
G01 Z-0.812800
G01 Z2.540000
(G00 Z2.540000)
G00 X-33.0200 Y55.8800 
G01 Z-0.812800
G01 Z2.540000
(G00 Z2.540000)
G00 X-33.0200 Y58.4200 
G01 Z-0.812800
G01 Z2.540000
(G00 Z2.540000)
G00 X-33.0200 Y60.9600 
G01 Z-0.812800
G01 Z2.540000
(G00 Z2.540000)
G00 X-33.0200 Y63.5000 
G01 Z-0.812800
G01 Z2.540000
(G00 Z2.540000)
G00 X-33.0200 Y66.0400 
G01 Z-0.812800
G01 Z2.540000
(G00 Z2.540000)
G00 X-33.0200 Y68.5800 
G01 Z-0.812800
G01 Z2.540000
(G00 Z2.540000)
G00 X-33.0200 Y71.1200 
G01 Z-0.812800
G01 Z2.540000
(G00 Z2.540000)
G00 X-33.0200 Y73.6600 
G01 Z-0.812800
G01 Z2.540000
(G00 Z2.540000)
G00 X-33.0200 Y76.2000 
G01 Z-0.812800
G01 Z2.540000
(G00 Z2.540000)
G00 X-36.8300 Y87.6300 
G01 Z-0.812800
G01 Z2.540000
(G00 Z2.540000)
G00 X-36.8300 Y90.1700 
G01 Z-0.812800
G01 Z2.540000
(G00 Z2.540000)
G00 X-36.8300 Y92.7100 
G01 Z-0.812800
G01 Z2.540000
(G00 Z2.540000)
G00 X-36.8300 Y95.2500 
G01 Z-0.812800
G01 Z2.540000
(G00 Z2.540000)
G00 X-40.6400 Y43.1800 
G01 Z-0.812800
G01 Z2.540000
(G00 Z2.540000)
G00 X-40.6400 Y45.7200 
G01 Z-0.812800
G01 Z2.540000
(G00 Z2.540000)
G00 X-40.6400 Y48.2600 
G01 Z-0.812800
G01 Z2.540000
(G00 Z2.540000)
G00 X-40.6400 Y50.8000 
G01 Z-0.812800
G01 Z2.540000
(G00 Z2.540000)
G00 X-40.6400 Y53.3400 
G01 Z-0.812800
G01 Z2.540000
(G00 Z2.540000)
G00 X-40.6400 Y55.8800 
G01 Z-0.812800
G01 Z2.540000
(G00 Z2.540000)
G00 X-40.6400 Y58.4200 
G01 Z-0.812800
G01 Z2.540000
(G00 Z2.540000)
G00 X-40.6400 Y60.9600 
G01 Z-0.812800
G01 Z2.540000
(G00 Z2.540000)
G00 X-40.6400 Y63.5000 
G01 Z-0.812800
G01 Z2.540000
(G00 Z2.540000)
G00 X-40.6400 Y66.0400 
G01 Z-0.812800
G01 Z2.540000
(G00 Z2.540000)
G00 X-40.6400 Y68.5800 
G01 Z-0.812800
G01 Z2.540000
(G00 Z2.540000)
G00 X-40.6400 Y71.1200 
G01 Z-0.812800
G01 Z2.540000
(G00 Z2.540000)
G00 X-40.6400 Y73.6600 
G01 Z-0.812800
G01 Z2.540000
(G00 Z2.540000)
G00 X-40.6400 Y76.2000 
G01 Z-0.812800
G01 Z2.540000
(G00 Z2.540000)
G00 X-44.4500 Y87.6300 
G01 Z-0.812800
G01 Z2.540000
(G00 Z2.540000)
G00 X-44.4500 Y90.1700 
G01 Z-0.812800
G01 Z2.540000
(G00 Z2.540000)
G00 X-44.4500 Y92.7100 
G01 Z-0.812800
G01 Z2.540000
(G00 Z2.540000)
G00 X-44.4500 Y95.2500 
G01 Z-0.812800
G01 Z2.540000
M05
G00 Z25.4000 
M06 T05  ; 0.9000 
G01 Z0.0000 F254.00 
M06 T05  ; 0.9000 
G00 Z2.5400 
M03
G04 P3.000000
G00 Z2.540000
G00 X-26.0350 Y85.0900 
G01 Z-0.8128 F254.00 
G01 Z2.540000
(R2.5400  P1.000000)
(G00 Z2.540000)
G00 X-27.3050 Y87.6300 
G01 Z-0.812800
G01 Z2.540000
(G00 Z2.540000)
G00 X-28.5750 Y85.0900 
G01 Z-0.812800
G01 Z2.540000
(G00 Z2.540000)
G00 X-29.8450 Y87.6300 
G01 Z-0.812800
G01 Z2.540000
M05
G00 Z25.4000 
M06 T06  ; 1.0000 
G01 Z0.0000 F254.00 
M06 T06  ; 1.0000 
G00 Z2.5400 
M03
G04 P3.000000
G00 Z2.540000
G00 X-13.9700 Y89.7100 
G01 Z-0.8128 F254.00 
G01 Z2.540000
(R2.5400  P1.000000)
M05
G00 Z25.4000 
M06 T07  ; 1.0160 
G01 Z0.0000 F254.00 
M06 T07  ; 1.0160 
G00 Z2.5400 
M03
G04 P3.000000
G00 Z2.540000
G00 X-4.3688 Y62.5094 
G01 Z-0.8128 F254.00 
G01 Z2.540000
(R2.5400  P1.000000)
(G00 Z2.540000)
G00 X-4.3688 Y67.0306 
G01 Z-0.812800
G01 Z2.540000
(G00 Z2.540000)
G00 X-10.8712 Y62.5094 
G01 Z-0.812800
G01 Z2.540000
(G00 Z2.540000)
G00 X-10.8712 Y67.0306 
G01 Z-0.812800
G01 Z2.540000
(G00 Z2.540000)
G00 X-144.7800 Y92.7100 
G01 Z-0.812800
G01 Z2.540000
(G00 Z2.540000)
G00 X-147.3200 Y92.7100 
G01 Z-0.812800
G01 Z2.540000
(G00 Z2.540000)
G00 X-149.8600 Y92.7100 
G01 Z-0.812800
G01 Z2.540000
(G00 Z2.540000)
G00 X-152.4000 Y92.7100 
G01 Z-0.812800
G01 Z2.540000
M05
G00 Z25.4000 
M06 T08  ; 1.1176 
G01 Z0.0000 F254.00 
M06 T08  ; 1.1176 
G00 Z2.5400 
M03
G04 P3.000000
G00 Z2.540000
G00 X-6.3500 Y72.3900 
G01 Z-0.8128 F254.00 
G01 Z2.540000
(R2.5400  P1.000000)
(G00 Z2.540000)
G00 X-10.1600 Y72.3900 
G01 Z-0.812800
G01 Z2.540000
(G00 Z2.540000)
G00 X-2.5400 Y72.3900 
G01 Z-0.812800
G01 Z2.540000
M05
G00 Z25.4000 
M06 T09  ; 1.5000 
G01 Z0.0000 F254.00 
M06 T09  ; 1.5000 
G00 Z2.5400 
M03
G04 P3.000000
G00 Z2.540000
G00 X-59.0700 Y78.8200 
G01 Z-0.8128 F254.00 
G01 Z2.540000
(R2.5400  P1.000000)
(G00 Z2.540000)
G00 X-59.0700 Y88.8200 
G01 Z-0.812800
G01 Z2.540000
(G00 Z2.540000)
G00 X-69.2700 Y78.8200 
G01 Z-0.812800
G01 Z2.540000
(G00 Z2.540000)
G00 X-69.2700 Y88.8200 
G01 Z-0.812800
G01 Z2.540000
(G00 Z2.540000)
G00 X-71.7700 Y83.8200 
G01 Z-0.812800
G01 Z2.540000
M05
G00 Z25.4000 
M06 T10  ; 1.6764 
G01 Z0.0000 F254.00 
M06 T10  ; 1.6764 
G00 Z2.5400 
M03
G04 P3.000000
G00 Z2.540000
G00 X-58.9788 Y96.5200 
G01 Z-0.8128 F254.00 
G01 Z2.540000
(R2.5400  P1.000000)
(G00 Z2.540000)
G00 X-62.9412 Y96.5200 
G01 Z-0.812800
G01 Z2.540000
(G00 Z2.540000)
G00 X-147.8788 Y66.0400 
G01 Z-0.812800
G01 Z2.540000
(G00 Z2.540000)
G00 X-149.1488 Y50.8000 
G01 Z-0.812800
G01 Z2.540000
(G00 Z2.540000)
G00 X-149.1488 Y81.2800 
G01 Z-0.812800
G01 Z2.540000
(G00 Z2.540000)
G00 X-151.8412 Y66.0400 
G01 Z-0.812800
G01 Z2.540000
(G00 Z2.540000)
G00 X-153.1112 Y50.8000 
G01 Z-0.812800
G01 Z2.540000
(G00 Z2.540000)
G00 X-153.1112 Y81.2800 
G01 Z-0.812800
G01 Z2.540000
T01 
G00 Z12.7000 
M05
M02
