(.../pcb-gcode-3.6.0.4/pcb-gcode.ulp)
(Copyright 2005 - 2012 by John Johnson)
(See readme.txt for licensing terms.)
(This file generated from the board:)
(.../eagle/ARMEDBASE_V0/MCU/MCU.brd)
(Current profile is .../pcb-gcode-3.6.0.4/profiles/emc.pp  )
(This file generated 7/3/2014 10:28:08 AM)
(Settings from pcb-machine.h)
(  Tool Size)
(0.1000 )
(Z Axis Settings)
(  High     Up        Down     Drill)
(15.0000 	2.0000 	-0.0250 	-1.5000 )
(spindle on time = 1.0000)
(milling depth = -0.0500)
(text depth = -0.0500)
(tool change at 15.0000 15.0000 15.0000 )
(feed rate xy = F508.00 )
(feed rate z  = F254.00 )
(Settings from pcb-defaults.h)
(isolate min = 0.0500)
(isolate max = 0.3000)
(isolate step = 0.1000)
(Generated top outlines, top drill, bottom outlines, bottom drill, )
(Unit of measure: mm)
(Metric Mode)
G21
(Absolute Coordinates)
G90
G00 X0.0000 Y0.0000 
M03
G04 P1.000000
G00 Z2.0000 
G00 X65.0000 Y48.6299 
G01 Z-0.0250 F254.00 
G01 X65.0264 Y48.6299 F508.00 
G01 X65.0000 Y48.6035 
G01 X65.0000 Y48.6299 
G00 Z2.0000 
G00 X78.2096 Y18.8002 
G01 Z-0.0250 F254.00 
G01 X78.0780 Y18.9318 F508.00 
G01 X78.0780 Y19.2863 
G01 X78.5642 Y18.8002 
G01 X78.2096 Y18.8002 
G00 Z2.0000 
G00 X79.2721 Y19.4480 
G01 Z-0.0250 F254.00 
G01 X79.4037 Y19.3164 F508.00 
G01 X79.4037 Y18.9619 
G01 X78.9176 Y19.4480 
G01 X79.2721 Y19.4480 
G00 Z2.0000 
G00 X79.2721 Y30.4942 
G01 Z-0.0250 F254.00 
G01 X78.2096 Y30.4942 F508.00 
G01 X78.0780 Y30.6258 
G01 X78.0780 Y31.1420 
G01 X79.4037 Y31.1420 
G01 X79.4037 Y30.6258 
G01 X79.2721 Y30.4942 
G00 Z2.0000 
G00 X83.2137 Y17.9140 
G01 Z-0.0250 F254.00 
G01 X83.2137 Y17.3978 F508.00 
G01 X83.0821 Y17.2662 
G01 X83.0365 Y17.2662 
G01 X82.9049 Y17.3978 
G01 X82.9049 Y17.9140 
G01 X83.2137 Y17.9140 
G00 Z2.0000 
G00 X82.0653 Y17.2662 
G01 Z-0.0250 F254.00 
G01 X82.0196 Y17.2662 F508.00 
G01 X81.8880 Y17.3978 
G01 X81.8880 Y17.9140 
G01 X82.1969 Y17.9140 
G01 X82.1969 Y17.3978 
G01 X82.0653 Y17.2662 
G00 Z2.0000 
G00 X83.0671 Y31.6229 
G01 Z-0.0250 F254.00 
G01 X82.9049 Y31.4607 F508.00 
G01 X82.9049 Y31.7851 
G01 X83.0671 Y31.6229 
G00 Z2.0000 
G00 X83.2137 Y29.6080 
G01 Z-0.0250 F254.00 
G01 X83.2137 Y29.0918 F508.00 
G01 X83.0821 Y28.9602 
G01 X82.6975 Y28.9602 
G01 X82.5659 Y29.0918 
G01 X82.5659 Y29.6080 
G01 X83.2137 Y29.6080 
G00 Z2.0000 
G00 X83.0821 Y21.9438 
G01 Z-0.0250 F254.00 
G01 X82.0196 Y21.9438 F508.00 
G01 X81.8880 Y22.0754 
G01 X81.8880 Y22.5916 
G01 X83.2137 Y22.5916 
G01 X83.2137 Y22.0754 
G01 X83.0821 Y21.9438 
G00 Z2.0000 
G00 X83.0671 Y15.2513 
G01 Z-0.0250 F254.00 
G01 X82.9049 Y15.0891 F508.00 
G01 X82.9049 Y15.4136 
G01 X83.0671 Y15.2513 
G00 Z2.0000 
G00 X79.8043 Y21.7868 
G01 Z-0.0250 F254.00 
G01 X79.8944 Y21.8109 F508.00 
G01 X79.9751 Y21.8575 
G01 X80.0410 Y21.9235 
G01 X80.0876 Y22.0042 
G01 X80.1117 Y22.0942 
G01 X80.1117 Y22.1874 
G01 X80.0876 Y22.2775 
G01 X80.0410 Y22.3582 
G01 X79.9751 Y22.4241 
G01 X79.8944 Y22.4707 
G01 X79.8043 Y22.4948 
G01 X78.3553 Y22.4948 
G01 X78.2653 Y22.4707 
G01 X78.1846 Y22.4241 
G01 X77.5066 Y21.7462 
G01 X77.4407 Y21.6803 
G01 X77.3941 Y21.5995 
G01 X77.3700 Y21.5095 
G01 X77.3700 Y21.4163 
G01 X77.3941 Y21.3263 
G01 X77.4407 Y21.2455 
G01 X78.1186 Y20.5676 
G01 X78.1846 Y20.5017 
G01 X78.2653 Y20.4551 
G01 X78.3553 Y20.4310 
G01 X79.8043 Y20.4310 
G01 X79.8944 Y20.4551 
G01 X79.9751 Y20.5017 
G01 X80.0410 Y20.5676 
G01 X80.0876 Y20.6483 
G01 X80.1117 Y20.7384 
G01 X80.1117 Y20.8316 
G01 X80.0876 Y20.9216 
G01 X80.0410 Y21.0023 
G01 X79.9751 Y21.0683 
G01 X79.8944 Y21.1149 
G01 X79.8043 Y21.1390 
G01 X78.5485 Y21.1390 
G01 X78.2246 Y21.4629 
G01 X78.5485 Y21.7868 
G01 X79.8043 Y21.7868 
G00 Z2.0000 
G00 X79.8043 Y26.4644 
G01 Z-0.0250 F254.00 
G01 X79.8944 Y26.4885 F508.00 
G01 X79.9751 Y26.5351 
G01 X80.0410 Y26.6010 
G01 X80.0876 Y26.6818 
G01 X80.1117 Y26.7718 
G01 X80.1117 Y26.8650 
G01 X80.0876 Y26.9550 
G01 X80.0410 Y27.0358 
G01 X79.9751 Y27.1017 
G01 X79.8944 Y27.1483 
G01 X79.8043 Y27.1724 
G01 X78.0164 Y27.1724 
G01 X77.9263 Y27.1483 
G01 X77.8456 Y27.1017 
G01 X77.5066 Y26.7627 
G01 X77.4407 Y26.6968 
G01 X77.3941 Y26.6161 
G01 X77.3700 Y26.5261 
G01 X77.3700 Y25.7549 
G01 X77.3941 Y25.6649 
G01 X77.4407 Y25.5842 
G01 X77.7797 Y25.2452 
G01 X77.8456 Y25.1793 
G01 X77.9263 Y25.1327 
G01 X78.0164 Y25.1086 
G01 X79.8043 Y25.1086 
G01 X79.8944 Y25.1327 
G01 X79.9751 Y25.1793 
G01 X80.0410 Y25.2452 
G01 X80.0876 Y25.3259 
G01 X80.1117 Y25.4160 
G01 X80.1117 Y25.5092 
G01 X80.0876 Y25.5992 
G01 X80.0410 Y25.6799 
G01 X79.9751 Y25.7459 
G01 X79.8944 Y25.7925 
G01 X79.8043 Y25.8166 
G01 X78.2096 Y25.8166 
G01 X78.0780 Y25.9482 
G01 X78.0780 Y26.3328 
G01 X78.2096 Y26.4644 
G01 X79.8043 Y26.4644 
G00 Z2.0000 
G00 X79.1355 Y28.0187 
G01 Z-0.0250 F254.00 
G01 X79.0889 Y27.9380 F508.00 
G01 X79.0648 Y27.8480 
G01 X79.0648 Y27.7548 
G01 X79.0889 Y27.6647 
G01 X79.1355 Y27.5840 
G01 X79.2014 Y27.5181 
G01 X79.2821 Y27.4715 
G01 X79.3722 Y27.4474 
G01 X79.4654 Y27.4474 
G01 X79.5554 Y27.4715 
G01 X79.6361 Y27.5181 
G01 X79.9751 Y27.8571 
G01 X80.0410 Y27.9230 
G01 X80.0876 Y28.0037 
G01 X80.1117 Y28.0937 
G01 X80.1117 Y28.8649 
G01 X80.0876 Y28.9549 
G01 X80.0410 Y29.0356 
G01 X79.7020 Y29.3746 
G01 X79.6361 Y29.4405 
G01 X79.5554 Y29.4871 
G01 X79.4654 Y29.5112 
G01 X78.0164 Y29.5112 
G01 X77.9263 Y29.4871 
G01 X77.8456 Y29.4405 
G01 X77.5066 Y29.1015 
G01 X77.4407 Y29.0356 
G01 X77.3941 Y28.9549 
G01 X77.3700 Y28.8649 
G01 X77.3700 Y28.0937 
G01 X77.3941 Y28.0037 
G01 X77.4407 Y27.9230 
G01 X77.8456 Y27.5181 
G01 X77.9263 Y27.4715 
G01 X78.0164 Y27.4474 
G01 X78.1096 Y27.4474 
G01 X78.1996 Y27.4715 
G01 X78.2803 Y27.5181 
G01 X78.3462 Y27.5840 
G01 X78.3928 Y27.6647 
G01 X78.4170 Y27.7548 
G01 X78.4170 Y27.8480 
G01 X78.3928 Y27.9380 
G01 X78.3462 Y28.0187 
G01 X78.0780 Y28.2870 
G01 X78.0780 Y28.6716 
G01 X78.2096 Y28.8032 
G01 X79.2721 Y28.8032 
G01 X79.4037 Y28.6716 
G01 X79.4037 Y28.2870 
G01 X79.1355 Y28.0187 
G00 Z2.0000 
G00 X83.2137 Y9.8492 
G01 Z-0.0250 F254.00 
G01 X83.2379 Y9.7592 F508.00 
G01 X83.2845 Y9.6785 
G01 X83.3504 Y9.6125 
G01 X83.4311 Y9.5659 
G01 X83.5211 Y9.5418 
G01 X83.6143 Y9.5418 
G01 X83.7044 Y9.5659 
G01 X83.7851 Y9.6125 
G01 X83.8510 Y9.6785 
G01 X83.8976 Y9.7592 
G01 X83.9217 Y9.8492 
G01 X83.9217 Y11.2982 
G01 X83.8976 Y11.3883 
G01 X83.8510 Y11.4690 
G01 X83.7851 Y11.5349 
G01 X83.7044 Y11.5815 
G01 X83.6143 Y11.6056 
G01 X81.4874 Y11.6056 
G01 X81.3974 Y11.5815 
G01 X81.3166 Y11.5349 
G01 X81.2507 Y11.4690 
G01 X81.2041 Y11.3883 
G01 X81.1800 Y11.2982 
G01 X81.1800 Y9.8492 
G01 X81.2041 Y9.7592 
G01 X81.2507 Y9.6785 
G01 X81.3166 Y9.6125 
G01 X81.3974 Y9.5659 
G01 X81.4874 Y9.5418 
G01 X81.5806 Y9.5418 
G01 X81.6706 Y9.5659 
G01 X81.7514 Y9.6125 
G01 X81.8173 Y9.6785 
G01 X81.8639 Y9.7592 
G01 X81.8880 Y9.8492 
G01 X81.8880 Y10.8976 
G01 X82.1969 Y10.8976 
G01 X82.1969 Y10.5271 
G01 X82.2210 Y10.4371 
G01 X82.2676 Y10.3564 
G01 X82.3335 Y10.2905 
G01 X82.4142 Y10.2439 
G01 X82.5043 Y10.2197 
G01 X82.5975 Y10.2197 
G01 X82.6875 Y10.2439 
G01 X82.7682 Y10.2905 
G01 X82.8341 Y10.3564 
G01 X82.8807 Y10.4371 
G01 X82.9049 Y10.5271 
G01 X82.9049 Y10.8976 
G01 X83.2137 Y10.8976 
G01 X83.2137 Y9.8492 
G00 Z2.0000 
G00 X82.9455 Y12.4520 
G01 Z-0.0250 F254.00 
G01 X82.8989 Y12.3712 F508.00 
G01 X82.8748 Y12.2812 
G01 X82.8748 Y12.1880 
G01 X82.8989 Y12.0980 
G01 X82.9455 Y12.0173 
G01 X83.0114 Y11.9513 
G01 X83.0921 Y11.9047 
G01 X83.1822 Y11.8806 
G01 X83.2754 Y11.8806 
G01 X83.3654 Y11.9047 
G01 X83.4461 Y11.9513 
G01 X83.7851 Y12.2903 
G01 X83.8510 Y12.3562 
G01 X83.8976 Y12.4369 
G01 X83.9217 Y12.5270 
G01 X83.9217 Y13.2981 
G01 X83.8976 Y13.3881 
G01 X83.8510 Y13.4688 
G01 X83.5121 Y13.8078 
G01 X83.4461 Y13.8737 
G01 X83.3654 Y13.9203 
G01 X83.2754 Y13.9444 
G01 X82.8432 Y13.9444 
G01 X82.7532 Y13.9203 
G01 X82.6725 Y13.8737 
G01 X82.3335 Y13.5348 
G01 X82.2676 Y13.4688 
G01 X82.2210 Y13.3881 
G01 X82.1969 Y13.2981 
G01 X82.1969 Y12.7202 
G01 X82.0653 Y12.5886 
G01 X82.0196 Y12.5886 
G01 X81.8880 Y12.7202 
G01 X81.8880 Y13.1048 
G01 X82.1562 Y13.3731 
G01 X82.2028 Y13.4538 
G01 X82.2270 Y13.5438 
G01 X82.2270 Y13.6370 
G01 X82.2028 Y13.7271 
G01 X82.1562 Y13.8078 
G01 X82.0903 Y13.8737 
G01 X82.0096 Y13.9203 
G01 X81.9196 Y13.9444 
G01 X81.8264 Y13.9444 
G01 X81.7363 Y13.9203 
G01 X81.6556 Y13.8737 
G01 X81.2507 Y13.4688 
G01 X81.2041 Y13.3881 
G01 X81.1800 Y13.2981 
G01 X81.1800 Y12.5270 
G01 X81.2041 Y12.4369 
G01 X81.2507 Y12.3562 
G01 X81.3166 Y12.2903 
G01 X81.6556 Y11.9513 
G01 X81.7363 Y11.9047 
G01 X81.8264 Y11.8806 
G01 X82.2585 Y11.8806 
G01 X82.3486 Y11.9047 
G01 X82.4293 Y11.9513 
G01 X82.4952 Y12.0173 
G01 X82.8341 Y12.3562 
G01 X82.8807 Y12.4369 
G01 X82.9049 Y12.5270 
G01 X82.9049 Y13.1048 
G01 X83.0365 Y13.2364 
G01 X83.0821 Y13.2364 
G01 X83.2137 Y13.1048 
G01 X83.2137 Y12.7202 
G01 X82.9455 Y12.4520 
G00 Z2.0000 
G00 X81.4874 Y16.2832 
G01 Z-0.0250 F254.00 
G01 X81.3974 Y16.2591 F508.00 
G01 X81.3166 Y16.2125 
G01 X81.2507 Y16.1466 
G01 X81.2041 Y16.0659 
G01 X81.1800 Y15.9758 
G01 X81.1800 Y15.8826 
G01 X81.2041 Y15.7926 
G01 X81.2507 Y15.7119 
G01 X81.3166 Y15.6460 
G01 X81.3974 Y15.5994 
G01 X81.4874 Y15.5752 
G01 X82.1969 Y15.5752 
G01 X82.1969 Y14.9274 
G01 X81.4874 Y14.9274 
G01 X81.3974 Y14.9033 
G01 X81.3166 Y14.8567 
G01 X81.2507 Y14.7908 
G01 X81.2041 Y14.7100 
G01 X81.1800 Y14.6200 
G01 X81.1800 Y14.5268 
G01 X81.2041 Y14.4368 
G01 X81.2507 Y14.3560 
G01 X81.3166 Y14.2901 
G01 X81.3974 Y14.2435 
G01 X81.4874 Y14.2194 
G01 X82.9364 Y14.2194 
G01 X83.0265 Y14.2435 
G01 X83.1072 Y14.2901 
G01 X83.1731 Y14.3560 
G01 X83.8510 Y15.0340 
G01 X83.8976 Y15.1147 
G01 X83.9217 Y15.2047 
G01 X83.9217 Y15.2979 
G01 X83.8976 Y15.3880 
G01 X83.8510 Y15.4687 
G01 X83.7851 Y15.5346 
G01 X83.1072 Y16.2125 
G01 X83.0265 Y16.2591 
G01 X82.9364 Y16.2832 
G01 X82.5043 Y16.2832 
G01 X81.4874 Y16.2832 
G00 Z2.0000 
G00 X83.9217 Y22.8990 
G01 Z-0.0250 F254.00 
G01 X83.9217 Y22.9922 F508.00 
G01 X83.8976 Y23.0823 
G01 X83.8510 Y23.1630 
G01 X83.7851 Y23.2289 
G01 X83.7044 Y23.2755 
G01 X83.6143 Y23.2996 
G01 X81.4874 Y23.2996 
G01 X81.3974 Y23.2755 
G01 X81.3166 Y23.2289 
G01 X81.2507 Y23.1630 
G01 X81.2041 Y23.0823 
G01 X81.1800 Y22.9922 
G01 X81.1800 Y21.8821 
G01 X81.2041 Y21.7921 
G01 X81.2507 Y21.7114 
G01 X81.5897 Y21.3724 
G01 X81.6556 Y21.3065 
G01 X81.7363 Y21.2599 
G01 X81.8264 Y21.2358 
G01 X83.2754 Y21.2358 
G01 X83.3654 Y21.2599 
G01 X83.4461 Y21.3065 
G01 X83.8510 Y21.7114 
G01 X83.8976 Y21.7921 
G01 X83.9217 Y21.8821 
G01 X83.9217 Y22.8990 
G00 Z2.0000 
G00 X81.4874 Y27.9772 
G01 Z-0.0250 F254.00 
G01 X81.3974 Y27.9531 F508.00 
G01 X81.3166 Y27.9065 
G01 X81.2507 Y27.8406 
G01 X81.2041 Y27.7599 
G01 X81.1800 Y27.6698 
G01 X81.1800 Y27.5766 
G01 X81.2041 Y27.4866 
G01 X81.2507 Y27.4059 
G01 X81.3166 Y27.3399 
G01 X81.3974 Y27.2933 
G01 X81.4874 Y27.2692 
G01 X82.7131 Y27.2692 
G01 X82.6725 Y27.2286 
G01 X82.6066 Y27.1627 
G01 X82.5600 Y27.0819 
G01 X82.5358 Y26.9919 
G01 X82.5358 Y26.8987 
G01 X82.5600 Y26.8087 
G01 X82.6066 Y26.7279 
G01 X82.7131 Y26.6214 
G01 X81.4874 Y26.6214 
G01 X81.3974 Y26.5973 
G01 X81.3166 Y26.5507 
G01 X81.2507 Y26.4848 
G01 X81.2041 Y26.4040 
G01 X81.1800 Y26.3140 
G01 X81.1800 Y26.2208 
G01 X81.2041 Y26.1308 
G01 X81.2507 Y26.0500 
G01 X81.3166 Y25.9841 
G01 X81.3974 Y25.9375 
G01 X81.4874 Y25.9134 
G01 X83.6143 Y25.9134 
G01 X83.7044 Y25.9375 
G01 X83.7851 Y25.9841 
G01 X83.8510 Y26.0500 
G01 X83.8976 Y26.1308 
G01 X83.9217 Y26.2208 
G01 X83.9217 Y26.3140 
G01 X83.8976 Y26.4040 
G01 X83.8510 Y26.4848 
G01 X83.7851 Y26.5507 
G01 X83.3905 Y26.9453 
G01 X83.8510 Y27.4059 
G01 X83.8976 Y27.4866 
G01 X83.9217 Y27.5766 
G01 X83.9217 Y27.6698 
G01 X83.8976 Y27.7599 
G01 X83.8510 Y27.8406 
G01 X83.7851 Y27.9065 
G01 X83.7044 Y27.9531 
G01 X83.6143 Y27.9772 
G01 X83.5211 Y27.9772 
G01 X81.4874 Y27.9772 
G00 Z2.0000 
G00 X81.4874 Y30.3160 
G01 Z-0.0250 F254.00 
G01 X81.3974 Y30.2919 F508.00 
G01 X81.3166 Y30.2453 
G01 X81.2507 Y30.1794 
G01 X81.2041 Y30.0987 
G01 X81.1800 Y30.0086 
G01 X81.1800 Y29.9154 
G01 X81.2041 Y29.8254 
G01 X81.2507 Y29.7447 
G01 X81.3166 Y29.6787 
G01 X81.3974 Y29.6321 
G01 X81.4874 Y29.6080 
G01 X81.8579 Y29.6080 
G01 X81.8579 Y29.4307 
G01 X81.2507 Y28.8236 
G01 X81.2041 Y28.7428 
G01 X81.1800 Y28.6528 
G01 X81.1800 Y28.5596 
G01 X81.2041 Y28.4696 
G01 X81.2507 Y28.3888 
G01 X81.3166 Y28.3229 
G01 X81.3974 Y28.2763 
G01 X81.4874 Y28.2522 
G01 X81.5806 Y28.2522 
G01 X81.6706 Y28.2763 
G01 X81.7514 Y28.3229 
G01 X82.0424 Y28.6140 
G01 X82.3335 Y28.3229 
G01 X82.4142 Y28.2763 
G01 X82.5043 Y28.2522 
G01 X83.2754 Y28.2522 
G01 X83.3654 Y28.2763 
G01 X83.4461 Y28.3229 
G01 X83.5121 Y28.3888 
G01 X83.8510 Y28.7278 
G01 X83.8976 Y28.8085 
G01 X83.9217 Y28.8985 
G01 X83.9217 Y30.0086 
G01 X83.8976 Y30.0987 
G01 X83.8510 Y30.1794 
G01 X83.7851 Y30.2453 
G01 X83.7044 Y30.2919 
G01 X83.6143 Y30.3160 
G01 X82.1653 Y30.3160 
G01 X81.4874 Y30.3160 
G00 Z2.0000 
G00 X81.4874 Y32.6548 
G01 Z-0.0250 F254.00 
G01 X81.3974 Y32.6307 F508.00 
G01 X81.3166 Y32.5841 
G01 X81.2507 Y32.5182 
G01 X81.2041 Y32.4374 
G01 X81.1800 Y32.3474 
G01 X81.1800 Y32.2542 
G01 X81.2041 Y32.1642 
G01 X81.2507 Y32.0834 
G01 X81.3166 Y32.0175 
G01 X81.3974 Y31.9709 
G01 X81.4874 Y31.9468 
G01 X82.1969 Y31.9468 
G01 X82.1969 Y31.2990 
G01 X81.4874 Y31.2990 
G01 X81.3974 Y31.2749 
G01 X81.3166 Y31.2283 
G01 X81.2507 Y31.1623 
G01 X81.2041 Y31.0816 
G01 X81.1800 Y30.9916 
G01 X81.1800 Y30.8984 
G01 X81.2041 Y30.8083 
G01 X81.2507 Y30.7276 
G01 X81.3166 Y30.6617 
G01 X81.3974 Y30.6151 
G01 X81.4874 Y30.5910 
G01 X82.9364 Y30.5910 
G01 X83.0265 Y30.6151 
G01 X83.1072 Y30.6617 
G01 X83.1731 Y30.7276 
G01 X83.8510 Y31.4055 
G01 X83.8976 Y31.4863 
G01 X83.9217 Y31.5763 
G01 X83.9217 Y31.6695 
G01 X83.8976 Y31.7595 
G01 X83.8510 Y31.8403 
G01 X83.7851 Y31.9062 
G01 X83.1072 Y32.5841 
G01 X83.0265 Y32.6307 
G01 X82.9364 Y32.6548 
G01 X82.5043 Y32.6548 
G01 X81.4874 Y32.6548 
G00 Z2.0000 
G00 X81.4874 Y36.6244 
G01 Z-0.0250 F254.00 
G01 X82.0352 Y36.6244 F508.00 
G01 X81.2507 Y35.8399 
G01 X81.2041 Y35.7592 
G01 X81.1800 Y35.6692 
G01 X81.1800 Y35.5760 
G01 X81.2041 Y35.4859 
G01 X81.2507 Y35.4052 
G01 X81.3166 Y35.3393 
G01 X81.3974 Y35.2927 
G01 X81.4874 Y35.2686 
G01 X81.5806 Y35.2686 
G01 X81.6706 Y35.2927 
G01 X81.7514 Y35.3393 
G01 X82.5509 Y36.1388 
G01 X83.3504 Y35.3393 
G01 X83.4311 Y35.2927 
G01 X83.5211 Y35.2686 
G01 X83.6143 Y35.2686 
G01 X83.7044 Y35.2927 
G01 X83.7851 Y35.3393 
G01 X83.8510 Y35.4052 
G01 X83.8976 Y35.4859 
G01 X83.9217 Y35.5760 
G01 X83.9217 Y35.6692 
G01 X83.8976 Y35.7592 
G01 X83.8510 Y35.8399 
G01 X83.0665 Y36.6244 
G01 X83.6143 Y36.6244 
G01 X83.7044 Y36.6485 
G01 X83.7851 Y36.6951 
G01 X83.8510 Y36.7610 
G01 X83.8976 Y36.8418 
G01 X83.9217 Y36.9318 
G01 X83.9217 Y37.0250 
G01 X83.8976 Y37.1150 
G01 X83.8510 Y37.1958 
G01 X83.7851 Y37.2617 
G01 X83.7044 Y37.3083 
G01 X83.6143 Y37.3324 
G01 X81.4874 Y37.3324 
G01 X81.3974 Y37.3083 
G01 X81.3166 Y37.2617 
G01 X81.2507 Y37.1958 
G01 X81.2041 Y37.1150 
G01 X81.1800 Y37.0250 
G01 X81.1800 Y36.9318 
G01 X81.2041 Y36.8418 
G01 X81.2507 Y36.7610 
G01 X81.3166 Y36.6951 
G01 X81.3974 Y36.6485 
G01 X81.4874 Y36.6244 
G00 Z2.0000 
G00 X82.9455 Y40.5175 
G01 Z-0.0250 F254.00 
G01 X82.8989 Y40.4368 F508.00 
G01 X82.8748 Y40.3468 
G01 X82.8748 Y40.2536 
G01 X82.8989 Y40.1635 
G01 X82.9455 Y40.0828 
G01 X83.0114 Y40.0169 
G01 X83.0921 Y39.9703 
G01 X83.1822 Y39.9462 
G01 X83.2754 Y39.9462 
G01 X83.3654 Y39.9703 
G01 X83.4461 Y40.0169 
G01 X83.7851 Y40.3559 
G01 X83.8510 Y40.4218 
G01 X83.8976 Y40.5025 
G01 X83.9217 Y40.5925 
G01 X83.9217 Y41.3636 
G01 X83.8976 Y41.4537 
G01 X83.8510 Y41.5344 
G01 X83.5121 Y41.8734 
G01 X83.4461 Y41.9393 
G01 X83.3654 Y41.9859 
G01 X83.2754 Y42.0100 
G01 X81.8264 Y42.0100 
G01 X81.7363 Y41.9859 
G01 X81.6556 Y41.9393 
G01 X81.3166 Y41.6003 
G01 X81.2507 Y41.5344 
G01 X81.2041 Y41.4537 
G01 X81.1800 Y41.3636 
G01 X81.1800 Y40.5925 
G01 X81.2041 Y40.5025 
G01 X81.2507 Y40.4218 
G01 X81.6556 Y40.0169 
G01 X81.7363 Y39.9703 
G01 X81.8264 Y39.9462 
G01 X81.9196 Y39.9462 
G01 X82.0096 Y39.9703 
G01 X82.0903 Y40.0169 
G01 X82.1562 Y40.0828 
G01 X82.2028 Y40.1635 
G01 X82.2270 Y40.2536 
G01 X82.2270 Y40.3468 
G01 X82.2028 Y40.4368 
G01 X82.1562 Y40.5175 
G01 X81.8880 Y40.7858 
G01 X81.8880 Y41.1704 
G01 X82.0196 Y41.3020 
G01 X83.0821 Y41.3020 
G01 X83.2137 Y41.1704 
G01 X83.2137 Y40.7858 
G01 X82.9455 Y40.5175 
G00 Z2.0000 
G00 X83.6143 Y38.9632 
G01 Z-0.0250 F254.00 
G01 X83.7044 Y38.9873 F508.00 
G01 X83.7851 Y39.0339 
G01 X83.8510 Y39.0998 
G01 X83.8976 Y39.1806 
G01 X83.9217 Y39.2706 
G01 X83.9217 Y39.3638 
G01 X83.8976 Y39.4538 
G01 X83.8510 Y39.5346 
G01 X83.7851 Y39.6005 
G01 X83.7044 Y39.6471 
G01 X83.6143 Y39.6712 
G01 X81.4874 Y39.6712 
G01 X81.3974 Y39.6471 
G01 X81.3166 Y39.6005 
G01 X81.2507 Y39.5346 
G01 X81.2041 Y39.4538 
G01 X81.1800 Y39.3638 
G01 X81.1800 Y37.9148 
G01 X81.2041 Y37.8247 
G01 X81.2507 Y37.7440 
G01 X81.3166 Y37.6781 
G01 X81.3974 Y37.6315 
G01 X81.4874 Y37.6074 
G01 X81.5806 Y37.6074 
G01 X81.6706 Y37.6315 
G01 X81.7514 Y37.6781 
G01 X81.8173 Y37.7440 
G01 X81.8639 Y37.8247 
G01 X81.8880 Y37.9148 
G01 X81.8880 Y38.9632 
G01 X83.6143 Y38.9632 
G00 Z2.0000 
G00 X83.2137 Y23.8820 
G01 Z-0.0250 F254.00 
G01 X83.2379 Y23.7920 F508.00 
G01 X83.2845 Y23.7112 
G01 X83.3504 Y23.6453 
G01 X83.4311 Y23.5987 
G01 X83.5211 Y23.5746 
G01 X83.6143 Y23.5746 
G01 X83.7044 Y23.5987 
G01 X83.7851 Y23.6453 
G01 X83.8510 Y23.7112 
G01 X83.8976 Y23.7920 
G01 X83.9217 Y23.8820 
G01 X83.9217 Y25.3310 
G01 X83.8976 Y25.4211 
G01 X83.8510 Y25.5018 
G01 X83.7851 Y25.5677 
G01 X83.7044 Y25.6143 
G01 X83.6143 Y25.6384 
G01 X81.4874 Y25.6384 
G01 X81.3974 Y25.6143 
G01 X81.3166 Y25.5677 
G01 X81.2507 Y25.5018 
G01 X81.2041 Y25.4211 
G01 X81.1800 Y25.3310 
G01 X81.1800 Y23.8820 
G01 X81.2041 Y23.7920 
G01 X81.2507 Y23.7112 
G01 X81.3166 Y23.6453 
G01 X81.3974 Y23.5987 
G01 X81.4874 Y23.5746 
G01 X81.5806 Y23.5746 
G01 X81.6706 Y23.5987 
G01 X81.7514 Y23.6453 
G01 X81.8173 Y23.7112 
G01 X81.8639 Y23.7920 
G01 X81.8880 Y23.8820 
G01 X81.8880 Y24.9304 
G01 X82.1969 Y24.9304 
G01 X82.1969 Y24.5599 
G01 X82.2210 Y24.4699 
G01 X82.2676 Y24.3891 
G01 X82.3335 Y24.3232 
G01 X82.4142 Y24.2766 
G01 X82.5043 Y24.2525 
G01 X82.5975 Y24.2525 
G01 X82.6875 Y24.2766 
G01 X82.7682 Y24.3232 
G01 X82.8341 Y24.3891 
G01 X82.8807 Y24.4699 
G01 X82.9049 Y24.5599 
G01 X82.9049 Y24.9304 
G01 X83.2137 Y24.9304 
G01 X83.2137 Y23.8820 
G00 Z2.0000 
G00 X81.6556 Y16.6289 
G01 Z-0.0250 F254.00 
G01 X81.7363 Y16.5823 F508.00 
G01 X81.8264 Y16.5582 
G01 X82.2585 Y16.5582 
G01 X82.3486 Y16.5823 
G01 X82.4293 Y16.6289 
G01 X82.4952 Y16.6948 
G01 X82.5509 Y16.7505 
G01 X82.6725 Y16.6289 
G01 X82.7532 Y16.5823 
G01 X82.8432 Y16.5582 
G01 X83.2754 Y16.5582 
G01 X83.3654 Y16.5823 
G01 X83.4461 Y16.6289 
G01 X83.5121 Y16.6948 
G01 X83.8510 Y17.0338 
G01 X83.8976 Y17.1145 
G01 X83.9217 Y17.2046 
G01 X83.9217 Y18.3146 
G01 X83.8976 Y18.4047 
G01 X83.8510 Y18.4854 
G01 X83.7851 Y18.5513 
G01 X83.7044 Y18.5979 
G01 X83.6143 Y18.6220 
G01 X81.4874 Y18.6220 
G01 X81.3974 Y18.5979 
G01 X81.3166 Y18.5513 
G01 X81.2507 Y18.4854 
G01 X81.2041 Y18.4047 
G01 X81.1800 Y18.3146 
G01 X81.1800 Y17.2046 
G01 X81.2041 Y17.1145 
G01 X81.2507 Y17.0338 
G01 X81.3166 Y16.9679 
G01 X81.6556 Y16.6289 
G00 Z2.0000 
G00 X80.1117 Y31.4494 
G01 Z-0.0250 F254.00 
G01 X80.1117 Y31.5426 F508.00 
G01 X80.0876 Y31.6326 
G01 X80.0410 Y31.7134 
G01 X79.9751 Y31.7793 
G01 X79.8944 Y31.8259 
G01 X79.8043 Y31.8500 
G01 X77.6774 Y31.8500 
G01 X77.5874 Y31.8259 
G01 X77.5066 Y31.7793 
G01 X77.4407 Y31.7134 
G01 X77.3941 Y31.6326 
G01 X77.3700 Y31.5426 
G01 X77.3700 Y30.4325 
G01 X77.3941 Y30.3425 
G01 X77.4407 Y30.2618 
G01 X77.7797 Y29.9228 
G01 X77.8456 Y29.8569 
G01 X77.9263 Y29.8103 
G01 X78.0164 Y29.7862 
G01 X79.4654 Y29.7862 
G01 X79.5554 Y29.8103 
G01 X79.6361 Y29.8569 
G01 X80.0410 Y30.2618 
G01 X80.0876 Y30.3425 
G01 X80.1117 Y30.4325 
G01 X80.1117 Y31.4494 
G00 Z2.0000 
G00 X77.3700 Y18.7385 
G01 Z-0.0250 F254.00 
G01 X77.3941 Y18.6485 F508.00 
G01 X77.4407 Y18.5678 
G01 X77.5066 Y18.5019 
G01 X77.8456 Y18.1629 
G01 X77.9263 Y18.1163 
G01 X78.0164 Y18.0922 
G01 X79.4654 Y18.0922 
G01 X79.5554 Y18.1163 
G01 X79.6361 Y18.1629 
G01 X79.7020 Y18.2288 
G01 X80.0410 Y18.5678 
G01 X80.0876 Y18.6485 
G01 X80.1117 Y18.7385 
G01 X80.1117 Y19.5097 
G01 X80.0876 Y19.5997 
G01 X80.0410 Y19.6804 
G01 X79.9751 Y19.7463 
G01 X79.6361 Y20.0853 
G01 X79.5554 Y20.1319 
G01 X79.4654 Y20.1560 
G01 X78.0164 Y20.1560 
G01 X77.9263 Y20.1319 
G01 X77.8456 Y20.0853 
G01 X77.7797 Y20.0194 
G01 X77.4407 Y19.6804 
G01 X77.3941 Y19.5997 
G01 X77.3700 Y19.5097 
G01 X77.3700 Y19.4165 
G01 X77.3700 Y18.7385 
G00 Z2.0000 
G00 X10.3622 Y61.0440 
G01 Z-0.0250 F254.00 
G01 X10.3622 Y63.4160 F508.00 
G01 X10.3328 Y63.6014 
G01 X10.2749 Y63.7798 
G01 X10.1897 Y63.9470 
G01 X10.0794 Y64.0989 
G01 X9.9467 Y64.2316 
G01 X9.7948 Y64.3419 
G01 X9.6276 Y64.4271 
G01 X9.4492 Y64.4850 
G01 X9.2638 Y64.5144 
G01 X9.0762 Y64.5144 
G01 X8.8908 Y64.4850 
G01 X8.7124 Y64.4271 
G01 X8.5451 Y64.3419 
G01 X8.3933 Y64.2316 
G01 X8.2606 Y64.0989 
G01 X8.1503 Y63.9470 
G01 X8.0651 Y63.7798 
G01 X8.0072 Y63.6014 
G01 X7.9778 Y63.4160 
G01 X7.9778 Y61.0440 
G01 X8.0072 Y60.8586 
G01 X8.0651 Y60.6802 
G01 X8.1503 Y60.5130 
G01 X8.2606 Y60.3611 
G01 X8.3933 Y60.2284 
G01 X8.5451 Y60.1181 
G01 X8.7124 Y60.0329 
G01 X8.8908 Y59.9750 
G01 X9.0762 Y59.9456 
G01 X9.2638 Y59.9456 
G01 X9.4492 Y59.9750 
G01 X9.6276 Y60.0329 
G01 X9.7948 Y60.1181 
G01 X9.9467 Y60.2284 
G01 X10.0794 Y60.3611 
G01 X10.1897 Y60.5130 
G01 X10.2749 Y60.6802 
G01 X10.3328 Y60.8586 
G01 X10.3622 Y61.0440 
G00 Z2.0000 
G00 X15.1560 Y60.4222 
G01 Z-0.0250 F254.00 
G01 X12.7840 Y60.4222 F508.00 
G01 X12.5986 Y60.3928 
G01 X12.4202 Y60.3349 
G01 X12.2530 Y60.2497 
G01 X12.1011 Y60.1394 
G01 X11.9684 Y60.0067 
G01 X11.8581 Y59.8548 
G01 X11.7729 Y59.6876 
G01 X11.7150 Y59.5092 
G01 X11.6856 Y59.3238 
G01 X11.6856 Y59.1362 
G01 X11.7150 Y58.9508 
G01 X11.7729 Y58.7724 
G01 X11.8581 Y58.6052 
G01 X11.9684 Y58.4533 
G01 X12.1011 Y58.3206 
G01 X12.2530 Y58.2103 
G01 X12.4202 Y58.1251 
G01 X12.5986 Y58.0672 
G01 X12.7840 Y58.0378 
G01 X15.1560 Y58.0378 
G01 X15.3414 Y58.0672 
G01 X15.5198 Y58.1251 
G01 X15.6870 Y58.2103 
G01 X15.8389 Y58.3206 
G01 X15.9716 Y58.4533 
G01 X16.0819 Y58.6052 
G01 X16.1671 Y58.7724 
G01 X16.2250 Y58.9508 
G01 X16.2544 Y59.1362 
G01 X16.2544 Y59.3238 
G01 X16.2250 Y59.5092 
G01 X16.1671 Y59.6876 
G01 X16.0819 Y59.8548 
G01 X15.9716 Y60.0067 
G01 X15.8389 Y60.1394 
G01 X15.6870 Y60.2497 
G01 X15.5198 Y60.3349 
G01 X15.3414 Y60.3928 
G01 X15.1560 Y60.4222 
G00 Z2.0000 
G00 X18.6501 Y53.9100 
G01 Z-0.0250 F254.00 
G01 X19.8899 Y53.9100 F508.00 
G01 X19.9266 Y53.9252 
G01 X19.9548 Y53.9534 
G01 X19.9700 Y53.9901 
G01 X19.9700 Y55.2299 
G01 X19.9548 Y55.2666 
G01 X19.9266 Y55.2948 
G01 X19.8899 Y55.3100 
G01 X18.6501 Y55.3100 
G01 X18.6134 Y55.2948 
G01 X18.5852 Y55.2666 
G01 X18.5700 Y55.2299 
G01 X18.5700 Y54.5000 
G01 X15.9400 Y54.5000 
G01 X15.9400 Y54.6599 
G01 X15.9248 Y54.6966 
G01 X15.8966 Y54.7248 
G01 X15.8599 Y54.7400 
G01 X14.6201 Y54.7400 
G01 X14.5834 Y54.7248 
G01 X14.5552 Y54.6966 
G01 X14.5400 Y54.6599 
G01 X14.5400 Y53.8201 
G01 X14.5552 Y53.7834 
G01 X14.5834 Y53.7552 
G01 X14.6201 Y53.7400 
G01 X15.8599 Y53.7400 
G01 X15.8966 Y53.7552 
G01 X15.9248 Y53.7834 
G01 X15.9400 Y53.8201 
G01 X15.9400 Y54.0000 
G01 X18.5700 Y54.0000 
G01 X18.5700 Y53.9901 
G01 X18.5852 Y53.9534 
G01 X18.6134 Y53.9252 
G01 X18.6501 Y53.9100 
G00 Z2.0000 
G00 X7.2750 Y42.4251 
G01 Z-0.0250 F254.00 
G01 X7.2902 Y42.3884 F508.00 
G01 X7.3184 Y42.3602 
G01 X7.3551 Y42.3450 
G01 X8.6649 Y42.3450 
G01 X8.7016 Y42.3602 
G01 X8.7298 Y42.3884 
G01 X8.7450 Y42.4251 
G01 X8.7450 Y43.9349 
G01 X8.7298 Y43.9716 
G01 X8.7016 Y43.9998 
G01 X8.6649 Y44.0150 
G01 X7.5886 Y44.0150 
G01 X3.0000 Y48.6036 
G01 X3.0000 Y51.1318 
G01 X3.4706 Y51.1318 
G01 X3.6519 Y51.1679 
G01 X3.8226 Y51.2386 
G01 X3.9763 Y51.3413 
G01 X4.1069 Y51.4719 
G01 X4.2096 Y51.6256 
G01 X4.2803 Y51.7963 
G01 X4.3164 Y51.9776 
G01 X4.3164 Y52.1624 
G01 X4.2803 Y52.3437 
G01 X4.2096 Y52.5144 
G01 X4.1069 Y52.6681 
G01 X3.9763 Y52.7987 
G01 X3.8226 Y52.9014 
G01 X3.6519 Y52.9721 
G01 X3.4706 Y53.0082 
G01 X1.6094 Y53.0082 
G01 X1.4281 Y52.9721 
G01 X1.2574 Y52.9014 
G01 X1.1037 Y52.7987 
G01 X0.9731 Y52.6681 
G01 X0.8704 Y52.5144 
G01 X0.7997 Y52.3437 
G01 X0.7636 Y52.1624 
G01 X0.7636 Y51.9776 
G01 X0.7997 Y51.7963 
G01 X0.8704 Y51.6256 
G01 X0.9731 Y51.4719 
G01 X1.1037 Y51.3413 
G01 X1.2574 Y51.2386 
G01 X1.4281 Y51.1679 
G01 X1.6094 Y51.1318 
G01 X2.5000 Y51.1318 
G01 X2.5000 Y48.4503 
G01 X2.5381 Y48.3584 
G01 X2.6084 Y48.2881 
G01 X7.2750 Y43.6214 
G01 X7.2750 Y42.4251 
G00 Z2.0000 
G00 X1.6094 Y54.9418 
G01 Z-0.0250 F254.00 
G01 X3.4706 Y54.9418 F508.00 
G01 X3.6519 Y54.9779 
G01 X3.8226 Y55.0486 
G01 X3.9763 Y55.1513 
G01 X4.1069 Y55.2819 
G01 X4.2096 Y55.4356 
G01 X4.2803 Y55.6063 
G01 X4.3164 Y55.7876 
G01 X4.3164 Y55.9724 
G01 X4.2803 Y56.1537 
G01 X4.2096 Y56.3244 
G01 X4.1069 Y56.4781 
G01 X3.9763 Y56.6087 
G01 X3.8226 Y56.7114 
G01 X3.6519 Y56.7821 
G01 X3.4706 Y56.8182 
G01 X1.6094 Y56.8182 
G01 X1.4281 Y56.7821 
G01 X1.2574 Y56.7114 
G01 X1.1037 Y56.6087 
G01 X0.9731 Y56.4781 
G01 X0.8704 Y56.3244 
G01 X0.7997 Y56.1537 
G01 X0.7636 Y55.9724 
G01 X0.7636 Y55.7876 
G01 X0.7997 Y55.6063 
G01 X0.8704 Y55.4356 
G01 X0.9731 Y55.2819 
G01 X1.1037 Y55.1513 
G01 X1.2574 Y55.0486 
G01 X1.4281 Y54.9779 
G01 X1.6094 Y54.9418 
G00 Z2.0000 
G00 X1.6094 Y58.7518 
G01 Z-0.0250 F254.00 
G01 X3.4706 Y58.7518 F508.00 
G01 X3.6519 Y58.7879 
G01 X3.8226 Y58.8586 
G01 X3.9763 Y58.9613 
G01 X4.1069 Y59.0919 
G01 X4.2096 Y59.2456 
G01 X4.2803 Y59.4163 
G01 X4.3164 Y59.5976 
G01 X4.3164 Y59.7824 
G01 X4.2803 Y59.9637 
G01 X4.2096 Y60.1344 
G01 X4.1069 Y60.2881 
G01 X3.9763 Y60.4187 
G01 X3.8226 Y60.5214 
G01 X3.6519 Y60.5921 
G01 X3.4706 Y60.6282 
G01 X1.6094 Y60.6282 
G01 X1.4281 Y60.5921 
G01 X1.2574 Y60.5214 
G01 X1.1037 Y60.4187 
G01 X0.9731 Y60.2881 
G01 X0.8704 Y60.1344 
G01 X0.7997 Y59.9637 
G01 X0.7636 Y59.7824 
G01 X0.7636 Y59.5976 
G01 X0.7997 Y59.4163 
G01 X0.8704 Y59.2456 
G01 X0.9731 Y59.0919 
G01 X1.1037 Y58.9613 
G01 X1.2574 Y58.8586 
G01 X1.4281 Y58.7879 
G01 X1.6094 Y58.7518 
G00 Z2.0000 
G00 X14.6201 Y51.9400 
G01 Z-0.0250 F254.00 
G01 X14.7500 Y51.9400 F508.00 
G01 X14.7500 Y51.1036 
G01 X14.3584 Y50.7119 
G01 X14.2881 Y50.6416 
G01 X13.8764 Y50.2300 
G01 X13.1801 Y50.2300 
G01 X13.1434 Y50.2148 
G01 X13.1152 Y50.1866 
G01 X13.1000 Y50.1499 
G01 X13.1000 Y48.9101 
G01 X13.1152 Y48.8734 
G01 X13.1434 Y48.8452 
G01 X13.1801 Y48.8300 
G01 X14.0199 Y48.8300 
G01 X14.0566 Y48.8452 
G01 X14.0848 Y48.8734 
G01 X14.1000 Y48.9101 
G01 X14.1000 Y49.7464 
G01 X14.5000 Y50.1464 
G01 X18.9311 Y45.7153 
G01 X18.9154 Y45.6773 
G01 X18.8920 Y45.5599 
G01 X18.8920 Y45.4401 
G01 X18.9154 Y45.3227 
G01 X18.9612 Y45.2120 
G01 X19.0277 Y45.1124 
G01 X19.1124 Y45.0277 
G01 X19.2120 Y44.9612 
G01 X19.3226 Y44.9154 
G01 X19.4401 Y44.8920 
G01 X19.5599 Y44.8920 
G01 X19.6773 Y44.9154 
G01 X19.7153 Y44.9311 
G01 X20.1900 Y44.4564 
G01 X20.1900 Y43.8301 
G01 X20.2052 Y43.7934 
G01 X20.2334 Y43.7652 
G01 X20.2701 Y43.7500 
G01 X21.1099 Y43.7500 
G01 X21.1466 Y43.7652 
G01 X21.1748 Y43.7934 
G01 X21.1900 Y43.8301 
G01 X21.1900 Y45.0699 
G01 X21.1748 Y45.1066 
G01 X21.1466 Y45.1348 
G01 X21.1099 Y45.1500 
G01 X20.2701 Y45.1500 
G01 X20.2334 Y45.1348 
G01 X20.2261 Y45.1275 
G01 X20.0689 Y45.2847 
G01 X20.0846 Y45.3227 
G01 X20.1080 Y45.4401 
G01 X20.1080 Y45.5599 
G01 X20.0846 Y45.6773 
G01 X20.0388 Y45.7880 
G01 X19.9723 Y45.8876 
G01 X19.8876 Y45.9723 
G01 X19.7880 Y46.0388 
G01 X19.6773 Y46.0846 
G01 X19.5599 Y46.1080 
G01 X19.4401 Y46.1080 
G01 X19.3226 Y46.0846 
G01 X19.2847 Y46.0689 
G01 X14.8536 Y50.5000 
G01 X15.1416 Y50.7881 
G01 X15.2119 Y50.8584 
G01 X15.2500 Y50.9503 
G01 X15.2500 Y51.9400 
G01 X15.8599 Y51.9400 
G01 X15.8966 Y51.9552 
G01 X15.9248 Y51.9834 
G01 X15.9400 Y52.0201 
G01 X15.9400 Y52.8599 
G01 X15.9248 Y52.8966 
G01 X15.8966 Y52.9248 
G01 X15.8599 Y52.9400 
G01 X14.6201 Y52.9400 
G01 X14.5834 Y52.9248 
G01 X14.5552 Y52.8966 
G01 X14.5400 Y52.8599 
G01 X14.5400 Y52.0201 
G01 X14.5552 Y51.9834 
G01 X14.5834 Y51.9552 
G01 X14.6201 Y51.9400 
G00 Z2.0000 
G00 X68.9601 Y56.5500 
G01 Z-0.0250 F254.00 
G01 X69.2500 Y56.5500 F508.00 
G01 X69.2500 Y52.8536 
G01 X69.1664 Y52.7700 
G01 X68.5301 Y52.7700 
G01 X68.4934 Y52.7548 
G01 X68.4652 Y52.7266 
G01 X68.4500 Y52.6899 
G01 X68.4500 Y52.0536 
G01 X65.6701 Y49.2736 
G01 X65.6701 Y49.9028 
G01 X65.1428 Y50.4301 
G01 X64.3972 Y50.4301 
G01 X63.8699 Y49.9028 
G01 X63.8699 Y49.1572 
G01 X64.3972 Y48.6299 
G01 X64.5000 Y48.6299 
G01 X64.5000 Y47.8901 
G01 X64.3972 Y47.8901 
G01 X63.8699 Y47.3628 
G01 X63.8699 Y46.6172 
G01 X64.3972 Y46.0899 
G01 X65.1428 Y46.0899 
G01 X65.6701 Y46.6172 
G01 X65.6701 Y47.3628 
G01 X65.1428 Y47.8901 
G01 X65.0000 Y47.8901 
G01 X65.0000 Y47.8964 
G01 X68.4911 Y51.3875 
G01 X68.5301 Y51.3700 
G01 X69.3699 Y51.3700 
G01 X69.4066 Y51.3852 
G01 X69.4348 Y51.4134 
G01 X69.4500 Y51.4501 
G01 X69.4500 Y52.3464 
G01 X69.6416 Y52.5381 
G01 X69.7119 Y52.6084 
G01 X69.7500 Y52.7003 
G01 X69.7500 Y56.5500 
G01 X70.3999 Y56.5500 
G01 X70.4366 Y56.5652 
G01 X70.4648 Y56.5934 
G01 X70.4800 Y56.6301 
G01 X70.4800 Y57.6699 
G01 X70.4648 Y57.7066 
G01 X70.4366 Y57.7348 
G01 X70.3999 Y57.7500 
G01 X68.9601 Y57.7500 
G01 X68.9234 Y57.7348 
G01 X68.8952 Y57.7066 
G01 X68.8800 Y57.6699 
G01 X68.8800 Y56.6301 
G01 X68.8952 Y56.5934 
G01 X68.9234 Y56.5652 
G01 X68.9601 Y56.5500 
G00 Z2.0000 
G00 X66.7601 Y57.5000 
G01 Z-0.0250 F254.00 
G01 X68.1999 Y57.5000 F508.00 
G01 X68.2366 Y57.5152 
G01 X68.2648 Y57.5434 
G01 X68.2800 Y57.5801 
G01 X68.2800 Y58.6199 
G01 X68.2648 Y58.6566 
G01 X68.2366 Y58.6848 
G01 X68.1999 Y58.7000 
G01 X66.7601 Y58.7000 
G01 X66.7234 Y58.6848 
G01 X66.6952 Y58.6566 
G01 X66.6800 Y58.6199 
G01 X66.6800 Y58.5000 
G01 X62.9175 Y58.5000 
G01 X62.9148 Y58.5066 
G01 X62.8866 Y58.5348 
G01 X62.8499 Y58.5500 
G01 X61.6101 Y58.5500 
G01 X61.5734 Y58.5348 
G01 X61.5452 Y58.5066 
G01 X61.5300 Y58.4699 
G01 X61.5300 Y58.2500 
G01 X57.8500 Y58.2500 
G01 X57.8500 Y58.4699 
G01 X57.8348 Y58.5066 
G01 X57.8066 Y58.5348 
G01 X57.7699 Y58.5500 
G01 X56.5301 Y58.5500 
G01 X56.4934 Y58.5348 
G01 X56.4652 Y58.5066 
G01 X56.4500 Y58.4699 
G01 X56.4500 Y57.6301 
G01 X56.4652 Y57.5934 
G01 X56.4934 Y57.5652 
G01 X56.5301 Y57.5500 
G01 X57.7699 Y57.5500 
G01 X57.8066 Y57.5652 
G01 X57.8348 Y57.5934 
G01 X57.8500 Y57.6301 
G01 X57.8500 Y57.7500 
G01 X61.5300 Y57.7500 
G01 X61.5300 Y57.6301 
G01 X61.5452 Y57.5934 
G01 X61.5734 Y57.5652 
G01 X61.6101 Y57.5500 
G01 X62.8499 Y57.5500 
G01 X62.8866 Y57.5652 
G01 X62.9148 Y57.5934 
G01 X62.9300 Y57.6301 
G01 X62.9300 Y58.0000 
G01 X66.6800 Y58.0000 
G01 X66.6800 Y57.5801 
G01 X66.6952 Y57.5434 
G01 X66.7234 Y57.5152 
G01 X66.7601 Y57.5000 
G00 Z2.0000 
G00 X44.6262 Y59.6101 
G01 Z-0.0250 F254.00 
G01 X44.6262 Y59.7699 F508.00 
G01 X44.5950 Y59.9266 
G01 X44.5339 Y60.0742 
G01 X44.4451 Y60.2071 
G01 X44.3321 Y60.3201 
G01 X44.1992 Y60.4089 
G01 X44.0516 Y60.4700 
G01 X43.8949 Y60.5012 
G01 X43.7351 Y60.5012 
G01 X43.5784 Y60.4700 
G01 X43.4406 Y60.4130 
G01 X42.7119 Y61.1416 
G01 X42.6416 Y61.2119 
G01 X42.5497 Y61.2500 
G01 X29.9503 Y61.2500 
G01 X29.8584 Y61.2119 
G01 X29.7881 Y61.1416 
G01 X29.7500 Y61.0497 
G01 X29.7500 Y60.4982 
G01 X29.6084 Y60.4700 
G01 X29.4608 Y60.4089 
G01 X29.3279 Y60.3201 
G01 X29.2149 Y60.2071 
G01 X29.1261 Y60.0742 
G01 X29.0650 Y59.9266 
G01 X29.0338 Y59.7699 
G01 X29.0338 Y59.6101 
G01 X29.0650 Y59.4534 
G01 X29.1261 Y59.3058 
G01 X29.2149 Y59.1729 
G01 X29.3279 Y59.0599 
G01 X29.4608 Y58.9711 
G01 X29.6084 Y58.9100 
G01 X29.7500 Y58.8818 
G01 X29.7500 Y55.9503 
G01 X29.7881 Y55.8584 
G01 X29.8584 Y55.7881 
G01 X33.4200 Y52.2264 
G01 X33.4200 Y51.4501 
G01 X33.4352 Y51.4134 
G01 X33.4634 Y51.3852 
G01 X33.5001 Y51.3700 
G01 X33.7500 Y51.3700 
G01 X33.7500 Y48.9600 
G01 X33.5001 Y48.9600 
G01 X33.4634 Y48.9448 
G01 X33.4352 Y48.9166 
G01 X33.4200 Y48.8799 
G01 X33.4200 Y47.6401 
G01 X33.4352 Y47.6034 
G01 X33.4634 Y47.5752 
G01 X33.5001 Y47.5600 
G01 X34.3399 Y47.5600 
G01 X34.3766 Y47.5752 
G01 X34.4048 Y47.6034 
G01 X34.4200 Y47.6401 
G01 X34.4200 Y48.8799 
G01 X34.4048 Y48.9166 
G01 X34.3766 Y48.9448 
G01 X34.3399 Y48.9600 
G01 X34.2500 Y48.9600 
G01 X34.2500 Y51.3700 
G01 X34.3399 Y51.3700 
G01 X34.3766 Y51.3852 
G01 X34.4048 Y51.4134 
G01 X34.4200 Y51.4501 
G01 X34.4200 Y52.6899 
G01 X34.4048 Y52.7266 
G01 X34.3766 Y52.7548 
G01 X34.3399 Y52.7700 
G01 X33.5836 Y52.7700 
G01 X30.2500 Y56.1036 
G01 X30.2500 Y58.9850 
G01 X30.3621 Y59.0599 
G01 X30.4751 Y59.1729 
G01 X30.5639 Y59.3058 
G01 X30.6250 Y59.4534 
G01 X30.6562 Y59.6101 
G01 X30.6562 Y59.7699 
G01 X30.6250 Y59.9266 
G01 X30.5639 Y60.0742 
G01 X30.4751 Y60.2071 
G01 X30.3621 Y60.3201 
G01 X30.2500 Y60.3950 
G01 X30.2500 Y60.7500 
G01 X42.3964 Y60.7500 
G01 X43.0891 Y60.0573 
G01 X43.0350 Y59.9266 
G01 X43.0038 Y59.7699 
G01 X43.0038 Y59.6101 
G01 X43.0350 Y59.4534 
G01 X43.0961 Y59.3058 
G01 X43.1849 Y59.1729 
G01 X43.2979 Y59.0599 
G01 X43.4308 Y58.9711 
G01 X43.5784 Y58.9100 
G01 X43.7351 Y58.8788 
G01 X43.8949 Y58.8788 
G01 X44.0516 Y58.9100 
G01 X44.1992 Y58.9711 
G01 X44.3321 Y59.0599 
G01 X44.4451 Y59.1729 
G01 X44.5339 Y59.3058 
G01 X44.5950 Y59.4534 
G01 X44.6262 Y59.6101 
G00 Z2.0000 
G00 X43.3562 Y57.0701 
G01 Z-0.0250 F254.00 
G01 X43.3562 Y57.2299 F508.00 
G01 X43.3250 Y57.3866 
G01 X43.2639 Y57.5342 
G01 X43.1751 Y57.6671 
G01 X43.0621 Y57.7801 
G01 X42.9292 Y57.8689 
G01 X42.7816 Y57.9300 
G01 X42.6249 Y57.9612 
G01 X42.4651 Y57.9612 
G01 X42.3084 Y57.9300 
G01 X42.1608 Y57.8689 
G01 X42.0279 Y57.7801 
G01 X41.9149 Y57.6671 
G01 X41.8261 Y57.5342 
G01 X41.7650 Y57.3866 
G01 X41.7338 Y57.2299 
G01 X41.7338 Y57.0701 
G01 X41.7650 Y56.9134 
G01 X41.8261 Y56.7658 
G01 X41.9149 Y56.6329 
G01 X42.0279 Y56.5199 
G01 X42.1608 Y56.4311 
G01 X42.3084 Y56.3700 
G01 X42.4651 Y56.3388 
G01 X42.6249 Y56.3388 
G01 X42.7816 Y56.3700 
G01 X42.9292 Y56.4311 
G01 X43.0621 Y56.5199 
G01 X43.1751 Y56.6329 
G01 X43.2639 Y56.7658 
G01 X43.3250 Y56.9134 
G01 X43.3562 Y57.0701 
G00 Z2.0000 
G00 X40.8162 Y57.0701 
G01 Z-0.0250 F254.00 
G01 X40.8162 Y57.2299 F508.00 
G01 X40.7850 Y57.3866 
G01 X40.7239 Y57.5342 
G01 X40.6351 Y57.6671 
G01 X40.5221 Y57.7801 
G01 X40.3892 Y57.8689 
G01 X40.2416 Y57.9300 
G01 X40.0849 Y57.9612 
G01 X39.9251 Y57.9612 
G01 X39.7684 Y57.9300 
G01 X39.6208 Y57.8689 
G01 X39.4879 Y57.7801 
G01 X39.3749 Y57.6671 
G01 X39.2861 Y57.5342 
G01 X39.2250 Y57.3866 
G01 X39.1938 Y57.2299 
G01 X39.1938 Y57.0701 
G01 X39.2250 Y56.9134 
G01 X39.2861 Y56.7658 
G01 X39.3749 Y56.6329 
G01 X39.4879 Y56.5199 
G01 X39.6208 Y56.4311 
G01 X39.7684 Y56.3700 
G01 X39.9251 Y56.3388 
G01 X40.0849 Y56.3388 
G01 X40.2416 Y56.3700 
G01 X40.3892 Y56.4311 
G01 X40.5221 Y56.5199 
G01 X40.6351 Y56.6329 
G01 X40.7239 Y56.7658 
G01 X40.7850 Y56.9134 
G01 X40.8162 Y57.0701 
G00 Z2.0000 
G00 X58.0501 Y49.1572 
G01 Z-0.0250 F254.00 
G01 X58.0501 Y49.9028 F508.00 
G01 X57.5228 Y50.4301 
G01 X56.7772 Y50.4301 
G01 X56.2499 Y49.9028 
G01 X56.2499 Y49.1572 
G01 X56.7772 Y48.6299 
G01 X57.5228 Y48.6299 
G01 X58.0501 Y49.1572 
G00 Z2.0000 
G00 X58.0501 Y46.6172 
G01 Z-0.0250 F254.00 
G01 X58.0501 Y47.3628 F508.00 
G01 X57.5228 Y47.8901 
G01 X56.7772 Y47.8901 
G01 X56.2499 Y47.3628 
G01 X56.2499 Y46.6172 
G01 X56.7772 Y46.0899 
G01 X57.5228 Y46.0899 
G01 X58.0501 Y46.6172 
G00 Z2.0000 
G00 X58.0501 Y44.0772 
G01 Z-0.0250 F254.00 
G01 X58.0501 Y44.8228 F508.00 
G01 X57.5228 Y45.3501 
G01 X56.7772 Y45.3501 
G01 X56.2499 Y44.8228 
G01 X56.2499 Y44.0772 
G01 X56.7772 Y43.5499 
G01 X57.5228 Y43.5499 
G01 X58.0501 Y44.0772 
G00 Z2.0000 
G00 X69.4500 Y47.6401 
G01 Z-0.0250 F254.00 
G01 X69.4500 Y48.8799 F508.00 
G01 X69.4348 Y48.9166 
G01 X69.4066 Y48.9448 
G01 X69.3699 Y48.9600 
G01 X68.5301 Y48.9600 
G01 X68.4934 Y48.9448 
G01 X68.4652 Y48.9166 
G01 X68.4500 Y48.8799 
G01 X68.4500 Y48.3036 
G01 X65.3197 Y45.1732 
G01 X65.1428 Y45.3501 
G01 X64.3972 Y45.3501 
G01 X63.8699 Y44.8228 
G01 X63.8699 Y44.0772 
G01 X64.3972 Y43.5499 
G01 X64.5000 Y43.5499 
G01 X64.5000 Y37.1036 
G01 X61.5550 Y34.1586 
G01 X61.5506 Y34.1651 
G01 X61.4447 Y34.2710 
G01 X61.3202 Y34.3543 
G01 X61.1818 Y34.4116 
G01 X61.0349 Y34.4408 
G01 X60.8851 Y34.4408 
G01 X60.7382 Y34.4116 
G01 X60.5998 Y34.3543 
G01 X60.4753 Y34.2710 
G01 X60.3694 Y34.1651 
G01 X60.2861 Y34.0406 
G01 X60.2288 Y33.9022 
G01 X60.1996 Y33.7553 
G01 X60.1996 Y32.2847 
G01 X60.2288 Y32.1378 
G01 X60.2861 Y31.9994 
G01 X60.3694 Y31.8749 
G01 X60.4753 Y31.7690 
G01 X60.5998 Y31.6857 
G01 X60.7382 Y31.6284 
G01 X60.8851 Y31.5992 
G01 X61.0349 Y31.5992 
G01 X61.1818 Y31.6284 
G01 X61.3202 Y31.6857 
G01 X61.4447 Y31.7690 
G01 X61.5506 Y31.8749 
G01 X61.6339 Y31.9994 
G01 X61.6912 Y32.1378 
G01 X61.7204 Y32.2847 
G01 X61.7204 Y33.6168 
G01 X64.8916 Y36.7881 
G01 X64.9619 Y36.8584 
G01 X65.0000 Y36.9503 
G01 X65.0000 Y43.5499 
G01 X65.1428 Y43.5499 
G01 X65.6701 Y44.0772 
G01 X65.6701 Y44.8165 
G01 X68.4628 Y47.6092 
G01 X68.4652 Y47.6034 
G01 X68.4934 Y47.5752 
G01 X68.5301 Y47.5600 
G01 X69.3699 Y47.5600 
G01 X69.4066 Y47.5752 
G01 X69.4348 Y47.6034 
G01 X69.4500 Y47.6401 
G00 Z2.0000 
G00 X63.0920 Y4.2331 
G01 Z-0.0250 F254.00 
G01 X63.0920 Y5.9269 F508.00 
G01 X63.0589 Y6.0934 
G01 X62.9939 Y6.2503 
G01 X62.8996 Y6.3915 
G01 X62.7795 Y6.5116 
G01 X62.6383 Y6.6059 
G01 X62.4814 Y6.6709 
G01 X62.3149 Y6.7040 
G01 X62.2500 Y6.7040 
G01 X62.2500 Y19.2997 
G01 X62.2119 Y19.3916 
G01 X62.1416 Y19.4619 
G01 X56.6404 Y24.9632 
G01 X56.6404 Y26.1353 
G01 X56.6112 Y26.2822 
G01 X56.5539 Y26.4206 
G01 X56.4706 Y26.5451 
G01 X56.3647 Y26.6510 
G01 X56.2402 Y26.7343 
G01 X56.1018 Y26.7916 
G01 X55.9549 Y26.8208 
G01 X55.8051 Y26.8208 
G01 X55.6582 Y26.7916 
G01 X55.5198 Y26.7343 
G01 X55.3953 Y26.6510 
G01 X55.2894 Y26.5451 
G01 X55.2061 Y26.4206 
G01 X55.1488 Y26.2822 
G01 X55.1196 Y26.1353 
G01 X55.1196 Y24.6647 
G01 X55.1488 Y24.5178 
G01 X55.2061 Y24.3794 
G01 X55.2894 Y24.2549 
G01 X55.3953 Y24.1490 
G01 X55.5198 Y24.0657 
G01 X55.6582 Y24.0084 
G01 X55.8051 Y23.9792 
G01 X55.9549 Y23.9792 
G01 X56.1018 Y24.0084 
G01 X56.2402 Y24.0657 
G01 X56.3647 Y24.1490 
G01 X56.4706 Y24.2549 
G01 X56.5391 Y24.3573 
G01 X61.7500 Y19.1464 
G01 X61.7500 Y6.5580 
G01 X61.6805 Y6.5116 
G01 X61.5604 Y6.3915 
G01 X61.4661 Y6.2503 
G01 X61.4011 Y6.0934 
G01 X61.3680 Y5.9269 
G01 X61.3680 Y4.2331 
G01 X61.4011 Y4.0666 
G01 X61.4661 Y3.9097 
G01 X61.5604 Y3.7685 
G01 X61.6805 Y3.6484 
G01 X61.8217 Y3.5541 
G01 X61.9786 Y3.4891 
G01 X62.1451 Y3.4560 
G01 X62.3149 Y3.4560 
G01 X62.4814 Y3.4891 
G01 X62.6383 Y3.5541 
G01 X62.7795 Y3.6484 
G01 X62.8996 Y3.7685 
G01 X62.9939 Y3.9097 
G01 X63.0589 Y4.0666 
G01 X63.0920 Y4.2331 
G00 Z2.0000 
G00 X60.5520 Y4.2331 
G01 Z-0.0250 F254.00 
G01 X60.5520 Y5.9269 F508.00 
G01 X60.5189 Y6.0934 
G01 X60.4539 Y6.2503 
G01 X60.3596 Y6.3915 
G01 X60.2395 Y6.5116 
G01 X60.0983 Y6.6059 
G01 X59.9414 Y6.6709 
G01 X59.7749 Y6.7040 
G01 X59.7500 Y6.7040 
G01 X59.7500 Y19.2997 
G01 X59.7119 Y19.3916 
G01 X59.6416 Y19.4619 
G01 X54.1004 Y25.0032 
G01 X54.1004 Y26.1353 
G01 X54.0712 Y26.2822 
G01 X54.0139 Y26.4206 
G01 X53.9306 Y26.5451 
G01 X53.8247 Y26.6510 
G01 X53.7002 Y26.7343 
G01 X53.5618 Y26.7916 
G01 X53.4149 Y26.8208 
G01 X53.2651 Y26.8208 
G01 X53.1182 Y26.7916 
G01 X52.9798 Y26.7343 
G01 X52.8553 Y26.6510 
G01 X52.7494 Y26.5451 
G01 X52.6661 Y26.4206 
G01 X52.6088 Y26.2822 
G01 X52.5796 Y26.1353 
G01 X52.5796 Y24.6647 
G01 X52.6088 Y24.5178 
G01 X52.6661 Y24.3794 
G01 X52.7494 Y24.2549 
G01 X52.8553 Y24.1490 
G01 X52.9798 Y24.0657 
G01 X53.1182 Y24.0084 
G01 X53.2651 Y23.9792 
G01 X53.4149 Y23.9792 
G01 X53.5618 Y24.0084 
G01 X53.7002 Y24.0657 
G01 X53.8247 Y24.1490 
G01 X53.9306 Y24.2549 
G01 X54.0139 Y24.3794 
G01 X59.2500 Y19.1464 
G01 X59.2500 Y6.5847 
G01 X59.1405 Y6.5116 
G01 X59.0204 Y6.3915 
G01 X58.9261 Y6.2503 
G01 X58.8611 Y6.0934 
G01 X58.8280 Y5.9269 
G01 X58.8280 Y4.2331 
G01 X58.8611 Y4.0666 
G01 X58.9261 Y3.9097 
G01 X59.0204 Y3.7685 
G01 X59.1405 Y3.6484 
G01 X59.2817 Y3.5541 
G01 X59.4386 Y3.4891 
G01 X59.6051 Y3.4560 
G01 X59.7749 Y3.4560 
G01 X59.9414 Y3.4891 
G01 X60.0983 Y3.5541 
G01 X60.2395 Y3.6484 
G01 X60.3596 Y3.7685 
G01 X60.4539 Y3.9097 
G01 X60.5189 Y4.0666 
G01 X60.5520 Y4.2331 
G00 Z2.0000 
G00 X58.0120 Y4.2331 
G01 Z-0.0250 F254.00 
G01 X58.0120 Y5.9269 F508.00 
G01 X57.9789 Y6.0934 
G01 X57.9139 Y6.2503 
G01 X57.8196 Y6.3915 
G01 X57.6995 Y6.5116 
G01 X57.5583 Y6.6059 
G01 X57.4014 Y6.6709 
G01 X57.2349 Y6.7040 
G01 X57.0651 Y6.7040 
G01 X56.8986 Y6.6709 
G01 X56.7417 Y6.6059 
G01 X56.6005 Y6.5116 
G01 X56.4804 Y6.3915 
G01 X56.3861 Y6.2503 
G01 X56.3211 Y6.0934 
G01 X56.2880 Y5.9269 
G01 X56.2880 Y4.2331 
G01 X56.3211 Y4.0666 
G01 X56.3861 Y3.9097 
G01 X56.4804 Y3.7685 
G01 X56.6005 Y3.6484 
G01 X56.7417 Y3.5541 
G01 X56.8986 Y3.4891 
G01 X57.0651 Y3.4560 
G01 X57.2349 Y3.4560 
G01 X57.4014 Y3.4891 
G01 X57.5583 Y3.5541 
G01 X57.6995 Y3.6484 
G01 X57.8196 Y3.7685 
G01 X57.9139 Y3.9097 
G01 X57.9789 Y4.0666 
G01 X58.0120 Y4.2331 
G00 Z2.0000 
G00 X64.2604 Y32.2847 
G01 Z-0.0250 F254.00 
G01 X64.2604 Y33.7553 F508.00 
G01 X64.2312 Y33.9022 
G01 X64.1739 Y34.0406 
G01 X64.0906 Y34.1651 
G01 X63.9847 Y34.2710 
G01 X63.8602 Y34.3543 
G01 X63.7218 Y34.4116 
G01 X63.5749 Y34.4408 
G01 X63.4251 Y34.4408 
G01 X63.2782 Y34.4116 
G01 X63.1398 Y34.3543 
G01 X63.0153 Y34.2710 
G01 X62.9094 Y34.1651 
G01 X62.8261 Y34.0406 
G01 X62.7688 Y33.9022 
G01 X62.7396 Y33.7553 
G01 X62.7396 Y32.2847 
G01 X62.7688 Y32.1378 
G01 X62.8261 Y31.9994 
G01 X62.9094 Y31.8749 
G01 X63.0153 Y31.7690 
G01 X63.1398 Y31.6857 
G01 X63.2500 Y31.6401 
G01 X63.2500 Y31.5000 
G01 X58.1036 Y31.5000 
G01 X57.5000 Y32.1036 
G01 X57.5000 Y39.7997 
G01 X57.4619 Y39.8916 
G01 X57.3916 Y39.9619 
G01 X48.9600 Y48.3936 
G01 X48.9600 Y49.0499 
G01 X48.9448 Y49.0866 
G01 X48.9166 Y49.1148 
G01 X48.8799 Y49.1300 
G01 X47.6401 Y49.1300 
G01 X47.6034 Y49.1148 
G01 X47.5752 Y49.0866 
G01 X47.5600 Y49.0499 
G01 X47.5600 Y48.2101 
G01 X47.5752 Y48.1734 
G01 X47.6034 Y48.1452 
G01 X47.6401 Y48.1300 
G01 X48.5164 Y48.1300 
G01 X57.0000 Y39.6464 
G01 X57.0000 Y31.9503 
G01 X57.0381 Y31.8584 
G01 X57.7881 Y31.1084 
G01 X57.8584 Y31.0381 
G01 X57.9503 Y31.0000 
G01 X63.5497 Y31.0000 
G01 X63.6416 Y31.0381 
G01 X63.7119 Y31.1084 
G01 X63.7500 Y31.2003 
G01 X63.7500 Y31.6401 
G01 X63.8602 Y31.6857 
G01 X63.9847 Y31.7690 
G01 X64.0906 Y31.8749 
G01 X64.1739 Y31.9994 
G01 X64.2312 Y32.1378 
G01 X64.2604 Y32.2847 
G00 Z2.0000 
G00 X59.1804 Y32.2847 
G01 Z-0.0250 F254.00 
G01 X59.1804 Y33.5768 F508.00 
G01 X63.6416 Y38.0381 
G01 X63.7119 Y38.1084 
G01 X63.7500 Y38.2003 
G01 X63.7500 Y54.3965 
G01 X64.5000 Y53.6464 
G01 X64.5000 Y52.9701 
G01 X64.3972 Y52.9701 
G01 X63.8699 Y52.4428 
G01 X63.8699 Y51.6972 
G01 X64.3972 Y51.1699 
G01 X65.1428 Y51.1699 
G01 X65.6701 Y51.6972 
G01 X65.6701 Y52.4428 
G01 X65.1428 Y52.9701 
G01 X65.0000 Y52.9701 
G01 X65.0000 Y53.7997 
G01 X64.9619 Y53.8916 
G01 X64.8916 Y53.9619 
G01 X63.7119 Y55.1416 
G01 X63.6416 Y55.2119 
G01 X62.9300 Y55.9236 
G01 X62.9300 Y56.6699 
G01 X62.9148 Y56.7066 
G01 X62.8866 Y56.7348 
G01 X62.8499 Y56.7500 
G01 X61.6101 Y56.7500 
G01 X61.5734 Y56.7348 
G01 X61.5452 Y56.7066 
G01 X61.5300 Y56.6699 
G01 X61.5300 Y55.8301 
G01 X61.5452 Y55.7934 
G01 X61.5734 Y55.7652 
G01 X61.6101 Y55.7500 
G01 X62.3964 Y55.7500 
G01 X63.2500 Y54.8964 
G01 X63.2500 Y38.3536 
G01 X59.0310 Y34.1346 
G01 X59.0106 Y34.1651 
G01 X58.9047 Y34.2710 
G01 X58.7802 Y34.3543 
G01 X58.6418 Y34.4116 
G01 X58.4949 Y34.4408 
G01 X58.3451 Y34.4408 
G01 X58.1982 Y34.4116 
G01 X58.0598 Y34.3543 
G01 X57.9353 Y34.2710 
G01 X57.8294 Y34.1651 
G01 X57.7461 Y34.0406 
G01 X57.6888 Y33.9022 
G01 X57.6596 Y33.7553 
G01 X57.6596 Y32.2847 
G01 X57.6888 Y32.1378 
G01 X57.7461 Y31.9994 
G01 X57.8294 Y31.8749 
G01 X57.9353 Y31.7690 
G01 X58.0598 Y31.6857 
G01 X58.1982 Y31.6284 
G01 X58.3451 Y31.5992 
G01 X58.4949 Y31.5992 
G01 X58.6418 Y31.6284 
G01 X58.7802 Y31.6857 
G01 X58.9047 Y31.7690 
G01 X59.0106 Y31.8749 
G01 X59.0939 Y31.9994 
G01 X59.1512 Y32.1378 
G01 X59.1804 Y32.2847 
G00 Z2.0000 
G00 X56.6404 Y32.2847 
G01 Z-0.0250 F254.00 
G01 X56.6404 Y33.7553 F508.00 
G01 X56.6112 Y33.9022 
G01 X56.5539 Y34.0406 
G01 X56.4706 Y34.1651 
G01 X56.3647 Y34.2710 
G01 X56.2402 Y34.3543 
G01 X56.1018 Y34.4116 
G01 X55.9549 Y34.4408 
G01 X55.8051 Y34.4408 
G01 X55.6582 Y34.4116 
G01 X55.5198 Y34.3543 
G01 X55.3953 Y34.2710 
G01 X55.2894 Y34.1651 
G01 X55.2061 Y34.0406 
G01 X55.1488 Y33.9022 
G01 X55.1196 Y33.7553 
G01 X55.1196 Y32.2847 
G01 X55.1488 Y32.1378 
G01 X55.2061 Y31.9994 
G01 X55.2894 Y31.8749 
G01 X55.3953 Y31.7690 
G01 X55.5198 Y31.6857 
G01 X55.6582 Y31.6284 
G01 X55.8051 Y31.5992 
G01 X55.9549 Y31.5992 
G01 X56.1018 Y31.6284 
G01 X56.2402 Y31.6857 
G01 X56.3647 Y31.7690 
G01 X56.4706 Y31.8749 
G01 X56.5539 Y31.9994 
G01 X56.6112 Y32.1378 
G01 X56.6404 Y32.2847 
G00 Z2.0000 
G00 X54.1004 Y32.2847 
G01 Z-0.0250 F254.00 
G01 X54.1004 Y33.7553 F508.00 
G01 X54.0712 Y33.9022 
G01 X54.0139 Y34.0406 
G01 X53.9306 Y34.1651 
G01 X53.8247 Y34.2710 
G01 X53.7002 Y34.3543 
G01 X53.5618 Y34.4116 
G01 X53.4149 Y34.4408 
G01 X53.2651 Y34.4408 
G01 X53.1182 Y34.4116 
G01 X52.9798 Y34.3543 
G01 X52.8553 Y34.2710 
G01 X52.7494 Y34.1651 
G01 X52.6661 Y34.0406 
G01 X52.6088 Y33.9022 
G01 X52.5796 Y33.7553 
G01 X52.5796 Y32.2847 
G01 X52.6088 Y32.1378 
G01 X52.6661 Y31.9994 
G01 X52.7494 Y31.8749 
G01 X52.8553 Y31.7690 
G01 X52.9798 Y31.6857 
G01 X53.1182 Y31.6284 
G01 X53.2651 Y31.5992 
G01 X53.4149 Y31.5992 
G01 X53.5618 Y31.6284 
G01 X53.7002 Y31.6857 
G01 X53.8247 Y31.7690 
G01 X53.9306 Y31.8749 
G01 X54.0139 Y31.9994 
G01 X54.0712 Y32.1378 
G01 X54.1004 Y32.2847 
G00 Z2.0000 
G00 X51.5604 Y32.2847 
G01 Z-0.0250 F254.00 
G01 X51.5604 Y33.7553 F508.00 
G01 X51.5312 Y33.9022 
G01 X51.4739 Y34.0406 
G01 X51.3906 Y34.1651 
G01 X51.2847 Y34.2710 
G01 X51.1602 Y34.3543 
G01 X51.0218 Y34.4116 
G01 X50.8749 Y34.4408 
G01 X50.7251 Y34.4408 
G01 X50.5782 Y34.4116 
G01 X50.4398 Y34.3543 
G01 X50.3153 Y34.2710 
G01 X50.2094 Y34.1651 
G01 X50.1261 Y34.0406 
G01 X50.0688 Y33.9022 
G01 X50.0396 Y33.7553 
G01 X50.0396 Y32.2847 
G01 X50.0688 Y32.1378 
G01 X50.1261 Y31.9994 
G01 X50.2094 Y31.8749 
G01 X50.3153 Y31.7690 
G01 X50.4398 Y31.6857 
G01 X50.5782 Y31.6284 
G01 X50.7251 Y31.5992 
G01 X50.8749 Y31.5992 
G01 X51.0218 Y31.6284 
G01 X51.1602 Y31.6857 
G01 X51.2847 Y31.7690 
G01 X51.3906 Y31.8749 
G01 X51.4739 Y31.9994 
G01 X51.5312 Y32.1378 
G01 X51.5604 Y32.2847 
G00 Z2.0000 
G00 X49.0204 Y32.2847 
G01 Z-0.0250 F254.00 
G01 X49.0204 Y33.7553 F508.00 
G01 X48.9912 Y33.9022 
G01 X48.9339 Y34.0406 
G01 X48.8506 Y34.1651 
G01 X48.7447 Y34.2710 
G01 X48.6202 Y34.3543 
G01 X48.4818 Y34.4116 
G01 X48.3349 Y34.4408 
G01 X48.1851 Y34.4408 
G01 X48.0382 Y34.4116 
G01 X47.8998 Y34.3543 
G01 X47.7753 Y34.2710 
G01 X47.6694 Y34.1651 
G01 X47.5861 Y34.0406 
G01 X47.5288 Y33.9022 
G01 X47.4996 Y33.7553 
G01 X47.4996 Y32.2847 
G01 X47.5288 Y32.1378 
G01 X47.5861 Y31.9994 
G01 X47.6694 Y31.8749 
G01 X47.7753 Y31.7690 
G01 X47.8998 Y31.6857 
G01 X48.0382 Y31.6284 
G01 X48.1851 Y31.5992 
G01 X48.2500 Y31.5992 
G01 X48.2500 Y30.4503 
G01 X48.2881 Y30.3584 
G01 X48.3584 Y30.2881 
G01 X48.4503 Y30.2500 
G01 X63.7997 Y30.2500 
G01 X63.8916 Y30.2881 
G01 X63.9619 Y30.3584 
G01 X65.7119 Y32.1084 
G01 X65.7500 Y32.2003 
G01 X65.7500 Y42.8964 
G01 X70.4136 Y47.5600 
G01 X71.1699 Y47.5600 
G01 X71.2066 Y47.5752 
G01 X71.2348 Y47.6034 
G01 X71.2500 Y47.6401 
G01 X71.2500 Y48.8799 
G01 X71.2348 Y48.9166 
G01 X71.2066 Y48.9448 
G01 X71.1699 Y48.9600 
G01 X71.0000 Y48.9600 
G01 X71.0000 Y51.3700 
G01 X71.1699 Y51.3700 
G01 X71.2066 Y51.3852 
G01 X71.2348 Y51.4134 
G01 X71.2500 Y51.4501 
G01 X71.2500 Y57.7997 
G01 X71.2119 Y57.8916 
G01 X65.7119 Y63.3916 
G01 X65.6416 Y63.4619 
G01 X65.5497 Y63.5000 
G01 X62.7490 Y63.5000 
G01 X62.7490 Y64.1407 
G01 X62.7171 Y64.3008 
G01 X62.6546 Y64.4517 
G01 X62.5639 Y64.5875 
G01 X62.4485 Y64.7029 
G01 X62.3127 Y64.7936 
G01 X62.1618 Y64.8561 
G01 X62.0017 Y64.8880 
G01 X61.8383 Y64.8880 
G01 X61.6782 Y64.8561 
G01 X61.5273 Y64.7936 
G01 X61.3915 Y64.7029 
G01 X61.2761 Y64.5875 
G01 X61.1853 Y64.4517 
G01 X61.1229 Y64.3008 
G01 X61.0910 Y64.1407 
G01 X61.0910 Y62.5193 
G01 X61.1229 Y62.3592 
G01 X61.1853 Y62.2083 
G01 X61.2761 Y62.0725 
G01 X61.3915 Y61.9571 
G01 X61.5273 Y61.8664 
G01 X61.6782 Y61.8039 
G01 X61.8383 Y61.7720 
G01 X62.0017 Y61.7720 
G01 X62.1618 Y61.8039 
G01 X62.3127 Y61.8664 
G01 X62.4485 Y61.9571 
G01 X62.5639 Y62.0725 
G01 X62.6546 Y62.2083 
G01 X62.7171 Y62.3592 
G01 X62.7490 Y62.5193 
G01 X62.7490 Y63.0000 
G01 X65.3964 Y63.0000 
G01 X70.7500 Y57.6464 
G01 X70.7500 Y52.7700 
G01 X70.3301 Y52.7700 
G01 X70.2934 Y52.7548 
G01 X70.2652 Y52.7266 
G01 X70.2500 Y52.6899 
G01 X70.2500 Y51.4501 
G01 X70.2652 Y51.4134 
G01 X70.2934 Y51.3852 
G01 X70.3301 Y51.3700 
G01 X70.5000 Y51.3700 
G01 X70.5000 Y48.9600 
G01 X70.3301 Y48.9600 
G01 X70.2934 Y48.9448 
G01 X70.2652 Y48.9166 
G01 X70.2500 Y48.8799 
G01 X70.2500 Y48.1036 
G01 X65.3584 Y43.2119 
G01 X65.2881 Y43.1416 
G01 X65.2500 Y43.0497 
G01 X65.2500 Y32.3536 
G01 X63.6464 Y30.7500 
G01 X48.7500 Y30.7500 
G01 X48.7500 Y31.7742 
G01 X48.8506 Y31.8749 
G01 X48.9339 Y31.9994 
G01 X48.9912 Y32.1378 
G01 X49.0204 Y32.2847 
G00 Z2.0000 
G00 X43.9404 Y32.2847 
G01 Z-0.0250 F254.00 
G01 X43.9404 Y33.7553 F508.00 
G01 X43.9112 Y33.9022 
G01 X43.8539 Y34.0406 
G01 X43.7706 Y34.1651 
G01 X43.6647 Y34.2710 
G01 X43.5402 Y34.3543 
G01 X43.5000 Y34.3709 
G01 X43.5000 Y47.3964 
G01 X44.2336 Y48.1300 
G01 X45.0699 Y48.1300 
G01 X45.1066 Y48.1452 
G01 X45.1348 Y48.1734 
G01 X45.1500 Y48.2101 
G01 X45.1500 Y49.0499 
G01 X45.1348 Y49.0866 
G01 X45.1066 Y49.1148 
G01 X45.0699 Y49.1300 
G01 X43.8301 Y49.1300 
G01 X43.7934 Y49.1148 
G01 X43.7652 Y49.0866 
G01 X43.7500 Y49.0499 
G01 X43.7500 Y48.3536 
G01 X43.1084 Y47.7119 
G01 X43.0381 Y47.6416 
G01 X43.0000 Y47.5497 
G01 X43.0000 Y34.4199 
G01 X42.9582 Y34.4116 
G01 X42.8198 Y34.3543 
G01 X42.6953 Y34.2710 
G01 X42.5894 Y34.1651 
G01 X42.5061 Y34.0406 
G01 X42.4488 Y33.9022 
G01 X42.4196 Y33.7553 
G01 X42.4196 Y32.2847 
G01 X42.4488 Y32.1378 
G01 X42.5061 Y31.9994 
G01 X42.5894 Y31.8749 
G01 X42.6953 Y31.7690 
G01 X42.8198 Y31.6857 
G01 X42.9582 Y31.6284 
G01 X43.1051 Y31.5992 
G01 X43.2549 Y31.5992 
G01 X43.4018 Y31.6284 
G01 X43.5402 Y31.6857 
G01 X43.6647 Y31.7690 
G01 X43.7706 Y31.8749 
G01 X43.8539 Y31.9994 
G01 X43.9112 Y32.1378 
G01 X43.9404 Y32.2847 
G00 Z2.0000 
G00 X41.4004 Y32.2847 
G01 Z-0.0250 F254.00 
G01 X41.4004 Y33.7553 F508.00 
G01 X41.3712 Y33.9022 
G01 X41.3139 Y34.0406 
G01 X41.2306 Y34.1651 
G01 X41.1247 Y34.2710 
G01 X41.0002 Y34.3543 
G01 X40.8618 Y34.4116 
G01 X40.7149 Y34.4408 
G01 X40.5651 Y34.4408 
G01 X40.5000 Y34.4278 
G01 X40.5000 Y40.9210 
G01 X42.1839 Y40.9210 
G01 X42.2206 Y40.9362 
G01 X42.2488 Y40.9644 
G01 X42.2640 Y41.0011 
G01 X42.2640 Y42.8189 
G01 X42.2488 Y42.8556 
G01 X42.2206 Y42.8838 
G01 X42.1839 Y42.8990 
G01 X40.0000 Y42.8990 
G01 X40.0000 Y47.6464 
G01 X40.4836 Y48.1300 
G01 X41.2599 Y48.1300 
G01 X41.2966 Y48.1452 
G01 X41.3248 Y48.1734 
G01 X41.3400 Y48.2101 
G01 X41.3400 Y49.0499 
G01 X41.3248 Y49.0866 
G01 X41.2966 Y49.1148 
G01 X41.2599 Y49.1300 
G01 X40.0201 Y49.1300 
G01 X39.9834 Y49.1148 
G01 X39.9552 Y49.0866 
G01 X39.9400 Y49.0499 
G01 X39.9400 Y48.2936 
G01 X39.6084 Y47.9619 
G01 X39.5381 Y47.8916 
G01 X39.5000 Y47.7997 
G01 X39.5000 Y42.8990 
G01 X37.0641 Y42.8990 
G01 X37.0274 Y42.8838 
G01 X36.9992 Y42.8556 
G01 X36.9840 Y42.8189 
G01 X36.9840 Y41.0011 
G01 X36.9992 Y40.9644 
G01 X37.0274 Y40.9362 
G01 X37.0641 Y40.9210 
G01 X40.0000 Y40.9210 
G01 X40.0000 Y34.0913 
G01 X39.9661 Y34.0406 
G01 X39.9088 Y33.9022 
G01 X39.8796 Y33.7553 
G01 X39.8796 Y32.2847 
G01 X39.9088 Y32.1378 
G01 X39.9661 Y31.9994 
G01 X40.0494 Y31.8749 
G01 X40.1553 Y31.7690 
G01 X40.2798 Y31.6857 
G01 X40.4182 Y31.6284 
G01 X40.5651 Y31.5992 
G01 X40.7149 Y31.5992 
G01 X40.8618 Y31.6284 
G01 X41.0002 Y31.6857 
G01 X41.1247 Y31.7690 
G01 X41.2306 Y31.8749 
G01 X41.3139 Y31.9994 
G01 X41.3712 Y32.1378 
G01 X41.4004 Y32.2847 
G00 Z2.0000 
G00 X38.8604 Y32.2847 
G01 Z-0.0250 F254.00 
G01 X38.8604 Y33.7553 F508.00 
G01 X38.8312 Y33.9022 
G01 X38.7739 Y34.0406 
G01 X38.6906 Y34.1651 
G01 X38.5847 Y34.2710 
G01 X38.4602 Y34.3543 
G01 X38.3218 Y34.4116 
G01 X38.1749 Y34.4408 
G01 X38.0251 Y34.4408 
G01 X37.8782 Y34.4116 
G01 X37.7398 Y34.3543 
G01 X37.6153 Y34.2710 
G01 X37.5094 Y34.1651 
G01 X37.4261 Y34.0406 
G01 X37.3688 Y33.9022 
G01 X37.3396 Y33.7553 
G01 X37.3396 Y32.2847 
G01 X37.3688 Y32.1378 
G01 X37.4261 Y31.9994 
G01 X37.5094 Y31.8749 
G01 X37.6153 Y31.7690 
G01 X37.7398 Y31.6857 
G01 X37.8782 Y31.6284 
G01 X38.0251 Y31.5992 
G01 X38.1749 Y31.5992 
G01 X38.3218 Y31.6284 
G01 X38.4602 Y31.6857 
G01 X38.5847 Y31.7690 
G01 X38.6906 Y31.8749 
G01 X38.7739 Y31.9994 
G01 X38.8312 Y32.1378 
G01 X38.8604 Y32.2847 
G00 Z2.0000 
G00 X36.3204 Y32.2847 
G01 Z-0.0250 F254.00 
G01 X36.3204 Y33.7553 F508.00 
G01 X36.2912 Y33.9022 
G01 X36.2339 Y34.0406 
G01 X36.1506 Y34.1651 
G01 X36.0447 Y34.2710 
G01 X35.9202 Y34.3543 
G01 X35.7818 Y34.4116 
G01 X35.6349 Y34.4408 
G01 X35.4851 Y34.4408 
G01 X35.3382 Y34.4116 
G01 X35.1998 Y34.3543 
G01 X35.0753 Y34.2710 
G01 X34.9694 Y34.1651 
G01 X34.8861 Y34.0406 
G01 X34.8288 Y33.9022 
G01 X34.7996 Y33.7553 
G01 X34.7996 Y32.2847 
G01 X34.8288 Y32.1378 
G01 X34.8861 Y31.9994 
G01 X34.9694 Y31.8749 
G01 X35.0753 Y31.7690 
G01 X35.1998 Y31.6857 
G01 X35.3382 Y31.6284 
G01 X35.4851 Y31.5992 
G01 X35.6349 Y31.5992 
G01 X35.7818 Y31.6284 
G01 X35.9202 Y31.6857 
G01 X36.0447 Y31.7690 
G01 X36.1506 Y31.8749 
G01 X36.2339 Y31.9994 
G01 X36.2912 Y32.1378 
G01 X36.3204 Y32.2847 
G00 Z2.0000 
G00 X33.7804 Y32.2847 
G01 Z-0.0250 F254.00 
G01 X33.7804 Y33.7553 F508.00 
G01 X33.7512 Y33.9022 
G01 X33.6939 Y34.0406 
G01 X33.6106 Y34.1651 
G01 X33.5047 Y34.2710 
G01 X33.3802 Y34.3543 
G01 X33.2418 Y34.4116 
G01 X33.0949 Y34.4408 
G01 X32.9451 Y34.4408 
G01 X32.7982 Y34.4116 
G01 X32.6598 Y34.3543 
G01 X32.5353 Y34.2710 
G01 X32.4294 Y34.1651 
G01 X32.3461 Y34.0406 
G01 X32.2888 Y33.9022 
G01 X32.2596 Y33.7553 
G01 X32.2596 Y32.2847 
G01 X32.2888 Y32.1378 
G01 X32.3461 Y31.9994 
G01 X32.4294 Y31.8749 
G01 X32.5353 Y31.7690 
G01 X32.6598 Y31.6857 
G01 X32.7982 Y31.6284 
G01 X32.9451 Y31.5992 
G01 X33.0949 Y31.5992 
G01 X33.2418 Y31.6284 
G01 X33.3802 Y31.6857 
G01 X33.5047 Y31.7690 
G01 X33.6106 Y31.8749 
G01 X33.6939 Y31.9994 
G01 X33.7512 Y32.1378 
G01 X33.7804 Y32.2847 
G00 Z2.0000 
G00 X31.2404 Y32.2847 
G01 Z-0.0250 F254.00 
G01 X31.2404 Y33.7553 F508.00 
G01 X31.2112 Y33.9022 
G01 X31.1539 Y34.0406 
G01 X31.0706 Y34.1651 
G01 X30.9647 Y34.2710 
G01 X30.8402 Y34.3543 
G01 X30.7018 Y34.4116 
G01 X30.5549 Y34.4408 
G01 X30.4051 Y34.4408 
G01 X30.2582 Y34.4116 
G01 X30.1198 Y34.3543 
G01 X29.9953 Y34.2710 
G01 X29.8894 Y34.1651 
G01 X29.8061 Y34.0406 
G01 X29.7488 Y33.9022 
G01 X29.7196 Y33.7553 
G01 X29.7196 Y32.2847 
G01 X29.7488 Y32.1378 
G01 X29.8061 Y31.9994 
G01 X29.8894 Y31.8749 
G01 X29.9953 Y31.7690 
G01 X30.1198 Y31.6857 
G01 X30.2582 Y31.6284 
G01 X30.4051 Y31.5992 
G01 X30.5549 Y31.5992 
G01 X30.7018 Y31.6284 
G01 X30.8402 Y31.6857 
G01 X30.9647 Y31.7690 
G01 X31.0706 Y31.8749 
G01 X31.1539 Y31.9994 
G01 X31.2112 Y32.1378 
G01 X31.2404 Y32.2847 
G00 Z2.0000 
G00 X31.2404 Y24.6647 
G01 Z-0.0250 F254.00 
G01 X31.2404 Y26.1353 F508.00 
G01 X31.2112 Y26.2822 
G01 X31.1539 Y26.4206 
G01 X31.0706 Y26.5451 
G01 X30.9647 Y26.6510 
G01 X30.8402 Y26.7343 
G01 X30.7018 Y26.7916 
G01 X30.5549 Y26.8208 
G01 X30.4051 Y26.8208 
G01 X30.2582 Y26.7916 
G01 X30.1198 Y26.7343 
G01 X29.9953 Y26.6510 
G01 X29.8894 Y26.5451 
G01 X29.8061 Y26.4206 
G01 X29.7488 Y26.2822 
G01 X29.7196 Y26.1353 
G01 X29.7196 Y24.6647 
G01 X29.7488 Y24.5178 
G01 X29.8061 Y24.3794 
G01 X29.8894 Y24.2549 
G01 X29.9953 Y24.1490 
G01 X30.1198 Y24.0657 
G01 X30.2582 Y24.0084 
G01 X30.4051 Y23.9792 
G01 X30.5549 Y23.9792 
G01 X30.7018 Y24.0084 
G01 X30.8402 Y24.0657 
G01 X30.9647 Y24.1490 
G01 X31.0706 Y24.2549 
G01 X31.1539 Y24.3794 
G01 X31.2112 Y24.5178 
G01 X31.2404 Y24.6647 
G00 Z2.0000 
G00 X33.7804 Y24.6647 
G01 Z-0.0250 F254.00 
G01 X33.7804 Y26.1353 F508.00 
G01 X33.7512 Y26.2822 
G01 X33.6939 Y26.4206 
G01 X33.6106 Y26.5451 
G01 X33.5047 Y26.6510 
G01 X33.3802 Y26.7343 
G01 X33.2418 Y26.7916 
G01 X33.0949 Y26.8208 
G01 X32.9451 Y26.8208 
G01 X32.7982 Y26.7916 
G01 X32.6598 Y26.7343 
G01 X32.5353 Y26.6510 
G01 X32.4294 Y26.5451 
G01 X32.3461 Y26.4206 
G01 X32.2888 Y26.2822 
G01 X32.2596 Y26.1353 
G01 X32.2596 Y24.6647 
G01 X32.2888 Y24.5178 
G01 X32.3461 Y24.3794 
G01 X32.4294 Y24.2549 
G01 X32.5353 Y24.1490 
G01 X32.6598 Y24.0657 
G01 X32.7982 Y24.0084 
G01 X32.9451 Y23.9792 
G01 X33.0949 Y23.9792 
G01 X33.2418 Y24.0084 
G01 X33.3802 Y24.0657 
G01 X33.5047 Y24.1490 
G01 X33.6106 Y24.2549 
G01 X33.6939 Y24.3794 
G01 X33.7512 Y24.5178 
G01 X33.7804 Y24.6647 
G00 Z2.0000 
G00 X36.3204 Y24.6647 
G01 Z-0.0250 F254.00 
G01 X36.3204 Y26.1353 F508.00 
G01 X36.2912 Y26.2822 
G01 X36.2339 Y26.4206 
G01 X36.1506 Y26.5451 
G01 X36.0447 Y26.6510 
G01 X35.9202 Y26.7343 
G01 X35.7818 Y26.7916 
G01 X35.6349 Y26.8208 
G01 X35.4851 Y26.8208 
G01 X35.3382 Y26.7916 
G01 X35.1998 Y26.7343 
G01 X35.0753 Y26.6510 
G01 X34.9694 Y26.5451 
G01 X34.8861 Y26.4206 
G01 X34.8288 Y26.2822 
G01 X34.7996 Y26.1353 
G01 X34.7996 Y24.6647 
G01 X34.8288 Y24.5178 
G01 X34.8861 Y24.3794 
G01 X34.9694 Y24.2549 
G01 X35.0753 Y24.1490 
G01 X35.1998 Y24.0657 
G01 X35.3382 Y24.0084 
G01 X35.4851 Y23.9792 
G01 X35.6349 Y23.9792 
G01 X35.7818 Y24.0084 
G01 X35.9202 Y24.0657 
G01 X36.0447 Y24.1490 
G01 X36.1506 Y24.2549 
G01 X36.2339 Y24.3794 
G01 X36.2912 Y24.5178 
G01 X36.3204 Y24.6647 
G00 Z2.0000 
G00 X38.8604 Y24.6647 
G01 Z-0.0250 F254.00 
G01 X38.8604 Y26.1353 F508.00 
G01 X38.8312 Y26.2822 
G01 X38.7739 Y26.4206 
G01 X38.6906 Y26.5451 
G01 X38.5847 Y26.6510 
G01 X38.4602 Y26.7343 
G01 X38.3218 Y26.7916 
G01 X38.1749 Y26.8208 
G01 X38.0251 Y26.8208 
G01 X37.8782 Y26.7916 
G01 X37.7398 Y26.7343 
G01 X37.6153 Y26.6510 
G01 X37.5094 Y26.5451 
G01 X37.4261 Y26.4206 
G01 X37.3688 Y26.2822 
G01 X37.3396 Y26.1353 
G01 X37.3396 Y24.6647 
G01 X37.3688 Y24.5178 
G01 X37.4261 Y24.3794 
G01 X37.5094 Y24.2549 
G01 X37.6153 Y24.1490 
G01 X37.7398 Y24.0657 
G01 X37.8782 Y24.0084 
G01 X38.0251 Y23.9792 
G01 X38.1749 Y23.9792 
G01 X38.3218 Y24.0084 
G01 X38.4602 Y24.0657 
G01 X38.5847 Y24.1490 
G01 X38.6906 Y24.2549 
G01 X38.7739 Y24.3794 
G01 X38.8312 Y24.5178 
G01 X38.8604 Y24.6647 
G00 Z2.0000 
G00 X41.4004 Y24.6647 
G01 Z-0.0250 F254.00 
G01 X41.4004 Y26.1353 F508.00 
G01 X41.3712 Y26.2822 
G01 X41.3139 Y26.4206 
G01 X41.2306 Y26.5451 
G01 X41.1247 Y26.6510 
G01 X41.0002 Y26.7343 
G01 X40.8618 Y26.7916 
G01 X40.7149 Y26.8208 
G01 X40.5651 Y26.8208 
G01 X40.4182 Y26.7916 
G01 X40.2798 Y26.7343 
G01 X40.1553 Y26.6510 
G01 X40.0494 Y26.5451 
G01 X39.9661 Y26.4206 
G01 X39.9088 Y26.2822 
G01 X39.8796 Y26.1353 
G01 X39.8796 Y24.6647 
G01 X39.9088 Y24.5178 
G01 X39.9661 Y24.3794 
G01 X40.0494 Y24.2549 
G01 X40.1553 Y24.1490 
G01 X40.2798 Y24.0657 
G01 X40.4182 Y24.0084 
G01 X40.5651 Y23.9792 
G01 X40.7149 Y23.9792 
G01 X40.8618 Y24.0084 
G01 X41.0002 Y24.0657 
G01 X41.1247 Y24.1490 
G01 X41.2306 Y24.2549 
G01 X41.3139 Y24.3794 
G01 X41.3712 Y24.5178 
G01 X41.4004 Y24.6647 
G00 Z2.0000 
G00 X43.9404 Y24.6647 
G01 Z-0.0250 F254.00 
G01 X43.9404 Y26.1353 F508.00 
G01 X43.9112 Y26.2822 
G01 X43.8539 Y26.4206 
G01 X43.7706 Y26.5451 
G01 X43.6647 Y26.6510 
G01 X43.5402 Y26.7343 
G01 X43.4018 Y26.7916 
G01 X43.2549 Y26.8208 
G01 X43.1051 Y26.8208 
G01 X42.9582 Y26.7916 
G01 X42.8198 Y26.7343 
G01 X42.6953 Y26.6510 
G01 X42.5894 Y26.5451 
G01 X42.5061 Y26.4206 
G01 X42.4847 Y26.3688 
G01 X39.7500 Y29.1036 
G01 X39.7500 Y34.0497 
G01 X39.7119 Y34.1416 
G01 X39.6416 Y34.2119 
G01 X36.7500 Y37.1035 
G01 X36.7500 Y37.1955 
G01 X36.7880 Y37.2112 
G01 X36.8876 Y37.2777 
G01 X36.9723 Y37.3624 
G01 X37.0388 Y37.4620 
G01 X37.0846 Y37.5727 
G01 X37.1080 Y37.6901 
G01 X37.1080 Y37.8099 
G01 X37.0846 Y37.9273 
G01 X37.0388 Y38.0380 
G01 X36.9723 Y38.1376 
G01 X36.8876 Y38.2223 
G01 X36.7880 Y38.2888 
G01 X36.7500 Y38.3045 
G01 X36.7500 Y44.0497 
G01 X36.7119 Y44.1416 
G01 X32.6200 Y48.2336 
G01 X32.6200 Y48.8799 
G01 X32.6048 Y48.9166 
G01 X32.5766 Y48.9448 
G01 X32.5399 Y48.9600 
G01 X31.7001 Y48.9600 
G01 X31.6634 Y48.9448 
G01 X31.6352 Y48.9166 
G01 X31.6200 Y48.8799 
G01 X31.6200 Y47.6401 
G01 X31.6352 Y47.6034 
G01 X31.6634 Y47.5752 
G01 X31.7001 Y47.5600 
G01 X32.5399 Y47.5600 
G01 X32.5728 Y47.5736 
G01 X36.2500 Y43.8964 
G01 X36.2500 Y38.3045 
G01 X36.2120 Y38.2888 
G01 X36.1124 Y38.2223 
G01 X36.0277 Y38.1376 
G01 X35.9612 Y38.0380 
G01 X35.9154 Y37.9273 
G01 X35.8920 Y37.8099 
G01 X35.8920 Y37.6901 
G01 X35.9154 Y37.5727 
G01 X35.9612 Y37.4620 
G01 X36.0277 Y37.3624 
G01 X36.1124 Y37.2777 
G01 X36.2120 Y37.2112 
G01 X36.2500 Y37.1955 
G01 X36.2500 Y36.9503 
G01 X36.2881 Y36.8584 
G01 X36.3584 Y36.7881 
G01 X39.2500 Y33.8964 
G01 X39.2500 Y28.9503 
G01 X39.2881 Y28.8584 
G01 X42.4196 Y25.7268 
G01 X42.4196 Y24.6647 
G01 X42.4488 Y24.5178 
G01 X42.5061 Y24.3794 
G01 X42.5894 Y24.2549 
G01 X42.6953 Y24.1490 
G01 X42.8198 Y24.0657 
G01 X42.9582 Y24.0084 
G01 X43.0000 Y24.0001 
G01 X43.0000 Y6.6851 
G01 X42.9286 Y6.6709 
G01 X42.7717 Y6.6059 
G01 X42.6305 Y6.5116 
G01 X42.5104 Y6.3915 
G01 X42.4161 Y6.2503 
G01 X42.3511 Y6.0934 
G01 X42.3180 Y5.9269 
G01 X42.3180 Y4.2331 
G01 X42.3511 Y4.0666 
G01 X42.4161 Y3.9097 
G01 X42.5104 Y3.7685 
G01 X42.6305 Y3.6484 
G01 X42.7717 Y3.5541 
G01 X42.9286 Y3.4891 
G01 X43.0951 Y3.4560 
G01 X43.2649 Y3.4560 
G01 X43.4314 Y3.4891 
G01 X43.5883 Y3.5541 
G01 X43.7295 Y3.6484 
G01 X43.8496 Y3.7685 
G01 X43.9439 Y3.9097 
G01 X44.0089 Y4.0666 
G01 X44.0420 Y4.2331 
G01 X44.0420 Y5.9269 
G01 X44.0089 Y6.0934 
G01 X43.9439 Y6.2503 
G01 X43.8496 Y6.3915 
G01 X43.7295 Y6.5116 
G01 X43.5883 Y6.6059 
G01 X43.5000 Y6.6425 
G01 X43.5000 Y24.0491 
G01 X43.5402 Y24.0657 
G01 X43.6647 Y24.1490 
G01 X43.7706 Y24.2549 
G01 X43.8539 Y24.3794 
G01 X43.9112 Y24.5178 
G01 X43.9404 Y24.6647 
G00 Z2.0000 
G00 X46.4804 Y24.6647 
G01 Z-0.0250 F254.00 
G01 X46.4804 Y26.1353 F508.00 
G01 X46.4512 Y26.2822 
G01 X46.3939 Y26.4206 
G01 X46.3106 Y26.5451 
G01 X46.2047 Y26.6510 
G01 X46.0802 Y26.7343 
G01 X45.9418 Y26.7916 
G01 X45.7949 Y26.8208 
G01 X45.6451 Y26.8208 
G01 X45.4982 Y26.7916 
G01 X45.3598 Y26.7343 
G01 X45.2353 Y26.6510 
G01 X45.1294 Y26.5451 
G01 X45.0461 Y26.4206 
G01 X44.9888 Y26.2822 
G01 X44.9596 Y26.1353 
G01 X44.9596 Y24.6647 
G01 X44.9888 Y24.5178 
G01 X45.0461 Y24.3794 
G01 X45.1294 Y24.2549 
G01 X45.2353 Y24.1490 
G01 X45.3598 Y24.0657 
G01 X45.4982 Y24.0084 
G01 X45.6451 Y23.9792 
G01 X45.7949 Y23.9792 
G01 X45.9418 Y24.0084 
G01 X46.0802 Y24.0657 
G01 X46.2047 Y24.1490 
G01 X46.3106 Y24.2549 
G01 X46.3939 Y24.3794 
G01 X46.4512 Y24.5178 
G01 X46.4804 Y24.6647 
G00 Z2.0000 
G00 X49.0204 Y24.6647 
G01 Z-0.0250 F254.00 
G01 X49.0204 Y26.1353 F508.00 
G01 X48.9912 Y26.2822 
G01 X48.9339 Y26.4206 
G01 X48.8506 Y26.5451 
G01 X48.7447 Y26.6510 
G01 X48.6202 Y26.7343 
G01 X48.4818 Y26.7916 
G01 X48.3349 Y26.8208 
G01 X48.1851 Y26.8208 
G01 X48.0382 Y26.7916 
G01 X47.8998 Y26.7343 
G01 X47.7753 Y26.6510 
G01 X47.6694 Y26.5451 
G01 X47.6249 Y26.4786 
G01 X46.0000 Y28.1036 
G01 X46.0000 Y31.6525 
G01 X46.0802 Y31.6857 
G01 X46.2047 Y31.7690 
G01 X46.3106 Y31.8749 
G01 X46.3939 Y31.9994 
G01 X46.4512 Y32.1378 
G01 X46.4804 Y32.2847 
G01 X46.4804 Y33.7553 
G01 X46.4512 Y33.9022 
G01 X46.3939 Y34.0406 
G01 X46.3106 Y34.1651 
G01 X46.2047 Y34.2710 
G01 X46.0802 Y34.3543 
G01 X46.0000 Y34.3875 
G01 X46.0000 Y50.2500 
G01 X47.5600 Y50.2500 
G01 X47.5600 Y50.0101 
G01 X47.5752 Y49.9734 
G01 X47.6034 Y49.9452 
G01 X47.6401 Y49.9300 
G01 X48.8799 Y49.9300 
G01 X48.9166 Y49.9452 
G01 X48.9448 Y49.9734 
G01 X48.9600 Y50.0101 
G01 X48.9600 Y50.6064 
G01 X55.7500 Y57.3965 
G01 X55.7500 Y57.2003 
G01 X55.7881 Y57.1084 
G01 X56.4500 Y56.4464 
G01 X56.4500 Y55.8301 
G01 X56.4652 Y55.7934 
G01 X56.4934 Y55.7652 
G01 X56.5301 Y55.7500 
G01 X57.0000 Y55.7500 
G01 X57.0000 Y52.9701 
G01 X56.7772 Y52.9701 
G01 X56.2499 Y52.4428 
G01 X56.2499 Y51.6972 
G01 X56.7772 Y51.1699 
G01 X57.5228 Y51.1699 
G01 X58.0501 Y51.6972 
G01 X58.0501 Y52.4428 
G01 X57.5228 Y52.9701 
G01 X57.5000 Y52.9701 
G01 X57.5000 Y55.7500 
G01 X57.7699 Y55.7500 
G01 X57.8066 Y55.7652 
G01 X57.8348 Y55.7934 
G01 X57.8500 Y55.8301 
G01 X57.8500 Y56.6699 
G01 X57.8348 Y56.7066 
G01 X57.8066 Y56.7348 
G01 X57.7699 Y56.7500 
G01 X57.5000 Y56.7500 
G01 X57.5000 Y57.0000 
G01 X62.8964 Y57.0000 
G01 X63.0000 Y56.8964 
G01 X63.0000 Y56.2003 
G01 X63.0381 Y56.1084 
G01 X63.1084 Y56.0381 
G01 X63.2003 Y56.0000 
G01 X66.6800 Y56.0000 
G01 X66.6800 Y55.6801 
G01 X66.6952 Y55.6434 
G01 X66.7234 Y55.6152 
G01 X66.7601 Y55.6000 
G01 X68.1999 Y55.6000 
G01 X68.2366 Y55.6152 
G01 X68.2648 Y55.6434 
G01 X68.2800 Y55.6801 
G01 X68.2800 Y56.7199 
G01 X68.2648 Y56.7566 
G01 X68.2366 Y56.7848 
G01 X68.1999 Y56.8000 
G01 X66.7601 Y56.8000 
G01 X66.7234 Y56.7848 
G01 X66.6952 Y56.7566 
G01 X66.6800 Y56.7199 
G01 X66.6800 Y56.5000 
G01 X63.5000 Y56.5000 
G01 X63.5000 Y57.0497 
G01 X63.4619 Y57.1416 
G01 X63.2119 Y57.3916 
G01 X63.1416 Y57.4619 
G01 X63.0497 Y57.5000 
G01 X57.2003 Y57.5000 
G01 X57.1084 Y57.4619 
G01 X57.0381 Y57.3916 
G01 X57.0000 Y57.2997 
G01 X57.0000 Y56.7500 
G01 X56.8536 Y56.7500 
G01 X56.2500 Y57.3536 
G01 X56.2500 Y62.2997 
G01 X56.2119 Y62.3916 
G01 X56.1416 Y62.4619 
G01 X55.7490 Y62.8546 
G01 X55.7490 Y64.1407 
G01 X55.7171 Y64.3008 
G01 X55.6546 Y64.4517 
G01 X55.5639 Y64.5875 
G01 X55.4485 Y64.7029 
G01 X55.3127 Y64.7936 
G01 X55.1618 Y64.8561 
G01 X55.0017 Y64.8880 
G01 X54.8383 Y64.8880 
G01 X54.6782 Y64.8561 
G01 X54.5273 Y64.7936 
G01 X54.3915 Y64.7029 
G01 X54.2761 Y64.5875 
G01 X54.1853 Y64.4517 
G01 X54.1229 Y64.3008 
G01 X54.0910 Y64.1407 
G01 X54.0910 Y62.5193 
G01 X54.1229 Y62.3592 
G01 X54.1853 Y62.2083 
G01 X54.2761 Y62.0725 
G01 X54.3915 Y61.9571 
G01 X54.5273 Y61.8664 
G01 X54.6782 Y61.8039 
G01 X54.8383 Y61.7720 
G01 X55.0017 Y61.7720 
G01 X55.1618 Y61.8039 
G01 X55.3127 Y61.8664 
G01 X55.4485 Y61.9571 
G01 X55.5639 Y62.0725 
G01 X55.6546 Y62.2083 
G01 X55.6645 Y62.2320 
G01 X55.7500 Y62.1464 
G01 X55.7500 Y58.1036 
G01 X48.5764 Y50.9300 
G01 X47.6401 Y50.9300 
G01 X47.6034 Y50.9148 
G01 X47.5752 Y50.8866 
G01 X47.5600 Y50.8499 
G01 X47.5600 Y50.7500 
G01 X45.1500 Y50.7500 
G01 X45.1500 Y50.8499 
G01 X45.1348 Y50.8866 
G01 X45.1066 Y50.9148 
G01 X45.0699 Y50.9300 
G01 X43.8301 Y50.9300 
G01 X43.7934 Y50.9148 
G01 X43.7652 Y50.8866 
G01 X43.7500 Y50.8499 
G01 X43.7500 Y50.7500 
G01 X41.5000 Y50.7500 
G01 X41.5000 Y58.9077 
G01 X41.5116 Y58.9100 
G01 X41.6592 Y58.9711 
G01 X41.7921 Y59.0599 
G01 X41.9051 Y59.1729 
G01 X41.9939 Y59.3058 
G01 X42.0550 Y59.4534 
G01 X42.0862 Y59.6101 
G01 X42.0862 Y59.7699 
G01 X42.0550 Y59.9266 
G01 X41.9939 Y60.0742 
G01 X41.9051 Y60.2071 
G01 X41.7921 Y60.3201 
G01 X41.6592 Y60.4089 
G01 X41.5116 Y60.4700 
G01 X41.3549 Y60.5012 
G01 X41.1951 Y60.5012 
G01 X41.0384 Y60.4700 
G01 X40.8908 Y60.4089 
G01 X40.7579 Y60.3201 
G01 X40.6449 Y60.2071 
G01 X40.5561 Y60.0742 
G01 X40.4950 Y59.9266 
G01 X40.4638 Y59.7699 
G01 X40.4638 Y59.6101 
G01 X40.4950 Y59.4534 
G01 X40.5561 Y59.3058 
G01 X40.6449 Y59.1729 
G01 X40.7579 Y59.0599 
G01 X40.8908 Y58.9711 
G01 X41.0000 Y58.9259 
G01 X41.0000 Y50.9300 
G01 X40.0201 Y50.9300 
G01 X39.9834 Y50.9148 
G01 X39.9552 Y50.8866 
G01 X39.9400 Y50.8499 
G01 X39.9400 Y50.0101 
G01 X39.9552 Y49.9734 
G01 X39.9834 Y49.9452 
G01 X40.0201 Y49.9300 
G01 X41.2599 Y49.9300 
G01 X41.2966 Y49.9452 
G01 X41.3248 Y49.9734 
G01 X41.3400 Y50.0101 
G01 X41.3400 Y50.2500 
G01 X43.7500 Y50.2500 
G01 X43.7500 Y50.0101 
G01 X43.7652 Y49.9734 
G01 X43.7934 Y49.9452 
G01 X43.8301 Y49.9300 
G01 X45.0699 Y49.9300 
G01 X45.1066 Y49.9452 
G01 X45.1348 Y49.9734 
G01 X45.1500 Y50.0101 
G01 X45.1500 Y50.2500 
G01 X45.5000 Y50.2500 
G01 X45.5000 Y34.4119 
G01 X45.3598 Y34.3543 
G01 X45.2353 Y34.2710 
G01 X45.1294 Y34.1651 
G01 X45.0461 Y34.0406 
G01 X44.9888 Y33.9022 
G01 X44.9596 Y33.7553 
G01 X44.9596 Y32.2847 
G01 X44.9888 Y32.1378 
G01 X45.0461 Y31.9994 
G01 X45.1294 Y31.8749 
G01 X45.2353 Y31.7690 
G01 X45.3598 Y31.6857 
G01 X45.4982 Y31.6284 
G01 X45.5000 Y27.9503 
G01 X45.5381 Y27.8584 
G01 X45.6084 Y27.7881 
G01 X47.4996 Y25.8968 
G01 X47.4996 Y24.6647 
G01 X47.5288 Y24.5178 
G01 X47.5861 Y24.3794 
G01 X47.6694 Y24.2549 
G01 X47.7753 Y24.1490 
G01 X47.8998 Y24.0657 
G01 X48.0000 Y24.0242 
G01 X48.0000 Y6.6673 
G01 X47.8517 Y6.6059 
G01 X47.7105 Y6.5116 
G01 X47.5904 Y6.3915 
G01 X47.4961 Y6.2503 
G01 X47.4311 Y6.0934 
G01 X47.3980 Y5.9269 
G01 X47.3980 Y5.5000 
G01 X46.5820 Y5.5000 
G01 X46.5820 Y5.9269 
G01 X46.5489 Y6.0934 
G01 X46.4839 Y6.2503 
G01 X46.3896 Y6.3915 
G01 X46.2695 Y6.5116 
G01 X46.1283 Y6.6059 
G01 X45.9714 Y6.6709 
G01 X45.8049 Y6.7040 
G01 X45.6351 Y6.7040 
G01 X45.4686 Y6.6709 
G01 X45.3117 Y6.6059 
G01 X45.1705 Y6.5116 
G01 X45.0504 Y6.3915 
G01 X44.9561 Y6.2503 
G01 X44.8911 Y6.0934 
G01 X44.8580 Y5.9269 
G01 X44.8580 Y4.2331 
G01 X44.8911 Y4.0666 
G01 X44.9561 Y3.9097 
G01 X45.0504 Y3.7685 
G01 X45.1705 Y3.6484 
G01 X45.3117 Y3.5541 
G01 X45.4686 Y3.4891 
G01 X45.6351 Y3.4560 
G01 X45.8049 Y3.4560 
G01 X45.9714 Y3.4891 
G01 X46.1283 Y3.5541 
G01 X46.2695 Y3.6484 
G01 X46.3896 Y3.7685 
G01 X46.4839 Y3.9097 
G01 X46.5489 Y4.0666 
G01 X46.5820 Y4.2331 
G01 X46.5820 Y5.0000 
G01 X47.3980 Y5.0000 
G01 X47.3980 Y4.2331 
G01 X47.4311 Y4.0666 
G01 X47.4961 Y3.9097 
G01 X47.5904 Y3.7685 
G01 X47.7105 Y3.6484 
G01 X47.8517 Y3.5541 
G01 X48.0086 Y3.4891 
G01 X48.1751 Y3.4560 
G01 X48.3449 Y3.4560 
G01 X48.5114 Y3.4891 
G01 X48.6683 Y3.5541 
G01 X48.8095 Y3.6484 
G01 X48.9296 Y3.7685 
G01 X49.0239 Y3.9097 
G01 X49.0889 Y4.0666 
G01 X49.1220 Y4.2331 
G01 X49.1220 Y5.9269 
G01 X49.0889 Y6.0934 
G01 X49.0239 Y6.2503 
G01 X48.9296 Y6.3915 
G01 X48.8095 Y6.5116 
G01 X48.6683 Y6.6059 
G01 X48.5114 Y6.6709 
G01 X48.5000 Y6.6731 
G01 X48.5000 Y24.0160 
G01 X48.6202 Y24.0657 
G01 X48.7447 Y24.1490 
G01 X48.8506 Y24.2549 
G01 X48.9339 Y24.3794 
G01 X48.9912 Y24.5178 
G01 X49.0204 Y24.6647 
G00 Z2.0000 
G00 X51.5604 Y24.6647 
G01 Z-0.0250 F254.00 
G01 X51.5604 Y26.1353 F508.00 
G01 X51.5312 Y26.2822 
G01 X51.4739 Y26.4206 
G01 X51.3906 Y26.5451 
G01 X51.2847 Y26.6510 
G01 X51.1602 Y26.7343 
G01 X51.0218 Y26.7916 
G01 X50.8749 Y26.8208 
G01 X50.7251 Y26.8208 
G01 X50.5782 Y26.7916 
G01 X50.4398 Y26.7343 
G01 X50.3153 Y26.6510 
G01 X50.2094 Y26.5451 
G01 X50.1261 Y26.4206 
G01 X50.0688 Y26.2822 
G01 X50.0396 Y26.1353 
G01 X50.0396 Y24.6647 
G01 X50.0688 Y24.5178 
G01 X50.1261 Y24.3794 
G01 X50.2094 Y24.2549 
G01 X50.3153 Y24.1490 
G01 X50.4398 Y24.0657 
G01 X50.5782 Y24.0084 
G01 X50.7251 Y23.9792 
G01 X50.8749 Y23.9792 
G01 X51.0218 Y24.0084 
G01 X51.1602 Y24.0657 
G01 X51.2847 Y24.1490 
G01 X51.3906 Y24.2549 
G01 X51.4739 Y24.3794 
G01 X51.5312 Y24.5178 
G01 X51.5604 Y24.6647 
G00 Z2.0000 
G00 X59.1804 Y24.6647 
G01 Z-0.0250 F254.00 
G01 X59.1804 Y26.1353 F508.00 
G01 X59.1512 Y26.2822 
G01 X59.0939 Y26.4206 
G01 X59.0106 Y26.5451 
G01 X58.9047 Y26.6510 
G01 X58.7802 Y26.7343 
G01 X58.6418 Y26.7916 
G01 X58.4949 Y26.8208 
G01 X58.3451 Y26.8208 
G01 X58.1982 Y26.7916 
G01 X58.0598 Y26.7343 
G01 X57.9353 Y26.6510 
G01 X57.8294 Y26.5451 
G01 X57.7461 Y26.4206 
G01 X57.6888 Y26.2822 
G01 X57.6596 Y26.1353 
G01 X57.6596 Y24.6647 
G01 X57.6888 Y24.5178 
G01 X57.7461 Y24.3794 
G01 X57.8294 Y24.2549 
G01 X57.9353 Y24.1490 
G01 X58.0598 Y24.0657 
G01 X58.1982 Y24.0084 
G01 X58.3451 Y23.9792 
G01 X58.4949 Y23.9792 
G01 X58.6418 Y24.0084 
G01 X58.7802 Y24.0657 
G01 X58.9047 Y24.1490 
G01 X59.0106 Y24.2549 
G01 X59.0939 Y24.3794 
G01 X59.1512 Y24.5178 
G01 X59.1804 Y24.6647 
G00 Z2.0000 
G00 X61.7204 Y24.6647 
G01 Z-0.0250 F254.00 
G01 X61.7204 Y26.1353 F508.00 
G01 X61.6912 Y26.2822 
G01 X61.6339 Y26.4206 
G01 X61.5506 Y26.5451 
G01 X61.4447 Y26.6510 
G01 X61.3202 Y26.7343 
G01 X61.1818 Y26.7916 
G01 X61.0349 Y26.8208 
G01 X60.8851 Y26.8208 
G01 X60.7382 Y26.7916 
G01 X60.5998 Y26.7343 
G01 X60.4753 Y26.6510 
G01 X60.3694 Y26.5451 
G01 X60.2861 Y26.4206 
G01 X60.2288 Y26.2822 
G01 X60.1996 Y26.1353 
G01 X60.1996 Y24.6647 
G01 X60.2288 Y24.5178 
G01 X60.2861 Y24.3794 
G01 X60.3694 Y24.2549 
G01 X60.4753 Y24.1490 
G01 X60.5998 Y24.0657 
G01 X60.7382 Y24.0084 
G01 X60.8851 Y23.9792 
G01 X61.0349 Y23.9792 
G01 X61.1818 Y24.0084 
G01 X61.3202 Y24.0657 
G01 X61.4447 Y24.1490 
G01 X61.5506 Y24.2549 
G01 X61.6339 Y24.3794 
G01 X61.6912 Y24.5178 
G01 X61.7204 Y24.6647 
G00 Z2.0000 
G00 X64.2604 Y24.6647 
G01 Z-0.0250 F254.00 
G01 X64.2604 Y25.9068 F508.00 
G01 X66.4619 Y28.1084 
G01 X66.5000 Y28.2003 
G01 X66.5000 Y37.1464 
G01 X75.6436 Y46.2900 
G01 X76.2499 Y46.2900 
G01 X76.2866 Y46.3052 
G01 X76.3148 Y46.3334 
G01 X76.3300 Y46.3701 
G01 X76.3300 Y47.6099 
G01 X76.3148 Y47.6466 
G01 X76.2866 Y47.6748 
G01 X76.2499 Y47.6900 
G01 X75.4101 Y47.6900 
G01 X75.3734 Y47.6748 
G01 X75.3452 Y47.6466 
G01 X75.3300 Y47.6099 
G01 X75.3300 Y46.6836 
G01 X66.1084 Y37.4619 
G01 X66.0381 Y37.3916 
G01 X66.0000 Y37.2997 
G01 X66.0000 Y28.3536 
G01 X64.1311 Y26.4846 
G01 X64.0906 Y26.5451 
G01 X63.9847 Y26.6510 
G01 X63.8602 Y26.7343 
G01 X63.7218 Y26.7916 
G01 X63.5749 Y26.8208 
G01 X63.4251 Y26.8208 
G01 X63.2782 Y26.7916 
G01 X63.1398 Y26.7343 
G01 X63.0153 Y26.6510 
G01 X62.9094 Y26.5451 
G01 X62.8261 Y26.4206 
G01 X62.7688 Y26.2822 
G01 X62.7396 Y26.1353 
G01 X62.7396 Y24.6647 
G01 X62.7688 Y24.5178 
G01 X62.8261 Y24.3794 
G01 X62.9094 Y24.2549 
G01 X63.0153 Y24.1490 
G01 X63.1398 Y24.0657 
G01 X63.2782 Y24.0084 
G01 X63.4251 Y23.9792 
G01 X63.5749 Y23.9792 
G01 X63.7218 Y24.0084 
G01 X63.8602 Y24.0657 
G01 X63.9847 Y24.1490 
G01 X64.0906 Y24.2549 
G01 X64.1739 Y24.3794 
G01 X64.2312 Y24.5178 
G01 X64.2604 Y24.6647 
G00 Z2.0000 
G00 X51.9160 Y41.0011 
G01 Z-0.0250 F254.00 
G01 X51.9160 Y42.8189 F508.00 
G01 X51.9008 Y42.8556 
G01 X51.8726 Y42.8838 
G01 X51.8359 Y42.8990 
G01 X46.7161 Y42.8990 
G01 X46.6794 Y42.8838 
G01 X46.6512 Y42.8556 
G01 X46.6360 Y42.8189 
G01 X46.6360 Y41.0011 
G01 X46.6512 Y40.9644 
G01 X46.6794 Y40.9362 
G01 X46.7161 Y40.9210 
G01 X48.0675 Y40.9210 
G01 X46.6084 Y39.4619 
G01 X46.5381 Y39.3916 
G01 X46.5000 Y39.2997 
G01 X46.5000 Y37.3045 
G01 X46.4620 Y37.2888 
G01 X46.3624 Y37.2223 
G01 X46.2777 Y37.1376 
G01 X46.2112 Y37.0380 
G01 X46.1654 Y36.9273 
G01 X46.1420 Y36.8099 
G01 X46.1420 Y36.6901 
G01 X46.1654 Y36.5727 
G01 X46.2112 Y36.4620 
G01 X46.2777 Y36.3624 
G01 X46.3624 Y36.2777 
G01 X46.4620 Y36.2112 
G01 X46.5727 Y36.1654 
G01 X46.6901 Y36.1420 
G01 X46.8099 Y36.1420 
G01 X46.9273 Y36.1654 
G01 X47.0380 Y36.2112 
G01 X47.1376 Y36.2777 
G01 X47.2223 Y36.3624 
G01 X47.2888 Y36.4620 
G01 X47.3346 Y36.5727 
G01 X47.3580 Y36.6901 
G01 X47.3580 Y36.8099 
G01 X47.3346 Y36.9273 
G01 X47.2888 Y37.0380 
G01 X47.2223 Y37.1376 
G01 X47.1376 Y37.2223 
G01 X47.0380 Y37.2888 
G01 X47.0000 Y37.3045 
G01 X47.0000 Y39.1464 
G01 X48.7746 Y40.9210 
G01 X51.8359 Y40.9210 
G01 X51.8726 Y40.9362 
G01 X51.9008 Y40.9644 
G01 X51.9160 Y41.0011 
G00 Z2.0000 
G00 X10.6410 Y33.2176 
G01 Z-0.0250 F254.00 
G01 X10.6410 Y33.3812 F508.00 
G01 X10.6154 Y33.5429 
G01 X10.5648 Y33.6985 
G01 X10.4905 Y33.8444 
G01 X10.4726 Y33.8690 
G01 X11.2119 Y34.6084 
G01 X11.2500 Y34.7003 
G01 X11.2500 Y48.6464 
G01 X11.4336 Y48.8300 
G01 X12.2199 Y48.8300 
G01 X12.2566 Y48.8452 
G01 X12.2848 Y48.8734 
G01 X12.3000 Y48.9101 
G01 X12.3000 Y50.1499 
G01 X12.2848 Y50.1866 
G01 X12.2566 Y50.2148 
G01 X12.2199 Y50.2300 
G01 X11.3801 Y50.2300 
G01 X11.3434 Y50.2148 
G01 X11.3152 Y50.1866 
G01 X11.3000 Y50.1499 
G01 X11.3000 Y49.4036 
G01 X10.8584 Y48.9619 
G01 X10.7881 Y48.8916 
G01 X10.7500 Y48.7997 
G01 X10.7500 Y34.8536 
G01 X10.1058 Y34.2093 
G01 X10.0003 Y34.2630 
G01 X9.8447 Y34.3136 
G01 X9.6830 Y34.3392 
G01 X9.5194 Y34.3392 
G01 X9.3577 Y34.3136 
G01 X9.2021 Y34.2630 
G01 X9.0562 Y34.1887 
G01 X8.9238 Y34.0925 
G01 X8.8081 Y33.9768 
G01 X8.7119 Y33.8444 
G01 X8.6376 Y33.6985 
G01 X8.5870 Y33.5429 
G01 X8.5614 Y33.3812 
G01 X8.5614 Y33.2176 
G01 X8.5870 Y33.0559 
G01 X8.6376 Y32.9003 
G01 X8.7119 Y32.7544 
G01 X8.8081 Y32.6220 
G01 X8.9238 Y32.5063 
G01 X9.0562 Y32.4101 
G01 X9.2021 Y32.3358 
G01 X9.3577 Y32.2852 
G01 X9.5194 Y32.2596 
G01 X9.6830 Y32.2596 
G01 X9.8447 Y32.2852 
G01 X10.0003 Y32.3358 
G01 X10.1462 Y32.4101 
G01 X10.2786 Y32.5063 
G01 X10.3943 Y32.6220 
G01 X10.4905 Y32.7544 
G01 X10.5648 Y32.9003 
G01 X10.6154 Y33.0559 
G01 X10.6410 Y33.2176 
G00 Z2.0000 
G00 X4.1386 Y33.2176 
G01 Z-0.0250 F254.00 
G01 X4.1386 Y33.3812 F508.00 
G01 X4.1130 Y33.5429 
G01 X4.0624 Y33.6985 
G01 X3.9881 Y33.8444 
G01 X3.8919 Y33.9768 
G01 X3.7762 Y34.0925 
G01 X3.6438 Y34.1887 
G01 X3.4979 Y34.2630 
G01 X3.3423 Y34.3136 
G01 X3.1806 Y34.3392 
G01 X3.0170 Y34.3392 
G01 X2.8553 Y34.3136 
G01 X2.6997 Y34.2630 
G01 X2.5538 Y34.1887 
G01 X2.4214 Y34.0925 
G01 X2.3057 Y33.9768 
G01 X2.2095 Y33.8444 
G01 X2.1352 Y33.6985 
G01 X2.0846 Y33.5429 
G01 X2.0590 Y33.3812 
G01 X2.0590 Y33.2176 
G01 X2.0846 Y33.0559 
G01 X2.1352 Y32.9003 
G01 X2.2095 Y32.7544 
G01 X2.3057 Y32.6220 
G01 X2.4214 Y32.5063 
G01 X2.5538 Y32.4101 
G01 X2.6997 Y32.3358 
G01 X2.8553 Y32.2852 
G01 X3.0170 Y32.2596 
G01 X3.1806 Y32.2596 
G01 X3.3423 Y32.2852 
G01 X3.4979 Y32.3358 
G01 X3.6438 Y32.4101 
G01 X3.7762 Y32.5063 
G01 X3.8919 Y32.6220 
G01 X3.9881 Y32.7544 
G01 X4.0624 Y32.9003 
G01 X4.1130 Y33.0559 
G01 X4.1386 Y33.2176 
G00 Z2.0000 
G00 X4.1386 Y37.7388 
G01 Z-0.0250 F254.00 
G01 X4.1386 Y37.9024 F508.00 
G01 X4.1130 Y38.0641 
G01 X4.0624 Y38.2197 
G01 X3.9881 Y38.3656 
G01 X3.8919 Y38.4980 
G01 X3.7762 Y38.6137 
G01 X3.6438 Y38.7099 
G01 X3.4979 Y38.7842 
G01 X3.3423 Y38.8348 
G01 X3.1806 Y38.8604 
G01 X3.0170 Y38.8604 
G01 X2.8553 Y38.8348 
G01 X2.6997 Y38.7842 
G01 X2.5538 Y38.7099 
G01 X2.4214 Y38.6137 
G01 X2.3057 Y38.4980 
G01 X2.2095 Y38.3656 
G01 X2.1352 Y38.2197 
G01 X2.0846 Y38.0641 
G01 X2.0590 Y37.9024 
G01 X2.0590 Y37.7388 
G01 X2.0846 Y37.5771 
G01 X2.1352 Y37.4215 
G01 X2.2095 Y37.2756 
G01 X2.3057 Y37.1432 
G01 X2.4214 Y37.0275 
G01 X2.5538 Y36.9313 
G01 X2.6997 Y36.8570 
G01 X2.8553 Y36.8064 
G01 X3.0170 Y36.7808 
G01 X3.1806 Y36.7808 
G01 X3.3423 Y36.8064 
G01 X3.4979 Y36.8570 
G01 X3.6438 Y36.9313 
G01 X3.7762 Y37.0275 
G01 X3.8919 Y37.1432 
G01 X3.9881 Y37.2756 
G01 X4.0624 Y37.4215 
G01 X4.1130 Y37.5771 
G01 X4.1386 Y37.7388 
G00 Z2.0000 
G00 X75.5300 Y52.4501 
G01 Z-0.0250 F254.00 
G01 X75.5300 Y53.4264 F508.00 
G01 X78.3916 Y56.2881 
G01 X78.4619 Y56.3584 
G01 X78.5000 Y56.4503 
G01 X78.5000 Y57.5850 
G01 X79.0049 Y57.5850 
G01 X79.0416 Y57.6002 
G01 X79.0698 Y57.6284 
G01 X79.0850 Y57.6651 
G01 X79.0850 Y59.1749 
G01 X79.0698 Y59.2116 
G01 X79.0416 Y59.2398 
G01 X79.0049 Y59.2550 
G01 X77.8486 Y59.2550 
G01 X74.8594 Y62.2442 
G01 X74.8922 Y62.2548 
G01 X75.0826 Y62.3518 
G01 X75.2554 Y62.4774 
G01 X75.4065 Y62.6285 
G01 X75.5321 Y62.8013 
G01 X75.6291 Y62.9917 
G01 X75.6951 Y63.1949 
G01 X75.7285 Y63.4059 
G01 X75.7285 Y66.1341 
G01 X75.6951 Y66.3451 
G01 X75.6291 Y66.5483 
G01 X75.5321 Y66.7387 
G01 X75.4065 Y66.9115 
G01 X75.2554 Y67.0626 
G01 X75.0826 Y67.1882 
G01 X74.8922 Y67.2852 
G01 X74.6890 Y67.3512 
G01 X74.4780 Y67.3846 
G01 X74.2644 Y67.3846 
G01 X74.0534 Y67.3512 
G01 X73.8502 Y67.2852 
G01 X73.6598 Y67.1882 
G01 X73.4870 Y67.0626 
G01 X73.3359 Y66.9115 
G01 X73.2103 Y66.7387 
G01 X73.1133 Y66.5483 
G01 X73.0473 Y66.3451 
G01 X73.0139 Y66.1341 
G01 X73.0139 Y63.4059 
G01 X73.0473 Y63.1949 
G01 X73.1133 Y62.9917 
G01 X73.2103 Y62.8013 
G01 X73.3359 Y62.6285 
G01 X73.4870 Y62.4774 
G01 X73.6598 Y62.3518 
G01 X73.8502 Y62.2548 
G01 X74.0534 Y62.1888 
G01 X74.2644 Y62.1554 
G01 X74.2686 Y62.1554 
G01 X74.2881 Y62.1084 
G01 X74.3584 Y62.0381 
G01 X77.6150 Y58.7814 
G01 X77.6150 Y57.6651 
G01 X77.6302 Y57.6284 
G01 X77.6584 Y57.6002 
G01 X77.6951 Y57.5850 
G01 X78.0000 Y57.5850 
G01 X78.0000 Y56.6036 
G01 X75.3664 Y53.9700 
G01 X74.4101 Y53.9700 
G01 X74.3734 Y53.9548 
G01 X74.3452 Y53.9266 
G01 X74.3300 Y53.8899 
G01 X74.3300 Y52.4501 
G01 X74.3452 Y52.4134 
G01 X74.3734 Y52.3852 
G01 X74.4101 Y52.3700 
G01 X75.4499 Y52.3700 
G01 X75.4866 Y52.3852 
G01 X75.5148 Y52.4134 
G01 X75.5300 Y52.4501 
G00 Z2.0000 
G00 X76.4800 Y50.2501 
G01 Z-0.0250 F254.00 
G01 X76.4800 Y51.6899 F508.00 
G01 X76.4648 Y51.7266 
G01 X76.4366 Y51.7548 
G01 X76.3999 Y51.7700 
G01 X75.3601 Y51.7700 
G01 X75.3234 Y51.7548 
G01 X75.2952 Y51.7266 
G01 X75.2800 Y51.6899 
G01 X75.2800 Y50.6336 
G01 X74.8584 Y50.2119 
G01 X74.7881 Y50.1416 
G01 X74.7524 Y50.0555 
G01 X74.7120 Y50.0388 
G01 X74.6124 Y49.9723 
G01 X74.5277 Y49.8876 
G01 X74.4612 Y49.7880 
G01 X74.4154 Y49.6773 
G01 X74.3920 Y49.5599 
G01 X74.3920 Y49.4401 
G01 X74.4154 Y49.3227 
G01 X74.4612 Y49.2120 
G01 X74.5277 Y49.1124 
G01 X74.6124 Y49.0277 
G01 X74.7120 Y48.9612 
G01 X74.8227 Y48.9154 
G01 X74.9401 Y48.8920 
G01 X75.0599 Y48.8920 
G01 X75.1773 Y48.9154 
G01 X75.2880 Y48.9612 
G01 X75.3876 Y49.0277 
G01 X75.4723 Y49.1124 
G01 X75.5388 Y49.2120 
G01 X75.5846 Y49.3227 
G01 X75.6080 Y49.4401 
G01 X75.6080 Y49.5599 
G01 X75.5846 Y49.6773 
G01 X75.5388 Y49.7880 
G01 X75.4723 Y49.8876 
G01 X75.3876 Y49.9723 
G01 X75.3505 Y49.9970 
G01 X75.5236 Y50.1700 
G01 X76.3999 Y50.1700 
G01 X76.4366 Y50.1852 
G01 X76.4648 Y50.2134 
G01 X76.4800 Y50.2501 
G00 Z2.0000 
G00 X74.5300 Y46.3701 
G01 Z-0.0250 F254.00 
G01 X74.5300 Y47.6099 F508.00 
G01 X74.5148 Y47.6466 
G01 X74.4866 Y47.6748 
G01 X74.4499 Y47.6900 
G01 X74.2500 Y47.6900 
G01 X74.2500 Y50.1700 
G01 X74.4999 Y50.1700 
G01 X74.5366 Y50.1852 
G01 X74.5648 Y50.2134 
G01 X74.5800 Y50.2501 
G01 X74.5800 Y51.6899 
G01 X74.5648 Y51.7266 
G01 X74.5366 Y51.7548 
G01 X74.4999 Y51.7700 
G01 X73.4601 Y51.7700 
G01 X73.4234 Y51.7548 
G01 X73.3952 Y51.7266 
G01 X73.3800 Y51.6899 
G01 X73.3800 Y50.2501 
G01 X73.3952 Y50.2134 
G01 X73.4234 Y50.1852 
G01 X73.4601 Y50.1700 
G01 X73.7500 Y50.1700 
G01 X73.7500 Y47.6900 
G01 X73.6101 Y47.6900 
G01 X73.5734 Y47.6748 
G01 X73.5452 Y47.6466 
G01 X73.5300 Y47.6099 
G01 X73.5300 Y46.3701 
G01 X73.5452 Y46.3334 
G01 X73.5734 Y46.3052 
G01 X73.6101 Y46.2900 
G01 X74.4499 Y46.2900 
G01 X74.4866 Y46.3052 
G01 X74.5148 Y46.3334 
G01 X74.5300 Y46.3701 
G00 Z2.0000 
G00 X73.3150 Y57.6651 
G01 Z-0.0250 F254.00 
G01 X73.3302 Y57.6284 F508.00 
G01 X73.3584 Y57.6002 
G01 X73.3951 Y57.5850 
G01 X74.7049 Y57.5850 
G01 X74.7416 Y57.6002 
G01 X74.7698 Y57.6284 
G01 X74.7850 Y57.6651 
G01 X74.7850 Y59.1749 
G01 X74.7698 Y59.2116 
G01 X74.7416 Y59.2398 
G01 X74.7049 Y59.2550 
G01 X73.5986 Y59.2550 
G01 X70.7500 Y62.1036 
G01 X70.7500 Y62.1964 
G01 X70.9298 Y62.2548 
G01 X71.1202 Y62.3518 
G01 X71.2930 Y62.4774 
G01 X71.4441 Y62.6285 
G01 X71.5697 Y62.8013 
G01 X71.6667 Y62.9917 
G01 X71.7327 Y63.1949 
G01 X71.7661 Y63.4059 
G01 X71.7661 Y66.1341 
G01 X71.7327 Y66.3451 
G01 X71.6667 Y66.5483 
G01 X71.5697 Y66.7387 
G01 X71.4441 Y66.9115 
G01 X71.2930 Y67.0626 
G01 X71.1202 Y67.1882 
G01 X70.9298 Y67.2852 
G01 X70.7266 Y67.3512 
G01 X70.5156 Y67.3846 
G01 X70.3020 Y67.3846 
G01 X70.0910 Y67.3512 
G01 X69.8878 Y67.2852 
G01 X69.6974 Y67.1882 
G01 X69.5246 Y67.0626 
G01 X69.3735 Y66.9115 
G01 X69.2479 Y66.7387 
G01 X69.1509 Y66.5483 
G01 X69.0849 Y66.3451 
G01 X69.0515 Y66.1341 
G01 X69.0515 Y63.4059 
G01 X69.0849 Y63.1949 
G01 X69.1509 Y62.9917 
G01 X69.2479 Y62.8013 
G01 X69.3735 Y62.6285 
G01 X69.5246 Y62.4774 
G01 X69.6974 Y62.3518 
G01 X69.8878 Y62.2548 
G01 X70.0910 Y62.1888 
G01 X70.2500 Y62.1636 
G01 X70.2500 Y61.9503 
G01 X70.2881 Y61.8584 
G01 X70.3584 Y61.7881 
G01 X73.3150 Y58.8314 
G01 X73.3150 Y57.6651 
G00 Z2.0000 
G00 X60.2490 Y62.5193 
G01 Z-0.0250 F254.00 
G01 X60.2490 Y64.1407 F508.00 
G01 X60.2171 Y64.3008 
G01 X60.1546 Y64.4517 
G01 X60.0639 Y64.5875 
G01 X59.9485 Y64.7029 
G01 X59.8127 Y64.7936 
G01 X59.6618 Y64.8561 
G01 X59.5017 Y64.8880 
G01 X59.3383 Y64.8880 
G01 X59.1782 Y64.8561 
G01 X59.0273 Y64.7936 
G01 X58.8915 Y64.7029 
G01 X58.7761 Y64.5875 
G01 X58.6853 Y64.4517 
G01 X58.6229 Y64.3008 
G01 X58.5910 Y64.1407 
G01 X58.5910 Y62.5193 
G01 X58.6229 Y62.3592 
G01 X58.6853 Y62.2083 
G01 X58.7761 Y62.0725 
G01 X58.8915 Y61.9571 
G01 X59.0273 Y61.8664 
G01 X59.1782 Y61.8039 
G01 X59.3383 Y61.7720 
G01 X59.5017 Y61.7720 
G01 X59.6618 Y61.8039 
G01 X59.8127 Y61.8664 
G01 X59.9485 Y61.9571 
G01 X60.0639 Y62.0725 
G01 X60.1546 Y62.2083 
G01 X60.2171 Y62.3592 
G01 X60.2490 Y62.5193 
G00 Z2.0000 
G00 X58.2490 Y62.5193 
G01 Z-0.0250 F254.00 
G01 X58.2490 Y64.1407 F508.00 
G01 X58.2171 Y64.3008 
G01 X58.1546 Y64.4517 
G01 X58.0639 Y64.5875 
G01 X57.9485 Y64.7029 
G01 X57.8127 Y64.7936 
G01 X57.6618 Y64.8561 
G01 X57.5017 Y64.8880 
G01 X57.3383 Y64.8880 
G01 X57.1782 Y64.8561 
G01 X57.0273 Y64.7936 
G01 X56.8915 Y64.7029 
G01 X56.7761 Y64.5875 
G01 X56.6853 Y64.4517 
G01 X56.6229 Y64.3008 
G01 X56.5910 Y64.1407 
G01 X56.5910 Y62.5193 
G01 X56.6229 Y62.3592 
G01 X56.6853 Y62.2083 
G01 X56.7761 Y62.0725 
G01 X56.8915 Y61.9571 
G01 X57.0273 Y61.8664 
G01 X57.1782 Y61.8039 
G01 X57.3383 Y61.7720 
G01 X57.5017 Y61.7720 
G01 X57.6618 Y61.8039 
G01 X57.8127 Y61.8664 
G01 X57.9485 Y61.9571 
G01 X58.0639 Y62.0725 
G01 X58.1546 Y62.2083 
G01 X58.2171 Y62.3592 
G01 X58.2490 Y62.5193 
G00 Z2.0000 
G00 X8.0431 Y14.8320 
G01 Z-0.0250 F254.00 
G01 X7.8766 Y14.7989 F508.00 
G01 X7.7197 Y14.7339 
G01 X7.5785 Y14.6396 
G01 X7.4584 Y14.5195 
G01 X7.3641 Y14.3783 
G01 X7.2991 Y14.2214 
G01 X7.2660 Y14.0549 
G01 X7.2660 Y13.8851 
G01 X7.2991 Y13.7186 
G01 X7.3641 Y13.5617 
G01 X7.4584 Y13.4205 
G01 X7.5785 Y13.3004 
G01 X7.7197 Y13.2061 
G01 X7.8766 Y13.1411 
G01 X8.0431 Y13.1080 
G01 X9.7369 Y13.1080 
G01 X9.9034 Y13.1411 
G01 X10.0603 Y13.2061 
G01 X10.2015 Y13.3004 
G01 X10.3216 Y13.4205 
G01 X10.4159 Y13.5617 
G01 X10.4809 Y13.7186 
G01 X10.5140 Y13.8851 
G01 X10.5140 Y14.0549 
G01 X10.4809 Y14.2214 
G01 X10.4159 Y14.3783 
G01 X10.3216 Y14.5195 
G01 X10.2015 Y14.6396 
G01 X10.0766 Y14.7230 
G01 X12.6416 Y17.2881 
G01 X12.7119 Y17.3584 
G01 X12.7500 Y17.4503 
G01 X12.7500 Y19.3800 
G01 X14.3199 Y19.3800 
G01 X14.3566 Y19.3952 
G01 X14.3848 Y19.4234 
G01 X14.4000 Y19.4601 
G01 X14.4000 Y21.2799 
G01 X14.3848 Y21.3166 
G01 X14.3566 Y21.3448 
G01 X14.3199 Y21.3600 
G01 X11.0801 Y21.3600 
G01 X11.0434 Y21.3448 
G01 X11.0152 Y21.3166 
G01 X11.0000 Y21.2799 
G01 X11.0000 Y19.4601 
G01 X11.0152 Y19.4234 
G01 X11.0434 Y19.3952 
G01 X11.0801 Y19.3800 
G01 X12.2500 Y19.3800 
G01 X12.2500 Y17.6036 
G01 X9.4784 Y14.8320 
G01 X8.0431 Y14.8320 
G00 Z2.0000 
G00 X9.7369 Y12.2920 
G01 Z-0.0250 F254.00 
G01 X8.3116 Y12.2920 F508.00 
G01 X7.0000 Y13.6036 
G01 X7.0000 Y34.8964 
G01 X9.0438 Y36.9403 
G01 X9.0562 Y36.9313 
G01 X9.2021 Y36.8570 
G01 X9.3577 Y36.8064 
G01 X9.5194 Y36.7808 
G01 X9.6830 Y36.7808 
G01 X9.8447 Y36.8064 
G01 X10.0003 Y36.8570 
G01 X10.1462 Y36.9313 
G01 X10.2786 Y37.0275 
G01 X10.3943 Y37.1432 
G01 X10.4905 Y37.2756 
G01 X10.5648 Y37.4215 
G01 X10.6154 Y37.5771 
G01 X10.6410 Y37.7388 
G01 X10.6410 Y37.9024 
G01 X10.6154 Y38.0641 
G01 X10.5648 Y38.2197 
G01 X10.4905 Y38.3656 
G01 X10.4742 Y38.3880 
G01 X10.5000 Y38.4503 
G01 X10.5000 Y51.1464 
G01 X19.0000 Y59.6464 
G01 X20.2881 Y58.3584 
G01 X20.3584 Y58.2881 
G01 X21.0000 Y57.6464 
G01 X21.0000 Y55.3100 
G01 X20.7501 Y55.3100 
G01 X20.7134 Y55.2948 
G01 X20.6852 Y55.2666 
G01 X20.6700 Y55.2299 
G01 X20.6700 Y53.9901 
G01 X20.6852 Y53.9534 
G01 X20.7134 Y53.9252 
G01 X20.7501 Y53.9100 
G01 X21.0000 Y53.9100 
G01 X21.0000 Y50.3536 
G01 X20.8764 Y50.2300 
G01 X20.2701 Y50.2300 
G01 X20.2334 Y50.2148 
G01 X20.2052 Y50.1866 
G01 X20.1900 Y50.1499 
G01 X20.1900 Y48.9101 
G01 X20.2052 Y48.8734 
G01 X20.2334 Y48.8452 
G01 X20.2701 Y48.8300 
G01 X20.5000 Y48.8300 
G01 X20.5000 Y45.9503 
G01 X20.5381 Y45.8584 
G01 X20.6084 Y45.7881 
G01 X21.9900 Y44.4064 
G01 X21.9900 Y43.8301 
G01 X22.0052 Y43.7934 
G01 X22.0334 Y43.7652 
G01 X22.0701 Y43.7500 
G01 X22.9099 Y43.7500 
G01 X22.9466 Y43.7652 
G01 X22.9748 Y43.7934 
G01 X22.9900 Y43.8301 
G01 X22.9900 Y45.0699 
G01 X22.9748 Y45.1066 
G01 X22.9466 Y45.1348 
G01 X22.9099 Y45.1500 
G01 X22.0701 Y45.1500 
G01 X22.0334 Y45.1348 
G01 X22.0052 Y45.1066 
G01 X22.0028 Y45.1008 
G01 X21.0000 Y46.1036 
G01 X21.0000 Y48.8300 
G01 X21.1099 Y48.8300 
G01 X21.1466 Y48.8452 
G01 X21.1748 Y48.8734 
G01 X21.1900 Y48.9101 
G01 X21.1900 Y49.8364 
G01 X21.3916 Y50.0381 
G01 X21.4619 Y50.1084 
G01 X21.5000 Y50.2003 
G01 X21.5000 Y53.9100 
G01 X21.9899 Y53.9100 
G01 X22.0266 Y53.9252 
G01 X22.0548 Y53.9534 
G01 X22.0700 Y53.9901 
G01 X22.0700 Y55.2299 
G01 X22.0548 Y55.2666 
G01 X22.0266 Y55.2948 
G01 X21.9899 Y55.3100 
G01 X21.5000 Y55.3100 
G01 X21.5000 Y57.7997 
G01 X21.4619 Y57.8916 
G01 X21.3916 Y57.9619 
G01 X21.1035 Y58.2500 
G01 X27.0000 Y58.2500 
G01 X27.0000 Y52.7700 
G01 X26.6201 Y52.7700 
G01 X26.5834 Y52.7548 
G01 X26.5552 Y52.7266 
G01 X26.5400 Y52.6899 
G01 X26.5400 Y51.4501 
G01 X26.5552 Y51.4134 
G01 X26.5834 Y51.3852 
G01 X26.6201 Y51.3700 
G01 X27.4599 Y51.3700 
G01 X27.4966 Y51.3852 
G01 X27.5248 Y51.4134 
G01 X27.5400 Y51.4501 
G01 X27.5400 Y52.6899 
G01 X27.5248 Y52.7266 
G01 X27.5000 Y52.7514 
G01 X27.5000 Y58.9017 
G01 X27.5416 Y58.9100 
G01 X27.6892 Y58.9711 
G01 X27.8221 Y59.0599 
G01 X27.9351 Y59.1729 
G01 X28.0239 Y59.3058 
G01 X28.0850 Y59.4534 
G01 X28.1162 Y59.6101 
G01 X28.1162 Y59.7699 
G01 X28.0850 Y59.9266 
G01 X28.0239 Y60.0742 
G01 X27.9351 Y60.2071 
G01 X27.8221 Y60.3201 
G01 X27.6892 Y60.4089 
G01 X27.5416 Y60.4700 
G01 X27.3849 Y60.5012 
G01 X27.2251 Y60.5012 
G01 X27.0684 Y60.4700 
G01 X26.9208 Y60.4089 
G01 X26.7879 Y60.3201 
G01 X26.6749 Y60.2071 
G01 X26.5861 Y60.0742 
G01 X26.5250 Y59.9266 
G01 X26.4938 Y59.7699 
G01 X26.4938 Y59.6101 
G01 X26.5250 Y59.4534 
G01 X26.5861 Y59.3058 
G01 X26.6749 Y59.1729 
G01 X26.7879 Y59.0599 
G01 X26.9208 Y58.9711 
G01 X27.0000 Y58.9383 
G01 X27.0000 Y58.7500 
G01 X20.6036 Y58.7500 
G01 X19.2119 Y60.1416 
G01 X19.1416 Y60.2119 
G01 X15.2939 Y64.0596 
G01 X15.3414 Y64.0672 
G01 X15.5198 Y64.1251 
G01 X15.6870 Y64.2103 
G01 X15.8389 Y64.3206 
G01 X15.9716 Y64.4533 
G01 X16.0819 Y64.6052 
G01 X16.1671 Y64.7724 
G01 X16.2250 Y64.9508 
G01 X16.2544 Y65.1362 
G01 X16.2544 Y65.3238 
G01 X16.2250 Y65.5092 
G01 X16.1671 Y65.6876 
G01 X16.0819 Y65.8548 
G01 X15.9716 Y66.0067 
G01 X15.8389 Y66.1394 
G01 X15.6870 Y66.2497 
G01 X15.5198 Y66.3349 
G01 X15.3414 Y66.3928 
G01 X15.1560 Y66.4222 
G01 X12.7840 Y66.4222 
G01 X12.5986 Y66.3928 
G01 X12.4202 Y66.3349 
G01 X12.2530 Y66.2497 
G01 X12.1011 Y66.1394 
G01 X11.9684 Y66.0067 
G01 X11.8581 Y65.8548 
G01 X11.7729 Y65.6876 
G01 X11.7150 Y65.5092 
G01 X11.6856 Y65.3238 
G01 X11.6856 Y65.1362 
G01 X11.7150 Y64.9508 
G01 X11.7729 Y64.7724 
G01 X11.8581 Y64.6052 
G01 X11.9684 Y64.4533 
G01 X12.1011 Y64.3206 
G01 X12.2530 Y64.2103 
G01 X12.4202 Y64.1251 
G01 X12.5986 Y64.0672 
G01 X12.7840 Y64.0378 
G01 X14.6086 Y64.0378 
G01 X18.6464 Y60.0000 
G01 X10.0381 Y51.3916 
G01 X10.0000 Y51.2997 
G01 X10.0000 Y38.7843 
G01 X9.8447 Y38.8348 
G01 X9.6830 Y38.8604 
G01 X9.5194 Y38.8604 
G01 X9.3577 Y38.8348 
G01 X9.2021 Y38.7842 
G01 X9.0562 Y38.7099 
G01 X8.9238 Y38.6137 
G01 X8.8081 Y38.4980 
G01 X8.7119 Y38.3656 
G01 X8.6376 Y38.2197 
G01 X8.5870 Y38.0641 
G01 X8.5614 Y37.9024 
G01 X8.5614 Y37.7388 
G01 X8.5870 Y37.5771 
G01 X8.6376 Y37.4215 
G01 X8.6984 Y37.3020 
G01 X6.5381 Y35.1416 
G01 X6.5000 Y35.0497 
G01 X6.5000 Y13.4503 
G01 X6.5381 Y13.3584 
G01 X6.6084 Y13.2881 
G01 X7.7094 Y12.1870 
G01 X7.5785 Y12.0996 
G01 X7.4584 Y11.9795 
G01 X7.3641 Y11.8383 
G01 X7.2991 Y11.6814 
G01 X7.2660 Y11.5149 
G01 X7.2660 Y11.3451 
G01 X7.2991 Y11.1786 
G01 X7.3641 Y11.0217 
G01 X7.4584 Y10.8805 
G01 X7.5785 Y10.7604 
G01 X7.7197 Y10.6661 
G01 X7.8766 Y10.6011 
G01 X8.0431 Y10.5680 
G01 X9.7369 Y10.5680 
G01 X9.9034 Y10.6011 
G01 X10.0603 Y10.6661 
G01 X10.2015 Y10.7604 
G01 X10.3216 Y10.8805 
G01 X10.4159 Y11.0217 
G01 X10.4809 Y11.1786 
G01 X10.5140 Y11.3451 
G01 X10.5140 Y11.5149 
G01 X10.4809 Y11.6814 
G01 X10.4159 Y11.8383 
G01 X10.3216 Y11.9795 
G01 X10.2015 Y12.0996 
G01 X10.0603 Y12.1939 
G01 X9.9034 Y12.2589 
G01 X9.7369 Y12.2920 
G00 Z2.0000 
G00 X9.7369 Y9.7520 
G01 Z-0.0250 F254.00 
G01 X8.0431 Y9.7520 F508.00 
G01 X7.8766 Y9.7189 
G01 X7.7197 Y9.6539 
G01 X7.5785 Y9.5596 
G01 X7.4584 Y9.4395 
G01 X7.3641 Y9.2983 
G01 X7.2991 Y9.1414 
G01 X7.2660 Y8.9749 
G01 X7.2660 Y8.8051 
G01 X7.2991 Y8.6386 
G01 X7.3641 Y8.4817 
G01 X7.4584 Y8.3405 
G01 X7.5785 Y8.2204 
G01 X7.7197 Y8.1261 
G01 X7.8766 Y8.0611 
G01 X8.0431 Y8.0280 
G01 X9.7369 Y8.0280 
G01 X9.9034 Y8.0611 
G01 X10.0603 Y8.1261 
G01 X10.2015 Y8.2204 
G01 X10.3216 Y8.3405 
G01 X10.4159 Y8.4817 
G01 X10.4809 Y8.6386 
G01 X10.5140 Y8.8051 
G01 X10.5140 Y8.9749 
G01 X10.4809 Y9.1414 
G01 X10.4159 Y9.2983 
G01 X10.3216 Y9.4395 
G01 X10.2015 Y9.5596 
G01 X10.0603 Y9.6539 
G01 X9.9034 Y9.7189 
G01 X9.7369 Y9.7520 
G00 Z2.0000 
G00 X29.3862 Y57.0701 
G01 Z-0.0250 F254.00 
G01 X29.3862 Y57.2299 F508.00 
G01 X29.3550 Y57.3866 
G01 X29.2939 Y57.5342 
G01 X29.2051 Y57.6671 
G01 X29.0921 Y57.7801 
G01 X28.9592 Y57.8689 
G01 X28.8116 Y57.9300 
G01 X28.6549 Y57.9612 
G01 X28.4951 Y57.9612 
G01 X28.3384 Y57.9300 
G01 X28.1908 Y57.8689 
G01 X28.0579 Y57.7801 
G01 X27.9449 Y57.6671 
G01 X27.8561 Y57.5342 
G01 X27.7950 Y57.3866 
G01 X27.7638 Y57.2299 
G01 X27.7638 Y57.0701 
G01 X27.7950 Y56.9134 
G01 X27.8561 Y56.7658 
G01 X27.9449 Y56.6329 
G01 X28.0579 Y56.5199 
G01 X28.1908 Y56.4311 
G01 X28.3384 Y56.3700 
G01 X28.4951 Y56.3388 
G01 X28.5000 Y56.3388 
G01 X28.5000 Y52.7700 
G01 X28.4201 Y52.7700 
G01 X28.3834 Y52.7548 
G01 X28.3552 Y52.7266 
G01 X28.3400 Y52.6899 
G01 X28.3400 Y51.4501 
G01 X28.3552 Y51.4134 
G01 X28.3834 Y51.3852 
G01 X28.4201 Y51.3700 
G01 X29.2599 Y51.3700 
G01 X29.2966 Y51.3852 
G01 X29.3248 Y51.4134 
G01 X29.3400 Y51.4501 
G01 X29.3400 Y51.7500 
G01 X31.6200 Y51.7500 
G01 X31.6200 Y51.4501 
G01 X31.6352 Y51.4134 
G01 X31.6634 Y51.3852 
G01 X31.7001 Y51.3700 
G01 X32.5399 Y51.3700 
G01 X32.5766 Y51.3852 
G01 X32.6048 Y51.4134 
G01 X32.6200 Y51.4501 
G01 X32.6200 Y52.6899 
G01 X32.6048 Y52.7266 
G01 X32.5766 Y52.7548 
G01 X32.5399 Y52.7700 
G01 X31.7001 Y52.7700 
G01 X31.6634 Y52.7548 
G01 X31.6352 Y52.7266 
G01 X31.6200 Y52.6899 
G01 X31.6200 Y52.2500 
G01 X29.3400 Y52.2500 
G01 X29.3400 Y52.6899 
G01 X29.3248 Y52.7266 
G01 X29.2966 Y52.7548 
G01 X29.2599 Y52.7700 
G01 X29.0000 Y52.7700 
G01 X29.0000 Y56.4584 
G01 X29.0921 Y56.5199 
G01 X29.2051 Y56.6329 
G01 X29.2939 Y56.7658 
G01 X29.3550 Y56.9134 
G01 X29.3862 Y57.0701 
G00 Z2.0000 
G00 X41.5020 Y4.2331 
G01 Z-0.0250 F254.00 
G01 X41.5020 Y5.9269 F508.00 
G01 X41.4689 Y6.0934 
G01 X41.4039 Y6.2503 
G01 X41.3096 Y6.3915 
G01 X41.1895 Y6.5116 
G01 X41.0483 Y6.6059 
G01 X40.8914 Y6.6709 
G01 X40.7249 Y6.7040 
G01 X40.5551 Y6.7040 
G01 X40.3886 Y6.6709 
G01 X40.2317 Y6.6059 
G01 X40.0905 Y6.5116 
G01 X39.9704 Y6.3915 
G01 X39.8761 Y6.2503 
G01 X39.8694 Y6.2341 
G01 X20.7119 Y25.3916 
G01 X20.6416 Y25.4619 
G01 X20.5497 Y25.5000 
G01 X14.4000 Y25.5000 
G01 X14.4000 Y26.2599 
G01 X14.3848 Y26.2966 
G01 X14.3566 Y26.3248 
G01 X14.3199 Y26.3400 
G01 X12.7500 Y26.3400 
G01 X12.7500 Y42.3450 
G01 X12.9649 Y42.3450 
G01 X13.0016 Y42.3602 
G01 X13.0298 Y42.3884 
G01 X13.0450 Y42.4251 
G01 X13.0450 Y43.0000 
G01 X23.0497 Y43.0000 
G01 X23.1416 Y43.0381 
G01 X23.2119 Y43.1084 
G01 X23.7119 Y43.6084 
G01 X23.7500 Y43.7003 
G01 X23.7500 Y48.5497 
G01 X23.7119 Y48.6416 
G01 X23.6416 Y48.7119 
G01 X22.9900 Y49.3636 
G01 X22.9900 Y49.8864 
G01 X26.1416 Y53.0381 
G01 X26.2119 Y53.1084 
G01 X26.2500 Y53.2003 
G01 X26.2500 Y56.3657 
G01 X26.2716 Y56.3700 
G01 X26.4192 Y56.4311 
G01 X26.5521 Y56.5199 
G01 X26.6651 Y56.6329 
G01 X26.7539 Y56.7658 
G01 X26.8150 Y56.9134 
G01 X26.8462 Y57.0701 
G01 X26.8462 Y57.2299 
G01 X26.8150 Y57.3866 
G01 X26.7539 Y57.5342 
G01 X26.6651 Y57.6671 
G01 X26.5521 Y57.7801 
G01 X26.4192 Y57.8689 
G01 X26.2716 Y57.9300 
G01 X26.1149 Y57.9612 
G01 X25.9551 Y57.9612 
G01 X25.7984 Y57.9300 
G01 X25.6508 Y57.8689 
G01 X25.5179 Y57.7801 
G01 X25.4049 Y57.6671 
G01 X25.3161 Y57.5342 
G01 X25.2550 Y57.3866 
G01 X25.2238 Y57.2299 
G01 X25.2238 Y57.0701 
G01 X25.2550 Y56.9134 
G01 X25.3161 Y56.7658 
G01 X25.4049 Y56.6329 
G01 X25.5179 Y56.5199 
G01 X25.6508 Y56.4311 
G01 X25.7500 Y56.3900 
G01 X25.7500 Y53.3536 
G01 X22.6264 Y50.2300 
G01 X22.0701 Y50.2300 
G01 X22.0334 Y50.2148 
G01 X22.0052 Y50.1866 
G01 X21.9900 Y50.1499 
G01 X21.9900 Y48.9101 
G01 X22.0052 Y48.8734 
G01 X22.0334 Y48.8452 
G01 X22.0701 Y48.8300 
G01 X22.8164 Y48.8300 
G01 X23.2500 Y48.3964 
G01 X23.2500 Y43.8536 
G01 X22.8964 Y43.5000 
G01 X13.0450 Y43.5000 
G01 X13.0450 Y43.9349 
G01 X13.0298 Y43.9716 
G01 X13.0016 Y43.9998 
G01 X12.9649 Y44.0150 
G01 X11.6551 Y44.0150 
G01 X11.6184 Y43.9998 
G01 X11.5902 Y43.9716 
G01 X11.5750 Y43.9349 
G01 X11.5750 Y42.4251 
G01 X11.5902 Y42.3884 
G01 X11.6184 Y42.3602 
G01 X11.6551 Y42.3450 
G01 X12.2500 Y42.3450 
G01 X12.2500 Y26.3400 
G01 X11.0801 Y26.3400 
G01 X11.0434 Y26.3248 
G01 X11.0152 Y26.2966 
G01 X11.0000 Y26.2599 
G01 X11.0000 Y24.4401 
G01 X11.0152 Y24.4034 
G01 X11.0434 Y24.3752 
G01 X11.0801 Y24.3600 
G01 X14.3199 Y24.3600 
G01 X14.3566 Y24.3752 
G01 X14.3848 Y24.4034 
G01 X14.4000 Y24.4401 
G01 X14.4000 Y25.0000 
G01 X20.3964 Y25.0000 
G01 X39.7780 Y5.6184 
G01 X39.7780 Y4.2331 
G01 X39.8111 Y4.0666 
G01 X39.8761 Y3.9097 
G01 X39.9704 Y3.7685 
G01 X40.0905 Y3.6484 
G01 X40.2317 Y3.5541 
G01 X40.3886 Y3.4891 
G01 X40.5551 Y3.4560 
G01 X40.7249 Y3.4560 
G01 X40.8914 Y3.4891 
G01 X41.0483 Y3.5541 
G01 X41.1895 Y3.6484 
G01 X41.3096 Y3.7685 
G01 X41.4039 Y3.9097 
G01 X41.4689 Y4.0666 
G01 X41.5020 Y4.2331 
G00 Z2.0000 
G00 X6.0180 Y65.8953 
G01 Z-0.0250 F254.00 
G01 X6.0180 Y66.1847 F508.00 
G01 X5.9802 Y66.4717 
G01 X5.9053 Y66.7513 
G01 X5.7945 Y67.0187 
G01 X5.6498 Y67.2693 
G01 X5.4736 Y67.4990 
G01 X5.2690 Y67.7036 
G01 X5.0393 Y67.8798 
G01 X4.7887 Y68.0245 
G01 X4.5213 Y68.1353 
G01 X4.2417 Y68.2102 
G01 X3.9547 Y68.2480 
G01 X3.6653 Y68.2480 
G01 X3.3783 Y68.2102 
G01 X3.0987 Y68.1353 
G01 X2.8313 Y68.0245 
G01 X2.5807 Y67.8798 
G01 X2.3510 Y67.7036 
G01 X2.1464 Y67.4990 
G01 X1.9702 Y67.2693 
G01 X1.8255 Y67.0187 
G01 X1.7147 Y66.7513 
G01 X1.6398 Y66.4717 
G01 X1.6020 Y66.1847 
G01 X1.6020 Y65.8953 
G01 X1.6398 Y65.6083 
G01 X1.7147 Y65.3287 
G01 X1.8255 Y65.0613 
G01 X1.9702 Y64.8107 
G01 X2.1464 Y64.5810 
G01 X2.3510 Y64.3764 
G01 X2.5807 Y64.2002 
G01 X2.8313 Y64.0555 
G01 X3.0987 Y63.9447 
G01 X3.3783 Y63.8698 
G01 X3.6653 Y63.8320 
G01 X3.9547 Y63.8320 
G01 X4.2417 Y63.8698 
G01 X4.5213 Y63.9447 
G01 X4.7887 Y64.0555 
G01 X5.0393 Y64.2002 
G01 X5.2690 Y64.3764 
G01 X5.4736 Y64.5810 
G01 X5.6498 Y64.8107 
G01 X5.7945 Y65.0613 
G01 X5.9053 Y65.3287 
G01 X5.9802 Y65.6083 
G01 X6.0180 Y65.8953 
G00 Z2.0000 
G00 X6.0180 Y3.6653 
G01 Z-0.0250 F254.00 
G01 X6.0180 Y3.9547 F508.00 
G01 X5.9802 Y4.2417 
G01 X5.9053 Y4.5213 
G01 X5.7945 Y4.7887 
G01 X5.6498 Y5.0393 
G01 X5.4736 Y5.2690 
G01 X5.2690 Y5.4736 
G01 X5.0393 Y5.6498 
G01 X4.7887 Y5.7945 
G01 X4.5213 Y5.9053 
G01 X4.2417 Y5.9802 
G01 X3.9547 Y6.0180 
G01 X3.6653 Y6.0180 
G01 X3.3783 Y5.9802 
G01 X3.0987 Y5.9053 
G01 X2.8313 Y5.7945 
G01 X2.5807 Y5.6498 
G01 X2.3510 Y5.4736 
G01 X2.1464 Y5.2690 
G01 X1.9702 Y5.0393 
G01 X1.8255 Y4.7887 
G01 X1.7147 Y4.5213 
G01 X1.6398 Y4.2417 
G01 X1.6020 Y3.9547 
G01 X1.6020 Y3.6653 
G01 X1.6398 Y3.3783 
G01 X1.7147 Y3.0987 
G01 X1.8255 Y2.8313 
G01 X1.9702 Y2.5807 
G01 X2.1464 Y2.3510 
G01 X2.3510 Y2.1464 
G01 X2.5807 Y1.9702 
G01 X2.8313 Y1.8255 
G01 X3.0987 Y1.7147 
G01 X3.3783 Y1.6398 
G01 X3.6653 Y1.6020 
G01 X3.9547 Y1.6020 
G01 X4.2417 Y1.6398 
G01 X4.5213 Y1.7147 
G01 X4.7887 Y1.8255 
G01 X5.0393 Y1.9702 
G01 X5.2690 Y2.1464 
G01 X5.4736 Y2.3510 
G01 X5.6498 Y2.5807 
G01 X5.7945 Y2.8313 
G01 X5.9053 Y3.0987 
G01 X5.9802 Y3.3783 
G01 X6.0180 Y3.6653 
G00 Z2.0000 
G00 X84.7580 Y65.8953 
G01 Z-0.0250 F254.00 
G01 X84.7580 Y66.1847 F508.00 
G01 X84.7202 Y66.4717 
G01 X84.6453 Y66.7513 
G01 X84.5345 Y67.0187 
G01 X84.3898 Y67.2693 
G01 X84.2136 Y67.4990 
