(.../pcb-gcode-3.6.0.4/pcb-gcode.ulp)
(Copyright 2005 - 2012 by John Johnson)
(See readme.txt for licensing terms.)
(This file generated from the board:)
(.../eagle/ARMEDBASE_V0/MCU/MCU.brd)
(Current profile is .../pcb-gcode-3.6.0.4/profiles/emc.pp  )
(This file generated 6/27/2014 3:23:57 PM)
(Settings from pcb-machine.h)
(  Tool Size)
(0.1000 )
(Z Axis Settings)
(  High     Up        Down     Drill)
(12.7000 	2.5400 	-0.1500 	-0.8128 )
(spindle on time = 3.0000)
(milling depth = -0.1500)
(text depth = -0.1270)
(tool change at 12.7000 15.2400 25.4000 )
(feed rate xy = F508.00 )
(feed rate z  = F254.00 )
(Settings from pcb-defaults.h)
(isolate min = 0.0154)
(isolate max = 0.5080)
(isolate step = 0.1270)
(Generated top outlines, top drill, bottom outlines, bottom drill, )
(Unit of measure: mm)
(Metric Mode)
G21
(Absolute Coordinates)
G90
G00 X0.0000 Y0.0000 
M03
G04 P3.000000
G00 Z2.5400 
G00 X91.7521 Y28.5892 
G01 Z-0.1500 F254.00 
G01 X92.3435 Y27.9978 F508.00 
G01 X91.7521 Y27.4064 
G01 X91.6207 Y27.4064 
G01 X91.6207 Y28.5892 
G01 X91.7521 Y28.5892 
G00 Z2.5400 
G00 X92.1377 Y34.4228 
G01 Z-0.1500 F254.00 
G01 X90.7443 Y34.4228 F508.00 
G01 X90.4640 Y34.7031 
G01 X90.4640 Y35.6056 
G01 X92.4180 Y35.6056 
G01 X92.4180 Y34.7031 
G01 X92.1377 Y34.4228 
G00 Z2.5400 
G00 X92.4180 Y42.6220 
G01 Z-0.1500 F254.00 
G01 X92.4180 Y41.7195 F508.00 
G01 X92.1377 Y41.4392 
G01 X91.5154 Y41.4392 
G01 X91.2351 Y41.7195 
G01 X91.2351 Y42.6220 
G01 X92.4180 Y42.6220 
G00 Z2.5400 
G00 X91.7521 Y44.9608 
G01 Z-0.1500 F254.00 
G01 X92.3435 Y44.3694 F508.00 
G01 X91.7521 Y43.7780 
G01 X91.6207 Y43.7780 
G01 X91.6207 Y44.9608 
G01 X91.7521 Y44.9608 
G00 Z2.5400 
G00 X90.9810 Y29.7452 
G01 Z-0.1500 F254.00 
G01 X90.7443 Y29.7452 F508.00 
G01 X90.4640 Y30.0255 
G01 X90.4640 Y30.9280 
G01 X91.2613 Y30.9280 
G01 X91.2613 Y30.0255 
G01 X90.9810 Y29.7452 
G00 Z2.5400 
G00 X92.4180 Y30.9280 
G01 Z-0.1500 F254.00 
G01 X92.4180 Y30.0255 F508.00 
G01 X92.1377 Y29.7452 
G01 X91.9010 Y29.7452 
G01 X91.6207 Y30.0255 
G01 X91.6207 Y30.9280 
G01 X92.4180 Y30.9280 
G00 Z2.5400 
G00 X90.2486 Y19.5934 
G01 Z-0.1500 F254.00 
G01 X90.1825 Y19.5661 F508.00 
G01 X90.1320 Y19.5155 
G01 X90.1046 Y19.4495 
G01 X90.1046 Y19.3780 
G01 X90.1320 Y19.3120 
G01 X90.1825 Y19.2614 
G01 X90.2486 Y19.2340 
G01 X92.1638 Y19.2340 
G01 X91.7248 Y18.7950 
G01 X91.6742 Y18.7444 
G01 X91.6469 Y18.6784 
G01 X91.6469 Y18.6069 
G01 X91.6742 Y18.5408 
G01 X92.1638 Y18.0512 
G01 X90.2486 Y18.0512 
G01 X90.1825 Y18.0238 
G01 X90.1320 Y17.9733 
G01 X90.1046 Y17.9072 
G01 X90.1046 Y17.8358 
G01 X90.1320 Y17.7697 
G01 X90.1825 Y17.7192 
G01 X90.2486 Y17.6918 
G01 X92.6334 Y17.6918 
G01 X92.6995 Y17.7192 
G01 X92.7500 Y17.7697 
G01 X92.7774 Y17.8358 
G01 X92.7774 Y17.9072 
G01 X92.7500 Y17.9733 
G01 X92.6995 Y18.0238 
G01 X92.0807 Y18.6426 
G01 X92.7500 Y19.3120 
G01 X92.7774 Y19.3780 
G01 X92.7774 Y19.4495 
G01 X92.7500 Y19.5155 
G01 X92.6995 Y19.5661 
G01 X92.6334 Y19.5934 
G01 X92.5619 Y19.5934 
G01 X90.2486 Y19.5934 
G00 Z2.5400 
G00 X90.5681 Y29.4131 
G01 Z-0.1500 F254.00 
G01 X90.6341 Y29.3858 F508.00 
G01 X91.0912 Y29.3858 
G01 X91.1572 Y29.4131 
G01 X91.2078 Y29.4637 
G01 X91.4410 Y29.6969 
G01 X91.7248 Y29.4131 
G01 X91.7908 Y29.3858 
G01 X92.2479 Y29.3858 
G01 X92.3139 Y29.4131 
G01 X92.3645 Y29.4637 
G01 X92.7500 Y29.8493 
G01 X92.7774 Y29.9153 
G01 X92.7774 Y31.1435 
G01 X92.7500 Y31.2095 
G01 X92.6995 Y31.2601 
G01 X92.6334 Y31.2874 
G01 X90.2486 Y31.2874 
G01 X90.1825 Y31.2601 
G01 X90.1320 Y31.2095 
G01 X90.1046 Y31.1435 
G01 X90.1046 Y29.9153 
G01 X90.1320 Y29.8493 
G01 X90.1825 Y29.7987 
G01 X90.5681 Y29.4131 
G00 Z2.5400 
G00 X92.4180 Y36.5461 
G01 Z-0.1500 F254.00 
G01 X92.4453 Y36.4801 F508.00 
G01 X92.4959 Y36.4295 
G01 X92.5619 Y36.4022 
G01 X92.6334 Y36.4022 
G01 X92.6995 Y36.4295 
G01 X92.7500 Y36.4801 
G01 X92.7774 Y36.5461 
G01 X92.7774 Y38.1599 
G01 X92.7500 Y38.2259 
G01 X92.6995 Y38.2765 
G01 X92.6334 Y38.3038 
G01 X90.2486 Y38.3038 
G01 X90.1825 Y38.2765 
G01 X90.1320 Y38.2259 
G01 X90.1046 Y38.1599 
G01 X90.1046 Y36.5461 
G01 X90.1320 Y36.4801 
G01 X90.1825 Y36.4295 
G01 X90.2486 Y36.4022 
G01 X90.3200 Y36.4022 
G01 X90.3861 Y36.4295 
G01 X90.4366 Y36.4801 
G01 X90.4640 Y36.5461 
G01 X90.4640 Y37.9444 
G01 X91.2613 Y37.9444 
G01 X91.2613 Y37.3173 
G01 X91.2886 Y37.2512 
G01 X91.3392 Y37.2007 
G01 X91.4052 Y37.1733 
G01 X91.4767 Y37.1733 
G01 X91.5428 Y37.2007 
G01 X91.5933 Y37.2512 
G01 X91.6207 Y37.3173 
G01 X91.6207 Y37.9444 
G01 X92.4180 Y37.9444 
G01 X92.4180 Y36.5461 
G00 Z2.5400 
G00 X92.6334 Y51.9772 
G01 Z-0.1500 F254.00 
G01 X92.6995 Y52.0046 F508.00 
G01 X92.7500 Y52.0551 
G01 X92.7774 Y52.1212 
G01 X92.7774 Y52.1926 
G01 X92.7500 Y52.2587 
G01 X92.6995 Y52.3092 
G01 X92.6334 Y52.3366 
G01 X90.2486 Y52.3366 
G01 X90.1825 Y52.3092 
G01 X90.1320 Y52.2587 
G01 X90.1046 Y52.1926 
G01 X90.1046 Y50.5789 
G01 X90.1320 Y50.5129 
G01 X90.1825 Y50.4623 
G01 X90.2486 Y50.4350 
G01 X90.3200 Y50.4350 
G01 X90.3861 Y50.4623 
G01 X90.4366 Y50.5129 
G01 X90.4640 Y50.5789 
G01 X90.4640 Y51.9772 
G01 X92.6334 Y51.9772 
G00 Z2.5400 
G00 X92.0598 Y53.0552 
G01 Z-0.1500 F254.00 
G01 X92.0324 Y52.9892 F508.00 
G01 X92.0324 Y52.9177 
G01 X92.0598 Y52.8517 
G01 X92.1103 Y52.8011 
G01 X92.1764 Y52.7737 
G01 X92.2479 Y52.7737 
G01 X92.3139 Y52.8011 
G01 X92.6995 Y53.1867 
G01 X92.7500 Y53.2372 
G01 X92.7774 Y53.3033 
G01 X92.7774 Y54.1459 
G01 X92.7500 Y54.2119 
G01 X92.3645 Y54.5975 
G01 X92.3139 Y54.6480 
G01 X92.2479 Y54.6754 
G01 X90.6341 Y54.6754 
G01 X90.5681 Y54.6480 
G01 X90.1825 Y54.2625 
G01 X90.1320 Y54.2119 
G01 X90.1046 Y54.1459 
G01 X90.1046 Y53.3033 
G01 X90.1320 Y53.2372 
G01 X90.5681 Y52.8011 
G01 X90.6341 Y52.7737 
G01 X90.7056 Y52.7737 
G01 X90.7717 Y52.8011 
G01 X90.8222 Y52.8517 
G01 X90.8496 Y52.9177 
G01 X90.8496 Y52.9892 
G01 X90.8222 Y53.0552 
G01 X90.4640 Y53.4134 
G01 X90.4640 Y54.0357 
G01 X90.7443 Y54.3160 
G01 X92.1377 Y54.3160 
G01 X92.4180 Y54.0357 
G01 X92.4180 Y53.4134 
G01 X92.0598 Y53.0552 
G00 Z2.5400 
G00 X90.2486 Y49.6384 
G01 Z-0.1500 F254.00 
G01 X90.9810 Y49.6384 F508.00 
G01 X91.1869 Y49.4325 
G01 X90.1320 Y48.3776 
G01 X90.1046 Y48.3116 
G01 X90.1046 Y48.2401 
G01 X90.1320 Y48.1741 
G01 X90.1825 Y48.1235 
G01 X90.2486 Y48.0962 
G01 X90.3200 Y48.0962 
G01 X90.3861 Y48.1235 
G01 X91.4410 Y49.1784 
G01 X92.4959 Y48.1235 
G01 X92.5619 Y48.0962 
G01 X92.6334 Y48.0962 
G01 X92.6995 Y48.1235 
G01 X92.7500 Y48.1741 
G01 X92.7774 Y48.2401 
G01 X92.7774 Y48.3116 
G01 X92.7500 Y48.3776 
G01 X91.5933 Y49.5343 
G01 X91.5428 Y49.5849 
G01 X91.4893 Y49.6384 
G01 X92.6334 Y49.6384 
G01 X92.6995 Y49.6658 
G01 X92.7500 Y49.7163 
G01 X92.7774 Y49.7824 
G01 X92.7774 Y49.8539 
G01 X92.7500 Y49.9199 
G01 X92.6995 Y49.9704 
G01 X92.6334 Y49.9978 
G01 X90.2486 Y49.9978 
G01 X90.1825 Y49.9704 
G01 X90.1320 Y49.9199 
G01 X90.1046 Y49.8539 
G01 X90.1046 Y49.7824 
G01 X90.1320 Y49.7163 
G01 X90.1825 Y49.6658 
G01 X90.2486 Y49.6384 
G00 Z2.5400 
G00 X90.2486 Y45.3202 
G01 Z-0.1500 F254.00 
G01 X90.1825 Y45.2929 F508.00 
G01 X90.1320 Y45.2423 
G01 X90.1046 Y45.1763 
G01 X90.1046 Y45.1048 
G01 X90.1320 Y45.0387 
G01 X90.1825 Y44.9882 
G01 X90.2486 Y44.9608 
G01 X91.2613 Y44.9608 
G01 X91.2613 Y43.7780 
G01 X90.2486 Y43.7780 
G01 X90.1825 Y43.7506 
G01 X90.1320 Y43.7001 
G01 X90.1046 Y43.6340 
G01 X90.1046 Y43.5625 
G01 X90.1320 Y43.4965 
G01 X90.1825 Y43.4459 
G01 X90.2486 Y43.4186 
G01 X91.8623 Y43.4186 
G01 X91.9283 Y43.4459 
G01 X91.9789 Y43.4965 
G01 X92.7500 Y44.2676 
G01 X92.7774 Y44.3336 
G01 X92.7774 Y44.4051 
G01 X92.7500 Y44.4712 
G01 X92.6995 Y44.5217 
G01 X91.9283 Y45.2929 
G01 X91.8623 Y45.3202 
G01 X91.4052 Y45.3202 
G01 X90.2486 Y45.3202 
G00 Z2.5400 
G00 X90.2486 Y42.9814 
G01 Z-0.1500 F254.00 
G01 X90.1825 Y42.9541 F508.00 
G01 X90.1320 Y42.9035 
G01 X90.1046 Y42.8375 
G01 X90.1046 Y42.7660 
G01 X90.1320 Y42.6999 
G01 X90.1825 Y42.6494 
G01 X90.2486 Y42.6220 
G01 X90.8757 Y42.6220 
G01 X90.8757 Y42.1050 
G01 X90.1320 Y41.3613 
G01 X90.1046 Y41.2952 
G01 X90.1046 Y41.2237 
G01 X90.1320 Y41.1577 
G01 X90.1825 Y41.1071 
G01 X90.2486 Y41.0798 
G01 X90.3200 Y41.0798 
G01 X90.3861 Y41.1071 
G01 X90.8794 Y41.6004 
G01 X90.9031 Y41.5432 
G01 X90.9536 Y41.4927 
G01 X91.3392 Y41.1071 
G01 X91.4052 Y41.0798 
G01 X92.2479 Y41.0798 
G01 X92.3139 Y41.1071 
G01 X92.3645 Y41.1577 
G01 X92.7500 Y41.5432 
G01 X92.7774 Y41.6093 
G01 X92.7774 Y42.8375 
G01 X92.7500 Y42.9035 
G01 X92.6995 Y42.9541 
G01 X92.6334 Y42.9814 
G01 X91.0197 Y42.9814 
G01 X90.2486 Y42.9814 
G00 Z2.5400 
G00 X90.2486 Y40.6426 
G01 Z-0.1500 F254.00 
G01 X90.1825 Y40.6153 F508.00 
G01 X90.1320 Y40.5647 
G01 X90.1046 Y40.4987 
G01 X90.1046 Y40.4272 
G01 X90.1320 Y40.3611 
G01 X90.1825 Y40.3106 
G01 X90.2486 Y40.2832 
G01 X92.1638 Y40.2832 
G01 X91.7248 Y39.8441 
G01 X91.6742 Y39.7936 
G01 X91.6469 Y39.7275 
G01 X91.6469 Y39.6560 
G01 X91.6742 Y39.5900 
G01 X92.1638 Y39.1004 
G01 X90.2486 Y39.1004 
G01 X90.1825 Y39.0730 
G01 X90.1320 Y39.0225 
G01 X90.1046 Y38.9564 
G01 X90.1046 Y38.8849 
G01 X90.1320 Y38.8189 
G01 X90.1825 Y38.7683 
G01 X90.2486 Y38.7410 
G01 X92.6334 Y38.7410 
G01 X92.6995 Y38.7683 
G01 X92.7500 Y38.8189 
G01 X92.7774 Y38.8849 
G01 X92.7774 Y38.9564 
G01 X92.7500 Y39.0225 
G01 X92.6995 Y39.0730 
G01 X92.0807 Y39.6918 
G01 X92.7500 Y40.3611 
G01 X92.7774 Y40.4272 
G01 X92.7774 Y40.4987 
G01 X92.7500 Y40.5647 
G01 X92.6995 Y40.6153 
G01 X92.6334 Y40.6426 
G01 X92.5619 Y40.6426 
G01 X90.2486 Y40.6426 
G00 Z2.5400 
G00 X92.7774 Y35.7496 
G01 Z-0.1500 F254.00 
G01 X92.7774 Y35.8211 F508.00 
G01 X92.7500 Y35.8871 
G01 X92.6995 Y35.9377 
G01 X92.6334 Y35.9650 
G01 X90.2486 Y35.9650 
G01 X90.1825 Y35.9377 
G01 X90.1320 Y35.8871 
G01 X90.1046 Y35.8211 
G01 X90.1046 Y34.5929 
G01 X90.1320 Y34.5268 
G01 X90.5175 Y34.1413 
G01 X90.5681 Y34.0907 
G01 X90.6341 Y34.0634 
G01 X92.2479 Y34.0634 
G01 X92.3139 Y34.0907 
G01 X92.7500 Y34.5268 
G01 X92.7774 Y34.5929 
G01 X92.7774 Y35.7496 
G00 Z2.5400 
G00 X90.2486 Y28.9486 
G01 Z-0.1500 F254.00 
G01 X90.1825 Y28.9213 F508.00 
G01 X90.1320 Y28.8707 
G01 X90.1046 Y28.8047 
G01 X90.1046 Y28.7332 
G01 X90.1320 Y28.6671 
G01 X90.1825 Y28.6166 
G01 X90.2486 Y28.5892 
G01 X91.2613 Y28.5892 
G01 X91.2613 Y27.4064 
G01 X90.2486 Y27.4064 
G01 X90.1825 Y27.3790 
G01 X90.1320 Y27.3285 
G01 X90.1046 Y27.2624 
G01 X90.1046 Y27.1909 
G01 X90.1320 Y27.1249 
G01 X90.1825 Y27.0743 
G01 X90.2486 Y27.0470 
G01 X91.8623 Y27.0470 
G01 X91.9283 Y27.0743 
G01 X91.9789 Y27.1249 
G01 X92.7500 Y27.8960 
G01 X92.7774 Y27.9621 
G01 X92.7774 Y28.0336 
G01 X92.7500 Y28.0996 
G01 X92.6995 Y28.1502 
G01 X91.9283 Y28.9213 
G01 X91.8623 Y28.9486 
G01 X91.4052 Y28.9486 
G01 X90.2486 Y28.9486 
G00 Z2.5400 
G00 X92.0598 Y24.9897 
G01 Z-0.1500 F254.00 
G01 X92.0324 Y24.9236 F508.00 
G01 X92.0324 Y24.8521 
G01 X92.0598 Y24.7861 
G01 X92.1103 Y24.7355 
G01 X92.1764 Y24.7082 
G01 X92.2479 Y24.7082 
G01 X92.3139 Y24.7355 
G01 X92.6995 Y25.1211 
G01 X92.7500 Y25.1717 
G01 X92.7774 Y25.2377 
G01 X92.7774 Y26.0803 
G01 X92.7500 Y26.1464 
G01 X92.3645 Y26.5319 
G01 X92.3139 Y26.5825 
G01 X92.2479 Y26.6098 
G01 X91.7908 Y26.6098 
G01 X91.7248 Y26.5825 
G01 X91.3392 Y26.1969 
G01 X91.2886 Y26.1464 
G01 X91.2613 Y26.0803 
G01 X91.2613 Y25.3479 
G01 X90.9810 Y25.0676 
G01 X90.7443 Y25.0676 
G01 X90.4640 Y25.3479 
G01 X90.4640 Y25.9701 
G01 X90.8222 Y26.3283 
G01 X90.8496 Y26.3944 
G01 X90.8496 Y26.4659 
G01 X90.8222 Y26.5319 
G01 X90.7717 Y26.5825 
G01 X90.7056 Y26.6098 
G01 X90.6341 Y26.6098 
G01 X90.5681 Y26.5825 
G01 X90.1320 Y26.1464 
G01 X90.1046 Y26.0803 
G01 X90.1046 Y25.2377 
G01 X90.1320 Y25.1717 
G01 X90.1825 Y25.1211 
G01 X90.5681 Y24.7355 
G01 X90.6341 Y24.7082 
G01 X91.0912 Y24.7082 
G01 X91.1572 Y24.7355 
G01 X91.2078 Y24.7861 
G01 X91.5933 Y25.1717 
G01 X91.6207 Y25.2377 
G01 X91.6207 Y25.9701 
G01 X91.9010 Y26.2504 
G01 X92.1377 Y26.2504 
G01 X92.4180 Y25.9701 
G01 X92.4180 Y25.3479 
G01 X92.0598 Y24.9897 
G00 Z2.5400 
G00 X92.4180 Y22.5133 
G01 Z-0.1500 F254.00 
G01 X92.4453 Y22.4473 F508.00 
G01 X92.4959 Y22.3967 
G01 X92.5619 Y22.3694 
G01 X92.6334 Y22.3694 
G01 X92.6995 Y22.3967 
G01 X92.7500 Y22.4473 
G01 X92.7774 Y22.5133 
G01 X92.7774 Y24.1271 
G01 X92.7500 Y24.1931 
G01 X92.6995 Y24.2437 
G01 X92.6334 Y24.2710 
G01 X90.2486 Y24.2710 
G01 X90.1825 Y24.2437 
G01 X90.1320 Y24.1931 
G01 X90.1046 Y24.1271 
G01 X90.1046 Y22.5133 
G01 X90.1320 Y22.4473 
G01 X90.1825 Y22.3967 
G01 X90.2486 Y22.3694 
G01 X90.3200 Y22.3694 
G01 X90.3861 Y22.3967 
G01 X90.4366 Y22.4473 
G01 X90.4640 Y22.5133 
G01 X90.4640 Y23.9116 
G01 X91.2613 Y23.9116 
G01 X91.2613 Y23.2845 
G01 X91.2886 Y23.2184 
G01 X91.3392 Y23.1679 
G01 X91.4052 Y23.1405 
G01 X91.4767 Y23.1405 
G01 X91.5428 Y23.1679 
G01 X91.5933 Y23.2184 
G01 X91.6207 Y23.2845 
G01 X91.6207 Y23.9116 
G01 X92.4180 Y23.9116 
G01 X92.4180 Y22.5133 
G00 Z2.5400 
G00 X92.0598 Y15.6345 
G01 Z-0.1500 F254.00 
G01 X92.0324 Y15.5684 F508.00 
G01 X92.0324 Y15.4970 
G01 X92.0598 Y15.4309 
G01 X92.1103 Y15.3804 
G01 X92.1764 Y15.3530 
G01 X92.2479 Y15.3530 
G01 X92.3139 Y15.3804 
G01 X92.7500 Y15.8165 
G01 X92.7774 Y15.8825 
G01 X92.7774 Y16.7251 
G01 X92.7500 Y16.7912 
G01 X92.3645 Y17.1767 
G01 X92.3139 Y17.2273 
G01 X92.2479 Y17.2546 
G01 X90.6341 Y17.2546 
G01 X90.5681 Y17.2273 
G01 X90.1825 Y16.8417 
G01 X90.1320 Y16.7912 
G01 X90.1046 Y16.7251 
G01 X90.1046 Y15.8825 
G01 X90.1320 Y15.8165 
G01 X90.5681 Y15.3804 
G01 X90.6341 Y15.3530 
G01 X90.7056 Y15.3530 
G01 X90.7717 Y15.3804 
G01 X90.8222 Y15.4309 
G01 X90.8496 Y15.4970 
G01 X90.8496 Y15.5684 
G01 X90.8222 Y15.6345 
G01 X90.4640 Y15.9927 
G01 X90.4640 Y16.6150 
G01 X90.7443 Y16.8953 
G01 X92.1377 Y16.8953 
G01 X92.4180 Y16.6150 
G01 X92.4180 Y15.9927 
G01 X92.0598 Y15.6345 
G00 Z2.5400 
G00 X92.6334 Y14.5565 
G01 Z-0.1500 F254.00 
G01 X92.6995 Y14.5838 F508.00 
G01 X92.7500 Y14.6344 
G01 X92.7774 Y14.7004 
G01 X92.7774 Y14.7719 
G01 X92.7500 Y14.8379 
G01 X92.6995 Y14.8885 
G01 X92.6334 Y14.9159 
G01 X90.6341 Y14.9159 
G01 X90.5681 Y14.8885 
G01 X90.1825 Y14.5029 
G01 X90.1320 Y14.4524 
G01 X90.1046 Y14.3863 
G01 X90.1046 Y13.5437 
G01 X90.1320 Y13.4777 
G01 X90.5175 Y13.0921 
G01 X90.5681 Y13.0416 
G01 X90.6341 Y13.0142 
G01 X92.6334 Y13.0142 
G01 X92.6995 Y13.0416 
G01 X92.7500 Y13.0921 
G01 X92.7774 Y13.1582 
G01 X92.7774 Y13.2296 
G01 X92.7500 Y13.2957 
G01 X92.6995 Y13.3462 
G01 X92.6334 Y13.3736 
G01 X90.7443 Y13.3736 
G01 X90.4640 Y13.6539 
G01 X90.4640 Y14.2762 
G01 X90.7443 Y14.5565 
G01 X92.6334 Y14.5565 
G00 Z2.5400 
G00 X10.3276 Y61.0467 
G01 Z-0.1500 F254.00 
G01 X10.3276 Y63.4133 F508.00 
G01 X10.2991 Y63.5933 
G01 X10.2428 Y63.7666 
G01 X10.1601 Y63.9289 
G01 X10.0530 Y64.0763 
G01 X9.9241 Y64.2052 
G01 X9.7767 Y64.3123 
G01 X9.6144 Y64.3950 
G01 X9.4411 Y64.4513 
G01 X9.2611 Y64.4798 
G01 X9.0789 Y64.4798 
G01 X8.8989 Y64.4513 
G01 X8.7256 Y64.3950 
G01 X8.5633 Y64.3123 
G01 X8.4159 Y64.2052 
G01 X8.2870 Y64.0763 
G01 X8.1799 Y63.9289 
G01 X8.0972 Y63.7666 
G01 X8.0409 Y63.5933 
G01 X8.0124 Y63.4133 
G01 X8.0124 Y61.0467 
G01 X8.0409 Y60.8667 
G01 X8.0972 Y60.6934 
G01 X8.1799 Y60.5311 
G01 X8.2870 Y60.3837 
G01 X8.4159 Y60.2548 
G01 X8.5633 Y60.1477 
G01 X8.7256 Y60.0650 
G01 X8.8989 Y60.0087 
G01 X9.0789 Y59.9802 
G01 X9.2611 Y59.9802 
G01 X9.4411 Y60.0087 
G01 X9.6144 Y60.0650 
G01 X9.7767 Y60.1477 
G01 X9.9241 Y60.2548 
G01 X10.0530 Y60.3837 
G01 X10.1601 Y60.5311 
G01 X10.2428 Y60.6934 
G01 X10.2991 Y60.8667 
G01 X10.3276 Y61.0467 
G00 Z2.5400 
G00 X15.1533 Y66.3876 
G01 Z-0.1500 F254.00 
G01 X12.7867 Y66.3876 F508.00 
G01 X12.6067 Y66.3591 
G01 X12.4334 Y66.3028 
G01 X12.2711 Y66.2201 
G01 X12.1237 Y66.1130 
G01 X11.9948 Y65.9841 
G01 X11.8877 Y65.8367 
G01 X11.8050 Y65.6744 
G01 X11.7487 Y65.5011 
G01 X11.7202 Y65.3211 
G01 X11.7202 Y65.1389 
G01 X11.7487 Y64.9589 
G01 X11.8050 Y64.7856 
G01 X11.8877 Y64.6233 
G01 X11.9948 Y64.4759 
G01 X12.1237 Y64.3470 
G01 X12.2711 Y64.2399 
G01 X12.4334 Y64.1572 
G01 X12.6067 Y64.1009 
G01 X12.7867 Y64.0724 
G01 X14.5523 Y64.0724 
G01 X19.7346 Y58.8901 
G01 X19.7346 Y56.5454 
G01 X19.4870 Y56.5454 
G01 X19.4630 Y56.5354 
G01 X19.4446 Y56.5170 
G01 X19.4346 Y56.4930 
G01 X19.4346 Y55.2670 
G01 X19.4446 Y55.2430 
G01 X19.4630 Y55.2246 
G01 X19.4870 Y55.2146 
G01 X20.4101 Y55.2146 
G01 X21.9846 Y53.6401 
G01 X21.9846 Y49.7791 
G01 X21.9833 Y49.7734 
G01 X21.9846 Y49.7442 
G01 X21.9846 Y49.7151 
G01 X21.9861 Y49.7094 
G01 X21.9864 Y49.7036 
G01 X21.9951 Y49.6757 
G01 X22.0027 Y49.6476 
G01 X22.0056 Y49.6425 
G01 X22.0074 Y49.6369 
G01 X22.0148 Y49.6253 
G01 X22.0119 Y49.6184 
G01 X22.0027 Y49.6024 
G01 X21.9984 Y49.5863 
G01 X21.9919 Y49.5710 
G01 X21.9894 Y49.5527 
G01 X21.9846 Y49.5349 
G01 X21.9846 Y49.5183 
G01 X21.9823 Y49.5018 
G01 X21.9846 Y49.4835 
G01 X21.9846 Y47.3599 
G01 X21.0101 Y46.3854 
G01 X20.2770 Y46.3854 
G01 X20.2530 Y46.3754 
G01 X20.2346 Y46.3570 
G01 X20.2246 Y46.3330 
G01 X20.2246 Y45.1070 
G01 X20.2346 Y45.0830 
G01 X20.2346 Y41.0154 
G01 X8.2654 Y41.0154 
G01 X8.2654 Y44.8901 
G01 X9.1746 Y45.7993 
G01 X9.3080 Y45.7440 
G01 X9.5022 Y45.7054 
G01 X9.7002 Y45.7054 
G01 X9.8944 Y45.7440 
G01 X10.0773 Y45.8198 
G01 X10.2420 Y45.9298 
G01 X10.3820 Y46.0698 
G01 X10.4920 Y46.2345 
G01 X10.5678 Y46.4174 
G01 X10.6064 Y46.6116 
G01 X10.6064 Y46.8096 
G01 X10.5678 Y47.0038 
G01 X10.4920 Y47.1867 
G01 X10.3820 Y47.3514 
G01 X10.2420 Y47.4914 
G01 X10.0773 Y47.6014 
G01 X9.8944 Y47.6772 
G01 X9.7002 Y47.7158 
G01 X9.5022 Y47.7158 
G01 X9.3080 Y47.6772 
G01 X9.1251 Y47.6014 
G01 X8.9604 Y47.4914 
G01 X8.8204 Y47.3514 
G01 X8.7104 Y47.1867 
G01 X8.6346 Y47.0038 
G01 X8.5960 Y46.8096 
G01 X8.5960 Y46.6116 
G01 X8.6346 Y46.4174 
G01 X8.7104 Y46.2345 
G01 X8.7700 Y46.1453 
G01 X7.7876 Y45.1630 
G01 X7.7527 Y45.1024 
G01 X7.7346 Y45.0349 
G01 X7.7346 Y39.6828 
G01 X7.7015 Y39.6894 
G01 X7.5385 Y39.6894 
G01 X7.3787 Y39.6576 
G01 X7.2281 Y39.5952 
G01 X7.0926 Y39.5047 
G01 X6.9773 Y39.3894 
G01 X6.8868 Y39.2539 
G01 X6.8244 Y39.1033 
G01 X6.7926 Y38.9435 
G01 X6.7926 Y37.2565 
G01 X6.8244 Y37.0967 
G01 X6.8868 Y36.9461 
G01 X6.9773 Y36.8106 
G01 X7.0926 Y36.6953 
G01 X7.2281 Y36.6048 
G01 X7.3787 Y36.5424 
G01 X7.5385 Y36.5106 
G01 X7.7015 Y36.5106 
G01 X7.8613 Y36.5424 
G01 X8.0119 Y36.6048 
G01 X8.1474 Y36.6953 
G01 X8.2627 Y36.8106 
G01 X8.3532 Y36.9461 
G01 X8.4156 Y37.0967 
G01 X8.4474 Y37.2565 
G01 X8.4474 Y38.9435 
G01 X8.4156 Y39.1033 
G01 X8.3532 Y39.2539 
G01 X8.2654 Y39.3854 
G01 X8.2654 Y40.4846 
G01 X20.5349 Y40.4846 
G01 X20.6024 Y40.5027 
G01 X20.6630 Y40.5376 
G01 X20.7124 Y40.5870 
G01 X20.7473 Y40.6476 
G01 X20.7654 Y40.7151 
G01 X20.7654 Y45.0546 
G01 X21.1030 Y45.0546 
G01 X21.1270 Y45.0646 
G01 X21.1454 Y45.0830 
G01 X21.1554 Y45.1070 
G01 X21.1554 Y45.7801 
G01 X22.4130 Y47.0376 
G01 X22.4624 Y47.0870 
G01 X22.4973 Y47.1476 
G01 X22.5154 Y47.2151 
G01 X22.5154 Y48.8646 
G01 X22.9030 Y48.8646 
G01 X22.9270 Y48.8746 
G01 X22.9454 Y48.8930 
G01 X22.9554 Y48.9170 
G01 X22.9554 Y50.1430 
G01 X22.9454 Y50.1670 
G01 X22.9270 Y50.1854 
G01 X22.9030 Y50.1954 
G01 X22.5154 Y50.1954 
G01 X22.5154 Y53.7849 
G01 X22.4973 Y53.8524 
G01 X22.4624 Y53.9130 
G01 X22.4130 Y53.9624 
G01 X20.7654 Y55.6099 
G01 X20.7654 Y56.4930 
G01 X20.7554 Y56.5170 
G01 X20.7370 Y56.5354 
G01 X20.7130 Y56.5454 
G01 X20.2654 Y56.5454 
G01 X20.2654 Y58.2346 
G01 X26.9846 Y58.2346 
G01 X26.9846 Y52.7354 
G01 X26.6270 Y52.7354 
G01 X26.6030 Y52.7254 
G01 X26.5846 Y52.7070 
G01 X26.5746 Y52.6830 
G01 X26.5746 Y51.4570 
G01 X26.5846 Y51.4330 
G01 X26.6030 Y51.4146 
G01 X26.6270 Y51.4046 
G01 X27.4530 Y51.4046 
G01 X27.4770 Y51.4146 
G01 X27.4954 Y51.4330 
G01 X27.5054 Y51.4570 
G01 X27.5054 Y52.1762 
G01 X27.5119 Y52.1948 
G01 X27.5127 Y52.2051 
G01 X27.5154 Y52.2151 
G01 X27.5154 Y52.2398 
G01 X27.5173 Y52.2645 
G01 X27.5154 Y52.2746 
G01 X27.5154 Y58.9400 
G01 X27.5315 Y58.9432 
G01 X27.6729 Y59.0018 
G01 X27.8001 Y59.0868 
G01 X27.9082 Y59.1949 
G01 X27.9932 Y59.3221 
G01 X28.0518 Y59.4635 
G01 X28.0816 Y59.6135 
G01 X28.0816 Y59.7665 
G01 X28.0518 Y59.9165 
G01 X27.9932 Y60.0579 
G01 X27.9082 Y60.1851 
G01 X27.8001 Y60.2932 
G01 X27.6729 Y60.3782 
G01 X27.5315 Y60.4368 
G01 X27.3815 Y60.4666 
G01 X27.2285 Y60.4666 
G01 X27.0785 Y60.4368 
G01 X26.9371 Y60.3782 
G01 X26.8099 Y60.2932 
G01 X26.7018 Y60.1851 
G01 X26.6168 Y60.0579 
G01 X26.5582 Y59.9165 
G01 X26.5284 Y59.7665 
G01 X26.5284 Y59.6135 
G01 X26.5582 Y59.4635 
G01 X26.6168 Y59.3221 
G01 X26.7018 Y59.1949 
G01 X26.8099 Y59.0868 
G01 X26.9371 Y59.0018 
G01 X26.9846 Y58.9821 
G01 X26.9846 Y58.7654 
G01 X20.2654 Y58.7654 
G01 X20.2654 Y59.0349 
G01 X20.2473 Y59.1024 
G01 X20.2124 Y59.1630 
G01 X20.1630 Y59.2124 
G01 X15.2825 Y64.0929 
G01 X15.3333 Y64.1009 
G01 X15.5066 Y64.1572 
G01 X15.6689 Y64.2399 
G01 X15.8163 Y64.3470 
G01 X15.9452 Y64.4759 
G01 X16.0523 Y64.6233 
G01 X16.1350 Y64.7856 
G01 X16.1913 Y64.9589 
G01 X16.2198 Y65.1389 
G01 X16.2198 Y65.3211 
G01 X16.1913 Y65.5011 
G01 X16.1350 Y65.6744 
G01 X16.0523 Y65.8367 
G01 X15.9452 Y65.9841 
G01 X15.8163 Y66.1130 
G01 X15.6689 Y66.2201 
G01 X15.5066 Y66.3028 
G01 X15.3333 Y66.3591 
G01 X15.1533 Y66.3876 
G00 Z2.5400 
G00 X15.1533 Y60.3876 
G01 Z-0.1500 F254.00 
G01 X12.7867 Y60.3876 F508.00 
G01 X12.6067 Y60.3591 
G01 X12.4334 Y60.3028 
G01 X12.2711 Y60.2201 
G01 X12.1237 Y60.1130 
G01 X11.9948 Y59.9841 
G01 X11.8877 Y59.8367 
G01 X11.8050 Y59.6744 
G01 X11.7487 Y59.5011 
G01 X11.7202 Y59.3211 
G01 X11.7202 Y59.1389 
G01 X11.7487 Y58.9589 
G01 X11.8050 Y58.7856 
G01 X11.8877 Y58.6233 
G01 X11.9948 Y58.4759 
G01 X12.1237 Y58.3470 
G01 X12.2711 Y58.2399 
G01 X12.4334 Y58.1572 
G01 X12.6067 Y58.1009 
G01 X12.7867 Y58.0724 
G01 X15.1533 Y58.0724 
G01 X15.3333 Y58.1009 
G01 X15.5066 Y58.1572 
G01 X15.6689 Y58.2399 
G01 X15.8163 Y58.3470 
G01 X15.9452 Y58.4759 
G01 X16.0523 Y58.6233 
G01 X16.1350 Y58.7856 
G01 X16.1913 Y58.9589 
G01 X16.2198 Y59.1389 
G01 X16.2198 Y59.3211 
G01 X16.1913 Y59.5011 
G01 X16.1350 Y59.6744 
G01 X16.0523 Y59.8367 
G01 X15.9452 Y59.9841 
G01 X15.8163 Y60.1130 
G01 X15.6689 Y60.2201 
G01 X15.5066 Y60.3028 
G01 X15.3333 Y60.3591 
G01 X15.1533 Y60.3876 
G00 Z2.5400 
G00 X20.2246 Y50.1430 
G01 Z-0.1500 F254.00 
G01 X20.2246 Y49.5999 F508.00 
G01 X19.5376 Y48.9130 
G01 X19.5027 Y48.8524 
G01 X19.4846 Y48.7849 
G01 X19.4846 Y44.7654 
G01 X18.2589 Y44.7654 
G01 X18.2088 Y44.8521 
G01 X18.1021 Y44.9588 
G01 X17.9713 Y45.0343 
G01 X17.8255 Y45.0734 
G01 X17.8019 Y45.0734 
G01 X17.3454 Y45.5299 
G01 X17.3454 Y46.3330 
G01 X17.3354 Y46.3570 
G01 X17.3170 Y46.3754 
G01 X17.2930 Y46.3854 
G01 X16.4670 Y46.3854 
G01 X16.4430 Y46.3754 
G01 X16.4246 Y46.3570 
G01 X16.4146 Y46.3330 
G01 X16.4146 Y46.2107 
G01 X11.2654 Y51.3599 
G01 X11.2654 Y55.2146 
G01 X11.4730 Y55.2146 
G01 X11.4970 Y55.2246 
G01 X11.5154 Y55.2430 
G01 X11.5254 Y55.2670 
G01 X11.5254 Y56.4930 
G01 X11.5154 Y56.5170 
G01 X11.4970 Y56.5354 
G01 X11.4730 Y56.5454 
G01 X10.6470 Y56.5454 
G01 X10.6230 Y56.5354 
G01 X10.6046 Y56.5170 
G01 X10.5946 Y56.4930 
G01 X10.5946 Y55.2670 
G01 X10.6046 Y55.2430 
G01 X10.6230 Y55.2246 
G01 X10.6470 Y55.2146 
G01 X10.7346 Y55.2146 
G01 X10.7346 Y51.2151 
G01 X10.7527 Y51.1476 
G01 X10.7876 Y51.0870 
G01 X16.4146 Y45.4601 
G01 X16.4146 Y45.1070 
G01 X16.4246 Y45.0830 
G01 X16.4430 Y45.0646 
G01 X16.4670 Y45.0546 
G01 X17.0701 Y45.0546 
G01 X17.2844 Y44.8403 
G01 X17.2157 Y44.7213 
G01 X17.1766 Y44.5755 
G01 X17.1766 Y44.4245 
G01 X17.2157 Y44.2787 
G01 X17.2912 Y44.1479 
G01 X17.3979 Y44.0412 
G01 X17.5287 Y43.9657 
G01 X17.6745 Y43.9266 
G01 X17.8255 Y43.9266 
G01 X17.9713 Y43.9657 
G01 X18.1021 Y44.0412 
G01 X18.2088 Y44.1479 
G01 X18.2589 Y44.2346 
G01 X19.7849 Y44.2346 
G01 X19.8524 Y44.2527 
G01 X19.9130 Y44.2876 
G01 X19.9624 Y44.3370 
G01 X19.9973 Y44.3976 
G01 X20.0154 Y44.4651 
G01 X20.0154 Y48.6401 
G01 X20.2514 Y48.8761 
G01 X20.2770 Y48.8646 
G01 X21.1030 Y48.8646 
G01 X21.1270 Y48.8746 
G01 X21.1454 Y48.8930 
G01 X21.1554 Y48.9170 
G01 X21.1554 Y50.1430 
G01 X21.1454 Y50.1670 
G01 X21.1270 Y50.1854 
G01 X21.1030 Y50.1954 
G01 X20.2770 Y50.1954 
G01 X20.2530 Y50.1854 
G01 X20.2346 Y50.1670 
G01 X20.2246 Y50.1430 
G00 Z2.5400 
G00 X13.0104 Y51.3220 
G01 Z-0.1500 F254.00 
G01 X13.0104 Y51.9846 F508.00 
G01 X17.2411 Y51.9846 
G01 X17.2912 Y51.8979 
G01 X17.3979 Y51.7912 
G01 X17.5287 Y51.7157 
G01 X17.6745 Y51.6766 
G01 X17.8255 Y51.6766 
G01 X17.9713 Y51.7157 
G01 X18.1021 Y51.7912 
G01 X18.2088 Y51.8979 
G01 X18.2843 Y52.0287 
G01 X18.3234 Y52.1745 
G01 X18.3234 Y52.3255 
G01 X18.2843 Y52.4713 
G01 X18.2088 Y52.6021 
G01 X18.1021 Y52.7088 
G01 X17.9713 Y52.7843 
G01 X17.8255 Y52.8234 
G01 X17.6745 Y52.8234 
G01 X17.5287 Y52.7843 
G01 X17.3979 Y52.7088 
G01 X17.2912 Y52.6021 
G01 X17.2411 Y52.5154 
G01 X13.0104 Y52.5154 
G01 X13.0104 Y52.8180 
G01 X13.0004 Y52.8420 
G01 X12.9820 Y52.8604 
G01 X12.9580 Y52.8704 
G01 X11.6620 Y52.8704 
G01 X11.6380 Y52.8604 
G01 X11.6196 Y52.8420 
G01 X11.6096 Y52.8180 
G01 X11.6096 Y51.3220 
G01 X11.6196 Y51.2980 
G01 X11.6380 Y51.2796 
G01 X11.6620 Y51.2696 
G01 X12.9580 Y51.2696 
G01 X12.9820 Y51.2796 
G01 X13.0004 Y51.2980 
G01 X13.0104 Y51.3220 
G00 Z2.5400 
G00 X1.6128 Y51.1664 
G01 Z-0.1500 F254.00 
G01 X3.4672 Y51.1664 F508.00 
G01 X3.6418 Y51.2011 
G01 X3.8062 Y51.2692 
G01 X3.9542 Y51.3681 
G01 X4.0801 Y51.4940 
G01 X4.1790 Y51.6420 
G01 X4.2471 Y51.8064 
G01 X4.2818 Y51.9810 
G01 X4.2818 Y51.9846 
G01 X7.3096 Y51.9846 
G01 X7.3096 Y51.3220 
G01 X7.3196 Y51.2980 
G01 X7.3380 Y51.2796 
G01 X7.3620 Y51.2696 
G01 X8.6580 Y51.2696 
G01 X8.6820 Y51.2796 
G01 X8.7004 Y51.2980 
G01 X8.7104 Y51.3220 
G01 X8.7104 Y52.8180 
G01 X8.7004 Y52.8420 
G01 X8.6820 Y52.8604 
G01 X8.6580 Y52.8704 
G01 X7.3620 Y52.8704 
G01 X7.3380 Y52.8604 
G01 X7.3196 Y52.8420 
G01 X7.3096 Y52.8180 
G01 X7.3096 Y52.5154 
G01 X4.1673 Y52.5154 
G01 X4.0801 Y52.6460 
G01 X3.9542 Y52.7719 
G01 X3.8062 Y52.8708 
G01 X3.6418 Y52.9389 
G01 X3.4672 Y52.9736 
G01 X1.6128 Y52.9736 
G01 X1.4382 Y52.9389 
G01 X1.2738 Y52.8708 
G01 X1.1258 Y52.7719 
G01 X0.9999 Y52.6460 
G01 X0.9010 Y52.4980 
G01 X0.8329 Y52.3336 
G01 X0.7982 Y52.1590 
G01 X0.7982 Y51.9810 
G01 X0.8329 Y51.8064 
G01 X0.9010 Y51.6420 
G01 X0.9999 Y51.4940 
G01 X1.1258 Y51.3681 
G01 X1.2738 Y51.2692 
G01 X1.4382 Y51.2011 
G01 X1.6128 Y51.1664 
G00 Z2.5400 
G00 X1.6128 Y54.9764 
G01 Z-0.1500 F254.00 
G01 X3.4672 Y54.9764 F508.00 
G01 X3.6418 Y55.0111 
G01 X3.8062 Y55.0792 
G01 X3.9542 Y55.1781 
G01 X4.0801 Y55.3040 
G01 X4.1790 Y55.4520 
G01 X4.2471 Y55.6164 
G01 X4.2818 Y55.7910 
G01 X4.2818 Y55.9690 
G01 X4.2471 Y56.1436 
G01 X4.1790 Y56.3080 
G01 X4.0801 Y56.4560 
G01 X3.9542 Y56.5819 
G01 X3.8062 Y56.6808 
G01 X3.6418 Y56.7489 
G01 X3.4672 Y56.7836 
G01 X1.6128 Y56.7836 
G01 X1.4382 Y56.7489 
G01 X1.2738 Y56.6808 
G01 X1.1258 Y56.5819 
G01 X0.9999 Y56.4560 
G01 X0.9010 Y56.3080 
G01 X0.8329 Y56.1436 
G01 X0.7982 Y55.9690 
G01 X0.7982 Y55.7910 
G01 X0.8329 Y55.6164 
G01 X0.9010 Y55.4520 
G01 X0.9999 Y55.3040 
G01 X1.1258 Y55.1781 
G01 X1.2738 Y55.0792 
G01 X1.4382 Y55.0111 
G01 X1.6128 Y54.9764 
G00 Z2.5400 
G00 X1.6128 Y58.7864 
G01 Z-0.1500 F254.00 
G01 X3.4672 Y58.7864 F508.00 
G01 X3.6418 Y58.8211 
G01 X3.8062 Y58.8892 
G01 X3.9542 Y58.9881 
G01 X4.0801 Y59.1140 
G01 X4.1790 Y59.2620 
G01 X4.2471 Y59.4264 
G01 X4.2818 Y59.6010 
G01 X4.2818 Y59.7790 
G01 X4.2471 Y59.9536 
G01 X4.1790 Y60.1180 
G01 X4.0801 Y60.2660 
G01 X3.9542 Y60.3919 
G01 X3.8062 Y60.4908 
G01 X3.6418 Y60.5589 
G01 X3.4672 Y60.5936 
G01 X1.6128 Y60.5936 
G01 X1.4382 Y60.5589 
G01 X1.2738 Y60.4908 
G01 X1.1258 Y60.3919 
G01 X0.9999 Y60.2660 
G01 X0.9010 Y60.1180 
G01 X0.8329 Y59.9536 
G01 X0.7982 Y59.7790 
G01 X0.7982 Y59.6010 
G01 X0.8329 Y59.4264 
G01 X0.9010 Y59.2620 
G01 X0.9999 Y59.1140 
G01 X1.1258 Y58.9881 
G01 X1.2738 Y58.8892 
G01 X1.4382 Y58.8211 
G01 X1.6128 Y58.7864 
G00 Z2.5400 
G00 X18.2146 Y46.3330 
G01 Z-0.1500 F254.00 
G01 X18.2146 Y45.1070 F508.00 
G01 X18.2246 Y45.0830 
G01 X18.2430 Y45.0646 
G01 X18.2670 Y45.0546 
G01 X19.0930 Y45.0546 
G01 X19.1170 Y45.0646 
G01 X19.1354 Y45.0830 
G01 X19.1454 Y45.1070 
G01 X19.1454 Y46.3330 
G01 X19.1354 Y46.3570 
G01 X19.1170 Y46.3754 
G01 X19.0930 Y46.3854 
G01 X19.0154 Y46.3854 
G01 X19.0154 Y55.0349 
G01 X18.9973 Y55.1024 
G01 X18.9624 Y55.1630 
G01 X18.6654 Y55.4599 
G01 X18.6654 Y56.4930 
G01 X18.6554 Y56.5170 
G01 X18.6370 Y56.5354 
G01 X18.6130 Y56.5454 
G01 X17.3870 Y56.5454 
G01 X17.3630 Y56.5354 
G01 X17.3446 Y56.5170 
G01 X17.3346 Y56.4930 
G01 X17.3346 Y55.2670 
G01 X17.3446 Y55.2430 
G01 X17.3630 Y55.2246 
G01 X17.3870 Y55.2146 
G01 X18.1601 Y55.2146 
G01 X18.4846 Y54.8901 
G01 X18.4846 Y46.3854 
G01 X18.2670 Y46.3854 
G01 X18.2430 Y46.3754 
G01 X18.2246 Y46.3570 
G01 X18.2146 Y46.3330 
G00 Z2.5400 
G00 X79.3985 Y66.1314 
G01 Z-0.1500 F254.00 
G01 X79.3985 Y63.4086 F508.00 
G01 X79.4311 Y63.2030 
G01 X79.4954 Y63.0050 
G01 X79.5899 Y62.8195 
G01 X79.7123 Y62.6510 
G01 X79.8595 Y62.5038 
G01 X80.0280 Y62.3814 
G01 X80.2135 Y62.2869 
G01 X80.4115 Y62.2226 
G01 X80.4846 Y62.2110 
G01 X80.4846 Y59.2204 
G01 X80.2420 Y59.2204 
G01 X80.2180 Y59.2104 
G01 X80.1996 Y59.1920 
G01 X80.1896 Y59.1680 
G01 X80.1896 Y57.6720 
G01 X80.1996 Y57.6480 
G01 X80.2180 Y57.6296 
G01 X80.2420 Y57.6196 
G01 X80.4846 Y57.6196 
G01 X80.4846 Y56.6099 
G01 X77.8101 Y53.9354 
G01 X76.9570 Y53.9354 
G01 X76.9330 Y53.9254 
G01 X76.9146 Y53.9070 
G01 X76.9046 Y53.8830 
G01 X76.9046 Y52.4570 
G01 X76.9146 Y52.4330 
G01 X76.9330 Y52.4146 
G01 X76.9570 Y52.4046 
G01 X77.9830 Y52.4046 
G01 X78.0070 Y52.4146 
G01 X78.0254 Y52.4330 
G01 X78.0354 Y52.4570 
G01 X78.0354 Y53.4101 
G01 X80.9130 Y56.2876 
G01 X80.9624 Y56.3370 
G01 X80.9973 Y56.3976 
G01 X81.0154 Y56.4651 
G01 X81.0154 Y57.6196 
G01 X81.5380 Y57.6196 
G01 X81.5620 Y57.6296 
G01 X81.5804 Y57.6480 
G01 X81.5904 Y57.6720 
G01 X81.5904 Y59.1680 
G01 X81.5804 Y59.1920 
G01 X81.5620 Y59.2104 
G01 X81.5380 Y59.2204 
G01 X81.0154 Y59.2204 
G01 X81.0154 Y62.2201 
G01 X81.0309 Y62.2226 
G01 X81.2289 Y62.2869 
G01 X81.4144 Y62.3814 
G01 X81.5829 Y62.5038 
G01 X81.7301 Y62.6510 
G01 X81.8525 Y62.8195 
G01 X81.9470 Y63.0050 
G01 X82.0113 Y63.2030 
G01 X82.0439 Y63.4086 
G01 X82.0439 Y66.1314 
G01 X82.0113 Y66.3370 
G01 X81.9470 Y66.5350 
G01 X81.8525 Y66.7205 
G01 X81.7301 Y66.8890 
G01 X81.5829 Y67.0362 
G01 X81.4144 Y67.1586 
G01 X81.2289 Y67.2531 
G01 X81.0309 Y67.3174 
G01 X80.8253 Y67.3500 
G01 X80.6171 Y67.3500 
G01 X80.4115 Y67.3174 
G01 X80.2135 Y67.2531 
G01 X80.0280 Y67.1586 
G01 X79.8595 Y67.0362 
G01 X79.7123 Y66.8890 
G01 X79.5899 Y66.7205 
G01 X79.4954 Y66.5350 
G01 X79.4311 Y66.3370 
G01 X79.3985 Y66.1314 
G00 Z2.5400 
G00 X75.4361 Y66.1314 
G01 Z-0.1500 F254.00 
G01 X75.4361 Y63.4086 F508.00 
G01 X75.4687 Y63.2030 
G01 X75.5330 Y63.0050 
G01 X75.6275 Y62.8195 
G01 X75.7499 Y62.6510 
G01 X75.8971 Y62.5038 
G01 X76.0656 Y62.3814 
G01 X76.2511 Y62.2869 
G01 X76.4491 Y62.2226 
G01 X76.4846 Y62.2169 
G01 X76.4846 Y59.2204 
G01 X75.9420 Y59.2204 
G01 X75.9180 Y59.2104 
G01 X75.8996 Y59.1920 
G01 X75.8896 Y59.1680 
G01 X75.8896 Y57.6720 
G01 X75.8996 Y57.6480 
G01 X75.9180 Y57.6296 
G01 X75.9420 Y57.6196 
G01 X77.2380 Y57.6196 
G01 X77.2620 Y57.6296 
G01 X77.2804 Y57.6480 
G01 X77.2904 Y57.6720 
G01 X77.2904 Y59.1680 
G01 X77.2804 Y59.1920 
G01 X77.2620 Y59.2104 
G01 X77.2380 Y59.2204 
G01 X77.0154 Y59.2204 
G01 X77.0154 Y62.2142 
G01 X77.0685 Y62.2226 
G01 X77.2665 Y62.2869 
G01 X77.4520 Y62.3814 
G01 X77.6205 Y62.5038 
G01 X77.7677 Y62.6510 
G01 X77.8901 Y62.8195 
G01 X77.9846 Y63.0050 
G01 X78.0489 Y63.2030 
G01 X78.0815 Y63.4086 
G01 X78.0815 Y66.1314 
G01 X78.0489 Y66.3370 
G01 X77.9846 Y66.5350 
G01 X77.8901 Y66.7205 
G01 X77.7677 Y66.8890 
G01 X77.6205 Y67.0362 
G01 X77.4520 Y67.1586 
G01 X77.2665 Y67.2531 
G01 X77.0685 Y67.3174 
G01 X76.8629 Y67.3500 
G01 X76.6547 Y67.3500 
G01 X76.4491 Y67.3174 
G01 X76.2511 Y67.2531 
G01 X76.0656 Y67.1586 
G01 X75.8971 Y67.0362 
G01 X75.7499 Y66.8890 
G01 X75.6275 Y66.7205 
G01 X75.5330 Y66.5350 
G01 X75.4687 Y66.3370 
G01 X75.4361 Y66.1314 
G00 Z2.5400 
G00 X69.1454 Y57.5370 
G01 Z-0.1500 F254.00 
G01 X69.1454 Y57.9846 F508.00 
G01 X70.2346 Y57.9846 
G01 X70.2346 Y53.8599 
G01 X69.1101 Y52.7354 
G01 X68.5370 Y52.7354 
G01 X68.5130 Y52.7254 
G01 X68.4946 Y52.7070 
G01 X68.4846 Y52.6830 
G01 X68.4846 Y52.1099 
G01 X65.6355 Y49.2608 
G01 X65.6355 Y49.8885 
G01 X65.1285 Y50.3955 
G01 X64.4115 Y50.3955 
G01 X63.9045 Y49.8885 
G01 X63.9045 Y49.1715 
G01 X64.4115 Y48.6645 
G01 X65.0392 Y48.6645 
G01 X64.8370 Y48.4624 
G01 X64.7876 Y48.4130 
G01 X64.7527 Y48.3524 
G01 X64.7346 Y48.2849 
G01 X64.7346 Y47.8555 
G01 X64.4115 Y47.8555 
G01 X63.9045 Y47.3485 
G01 X63.9045 Y46.6315 
G01 X64.4115 Y46.1245 
G01 X65.1285 Y46.1245 
G01 X65.6355 Y46.6315 
G01 X65.6355 Y47.3485 
G01 X65.2654 Y47.7186 
G01 X65.2654 Y48.1401 
G01 X65.7880 Y48.6626 
G01 X65.8374 Y48.7120 
G01 X68.5320 Y51.4067 
G01 X68.5370 Y51.4046 
G01 X69.3630 Y51.4046 
G01 X69.3870 Y51.4146 
G01 X69.4054 Y51.4330 
G01 X69.4154 Y51.4570 
G01 X69.4154 Y52.2901 
G01 X70.7124 Y53.5870 
G01 X70.7473 Y53.6476 
G01 X70.7654 Y53.7151 
G01 X70.7654 Y58.2849 
G01 X70.7473 Y58.3524 
G01 X70.7124 Y58.4130 
G01 X70.6630 Y58.4624 
G01 X70.6024 Y58.4973 
G01 X70.5349 Y58.5154 
G01 X69.1454 Y58.5154 
G01 X69.1454 Y58.9630 
G01 X69.1354 Y58.9870 
G01 X69.1170 Y59.0054 
G01 X69.0930 Y59.0154 
G01 X68.0670 Y59.0154 
G01 X68.0430 Y59.0054 
G01 X68.0246 Y58.9870 
G01 X68.0146 Y58.9630 
G01 X68.0146 Y57.5370 
G01 X68.0246 Y57.5130 
G01 X68.0430 Y57.4946 
G01 X68.0670 Y57.4846 
G01 X69.0930 Y57.4846 
G01 X69.1170 Y57.4946 
G01 X69.1354 Y57.5130 
G01 X69.1454 Y57.5370 
G00 Z2.5400 
G00 X70.0954 Y55.3370 
G01 Z-0.1500 F254.00 
G01 X70.0954 Y56.7630 F508.00 
G01 X70.0854 Y56.7870 
G01 X70.0670 Y56.8054 
G01 X70.0430 Y56.8154 
G01 X69.0170 Y56.8154 
G01 X68.9930 Y56.8054 
G01 X68.9746 Y56.7870 
G01 X68.9646 Y56.7630 
G01 X68.9646 Y55.8399 
G01 X67.1722 Y54.0475 
G01 X67.0755 Y54.0734 
G01 X66.9245 Y54.0734 
G01 X66.7787 Y54.0343 
G01 X66.6479 Y53.9588 
G01 X66.5412 Y53.8521 
G01 X66.4657 Y53.7213 
G01 X66.4266 Y53.5755 
G01 X66.4266 Y53.4245 
G01 X66.4657 Y53.2787 
G01 X66.5412 Y53.1479 
G01 X66.6479 Y53.0412 
G01 X66.7787 Y52.9657 
G01 X66.9245 Y52.9266 
G01 X67.0755 Y52.9266 
G01 X67.2213 Y52.9657 
G01 X67.3521 Y53.0412 
G01 X67.4588 Y53.1479 
G01 X67.5343 Y53.2787 
G01 X67.5734 Y53.4245 
G01 X67.5734 Y53.5755 
G01 X67.5475 Y53.6722 
G01 X69.1599 Y55.2846 
G01 X70.0430 Y55.2846 
G01 X70.0670 Y55.2946 
G01 X70.0854 Y55.3130 
G01 X70.0954 Y55.3370 
G00 Z2.5400 
G00 X44.5916 Y59.6135 
G01 Z-0.1500 F254.00 
G01 X44.5916 Y59.7665 F508.00 
G01 X44.5618 Y59.9165 
G01 X44.5032 Y60.0579 
G01 X44.4182 Y60.1851 
G01 X44.3101 Y60.2932 
G01 X44.1829 Y60.3782 
G01 X44.0415 Y60.4368 
G01 X43.8915 Y60.4666 
G01 X43.7385 Y60.4666 
G01 X43.5885 Y60.4368 
G01 X43.4825 Y60.3928 
G01 X42.7124 Y61.1630 
G01 X42.6630 Y61.2124 
G01 X42.6024 Y61.2473 
G01 X42.5349 Y61.2654 
G01 X29.9651 Y61.2654 
G01 X29.8976 Y61.2473 
G01 X29.8370 Y61.2124 
G01 X29.7876 Y61.1630 
G01 X29.7527 Y61.1024 
G01 X29.7346 Y61.0349 
G01 X29.7346 Y60.4599 
G01 X29.6185 Y60.4368 
G01 X29.4771 Y60.3782 
G01 X29.3499 Y60.2932 
G01 X29.2418 Y60.1851 
G01 X29.1568 Y60.0579 
G01 X29.0982 Y59.9165 
G01 X29.0684 Y59.7665 
G01 X29.0684 Y59.6135 
G01 X29.0982 Y59.4635 
G01 X29.1568 Y59.3221 
G01 X29.2418 Y59.1949 
G01 X29.3499 Y59.0868 
G01 X29.4771 Y59.0018 
G01 X29.6185 Y58.9432 
G01 X29.7346 Y58.9201 
G01 X29.7346 Y55.9651 
G01 X29.7527 Y55.8976 
G01 X29.7876 Y55.8370 
G01 X29.8370 Y55.7876 
G01 X33.4546 Y52.1701 
G01 X33.4546 Y51.4570 
G01 X33.4646 Y51.4330 
G01 X33.4830 Y51.4146 
G01 X33.5070 Y51.4046 
G01 X33.7346 Y51.4046 
G01 X33.7346 Y48.9254 
G01 X33.5070 Y48.9254 
G01 X33.4830 Y48.9154 
G01 X33.4646 Y48.8970 
G01 X33.4546 Y48.8730 
G01 X33.4546 Y47.6470 
G01 X33.4646 Y47.6230 
G01 X33.4830 Y47.6046 
G01 X33.5070 Y47.5946 
G01 X34.3330 Y47.5946 
G01 X34.3570 Y47.6046 
G01 X34.3754 Y47.6230 
G01 X34.3854 Y47.6470 
G01 X34.3854 Y48.8730 
G01 X34.3754 Y48.8970 
G01 X34.3570 Y48.9154 
G01 X34.3330 Y48.9254 
G01 X34.2654 Y48.9254 
G01 X34.2654 Y51.4046 
G01 X34.3330 Y51.4046 
G01 X34.3570 Y51.4146 
G01 X34.3754 Y51.4330 
G01 X34.3854 Y51.4570 
G01 X34.3854 Y52.6830 
G01 X34.3754 Y52.7070 
G01 X34.3570 Y52.7254 
G01 X34.3330 Y52.7354 
G01 X33.6399 Y52.7354 
G01 X30.2654 Y56.1099 
G01 X30.2654 Y59.0369 
G01 X30.3401 Y59.0868 
G01 X30.4482 Y59.1949 
G01 X30.5332 Y59.3221 
G01 X30.5918 Y59.4635 
G01 X30.6216 Y59.6135 
G01 X30.6216 Y59.7665 
G01 X30.5918 Y59.9165 
G01 X30.5332 Y60.0579 
G01 X30.4482 Y60.1851 
G01 X30.3401 Y60.2932 
G01 X30.2654 Y60.3431 
G01 X30.2654 Y60.7346 
G01 X42.3901 Y60.7346 
G01 X43.1092 Y60.0155 
G01 X43.0682 Y59.9165 
G01 X43.0384 Y59.7665 
G01 X43.0384 Y59.6135 
G01 X43.0682 Y59.4635 
G01 X43.1268 Y59.3221 
G01 X43.2118 Y59.1949 
G01 X43.3199 Y59.0868 
G01 X43.4471 Y59.0018 
G01 X43.5885 Y58.9432 
G01 X43.7385 Y58.9134 
G01 X43.8915 Y58.9134 
G01 X44.0415 Y58.9432 
G01 X44.1829 Y59.0018 
G01 X44.3101 Y59.0868 
G01 X44.4182 Y59.1949 
G01 X44.5032 Y59.3221 
G01 X44.5618 Y59.4635 
G01 X44.5916 Y59.6135 
G00 Z2.5400 
G00 X43.3216 Y57.0735 
G01 Z-0.1500 F254.00 
G01 X43.3216 Y57.2265 F508.00 
G01 X43.2918 Y57.3765 
G01 X43.2332 Y57.5179 
G01 X43.1482 Y57.6451 
G01 X43.0401 Y57.7532 
G01 X42.9129 Y57.8382 
G01 X42.7715 Y57.8968 
G01 X42.6215 Y57.9266 
G01 X42.4685 Y57.9266 
G01 X42.3185 Y57.8968 
G01 X42.1771 Y57.8382 
G01 X42.0499 Y57.7532 
G01 X41.9418 Y57.6451 
G01 X41.8568 Y57.5179 
G01 X41.7982 Y57.3765 
G01 X41.7684 Y57.2265 
G01 X41.7684 Y57.0735 
G01 X41.7982 Y56.9235 
G01 X41.8568 Y56.7821 
G01 X41.9418 Y56.6549 
G01 X42.0499 Y56.5468 
G01 X42.1771 Y56.4618 
G01 X42.3185 Y56.4032 
G01 X42.4685 Y56.3734 
G01 X42.6215 Y56.3734 
G01 X42.7715 Y56.4032 
G01 X42.9129 Y56.4618 
G01 X43.0401 Y56.5468 
G01 X43.1482 Y56.6549 
G01 X43.2332 Y56.7821 
G01 X43.2918 Y56.9235 
G01 X43.3216 Y57.0735 
G00 Z2.5400 
G00 X40.7816 Y57.0735 
G01 Z-0.1500 F254.00 
G01 X40.7816 Y57.2265 F508.00 
G01 X40.7518 Y57.3765 
G01 X40.6932 Y57.5179 
G01 X40.6082 Y57.6451 
G01 X40.5001 Y57.7532 
G01 X40.3729 Y57.8382 
G01 X40.2315 Y57.8968 
G01 X40.0815 Y57.9266 
G01 X39.9285 Y57.9266 
G01 X39.7785 Y57.8968 
G01 X39.6371 Y57.8382 
G01 X39.5099 Y57.7532 
G01 X39.4018 Y57.6451 
G01 X39.3168 Y57.5179 
G01 X39.2582 Y57.3765 
G01 X39.2284 Y57.2265 
G01 X39.2284 Y57.0735 
G01 X39.2582 Y56.9235 
G01 X39.3168 Y56.7821 
G01 X39.4018 Y56.6549 
G01 X39.5099 Y56.5468 
G01 X39.6371 Y56.4618 
G01 X39.7785 Y56.4032 
G01 X39.9285 Y56.3734 
G01 X40.0815 Y56.3734 
G01 X40.2315 Y56.4032 
G01 X40.3729 Y56.4618 
G01 X40.5001 Y56.5468 
G01 X40.6082 Y56.6549 
G01 X40.6932 Y56.7821 
G01 X40.7518 Y56.9235 
G01 X40.7816 Y57.0735 
G00 Z2.5400 
G00 X65.6355 Y51.7115 
G01 Z-0.1500 F254.00 
G01 X65.6355 Y52.4285 F508.00 
G01 X65.1285 Y52.9355 
G01 X65.0154 Y52.9355 
G01 X65.0154 Y53.7849 
G01 X64.9973 Y53.8524 
G01 X64.9624 Y53.9130 
G01 X64.9130 Y53.9624 
G01 X63.3374 Y55.5380 
G01 X63.2880 Y55.5874 
G01 X62.8954 Y55.9799 
G01 X62.8954 Y56.6630 
G01 X62.8854 Y56.6870 
G01 X62.8670 Y56.7054 
G01 X62.8430 Y56.7154 
G01 X61.6170 Y56.7154 
G01 X61.5930 Y56.7054 
G01 X61.5746 Y56.6870 
G01 X61.5646 Y56.6630 
G01 X61.5646 Y55.8370 
G01 X61.5746 Y55.8130 
G01 X61.5930 Y55.7946 
G01 X61.6170 Y55.7846 
G01 X62.3401 Y55.7846 
G01 X62.7598 Y55.3648 
G01 X62.7527 Y55.3524 
G01 X62.7346 Y55.2849 
G01 X62.7346 Y37.8599 
G01 X58.9974 Y34.1227 
G01 X58.9838 Y34.1431 
G01 X58.8827 Y34.2442 
G01 X58.7638 Y34.3236 
G01 X58.6317 Y34.3783 
G01 X58.4915 Y34.4062 
G01 X58.3485 Y34.4062 
G01 X58.2083 Y34.3783 
G01 X58.0762 Y34.3236 
G01 X57.9573 Y34.2442 
G01 X57.8562 Y34.1431 
G01 X57.7768 Y34.0242 
G01 X57.7221 Y33.8921 
G01 X57.6942 Y33.7519 
G01 X57.6942 Y32.2881 
G01 X57.7221 Y32.1479 
G01 X57.7768 Y32.0158 
G01 X57.8562 Y31.8969 
G01 X57.9573 Y31.7958 
G01 X58.0762 Y31.7164 
G01 X58.2083 Y31.6617 
G01 X58.3485 Y31.6338 
G01 X58.4915 Y31.6338 
G01 X58.6317 Y31.6617 
G01 X58.7638 Y31.7164 
G01 X58.8827 Y31.7958 
G01 X58.9838 Y31.8969 
G01 X59.0632 Y32.0158 
G01 X59.1179 Y32.1479 
G01 X59.1458 Y32.2881 
G01 X59.1458 Y33.5205 
G01 X63.1630 Y37.5376 
G01 X63.2124 Y37.5870 
G01 X63.2473 Y37.6476 
G01 X63.2654 Y37.7151 
G01 X63.2654 Y54.8593 
G01 X64.4846 Y53.6401 
G01 X64.4846 Y52.9355 
G01 X64.4115 Y52.9355 
G01 X63.9045 Y52.4285 
G01 X63.9045 Y51.7115 
G01 X64.4115 Y51.2045 
G01 X65.1285 Y51.2045 
G01 X65.6355 Y51.7115 
G00 Z2.5400 
G00 X58.0155 Y49.1715 
G01 Z-0.1500 F254.00 
G01 X58.0155 Y49.8885 F508.00 
G01 X57.5085 Y50.3955 
G01 X56.7915 Y50.3955 
G01 X56.2845 Y49.8885 
G01 X56.2845 Y49.1715 
G01 X56.7915 Y48.6645 
G01 X57.5085 Y48.6645 
G01 X58.0155 Y49.1715 
G00 Z2.5400 
G00 X58.0155 Y46.6315 
G01 Z-0.1500 F254.00 
G01 X58.0155 Y47.3485 F508.00 
G01 X57.5085 Y47.8555 
G01 X56.7915 Y47.8555 
G01 X56.2845 Y47.3485 
G01 X56.2845 Y46.6315 
G01 X56.7915 Y46.1245 
G01 X57.5085 Y46.1245 
G01 X58.0155 Y46.6315 
G00 Z2.5400 
G00 X58.0155 Y44.0915 
G01 Z-0.1500 F254.00 
G01 X58.0155 Y44.8085 F508.00 
G01 X57.5085 Y45.3155 
G01 X56.7915 Y45.3155 
G01 X56.2845 Y44.8085 
G01 X56.2845 Y44.0915 
G01 X56.7915 Y43.5845 
G01 X57.5085 Y43.5845 
G01 X58.0155 Y44.0915 
G00 Z2.5400 
G00 X69.4154 Y47.6470 
G01 Z-0.1500 F254.00 
G01 X69.4154 Y48.8730 F508.00 
G01 X69.4054 Y48.8970 
G01 X69.3870 Y48.9154 
G01 X69.3630 Y48.9254 
G01 X68.5370 Y48.9254 
G01 X68.5130 Y48.9154 
G01 X68.4946 Y48.8970 
G01 X68.4846 Y48.8730 
G01 X68.4846 Y48.3599 
G01 X65.2843 Y45.1597 
G01 X65.1285 Y45.3155 
G01 X64.4115 Y45.3155 
G01 X63.9045 Y44.8085 
G01 X63.9045 Y44.0915 
G01 X64.0603 Y43.9357 
G01 X63.5376 Y43.4130 
G01 X63.5027 Y43.3524 
G01 X63.4846 Y43.2849 
G01 X63.4846 Y36.1099 
G01 X61.5207 Y34.1461 
G01 X61.4227 Y34.2442 
G01 X61.3038 Y34.3236 
G01 X61.1717 Y34.3783 
G01 X61.0315 Y34.4062 
G01 X60.8885 Y34.4062 
G01 X60.7483 Y34.3783 
G01 X60.6162 Y34.3236 
G01 X60.4973 Y34.2442 
G01 X60.3962 Y34.1431 
G01 X60.3168 Y34.0242 
G01 X60.2621 Y33.8921 
G01 X60.2342 Y33.7519 
G01 X60.2342 Y32.2881 
G01 X60.2621 Y32.1479 
G01 X60.3168 Y32.0158 
G01 X60.3962 Y31.8969 
G01 X60.4973 Y31.7958 
G01 X60.6162 Y31.7164 
G01 X60.7483 Y31.6617 
G01 X60.8885 Y31.6338 
G01 X61.0315 Y31.6338 
G01 X61.1717 Y31.6617 
G01 X61.3038 Y31.7164 
G01 X61.4227 Y31.7958 
G01 X61.5238 Y31.8969 
G01 X61.6032 Y32.0158 
G01 X61.6579 Y32.1479 
G01 X61.6858 Y32.2881 
G01 X61.6858 Y33.5605 
G01 X63.9130 Y35.7876 
G01 X63.9624 Y35.8370 
G01 X63.9973 Y35.8976 
G01 X64.0154 Y35.9651 
G01 X64.0154 Y43.1401 
G01 X64.4598 Y43.5845 
G01 X65.1285 Y43.5845 
G01 X65.6355 Y44.0915 
G01 X65.6355 Y44.7602 
G01 X68.4964 Y47.6211 
G01 X68.5130 Y47.6046 
G01 X68.5370 Y47.5946 
G01 X69.3630 Y47.5946 
G01 X69.3870 Y47.6046 
G01 X69.4054 Y47.6230 
G01 X69.4154 Y47.6470 
G00 Z2.5400 
G00 X31.6546 Y48.8730 
G01 Z-0.1500 F254.00 
G01 X31.6546 Y47.6470 F508.00 
G01 X31.6646 Y47.6230 
G01 X31.6830 Y47.6046 
G01 X31.7070 Y47.5946 
G01 X32.5301 Y47.5946 
G01 X35.4525 Y44.6722 
G01 X35.4266 Y44.5755 
G01 X35.4266 Y44.4245 
G01 X35.4657 Y44.2787 
G01 X35.5412 Y44.1479 
G01 X35.6479 Y44.0412 
G01 X35.7787 Y43.9657 
G01 X35.9245 Y43.9266 
G01 X36.0755 Y43.9266 
G01 X36.2213 Y43.9657 
G01 X36.3521 Y44.0412 
G01 X36.4588 Y44.1479 
G01 X36.5343 Y44.2787 
G01 X36.5734 Y44.4245 
G01 X36.5734 Y44.5755 
G01 X36.5343 Y44.7213 
G01 X36.4588 Y44.8521 
G01 X36.3521 Y44.9588 
G01 X36.2213 Y45.0343 
G01 X36.0755 Y45.0734 
G01 X35.9245 Y45.0734 
G01 X35.8278 Y45.0475 
G01 X32.5854 Y48.2899 
G01 X32.5854 Y48.8730 
G01 X32.5754 Y48.8970 
G01 X32.5570 Y48.9154 
G01 X32.5330 Y48.9254 
G01 X31.7070 Y48.9254 
G01 X31.6830 Y48.9154 
G01 X31.6646 Y48.8970 
G01 X31.6546 Y48.8730 
G00 Z2.5400 
G00 X61.6170 Y57.5846 
G01 Z-0.1500 F254.00 
G01 X62.2901 Y57.5846 F508.00 
G01 X63.2346 Y56.6401 
G01 X63.2346 Y56.2151 
G01 X63.2527 Y56.1476 
G01 X63.2876 Y56.0870 
G01 X63.3370 Y56.0376 
G01 X63.3976 Y56.0027 
G01 X63.4651 Y55.9846 
G01 X67.0646 Y55.9846 
G01 X67.0646 Y55.3370 
G01 X67.0746 Y55.3130 
G01 X67.0930 Y55.2946 
G01 X67.1170 Y55.2846 
G01 X68.1430 Y55.2846 
G01 X68.1670 Y55.2946 
G01 X68.1854 Y55.3130 
G01 X68.1954 Y55.3370 
G01 X68.1954 Y56.7630 
G01 X68.1854 Y56.7870 
G01 X68.1670 Y56.8054 
G01 X68.1430 Y56.8154 
G01 X67.1170 Y56.8154 
G01 X67.0930 Y56.8054 
G01 X67.0746 Y56.7870 
G01 X67.0646 Y56.7630 
G01 X67.0646 Y56.5154 
G01 X63.7654 Y56.5154 
G01 X63.7654 Y56.7849 
G01 X63.7473 Y56.8524 
G01 X63.7124 Y56.9130 
G01 X62.8954 Y57.7299 
G01 X62.8954 Y58.4630 
G01 X62.8854 Y58.4870 
G01 X62.8670 Y58.5054 
G01 X62.8430 Y58.5154 
G01 X61.6170 Y58.5154 
G01 X61.5930 Y58.5054 
G01 X61.5746 Y58.4870 
G01 X61.5646 Y58.4630 
G01 X61.5646 Y58.2654 
G01 X57.8154 Y58.2654 
G01 X57.8154 Y58.4630 
G01 X57.8054 Y58.4870 
G01 X57.7870 Y58.5054 
G01 X57.7630 Y58.5154 
G01 X56.5370 Y58.5154 
G01 X56.5130 Y58.5054 
G01 X56.4946 Y58.4870 
G01 X56.4846 Y58.4630 
G01 X56.4846 Y57.6370 
G01 X56.4946 Y57.6130 
G01 X56.5130 Y57.5946 
G01 X56.5370 Y57.5846 
G01 X57.7630 Y57.5846 
G01 X57.7870 Y57.5946 
G01 X57.8054 Y57.6130 
G01 X57.8154 Y57.6370 
G01 X57.8154 Y57.7346 
G01 X61.5646 Y57.7346 
G01 X61.5646 Y57.6370 
G01 X61.5746 Y57.6130 
G01 X61.5930 Y57.5946 
G01 X61.6170 Y57.5846 
G00 Z2.5400 
G00 X57.5926 Y5.9235 
G01 Z-0.1500 F254.00 
G01 X57.5926 Y4.2365 F508.00 
G01 X57.6244 Y4.0767 
G01 X57.6868 Y3.9261 
G01 X57.7773 Y3.7906 
G01 X57.8926 Y3.6753 
G01 X58.0281 Y3.5848 
G01 X58.1787 Y3.5224 
G01 X58.3385 Y3.4906 
G01 X58.5015 Y3.4906 
G01 X58.6613 Y3.5224 
G01 X58.8119 Y3.5848 
G01 X58.9474 Y3.6753 
G01 X59.0627 Y3.7906 
G01 X59.1532 Y3.9261 
G01 X59.2156 Y4.0767 
G01 X59.2474 Y4.2365 
G01 X59.2474 Y5.9235 
G01 X59.2156 Y6.0833 
G01 X59.1532 Y6.2339 
G01 X59.0627 Y6.3694 
G01 X58.9474 Y6.4847 
G01 X58.8119 Y6.5752 
G01 X58.7654 Y6.5945 
G01 X58.7654 Y24.0975 
G01 X58.8827 Y24.1758 
G01 X58.9838 Y24.2769 
G01 X59.0632 Y24.3958 
G01 X59.1179 Y24.5279 
G01 X59.1458 Y24.6681 
G01 X59.1458 Y26.1319 
G01 X59.1179 Y26.2721 
G01 X59.0632 Y26.4042 
G01 X58.9838 Y26.5231 
G01 X58.8827 Y26.6242 
G01 X58.7638 Y26.7036 
G01 X58.6317 Y26.7583 
G01 X58.4915 Y26.7862 
G01 X58.3485 Y26.7862 
G01 X58.2083 Y26.7583 
G01 X58.0762 Y26.7036 
G01 X57.9573 Y26.6242 
G01 X57.8562 Y26.5231 
G01 X57.7768 Y26.4042 
G01 X57.7221 Y26.2721 
G01 X57.6942 Y26.1319 
G01 X57.6942 Y24.6681 
G01 X57.7221 Y24.5279 
G01 X57.7768 Y24.3958 
G01 X57.8562 Y24.2769 
G01 X57.9573 Y24.1758 
G01 X58.0762 Y24.0964 
G01 X58.2083 Y24.0417 
G01 X58.2346 Y24.0365 
G01 X58.2346 Y6.6487 
G01 X58.1787 Y6.6376 
G01 X58.0281 Y6.5752 
G01 X57.8926 Y6.4847 
G01 X57.7773 Y6.3694 
G01 X57.6868 Y6.2339 
G01 X57.6244 Y6.0833 
G01 X57.5926 Y5.9235 
G00 Z2.5400 
G00 X62.6726 Y5.9235 
G01 Z-0.1500 F254.00 
G01 X62.6726 Y4.2365 F508.00 
G01 X62.7044 Y4.0767 
G01 X62.7668 Y3.9261 
G01 X62.8573 Y3.7906 
G01 X62.9726 Y3.6753 
G01 X63.1081 Y3.5848 
G01 X63.2587 Y3.5224 
G01 X63.4185 Y3.4906 
G01 X63.5815 Y3.4906 
G01 X63.7413 Y3.5224 
G01 X63.8919 Y3.5848 
G01 X64.0274 Y3.6753 
G01 X64.1427 Y3.7906 
G01 X64.2332 Y3.9261 
G01 X64.2956 Y4.0767 
G01 X64.3274 Y4.2365 
G01 X64.3274 Y5.9235 
G01 X64.2956 Y6.0833 
G01 X64.2332 Y6.2339 
G01 X64.1427 Y6.3694 
G01 X64.0274 Y6.4847 
G01 X63.8919 Y6.5752 
G01 X63.7654 Y6.6276 
G01 X63.7654 Y24.0639 
G01 X63.8438 Y24.0964 
G01 X63.9627 Y24.1758 
G01 X64.0638 Y24.2769 
G01 X64.1432 Y24.3958 
G01 X64.1979 Y24.5279 
G01 X64.2258 Y24.6681 
G01 X64.2258 Y26.1319 
G01 X64.1979 Y26.2721 
G01 X64.1432 Y26.4042 
G01 X64.0638 Y26.5231 
G01 X63.9627 Y26.6242 
G01 X63.8438 Y26.7036 
G01 X63.7117 Y26.7583 
G01 X63.5715 Y26.7862 
G01 X63.4285 Y26.7862 
G01 X63.2883 Y26.7583 
G01 X63.1562 Y26.7036 
G01 X63.0373 Y26.6242 
G01 X62.9362 Y26.5231 
G01 X62.8568 Y26.4042 
G01 X62.8021 Y26.2721 
G01 X62.7742 Y26.1319 
G01 X62.7742 Y24.6681 
G01 X62.8021 Y24.5279 
G01 X62.8568 Y24.3958 
G01 X62.9362 Y24.2769 
G01 X63.0373 Y24.1758 
G01 X63.1562 Y24.0964 
G01 X63.2346 Y24.0639 
G01 X63.2346 Y6.6276 
G01 X63.1081 Y6.5752 
G01 X62.9726 Y6.4847 
G01 X62.8573 Y6.3694 
G01 X62.7668 Y6.2339 
G01 X62.7044 Y6.0833 
G01 X62.6726 Y5.9235 
G00 Z2.5400 
G00 X56.6058 Y32.2881 
G01 Z-0.1500 F254.00 
G01 X56.6058 Y33.7519 F508.00 
G01 X56.5779 Y33.8921 
G01 X56.5232 Y34.0242 
G01 X56.4438 Y34.1431 
G01 X56.3427 Y34.2442 
G01 X56.2238 Y34.3236 
G01 X56.0917 Y34.3783 
G01 X55.9515 Y34.4062 
G01 X55.8085 Y34.4062 
G01 X55.6683 Y34.3783 
G01 X55.5362 Y34.3236 
G01 X55.4173 Y34.2442 
G01 X55.3162 Y34.1431 
G01 X55.2368 Y34.0242 
G01 X55.1821 Y33.8921 
G01 X55.1542 Y33.7519 
G01 X55.1542 Y32.2881 
G01 X55.1821 Y32.1479 
G01 X55.2368 Y32.0158 
G01 X55.3162 Y31.8969 
G01 X55.4173 Y31.7958 
G01 X55.5362 Y31.7164 
G01 X55.6683 Y31.6617 
G01 X55.8085 Y31.6338 
G01 X55.9515 Y31.6338 
G01 X56.0917 Y31.6617 
G01 X56.2238 Y31.7164 
G01 X56.3427 Y31.7958 
G01 X56.4438 Y31.8969 
G01 X56.5232 Y32.0158 
G01 X56.5779 Y32.1479 
G01 X56.6058 Y32.2881 
G00 Z2.5400 
G00 X54.0658 Y32.2881 
G01 Z-0.1500 F254.00 
G01 X54.0658 Y33.4405 F508.00 
G01 X56.4130 Y35.7876 
G01 X56.4624 Y35.8370 
G01 X56.4973 Y35.8976 
G01 X56.5154 Y35.9651 
G01 X56.5154 Y36.4911 
G01 X56.6021 Y36.5412 
G01 X56.7088 Y36.6479 
G01 X56.7843 Y36.7787 
G01 X56.8234 Y36.9245 
G01 X56.8234 Y37.0755 
G01 X56.7843 Y37.2213 
G01 X56.7088 Y37.3521 
G01 X56.6021 Y37.4588 
G01 X56.4713 Y37.5343 
G01 X56.3255 Y37.5734 
G01 X56.1745 Y37.5734 
G01 X56.0287 Y37.5343 
G01 X55.8979 Y37.4588 
G01 X55.7912 Y37.3521 
G01 X55.7157 Y37.2213 
G01 X55.6766 Y37.0755 
G01 X55.6766 Y36.9245 
G01 X55.7157 Y36.7787 
G01 X55.7912 Y36.6479 
G01 X55.8979 Y36.5412 
G01 X55.9846 Y36.4911 
G01 X55.9846 Y36.1099 
G01 X53.9494 Y34.0747 
G01 X53.9038 Y34.1431 
G01 X53.8027 Y34.2442 
G01 X53.6838 Y34.3236 
G01 X53.5517 Y34.3783 
G01 X53.4115 Y34.4062 
G01 X53.2685 Y34.4062 
G01 X53.1283 Y34.3783 
G01 X52.9962 Y34.3236 
G01 X52.8773 Y34.2442 
G01 X52.7762 Y34.1431 
G01 X52.6968 Y34.0242 
G01 X52.6421 Y33.8921 
G01 X52.6142 Y33.7519 
G01 X52.6142 Y32.2881 
G01 X52.6421 Y32.1479 
G01 X52.6968 Y32.0158 
G01 X52.7762 Y31.8969 
G01 X52.8773 Y31.7958 
G01 X52.9962 Y31.7164 
G01 X53.1283 Y31.6617 
G01 X53.2685 Y31.6338 
G01 X53.4115 Y31.6338 
G01 X53.5517 Y31.6617 
G01 X53.6838 Y31.7164 
G01 X53.8027 Y31.7958 
G01 X53.9038 Y31.8969 
G01 X53.9832 Y32.0158 
G01 X54.0379 Y32.1479 
G01 X54.0658 Y32.2881 
G00 Z2.5400 
G00 X51.5258 Y32.2881 
G01 Z-0.1500 F254.00 
G01 X51.5258 Y33.7519 F508.00 
G01 X51.4979 Y33.8921 
G01 X51.4432 Y34.0242 
G01 X51.3638 Y34.1431 
G01 X51.2627 Y34.2442 
G01 X51.1438 Y34.3236 
G01 X51.0117 Y34.3783 
G01 X50.8715 Y34.4062 
G01 X50.7285 Y34.4062 
G01 X50.5883 Y34.3783 
G01 X50.4562 Y34.3236 
G01 X50.3373 Y34.2442 
G01 X50.2362 Y34.1431 
G01 X50.1568 Y34.0242 
G01 X50.1021 Y33.8921 
G01 X50.0742 Y33.7519 
G01 X50.0742 Y32.2881 
G01 X50.1021 Y32.1479 
G01 X50.1568 Y32.0158 
G01 X50.2362 Y31.8969 
G01 X50.3373 Y31.7958 
G01 X50.4562 Y31.7164 
G01 X50.5883 Y31.6617 
G01 X50.7285 Y31.6338 
G01 X50.8715 Y31.6338 
G01 X51.0117 Y31.6617 
G01 X51.1438 Y31.7164 
G01 X51.2627 Y31.7958 
G01 X51.3638 Y31.8969 
G01 X51.4432 Y32.0158 
G01 X51.4979 Y32.1479 
G01 X51.5258 Y32.2881 
G00 Z2.5400 
G00 X46.4458 Y32.2881 
G01 Z-0.1500 F254.00 
G01 X46.4458 Y33.7519 F508.00 
G01 X46.4179 Y33.8921 
G01 X46.3632 Y34.0242 
G01 X46.2838 Y34.1431 
G01 X46.1827 Y34.2442 
G01 X46.0638 Y34.3236 
G01 X46.0154 Y34.3436 
G01 X46.0154 Y50.2346 
G01 X47.5946 Y50.2346 
G01 X47.5946 Y50.0170 
G01 X47.6046 Y49.9930 
G01 X47.6230 Y49.9746 
G01 X47.6470 Y49.9646 
G01 X48.8730 Y49.9646 
G01 X48.8970 Y49.9746 
G01 X48.9154 Y49.9930 
G01 X48.9254 Y50.0170 
G01 X48.9254 Y50.5501 
G01 X55.7346 Y57.3593 
G01 X55.7346 Y57.2151 
G01 X55.7527 Y57.1476 
G01 X55.7876 Y57.0870 
G01 X56.4846 Y56.3901 
G01 X56.4846 Y55.8370 
G01 X56.4946 Y55.8130 
G01 X56.5130 Y55.7946 
G01 X56.5370 Y55.7846 
G01 X56.9846 Y55.7846 
G01 X56.9846 Y52.9355 
G01 X56.7915 Y52.9355 
G01 X56.2845 Y52.4285 
G01 X56.2845 Y51.7115 
G01 X56.7915 Y51.2045 
G01 X57.5085 Y51.2045 
G01 X58.0155 Y51.7115 
G01 X58.0155 Y52.4285 
G01 X57.5154 Y52.9286 
G01 X57.5154 Y55.7846 
G01 X57.7630 Y55.7846 
G01 X57.7870 Y55.7946 
G01 X57.8054 Y55.8130 
G01 X57.8154 Y55.8370 
G01 X57.8154 Y56.6630 
G01 X57.8054 Y56.6870 
G01 X57.7870 Y56.7054 
G01 X57.7630 Y56.7154 
G01 X56.9099 Y56.7154 
G01 X56.2654 Y57.3599 
G01 X56.2654 Y62.2849 
G01 X56.2473 Y62.3524 
G01 X56.2124 Y62.4130 
G01 X56.1630 Y62.4624 
G01 X55.7144 Y62.9109 
G01 X55.7144 Y64.1372 
G01 X55.6839 Y64.2907 
G01 X55.6240 Y64.4353 
G01 X55.5370 Y64.5654 
G01 X55.4264 Y64.6760 
G01 X55.2963 Y64.7630 
G01 X55.1517 Y64.8229 
G01 X54.9982 Y64.8534 
G01 X54.8418 Y64.8534 
G01 X54.6883 Y64.8229 
G01 X54.5437 Y64.7630 
G01 X54.4136 Y64.6760 
G01 X54.3030 Y64.5654 
G01 X54.2160 Y64.4353 
G01 X54.1561 Y64.2907 
G01 X54.1256 Y64.1372 
G01 X54.1256 Y62.5228 
G01 X54.1561 Y62.3693 
G01 X54.2160 Y62.2247 
G01 X54.3030 Y62.0946 
G01 X54.4136 Y61.9840 
G01 X54.5437 Y61.8970 
G01 X54.6883 Y61.8371 
G01 X54.8418 Y61.8066 
G01 X54.9982 Y61.8066 
G01 X55.1517 Y61.8371 
G01 X55.2963 Y61.8970 
G01 X55.4264 Y61.9840 
G01 X55.5370 Y62.0946 
G01 X55.6240 Y62.2247 
G01 X55.6316 Y62.2431 
G01 X55.7346 Y62.1401 
G01 X55.7346 Y58.1099 
G01 X48.5201 Y50.8954 
G01 X47.6470 Y50.8954 
G01 X47.6230 Y50.8854 
G01 X47.6046 Y50.8670 
G01 X47.5946 Y50.8430 
G01 X47.5946 Y50.7654 
G01 X45.1154 Y50.7654 
G01 X45.1154 Y50.8430 
G01 X45.1054 Y50.8670 
G01 X45.0870 Y50.8854 
G01 X45.0630 Y50.8954 
G01 X43.8370 Y50.8954 
G01 X43.8130 Y50.8854 
G01 X43.7946 Y50.8670 
G01 X43.7846 Y50.8430 
G01 X43.7846 Y50.7654 
G01 X41.5154 Y50.7654 
G01 X41.5154 Y58.9490 
G01 X41.6429 Y59.0018 
G01 X41.7701 Y59.0868 
G01 X41.8782 Y59.1949 
G01 X41.9632 Y59.3221 
G01 X42.0218 Y59.4635 
G01 X42.0516 Y59.6135 
G01 X42.0516 Y59.7665 
G01 X42.0218 Y59.9165 
G01 X41.9632 Y60.0579 
G01 X41.8782 Y60.1851 
G01 X41.7701 Y60.2932 
G01 X41.6429 Y60.3782 
G01 X41.5015 Y60.4368 
G01 X41.3515 Y60.4666 
G01 X41.1985 Y60.4666 
G01 X41.0485 Y60.4368 
G01 X40.9071 Y60.3782 
G01 X40.7799 Y60.2932 
G01 X40.6718 Y60.1851 
G01 X40.5868 Y60.0579 
G01 X40.5282 Y59.9165 
G01 X40.4984 Y59.7665 
G01 X40.4984 Y59.6135 
G01 X40.5282 Y59.4635 
G01 X40.5868 Y59.3221 
G01 X40.6718 Y59.1949 
G01 X40.7799 Y59.0868 
G01 X40.9071 Y59.0018 
G01 X40.9846 Y58.9697 
G01 X40.9846 Y50.8954 
G01 X40.0270 Y50.8954 
G01 X40.0030 Y50.8854 
G01 X39.9846 Y50.8670 
G01 X39.9746 Y50.8430 
G01 X39.9746 Y50.0170 
G01 X39.9846 Y49.9930 
G01 X40.0030 Y49.9746 
G01 X40.0270 Y49.9646 
G01 X41.2530 Y49.9646 
G01 X41.2770 Y49.9746 
G01 X41.2954 Y49.9930 
G01 X41.3054 Y50.0170 
G01 X41.3054 Y50.2346 
G01 X43.7846 Y50.2346 
G01 X43.7846 Y50.0170 
G01 X43.7946 Y49.9930 
G01 X43.8130 Y49.9746 
G01 X43.8370 Y49.9646 
G01 X45.0630 Y49.9646 
G01 X45.0870 Y49.9746 
G01 X45.1054 Y49.9930 
G01 X45.1154 Y50.0170 
G01 X45.1154 Y50.2346 
G01 X45.4846 Y50.2346 
G01 X45.4846 Y34.3685 
G01 X45.3762 Y34.3236 
G01 X45.2573 Y34.2442 
G01 X45.1562 Y34.1431 
G01 X45.0768 Y34.0242 
G01 X45.0221 Y33.8921 
G01 X44.9942 Y33.7519 
G01 X44.9942 Y32.2881 
G01 X45.0221 Y32.1479 
G01 X45.0768 Y32.0158 
G01 X45.1562 Y31.8969 
G01 X45.2573 Y31.7958 
G01 X45.3762 Y31.7164 
G01 X45.4846 Y31.6715 
G01 X45.4846 Y30.3599 
G01 X41.7876 Y26.6630 
G01 X41.7527 Y26.6024 
G01 X41.7346 Y26.5349 
G01 X41.7346 Y24.2151 
G01 X41.7527 Y24.1476 
G01 X41.7876 Y24.0870 
G01 X41.8370 Y24.0376 
G01 X42.9846 Y22.8901 
G01 X42.9846 Y6.6467 
G01 X42.9387 Y6.6376 
G01 X42.7881 Y6.5752 
G01 X42.6526 Y6.4847 
G01 X42.5373 Y6.3694 
G01 X42.4468 Y6.2339 
G01 X42.3844 Y6.0833 
G01 X42.3526 Y5.9235 
G01 X42.3526 Y5.5154 
G01 X41.4674 Y5.5154 
G01 X41.4674 Y5.9235 
G01 X41.4356 Y6.0833 
G01 X41.3732 Y6.2339 
G01 X41.2827 Y6.3694 
G01 X41.1674 Y6.4847 
G01 X41.0319 Y6.5752 
G01 X40.8813 Y6.6376 
G01 X40.7215 Y6.6694 
G01 X40.5585 Y6.6694 
G01 X40.3987 Y6.6376 
G01 X40.2481 Y6.5752 
G01 X40.1126 Y6.4847 
G01 X39.9973 Y6.3694 
G01 X39.9068 Y6.2339 
G01 X39.8444 Y6.0833 
G01 X39.8126 Y5.9235 
G01 X39.8126 Y4.2365 
G01 X39.8444 Y4.0767 
G01 X39.9068 Y3.9261 
G01 X39.9973 Y3.7906 
G01 X40.1126 Y3.6753 
G01 X40.2481 Y3.5848 
G01 X40.3987 Y3.5224 
G01 X40.5585 Y3.4906 
G01 X40.7215 Y3.4906 
G01 X40.8813 Y3.5224 
G01 X41.0319 Y3.5848 
G01 X41.1674 Y3.6753 
G01 X41.2827 Y3.7906 
G01 X41.3732 Y3.9261 
G01 X41.4356 Y4.0767 
G01 X41.4674 Y4.2365 
G01 X41.4674 Y4.9846 
G01 X42.3526 Y4.9846 
G01 X42.3526 Y4.2365 
G01 X42.3844 Y4.0767 
G01 X42.4468 Y3.9261 
G01 X42.5373 Y3.7906 
G01 X42.6526 Y3.6753 
G01 X42.7881 Y3.5848 
G01 X42.9387 Y3.5224 
G01 X43.0985 Y3.4906 
G01 X43.2615 Y3.4906 
G01 X43.4213 Y3.5224 
G01 X43.5719 Y3.5848 
G01 X43.7074 Y3.6753 
G01 X43.8227 Y3.7906 
G01 X43.9132 Y3.9261 
G01 X43.9756 Y4.0767 
G01 X44.0074 Y4.2365 
G01 X44.0074 Y5.9235 
G01 X43.9756 Y6.0833 
G01 X43.9132 Y6.2339 
G01 X43.8227 Y6.3694 
G01 X43.7074 Y6.4847 
G01 X43.5719 Y6.5752 
G01 X43.5154 Y6.5986 
G01 X43.5154 Y23.0349 
G01 X43.4973 Y23.1024 
G01 X43.4624 Y23.1630 
G01 X42.2654 Y24.3599 
G01 X42.2654 Y26.3901 
G01 X45.4846 Y29.6093 
G01 X45.4846 Y27.9651 
G01 X45.5027 Y27.8976 
G01 X45.5376 Y27.8370 
G01 X45.5870 Y27.7876 
G01 X47.5342 Y25.8405 
G01 X47.5342 Y24.6681 
G01 X47.5621 Y24.5279 
G01 X47.6168 Y24.3958 
G01 X47.6962 Y24.2769 
G01 X47.7973 Y24.1758 
G01 X47.9162 Y24.0964 
G01 X48.0483 Y24.0417 
G01 X48.1885 Y24.0138 
G01 X48.3315 Y24.0138 
G01 X48.4717 Y24.0417 
G01 X48.6038 Y24.0964 
G01 X48.7227 Y24.1758 
G01 X48.8238 Y24.2769 
G01 X48.9032 Y24.3958 
G01 X48.9579 Y24.5279 
G01 X48.9858 Y24.6681 
G01 X48.9858 Y26.1319 
G01 X48.9579 Y26.2721 
G01 X48.9032 Y26.4042 
G01 X48.8238 Y26.5231 
G01 X48.7227 Y26.6242 
G01 X48.6038 Y26.7036 
G01 X48.4717 Y26.7583 
G01 X48.3315 Y26.7862 
G01 X48.1885 Y26.7862 
G01 X48.0483 Y26.7583 
G01 X47.9162 Y26.7036 
G01 X47.7973 Y26.6242 
G01 X47.6962 Y26.5231 
G01 X47.6586 Y26.4667 
G01 X46.0154 Y28.1099 
G01 X46.0154 Y31.6964 
G01 X46.0638 Y31.7164 
G01 X46.1827 Y31.7958 
G01 X46.2838 Y31.8969 
G01 X46.3632 Y32.0158 
G01 X46.4179 Y32.1479 
G01 X46.4458 Y32.2881 
G00 Z2.5400 
G00 X43.9058 Y32.2881 
G01 Z-0.1500 F254.00 
G01 X43.9058 Y33.7519 F508.00 
G01 X43.8779 Y33.8921 
G01 X43.8232 Y34.0242 
G01 X43.7438 Y34.1431 
G01 X43.6427 Y34.2442 
G01 X43.5238 Y34.3236 
G01 X43.5154 Y34.3271 
G01 X43.5154 Y47.3901 
G01 X44.2899 Y48.1646 
G01 X45.0630 Y48.1646 
G01 X45.0870 Y48.1746 
G01 X45.1054 Y48.1930 
G01 X45.1154 Y48.2170 
G01 X45.1154 Y49.0430 
G01 X45.1054 Y49.0670 
G01 X45.0870 Y49.0854 
G01 X45.0630 Y49.0954 
G01 X43.8370 Y49.0954 
G01 X43.8130 Y49.0854 
G01 X43.7946 Y49.0670 
G01 X43.7846 Y49.0430 
G01 X43.7846 Y48.4099 
G01 X43.0870 Y47.7124 
G01 X43.0376 Y47.6630 
G01 X43.0027 Y47.6024 
G01 X42.9846 Y47.5349 
G01 X42.9846 Y34.3816 
G01 X42.9683 Y34.3783 
G01 X42.8362 Y34.3236 
G01 X42.7173 Y34.2442 
G01 X42.6162 Y34.1431 
G01 X42.5368 Y34.0242 
G01 X42.4821 Y33.8921 
G01 X42.4542 Y33.7519 
G01 X42.4542 Y32.2881 
G01 X42.4821 Y32.1479 
G01 X42.5368 Y32.0158 
G01 X42.6162 Y31.8969 
G01 X42.7173 Y31.7958 
G01 X42.8362 Y31.7164 
G01 X42.9683 Y31.6617 
G01 X43.1085 Y31.6338 
G01 X43.2515 Y31.6338 
G01 X43.3917 Y31.6617 
G01 X43.5238 Y31.7164 
G01 X43.6427 Y31.7958 
G01 X43.7438 Y31.8969 
G01 X43.8232 Y32.0158 
G01 X43.8779 Y32.1479 
G01 X43.9058 Y32.2881 
G00 Z2.5400 
G00 X38.8258 Y32.2881 
G01 Z-0.1500 F254.00 
G01 X38.8258 Y33.7519 F508.00 
G01 X38.7979 Y33.8921 
G01 X38.7432 Y34.0242 
G01 X38.6638 Y34.1431 
G01 X38.5627 Y34.2442 
G01 X38.4438 Y34.3236 
G01 X38.3117 Y34.3783 
G01 X38.1715 Y34.4062 
G01 X38.0285 Y34.4062 
G01 X37.8883 Y34.3783 
G01 X37.7562 Y34.3236 
G01 X37.6373 Y34.2442 
G01 X37.5362 Y34.1431 
G01 X37.4568 Y34.0242 
G01 X37.4021 Y33.8921 
G01 X37.3742 Y33.7519 
G01 X37.3742 Y32.2881 
G01 X37.4021 Y32.1479 
G01 X37.4568 Y32.0158 
G01 X37.5362 Y31.8969 
G01 X37.6373 Y31.7958 
G01 X37.7562 Y31.7164 
G01 X37.8883 Y31.6617 
G01 X38.0285 Y31.6338 
G01 X38.1715 Y31.6338 
G01 X38.3117 Y31.6617 
G01 X38.4438 Y31.7164 
G01 X38.5627 Y31.7958 
G01 X38.6638 Y31.8969 
G01 X38.7432 Y32.0158 
G01 X38.7979 Y32.1479 
G01 X38.8258 Y32.2881 
G00 Z2.5400 
G00 X36.2858 Y32.2881 
G01 Z-0.1500 F254.00 
G01 X36.2858 Y33.7519 F508.00 
G01 X36.2579 Y33.8921 
G01 X36.2032 Y34.0242 
G01 X36.1238 Y34.1431 
G01 X36.0227 Y34.2442 
G01 X35.9038 Y34.3236 
G01 X35.7717 Y34.3783 
G01 X35.6315 Y34.4062 
G01 X35.4885 Y34.4062 
G01 X35.3483 Y34.3783 
G01 X35.2162 Y34.3236 
G01 X35.0973 Y34.2442 
G01 X34.9962 Y34.1431 
G01 X34.9168 Y34.0242 
G01 X34.8621 Y33.8921 
G01 X34.8342 Y33.7519 
G01 X34.8342 Y32.2881 
G01 X34.8621 Y32.1479 
G01 X34.9168 Y32.0158 
G01 X34.9962 Y31.8969 
G01 X35.0973 Y31.7958 
G01 X35.2162 Y31.7164 
G01 X35.3483 Y31.6617 
G01 X35.4885 Y31.6338 
G01 X35.6315 Y31.6338 
G01 X35.7717 Y31.6617 
G01 X35.9038 Y31.7164 
G01 X36.0227 Y31.7958 
G01 X36.1238 Y31.8969 
G01 X36.2032 Y32.0158 
G01 X36.2579 Y32.1479 
G01 X36.2858 Y32.2881 
G00 Z2.5400 
G00 X33.7458 Y32.2881 
G01 Z-0.1500 F254.00 
G01 X33.7458 Y33.7519 F508.00 
G01 X33.7179 Y33.8921 
G01 X33.6632 Y34.0242 
G01 X33.5838 Y34.1431 
G01 X33.4827 Y34.2442 
G01 X33.3638 Y34.3236 
G01 X33.2317 Y34.3783 
G01 X33.0915 Y34.4062 
G01 X32.9485 Y34.4062 
G01 X32.8083 Y34.3783 
G01 X32.6762 Y34.3236 
G01 X32.5573 Y34.2442 
G01 X32.4562 Y34.1431 
G01 X32.3768 Y34.0242 
G01 X32.3221 Y33.8921 
G01 X32.2942 Y33.7519 
G01 X32.2942 Y32.2881 
G01 X32.3221 Y32.1479 
G01 X32.3768 Y32.0158 
G01 X32.4562 Y31.8969 
G01 X32.5573 Y31.7958 
G01 X32.6762 Y31.7164 
G01 X32.8083 Y31.6617 
G01 X32.9485 Y31.6338 
G01 X33.0915 Y31.6338 
G01 X33.2317 Y31.6617 
G01 X33.3638 Y31.7164 
G01 X33.4827 Y31.7958 
G01 X33.5838 Y31.8969 
G01 X33.6632 Y32.0158 
G01 X33.7179 Y32.1479 
G01 X33.7458 Y32.2881 
G00 Z2.5400 
G00 X31.2058 Y32.2881 
G01 Z-0.1500 F254.00 
G01 X31.2058 Y33.7519 F508.00 
G01 X31.1779 Y33.8921 
G01 X31.1232 Y34.0242 
G01 X31.0438 Y34.1431 
G01 X30.9427 Y34.2442 
G01 X30.8238 Y34.3236 
G01 X30.6917 Y34.3783 
G01 X30.5515 Y34.4062 
G01 X30.4085 Y34.4062 
G01 X30.2683 Y34.3783 
G01 X30.1362 Y34.3236 
G01 X30.0173 Y34.2442 
G01 X29.9162 Y34.1431 
G01 X29.8368 Y34.0242 
G01 X29.7821 Y33.8921 
G01 X29.7542 Y33.7519 
G01 X29.7542 Y32.2881 
G01 X29.7821 Y32.1479 
G01 X29.8368 Y32.0158 
G01 X29.9162 Y31.8969 
G01 X30.0173 Y31.7958 
G01 X30.1362 Y31.7164 
G01 X30.2683 Y31.6617 
G01 X30.4085 Y31.6338 
G01 X30.5515 Y31.6338 
G01 X30.6917 Y31.6617 
G01 X30.8238 Y31.7164 
G01 X30.9427 Y31.7958 
G01 X31.0438 Y31.8969 
G01 X31.1232 Y32.0158 
G01 X31.1779 Y32.1479 
G01 X31.2058 Y32.2881 
G00 Z2.5400 
G00 X31.2058 Y24.6681 
G01 Z-0.1500 F254.00 
G01 X31.2058 Y26.1319 F508.00 
G01 X31.1779 Y26.2721 
G01 X31.1232 Y26.4042 
G01 X31.0438 Y26.5231 
G01 X30.9427 Y26.6242 
G01 X30.8238 Y26.7036 
G01 X30.6917 Y26.7583 
G01 X30.5515 Y26.7862 
G01 X30.4085 Y26.7862 
G01 X30.2683 Y26.7583 
G01 X30.1362 Y26.7036 
G01 X30.0173 Y26.6242 
G01 X29.9162 Y26.5231 
G01 X29.8368 Y26.4042 
G01 X29.7821 Y26.2721 
G01 X29.7542 Y26.1319 
G01 X29.7542 Y24.6681 
G01 X29.7821 Y24.5279 
G01 X29.8368 Y24.3958 
G01 X29.9162 Y24.2769 
G01 X30.0173 Y24.1758 
G01 X30.1362 Y24.0964 
G01 X30.2683 Y24.0417 
G01 X30.4085 Y24.0138 
G01 X30.5515 Y24.0138 
G01 X30.6917 Y24.0417 
G01 X30.8238 Y24.0964 
G01 X30.9427 Y24.1758 
G01 X31.0438 Y24.2769 
G01 X31.1232 Y24.3958 
G01 X31.1779 Y24.5279 
G01 X31.2058 Y24.6681 
G00 Z2.5400 
G00 X33.7458 Y24.6681 
G01 Z-0.1500 F254.00 
G01 X33.7458 Y26.1319 F508.00 
G01 X33.7179 Y26.2721 
G01 X33.6632 Y26.4042 
G01 X33.5838 Y26.5231 
G01 X33.4827 Y26.6242 
G01 X33.3638 Y26.7036 
G01 X33.2317 Y26.7583 
G01 X33.0915 Y26.7862 
G01 X32.9485 Y26.7862 
G01 X32.8083 Y26.7583 
G01 X32.6762 Y26.7036 
G01 X32.5573 Y26.6242 
G01 X32.4562 Y26.5231 
G01 X32.4146 Y26.4607 
G01 X28.7975 Y30.0778 
G01 X28.8234 Y30.1745 
G01 X28.8234 Y30.3255 
G01 X28.7843 Y30.4713 
G01 X28.7088 Y30.6021 
G01 X28.6021 Y30.7088 
G01 X28.4713 Y30.7843 
G01 X28.3255 Y30.8234 
G01 X28.1745 Y30.8234 
G01 X28.0287 Y30.7843 
G01 X27.8979 Y30.7088 
G01 X27.7912 Y30.6021 
G01 X27.7157 Y30.4713 
G01 X27.6766 Y30.3255 
G01 X27.6766 Y30.1745 
G01 X27.7157 Y30.0287 
G01 X27.7912 Y29.8979 
G01 X27.8979 Y29.7912 
G01 X28.0287 Y29.7157 
G01 X28.1745 Y29.6766 
G01 X28.3255 Y29.6766 
G01 X28.4222 Y29.7025 
G01 X32.2942 Y25.8305 
G01 X32.2942 Y24.6681 
G01 X32.3221 Y24.5279 
G01 X32.3768 Y24.3958 
G01 X32.4562 Y24.2769 
G01 X32.5573 Y24.1758 
G01 X32.6762 Y24.0964 
G01 X32.8083 Y24.0417 
G01 X32.9485 Y24.0138 
G01 X33.0915 Y24.0138 
G01 X33.2317 Y24.0417 
G01 X33.3638 Y24.0964 
G01 X33.4827 Y24.1758 
G01 X33.5838 Y24.2769 
G01 X33.6632 Y24.3958 
G01 X33.7179 Y24.5279 
G01 X33.7458 Y24.6681 
G00 Z2.5400 
G00 X36.2858 Y26.1319 
G01 Z-0.1500 F254.00 
G01 X36.2579 Y26.2721 F508.00 
G01 X36.2032 Y26.4042 
G01 X36.1238 Y26.5231 
G01 X36.0227 Y26.6242 
G01 X35.9038 Y26.7036 
G01 X35.7717 Y26.7583 
G01 X35.6315 Y26.7862 
G01 X35.4885 Y26.7862 
G01 X35.3483 Y26.7583 
G01 X35.2162 Y26.7036 
G01 X35.0973 Y26.6242 
G01 X34.9962 Y26.5231 
G01 X34.9168 Y26.4042 
G01 X34.8621 Y26.2721 
G01 X34.8342 Y26.1319 
G01 X34.8342 Y24.6681 
G01 X34.8621 Y24.5279 
G01 X34.9168 Y24.3958 
G01 X34.9962 Y24.2769 
G01 X35.0973 Y24.1758 
G01 X35.2162 Y24.0964 
G01 X35.3483 Y24.0417 
G01 X35.4885 Y24.0138 
G01 X35.6315 Y24.0138 
G01 X35.7717 Y24.0417 
G01 X35.9038 Y24.0964 
G01 X36.0227 Y24.1758 
G01 X36.1238 Y24.2769 
G01 X36.2032 Y24.3958 
G01 X36.2107 Y24.4140 
G01 X38.7025 Y21.9222 
G01 X38.6766 Y21.8255 
G01 X38.6766 Y21.6745 
G01 X38.7157 Y21.5287 
G01 X38.7912 Y21.3979 
G01 X38.8979 Y21.2912 
G01 X39.0287 Y21.2157 
G01 X39.1745 Y21.1766 
G01 X39.3255 Y21.1766 
G01 X39.4713 Y21.2157 
G01 X39.6021 Y21.2912 
G01 X39.7088 Y21.3979 
G01 X39.7843 Y21.5287 
G01 X39.8234 Y21.6745 
G01 X39.8234 Y21.8255 
G01 X39.7843 Y21.9713 
G01 X39.7088 Y22.1021 
G01 X39.6021 Y22.2088 
G01 X39.4713 Y22.2843 
G01 X39.3255 Y22.3234 
G01 X39.1745 Y22.3234 
G01 X39.0778 Y22.2975 
G01 X36.2858 Y25.0895 
G01 X36.2858 Y26.1319 
G00 Z2.5400 
G00 X38.8258 Y26.1319 
G01 Z-0.1500 F254.00 
G01 X38.7979 Y26.2721 F508.00 
G01 X38.7432 Y26.4042 
G01 X38.6638 Y26.5231 
G01 X38.5627 Y26.6242 
G01 X38.4438 Y26.7036 
G01 X38.3117 Y26.7583 
G01 X38.1715 Y26.7862 
G01 X38.0285 Y26.7862 
G01 X37.8883 Y26.7583 
G01 X37.7562 Y26.7036 
G01 X37.6373 Y26.6242 
G01 X37.5362 Y26.5231 
G01 X37.4568 Y26.4042 
G01 X37.4021 Y26.2721 
G01 X37.3742 Y26.1319 
G01 X37.3742 Y24.6681 
G01 X37.4021 Y24.5279 
G01 X37.4568 Y24.3958 
G01 X37.5362 Y24.2769 
G01 X37.6373 Y24.1758 
G01 X37.7562 Y24.0964 
G01 X37.8883 Y24.0417 
G01 X38.0285 Y24.0138 
G01 X38.1715 Y24.0138 
G01 X38.3117 Y24.0417 
G01 X38.4438 Y24.0964 
G01 X38.5627 Y24.1758 
G01 X38.6638 Y24.2769 
G01 X38.7375 Y24.3872 
G01 X41.7844 Y21.3403 
G01 X41.7157 Y21.2213 
G01 X41.6766 Y21.0755 
G01 X41.6766 Y20.9245 
G01 X41.7157 Y20.7787 
G01 X41.7912 Y20.6479 
G01 X41.8979 Y20.5412 
G01 X42.0287 Y20.4657 
G01 X42.1745 Y20.4266 
G01 X42.3255 Y20.4266 
G01 X42.4713 Y20.4657 
G01 X42.6021 Y20.5412 
G01 X42.7088 Y20.6479 
G01 X42.7843 Y20.7787 
G01 X42.8234 Y20.9245 
G01 X42.8234 Y21.0755 
G01 X42.7843 Y21.2213 
G01 X42.7088 Y21.3521 
G01 X42.6021 Y21.4588 
G01 X42.4713 Y21.5343 
G01 X42.3255 Y21.5734 
G01 X42.3019 Y21.5734 
G01 X38.8258 Y25.0495 
G01 X38.8258 Y26.1319 
G00 Z2.5400 
G00 X41.3658 Y24.6681 
G01 Z-0.1500 F254.00 
G01 X41.3658 Y26.1319 F508.00 
G01 X41.3379 Y26.2721 
G01 X41.2832 Y26.4042 
G01 X41.2038 Y26.5231 
G01 X41.1027 Y26.6242 
G01 X40.9838 Y26.7036 
G01 X40.8517 Y26.7583 
G01 X40.7115 Y26.7862 
G01 X40.5685 Y26.7862 
G01 X40.4283 Y26.7583 
G01 X40.2962 Y26.7036 
G01 X40.1773 Y26.6242 
G01 X40.0762 Y26.5231 
G01 X39.9968 Y26.4042 
G01 X39.9421 Y26.2721 
G01 X39.9142 Y26.1319 
G01 X39.9142 Y24.6681 
G01 X39.9421 Y24.5279 
G01 X39.9968 Y24.3958 
G01 X40.0762 Y24.2769 
G01 X40.1773 Y24.1758 
G01 X40.2962 Y24.0964 
G01 X40.4283 Y24.0417 
G01 X40.5685 Y24.0138 
G01 X40.7115 Y24.0138 
G01 X40.8517 Y24.0417 
G01 X40.9838 Y24.0964 
G01 X41.1027 Y24.1758 
G01 X41.2038 Y24.2769 
G01 X41.2832 Y24.3958 
G01 X41.3379 Y24.5279 
G01 X41.3658 Y24.6681 
G00 Z2.5400 
G00 X43.9058 Y26.1319 
G01 Z-0.1500 F254.00 
G01 X43.8779 Y26.2721 F508.00 
G01 X43.8232 Y26.4042 
G01 X43.7438 Y26.5231 
G01 X43.6427 Y26.6242 
G01 X43.5238 Y26.7036 
G01 X43.3917 Y26.7583 
G01 X43.2515 Y26.7862 
G01 X43.1085 Y26.7862 
G01 X42.9683 Y26.7583 
G01 X42.8362 Y26.7036 
G01 X42.7173 Y26.6242 
G01 X42.6162 Y26.5231 
G01 X42.5368 Y26.4042 
G01 X42.4821 Y26.2721 
G01 X42.4542 Y26.1319 
G01 X42.4542 Y24.6681 
G01 X42.4821 Y24.5279 
G01 X42.5368 Y24.3958 
G01 X42.6162 Y24.2769 
G01 X42.7173 Y24.1758 
G01 X42.8362 Y24.0964 
G01 X42.9683 Y24.0417 
G01 X43.1085 Y24.0138 
G01 X43.2515 Y24.0138 
G01 X43.3917 Y24.0417 
G01 X43.5238 Y24.0964 
G01 X43.6427 Y24.1758 
G01 X43.7438 Y24.2769 
G01 X43.7854 Y24.3393 
G01 X45.2346 Y22.8901 
G01 X45.2346 Y6.5128 
G01 X45.1926 Y6.4847 
G01 X45.0773 Y6.3694 
G01 X44.9868 Y6.2339 
G01 X44.9244 Y6.0833 
G01 X44.8926 Y5.9235 
G01 X44.8926 Y4.2365 
G01 X44.9244 Y4.0767 
G01 X44.9868 Y3.9261 
G01 X45.0773 Y3.7906 
G01 X45.1926 Y3.6753 
G01 X45.3281 Y3.5848 
G01 X45.4787 Y3.5224 
G01 X45.6385 Y3.4906 
G01 X45.8015 Y3.4906 
G01 X45.9613 Y3.5224 
G01 X46.1119 Y3.5848 
G01 X46.2474 Y3.6753 
G01 X46.3627 Y3.7906 
G01 X46.4532 Y3.9261 
G01 X46.5156 Y4.0767 
G01 X46.5474 Y4.2365 
G01 X46.5474 Y5.9235 
G01 X46.5156 Y6.0833 
G01 X46.4532 Y6.2339 
G01 X46.3627 Y6.3694 
G01 X46.2474 Y6.4847 
G01 X46.1119 Y6.5752 
G01 X45.9613 Y6.6376 
G01 X45.8015 Y6.6694 
G01 X45.7654 Y6.6694 
G01 X45.7654 Y20.1401 
G01 X49.7124 Y24.0870 
G01 X49.7473 Y24.1476 
G01 X49.7654 Y24.2151 
G01 X49.7654 Y26.9846 
G01 X63.8901 Y26.9846 
G01 X64.4126 Y26.4620 
G01 X64.4620 Y26.4126 
G01 X64.4846 Y26.3901 
G01 X64.4846 Y20.2151 
G01 X64.5027 Y20.1476 
G01 X64.5376 Y20.0870 
G01 X64.5870 Y20.0376 
G01 X71.2093 Y13.4153 
G01 X71.1006 Y13.3427 
G01 X70.9853 Y13.2274 
G01 X70.8948 Y13.0919 
G01 X70.8324 Y12.9413 
G01 X70.8006 Y12.7815 
G01 X70.8006 Y12.6185 
G01 X70.8324 Y12.4587 
G01 X70.8948 Y12.3081 
G01 X70.9853 Y12.1726 
G01 X71.1006 Y12.0573 
G01 X71.2361 Y11.9668 
G01 X71.3867 Y11.9044 
G01 X71.5465 Y11.8726 
G01 X73.2335 Y11.8726 
G01 X73.3933 Y11.9044 
G01 X73.5439 Y11.9668 
G01 X73.6794 Y12.0573 
G01 X73.7947 Y12.1726 
G01 X73.8852 Y12.3081 
G01 X73.9476 Y12.4587 
G01 X73.9794 Y12.6185 
G01 X73.9794 Y12.7815 
G01 X73.9476 Y12.9413 
G01 X73.8852 Y13.0919 
G01 X73.7947 Y13.2274 
G01 X73.6794 Y13.3427 
G01 X73.5439 Y13.4332 
G01 X73.3933 Y13.4956 
G01 X73.2335 Y13.5274 
G01 X71.8479 Y13.5274 
G01 X65.0154 Y20.3599 
G01 X65.0154 Y26.5349 
G01 X64.9973 Y26.6024 
G01 X64.9843 Y26.6250 
G01 X64.9973 Y26.6476 
G01 X65.0154 Y26.7151 
G01 X65.0154 Y41.9911 
G01 X65.1021 Y42.0412 
G01 X65.2088 Y42.1479 
G01 X65.2843 Y42.2787 
G01 X65.3234 Y42.4245 
G01 X65.3234 Y42.4481 
G01 X70.4699 Y47.5946 
G01 X71.1630 Y47.5946 
G01 X71.1870 Y47.6046 
G01 X71.2054 Y47.6230 
G01 X71.2154 Y47.6470 
G01 X71.2154 Y48.8730 
G01 X71.2054 Y48.8970 
G01 X71.1870 Y48.9154 
G01 X71.1630 Y48.9254 
G01 X71.0154 Y48.9254 
G01 X71.0154 Y51.4046 
G01 X71.1630 Y51.4046 
G01 X71.1870 Y51.4146 
G01 X71.2054 Y51.4330 
G01 X71.2154 Y51.4570 
G01 X71.2154 Y52.3401 
G01 X71.4130 Y52.5376 
G01 X71.4624 Y52.5870 
G01 X71.4973 Y52.6476 
G01 X71.5154 Y52.7151 
G01 X71.5154 Y58.5349 
G01 X71.4973 Y58.6024 
G01 X71.4624 Y58.6630 
G01 X66.7124 Y63.4130 
G01 X66.6630 Y63.4624 
G01 X66.6024 Y63.4973 
G01 X66.5349 Y63.5154 
G01 X62.7144 Y63.5154 
G01 X62.7144 Y64.1372 
G01 X62.6839 Y64.2907 
G01 X62.6240 Y64.4353 
G01 X62.5370 Y64.5654 
G01 X62.4264 Y64.6760 
G01 X62.2963 Y64.7630 
G01 X62.1517 Y64.8229 
G01 X61.9982 Y64.8534 
G01 X61.8418 Y64.8534 
G01 X61.6883 Y64.8229 
G01 X61.5437 Y64.7630 
G01 X61.4136 Y64.6760 
G01 X61.3030 Y64.5654 
G01 X61.2160 Y64.4353 
G01 X61.1561 Y64.2907 
G01 X61.1256 Y64.1372 
G01 X61.1256 Y62.5228 
G01 X61.1561 Y62.3693 
G01 X61.2160 Y62.2247 
G01 X61.3030 Y62.0946 
G01 X61.4136 Y61.9840 
G01 X61.5437 Y61.8970 
G01 X61.6883 Y61.8371 
G01 X61.8418 Y61.8066 
G01 X61.9982 Y61.8066 
G01 X62.1517 Y61.8371 
G01 X62.2963 Y61.8970 
G01 X62.4264 Y61.9840 
G01 X62.5370 Y62.0946 
G01 X62.6240 Y62.2247 
G01 X62.6839 Y62.3693 
G01 X62.7144 Y62.5228 
G01 X62.7144 Y62.9846 
G01 X66.3901 Y62.9846 
G01 X70.9846 Y58.3901 
G01 X70.9846 Y52.8599 
G01 X70.8601 Y52.7354 
G01 X70.3370 Y52.7354 
G01 X70.3130 Y52.7254 
G01 X70.2946 Y52.7070 
G01 X70.2846 Y52.6830 
G01 X70.2846 Y51.4570 
G01 X70.2946 Y51.4330 
G01 X70.3130 Y51.4146 
G01 X70.3370 Y51.4046 
G01 X70.4846 Y51.4046 
G01 X70.4846 Y48.9254 
G01 X70.3370 Y48.9254 
G01 X70.3130 Y48.9154 
G01 X70.2946 Y48.8970 
G01 X70.2846 Y48.8730 
G01 X70.2846 Y48.1599 
G01 X65.0903 Y42.9656 
G01 X64.9713 Y43.0343 
G01 X64.8255 Y43.0734 
G01 X64.6745 Y43.0734 
G01 X64.5287 Y43.0343 
G01 X64.3979 Y42.9588 
G01 X64.2912 Y42.8521 
G01 X64.2157 Y42.7213 
G01 X64.1766 Y42.5755 
G01 X64.1766 Y42.4245 
G01 X64.2157 Y42.2787 
G01 X64.2912 Y42.1479 
G01 X64.3979 Y42.0412 
G01 X64.4846 Y41.9911 
G01 X64.4846 Y27.1407 
G01 X64.2124 Y27.4130 
G01 X64.1630 Y27.4624 
G01 X64.1024 Y27.4973 
G01 X64.0349 Y27.5154 
G01 X49.7654 Y27.5154 
G01 X49.7654 Y32.0349 
G01 X49.7473 Y32.1024 
G01 X49.7124 Y32.1630 
G01 X49.6630 Y32.2124 
G01 X48.9858 Y32.8895 
G01 X48.9858 Y33.7519 
G01 X48.9579 Y33.8921 
G01 X48.9032 Y34.0242 
G01 X48.8238 Y34.1431 
G01 X48.7227 Y34.2442 
G01 X48.6038 Y34.3236 
G01 X48.4717 Y34.3783 
G01 X48.3315 Y34.4062 
G01 X48.1885 Y34.4062 
G01 X48.0483 Y34.3783 
G01 X47.9162 Y34.3236 
G01 X47.7973 Y34.2442 
G01 X47.6962 Y34.1431 
G01 X47.6168 Y34.0242 
G01 X47.5621 Y33.8921 
G01 X47.5342 Y33.7519 
G01 X47.5342 Y32.2881 
G01 X47.5621 Y32.1479 
G01 X47.6168 Y32.0158 
G01 X47.6962 Y31.8969 
G01 X47.7973 Y31.7958 
G01 X47.9162 Y31.7164 
G01 X48.0483 Y31.6617 
G01 X48.1885 Y31.6338 
G01 X48.3315 Y31.6338 
G01 X48.4717 Y31.6617 
G01 X48.6038 Y31.7164 
G01 X48.7227 Y31.7958 
G01 X48.8238 Y31.8969 
G01 X48.9032 Y32.0158 
G01 X48.9579 Y32.1479 
G01 X48.9610 Y32.1636 
G01 X49.2346 Y31.8901 
G01 X49.2346 Y24.3599 
G01 X45.7654 Y20.8907 
G01 X45.7654 Y23.0349 
G01 X45.7473 Y23.1024 
G01 X45.7124 Y23.1630 
G01 X45.6630 Y23.2124 
G01 X43.9058 Y24.9695 
G01 X43.9058 Y26.1319 
G00 Z2.5400 
G00 X46.4458 Y24.6681 
G01 Z-0.1500 F254.00 
G01 X46.4458 Y26.1319 F508.00 
G01 X46.4179 Y26.2721 
G01 X46.3632 Y26.4042 
G01 X46.2838 Y26.5231 
G01 X46.1827 Y26.6242 
G01 X46.0638 Y26.7036 
G01 X45.9317 Y26.7583 
G01 X45.7915 Y26.7862 
G01 X45.6485 Y26.7862 
G01 X45.5083 Y26.7583 
G01 X45.3762 Y26.7036 
G01 X45.2573 Y26.6242 
G01 X45.1562 Y26.5231 
G01 X45.0768 Y26.4042 
G01 X45.0221 Y26.2721 
G01 X44.9942 Y26.1319 
G01 X44.9942 Y24.6681 
G01 X45.0221 Y24.5279 
G01 X45.0768 Y24.3958 
G01 X45.1562 Y24.2769 
G01 X45.2573 Y24.1758 
G01 X45.3762 Y24.0964 
G01 X45.5083 Y24.0417 
G01 X45.6485 Y24.0138 
G01 X45.7915 Y24.0138 
G01 X45.9317 Y24.0417 
G01 X46.0638 Y24.0964 
G01 X46.1827 Y24.1758 
G01 X46.2838 Y24.2769 
G01 X46.3632 Y24.3958 
G01 X46.4179 Y24.5279 
G01 X46.4458 Y24.6681 
G00 Z2.5400 
G00 X51.5258 Y24.6681 
G01 Z-0.1500 F254.00 
G01 X51.5258 Y26.1319 F508.00 
G01 X51.4979 Y26.2721 
G01 X51.4432 Y26.4042 
G01 X51.3638 Y26.5231 
G01 X51.2627 Y26.6242 
G01 X51.1438 Y26.7036 
G01 X51.0117 Y26.7583 
G01 X50.8715 Y26.7862 
G01 X50.7285 Y26.7862 
G01 X50.5883 Y26.7583 
G01 X50.4562 Y26.7036 
G01 X50.3373 Y26.6242 
G01 X50.2362 Y26.5231 
G01 X50.1568 Y26.4042 
G01 X50.1021 Y26.2721 
G01 X50.0742 Y26.1319 
G01 X50.0742 Y24.6681 
G01 X50.1021 Y24.5279 
G01 X50.1568 Y24.3958 
G01 X50.2362 Y24.2769 
G01 X50.3373 Y24.1758 
G01 X50.4562 Y24.0964 
G01 X50.5883 Y24.0417 
G01 X50.7285 Y24.0138 
G01 X50.8715 Y24.0138 
G01 X51.0117 Y24.0417 
G01 X51.1438 Y24.0964 
G01 X51.2627 Y24.1758 
G01 X51.3638 Y24.2769 
G01 X51.4432 Y24.3958 
G01 X51.4979 Y24.5279 
G01 X51.5258 Y24.6681 
G00 Z2.5400 
G00 X54.0658 Y24.6681 
G01 Z-0.1500 F254.00 
G01 X54.0658 Y26.1319 F508.00 
G01 X54.0379 Y26.2721 
G01 X53.9832 Y26.4042 
G01 X53.9038 Y26.5231 
G01 X53.8027 Y26.6242 
G01 X53.6838 Y26.7036 
G01 X53.5517 Y26.7583 
G01 X53.4115 Y26.7862 
G01 X53.2685 Y26.7862 
G01 X53.1283 Y26.7583 
G01 X52.9962 Y26.7036 
G01 X52.8773 Y26.6242 
G01 X52.7762 Y26.5231 
G01 X52.6968 Y26.4042 
G01 X52.6421 Y26.2721 
G01 X52.6142 Y26.1319 
G01 X52.6142 Y24.6681 
G01 X52.6421 Y24.5279 
G01 X52.6968 Y24.3958 
G01 X52.7762 Y24.2769 
G01 X52.8773 Y24.1758 
G01 X52.9962 Y24.0964 
G01 X53.1283 Y24.0417 
G01 X53.2685 Y24.0138 
G01 X53.4115 Y24.0138 
G01 X53.5517 Y24.0417 
G01 X53.6838 Y24.0964 
G01 X53.8027 Y24.1758 
G01 X53.9038 Y24.2769 
G01 X53.9832 Y24.3958 
G01 X54.0379 Y24.5279 
G01 X54.0658 Y24.6681 
G00 Z2.5400 
G00 X56.6058 Y24.6681 
G01 Z-0.1500 F254.00 
G01 X56.6058 Y26.1319 F508.00 
G01 X56.5779 Y26.2721 
G01 X56.5232 Y26.4042 
G01 X56.4438 Y26.5231 
G01 X56.3427 Y26.6242 
G01 X56.2238 Y26.7036 
G01 X56.0917 Y26.7583 
G01 X55.9515 Y26.7862 
G01 X55.8085 Y26.7862 
G01 X55.6683 Y26.7583 
G01 X55.5362 Y26.7036 
G01 X55.4173 Y26.6242 
G01 X55.3162 Y26.5231 
G01 X55.2368 Y26.4042 
G01 X55.1821 Y26.2721 
G01 X55.1542 Y26.1319 
G01 X55.1542 Y24.6681 
G01 X55.1821 Y24.5279 
G01 X55.2368 Y24.3958 
G01 X55.3162 Y24.2769 
G01 X55.4173 Y24.1758 
G01 X55.5362 Y24.0964 
G01 X55.6683 Y24.0417 
G01 X55.7346 Y24.0285 
G01 X55.7346 Y6.6567 
G01 X55.6387 Y6.6376 
G01 X55.4881 Y6.5752 
G01 X55.3526 Y6.4847 
G01 X55.2373 Y6.3694 
G01 X55.1468 Y6.2339 
G01 X55.0844 Y6.0833 
G01 X55.0526 Y5.9235 
G01 X55.0526 Y4.2365 
G01 X55.0844 Y4.0767 
G01 X55.1468 Y3.9261 
G01 X55.2373 Y3.7906 
G01 X55.3526 Y3.6753 
G01 X55.4881 Y3.5848 
G01 X55.6387 Y3.5224 
G01 X55.7985 Y3.4906 
G01 X55.9615 Y3.4906 
G01 X56.1213 Y3.5224 
G01 X56.2719 Y3.5848 
G01 X56.4074 Y3.6753 
G01 X56.5227 Y3.7906 
G01 X56.6132 Y3.9261 
G01 X56.6756 Y4.0767 
G01 X56.7074 Y4.2365 
G01 X56.7074 Y5.9235 
G01 X56.6756 Y6.0833 
G01 X56.6132 Y6.2339 
G01 X56.5227 Y6.3694 
G01 X56.4074 Y6.4847 
G01 X56.2719 Y6.5752 
G01 X56.2654 Y6.5779 
G01 X56.2654 Y24.1242 
G01 X56.3427 Y24.1758 
G01 X56.4438 Y24.2769 
G01 X56.5232 Y24.3958 
G01 X56.5779 Y24.5279 
G01 X56.6058 Y24.6681 
G00 Z2.5400 
G00 X61.6858 Y24.6681 
G01 Z-0.1500 F254.00 
G01 X61.6858 Y26.1319 F508.00 
G01 X61.6579 Y26.2721 
G01 X61.6032 Y26.4042 
G01 X61.5238 Y26.5231 
G01 X61.4227 Y26.6242 
G01 X61.3038 Y26.7036 
G01 X61.1717 Y26.7583 
G01 X61.0315 Y26.7862 
G01 X60.8885 Y26.7862 
G01 X60.7483 Y26.7583 
G01 X60.6162 Y26.7036 
G01 X60.4973 Y26.6242 
G01 X60.3962 Y26.5231 
G01 X60.3168 Y26.4042 
G01 X60.2621 Y26.2721 
G01 X60.2342 Y26.1319 
G01 X60.2342 Y24.6681 
G01 X60.2621 Y24.5279 
G01 X60.3168 Y24.3958 
G01 X60.3962 Y24.2769 
G01 X60.4973 Y24.1758 
G01 X60.6162 Y24.0964 
G01 X60.7346 Y24.0474 
G01 X60.7346 Y6.6408 
G01 X60.7187 Y6.6376 
G01 X60.5681 Y6.5752 
G01 X60.4326 Y6.4847 
G01 X60.3173 Y6.3694 
G01 X60.2268 Y6.2339 
G01 X60.1644 Y6.0833 
G01 X60.1326 Y5.9235 
G01 X60.1326 Y4.2365 
G01 X60.1644 Y4.0767 
G01 X60.2268 Y3.9261 
G01 X60.3173 Y3.7906 
G01 X60.4326 Y3.6753 
G01 X60.5681 Y3.5848 
G01 X60.7187 Y3.5224 
G01 X60.8785 Y3.4906 
G01 X61.0415 Y3.4906 
G01 X61.2013 Y3.5224 
G01 X61.3519 Y3.5848 
G01 X61.4874 Y3.6753 
G01 X61.6027 Y3.7906 
G01 X61.6932 Y3.9261 
G01 X61.7556 Y4.0767 
G01 X61.7874 Y4.2365 
G01 X61.7874 Y5.9235 
G01 X61.7556 Y6.0833 
G01 X61.6932 Y6.2339 
G01 X61.6027 Y6.3694 
G01 X61.4874 Y6.4847 
G01 X61.3519 Y6.5752 
G01 X61.2654 Y6.6111 
G01 X61.2654 Y24.0805 
G01 X61.3038 Y24.0964 
G01 X61.4227 Y24.1758 
G01 X61.5238 Y24.2769 
G01 X61.6032 Y24.3958 
G01 X61.6579 Y24.5279 
G01 X61.6858 Y24.6681 
G00 Z2.5400 
G00 X51.8814 Y41.0080 
G01 Z-0.1500 F254.00 
G01 X51.8814 Y42.8120 F508.00 
G01 X51.8714 Y42.8360 
G01 X51.8530 Y42.8544 
G01 X51.8290 Y42.8644 
G01 X46.7230 Y42.8644 
G01 X46.6990 Y42.8544 
G01 X46.6806 Y42.8360 
G01 X46.6706 Y42.8120 
G01 X46.6706 Y41.0080 
G01 X46.6806 Y40.9840 
G01 X46.6990 Y40.9656 
G01 X46.7230 Y40.9556 
G01 X48.0803 Y40.9556 
G01 X46.5870 Y39.4624 
G01 X46.5376 Y39.4130 
G01 X46.5027 Y39.3524 
G01 X46.4846 Y39.2849 
G01 X46.4846 Y35.5089 
G01 X46.3979 Y35.4588 
G01 X46.2912 Y35.3521 
G01 X46.2157 Y35.2213 
G01 X46.1766 Y35.0755 
G01 X46.1766 Y34.9245 
G01 X46.2157 Y34.7787 
G01 X46.2912 Y34.6479 
G01 X46.3979 Y34.5412 
G01 X46.5287 Y34.4657 
G01 X46.6745 Y34.4266 
G01 X46.8255 Y34.4266 
G01 X46.9713 Y34.4657 
G01 X47.1021 Y34.5412 
G01 X47.2088 Y34.6479 
G01 X47.2843 Y34.7787 
G01 X47.3234 Y34.9245 
G01 X47.3234 Y35.0755 
G01 X47.2843 Y35.2213 
G01 X47.2088 Y35.3521 
G01 X47.1021 Y35.4588 
G01 X47.0154 Y35.5089 
G01 X47.0154 Y39.1401 
G01 X48.8309 Y40.9556 
G01 X51.8290 Y40.9556 
G01 X51.8530 Y40.9656 
G01 X51.8714 Y40.9840 
G01 X51.8814 Y41.0080 
G00 Z2.5400 
G00 X41.2530 Y48.1646 
G01 Z-0.1500 F254.00 
G01 X41.2770 Y48.1746 F508.00 
G01 X41.2954 Y48.1930 
G01 X41.3054 Y48.2170 
G01 X41.3054 Y49.0430 
G01 X41.2954 Y49.0670 
G01 X41.2770 Y49.0854 
G01 X41.2530 Y49.0954 
G01 X40.0270 Y49.0954 
G01 X40.0030 Y49.0854 
G01 X39.9846 Y49.0670 
G01 X39.9746 Y49.0430 
G01 X39.9746 Y48.3499 
G01 X39.5870 Y47.9624 
G01 X39.5376 Y47.9130 
G01 X39.5027 Y47.8524 
G01 X39.4846 Y47.7849 
G01 X39.4846 Y42.8644 
G01 X37.0710 Y42.8644 
G01 X37.0470 Y42.8544 
G01 X37.0286 Y42.8360 
G01 X37.0186 Y42.8120 
G01 X37.0186 Y41.0080 
G01 X37.0286 Y40.9840 
G01 X37.0470 Y40.9656 
G01 X37.0710 Y40.9556 
G01 X39.4846 Y40.9556 
G01 X39.4846 Y33.9651 
G01 X39.5027 Y33.8976 
G01 X39.5376 Y33.8370 
G01 X39.5870 Y33.7876 
G01 X39.9142 Y33.4605 
G01 X39.9142 Y32.2881 
G01 X39.9421 Y32.1479 
G01 X39.9968 Y32.0158 
G01 X40.0762 Y31.8969 
G01 X40.1773 Y31.7958 
G01 X40.2962 Y31.7164 
G01 X40.4283 Y31.6617 
G01 X40.5685 Y31.6338 
G01 X40.7115 Y31.6338 
G01 X40.8517 Y31.6617 
G01 X40.9838 Y31.7164 
G01 X41.1027 Y31.7958 
G01 X41.2038 Y31.8969 
G01 X41.2832 Y32.0158 
G01 X41.3379 Y32.1479 
G01 X41.3658 Y32.2881 
G01 X41.3658 Y33.7519 
G01 X41.3379 Y33.8921 
G01 X41.2832 Y34.0242 
G01 X41.2038 Y34.1431 
G01 X41.1027 Y34.2442 
G01 X40.9838 Y34.3236 
G01 X40.8517 Y34.3783 
G01 X40.7115 Y34.4062 
G01 X40.5685 Y34.4062 
G01 X40.4283 Y34.3783 
G01 X40.2962 Y34.3236 
G01 X40.1773 Y34.2442 
G01 X40.0762 Y34.1431 
G01 X40.0386 Y34.0867 
G01 X40.0154 Y34.1099 
G01 X40.0154 Y40.9556 
G01 X42.1770 Y40.9556 
G01 X42.2010 Y40.9656 
G01 X42.2194 Y40.9840 
G01 X42.2294 Y41.0080 
G01 X42.2294 Y42.8120 
G01 X42.2194 Y42.8360 
G01 X42.2010 Y42.8544 
G01 X42.1770 Y42.8644 
G01 X40.0154 Y42.8644 
G01 X40.0154 Y47.6401 
G01 X40.5399 Y48.1646 
G01 X41.2530 Y48.1646 
G00 Z2.5400 
G00 X8.7946 Y56.4930 
G01 Z-0.1500 F254.00 
G01 X8.7946 Y55.2670 F508.00 
G01 X8.8046 Y55.2430 
G01 X8.8230 Y55.2246 
G01 X8.8470 Y55.2146 
G01 X9.6601 Y55.2146 
G01 X9.9846 Y54.8901 
G01 X9.9846 Y48.2151 
G01 X10.0027 Y48.1476 
G01 X10.0376 Y48.0870 
G01 X10.7346 Y47.3901 
G01 X10.7346 Y43.6099 
G01 X10.1538 Y43.0291 
G01 X10.0773 Y43.0802 
G01 X9.8944 Y43.1560 
G01 X9.7002 Y43.1946 
G01 X9.5022 Y43.1946 
G01 X9.3080 Y43.1560 
G01 X9.1251 Y43.0802 
G01 X8.9604 Y42.9702 
G01 X8.8204 Y42.8302 
G01 X8.7104 Y42.6655 
G01 X8.6346 Y42.4826 
G01 X8.5960 Y42.2884 
G01 X8.5960 Y42.0904 
G01 X8.6346 Y41.8962 
G01 X8.7104 Y41.7133 
G01 X8.8204 Y41.5486 
G01 X8.9604 Y41.4086 
G01 X9.1251 Y41.2986 
G01 X9.3080 Y41.2228 
G01 X9.5022 Y41.1842 
G01 X9.7002 Y41.1842 
G01 X9.8944 Y41.2228 
G01 X10.0773 Y41.2986 
G01 X10.2420 Y41.4086 
G01 X10.3820 Y41.5486 
G01 X10.4920 Y41.7133 
G01 X10.5678 Y41.8962 
G01 X10.6064 Y42.0904 
G01 X10.6064 Y42.2884 
G01 X10.5678 Y42.4826 
G01 X10.5063 Y42.6310 
G01 X11.2124 Y43.3370 
G01 X11.2473 Y43.3976 
G01 X11.2654 Y43.4651 
G01 X11.2654 Y47.5349 
G01 X11.2473 Y47.6024 
G01 X11.2124 Y47.6630 
G01 X11.1630 Y47.7124 
G01 X10.5154 Y48.3599 
G01 X10.5154 Y55.0349 
G01 X10.4973 Y55.1024 
G01 X10.4624 Y55.1630 
G01 X10.4130 Y55.2124 
G01 X9.7254 Y55.8999 
G01 X9.7254 Y56.4930 
G01 X9.7154 Y56.5170 
G01 X9.6970 Y56.5354 
G01 X9.6730 Y56.5454 
G01 X8.8470 Y56.5454 
G01 X8.8230 Y56.5354 
G01 X8.8046 Y56.5170 
G01 X8.7946 Y56.4930 
G00 Z2.5400 
G00 X4.1040 Y42.0904 
G01 Z-0.1500 F254.00 
G01 X4.1040 Y42.2884 F508.00 
G01 X4.0654 Y42.4826 
G01 X3.9896 Y42.6655 
G01 X3.8796 Y42.8302 
G01 X3.7396 Y42.9702 
G01 X3.5749 Y43.0802 
G01 X3.3920 Y43.1560 
G01 X3.1978 Y43.1946 
G01 X2.9998 Y43.1946 
G01 X2.8056 Y43.1560 
G01 X2.6227 Y43.0802 
G01 X2.4580 Y42.9702 
G01 X2.3180 Y42.8302 
G01 X2.2080 Y42.6655 
G01 X2.1322 Y42.4826 
G01 X2.0936 Y42.2884 
G01 X2.0936 Y42.0904 
G01 X2.1322 Y41.8962 
G01 X2.2080 Y41.7133 
G01 X2.3180 Y41.5486 
G01 X2.4580 Y41.4086 
G01 X2.6227 Y41.2986 
G01 X2.8056 Y41.2228 
G01 X2.9998 Y41.1842 
G01 X3.1978 Y41.1842 
G01 X3.3920 Y41.2228 
G01 X3.5749 Y41.2986 
G01 X3.7396 Y41.4086 
G01 X3.8796 Y41.5486 
G01 X3.9896 Y41.7133 
G01 X4.0654 Y41.8962 
G01 X4.1040 Y42.0904 
G00 Z2.5400 
G00 X4.1040 Y46.6116 
G01 Z-0.1500 F254.00 
G01 X4.1040 Y46.8096 F508.00 
G01 X4.0654 Y47.0038 
G01 X3.9896 Y47.1867 
G01 X3.8796 Y47.3514 
G01 X3.7396 Y47.4914 
G01 X3.5749 Y47.6014 
G01 X3.3920 Y47.6772 
G01 X3.1978 Y47.7158 
G01 X2.9998 Y47.7158 
G01 X2.8056 Y47.6772 
G01 X2.6227 Y47.6014 
G01 X2.4580 Y47.4914 
G01 X2.3180 Y47.3514 
G01 X2.2080 Y47.1867 
G01 X2.1322 Y47.0038 
G01 X2.0936 Y46.8096 
G01 X2.0936 Y46.6116 
G01 X2.1322 Y46.4174 
G01 X2.2080 Y46.2345 
G01 X2.3180 Y46.0698 
G01 X2.4580 Y45.9298 
G01 X2.6227 Y45.8198 
G01 X2.8056 Y45.7440 
G01 X2.9998 Y45.7054 
G01 X3.1978 Y45.7054 
G01 X3.3920 Y45.7440 
G01 X3.5749 Y45.8198 
G01 X3.7396 Y45.9298 
G01 X3.8796 Y46.0698 
G01 X3.9896 Y46.2345 
G01 X4.0654 Y46.4174 
G01 X4.1040 Y46.6116 
G00 Z2.5400 
G00 X77.0354 Y46.3770 
G01 Z-0.1500 F254.00 
G01 X77.0354 Y47.6030 F508.00 
G01 X77.0254 Y47.6270 
G01 X77.0070 Y47.6454 
G01 X76.9830 Y47.6554 
G01 X76.7654 Y47.6554 
G01 X76.7654 Y50.2046 
G01 X77.0330 Y50.2046 
G01 X77.0570 Y50.2146 
G01 X77.0754 Y50.2330 
G01 X77.0854 Y50.2570 
G01 X77.0854 Y51.6830 
G01 X77.0754 Y51.7070 
G01 X77.0570 Y51.7254 
G01 X77.0330 Y51.7354 
G01 X76.0070 Y51.7354 
G01 X75.9830 Y51.7254 
G01 X75.9646 Y51.7070 
G01 X75.9546 Y51.6830 
G01 X75.9546 Y50.2570 
G01 X75.9646 Y50.2330 
G01 X75.9830 Y50.2146 
G01 X76.0070 Y50.2046 
G01 X76.2346 Y50.2046 
G01 X76.2346 Y47.6554 
G01 X76.1570 Y47.6554 
G01 X76.1330 Y47.6454 
G01 X76.1146 Y47.6270 
G01 X76.1046 Y47.6030 
G01 X76.1046 Y46.3770 
G01 X76.1146 Y46.3530 
G01 X76.1330 Y46.3346 
G01 X76.1570 Y46.3246 
G01 X76.9830 Y46.3246 
G01 X77.0070 Y46.3346 
G01 X77.0254 Y46.3530 
G01 X77.0354 Y46.3770 
G00 Z2.5400 
G00 X78.8354 Y46.3770 
G01 Z-0.1500 F254.00 
G01 X78.8354 Y47.6030 F508.00 
G01 X78.8254 Y47.6270 
G01 X78.8070 Y47.6454 
G01 X78.7830 Y47.6554 
G01 X77.9570 Y47.6554 
G01 X77.9330 Y47.6454 
G01 X77.9146 Y47.6270 
G01 X77.9046 Y47.6030 
G01 X77.9046 Y46.7799 
G01 X75.3370 Y44.2124 
G01 X75.2876 Y44.1630 
G01 X75.2527 Y44.1024 
G01 X75.2346 Y44.0349 
G01 X75.2346 Y35.5089 
G01 X75.1479 Y35.4588 
G01 X75.0412 Y35.3521 
G01 X74.9657 Y35.2213 
G01 X74.9266 Y35.0755 
G01 X74.9266 Y34.9245 
G01 X74.9657 Y34.7787 
G01 X75.0412 Y34.6479 
G01 X75.1479 Y34.5412 
G01 X75.2787 Y34.4657 
G01 X75.4245 Y34.4266 
G01 X75.5755 Y34.4266 
G01 X75.7213 Y34.4657 
G01 X75.8521 Y34.5412 
G01 X75.9588 Y34.6479 
G01 X76.0343 Y34.7787 
G01 X76.0734 Y34.9245 
G01 X76.0734 Y35.0755 
G01 X76.0343 Y35.2213 
G01 X75.9588 Y35.3521 
G01 X75.8521 Y35.4588 
G01 X75.7654 Y35.5089 
G01 X75.7654 Y43.8901 
G01 X78.1999 Y46.3246 
G01 X78.7830 Y46.3246 
G01 X78.8070 Y46.3346 
G01 X78.8254 Y46.3530 
G01 X78.8354 Y46.3770 
G00 Z2.5400 
G00 X60.2144 Y62.5228 
G01 Z-0.1500 F254.00 
G01 X60.2144 Y64.1372 F508.00 
G01 X60.1839 Y64.2907 
G01 X60.1240 Y64.4353 
G01 X60.0370 Y64.5654 
G01 X59.9264 Y64.6760 
G01 X59.7963 Y64.7630 
G01 X59.6517 Y64.8229 
G01 X59.4982 Y64.8534 
G01 X59.3418 Y64.8534 
G01 X59.1883 Y64.8229 
G01 X59.0437 Y64.7630 
G01 X58.9136 Y64.6760 
G01 X58.8030 Y64.5654 
G01 X58.7160 Y64.4353 
G01 X58.6561 Y64.2907 
G01 X58.6256 Y64.1372 
G01 X58.6256 Y62.5228 
G01 X58.6561 Y62.3693 
G01 X58.7160 Y62.2247 
G01 X58.8030 Y62.0946 
G01 X58.9136 Y61.9840 
G01 X59.0437 Y61.8970 
G01 X59.1883 Y61.8371 
G01 X59.3418 Y61.8066 
G01 X59.4982 Y61.8066 
G01 X59.6517 Y61.8371 
G01 X59.7963 Y61.8970 
G01 X59.9264 Y61.9840 
G01 X60.0370 Y62.0946 
G01 X60.1240 Y62.2247 
G01 X60.1839 Y62.3693 
G01 X60.2144 Y62.5228 
G00 Z2.5400 
G00 X58.2144 Y62.5228 
G01 Z-0.1500 F254.00 
G01 X58.2144 Y64.1372 F508.00 
G01 X58.1839 Y64.2907 
G01 X58.1240 Y64.4353 
G01 X58.0370 Y64.5654 
G01 X57.9264 Y64.6760 
G01 X57.7963 Y64.7630 
G01 X57.6517 Y64.8229 
G01 X57.4982 Y64.8534 
G01 X57.3418 Y64.8534 
G01 X57.1883 Y64.8229 
G01 X57.0437 Y64.7630 
G01 X56.9136 Y64.6760 
G01 X56.8030 Y64.5654 
G01 X56.7160 Y64.4353 
G01 X56.6561 Y64.2907 
G01 X56.6256 Y64.1372 
G01 X56.6256 Y62.5228 
G01 X56.6561 Y62.3693 
G01 X56.7160 Y62.2247 
G01 X56.8030 Y62.0946 
G01 X56.9136 Y61.9840 
G01 X57.0437 Y61.8970 
G01 X57.1883 Y61.8371 
G01 X57.3418 Y61.8066 
G01 X57.4982 Y61.8066 
G01 X57.6517 Y61.8371 
G01 X57.7963 Y61.8970 
G01 X57.9264 Y61.9840 
G01 X58.0370 Y62.0946 
G01 X58.1240 Y62.2247 
G01 X58.1839 Y62.3693 
G01 X58.2144 Y62.5228 
G00 Z2.5400 
G00 X10.9874 Y37.2565 
G01 Z-0.1500 F254.00 
G01 X10.9874 Y38.9435 F508.00 
G01 X10.9556 Y39.1033 
G01 X10.8932 Y39.2539 
G01 X10.8027 Y39.3894 
G01 X10.6874 Y39.5047 
G01 X10.5519 Y39.5952 
G01 X10.4013 Y39.6576 
G01 X10.2415 Y39.6894 
G01 X10.0785 Y39.6894 
G01 X9.9187 Y39.6576 
G01 X9.7681 Y39.5952 
G01 X9.6326 Y39.5047 
G01 X9.5173 Y39.3894 
G01 X9.4268 Y39.2539 
G01 X9.3644 Y39.1033 
G01 X9.3326 Y38.9435 
G01 X9.3326 Y37.7079 
G01 X4.5870 Y32.9624 
G01 X4.5376 Y32.9130 
G01 X4.5027 Y32.8524 
G01 X4.4846 Y32.7849 
G01 X4.4846 Y12.4860 
G01 X4.0063 Y12.4860 
G01 X3.8421 Y12.4600 
G01 X3.6840 Y12.4086 
G01 X3.5359 Y12.3332 
G01 X3.4015 Y12.2355 
G01 X3.2839 Y12.1179 
G01 X3.1862 Y11.9835 
G01 X3.1108 Y11.8354 
G01 X3.0594 Y11.6773 
G01 X3.0334 Y11.5131 
G01 X3.0334 Y11.3469 
G01 X3.0594 Y11.1827 
G01 X3.1108 Y11.0246 
G01 X3.1862 Y10.8765 
G01 X3.2839 Y10.7421 
G01 X3.4015 Y10.6245 
G01 X3.5359 Y10.5268 
G01 X3.6840 Y10.4514 
G01 X3.8421 Y10.4000 
G01 X4.0063 Y10.3740 
G01 X6.1537 Y10.3740 
G01 X6.3179 Y10.4000 
G01 X6.4760 Y10.4514 
G01 X6.6241 Y10.5268 
G01 X6.7585 Y10.6245 
G01 X6.8761 Y10.7421 
G01 X6.9738 Y10.8765 
G01 X7.0492 Y11.0246 
G01 X7.1006 Y11.1827 
G01 X7.1266 Y11.3469 
G01 X7.1266 Y11.5131 
G01 X7.1006 Y11.6773 
G01 X7.0492 Y11.8354 
G01 X6.9738 Y11.9835 
G01 X6.8761 Y12.1179 
G01 X6.7585 Y12.2355 
G01 X6.6241 Y12.3332 
G01 X6.4760 Y12.4086 
G01 X6.3179 Y12.4600 
G01 X6.1537 Y12.4860 
G01 X5.0154 Y12.4860 
G01 X5.0154 Y32.6401 
G01 X9.3959 Y37.0206 
G01 X9.4268 Y36.9461 
G01 X9.5173 Y36.8106 
G01 X9.6326 Y36.6953 
G01 X9.7681 Y36.6048 
G01 X9.9187 Y36.5424 
G01 X10.0785 Y36.5106 
G01 X10.2415 Y36.5106 
G01 X10.4013 Y36.5424 
G01 X10.5519 Y36.6048 
G01 X10.6874 Y36.6953 
G01 X10.8027 Y36.8106 
G01 X10.8932 Y36.9461 
G01 X10.9556 Y37.0967 
G01 X10.9874 Y37.2565 
G00 Z2.5400 
G00 X5.9074 Y37.2565 
G01 Z-0.1500 F254.00 
G01 X5.9074 Y38.9435 F508.00 
G01 X5.8756 Y39.1033 
G01 X5.8132 Y39.2539 
G01 X5.7227 Y39.3894 
G01 X5.6074 Y39.5047 
G01 X5.4719 Y39.5952 
G01 X5.3213 Y39.6576 
G01 X5.1615 Y39.6894 
G01 X4.9985 Y39.6894 
G01 X4.8387 Y39.6576 
G01 X4.6881 Y39.5952 
G01 X4.5526 Y39.5047 
G01 X4.4373 Y39.3894 
G01 X4.3468 Y39.2539 
G01 X4.2844 Y39.1033 
G01 X4.2526 Y38.9435 
G01 X4.2526 Y37.2565 
G01 X4.2844 Y37.0967 
G01 X4.3468 Y36.9461 
G01 X4.4373 Y36.8106 
G01 X4.5526 Y36.6953 
G01 X4.6881 Y36.6048 
G01 X4.8387 Y36.5424 
G01 X4.9985 Y36.5106 
G01 X5.1615 Y36.5106 
G01 X5.3213 Y36.5424 
G01 X5.4719 Y36.6048 
G01 X5.6074 Y36.6953 
G01 X5.7227 Y36.8106 
G01 X5.8132 Y36.9461 
G01 X5.8756 Y37.0967 
G01 X5.9074 Y37.2565 
G00 Z2.5400 
G00 X29.3516 Y57.0735 
G01 Z-0.1500 F254.00 
G01 X29.3516 Y57.2265 F508.00 
G01 X29.3218 Y57.3765 
G01 X29.2632 Y57.5179 
G01 X29.1782 Y57.6451 
G01 X29.0701 Y57.7532 
G01 X28.9429 Y57.8382 
G01 X28.8015 Y57.8968 
G01 X28.6515 Y57.9266 
G01 X28.4985 Y57.9266 
G01 X28.3485 Y57.8968 
G01 X28.2071 Y57.8382 
G01 X28.0799 Y57.7532 
G01 X27.9718 Y57.6451 
G01 X27.8868 Y57.5179 
G01 X27.8282 Y57.3765 
G01 X27.7984 Y57.2265 
G01 X27.7984 Y57.0735 
G01 X27.8282 Y56.9235 
G01 X27.8868 Y56.7821 
G01 X27.9718 Y56.6549 
G01 X28.0799 Y56.5468 
G01 X28.2071 Y56.4618 
G01 X28.3485 Y56.4032 
G01 X28.4846 Y56.3762 
G01 X28.4846 Y52.7354 
G01 X28.4270 Y52.7354 
G01 X28.4030 Y52.7254 
G01 X28.3846 Y52.7070 
G01 X28.3746 Y52.6830 
G01 X28.3746 Y51.4570 
G01 X28.3846 Y51.4330 
G01 X28.4030 Y51.4146 
G01 X28.4270 Y51.4046 
G01 X29.2530 Y51.4046 
G01 X29.2770 Y51.4146 
G01 X29.2954 Y51.4330 
G01 X29.3054 Y51.4570 
G01 X29.3054 Y51.7346 
G01 X31.6546 Y51.7346 
G01 X31.6546 Y51.4570 
G01 X31.6646 Y51.4330 
G01 X31.6830 Y51.4146 
G01 X31.7070 Y51.4046 
G01 X32.5330 Y51.4046 
G01 X32.5570 Y51.4146 
G01 X32.5754 Y51.4330 
G01 X32.5854 Y51.4570 
G01 X32.5854 Y52.6830 
G01 X32.5754 Y52.7070 
G01 X32.5570 Y52.7254 
G01 X32.5330 Y52.7354 
G01 X31.7070 Y52.7354 
G01 X31.6830 Y52.7254 
G01 X31.6646 Y52.7070 
G01 X31.6546 Y52.6830 
G01 X31.6546 Y52.2654 
G01 X29.3054 Y52.2654 
G01 X29.3054 Y52.6830 
G01 X29.2954 Y52.7070 
G01 X29.2770 Y52.7254 
G01 X29.2530 Y52.7354 
G01 X29.0154 Y52.7354 
G01 X29.0154 Y56.5103 
G01 X29.0701 Y56.5468 
G01 X29.1782 Y56.6549 
G01 X29.2632 Y56.7821 
G01 X29.3218 Y56.9235 
G01 X29.3516 Y57.0735 
G00 Z2.5400 
G00 X26.8116 Y57.0735 
G01 Z-0.1500 F254.00 
G01 X26.8116 Y57.2265 F508.00 
G01 X26.7818 Y57.3765 
G01 X26.7232 Y57.5179 
G01 X26.6382 Y57.6451 
G01 X26.5301 Y57.7532 
G01 X26.4029 Y57.8382 
G01 X26.2615 Y57.8968 
G01 X26.1115 Y57.9266 
G01 X25.9585 Y57.9266 
G01 X25.8085 Y57.8968 
G01 X25.6671 Y57.8382 
G01 X25.5399 Y57.7532 
G01 X25.4318 Y57.6451 
G01 X25.3468 Y57.5179 
G01 X25.2882 Y57.3765 
G01 X25.2584 Y57.2265 
G01 X25.2584 Y57.0735 
G01 X25.2882 Y56.9235 
G01 X25.3468 Y56.7821 
G01 X25.4318 Y56.6549 
G01 X25.5399 Y56.5468 
G01 X25.6671 Y56.4618 
G01 X25.7346 Y56.4338 
G01 X25.7346 Y49.3599 
G01 X24.9620 Y48.5874 
G01 X22.7601 Y46.3854 
G01 X22.0770 Y46.3854 
G01 X22.0530 Y46.3754 
G01 X22.0346 Y46.3570 
G01 X22.0246 Y46.3330 
G01 X22.0246 Y45.1070 
G01 X22.0346 Y45.0830 
G01 X22.0530 Y45.0646 
G01 X22.0770 Y45.0546 
G01 X22.9030 Y45.0546 
G01 X22.9270 Y45.0646 
G01 X22.9454 Y45.0830 
G01 X22.9554 Y45.1070 
G01 X22.9554 Y45.8301 
G01 X24.9846 Y47.8593 
G01 X24.9846 Y13.9651 
G01 X25.0027 Y13.8976 
G01 X25.0376 Y13.8370 
G01 X25.0870 Y13.7876 
G01 X26.4924 Y12.3823 
G01 X26.3959 Y12.3332 
G01 X26.2615 Y12.2355 
G01 X26.1439 Y12.1179 
G01 X26.0462 Y11.9835 
G01 X25.9708 Y11.8354 
G01 X25.9194 Y11.6773 
G01 X25.8934 Y11.5131 
G01 X25.8934 Y11.3469 
G01 X25.9194 Y11.1827 
G01 X25.9708 Y11.0246 
G01 X26.0462 Y10.8765 
G01 X26.1439 Y10.7421 
G01 X26.2615 Y10.6245 
G01 X26.3959 Y10.5268 
G01 X26.5440 Y10.4514 
G01 X26.7021 Y10.4000 
G01 X26.8663 Y10.3740 
G01 X29.0137 Y10.3740 
G01 X29.1779 Y10.4000 
G01 X29.3360 Y10.4514 
G01 X29.4841 Y10.5268 
G01 X29.6185 Y10.6245 
G01 X29.7361 Y10.7421 
G01 X29.8338 Y10.8765 
G01 X29.9092 Y11.0246 
G01 X29.9606 Y11.1827 
G01 X29.9866 Y11.3469 
G01 X29.9866 Y11.5131 
G01 X29.9606 Y11.6773 
G01 X29.9092 Y11.8354 
G01 X29.8338 Y11.9835 
G01 X29.7361 Y12.1179 
G01 X29.6185 Y12.2355 
G01 X29.4841 Y12.3332 
G01 X29.3360 Y12.4086 
G01 X29.1779 Y12.4600 
G01 X29.0137 Y12.4860 
G01 X27.1393 Y12.4860 
G01 X25.5154 Y14.1099 
G01 X25.5154 Y48.2849 
G01 X25.4973 Y48.3524 
G01 X25.4902 Y48.3648 
G01 X26.1630 Y49.0376 
G01 X26.2124 Y49.0870 
G01 X26.2473 Y49.1476 
G01 X26.2654 Y49.2151 
G01 X26.2654 Y56.4049 
G01 X26.4029 Y56.4618 
G01 X26.5301 Y56.5468 
G01 X26.6382 Y56.6549 
G01 X26.7232 Y56.7821 
G01 X26.7818 Y56.9235 
G01 X26.8116 Y57.0735 
G00 Z2.5400 
G00 X73.2335 Y23.6874 
G01 Z-0.1500 F254.00 
G01 X71.5465 Y23.6874 F508.00 
G01 X71.3867 Y23.6556 
G01 X71.2361 Y23.5932 
G01 X71.1006 Y23.5027 
G01 X70.9853 Y23.3874 
G01 X70.8948 Y23.2519 
G01 X70.8324 Y23.1013 
G01 X70.8006 Y22.9415 
G01 X70.8006 Y22.7785 
G01 X70.8324 Y22.6187 
G01 X70.8948 Y22.4681 
G01 X70.9853 Y22.3326 
G01 X71.1006 Y22.2173 
G01 X71.2361 Y22.1268 
G01 X71.3867 Y22.0644 
G01 X71.5465 Y22.0326 
G01 X73.2335 Y22.0326 
G01 X73.3933 Y22.0644 
G01 X73.5439 Y22.1268 
G01 X73.6794 Y22.2173 
G01 X73.7947 Y22.3326 
G01 X73.8852 Y22.4681 
G01 X73.9476 Y22.6187 
G01 X73.9794 Y22.7785 
G01 X73.9794 Y22.9415 
G01 X73.9476 Y23.1013 
G01 X73.8852 Y23.2519 
G01 X73.7947 Y23.3874 
G01 X73.6794 Y23.5027 
G01 X73.5439 Y23.5932 
G01 X73.3933 Y23.6556 
G01 X73.2335 Y23.6874 
G00 Z2.5400 
G00 X73.2335 Y18.6074 
G01 Z-0.1500 F254.00 
G01 X71.5465 Y18.6074 F508.00 
G01 X71.3867 Y18.5756 
G01 X71.2361 Y18.5132 
G01 X71.1006 Y18.4227 
G01 X70.9853 Y18.3074 
G01 X70.8948 Y18.1719 
G01 X70.8324 Y18.0213 
G01 X70.8006 Y17.8615 
G01 X70.8006 Y17.6985 
G01 X70.8324 Y17.5387 
G01 X70.8948 Y17.3881 
G01 X70.9853 Y17.2526 
G01 X71.1006 Y17.1373 
G01 X71.2361 Y17.0468 
G01 X71.3867 Y16.9844 
G01 X71.5465 Y16.9526 
G01 X73.2335 Y16.9526 
G01 X73.3933 Y16.9844 
G01 X73.5439 Y17.0468 
G01 X73.6794 Y17.1373 
G01 X73.7947 Y17.2526 
G01 X73.8852 Y17.3881 
G01 X73.9476 Y17.5387 
G01 X73.9794 Y17.6985 
G01 X73.9794 Y17.8615 
G01 X73.9476 Y18.0213 
G01 X73.8852 Y18.1719 
G01 X73.7947 Y18.3074 
G01 X73.6794 Y18.4227 
G01 X73.5439 Y18.5132 
G01 X73.3933 Y18.5756 
G01 X73.2335 Y18.6074 
G00 Z2.5400 
G00 X71.5465 Y10.9874 
G01 Z-0.1500 F254.00 
G01 X71.3867 Y10.9556 F508.00 
G01 X71.2361 Y10.8932 
G01 X71.1006 Y10.8027 
G01 X70.9853 Y10.6874 
G01 X70.8948 Y10.5519 
G01 X70.8324 Y10.4013 
G01 X70.8006 Y10.2415 
G01 X70.8006 Y10.0785 
G01 X70.8324 Y9.9187 
G01 X70.8948 Y9.7681 
G01 X70.9853 Y9.6326 
G01 X71.1006 Y9.5173 
G01 X71.2361 Y9.4268 
G01 X71.3867 Y9.3644 
G01 X71.5465 Y9.3326 
G01 X73.2335 Y9.3326 
G01 X73.3933 Y9.3644 
G01 X73.5439 Y9.4268 
G01 X73.6794 Y9.5173 
G01 X73.7947 Y9.6326 
G01 X73.8852 Y9.7681 
G01 X73.9476 Y9.9187 
G01 X73.9794 Y10.0785 
G01 X73.9794 Y10.2415 
G01 X73.9476 Y10.4013 
G01 X73.8852 Y10.5519 
G01 X73.7947 Y10.6874 
G01 X73.6794 Y10.8027 
G01 X73.5439 Y10.8932 
G01 X73.5260 Y10.9007 
G01 X74.6630 Y12.0376 
G01 X74.7124 Y12.0870 
G01 X74.7473 Y12.1476 
G01 X74.7654 Y12.2151 
G01 X74.7654 Y13.2849 
G01 X74.7473 Y13.3524 
G01 X74.7124 Y13.4130 
G01 X73.5887 Y14.5367 
G01 X73.6794 Y14.5973 
G01 X73.7947 Y14.7126 
G01 X73.8852 Y14.8481 
G01 X73.9476 Y14.9987 
G01 X73.9794 Y15.1585 
G01 X73.9794 Y15.3215 
G01 X73.9476 Y15.4813 
G01 X73.8852 Y15.6319 
G01 X73.7947 Y15.7674 
G01 X73.7187 Y15.8434 
G01 X74.6630 Y16.7876 
G01 X74.7124 Y16.8370 
G01 X74.7473 Y16.8976 
G01 X74.7654 Y16.9651 
G01 X74.7654 Y22.0349 
G01 X74.7473 Y22.1024 
G01 X74.7402 Y22.1148 
G01 X79.4624 Y26.8370 
G01 X79.4973 Y26.8976 
G01 X79.5154 Y26.9651 
G01 X79.5154 Y50.0349 
G01 X79.4973 Y50.1024 
G01 X79.4624 Y50.1630 
G01 X79.4130 Y50.2124 
G01 X78.9854 Y50.6399 
G01 X78.9854 Y51.6830 
G01 X78.9754 Y51.7070 
G01 X78.9570 Y51.7254 
G01 X78.9330 Y51.7354 
G01 X77.9070 Y51.7354 
G01 X77.8830 Y51.7254 
G01 X77.8646 Y51.7070 
G01 X77.8546 Y51.6830 
G01 X77.8546 Y50.2570 
G01 X77.8646 Y50.2330 
G01 X77.8830 Y50.2146 
G01 X77.9070 Y50.2046 
G01 X78.6701 Y50.2046 
G01 X78.9846 Y49.8901 
G01 X78.9846 Y27.1099 
G01 X74.2120 Y22.3374 
G01 X74.1626 Y22.2880 
G01 X73.0221 Y21.1474 
G01 X71.5465 Y21.1474 
G01 X71.3867 Y21.1156 
G01 X71.2361 Y21.0532 
G01 X71.1006 Y20.9627 
G01 X70.9853 Y20.8474 
G01 X70.8948 Y20.7119 
G01 X70.8324 Y20.5613 
G01 X70.8006 Y20.4015 
G01 X70.8006 Y20.2385 
G01 X70.8324 Y20.0787 
G01 X70.8948 Y19.9281 
G01 X70.9853 Y19.7926 
G01 X71.1006 Y19.6773 
G01 X71.2361 Y19.5868 
G01 X71.3867 Y19.5244 
G01 X71.5465 Y19.4926 
G01 X73.2335 Y19.4926 
G01 X73.3933 Y19.5244 
G01 X73.5439 Y19.5868 
G01 X73.6794 Y19.6773 
G01 X73.7947 Y19.7926 
G01 X73.8852 Y19.9281 
G01 X73.9476 Y20.0787 
G01 X73.9794 Y20.2385 
G01 X73.9794 Y20.4015 
G01 X73.9476 Y20.5613 
G01 X73.8852 Y20.7119 
G01 X73.7947 Y20.8474 
G01 X73.6794 Y20.9627 
G01 X73.6246 Y20.9993 
G01 X74.2346 Y21.6093 
G01 X74.2346 Y17.1099 
G01 X73.1921 Y16.0674 
G01 X71.5465 Y16.0674 
G01 X71.3867 Y16.0356 
G01 X71.2361 Y15.9732 
G01 X71.1006 Y15.8827 
G01 X70.9853 Y15.7674 
G01 X70.8948 Y15.6319 
G01 X70.8324 Y15.4813 
G01 X70.8006 Y15.3215 
G01 X70.8006 Y15.1585 
G01 X70.8324 Y14.9987 
G01 X70.8948 Y14.8481 
G01 X70.9853 Y14.7126 
G01 X71.1006 Y14.5973 
G01 X71.2361 Y14.5068 
G01 X71.3867 Y14.4444 
G01 X71.5465 Y14.4126 
G01 X72.9621 Y14.4126 
G01 X74.2346 Y13.1401 
G01 X74.2346 Y12.3599 
G01 X72.8621 Y10.9874 
G01 X71.5465 Y10.9874 
G00 Z2.5400 
G00 X73.2335 Y8.4474 
G01 Z-0.1500 F254.00 
G01 X71.5465 Y8.4474 F508.00 
G01 X71.3867 Y8.4156 
G01 X71.2361 Y8.3532 
G01 X71.1006 Y8.2627 
G01 X70.9853 Y8.1474 
G01 X70.8948 Y8.0119 
G01 X70.8324 Y7.8613 
G01 X70.8006 Y7.7015 
G01 X70.8006 Y7.5385 
G01 X70.8324 Y7.3787 
G01 X70.8948 Y7.2281 
G01 X70.9853 Y7.0926 
G01 X71.1006 Y6.9773 
G01 X71.2361 Y6.8868 
G01 X71.3867 Y6.8244 
G01 X71.5465 Y6.7926 
