(.../pcb-gcode-3.6.0.4/pcb-gcode.ulp)
(Copyright 2005 - 2012 by John Johnson)
(See readme.txt for licensing terms.)
(This file generated from the board:)
(.../eagle/ARMEDBASE_V0/MCU/MCU.brd)
(Current profile is .../pcb-gcode-3.6.0.4/profiles/emc.pp  )
(This file generated 6/20/2014 1:39:48 PM)
(Settings from pcb-machine.h)
(  Tool Size)
(0.2000 )
(Z Axis Settings)
(  High     Up        Down     Drill)
(12.7000 	2.5400 	-0.1500 	-0.8128 )
(spindle on time = 3.0000)
(milling depth = -0.1500)
(text depth = -0.1270)
(tool change at 12.7000 15.2400 25.4000 )
(feed rate xy = F508.00 )
(feed rate z  = F254.00 )
(Settings from pcb-defaults.h)
(isolate min = 0.0154)
(isolate max = 0.5080)
(isolate step = 0.1270)
(Generated top outlines, top drill, bottom outlines, bottom drill, )
(Unit of measure: mm)
(Metric Mode)
G21
(Absolute Coordinates)
G90
G00 X0.0000 Y0.0000 
M03
G04 P3.000000
G00 Z2.5400 
G00 X59.5446 Y73.0130 
G01 Z-0.1500 F254.00 
G01 X59.5446 Y72.5874 F508.00 
G01 X59.4845 Y72.5273 
G01 X41.8096 Y54.8524 
G01 X38.0518 Y54.8524 
G01 X37.9627 Y54.8155 
G01 X37.8945 Y54.7473 
G01 X37.8576 Y54.6582 
G01 X37.8576 Y49.6304 
G01 X34.3466 Y46.1194 
G01 X34.2830 Y46.2145 
G01 X34.1749 Y46.3226 
G01 X34.0479 Y46.4075 
G01 X33.9067 Y46.4660 
G01 X33.7568 Y46.4958 
G01 X32.2832 Y46.4958 
G01 X32.1333 Y46.4660 
G01 X31.9921 Y46.4075 
G01 X31.8651 Y46.3226 
G01 X31.7570 Y46.2145 
G01 X31.6721 Y46.0875 
G01 X31.6136 Y45.9463 
G01 X31.5838 Y45.7964 
G01 X31.5838 Y45.6436 
G01 X31.6136 Y45.4937 
G01 X31.6721 Y45.3525 
G01 X31.7570 Y45.2255 
G01 X31.8651 Y45.1174 
G01 X31.9921 Y45.0325 
G01 X32.1333 Y44.9740 
G01 X32.2832 Y44.9442 
G01 X33.7568 Y44.9442 
G01 X33.9067 Y44.9740 
G01 X34.0479 Y45.0325 
G01 X34.1749 Y45.1174 
G01 X34.2830 Y45.2255 
G01 X34.3679 Y45.3525 
G01 X34.4264 Y45.4937 
G01 X34.4313 Y45.5185 
G01 X34.4955 Y45.5827 
G01 X38.3055 Y49.3927 
G01 X38.3424 Y49.4818 
G01 X38.3424 Y54.3676 
G01 X41.9582 Y54.3676 
G01 X42.0473 Y54.4045 
G01 X42.1155 Y54.4727 
G01 X59.5446 Y71.9018 
G01 X59.5446 Y71.7670 
G01 X59.5622 Y71.7246 
G01 X59.5946 Y71.6922 
G01 X59.6370 Y71.6746 
G01 X60.4830 Y71.6746 
G01 X60.5254 Y71.6922 
G01 X60.5578 Y71.7246 
G01 X60.5754 Y71.7670 
G01 X60.5754 Y73.0130 
G01 X60.5578 Y73.0554 
G01 X60.5254 Y73.0878 
G01 X60.4830 Y73.1054 
G01 X59.6370 Y73.1054 
G01 X59.5946 Y73.0878 
G01 X59.5622 Y73.0554 
G01 X59.5446 Y73.0130 
G00 Z2.5400 
G00 X61.3446 Y73.0130 
G01 Z-0.1500 F254.00 
G01 X61.3446 Y71.7670 F508.00 
G01 X61.3622 Y71.7246 
G01 X61.3946 Y71.6922 
G01 X61.4370 Y71.6746 
G01 X62.2830 Y71.6746 
G01 X62.3254 Y71.6922 
G01 X62.3578 Y71.7246 
G01 X62.3754 Y71.7670 
G01 X62.3754 Y72.1476 
G01 X65.7446 Y72.1476 
G01 X65.7446 Y71.8370 
G01 X65.7622 Y71.7946 
G01 X65.7946 Y71.7622 
G01 X65.8370 Y71.7446 
G01 X66.8830 Y71.7446 
G01 X66.9254 Y71.7622 
G01 X66.9578 Y71.7946 
G01 X66.9754 Y71.8370 
G01 X66.9754 Y73.2830 
G01 X66.9578 Y73.3254 
G01 X66.9254 Y73.3578 
G01 X66.8830 Y73.3754 
G01 X65.8370 Y73.3754 
G01 X65.7946 Y73.3578 
G01 X65.7622 Y73.3254 
G01 X65.7446 Y73.2830 
G01 X65.7446 Y72.6324 
G01 X62.3754 Y72.6324 
G01 X62.3754 Y73.0130 
G01 X62.3578 Y73.0554 
G01 X62.3254 Y73.0878 
G01 X62.2830 Y73.1054 
G01 X61.4370 Y73.1054 
G01 X61.3946 Y73.0878 
G01 X61.3622 Y73.0554 
G01 X61.3446 Y73.0130 
G00 Z2.5400 
G00 X5.4240 Y66.9476 
G01 Z-0.1500 F254.00 
G01 X5.4240 Y67.1136 F508.00 
G01 X5.3980 Y67.2777 
G01 X5.3467 Y67.4357 
G01 X5.2713 Y67.5836 
G01 X5.1737 Y67.7180 
G01 X5.0562 Y67.8355 
G01 X4.9218 Y67.9331 
G01 X4.7739 Y68.0085 
G01 X4.6159 Y68.0598 
G01 X4.4518 Y68.0858 
G01 X4.2858 Y68.0858 
G01 X4.1217 Y68.0598 
G01 X3.9637 Y68.0085 
G01 X3.8158 Y67.9331 
G01 X3.6814 Y67.8355 
G01 X3.5639 Y67.7180 
G01 X3.4663 Y67.5836 
G01 X3.3909 Y67.4357 
G01 X3.3396 Y67.2777 
G01 X3.3136 Y67.1136 
G01 X3.3136 Y66.9476 
G01 X3.3396 Y66.7835 
G01 X3.3909 Y66.6255 
G01 X3.4663 Y66.4776 
G01 X3.5639 Y66.3432 
G01 X3.6814 Y66.2257 
G01 X3.8158 Y66.1281 
G01 X3.9637 Y66.0527 
G01 X4.1217 Y66.0014 
G01 X4.2858 Y65.9754 
G01 X4.4518 Y65.9754 
G01 X4.6159 Y66.0014 
G01 X4.7739 Y66.0527 
G01 X4.9218 Y66.1281 
G01 X5.0562 Y66.2257 
G01 X5.1737 Y66.3432 
G01 X5.2713 Y66.4776 
G01 X5.3467 Y66.6255 
G01 X5.3980 Y66.7835 
G01 X5.4240 Y66.9476 
G00 Z2.5400 
G00 X5.4240 Y62.4264 
G01 Z-0.1500 F254.00 
G01 X5.4240 Y62.5924 F508.00 
G01 X5.3980 Y62.7565 
G01 X5.3467 Y62.9145 
G01 X5.2713 Y63.0624 
G01 X5.1737 Y63.1968 
G01 X5.0562 Y63.3143 
G01 X4.9218 Y63.4119 
G01 X4.7739 Y63.4873 
G01 X4.6159 Y63.5386 
G01 X4.4518 Y63.5646 
G01 X4.2858 Y63.5646 
G01 X4.1217 Y63.5386 
G01 X3.9637 Y63.4873 
G01 X3.8158 Y63.4119 
G01 X3.6814 Y63.3143 
G01 X3.5639 Y63.1968 
G01 X3.4663 Y63.0624 
G01 X3.3909 Y62.9145 
G01 X3.3396 Y62.7565 
G01 X3.3136 Y62.5924 
G01 X3.3136 Y62.4264 
G01 X3.3396 Y62.2623 
G01 X3.3909 Y62.1043 
G01 X3.4663 Y61.9564 
G01 X3.5639 Y61.8220 
G01 X3.6814 Y61.7045 
G01 X3.8158 Y61.6069 
G01 X3.9637 Y61.5315 
G01 X4.1217 Y61.4802 
G01 X4.2858 Y61.4542 
G01 X4.4518 Y61.4542 
G01 X4.6159 Y61.4802 
G01 X4.7739 Y61.5315 
G01 X4.9218 Y61.6069 
G01 X5.0562 Y61.7045 
G01 X5.1737 Y61.8220 
G01 X5.2713 Y61.9564 
G01 X5.3467 Y62.1043 
G01 X5.3980 Y62.2623 
G01 X5.4240 Y62.4264 
G00 Z2.5400 
G00 X11.9264 Y62.4264 
G01 Z-0.1500 F254.00 
G01 X11.9264 Y62.5924 F508.00 
G01 X11.9004 Y62.7565 
G01 X11.8491 Y62.9145 
G01 X11.7737 Y63.0624 
G01 X11.6761 Y63.1968 
G01 X11.5586 Y63.3143 
G01 X11.4242 Y63.4119 
G01 X11.2763 Y63.4873 
G01 X11.1183 Y63.5386 
G01 X10.9542 Y63.5646 
G01 X10.7881 Y63.5646 
G01 X10.6241 Y63.5386 
G01 X10.4661 Y63.4873 
G01 X10.3182 Y63.4119 
G01 X10.1838 Y63.3143 
G01 X10.0663 Y63.1968 
G01 X9.9687 Y63.0624 
G01 X9.8933 Y62.9145 
G01 X9.8420 Y62.7565 
G01 X9.8160 Y62.5924 
G01 X9.8160 Y62.4264 
G01 X9.8420 Y62.2623 
G01 X9.8933 Y62.1043 
G01 X9.9687 Y61.9564 
G01 X10.0663 Y61.8220 
G01 X10.1838 Y61.7045 
G01 X10.3182 Y61.6069 
G01 X10.4661 Y61.5315 
G01 X10.6241 Y61.4802 
G01 X10.7881 Y61.4542 
G01 X10.9542 Y61.4542 
G01 X11.1183 Y61.4802 
G01 X11.2763 Y61.5315 
G01 X11.4242 Y61.6069 
G01 X11.5586 Y61.7045 
G01 X11.6761 Y61.8220 
G01 X11.7737 Y61.9564 
G01 X11.8491 Y62.1043 
G01 X11.9004 Y62.2623 
G01 X11.9264 Y62.4264 
G00 Z2.5400 
G00 X17.9254 Y83.1970 
G01 Z-0.1500 F254.00 
G01 X17.9254 Y83.6226 F508.00 
G01 X17.9855 Y83.6827 
G01 X18.0224 Y83.7718 
G01 X18.0224 Y83.8682 
G01 X17.9855 Y83.9573 
G01 X17.9254 Y84.0174 
G01 X17.9254 Y84.4430 
G01 X17.9078 Y84.4854 
G01 X17.8754 Y84.5178 
G01 X17.8330 Y84.5354 
G01 X16.9870 Y84.5354 
G01 X16.9446 Y84.5178 
G01 X16.9122 Y84.4854 
G01 X16.8946 Y84.4430 
G01 X16.8946 Y83.2774 
G01 X16.3727 Y82.7555 
G01 X16.3045 Y82.6873 
G01 X16.2676 Y82.5982 
G01 X16.2676 Y76.1518 
G01 X16.3045 Y76.0627 
G01 X23.7872 Y68.5800 
G01 X21.3845 Y66.1773 
G01 X21.3476 Y66.0882 
G01 X21.3476 Y62.3304 
G01 X17.9254 Y58.9082 
G01 X17.9254 Y59.0430 
G01 X17.9078 Y59.0854 
G01 X17.8754 Y59.1178 
G01 X17.8330 Y59.1354 
G01 X16.9870 Y59.1354 
G01 X16.9446 Y59.1178 
G01 X16.9122 Y59.0854 
G01 X16.8946 Y59.0430 
G01 X16.8946 Y57.7970 
G01 X16.9122 Y57.7546 
G01 X16.9446 Y57.7222 
G01 X16.9870 Y57.7046 
G01 X17.8330 Y57.7046 
G01 X17.8754 Y57.7222 
G01 X17.9078 Y57.7546 
G01 X17.9254 Y57.7970 
G01 X17.9254 Y58.2226 
G01 X17.9855 Y58.2827 
G01 X21.7273 Y62.0245 
G01 X21.7955 Y62.0927 
G01 X21.8324 Y62.1818 
G01 X21.8324 Y65.9396 
G01 X24.2673 Y68.3745 
G01 X24.3355 Y68.4427 
G01 X31.6934 Y75.8006 
G01 X31.7570 Y75.7055 
G01 X31.8651 Y75.5974 
G01 X31.9921 Y75.5125 
G01 X32.1333 Y75.4540 
G01 X32.2832 Y75.4242 
G01 X33.7568 Y75.4242 
G01 X33.9067 Y75.4540 
G01 X34.0479 Y75.5125 
G01 X34.1749 Y75.5974 
G01 X34.2830 Y75.7055 
G01 X34.3679 Y75.8325 
G01 X34.4264 Y75.9737 
G01 X34.4562 Y76.1236 
G01 X34.4562 Y76.2764 
G01 X34.4264 Y76.4263 
G01 X34.3679 Y76.5675 
G01 X34.2830 Y76.6945 
G01 X34.1749 Y76.8026 
G01 X34.0479 Y76.8875 
G01 X33.9067 Y76.9460 
G01 X33.7568 Y76.9758 
G01 X32.2832 Y76.9758 
G01 X32.1333 Y76.9460 
G01 X31.9921 Y76.8875 
G01 X31.8651 Y76.8026 
G01 X31.7570 Y76.6945 
G01 X31.6721 Y76.5675 
G01 X31.6136 Y76.4263 
G01 X31.6087 Y76.4015 
G01 X31.5445 Y76.3373 
G01 X24.1300 Y68.9228 
G01 X16.7524 Y76.3004 
G01 X16.7524 Y82.4496 
G01 X17.4074 Y83.1046 
G01 X17.8330 Y83.1046 
G01 X17.8754 Y83.1222 
G01 X17.9078 Y83.1546 
G01 X17.9254 Y83.1970 
G00 Z2.5400 
G00 X17.9254 Y61.6070 
G01 Z-0.1500 F254.00 
G01 X17.9254 Y62.0326 F508.00 
G01 X17.9855 Y62.0927 
G01 X18.0224 Y62.1818 
G01 X18.0224 Y62.2782 
G01 X17.9855 Y62.3673 
G01 X17.9254 Y62.4274 
G01 X17.9254 Y62.8530 
G01 X17.9078 Y62.8954 
G01 X17.8754 Y62.9278 
G01 X17.8330 Y62.9454 
G01 X16.9870 Y62.9454 
G01 X16.9446 Y62.9278 
G01 X16.9122 Y62.8954 
G01 X16.8946 Y62.8530 
G01 X16.8946 Y61.6874 
G01 X16.3727 Y61.1655 
G01 X16.3045 Y61.0973 
G01 X16.2676 Y61.0082 
G01 X16.2676 Y57.1018 
G01 X16.3045 Y57.0127 
G01 X16.3727 Y56.9445 
G01 X16.4618 Y56.9076 
G01 X22.9082 Y56.9076 
G01 X22.9973 Y56.9445 
G01 X23.0655 Y57.0127 
G01 X23.1024 Y57.1018 
G01 X23.1024 Y57.8348 
G01 X23.8876 Y57.0496 
G01 X23.8876 Y55.8318 
G01 X23.9245 Y55.7427 
G01 X23.9927 Y55.6745 
G01 X24.0818 Y55.6376 
G01 X31.6203 Y55.6376 
G01 X31.6721 Y55.5125 
G01 X31.7570 Y55.3855 
G01 X31.8651 Y55.2774 
G01 X31.9921 Y55.1925 
G01 X32.1333 Y55.1340 
G01 X32.2832 Y55.1042 
G01 X33.7568 Y55.1042 
G01 X33.9067 Y55.1340 
G01 X34.0479 Y55.1925 
G01 X34.1749 Y55.2774 
G01 X34.2830 Y55.3855 
G01 X34.3679 Y55.5125 
G01 X34.4264 Y55.6537 
G01 X34.4562 Y55.8036 
G01 X34.4562 Y55.9564 
G01 X34.4264 Y56.1063 
G01 X34.3679 Y56.2475 
G01 X34.2830 Y56.3745 
G01 X34.1749 Y56.4826 
G01 X34.0479 Y56.5675 
G01 X33.9067 Y56.6260 
G01 X33.7568 Y56.6558 
G01 X32.2832 Y56.6558 
G01 X32.1333 Y56.6260 
G01 X31.9921 Y56.5675 
G01 X31.8651 Y56.4826 
G01 X31.7570 Y56.3745 
G01 X31.6721 Y56.2475 
G01 X31.6203 Y56.1224 
G01 X24.3724 Y56.1224 
G01 X24.3724 Y57.1982 
G01 X24.3355 Y57.2873 
G01 X23.1024 Y58.5204 
G01 X23.1024 Y60.5906 
G01 X23.7720 Y60.5906 
G01 X23.8144 Y60.6082 
G01 X23.8468 Y60.6406 
G01 X23.8644 Y60.6830 
G01 X23.8644 Y65.8090 
G01 X23.8468 Y65.8514 
G01 X23.8144 Y65.8838 
G01 X23.7720 Y65.9014 
G01 X21.9480 Y65.9014 
G01 X21.9056 Y65.8838 
G01 X21.8732 Y65.8514 
G01 X21.8556 Y65.8090 
G01 X21.8556 Y60.6830 
G01 X21.8732 Y60.6406 
G01 X21.9056 Y60.6082 
G01 X21.9480 Y60.5906 
G01 X22.6176 Y60.5906 
G01 X22.6176 Y57.3924 
G01 X16.7524 Y57.3924 
G01 X16.7524 Y60.8596 
G01 X17.4074 Y61.5146 
G01 X17.8330 Y61.5146 
G01 X17.8754 Y61.5322 
G01 X17.9078 Y61.5646 
G01 X17.9254 Y61.6070 
G00 Z2.5400 
G00 X16.1254 Y61.6070 
G01 Z-0.1500 F254.00 
G01 X16.1254 Y62.8530 F508.00 
G01 X16.1078 Y62.8954 
G01 X16.0754 Y62.9278 
G01 X16.0330 Y62.9454 
G01 X15.1870 Y62.9454 
G01 X15.1446 Y62.9278 
G01 X15.1122 Y62.8954 
G01 X15.0946 Y62.8530 
G01 X15.0946 Y62.7182 
G01 X11.6724 Y66.1404 
G01 X11.6724 Y66.3395 
G01 X11.6761 Y66.3432 
G01 X11.7737 Y66.4776 
G01 X11.8491 Y66.6255 
G01 X11.9004 Y66.7835 
G01 X11.9264 Y66.9476 
G01 X11.9264 Y67.1136 
G01 X11.9004 Y67.2777 
G01 X11.8491 Y67.4357 
G01 X11.7737 Y67.5836 
G01 X11.6761 Y67.7180 
G01 X11.6724 Y67.7217 
G01 X11.6724 Y78.4976 
G01 X15.0946 Y78.4976 
G01 X15.0946 Y78.1170 
G01 X15.1122 Y78.0746 
G01 X15.1446 Y78.0422 
G01 X15.1870 Y78.0246 
G01 X16.0330 Y78.0246 
G01 X16.0754 Y78.0422 
G01 X16.1078 Y78.0746 
G01 X16.1254 Y78.1170 
G01 X16.1254 Y79.3630 
G01 X16.1078 Y79.4054 
G01 X16.0754 Y79.4378 
G01 X16.0330 Y79.4554 
G01 X15.1870 Y79.4554 
G01 X15.1446 Y79.4378 
G01 X15.1122 Y79.4054 
G01 X15.0946 Y79.3630 
G01 X15.0946 Y78.9824 
G01 X11.6724 Y78.9824 
G01 X11.6724 Y79.4247 
G01 X11.7959 Y79.4247 
G01 X11.8383 Y79.4423 
G01 X11.8707 Y79.4747 
G01 X11.8883 Y79.5171 
G01 X11.8883 Y81.0617 
G01 X11.8707 Y81.1041 
G01 X11.8383 Y81.1365 
G01 X11.7959 Y81.1541 
G01 X9.7433 Y81.1541 
G01 X9.7009 Y81.1365 
G01 X9.6685 Y81.1041 
G01 X9.6509 Y81.0617 
G01 X9.6509 Y79.5171 
G01 X9.6685 Y79.4747 
G01 X9.7009 Y79.4423 
G01 X9.7433 Y79.4247 
G01 X11.1876 Y79.4247 
G01 X11.1876 Y68.0373 
G01 X11.1183 Y68.0598 
G01 X10.9542 Y68.0858 
G01 X10.7881 Y68.0858 
G01 X10.6241 Y68.0598 
G01 X10.4661 Y68.0085 
G01 X10.3182 Y67.9331 
G01 X10.1838 Y67.8355 
G01 X10.0663 Y67.7180 
G01 X9.9687 Y67.5836 
G01 X9.8933 Y67.4357 
G01 X9.8420 Y67.2777 
G01 X9.8160 Y67.1136 
G01 X9.8160 Y66.9476 
G01 X9.8420 Y66.7835 
G01 X9.8933 Y66.6255 
G01 X9.9687 Y66.4776 
G01 X10.0663 Y66.3432 
G01 X10.1838 Y66.2257 
G01 X10.3182 Y66.1281 
G01 X10.4661 Y66.0527 
G01 X10.6241 Y66.0014 
G01 X10.7881 Y65.9754 
G01 X10.9542 Y65.9754 
G01 X11.1183 Y66.0014 
G01 X11.1876 Y66.0239 
G01 X11.1876 Y65.9918 
G01 X11.2245 Y65.9027 
G01 X11.2927 Y65.8345 
G01 X14.9976 Y62.1296 
G01 X14.9976 Y54.5618 
G01 X15.0345 Y54.4727 
G01 X15.0946 Y54.4126 
G01 X15.0946 Y53.9870 
G01 X15.1122 Y53.9446 
G01 X15.1446 Y53.9122 
G01 X15.1870 Y53.8946 
G01 X16.0330 Y53.8946 
G01 X16.0754 Y53.9122 
G01 X16.1078 Y53.9446 
G01 X16.1254 Y53.9870 
G01 X16.1254 Y55.2330 
G01 X16.1078 Y55.2754 
G01 X16.0754 Y55.3078 
G01 X16.0330 Y55.3254 
G01 X15.4824 Y55.3254 
G01 X15.4824 Y57.7046 
G01 X16.0330 Y57.7046 
G01 X16.0754 Y57.7222 
G01 X16.1078 Y57.7546 
G01 X16.1254 Y57.7970 
G01 X16.1254 Y59.0430 
G01 X16.1078 Y59.0854 
G01 X16.0754 Y59.1178 
G01 X16.0330 Y59.1354 
G01 X15.4824 Y59.1354 
G01 X15.4824 Y61.5146 
G01 X16.0330 Y61.5146 
G01 X16.0754 Y61.5322 
G01 X16.1078 Y61.5646 
G01 X16.1254 Y61.6070 
G00 Z2.5400 
G00 X23.7720 Y56.2494 
G01 Z-0.1500 F254.00 
G01 X21.9480 Y56.2494 F508.00 
G01 X21.9056 Y56.2318 
G01 X21.8732 Y56.1994 
G01 X21.8556 Y56.1570 
G01 X21.8556 Y54.8524 
G01 X17.9254 Y54.8524 
G01 X17.9254 Y55.2330 
G01 X17.9078 Y55.2754 
G01 X17.8754 Y55.3078 
G01 X17.8330 Y55.3254 
G01 X16.9870 Y55.3254 
G01 X16.9446 Y55.3078 
G01 X16.9122 Y55.2754 
G01 X16.8946 Y55.2330 
G01 X16.8946 Y53.9870 
G01 X16.9122 Y53.9446 
G01 X16.9446 Y53.9122 
G01 X16.9870 Y53.8946 
G01 X17.8330 Y53.8946 
G01 X17.8754 Y53.9122 
G01 X17.9078 Y53.9446 
G01 X17.9254 Y53.9870 
G01 X17.9254 Y54.3676 
G01 X21.8556 Y54.3676 
G01 X21.8556 Y51.0310 
G01 X21.8732 Y50.9886 
G01 X21.9056 Y50.9562 
G01 X21.9480 Y50.9386 
G01 X23.7720 Y50.9386 
G01 X23.8144 Y50.9562 
G01 X23.8468 Y50.9886 
G01 X23.8644 Y51.0310 
G01 X23.8644 Y53.0976 
G01 X31.6203 Y53.0976 
G01 X31.6721 Y52.9725 
G01 X31.7570 Y52.8455 
G01 X31.8651 Y52.7374 
G01 X31.9921 Y52.6525 
G01 X32.1333 Y52.5940 
G01 X32.2832 Y52.5642 
G01 X33.7568 Y52.5642 
G01 X33.9067 Y52.5940 
G01 X34.0479 Y52.6525 
G01 X34.1749 Y52.7374 
G01 X34.2830 Y52.8455 
G01 X34.3679 Y52.9725 
G01 X34.4264 Y53.1137 
G01 X34.4562 Y53.2636 
G01 X34.4562 Y53.4164 
G01 X34.4264 Y53.5663 
G01 X34.3679 Y53.7075 
G01 X34.2830 Y53.8345 
G01 X34.1749 Y53.9426 
G01 X34.0479 Y54.0275 
G01 X33.9067 Y54.0860 
G01 X33.7568 Y54.1158 
G01 X32.2832 Y54.1158 
G01 X32.1333 Y54.0860 
G01 X31.9921 Y54.0275 
G01 X31.8651 Y53.9426 
G01 X31.7570 Y53.8345 
G01 X31.6721 Y53.7075 
G01 X31.6203 Y53.5824 
G01 X23.8644 Y53.5824 
G01 X23.8644 Y56.1570 
G01 X23.8468 Y56.1994 
G01 X23.8144 Y56.2318 
G01 X23.7720 Y56.2494 
G00 Z2.5400 
G00 X41.3768 Y76.9758 
G01 Z-0.1500 F254.00 
G01 X39.9032 Y76.9758 F508.00 
G01 X39.7533 Y76.9460 
G01 X39.6121 Y76.8875 
G01 X39.4851 Y76.8026 
G01 X39.3770 Y76.6945 
G01 X39.2921 Y76.5675 
G01 X39.2336 Y76.4263 
G01 X39.2038 Y76.2764 
G01 X39.2038 Y76.1236 
G01 X39.2336 Y75.9737 
G01 X39.2921 Y75.8325 
G01 X39.3770 Y75.7055 
G01 X39.4851 Y75.5974 
G01 X39.6121 Y75.5125 
G01 X39.7533 Y75.4540 
G01 X39.9032 Y75.4242 
G01 X41.3768 Y75.4242 
G01 X41.5267 Y75.4540 
G01 X41.6679 Y75.5125 
G01 X41.7949 Y75.5974 
G01 X41.9030 Y75.7055 
G01 X41.9879 Y75.8325 
G01 X42.0464 Y75.9737 
G01 X42.0762 Y76.1236 
G01 X42.0762 Y76.2764 
G01 X42.0464 Y76.4263 
G01 X41.9879 Y76.5675 
G01 X41.9030 Y76.6945 
G01 X41.7949 Y76.8026 
G01 X41.6679 Y76.8875 
G01 X41.5267 Y76.9460 
G01 X41.3768 Y76.9758 
G00 Z2.5400 
G00 X41.3768 Y74.4358 
G01 Z-0.1500 F254.00 
G01 X39.9032 Y74.4358 F508.00 
G01 X39.7533 Y74.4060 
G01 X39.6121 Y74.3475 
G01 X39.4851 Y74.2626 
G01 X39.3770 Y74.1545 
G01 X39.2921 Y74.0275 
G01 X39.2336 Y73.8863 
G01 X39.2038 Y73.7364 
G01 X39.2038 Y73.5836 
G01 X39.2336 Y73.4337 
G01 X39.2921 Y73.2925 
G01 X39.3770 Y73.1655 
G01 X39.4851 Y73.0574 
G01 X39.6121 Y72.9725 
G01 X39.7533 Y72.9140 
G01 X39.9032 Y72.8842 
G01 X41.3768 Y72.8842 
G01 X41.5267 Y72.9140 
G01 X41.6679 Y72.9725 
G01 X41.7949 Y73.0574 
G01 X41.9030 Y73.1655 
G01 X41.9879 Y73.2925 
G01 X42.0464 Y73.4337 
G01 X42.0762 Y73.5836 
G01 X42.0762 Y73.7364 
G01 X42.0464 Y73.8863 
G01 X41.9879 Y74.0275 
G01 X41.9030 Y74.1545 
G01 X41.7949 Y74.2626 
G01 X41.6679 Y74.3475 
G01 X41.5267 Y74.4060 
G01 X41.3768 Y74.4358 
G00 Z2.5400 
G00 X41.3768 Y71.8958 
G01 Z-0.1500 F254.00 
G01 X39.9032 Y71.8958 F508.00 
G01 X39.7533 Y71.8660 
G01 X39.6121 Y71.8075 
G01 X39.4851 Y71.7226 
G01 X39.3770 Y71.6145 
G01 X39.2921 Y71.4875 
G01 X39.2336 Y71.3463 
G01 X39.2038 Y71.1964 
G01 X39.2038 Y71.0436 
G01 X39.2336 Y70.8937 
G01 X39.2921 Y70.7525 
G01 X39.3770 Y70.6255 
G01 X39.4851 Y70.5174 
G01 X39.6121 Y70.4325 
G01 X39.7533 Y70.3740 
G01 X39.9032 Y70.3442 
G01 X41.3768 Y70.3442 
G01 X41.5267 Y70.3740 
G01 X41.6679 Y70.4325 
G01 X41.7949 Y70.5174 
G01 X41.9030 Y70.6255 
G01 X41.9879 Y70.7525 
G01 X42.0464 Y70.8937 
G01 X42.0762 Y71.0436 
G01 X42.0762 Y71.1964 
G01 X42.0464 Y71.3463 
G01 X41.9879 Y71.4875 
G01 X41.9030 Y71.6145 
G01 X41.7949 Y71.7226 
G01 X41.6679 Y71.8075 
G01 X41.5267 Y71.8660 
G01 X41.3768 Y71.8958 
G00 Z2.5400 
G00 X41.3768 Y69.3558 
G01 Z-0.1500 F254.00 
G01 X39.9032 Y69.3558 F508.00 
G01 X39.7533 Y69.3260 
G01 X39.6121 Y69.2675 
G01 X39.4851 Y69.1826 
G01 X39.3770 Y69.0745 
G01 X39.2921 Y68.9475 
G01 X39.2336 Y68.8063 
G01 X39.2038 Y68.6564 
G01 X39.2038 Y68.5036 
G01 X39.2336 Y68.3537 
G01 X39.2921 Y68.2125 
G01 X39.3770 Y68.0855 
G01 X39.4851 Y67.9774 
G01 X39.6121 Y67.8925 
G01 X39.7533 Y67.8340 
G01 X39.9032 Y67.8042 
G01 X41.3768 Y67.8042 
G01 X41.5267 Y67.8340 
G01 X41.6679 Y67.8925 
G01 X41.7949 Y67.9774 
G01 X41.9030 Y68.0855 
G01 X41.9879 Y68.2125 
G01 X42.0464 Y68.3537 
G01 X42.0762 Y68.5036 
G01 X42.0762 Y68.6564 
G01 X42.0464 Y68.8063 
G01 X41.9879 Y68.9475 
G01 X41.9030 Y69.0745 
G01 X41.7949 Y69.1826 
G01 X41.6679 Y69.2675 
G01 X41.5267 Y69.3260 
G01 X41.3768 Y69.3558 
G00 Z2.5400 
G00 X41.3768 Y66.8158 
G01 Z-0.1500 F254.00 
G01 X39.9032 Y66.8158 F508.00 
G01 X39.7533 Y66.7860 
G01 X39.6121 Y66.7275 
G01 X39.4851 Y66.6426 
G01 X39.3770 Y66.5345 
G01 X39.2921 Y66.4075 
G01 X39.2336 Y66.2663 
G01 X39.2038 Y66.1164 
G01 X39.2038 Y65.9636 
G01 X39.2336 Y65.8137 
G01 X39.2921 Y65.6725 
G01 X39.3770 Y65.5455 
G01 X39.4851 Y65.4374 
G01 X39.6121 Y65.3525 
G01 X39.7533 Y65.2940 
G01 X39.9032 Y65.2642 
G01 X41.3768 Y65.2642 
G01 X41.5267 Y65.2940 
G01 X41.6679 Y65.3525 
G01 X41.7949 Y65.4374 
G01 X41.9030 Y65.5455 
G01 X41.9879 Y65.6725 
G01 X42.0464 Y65.8137 
G01 X42.0762 Y65.9636 
G01 X42.0762 Y66.1164 
G01 X42.0464 Y66.2663 
G01 X41.9879 Y66.4075 
G01 X41.9030 Y66.5345 
G01 X41.7949 Y66.6426 
G01 X41.6679 Y66.7275 
G01 X41.5267 Y66.7860 
G01 X41.3768 Y66.8158 
G00 Z2.5400 
G00 X41.3768 Y64.2758 
G01 Z-0.1500 F254.00 
G01 X39.9032 Y64.2758 F508.00 
G01 X39.7533 Y64.2460 
G01 X39.6121 Y64.1875 
G01 X39.4851 Y64.1026 
G01 X39.3770 Y63.9945 
G01 X39.2921 Y63.8675 
G01 X39.2336 Y63.7263 
G01 X39.2038 Y63.5764 
G01 X39.2038 Y63.4236 
G01 X39.2336 Y63.2737 
G01 X39.2921 Y63.1325 
G01 X39.3770 Y63.0055 
G01 X39.4851 Y62.8974 
G01 X39.6121 Y62.8125 
G01 X39.7533 Y62.7540 
G01 X39.9032 Y62.7242 
G01 X41.3768 Y62.7242 
G01 X41.5267 Y62.7540 
G01 X41.6679 Y62.8125 
G01 X41.7949 Y62.8974 
G01 X41.9030 Y63.0055 
G01 X41.9879 Y63.1325 
G01 X42.0464 Y63.2737 
G01 X42.0762 Y63.4236 
G01 X42.0762 Y63.5764 
G01 X42.0464 Y63.7263 
G01 X41.9879 Y63.8675 
G01 X41.9030 Y63.9945 
G01 X41.7949 Y64.1026 
G01 X41.6679 Y64.1875 
G01 X41.5267 Y64.2460 
G01 X41.3768 Y64.2758 
G00 Z2.5400 
G00 X41.3768 Y59.1958 
G01 Z-0.1500 F254.00 
G01 X39.9032 Y59.1958 F508.00 
G01 X39.7533 Y59.1660 
G01 X39.6121 Y59.1075 
G01 X39.4851 Y59.0226 
G01 X39.3770 Y58.9145 
G01 X39.2921 Y58.7875 
G01 X39.2336 Y58.6463 
G01 X39.2038 Y58.4964 
G01 X39.2038 Y58.3436 
G01 X39.2336 Y58.1937 
G01 X39.2921 Y58.0525 
G01 X39.3770 Y57.9255 
G01 X39.4851 Y57.8174 
G01 X39.6121 Y57.7325 
G01 X39.7533 Y57.6740 
G01 X39.9032 Y57.6442 
G01 X41.3768 Y57.6442 
G01 X41.5267 Y57.6740 
G01 X41.6679 Y57.7325 
G01 X41.7949 Y57.8174 
G01 X41.9030 Y57.9255 
G01 X41.9879 Y58.0525 
G01 X42.0464 Y58.1937 
G01 X42.0762 Y58.3436 
G01 X42.0762 Y58.4964 
G01 X42.0464 Y58.6463 
G01 X41.9879 Y58.7875 
G01 X41.9030 Y58.9145 
G01 X41.7949 Y59.0226 
G01 X41.6679 Y59.1075 
G01 X41.5267 Y59.1660 
G01 X41.3768 Y59.1958 
G00 Z2.5400 
G00 X41.3768 Y54.1158 
G01 Z-0.1500 F254.00 
G01 X39.9032 Y54.1158 F508.00 
G01 X39.7533 Y54.0860 
G01 X39.6121 Y54.0275 
G01 X39.4851 Y53.9426 
G01 X39.3770 Y53.8345 
G01 X39.2921 Y53.7075 
G01 X39.2336 Y53.5663 
G01 X39.2038 Y53.4164 
G01 X39.2038 Y53.2636 
G01 X39.2336 Y53.1137 
G01 X39.2921 Y52.9725 
G01 X39.3770 Y52.8455 
G01 X39.4851 Y52.7374 
G01 X39.6121 Y52.6525 
G01 X39.7533 Y52.5940 
G01 X39.9032 Y52.5642 
G01 X41.3768 Y52.5642 
G01 X41.5267 Y52.5940 
G01 X41.6679 Y52.6525 
G01 X41.7949 Y52.7374 
G01 X41.9030 Y52.8455 
G01 X41.9879 Y52.9725 
G01 X42.0464 Y53.1137 
G01 X42.0762 Y53.2636 
G01 X42.0762 Y53.4164 
G01 X42.0464 Y53.5663 
G01 X41.9879 Y53.7075 
G01 X41.9030 Y53.8345 
G01 X41.7949 Y53.9426 
G01 X41.6679 Y54.0275 
G01 X41.5267 Y54.0860 
G01 X41.3768 Y54.1158 
G00 Z2.5400 
G00 X41.3768 Y51.5758 
G01 Z-0.1500 F254.00 
G01 X39.9032 Y51.5758 F508.00 
G01 X39.7533 Y51.5460 
G01 X39.6121 Y51.4875 
G01 X39.4851 Y51.4026 
G01 X39.3770 Y51.2945 
G01 X39.2921 Y51.1675 
G01 X39.2336 Y51.0263 
G01 X39.2038 Y50.8764 
G01 X39.2038 Y50.7236 
G01 X39.2336 Y50.5737 
G01 X39.2921 Y50.4325 
G01 X39.3770 Y50.3055 
G01 X39.4851 Y50.1974 
G01 X39.6121 Y50.1125 
G01 X39.7533 Y50.0540 
G01 X39.9032 Y50.0242 
G01 X41.3768 Y50.0242 
G01 X41.5267 Y50.0540 
G01 X41.6679 Y50.1125 
G01 X41.7949 Y50.1974 
G01 X41.9030 Y50.3055 
G01 X41.9879 Y50.4325 
G01 X42.0464 Y50.5737 
G01 X42.0762 Y50.7236 
G01 X42.0762 Y50.8764 
G01 X42.0464 Y51.0263 
G01 X41.9879 Y51.1675 
G01 X41.9030 Y51.2945 
G01 X41.7949 Y51.4026 
G01 X41.6679 Y51.4875 
G01 X41.5267 Y51.5460 
G01 X41.3768 Y51.5758 
G00 Z2.5400 
G00 X41.3768 Y49.0358 
G01 Z-0.1500 F254.00 
G01 X39.9032 Y49.0358 F508.00 
G01 X39.7533 Y49.0060 
G01 X39.6121 Y48.9475 
G01 X39.4851 Y48.8626 
G01 X39.3770 Y48.7545 
G01 X39.2921 Y48.6275 
G01 X39.2336 Y48.4863 
G01 X39.2038 Y48.3364 
G01 X39.2038 Y48.1836 
G01 X39.2336 Y48.0337 
G01 X39.2921 Y47.8925 
G01 X39.3770 Y47.7655 
G01 X39.4851 Y47.6574 
G01 X39.6121 Y47.5725 
G01 X39.7533 Y47.5140 
G01 X39.9032 Y47.4842 
G01 X41.3768 Y47.4842 
G01 X41.5267 Y47.5140 
G01 X41.6679 Y47.5725 
G01 X41.7949 Y47.6574 
G01 X41.9030 Y47.7655 
G01 X41.9879 Y47.8925 
G01 X42.0464 Y48.0337 
G01 X42.0762 Y48.1836 
G01 X42.0762 Y48.3364 
G01 X42.0464 Y48.4863 
G01 X41.9879 Y48.6275 
G01 X41.9030 Y48.7545 
G01 X41.7949 Y48.8626 
G01 X41.6679 Y48.9475 
G01 X41.5267 Y49.0060 
G01 X41.3768 Y49.0358 
G00 Z2.5400 
G00 X41.3768 Y46.4958 
G01 Z-0.1500 F254.00 
G01 X39.9032 Y46.4958 F508.00 
G01 X39.7533 Y46.4660 
G01 X39.6121 Y46.4075 
G01 X39.4851 Y46.3226 
G01 X39.3770 Y46.2145 
G01 X39.2921 Y46.0875 
G01 X39.2336 Y45.9463 
G01 X39.2038 Y45.7964 
G01 X39.2038 Y45.6436 
G01 X39.2336 Y45.4937 
G01 X39.2921 Y45.3525 
G01 X39.3770 Y45.2255 
G01 X39.4851 Y45.1174 
G01 X39.6121 Y45.0325 
G01 X39.7533 Y44.9740 
G01 X39.9032 Y44.9442 
G01 X41.3768 Y44.9442 
G01 X41.5267 Y44.9740 
G01 X41.6679 Y45.0325 
G01 X41.7949 Y45.1174 
G01 X41.9030 Y45.2255 
G01 X41.9879 Y45.3525 
G01 X42.0464 Y45.4937 
G01 X42.0762 Y45.6436 
G01 X42.0762 Y45.7964 
G01 X42.0464 Y45.9463 
G01 X41.9879 Y46.0875 
G01 X41.9030 Y46.2145 
G01 X41.7949 Y46.3226 
G01 X41.6679 Y46.4075 
G01 X41.5267 Y46.4660 
G01 X41.3768 Y46.4958 
G00 Z2.5400 
G00 X41.3768 Y43.9558 
G01 Z-0.1500 F254.00 
G01 X39.9032 Y43.9558 F508.00 
G01 X39.7533 Y43.9260 
G01 X39.6121 Y43.8675 
G01 X39.4851 Y43.7826 
G01 X39.3770 Y43.6745 
G01 X39.2921 Y43.5475 
G01 X39.2336 Y43.4063 
G01 X39.2038 Y43.2564 
G01 X39.2038 Y43.1036 
G01 X39.2336 Y42.9537 
G01 X39.2921 Y42.8125 
G01 X39.3770 Y42.6855 
G01 X39.4851 Y42.5774 
G01 X39.6121 Y42.4925 
G01 X39.7533 Y42.4340 
G01 X39.9032 Y42.4042 
G01 X41.3768 Y42.4042 
G01 X41.5267 Y42.4340 
G01 X41.6679 Y42.4925 
G01 X41.7949 Y42.5774 
G01 X41.9030 Y42.6855 
G01 X41.9879 Y42.8125 
G01 X42.0464 Y42.9537 
G01 X42.0762 Y43.1036 
G01 X42.0762 Y43.2564 
G01 X42.0464 Y43.4063 
G01 X41.9879 Y43.5475 
G01 X41.9030 Y43.6745 
G01 X41.7949 Y43.7826 
G01 X41.6679 Y43.8675 
G01 X41.5267 Y43.9260 
G01 X41.3768 Y43.9558 
G00 Z2.5400 
G00 X33.7568 Y43.9558 
G01 Z-0.1500 F254.00 
G01 X32.2832 Y43.9558 F508.00 
G01 X32.1333 Y43.9260 
G01 X31.9921 Y43.8675 
G01 X31.8651 Y43.7826 
G01 X31.7570 Y43.6745 
G01 X31.6721 Y43.5475 
G01 X31.6136 Y43.4063 
G01 X31.5838 Y43.2564 
G01 X31.5838 Y43.1036 
G01 X31.6136 Y42.9537 
G01 X31.6721 Y42.8125 
G01 X31.7570 Y42.6855 
G01 X31.8651 Y42.5774 
G01 X31.9921 Y42.4925 
G01 X32.1333 Y42.4340 
G01 X32.2832 Y42.4042 
G01 X33.7568 Y42.4042 
G01 X33.9067 Y42.4340 
G01 X34.0479 Y42.4925 
G01 X34.1749 Y42.5774 
G01 X34.2830 Y42.6855 
G01 X34.3679 Y42.8125 
G01 X34.4264 Y42.9537 
G01 X34.4562 Y43.1036 
G01 X34.4562 Y43.2564 
G01 X34.4264 Y43.4063 
G01 X34.3679 Y43.5475 
G01 X34.2830 Y43.6745 
G01 X34.1749 Y43.7826 
G01 X34.0479 Y43.8675 
G01 X33.9067 Y43.9260 
G01 X33.7568 Y43.9558 
G00 Z2.5400 
G00 X33.7568 Y49.0358 
G01 Z-0.1500 F254.00 
G01 X32.2832 Y49.0358 F508.00 
G01 X32.1333 Y49.0060 
G01 X31.9921 Y48.9475 
G01 X31.8651 Y48.8626 
G01 X31.7570 Y48.7545 
G01 X31.6721 Y48.6275 
G01 X31.6136 Y48.4863 
G01 X31.5838 Y48.3364 
G01 X31.5838 Y48.1836 
G01 X31.6136 Y48.0337 
G01 X31.6721 Y47.8925 
G01 X31.7570 Y47.7655 
G01 X31.8651 Y47.6574 
G01 X31.9921 Y47.5725 
G01 X32.1333 Y47.5140 
G01 X32.2832 Y47.4842 
G01 X33.7568 Y47.4842 
G01 X33.9067 Y47.5140 
G01 X34.0479 Y47.5725 
G01 X34.1749 Y47.6574 
G01 X34.2830 Y47.7655 
G01 X34.3679 Y47.8925 
G01 X34.4264 Y48.0337 
G01 X34.4562 Y48.1836 
G01 X34.4562 Y48.3364 
G01 X34.4264 Y48.4863 
G01 X34.3679 Y48.6275 
G01 X34.2830 Y48.7545 
G01 X34.1749 Y48.8626 
G01 X34.0479 Y48.9475 
G01 X33.9067 Y49.0060 
G01 X33.7568 Y49.0358 
G00 Z2.5400 
G00 X33.7568 Y51.5758 
G01 Z-0.1500 F254.00 
G01 X32.2832 Y51.5758 F508.00 
G01 X32.1333 Y51.5460 
G01 X31.9921 Y51.4875 
G01 X31.8651 Y51.4026 
G01 X31.7570 Y51.2945 
G01 X31.6721 Y51.1675 
G01 X31.6136 Y51.0263 
G01 X31.5838 Y50.8764 
G01 X31.5838 Y50.7236 
G01 X31.6136 Y50.5737 
G01 X31.6721 Y50.4325 
G01 X31.7570 Y50.3055 
G01 X31.8651 Y50.1974 
G01 X31.9921 Y50.1125 
G01 X32.1333 Y50.0540 
G01 X32.2832 Y50.0242 
G01 X33.7568 Y50.0242 
G01 X33.9067 Y50.0540 
G01 X34.0479 Y50.1125 
G01 X34.1749 Y50.1974 
G01 X34.2830 Y50.3055 
G01 X34.3679 Y50.4325 
G01 X34.4264 Y50.5737 
G01 X34.4562 Y50.7236 
G01 X34.4562 Y50.8764 
G01 X34.4264 Y51.0263 
G01 X34.3679 Y51.1675 
G01 X34.2830 Y51.2945 
G01 X34.1749 Y51.4026 
G01 X34.0479 Y51.4875 
G01 X33.9067 Y51.5460 
G01 X33.7568 Y51.5758 
G00 Z2.5400 
G00 X33.7568 Y61.7358 
G01 Z-0.1500 F254.00 
G01 X32.2832 Y61.7358 F508.00 
G01 X32.1333 Y61.7060 
G01 X31.9921 Y61.6475 
G01 X31.8651 Y61.5626 
G01 X31.7570 Y61.4545 
G01 X31.6721 Y61.3275 
G01 X31.6136 Y61.1863 
G01 X31.5838 Y61.0364 
G01 X31.5838 Y60.8836 
G01 X31.6136 Y60.7337 
G01 X31.6721 Y60.5925 
G01 X31.7570 Y60.4655 
G01 X31.8651 Y60.3574 
G01 X31.9921 Y60.2725 
G01 X32.1333 Y60.2140 
G01 X32.2832 Y60.1842 
G01 X33.7568 Y60.1842 
G01 X33.9067 Y60.2140 
G01 X34.0479 Y60.2725 
G01 X34.1749 Y60.3574 
G01 X34.2830 Y60.4655 
G01 X34.3679 Y60.5925 
G01 X34.4264 Y60.7337 
G01 X34.4562 Y60.8836 
G01 X34.4562 Y61.0364 
G01 X34.4264 Y61.1863 
G01 X34.3679 Y61.3275 
G01 X34.2830 Y61.4545 
G01 X34.1749 Y61.5626 
G01 X34.0479 Y61.6475 
G01 X33.9067 Y61.7060 
G01 X33.7568 Y61.7358 
G00 Z2.5400 
G00 X33.7568 Y64.2758 
G01 Z-0.1500 F254.00 
G01 X32.2832 Y64.2758 F508.00 
G01 X32.1333 Y64.2460 
G01 X31.9921 Y64.1875 
G01 X31.8651 Y64.1026 
G01 X31.7570 Y63.9945 
G01 X31.6721 Y63.8675 
G01 X31.6136 Y63.7263 
G01 X31.5838 Y63.5764 
G01 X31.5838 Y63.4236 
G01 X31.6136 Y63.2737 
G01 X31.6721 Y63.1325 
G01 X31.7570 Y63.0055 
G01 X31.8651 Y62.8974 
G01 X31.9921 Y62.8125 
G01 X32.1333 Y62.7540 
G01 X32.2832 Y62.7242 
G01 X33.7568 Y62.7242 
G01 X33.9067 Y62.7540 
G01 X34.0479 Y62.8125 
G01 X34.1749 Y62.8974 
G01 X34.2830 Y63.0055 
G01 X34.3679 Y63.1325 
G01 X34.4264 Y63.2737 
G01 X34.4562 Y63.4236 
G01 X34.4562 Y63.5764 
G01 X34.4264 Y63.7263 
G01 X34.3679 Y63.8675 
G01 X34.2830 Y63.9945 
G01 X34.1749 Y64.1026 
G01 X34.0479 Y64.1875 
G01 X33.9067 Y64.2460 
G01 X33.7568 Y64.2758 
G00 Z2.5400 
G00 X33.7568 Y66.8158 
G01 Z-0.1500 F254.00 
G01 X32.2832 Y66.8158 F508.00 
G01 X32.1333 Y66.7860 
G01 X31.9921 Y66.7275 
G01 X31.8651 Y66.6426 
G01 X31.7570 Y66.5345 
G01 X31.6721 Y66.4075 
G01 X31.6136 Y66.2663 
G01 X31.5838 Y66.1164 
G01 X31.5838 Y65.9636 
G01 X31.6136 Y65.8137 
G01 X31.6721 Y65.6725 
G01 X31.7570 Y65.5455 
G01 X31.8651 Y65.4374 
G01 X31.9921 Y65.3525 
G01 X32.1333 Y65.2940 
G01 X32.2832 Y65.2642 
G01 X33.7568 Y65.2642 
G01 X33.9067 Y65.2940 
G01 X34.0479 Y65.3525 
G01 X34.1749 Y65.4374 
G01 X34.2830 Y65.5455 
G01 X34.3679 Y65.6725 
G01 X34.4264 Y65.8137 
G01 X34.4562 Y65.9636 
G01 X34.4562 Y66.1164 
G01 X34.4264 Y66.2663 
G01 X34.3679 Y66.4075 
G01 X34.2830 Y66.5345 
G01 X34.1749 Y66.6426 
G01 X34.0479 Y66.7275 
G01 X33.9067 Y66.7860 
G01 X33.7568 Y66.8158 
G00 Z2.5400 
G00 X33.7568 Y69.3558 
G01 Z-0.1500 F254.00 
G01 X32.2832 Y69.3558 F508.00 
G01 X32.1333 Y69.3260 
G01 X31.9921 Y69.2675 
G01 X31.8651 Y69.1826 
G01 X31.7570 Y69.0745 
G01 X31.6721 Y68.9475 
G01 X31.6136 Y68.8063 
G01 X31.5838 Y68.6564 
G01 X31.5838 Y68.5036 
G01 X31.6136 Y68.3537 
G01 X31.6721 Y68.2125 
G01 X31.7570 Y68.0855 
G01 X31.8651 Y67.9774 
G01 X31.9921 Y67.8925 
G01 X32.1333 Y67.8340 
G01 X32.2832 Y67.8042 
G01 X33.7568 Y67.8042 
G01 X33.9067 Y67.8340 
G01 X34.0479 Y67.8925 
G01 X34.1749 Y67.9774 
G01 X34.2830 Y68.0855 
G01 X34.3679 Y68.2125 
G01 X34.4264 Y68.3537 
G01 X34.4562 Y68.5036 
G01 X34.4562 Y68.6564 
G01 X34.4264 Y68.8063 
G01 X34.3679 Y68.9475 
G01 X34.2830 Y69.0745 
G01 X34.1749 Y69.1826 
G01 X34.0479 Y69.2675 
G01 X33.9067 Y69.3260 
G01 X33.7568 Y69.3558 
G00 Z2.5400 
G00 X33.7568 Y71.8958 
G01 Z-0.1500 F254.00 
G01 X32.2832 Y71.8958 F508.00 
G01 X32.1333 Y71.8660 
G01 X31.9921 Y71.8075 
G01 X31.8651 Y71.7226 
G01 X31.7570 Y71.6145 
G01 X31.6721 Y71.4875 
G01 X31.6136 Y71.3463 
G01 X31.5838 Y71.1964 
G01 X31.5838 Y71.0436 
G01 X31.6136 Y70.8937 
G01 X31.6721 Y70.7525 
G01 X31.7570 Y70.6255 
G01 X31.8651 Y70.5174 
G01 X31.9921 Y70.4325 
G01 X32.1333 Y70.3740 
G01 X32.2832 Y70.3442 
G01 X33.7568 Y70.3442 
G01 X33.9067 Y70.3740 
G01 X34.0479 Y70.4325 
G01 X34.1749 Y70.5174 
G01 X34.2830 Y70.6255 
G01 X34.3679 Y70.7525 
G01 X34.4264 Y70.8937 
G01 X34.4562 Y71.0436 
G01 X34.4562 Y71.1964 
G01 X34.4264 Y71.3463 
G01 X34.3679 Y71.4875 
G01 X34.2830 Y71.6145 
G01 X34.1749 Y71.7226 
G01 X34.0479 Y71.8075 
G01 X33.9067 Y71.8660 
G01 X33.7568 Y71.8958 
G00 Z2.5400 
G00 X33.7568 Y74.4358 
G01 Z-0.1500 F254.00 
G01 X32.2832 Y74.4358 F508.00 
G01 X32.1333 Y74.4060 
G01 X31.9921 Y74.3475 
G01 X31.8651 Y74.2626 
G01 X31.7570 Y74.1545 
G01 X31.6721 Y74.0275 
G01 X31.6136 Y73.8863 
G01 X31.5838 Y73.7364 
G01 X31.5838 Y73.5836 
G01 X31.6136 Y73.4337 
G01 X31.6721 Y73.2925 
G01 X31.7570 Y73.1655 
G01 X31.8651 Y73.0574 
G01 X31.9921 Y72.9725 
G01 X32.1333 Y72.9140 
G01 X32.2832 Y72.8842 
G01 X33.7568 Y72.8842 
G01 X33.9067 Y72.9140 
G01 X34.0479 Y72.9725 
G01 X34.1749 Y73.0574 
G01 X34.2830 Y73.1655 
G01 X34.3679 Y73.2925 
G01 X34.4264 Y73.4337 
G01 X34.4562 Y73.5836 
G01 X34.4562 Y73.7364 
G01 X34.4264 Y73.8863 
G01 X34.3679 Y74.0275 
G01 X34.2830 Y74.1545 
G01 X34.1749 Y74.2626 
G01 X34.0479 Y74.3475 
G01 X33.9067 Y74.4060 
G01 X33.7568 Y74.4358 
G00 Z2.5400 
G00 X151.5226 Y93.5584 
G01 Z-0.1500 F254.00 
G01 X151.5226 Y91.8616 F508.00 
G01 X151.5563 Y91.6921 
G01 X151.6225 Y91.5324 
G01 X151.7185 Y91.3887 
G01 X151.8407 Y91.2665 
G01 X151.9844 Y91.1705 
G01 X152.1441 Y91.1043 
G01 X152.3136 Y91.0706 
G01 X152.4864 Y91.0706 
G01 X152.6559 Y91.1043 
G01 X152.8156 Y91.1705 
G01 X152.9593 Y91.2665 
G01 X153.0815 Y91.3887 
G01 X153.1775 Y91.5324 
G01 X153.2437 Y91.6921 
G01 X153.2774 Y91.8616 
G01 X153.2774 Y93.5584 
G01 X153.2437 Y93.7279 
G01 X153.1775 Y93.8876 
G01 X153.0815 Y94.0313 
G01 X152.9593 Y94.1535 
G01 X152.8156 Y94.2495 
G01 X152.6559 Y94.3157 
G01 X152.4864 Y94.3494 
G01 X152.3136 Y94.3494 
G01 X152.1441 Y94.3157 
G01 X151.9844 Y94.2495 
G01 X151.8407 Y94.1535 
G01 X151.7185 Y94.0313 
G01 X151.6225 Y93.8876 
G01 X151.5563 Y93.7279 
G01 X151.5226 Y93.5584 
G00 Z2.5400 
G00 X148.9826 Y93.5584 
G01 Z-0.1500 F254.00 
G01 X148.9826 Y91.8616 F508.00 
G01 X149.0163 Y91.6921 
G01 X149.0825 Y91.5324 
G01 X149.1785 Y91.3887 
G01 X149.3007 Y91.2665 
G01 X149.4444 Y91.1705 
G01 X149.6041 Y91.1043 
G01 X149.7736 Y91.0706 
G01 X149.9464 Y91.0706 
G01 X150.1159 Y91.1043 
G01 X150.2756 Y91.1705 
G01 X150.4193 Y91.2665 
G01 X150.5415 Y91.3887 
G01 X150.6375 Y91.5324 
G01 X150.7037 Y91.6921 
G01 X150.7374 Y91.8616 
G01 X150.7374 Y93.5584 
G01 X150.7037 Y93.7279 
G01 X150.6375 Y93.8876 
G01 X150.5415 Y94.0313 
G01 X150.4193 Y94.1535 
G01 X150.2756 Y94.2495 
G01 X150.1159 Y94.3157 
G01 X149.9464 Y94.3494 
G01 X149.7736 Y94.3494 
G01 X149.6041 Y94.3157 
G01 X149.4444 Y94.2495 
G01 X149.3007 Y94.1535 
G01 X149.1785 Y94.0313 
G01 X149.0825 Y93.8876 
G01 X149.0163 Y93.7279 
G01 X148.9826 Y93.5584 
G00 Z2.5400 
G00 X146.4426 Y93.5584 
G01 Z-0.1500 F254.00 
G01 X146.4426 Y91.8616 F508.00 
G01 X146.4763 Y91.6921 
G01 X146.5425 Y91.5324 
G01 X146.6385 Y91.3887 
G01 X146.7607 Y91.2665 
G01 X146.9044 Y91.1705 
G01 X147.0641 Y91.1043 
G01 X147.2336 Y91.0706 
G01 X147.4064 Y91.0706 
G01 X147.5759 Y91.1043 
G01 X147.7356 Y91.1705 
G01 X147.8793 Y91.2665 
G01 X148.0015 Y91.3887 
G01 X148.0975 Y91.5324 
G01 X148.1637 Y91.6921 
G01 X148.1974 Y91.8616 
G01 X148.1974 Y93.5584 
G01 X148.1637 Y93.7279 
G01 X148.0975 Y93.8876 
G01 X148.0015 Y94.0313 
G01 X147.8793 Y94.1535 
G01 X147.7356 Y94.2495 
G01 X147.5759 Y94.3157 
G01 X147.4064 Y94.3494 
G01 X147.2336 Y94.3494 
G01 X147.0641 Y94.3157 
G01 X146.9044 Y94.2495 
G01 X146.7607 Y94.1535 
G01 X146.6385 Y94.0313 
G01 X146.5425 Y93.8876 
G01 X146.4763 Y93.7279 
G01 X146.4426 Y93.5584 
G00 Z2.5400 
G00 X143.9026 Y93.5584 
G01 Z-0.1500 F254.00 
G01 X143.9026 Y91.8616 F508.00 
G01 X143.9363 Y91.6921 
G01 X144.0025 Y91.5324 
G01 X144.0985 Y91.3887 
G01 X144.2207 Y91.2665 
G01 X144.3644 Y91.1705 
G01 X144.5241 Y91.1043 
G01 X144.6936 Y91.0706 
G01 X144.8664 Y91.0706 
G01 X145.0359 Y91.1043 
G01 X145.1956 Y91.1705 
G01 X145.3393 Y91.2665 
G01 X145.4615 Y91.3887 
G01 X145.5575 Y91.5324 
G01 X145.6237 Y91.6921 
G01 X145.6574 Y91.8616 
G01 X145.6574 Y93.5584 
G01 X145.6237 Y93.7279 
G01 X145.5575 Y93.8876 
G01 X145.4615 Y94.0313 
G01 X145.3393 Y94.1535 
G01 X145.1956 Y94.2495 
G01 X145.0359 Y94.3157 
G01 X144.8664 Y94.3494 
G01 X144.6936 Y94.3494 
G01 X144.5241 Y94.3157 
G01 X144.3644 Y94.2495 
G01 X144.2207 Y94.1535 
G01 X144.0985 Y94.0313 
G01 X144.0025 Y93.8876 
G01 X143.9363 Y93.7279 
G01 X143.9026 Y93.5584 
G00 Z2.5400 
G00 X49.1454 Y83.1970 
G01 Z-0.1500 F254.00 
G01 X49.1454 Y84.4430 F508.00 
G01 X49.1278 Y84.4854 
G01 X49.0954 Y84.5178 
G01 X49.0530 Y84.5354 
G01 X48.2070 Y84.5354 
G01 X48.1646 Y84.5178 
G01 X48.1322 Y84.4854 
G01 X48.1146 Y84.4430 
G01 X48.1146 Y84.0174 
G01 X48.0545 Y83.9573 
G01 X48.0176 Y83.8682 
G01 X48.0176 Y68.6804 
G01 X41.0730 Y61.7358 
G01 X39.9032 Y61.7358 
G01 X39.7533 Y61.7060 
G01 X39.6121 Y61.6475 
G01 X39.4851 Y61.5626 
G01 X39.3770 Y61.4545 
G01 X39.2921 Y61.3275 
G01 X39.2336 Y61.1863 
G01 X39.2038 Y61.0364 
G01 X39.2038 Y60.8836 
G01 X39.2336 Y60.7337 
G01 X39.2921 Y60.5925 
G01 X39.3770 Y60.4655 
G01 X39.4851 Y60.3574 
G01 X39.6121 Y60.2725 
G01 X39.7533 Y60.2140 
G01 X39.9032 Y60.1842 
G01 X41.3768 Y60.1842 
G01 X41.5267 Y60.2140 
G01 X41.6679 Y60.2725 
G01 X41.7949 Y60.3574 
G01 X41.9030 Y60.4655 
G01 X41.9879 Y60.5925 
G01 X42.0464 Y60.7337 
G01 X42.0762 Y60.8836 
G01 X42.0762 Y61.0364 
G01 X42.0464 Y61.1863 
G01 X41.9879 Y61.3275 
G01 X41.9030 Y61.4545 
G01 X41.7949 Y61.5626 
G01 X41.6693 Y61.6465 
G01 X48.4655 Y68.4427 
G01 X48.5024 Y68.5318 
G01 X48.5024 Y83.1046 
G01 X49.0530 Y83.1046 
G01 X49.0954 Y83.1222 
G01 X49.1278 Y83.1546 
G01 X49.1454 Y83.1970 
G00 Z2.5400 
G00 X43.0346 Y81.9270 
G01 Z-0.1500 F254.00 
G01 X43.0522 Y81.8846 F508.00 
G01 X43.0846 Y81.8522 
G01 X43.1270 Y81.8346 
G01 X43.9730 Y81.8346 
G01 X44.0154 Y81.8522 
G01 X44.0478 Y81.8846 
G01 X44.0654 Y81.9270 
G01 X44.0654 Y83.1730 
G01 X44.0478 Y83.2154 
G01 X44.0154 Y83.2478 
G01 X43.9730 Y83.2654 
G01 X43.4224 Y83.2654 
G01 X43.4224 Y93.8796 
G01 X43.9740 Y94.4312 
G01 X44.0708 Y94.3345 
G01 X44.8292 Y94.3345 
G01 X45.3655 Y94.8708 
G01 X45.3655 Y95.6292 
G01 X44.8292 Y96.1655 
G01 X44.0708 Y96.1655 
G01 X43.5345 Y95.6292 
G01 X43.5345 Y94.8708 
G01 X43.6312 Y94.7740 
G01 X42.9745 Y94.1173 
G01 X42.9376 Y94.0282 
G01 X42.9376 Y82.5018 
G01 X42.9745 Y82.4127 
G01 X43.0346 Y82.3526 
G01 X43.0346 Y81.9270 
G00 Z2.5400 
G00 X40.2554 Y81.9270 
G01 Z-0.1500 F254.00 
G01 X40.2554 Y83.1730 F508.00 
G01 X40.2378 Y83.2154 
G01 X40.2054 Y83.2478 
G01 X40.1630 Y83.2654 
G01 X39.3170 Y83.2654 
G01 X39.2746 Y83.2478 
G01 X39.2422 Y83.2154 
G01 X39.2246 Y83.1730 
G01 X39.2246 Y82.7924 
G01 X38.3424 Y82.7924 
G01 X38.3424 Y88.9482 
G01 X38.3055 Y89.0373 
G01 X37.6488 Y89.6940 
G01 X37.7455 Y89.7908 
G01 X37.7455 Y90.5492 
G01 X37.2092 Y91.0855 
G01 X36.4508 Y91.0855 
G01 X35.9145 Y90.5492 
G01 X35.9145 Y89.7908 
G01 X36.4508 Y89.2545 
G01 X37.2092 Y89.2545 
G01 X37.3060 Y89.3512 
G01 X37.8576 Y88.7996 
G01 X37.8576 Y83.2654 
G01 X37.3070 Y83.2654 
G01 X37.2646 Y83.2478 
G01 X37.2322 Y83.2154 
G01 X37.2146 Y83.1730 
G01 X37.2146 Y81.9270 
G01 X37.2322 Y81.8846 
G01 X37.2646 Y81.8522 
G01 X37.3070 Y81.8346 
G01 X38.1530 Y81.8346 
G01 X38.1954 Y81.8522 
G01 X38.2278 Y81.8846 
G01 X38.2454 Y81.9270 
G01 X38.2454 Y82.3076 
G01 X39.2246 Y82.3076 
G01 X39.2246 Y81.9270 
G01 X39.2422 Y81.8846 
G01 X39.2746 Y81.8522 
G01 X39.3170 Y81.8346 
G01 X40.1630 Y81.8346 
G01 X40.2054 Y81.8522 
G01 X40.2378 Y81.8846 
G01 X40.2554 Y81.9270 
G00 Z2.5400 
G00 X49.1454 Y85.7370 
G01 Z-0.1500 F254.00 
G01 X49.1454 Y86.9830 F508.00 
G01 X49.1278 Y87.0254 
G01 X49.0954 Y87.0578 
G01 X49.0530 Y87.0754 
G01 X48.2070 Y87.0754 
G01 X48.1646 Y87.0578 
G01 X48.1322 Y87.0254 
G01 X48.1146 Y86.9830 
G01 X48.1146 Y86.5574 
G01 X48.0545 Y86.4973 
G01 X46.8527 Y85.2955 
G01 X46.7845 Y85.2273 
G01 X46.7476 Y85.1382 
G01 X46.7476 Y82.6504 
G01 X44.3496 Y80.2524 
G01 X42.1524 Y80.2524 
G01 X42.1524 Y82.5982 
G01 X42.1155 Y82.6873 
G01 X42.0554 Y82.7474 
G01 X42.0554 Y83.1730 
G01 X42.0378 Y83.2154 
G01 X42.0054 Y83.2478 
G01 X41.9630 Y83.2654 
G01 X41.5374 Y83.2654 
G01 X39.6124 Y85.1904 
G01 X39.6124 Y90.2182 
G01 X39.5755 Y90.3073 
G01 X37.6488 Y92.2340 
G01 X37.7455 Y92.3308 
G01 X37.7455 Y93.0892 
G01 X37.2092 Y93.6255 
G01 X36.4508 Y93.6255 
G01 X35.9145 Y93.0892 
G01 X35.9145 Y92.3308 
G01 X36.4508 Y91.7945 
G01 X37.2092 Y91.7945 
G01 X37.3060 Y91.8912 
G01 X39.1276 Y90.0696 
G01 X39.1276 Y85.0418 
G01 X39.1645 Y84.9527 
G01 X39.2327 Y84.8845 
G01 X41.0246 Y83.0926 
G01 X41.0246 Y81.9270 
G01 X41.0422 Y81.8846 
G01 X41.0746 Y81.8522 
G01 X41.1170 Y81.8346 
G01 X41.6676 Y81.8346 
G01 X41.6676 Y79.9618 
G01 X41.7045 Y79.8727 
G01 X41.7727 Y79.8045 
G01 X41.8618 Y79.7676 
G01 X44.4982 Y79.7676 
G01 X44.5873 Y79.8045 
G01 X44.6555 Y79.8727 
G01 X47.1955 Y82.4127 
G01 X47.2324 Y82.5018 
G01 X47.2324 Y84.9896 
G01 X48.1146 Y85.8718 
G01 X48.1146 Y85.7370 
G01 X48.1322 Y85.6946 
G01 X48.1646 Y85.6622 
G01 X48.2070 Y85.6446 
G01 X49.0530 Y85.6446 
G01 X49.0954 Y85.6622 
G01 X49.1278 Y85.6946 
G01 X49.1454 Y85.7370 
G00 Z2.5400 
G00 X45.3655 Y89.7908 
G01 Z-0.1500 F254.00 
G01 X45.3655 Y90.5492 F508.00 
G01 X44.8292 Y91.0855 
G01 X44.6924 Y91.0855 
G01 X44.6924 Y91.7945 
G01 X44.8292 Y91.7945 
G01 X45.3655 Y92.3308 
G01 X45.3655 Y92.4676 
G01 X48.0176 Y92.4676 
G01 X48.0176 Y91.3918 
G01 X48.0545 Y91.3027 
G01 X48.1146 Y91.2426 
G01 X48.1146 Y90.8170 
G01 X48.1322 Y90.7746 
G01 X48.1646 Y90.7422 
G01 X48.2070 Y90.7246 
G01 X49.0530 Y90.7246 
G01 X49.0954 Y90.7422 
G01 X49.1278 Y90.7746 
G01 X49.1454 Y90.8170 
G01 X49.1454 Y92.0630 
G01 X49.1278 Y92.1054 
G01 X49.0954 Y92.1378 
G01 X49.0530 Y92.1554 
G01 X48.5024 Y92.1554 
G01 X48.5024 Y94.6346 
G01 X49.1530 Y94.6346 
G01 X49.1954 Y94.6522 
G01 X49.2278 Y94.6846 
G01 X49.2454 Y94.7270 
G01 X49.2454 Y95.7730 
G01 X49.2278 Y95.8154 
G01 X49.1954 Y95.8478 
G01 X49.1530 Y95.8654 
G01 X47.7070 Y95.8654 
G01 X47.6646 Y95.8478 
G01 X47.6322 Y95.8154 
G01 X47.6146 Y95.7730 
G01 X47.6146 Y94.7270 
G01 X47.6322 Y94.6846 
G01 X47.6646 Y94.6522 
G01 X47.7070 Y94.6346 
G01 X48.0176 Y94.6346 
G01 X48.0176 Y92.9524 
G01 X45.3655 Y92.9524 
G01 X45.3655 Y93.0892 
G01 X44.8292 Y93.6255 
G01 X44.0708 Y93.6255 
G01 X43.5345 Y93.0892 
G01 X43.5345 Y92.3308 
G01 X44.0708 Y91.7945 
G01 X44.2076 Y91.7945 
G01 X44.2076 Y91.0855 
G01 X44.0708 Y91.0855 
G01 X43.5345 Y90.5492 
G01 X43.5345 Y89.7908 
G01 X44.0708 Y89.2545 
G01 X44.8292 Y89.2545 
G01 X45.3655 Y89.7908 
G00 Z2.5400 
G00 X45.3655 Y87.2508 
G01 Z-0.1500 F254.00 
G01 X45.3655 Y88.0092 F508.00 
G01 X44.8292 Y88.5455 
G01 X44.6924 Y88.5455 
G01 X44.6924 Y88.6576 
G01 X48.1146 Y88.6576 
G01 X48.1146 Y88.2770 
G01 X48.1322 Y88.2346 
G01 X48.1646 Y88.2022 
G01 X48.2070 Y88.1846 
G01 X49.0530 Y88.1846 
G01 X49.0954 Y88.2022 
G01 X49.1278 Y88.2346 
G01 X49.1454 Y88.2770 
G01 X49.1454 Y89.5230 
G01 X49.1278 Y89.5654 
G01 X49.0954 Y89.5978 
G01 X49.0530 Y89.6154 
G01 X48.2070 Y89.6154 
G01 X48.1646 Y89.5978 
G01 X48.1322 Y89.5654 
G01 X48.1146 Y89.5230 
G01 X48.1146 Y89.1424 
G01 X44.4018 Y89.1424 
G01 X44.3127 Y89.1055 
G01 X44.2445 Y89.0373 
G01 X44.2076 Y88.9482 
G01 X44.2076 Y88.5455 
G01 X44.0708 Y88.5455 
G01 X43.5345 Y88.0092 
G01 X43.5345 Y87.2508 
G01 X44.0708 Y86.7145 
G01 X44.2076 Y86.7145 
G01 X44.2076 Y81.8544 
G01 X44.1547 Y81.8324 
G01 X44.0526 Y81.7642 
G01 X43.9658 Y81.6774 
G01 X43.8976 Y81.5753 
G01 X43.8506 Y81.4618 
G01 X43.8266 Y81.3414 
G01 X43.8266 Y81.2186 
G01 X43.8506 Y81.0982 
G01 X43.8976 Y80.9847 
G01 X43.9658 Y80.8826 
G01 X44.0526 Y80.7958 
G01 X44.1547 Y80.7276 
G01 X44.2682 Y80.6806 
G01 X44.3886 Y80.6566 
G01 X44.5114 Y80.6566 
G01 X44.6318 Y80.6806 
G01 X44.7453 Y80.7276 
G01 X44.8474 Y80.7958 
G01 X44.9342 Y80.8826 
G01 X45.0024 Y80.9847 
G01 X45.0494 Y81.0982 
G01 X45.0734 Y81.2186 
G01 X45.0734 Y81.3414 
G01 X45.0494 Y81.4618 
G01 X45.0024 Y81.5753 
G01 X44.9342 Y81.6774 
G01 X44.8474 Y81.7642 
G01 X44.7453 Y81.8324 
G01 X44.6924 Y81.8544 
G01 X44.6924 Y86.7145 
G01 X44.8292 Y86.7145 
G01 X45.3655 Y87.2508 
G00 Z2.5400 
G00 X26.8616 Y85.0086 
G01 Z-0.1500 F254.00 
G01 X26.8616 Y85.1714 F508.00 
G01 X26.8298 Y85.3311 
G01 X26.7675 Y85.4815 
G01 X26.6771 Y85.6169 
G01 X26.5619 Y85.7321 
G01 X26.4265 Y85.8225 
G01 X26.2761 Y85.8848 
G01 X26.1164 Y85.9166 
G01 X25.9536 Y85.9166 
G01 X25.7939 Y85.8848 
G01 X25.6435 Y85.8225 
G01 X25.5081 Y85.7321 
G01 X25.3929 Y85.6169 
G01 X25.3025 Y85.4815 
G01 X25.2402 Y85.3311 
G01 X25.2257 Y85.2585 
G01 X25.1945 Y85.2273 
G01 X25.1576 Y85.1382 
G01 X25.1576 Y78.9824 
G01 X21.8324 Y78.9824 
G01 X21.8324 Y85.1382 
G01 X21.7955 Y85.2273 
G01 X21.7273 Y85.2955 
G01 X21.6382 Y85.3324 
G01 X16.7524 Y85.3324 
G01 X16.7524 Y87.6782 
G01 X16.7155 Y87.7673 
G01 X16.6473 Y87.8355 
G01 X16.5582 Y87.8724 
G01 X13.9218 Y87.8724 
G01 X13.8327 Y87.8355 
G01 X13.7645 Y87.7673 
G01 X11.7233 Y85.7261 
G01 X9.8667 Y85.7261 
G01 X6.7104 Y88.8824 
G01 X6.7104 Y89.6580 
G01 X6.6928 Y89.7004 
G01 X6.6604 Y89.7328 
G01 X6.6180 Y89.7504 
G01 X5.3020 Y89.7504 
G01 X5.2596 Y89.7328 
G01 X5.2272 Y89.7004 
G01 X5.2096 Y89.6580 
G01 X5.2096 Y88.1420 
G01 X5.2272 Y88.0996 
G01 X5.2596 Y88.0672 
G01 X5.3020 Y88.0496 
G01 X6.6180 Y88.0496 
G01 X6.6604 Y88.0672 
G01 X6.6928 Y88.0996 
G01 X6.7104 Y88.1420 
G01 X6.7104 Y88.1968 
G01 X9.6509 Y85.2563 
G01 X9.6509 Y84.0891 
G01 X9.6685 Y84.0467 
G01 X9.7009 Y84.0143 
G01 X9.7433 Y83.9967 
G01 X11.7959 Y83.9967 
G01 X11.8383 Y84.0143 
G01 X11.8707 Y84.0467 
G01 X11.8883 Y84.0891 
G01 X11.8883 Y85.2055 
G01 X14.0704 Y87.3876 
G01 X16.2676 Y87.3876 
G01 X16.2676 Y85.0418 
G01 X16.3045 Y84.9527 
G01 X16.3727 Y84.8845 
G01 X16.4618 Y84.8476 
G01 X21.3476 Y84.8476 
G01 X21.3476 Y78.9824 
G01 X17.9254 Y78.9824 
G01 X17.9254 Y79.3630 
G01 X17.9078 Y79.4054 
G01 X17.8754 Y79.4378 
G01 X17.8330 Y79.4554 
G01 X16.9870 Y79.4554 
G01 X16.9446 Y79.4378 
G01 X16.9122 Y79.4054 
G01 X16.8946 Y79.3630 
G01 X16.8946 Y78.1170 
G01 X16.9122 Y78.0746 
G01 X16.9446 Y78.0422 
G01 X16.9870 Y78.0246 
G01 X17.8330 Y78.0246 
G01 X17.8754 Y78.0422 
G01 X17.9078 Y78.0746 
G01 X17.9254 Y78.1170 
G01 X17.9254 Y78.4976 
G01 X25.4482 Y78.4976 
G01 X25.5373 Y78.5345 
G01 X25.6055 Y78.6027 
G01 X25.6424 Y78.6918 
G01 X25.6424 Y84.3582 
G01 X25.7939 Y84.2952 
G01 X25.9536 Y84.2634 
G01 X26.1164 Y84.2634 
G01 X26.2761 Y84.2952 
G01 X26.4265 Y84.3575 
G01 X26.5619 Y84.4479 
G01 X26.6771 Y84.5631 
G01 X26.7675 Y84.6985 
G01 X26.8298 Y84.8489 
G01 X26.8616 Y85.0086 
G00 Z2.5400 
G00 X28.0998 Y87.8711 
G01 Z-0.1500 F254.00 
G01 X28.0375 Y88.0215 F508.00 
G01 X27.9471 Y88.1569 
G01 X27.8319 Y88.2721 
G01 X27.6965 Y88.3625 
G01 X27.5461 Y88.4248 
G01 X27.3864 Y88.4566 
G01 X27.2236 Y88.4566 
G01 X27.0639 Y88.4248 
G01 X26.9135 Y88.3625 
G01 X26.7781 Y88.2721 
G01 X26.6629 Y88.1569 
G01 X26.5725 Y88.0215 
G01 X26.5102 Y87.8711 
G01 X26.4957 Y87.7985 
G01 X26.4645 Y87.7673 
G01 X25.2996 Y86.6024 
G01 X18.0224 Y86.6024 
G01 X18.0224 Y91.4882 
G01 X17.9855 Y91.5773 
G01 X17.9173 Y91.6455 
G01 X15.0604 Y94.5024 
G01 X15.1572 Y94.5024 
G01 X15.3450 Y94.5321 
G01 X15.5258 Y94.5909 
G01 X15.6951 Y94.6772 
G01 X15.8489 Y94.7889 
G01 X15.9833 Y94.9233 
G01 X16.0950 Y95.0771 
G01 X16.1813 Y95.2464 
G01 X16.2401 Y95.4272 
G01 X16.2698 Y95.6150 
G01 X16.2698 Y95.8050 
G01 X16.2401 Y95.9928 
G01 X16.1813 Y96.1736 
G01 X16.0950 Y96.3429 
G01 X15.9833 Y96.4967 
G01 X15.8489 Y96.6311 
G01 X15.6951 Y96.7428 
G01 X15.5258 Y96.8291 
G01 X15.3450 Y96.8879 
G01 X15.1572 Y96.9176 
G01 X12.7828 Y96.9176 
G01 X12.5950 Y96.8879 
G01 X12.4142 Y96.8291 
G01 X12.2449 Y96.7428 
G01 X12.0911 Y96.6311 
G01 X11.9567 Y96.4967 
G01 X11.8450 Y96.3429 
G01 X11.7587 Y96.1736 
G01 X11.6999 Y95.9928 
G01 X11.6702 Y95.8050 
G01 X11.6702 Y95.6150 
G01 X11.6999 Y95.4272 
G01 X11.7587 Y95.2464 
G01 X11.8450 Y95.0771 
G01 X11.9567 Y94.9233 
G01 X12.0911 Y94.7889 
G01 X12.2449 Y94.6772 
G01 X12.4142 Y94.5909 
G01 X12.5950 Y94.5321 
G01 X12.7828 Y94.5024 
G01 X14.3748 Y94.5024 
G01 X17.5376 Y91.3396 
G01 X17.5376 Y87.0754 
G01 X16.9870 Y87.0754 
G01 X16.9446 Y87.0578 
G01 X16.9122 Y87.0254 
G01 X16.8946 Y86.9830 
G01 X16.8946 Y85.7370 
G01 X16.9122 Y85.6946 
G01 X16.9446 Y85.6622 
G01 X16.9870 Y85.6446 
G01 X17.8330 Y85.6446 
G01 X17.8754 Y85.6622 
G01 X17.9078 Y85.6946 
G01 X17.9254 Y85.7370 
G01 X17.9254 Y86.1176 
G01 X24.8148 Y86.1176 
G01 X23.9245 Y85.2273 
G01 X23.8876 Y85.1382 
G01 X23.8876 Y82.6504 
G01 X23.2326 Y81.9954 
G01 X22.0170 Y81.9954 
G01 X21.9746 Y81.9778 
G01 X21.9422 Y81.9454 
G01 X21.9246 Y81.9030 
G01 X21.9246 Y80.6570 
G01 X21.9422 Y80.6146 
G01 X21.9746 Y80.5822 
G01 X22.0170 Y80.5646 
G01 X23.2630 Y80.5646 
G01 X23.3054 Y80.5822 
G01 X23.3378 Y80.6146 
G01 X23.3554 Y80.6570 
G01 X23.3554 Y81.4326 
G01 X24.2673 Y82.3445 
G01 X24.3355 Y82.4127 
G01 X24.3724 Y82.5018 
G01 X24.3724 Y84.9896 
G01 X25.5373 Y86.1545 
G01 X25.6055 Y86.2227 
G01 X26.5920 Y87.2092 
G01 X26.6629 Y87.1031 
G01 X26.7781 Y86.9879 
G01 X26.9135 Y86.8975 
G01 X27.0639 Y86.8352 
G01 X27.2236 Y86.8034 
G01 X27.3864 Y86.8034 
G01 X27.5461 Y86.8352 
G01 X27.6965 Y86.8975 
G01 X27.8319 Y86.9879 
G01 X27.9471 Y87.1031 
G01 X28.0180 Y87.2092 
G01 X30.2376 Y84.9896 
G01 X30.2376 Y82.5018 
G01 X30.2745 Y82.4127 
G01 X30.3427 Y82.3445 
G01 X30.4318 Y82.3076 
G01 X35.3176 Y82.3076 
G01 X35.3176 Y61.0604 
G01 X33.4530 Y59.1958 
G01 X32.2832 Y59.1958 
G01 X32.1333 Y59.1660 
G01 X31.9921 Y59.1075 
G01 X31.8651 Y59.0226 
G01 X31.7570 Y58.9145 
G01 X31.6721 Y58.7875 
G01 X31.6136 Y58.6463 
G01 X31.5838 Y58.4964 
G01 X31.5838 Y58.3436 
G01 X31.6136 Y58.1937 
G01 X31.6721 Y58.0525 
G01 X31.7570 Y57.9255 
G01 X31.8651 Y57.8174 
G01 X31.9921 Y57.7325 
G01 X32.1333 Y57.6740 
G01 X32.2832 Y57.6442 
G01 X33.7568 Y57.6442 
G01 X33.9067 Y57.6740 
G01 X34.0479 Y57.7325 
G01 X34.1749 Y57.8174 
G01 X34.2830 Y57.9255 
G01 X34.3679 Y58.0525 
G01 X34.4264 Y58.1937 
G01 X34.4562 Y58.3436 
G01 X34.4562 Y58.4964 
G01 X34.4264 Y58.6463 
G01 X34.3679 Y58.7875 
G01 X34.2830 Y58.9145 
G01 X34.1749 Y59.0226 
G01 X34.0493 Y59.1065 
G01 X35.6973 Y60.7545 
G01 X35.7655 Y60.8227 
G01 X35.8024 Y60.9118 
G01 X35.8024 Y81.8346 
G01 X36.3530 Y81.8346 
G01 X36.3954 Y81.8522 
G01 X36.4278 Y81.8846 
G01 X36.4454 Y81.9270 
G01 X36.4454 Y83.1730 
G01 X36.4278 Y83.2154 
G01 X36.3954 Y83.2478 
G01 X36.3530 Y83.2654 
G01 X35.8024 Y83.2654 
G01 X35.8024 Y93.8796 
G01 X36.3540 Y94.4312 
G01 X36.4508 Y94.3345 
G01 X37.2092 Y94.3345 
G01 X37.7455 Y94.8708 
G01 X37.7455 Y95.6292 
G01 X37.2092 Y96.1655 
G01 X37.0724 Y96.1655 
G01 X37.0724 Y96.2776 
G01 X49.8146 Y96.2776 
G01 X49.8146 Y95.6770 
G01 X49.8322 Y95.6346 
G01 X49.8646 Y95.6022 
G01 X49.9070 Y95.5846 
G01 X51.3530 Y95.5846 
G01 X51.3954 Y95.6022 
G01 X51.4278 Y95.6346 
G01 X51.4454 Y95.6770 
G01 X51.4454 Y96.7230 
G01 X51.4278 Y96.7654 
G01 X51.3954 Y96.7978 
G01 X51.3530 Y96.8154 
G01 X49.9070 Y96.8154 
G01 X49.8646 Y96.7978 
G01 X49.8322 Y96.7654 
G01 X49.8309 Y96.7624 
G01 X36.7818 Y96.7624 
G01 X36.6927 Y96.7255 
G01 X36.6245 Y96.6573 
G01 X36.5876 Y96.5682 
G01 X36.5876 Y96.1655 
G01 X36.4508 Y96.1655 
G01 X35.9145 Y95.6292 
G01 X35.9145 Y94.8708 
G01 X36.0112 Y94.7740 
G01 X35.4227 Y94.1855 
G01 X35.3545 Y94.1173 
G01 X35.3176 Y94.0282 
G01 X35.3176 Y82.7924 
G01 X30.7224 Y82.7924 
G01 X30.7224 Y85.1382 
G01 X30.6855 Y85.2273 
G01 X28.1455 Y87.7673 
G01 X28.1143 Y87.7985 
G01 X28.0998 Y87.8711 
G00 Z2.5400 
G00 X29.4016 Y85.0086 
G01 Z-0.1500 F254.00 
G01 X29.4016 Y85.1714 F508.00 
G01 X29.3698 Y85.3311 
G01 X29.3075 Y85.4815 
G01 X29.2171 Y85.6169 
G01 X29.1019 Y85.7321 
G01 X28.9665 Y85.8225 
G01 X28.8161 Y85.8848 
G01 X28.6564 Y85.9166 
G01 X28.4936 Y85.9166 
G01 X28.3339 Y85.8848 
G01 X28.1835 Y85.8225 
G01 X28.0481 Y85.7321 
G01 X27.9329 Y85.6169 
G01 X27.8425 Y85.4815 
G01 X27.7802 Y85.3311 
G01 X27.7484 Y85.1714 
G01 X27.7484 Y85.0086 
G01 X27.7802 Y84.8489 
G01 X27.8425 Y84.6985 
G01 X27.9329 Y84.5631 
G01 X28.0481 Y84.4479 
G01 X28.1835 Y84.3575 
G01 X28.3339 Y84.2952 
G01 X28.4936 Y84.2634 
G01 X28.6564 Y84.2634 
G01 X28.8161 Y84.2952 
G01 X28.9665 Y84.3575 
G01 X29.1019 Y84.4479 
G01 X29.2171 Y84.5631 
G01 X29.3075 Y84.6985 
G01 X29.3698 Y84.8489 
G01 X29.4016 Y85.0086 
G00 Z2.5400 
G00 X30.6716 Y87.5486 
G01 Z-0.1500 F254.00 
G01 X30.6716 Y87.7114 F508.00 
G01 X30.6398 Y87.8711 
G01 X30.5775 Y88.0215 
G01 X30.4871 Y88.1569 
G01 X30.3719 Y88.2721 
G01 X30.2365 Y88.3625 
G01 X30.0861 Y88.4248 
G01 X29.9264 Y88.4566 
G01 X29.7636 Y88.4566 
G01 X29.6039 Y88.4248 
G01 X29.4535 Y88.3625 
G01 X29.3181 Y88.2721 
G01 X29.2029 Y88.1569 
G01 X29.1125 Y88.0215 
G01 X29.0502 Y87.8711 
G01 X29.0184 Y87.7114 
G01 X29.0184 Y87.5486 
G01 X29.0502 Y87.3889 
G01 X29.1125 Y87.2385 
G01 X29.2029 Y87.1031 
G01 X29.3181 Y86.9879 
G01 X29.4535 Y86.8975 
G01 X29.6039 Y86.8352 
G01 X29.7636 Y86.8034 
G01 X29.9264 Y86.8034 
G01 X30.0861 Y86.8352 
G01 X30.2365 Y86.8975 
G01 X30.3719 Y86.9879 
G01 X30.4871 Y87.1031 
G01 X30.5775 Y87.2385 
G01 X30.6398 Y87.3889 
G01 X30.6716 Y87.5486 
G00 Z2.5400 
G00 X51.3530 Y94.9154 
G01 Z-0.1500 F254.00 
G01 X49.9070 Y94.9154 F508.00 
G01 X49.8646 Y94.8978 
G01 X49.8322 Y94.8654 
G01 X49.8146 Y94.8230 
G01 X49.8146 Y93.7770 
G01 X49.8322 Y93.7346 
G01 X49.8646 Y93.7022 
G01 X49.9070 Y93.6846 
G01 X50.1618 Y93.6846 
G01 X49.3245 Y92.8473 
G01 X49.2876 Y92.7582 
G01 X49.2876 Y87.8724 
G01 X48.2118 Y87.8724 
G01 X48.1227 Y87.8355 
G01 X48.0545 Y87.7673 
G01 X45.5145 Y85.2273 
G01 X45.4776 Y85.1382 
G01 X45.4776 Y83.2654 
G01 X44.9270 Y83.2654 
G01 X44.8846 Y83.2478 
G01 X44.8522 Y83.2154 
G01 X44.8346 Y83.1730 
G01 X44.8346 Y81.9270 
G01 X44.8522 Y81.8846 
G01 X44.8846 Y81.8522 
G01 X44.9270 Y81.8346 
G01 X45.7730 Y81.8346 
G01 X45.8154 Y81.8522 
G01 X45.8478 Y81.8846 
G01 X45.8654 Y81.9270 
G01 X45.8654 Y82.3526 
G01 X45.9255 Y82.4127 
G01 X45.9624 Y82.5018 
G01 X45.9624 Y84.9896 
G01 X48.3604 Y87.3876 
G01 X49.5782 Y87.3876 
G01 X49.6673 Y87.4245 
G01 X49.7355 Y87.4927 
G01 X49.7724 Y87.5818 
G01 X49.7724 Y92.6096 
G01 X50.8000 Y93.6372 
G01 X51.8276 Y92.6096 
G01 X51.8276 Y85.1904 
G01 X50.9454 Y84.3082 
G01 X50.9454 Y84.4430 
G01 X50.9278 Y84.4854 
G01 X50.8954 Y84.5178 
G01 X50.8530 Y84.5354 
G01 X50.0070 Y84.5354 
G01 X49.9646 Y84.5178 
G01 X49.9322 Y84.4854 
G01 X49.9146 Y84.4430 
G01 X49.9146 Y83.1970 
G01 X49.9322 Y83.1546 
G01 X49.9646 Y83.1222 
G01 X50.0070 Y83.1046 
G01 X50.8530 Y83.1046 
G01 X50.8954 Y83.1222 
G01 X50.9278 Y83.1546 
G01 X50.9454 Y83.1970 
G01 X50.9454 Y83.6226 
G01 X52.2755 Y84.9527 
G01 X52.3124 Y85.0418 
G01 X52.3124 Y92.7582 
G01 X52.2755 Y92.8473 
G01 X51.4080 Y93.7148 
G01 X51.4278 Y93.7346 
G01 X51.4454 Y93.7770 
G01 X51.4454 Y94.8230 
G01 X51.4278 Y94.8654 
G01 X51.3954 Y94.8978 
G01 X51.3530 Y94.9154 
G00 Z2.5400 
G00 X147.7761 Y52.1653 
G01 Z-0.1500 F254.00 
G01 X147.7761 Y49.4347 F508.00 
G01 X147.8099 Y49.2213 
G01 X147.8767 Y49.0158 
G01 X147.9748 Y48.8232 
G01 X148.1018 Y48.6484 
G01 X148.2545 Y48.4957 
G01 X148.4293 Y48.3687 
G01 X148.6219 Y48.2706 
G01 X148.8274 Y48.2038 
G01 X149.0408 Y48.1700 
G01 X149.2568 Y48.1700 
G01 X149.4702 Y48.2038 
G01 X149.6757 Y48.2706 
G01 X149.8683 Y48.3687 
G01 X150.0431 Y48.4957 
G01 X150.1958 Y48.6484 
G01 X150.3228 Y48.8232 
G01 X150.4209 Y49.0158 
G01 X150.4877 Y49.2213 
G01 X150.5215 Y49.4347 
G01 X150.5215 Y52.1653 
G01 X150.4877 Y52.3787 
G01 X150.4209 Y52.5842 
G01 X150.3228 Y52.7767 
G01 X150.1958 Y52.9516 
G01 X150.0431 Y53.1043 
G01 X149.8683 Y53.2313 
G01 X149.6757 Y53.3294 
G01 X149.4702 Y53.3962 
G01 X149.2568 Y53.4300 
G01 X149.0408 Y53.4300 
G01 X148.8274 Y53.3962 
G01 X148.6219 Y53.3294 
G01 X148.4293 Y53.2313 
G01 X148.2545 Y53.1043 
G01 X148.1018 Y52.9516 
G01 X147.9748 Y52.7767 
G01 X147.8767 Y52.5842 
G01 X147.8099 Y52.3787 
G01 X147.7761 Y52.1653 
G00 Z2.5400 
G00 X151.7385 Y52.1653 
G01 Z-0.1500 F254.00 
G01 X151.7385 Y49.4347 F508.00 
G01 X151.7723 Y49.2213 
G01 X151.8391 Y49.0158 
G01 X151.9372 Y48.8232 
G01 X152.0642 Y48.6484 
G01 X152.2169 Y48.4957 
G01 X152.3917 Y48.3687 
G01 X152.5843 Y48.2706 
G01 X152.7898 Y48.2038 
G01 X153.0032 Y48.1700 
G01 X153.2192 Y48.1700 
G01 X153.4326 Y48.2038 
G01 X153.6381 Y48.2706 
G01 X153.8307 Y48.3687 
G01 X154.0055 Y48.4957 
G01 X154.1582 Y48.6484 
G01 X154.2852 Y48.8232 
G01 X154.3833 Y49.0158 
G01 X154.4501 Y49.2213 
G01 X154.4839 Y49.4347 
G01 X154.4839 Y52.1653 
G01 X154.4501 Y52.3787 
G01 X154.3833 Y52.5842 
G01 X154.2852 Y52.7767 
G01 X154.1582 Y52.9516 
G01 X154.0055 Y53.1043 
G01 X153.8307 Y53.2313 
G01 X153.6381 Y53.3294 
G01 X153.4326 Y53.3962 
G01 X153.2192 Y53.4300 
G01 X153.0032 Y53.4300 
G01 X152.7898 Y53.3962 
G01 X152.5843 Y53.3294 
G01 X152.3917 Y53.2313 
G01 X152.2169 Y53.1043 
G01 X152.0642 Y52.9516 
G01 X151.9372 Y52.7767 
G01 X151.8391 Y52.5842 
G01 X151.7723 Y52.3787 
G01 X151.7385 Y52.1653 
G00 Z2.5400 
G00 X146.5061 Y67.4053 
G01 Z-0.1500 F254.00 
G01 X146.5061 Y64.6747 F508.00 
G01 X146.5399 Y64.4613 
G01 X146.6067 Y64.2558 
G01 X146.7048 Y64.0632 
G01 X146.8318 Y63.8884 
G01 X146.9845 Y63.7357 
G01 X147.1593 Y63.6087 
G01 X147.3519 Y63.5106 
G01 X147.5574 Y63.4438 
G01 X147.7708 Y63.4100 
G01 X147.9868 Y63.4100 
G01 X148.2002 Y63.4438 
G01 X148.4057 Y63.5106 
G01 X148.5983 Y63.6087 
G01 X148.7731 Y63.7357 
G01 X148.9258 Y63.8884 
G01 X149.0528 Y64.0632 
G01 X149.1509 Y64.2558 
G01 X149.2177 Y64.4613 
G01 X149.2515 Y64.6747 
G01 X149.2515 Y67.4053 
G01 X149.2177 Y67.6187 
G01 X149.1509 Y67.8242 
G01 X149.0528 Y68.0168 
G01 X148.9258 Y68.1916 
G01 X148.7731 Y68.3443 
G01 X148.5983 Y68.4713 
G01 X148.4057 Y68.5694 
G01 X148.2002 Y68.6362 
G01 X147.9868 Y68.6700 
G01 X147.7708 Y68.6700 
G01 X147.5574 Y68.6362 
G01 X147.3519 Y68.5694 
G01 X147.1593 Y68.4713 
G01 X146.9845 Y68.3443 
G01 X146.8318 Y68.1916 
G01 X146.7048 Y68.0168 
G01 X146.6067 Y67.8242 
G01 X146.5399 Y67.6187 
G01 X146.5061 Y67.4053 
G00 Z2.5400 
G00 X150.4685 Y67.4053 
G01 Z-0.1500 F254.00 
G01 X150.4685 Y64.6747 F508.00 
G01 X150.5023 Y64.4613 
G01 X150.5691 Y64.2558 
G01 X150.6672 Y64.0632 
G01 X150.7942 Y63.8884 
G01 X150.9469 Y63.7357 
G01 X151.1217 Y63.6087 
G01 X151.3143 Y63.5106 
G01 X151.5198 Y63.4438 
G01 X151.7332 Y63.4100 
G01 X151.9492 Y63.4100 
G01 X152.1626 Y63.4438 
G01 X152.3681 Y63.5106 
G01 X152.5607 Y63.6087 
G01 X152.7355 Y63.7357 
G01 X152.8882 Y63.8884 
G01 X153.0152 Y64.0632 
G01 X153.1133 Y64.2558 
G01 X153.1801 Y64.4613 
G01 X153.2139 Y64.6747 
G01 X153.2139 Y67.4053 
G01 X153.1801 Y67.6187 
G01 X153.1133 Y67.8242 
G01 X153.0152 Y68.0168 
G01 X152.8882 Y68.1916 
G01 X152.7355 Y68.3443 
G01 X152.5607 Y68.4713 
G01 X152.3681 Y68.5694 
G01 X152.1626 Y68.6362 
G01 X151.9492 Y68.6700 
G01 X151.7332 Y68.6700 
G01 X151.5198 Y68.6362 
G01 X151.3143 Y68.5694 
G01 X151.1217 Y68.4713 
G01 X150.9469 Y68.3443 
G01 X150.7942 Y68.1916 
G01 X150.6672 Y68.0168 
G01 X150.5691 Y67.8242 
G01 X150.5023 Y67.6187 
G01 X150.4685 Y67.4053 
G00 Z2.5400 
G00 X147.7761 Y82.6453 
G01 Z-0.1500 F254.00 
G01 X147.7761 Y79.9147 F508.00 
G01 X147.8099 Y79.7013 
G01 X147.8767 Y79.4958 
G01 X147.9748 Y79.3032 
G01 X148.1018 Y79.1284 
G01 X148.2545 Y78.9757 
G01 X148.4293 Y78.8487 
G01 X148.6219 Y78.7506 
G01 X148.8274 Y78.6838 
G01 X149.0408 Y78.6500 
G01 X149.2568 Y78.6500 
G01 X149.4702 Y78.6838 
G01 X149.6757 Y78.7506 
G01 X149.8683 Y78.8487 
G01 X150.0431 Y78.9757 
G01 X150.1958 Y79.1284 
G01 X150.3228 Y79.3032 
G01 X150.4209 Y79.4958 
G01 X150.4877 Y79.7013 
G01 X150.5215 Y79.9147 
G01 X150.5215 Y82.6453 
G01 X150.4877 Y82.8587 
G01 X150.4209 Y83.0642 
G01 X150.3228 Y83.2568 
G01 X150.1958 Y83.4316 
G01 X150.0431 Y83.5843 
G01 X149.8683 Y83.7113 
G01 X149.6757 Y83.8094 
G01 X149.4702 Y83.8762 
G01 X149.2568 Y83.9100 
G01 X149.0408 Y83.9100 
G01 X148.8274 Y83.8762 
G01 X148.6219 Y83.8094 
G01 X148.4293 Y83.7113 
G01 X148.2545 Y83.5843 
G01 X148.1018 Y83.4316 
G01 X147.9748 Y83.2568 
G01 X147.8767 Y83.0642 
G01 X147.8099 Y82.8587 
G01 X147.7761 Y82.6453 
G00 Z2.5400 
G00 X151.7385 Y82.6453 
G01 Z-0.1500 F254.00 
G01 X151.7385 Y79.9147 F508.00 
G01 X151.7723 Y79.7013 
G01 X151.8391 Y79.4958 
G01 X151.9372 Y79.3032 
G01 X152.0642 Y79.1284 
G01 X152.2169 Y78.9757 
G01 X152.3917 Y78.8487 
G01 X152.5843 Y78.7506 
G01 X152.7898 Y78.6838 
G01 X153.0032 Y78.6500 
G01 X153.2192 Y78.6500 
G01 X153.4326 Y78.6838 
G01 X153.6381 Y78.7506 
G01 X153.8307 Y78.8487 
G01 X154.0055 Y78.9757 
G01 X154.1582 Y79.1284 
G01 X154.2852 Y79.3032 
G01 X154.3833 Y79.4958 
G01 X154.4501 Y79.7013 
G01 X154.4839 Y79.9147 
G01 X154.4839 Y82.6453 
G01 X154.4501 Y82.8587 
G01 X154.3833 Y83.0642 
G01 X154.2852 Y83.2568 
G01 X154.1582 Y83.4316 
G01 X154.0055 Y83.5843 
G01 X153.8307 Y83.7113 
G01 X153.6381 Y83.8094 
G01 X153.4326 Y83.8762 
G01 X153.2192 Y83.9100 
G01 X153.0032 Y83.9100 
G01 X152.7898 Y83.8762 
G01 X152.5843 Y83.8094 
G01 X152.3917 Y83.7113 
G01 X152.2169 Y83.5843 
G01 X152.0642 Y83.4316 
G01 X151.9372 Y83.2568 
G01 X151.8391 Y83.0642 
G01 X151.7723 Y82.8587 
G01 X151.7385 Y82.6453 
G00 Z2.5400 
G00 X73.0104 Y83.7224 
G01 Z-0.1500 F254.00 
G01 X73.0104 Y83.9176 F508.00 
G01 X72.9799 Y84.1105 
G01 X72.9195 Y84.2961 
G01 X72.8309 Y84.4701 
G01 X72.7161 Y84.6281 
G01 X72.5781 Y84.7661 
G01 X72.4201 Y84.8809 
G01 X72.2461 Y84.9695 
G01 X72.0605 Y85.0299 
G01 X71.8676 Y85.0604 
G01 X71.6724 Y85.0604 
G01 X71.4795 Y85.0299 
G01 X71.2939 Y84.9695 
G01 X71.1199 Y84.8809 
G01 X70.9619 Y84.7661 
G01 X70.8239 Y84.6281 
G01 X70.7091 Y84.4701 
G01 X70.6205 Y84.2961 
G01 X70.5601 Y84.1105 
G01 X70.5296 Y83.9176 
G01 X70.5296 Y83.7224 
G01 X70.5601 Y83.5295 
G01 X70.6205 Y83.3439 
G01 X70.7091 Y83.1699 
G01 X70.8239 Y83.0119 
G01 X70.8776 Y82.9582 
G01 X70.8776 Y75.0304 
G01 X68.8754 Y73.0282 
G01 X68.8754 Y73.2830 
G01 X68.8578 Y73.3254 
G01 X68.8254 Y73.3578 
G01 X68.7830 Y73.3754 
G01 X67.7370 Y73.3754 
G01 X67.6946 Y73.3578 
G01 X67.6622 Y73.3254 
G01 X67.6446 Y73.2830 
G01 X67.6446 Y71.8370 
G01 X67.6622 Y71.7946 
G01 X67.6946 Y71.7622 
G01 X67.7370 Y71.7446 
G01 X68.7830 Y71.7446 
G01 X68.8254 Y71.7622 
G01 X68.8578 Y71.7946 
G01 X68.8754 Y71.8370 
G01 X68.8754 Y72.3426 
G01 X71.2573 Y74.7245 
G01 X71.3255 Y74.7927 
G01 X71.3624 Y74.8818 
G01 X71.3624 Y82.6482 
G01 X71.4795 Y82.6101 
G01 X71.6724 Y82.5796 
G01 X71.8676 Y82.5796 
G01 X72.0605 Y82.6101 
G01 X72.2461 Y82.6705 
G01 X72.4201 Y82.7591 
G01 X72.5781 Y82.8739 
G01 X72.7161 Y83.0119 
G01 X72.8309 Y83.1699 
G01 X72.9195 Y83.3439 
G01 X72.9799 Y83.5295 
G01 X73.0104 Y83.7224 
G00 Z2.5400 
G00 X70.5104 Y88.7224 
G01 Z-0.1500 F254.00 
G01 X70.5104 Y88.9176 F508.00 
G01 X70.4799 Y89.1105 
G01 X70.4195 Y89.2961 
G01 X70.3309 Y89.4701 
G01 X70.2161 Y89.6281 
G01 X70.0781 Y89.7661 
G01 X69.9201 Y89.8809 
G01 X69.7461 Y89.9695 
G01 X69.5605 Y90.0299 
G01 X69.3676 Y90.0604 
G01 X69.1724 Y90.0604 
G01 X68.9795 Y90.0299 
G01 X68.7939 Y89.9695 
G01 X68.6199 Y89.8809 
G01 X68.4619 Y89.7661 
G01 X68.3239 Y89.6281 
G01 X68.2091 Y89.4701 
G01 X68.1205 Y89.2961 
G01 X68.0705 Y89.1424 
G01 X63.7424 Y89.1424 
G01 X63.7424 Y94.1481 
G01 X63.8355 Y94.2157 
G01 X63.9882 Y94.3684 
G01 X64.1152 Y94.5432 
G01 X64.2133 Y94.7358 
G01 X64.2801 Y94.9413 
G01 X64.3139 Y95.1547 
G01 X64.3139 Y97.8853 
G01 X64.2801 Y98.0987 
G01 X64.2133 Y98.3042 
G01 X64.1152 Y98.4968 
G01 X63.9882 Y98.6716 
G01 X63.8355 Y98.8243 
G01 X63.6607 Y98.9513 
G01 X63.4681 Y99.0494 
G01 X63.2626 Y99.1162 
G01 X63.0492 Y99.1500 
G01 X62.8332 Y99.1500 
G01 X62.6198 Y99.1162 
G01 X62.4143 Y99.0494 
G01 X62.2217 Y98.9513 
G01 X62.0469 Y98.8243 
G01 X61.8942 Y98.6716 
G01 X61.7672 Y98.4968 
G01 X61.6691 Y98.3042 
G01 X61.6023 Y98.0987 
G01 X61.5685 Y97.8853 
G01 X61.5685 Y95.1547 
G01 X61.6023 Y94.9413 
G01 X61.6691 Y94.7358 
G01 X61.7672 Y94.5432 
G01 X61.8942 Y94.3684 
G01 X62.0469 Y94.2157 
G01 X62.2217 Y94.0887 
G01 X62.4143 Y93.9906 
G01 X62.6198 Y93.9238 
G01 X62.8332 Y93.8900 
G01 X63.0492 Y93.8900 
G01 X63.2576 Y93.9230 
G01 X63.2576 Y75.7804 
G01 X62.4520 Y75.7804 
G01 X62.4096 Y75.7628 
G01 X62.3772 Y75.7304 
G01 X62.3596 Y75.6880 
G01 X62.3596 Y74.1720 
G01 X62.3772 Y74.1296 
G01 X62.4096 Y74.0972 
G01 X62.4520 Y74.0796 
G01 X63.7680 Y74.0796 
G01 X63.8104 Y74.0972 
G01 X63.8428 Y74.1296 
G01 X63.8604 Y74.1720 
G01 X63.8604 Y75.6880 
G01 X63.8428 Y75.7304 
G01 X63.8104 Y75.7628 
G01 X63.7680 Y75.7804 
G01 X63.7424 Y75.7804 
G01 X63.7424 Y88.6576 
G01 X68.0399 Y88.6576 
G01 X68.0601 Y88.5295 
G01 X68.1205 Y88.3439 
G01 X68.2091 Y88.1699 
G01 X68.3239 Y88.0119 
G01 X68.4619 Y87.8739 
G01 X68.6199 Y87.7591 
G01 X68.7939 Y87.6705 
G01 X68.9795 Y87.6101 
G01 X69.1724 Y87.5796 
G01 X69.3676 Y87.5796 
G01 X69.5605 Y87.6101 
G01 X69.7461 Y87.6705 
G01 X69.9201 Y87.7591 
G01 X70.0781 Y87.8739 
G01 X70.2161 Y88.0119 
G01 X70.3309 Y88.1699 
G01 X70.4195 Y88.3439 
G01 X70.4799 Y88.5295 
G01 X70.5104 Y88.7224 
G00 Z2.5400 
G00 X70.5104 Y78.7224 
G01 Z-0.1500 F254.00 
G01 X70.5104 Y78.9176 F508.00 
G01 X70.4799 Y79.1105 
G01 X70.4195 Y79.2961 
G01 X70.3309 Y79.4701 
G01 X70.2161 Y79.6281 
G01 X70.0781 Y79.7661 
G01 X69.9201 Y79.8809 
G01 X69.7461 Y79.9695 
G01 X69.5605 Y80.0299 
G01 X69.3676 Y80.0604 
G01 X69.1724 Y80.0604 
G01 X68.9795 Y80.0299 
G01 X68.7939 Y79.9695 
G01 X68.6199 Y79.8809 
G01 X68.4619 Y79.7661 
G01 X68.3239 Y79.6281 
G01 X68.2091 Y79.4701 
G01 X68.1205 Y79.2961 
G01 X68.0601 Y79.1105 
G01 X68.0296 Y78.9176 
G01 X68.0296 Y78.7224 
G01 X68.0601 Y78.5295 
G01 X68.1205 Y78.3439 
G01 X68.2091 Y78.1699 
G01 X68.3239 Y78.0119 
G01 X68.3376 Y77.9982 
G01 X68.3376 Y76.3004 
G01 X67.6126 Y75.5754 
G01 X66.7870 Y75.5754 
G01 X66.7446 Y75.5578 
G01 X66.7122 Y75.5254 
G01 X66.6946 Y75.4830 
G01 X66.6946 Y74.0370 
G01 X66.7122 Y73.9946 
G01 X66.7446 Y73.9622 
G01 X66.7870 Y73.9446 
G01 X67.0676 Y73.9446 
G01 X67.0676 Y73.9024 
G01 X62.3304 Y73.9024 
G01 X61.0973 Y75.1355 
G01 X61.0082 Y75.1724 
G01 X59.5604 Y75.1724 
G01 X59.5604 Y75.6880 
G01 X59.5428 Y75.7304 
G01 X59.5104 Y75.7628 
G01 X59.4680 Y75.7804 
G01 X58.1520 Y75.7804 
G01 X58.1096 Y75.7628 
G01 X58.0772 Y75.7304 
G01 X58.0596 Y75.6880 
G01 X58.0596 Y74.1720 
G01 X58.0772 Y74.1296 
G01 X58.1096 Y74.0972 
G01 X58.1520 Y74.0796 
G01 X59.4680 Y74.0796 
G01 X59.5104 Y74.0972 
G01 X59.5428 Y74.1296 
G01 X59.5604 Y74.1720 
G01 X59.5604 Y74.6876 
G01 X60.8596 Y74.6876 
G01 X62.0245 Y73.5227 
G01 X62.0927 Y73.4545 
G01 X62.1818 Y73.4176 
G01 X67.3582 Y73.4176 
G01 X67.4473 Y73.4545 
G01 X67.5155 Y73.5227 
G01 X67.5524 Y73.6118 
G01 X67.5524 Y73.9446 
G01 X67.8330 Y73.9446 
G01 X67.8754 Y73.9622 
G01 X67.9078 Y73.9946 
G01 X67.9254 Y74.0370 
G01 X67.9254 Y75.2026 
G01 X68.7173 Y75.9945 
G01 X68.7855 Y76.0627 
G01 X68.8224 Y76.1518 
G01 X68.8224 Y77.6612 
G01 X68.9795 Y77.6101 
G01 X69.1724 Y77.5796 
G01 X69.3676 Y77.5796 
G01 X69.5605 Y77.6101 
G01 X69.7461 Y77.6705 
G01 X69.9201 Y77.7591 
G01 X70.0781 Y77.8739 
G01 X70.2161 Y78.0119 
G01 X70.3309 Y78.1699 
G01 X70.4195 Y78.3439 
G01 X70.4799 Y78.5295 
G01 X70.5104 Y78.7224 
G00 Z2.5400 
G00 X60.3104 Y78.7224 
G01 Z-0.1500 F254.00 
G01 X60.3104 Y78.9176 F508.00 
G01 X60.2799 Y79.1105 
G01 X60.2195 Y79.2961 
G01 X60.1309 Y79.4701 
G01 X60.0161 Y79.6281 
G01 X59.8781 Y79.7661 
G01 X59.7201 Y79.8809 
G01 X59.5461 Y79.9695 
G01 X59.3605 Y80.0299 
G01 X59.1676 Y80.0604 
G01 X58.9724 Y80.0604 
G01 X58.7795 Y80.0299 
G01 X58.5939 Y79.9695 
G01 X58.4199 Y79.8809 
G01 X58.2619 Y79.7661 
G01 X58.1239 Y79.6281 
G01 X58.0091 Y79.4701 
G01 X57.9205 Y79.2961 
G01 X57.8601 Y79.1105 
G01 X57.8296 Y78.9176 
G01 X57.8296 Y78.7224 
G01 X57.8601 Y78.5295 
G01 X57.9205 Y78.3439 
G01 X58.0091 Y78.1699 
G01 X58.1239 Y78.0119 
G01 X58.2619 Y77.8739 
G01 X58.4199 Y77.7591 
G01 X58.5939 Y77.6705 
G01 X58.7795 Y77.6101 
G01 X58.9724 Y77.5796 
G01 X59.1676 Y77.5796 
G01 X59.3605 Y77.6101 
G01 X59.5461 Y77.6705 
G01 X59.7201 Y77.7591 
G01 X59.8781 Y77.8739 
G01 X60.0161 Y78.0119 
G01 X60.1309 Y78.1699 
G01 X60.2195 Y78.3439 
G01 X60.2799 Y78.5295 
G01 X60.3104 Y78.7224 
G00 Z2.5400 
G00 X60.3104 Y88.7224 
G01 Z-0.1500 F254.00 
G01 X60.3104 Y88.9176 F508.00 
G01 X60.2799 Y89.1105 
G01 X60.2195 Y89.2961 
G01 X60.1309 Y89.4701 
G01 X60.0161 Y89.6281 
G01 X59.9324 Y89.7118 
G01 X59.9324 Y94.2750 
G01 X60.0258 Y94.3684 
G01 X60.1528 Y94.5432 
G01 X60.2509 Y94.7358 
G01 X60.3177 Y94.9413 
G01 X60.3515 Y95.1547 
G01 X60.3515 Y97.8853 
G01 X60.3177 Y98.0987 
G01 X60.2509 Y98.3042 
G01 X60.1528 Y98.4968 
G01 X60.0258 Y98.6716 
G01 X59.8731 Y98.8243 
G01 X59.6983 Y98.9513 
G01 X59.5057 Y99.0494 
G01 X59.3002 Y99.1162 
G01 X59.0868 Y99.1500 
G01 X58.8708 Y99.1500 
G01 X58.6574 Y99.1162 
G01 X58.4519 Y99.0494 
G01 X58.2593 Y98.9513 
G01 X58.0845 Y98.8243 
G01 X57.9318 Y98.6716 
G01 X57.8048 Y98.4968 
G01 X57.7067 Y98.3042 
G01 X57.6399 Y98.0987 
G01 X57.6061 Y97.8853 
G01 X57.6061 Y95.1547 
G01 X57.6399 Y94.9413 
G01 X57.7067 Y94.7358 
G01 X57.8048 Y94.5432 
G01 X57.9318 Y94.3684 
G01 X58.0845 Y94.2157 
G01 X58.2593 Y94.0887 
G01 X58.4519 Y93.9906 
G01 X58.6574 Y93.9238 
G01 X58.8708 Y93.8900 
G01 X59.0868 Y93.8900 
G01 X59.3002 Y93.9238 
G01 X59.4476 Y93.9717 
G01 X59.4476 Y90.0015 
G01 X59.3605 Y90.0299 
G01 X59.1676 Y90.0604 
G01 X58.9724 Y90.0604 
G01 X58.7795 Y90.0299 
G01 X58.5939 Y89.9695 
G01 X58.4199 Y89.8809 
G01 X58.2619 Y89.7661 
G01 X58.1239 Y89.6281 
G01 X58.0091 Y89.4701 
G01 X57.9205 Y89.2961 
G01 X57.8601 Y89.1105 
G01 X57.8296 Y88.9176 
G01 X57.8296 Y88.7224 
G01 X57.8601 Y88.5295 
G01 X57.9205 Y88.3439 
G01 X58.0091 Y88.1699 
G01 X58.1239 Y88.0119 
G01 X58.2619 Y87.8739 
G01 X58.4199 Y87.7591 
G01 X58.5939 Y87.6705 
G01 X58.7795 Y87.6101 
G01 X58.9724 Y87.5796 
G01 X59.1676 Y87.5796 
G01 X59.3605 Y87.6101 
G01 X59.5461 Y87.6705 
G01 X59.7201 Y87.7591 
G01 X59.8781 Y87.8739 
G01 X60.0161 Y88.0119 
G01 X60.1309 Y88.1699 
G01 X60.2195 Y88.3439 
G01 X60.2799 Y88.5295 
G01 X60.3104 Y88.7224 
G00 Z2.5400 
G00 X9.2064 Y73.3221 
G01 Z-0.1500 F254.00 
G01 X9.2064 Y71.4579 F508.00 
G01 X9.2430 Y71.2736 
G01 X9.3149 Y71.1001 
G01 X9.4193 Y70.9439 
G01 X9.5521 Y70.8111 
G01 X9.7083 Y70.7067 
G01 X9.8818 Y70.6348 
G01 X10.0661 Y70.5982 
G01 X10.2539 Y70.5982 
G01 X10.4382 Y70.6348 
G01 X10.6117 Y70.7067 
G01 X10.7679 Y70.8111 
G01 X10.9007 Y70.9439 
G01 X11.0051 Y71.1001 
G01 X11.0770 Y71.2736 
G01 X11.1136 Y71.4579 
G01 X11.1136 Y73.3221 
G01 X11.0770 Y73.5064 
G01 X11.0051 Y73.6799 
G01 X10.9007 Y73.8361 
G01 X10.7679 Y73.9689 
G01 X10.6117 Y74.0733 
G01 X10.4382 Y74.1452 
G01 X10.2539 Y74.1818 
G01 X10.0661 Y74.1818 
G01 X9.8818 Y74.1452 
G01 X9.7083 Y74.0733 
G01 X9.5521 Y73.9689 
G01 X9.4193 Y73.8361 
G01 X9.3149 Y73.6799 
G01 X9.2430 Y73.5064 
G01 X9.2064 Y73.3221 
G00 Z2.5400 
G00 X5.3964 Y73.3221 
G01 Z-0.1500 F254.00 
G01 X5.3964 Y71.4579 F508.00 
G01 X5.4330 Y71.2736 
G01 X5.5049 Y71.1001 
G01 X5.6093 Y70.9439 
G01 X5.7421 Y70.8111 
G01 X5.8983 Y70.7067 
G01 X6.0718 Y70.6348 
G01 X6.2561 Y70.5982 
G01 X6.4439 Y70.5982 
G01 X6.6282 Y70.6348 
G01 X6.8017 Y70.7067 
G01 X6.9579 Y70.8111 
G01 X7.0907 Y70.9439 
G01 X7.1951 Y71.1001 
G01 X7.2670 Y71.2736 
G01 X7.3036 Y71.4579 
G01 X7.3036 Y73.3221 
G01 X7.2670 Y73.5064 
G01 X7.1951 Y73.6799 
G01 X7.0907 Y73.8361 
G01 X6.9579 Y73.9689 
G01 X6.8017 Y74.0733 
G01 X6.6282 Y74.1452 
G01 X6.4439 Y74.1818 
G01 X6.2561 Y74.1818 
G01 X6.0718 Y74.1452 
G01 X5.8983 Y74.0733 
G01 X5.7421 Y73.9689 
G01 X5.6093 Y73.8361 
G01 X5.5049 Y73.6799 
G01 X5.4330 Y73.5064 
G01 X5.3964 Y73.3221 
G00 Z2.5400 
G00 X0.9096 Y89.6580 
G01 Z-0.1500 F254.00 
G01 X0.9096 Y88.1420 F508.00 
G01 X0.9272 Y88.0996 
G01 X0.9596 Y88.0672 
G01 X1.0020 Y88.0496 
G01 X1.7776 Y88.0496 
G01 X2.2976 Y87.5296 
G01 X2.2976 Y74.1523 
G01 X2.2618 Y74.1452 
G01 X2.0883 Y74.0733 
G01 X1.9321 Y73.9689 
G01 X1.7993 Y73.8361 
G01 X1.6949 Y73.6799 
G01 X1.6230 Y73.5064 
G01 X1.5864 Y73.3221 
G01 X1.5864 Y71.4579 
G01 X1.6230 Y71.2736 
G01 X1.6949 Y71.1001 
G01 X1.7993 Y70.9439 
G01 X1.9321 Y70.8111 
G01 X2.0883 Y70.7067 
G01 X2.2618 Y70.6348 
G01 X2.4461 Y70.5982 
G01 X2.6339 Y70.5982 
G01 X2.8182 Y70.6348 
G01 X2.9917 Y70.7067 
G01 X3.1479 Y70.8111 
G01 X3.2807 Y70.9439 
G01 X3.3851 Y71.1001 
G01 X3.4569 Y71.2736 
G01 X3.4936 Y71.4579 
G01 X3.4936 Y73.3221 
G01 X3.4569 Y73.5064 
G01 X3.3851 Y73.6799 
G01 X3.2807 Y73.8361 
G01 X3.1479 Y73.9689 
G01 X2.9917 Y74.0733 
G01 X2.8182 Y74.1452 
G01 X2.7824 Y74.1523 
G01 X2.7824 Y87.6782 
G01 X2.7455 Y87.7673 
G01 X2.6773 Y87.8355 
G01 X2.3988 Y88.1140 
G01 X2.4104 Y88.1420 
G01 X2.4104 Y89.6580 
G01 X2.3928 Y89.7004 
G01 X2.3604 Y89.7328 
G01 X2.3180 Y89.7504 
G01 X1.0020 Y89.7504 
G01 X0.9596 Y89.7328 
G01 X0.9272 Y89.7004 
G01 X0.9096 Y89.6580 
G00 Z2.5400 
G00 X19.9170 Y80.5646 
G01 Z-0.1500 F254.00 
G01 X21.1630 Y80.5646 F508.00 
G01 X21.2054 Y80.5822 
G01 X21.2378 Y80.6146 
G01 X21.2554 Y80.6570 
G01 X21.2554 Y81.9030 
G01 X21.2378 Y81.9454 
G01 X21.2054 Y81.9778 
G01 X21.1630 Y81.9954 
G01 X19.9170 Y81.9954 
G01 X19.8746 Y81.9778 
G01 X19.8422 Y81.9454 
G01 X19.8246 Y81.9030 
G01 X19.8246 Y81.5224 
G01 X17.9254 Y81.5224 
G01 X17.9254 Y81.9030 
G01 X17.9078 Y81.9454 
G01 X17.8754 Y81.9778 
G01 X17.8330 Y81.9954 
G01 X16.9870 Y81.9954 
G01 X16.9446 Y81.9778 
G01 X16.9122 Y81.9454 
G01 X16.8946 Y81.9030 
G01 X16.8946 Y80.6570 
G01 X16.9122 Y80.6146 
G01 X16.9446 Y80.5822 
G01 X16.9870 Y80.5646 
G01 X17.8330 Y80.5646 
G01 X17.8754 Y80.5822 
G01 X17.9078 Y80.6146 
G01 X17.9254 Y80.6570 
G01 X17.9254 Y81.0376 
G01 X19.8246 Y81.0376 
G01 X19.8246 Y80.6570 
G01 X19.8422 Y80.6146 
G01 X19.8746 Y80.5822 
G01 X19.9170 Y80.5646 
G00 Z2.5400 
G00 X15.0946 Y86.9830 
G01 Z-0.1500 F254.00 
G01 X15.0946 Y86.5574 F508.00 
G01 X15.0345 Y86.4973 
G01 X14.9976 Y86.4082 
G01 X14.9976 Y82.7924 
G01 X11.8883 Y82.7924 
G01 X11.8883 Y83.3477 
G01 X11.8707 Y83.3901 
G01 X11.8383 Y83.4225 
G01 X11.7959 Y83.4401 
G01 X9.7433 Y83.4401 
G01 X9.7009 Y83.4225 
G01 X9.6685 Y83.3901 
G01 X9.6509 Y83.3477 
G01 X9.6509 Y82.3837 
G01 X8.7527 Y81.4855 
G01 X8.6845 Y81.4173 
G01 X8.6476 Y81.3282 
G01 X8.6476 Y59.6418 
G01 X8.6845 Y59.5527 
G01 X18.8445 Y49.3927 
G01 X18.9127 Y49.3245 
G01 X19.0018 Y49.2876 
G01 X36.8782 Y49.2876 
G01 X36.9673 Y49.3245 
G01 X37.0355 Y49.3927 
G01 X37.0724 Y49.4818 
G01 X37.0724 Y59.1048 
G01 X39.6107 Y56.5665 
G01 X39.4851 Y56.4826 
G01 X39.3770 Y56.3745 
G01 X39.2921 Y56.2475 
G01 X39.2336 Y56.1063 
G01 X39.2038 Y55.9564 
G01 X39.2038 Y55.8036 
G01 X39.2336 Y55.6537 
G01 X39.2921 Y55.5125 
G01 X39.3770 Y55.3855 
G01 X39.4851 Y55.2774 
G01 X39.6121 Y55.1925 
G01 X39.7533 Y55.1340 
G01 X39.9032 Y55.1042 
G01 X41.3768 Y55.1042 
G01 X41.5267 Y55.1340 
G01 X41.6679 Y55.1925 
G01 X41.7949 Y55.2774 
G01 X41.9030 Y55.3855 
G01 X41.9879 Y55.5125 
G01 X42.0464 Y55.6537 
G01 X42.0762 Y55.8036 
G01 X42.0762 Y55.9564 
G01 X42.0464 Y56.1063 
G01 X41.9879 Y56.2475 
G01 X41.9030 Y56.3745 
G01 X41.7949 Y56.4826 
G01 X41.6693 Y56.5665 
G01 X49.7355 Y64.6327 
G01 X49.7724 Y64.7218 
G01 X49.7724 Y84.9896 
G01 X50.4274 Y85.6446 
G01 X50.8530 Y85.6446 
G01 X50.8954 Y85.6622 
G01 X50.9278 Y85.6946 
G01 X50.9454 Y85.7370 
G01 X50.9454 Y86.1626 
G01 X51.0055 Y86.2227 
G01 X51.0424 Y86.3118 
G01 X51.0424 Y91.4882 
G01 X51.0055 Y91.5773 
G01 X50.9454 Y91.6374 
G01 X50.9454 Y92.0630 
G01 X50.9278 Y92.1054 
G01 X50.8954 Y92.1378 
G01 X50.8530 Y92.1554 
G01 X50.0070 Y92.1554 
G01 X49.9646 Y92.1378 
G01 X49.9322 Y92.1054 
G01 X49.9146 Y92.0630 
G01 X49.9146 Y90.8170 
G01 X49.9322 Y90.7746 
G01 X49.9646 Y90.7422 
G01 X50.0070 Y90.7246 
G01 X50.5576 Y90.7246 
G01 X50.5576 Y89.6154 
G01 X50.0070 Y89.6154 
G01 X49.9646 Y89.5978 
G01 X49.9322 Y89.5654 
G01 X49.9146 Y89.5230 
G01 X49.9146 Y88.2770 
G01 X49.9322 Y88.2346 
G01 X49.9646 Y88.2022 
G01 X50.0070 Y88.1846 
G01 X50.5576 Y88.1846 
G01 X50.5576 Y87.0754 
G01 X50.0070 Y87.0754 
G01 X49.9646 Y87.0578 
G01 X49.9322 Y87.0254 
G01 X49.9146 Y86.9830 
G01 X49.9146 Y85.8174 
G01 X49.3927 Y85.2955 
G01 X49.3245 Y85.2273 
G01 X49.2876 Y85.1382 
G01 X49.2876 Y64.8704 
G01 X41.0730 Y56.6558 
G01 X40.2070 Y56.6558 
G01 X37.0724 Y59.7904 
G01 X37.0724 Y86.7145 
G01 X37.2092 Y86.7145 
G01 X37.7455 Y87.2508 
G01 X37.7455 Y88.0092 
G01 X37.2092 Y88.5455 
G01 X36.4508 Y88.5455 
G01 X35.9145 Y88.0092 
G01 X35.9145 Y87.2508 
G01 X36.4508 Y86.7145 
G01 X36.5876 Y86.7145 
G01 X36.5876 Y49.7724 
G01 X19.1504 Y49.7724 
G01 X9.1324 Y59.7904 
G01 X9.1324 Y81.1796 
G01 X9.6910 Y81.7382 
G01 X9.7009 Y81.7283 
G01 X9.7433 Y81.7107 
G01 X11.7959 Y81.7107 
G01 X11.8383 Y81.7283 
G01 X11.8707 Y81.7607 
G01 X11.8883 Y81.8031 
G01 X11.8883 Y82.3076 
G01 X14.9976 Y82.3076 
G01 X14.9976 Y81.2318 
G01 X15.0345 Y81.1427 
G01 X15.0946 Y81.0826 
G01 X15.0946 Y80.6570 
G01 X15.1122 Y80.6146 
G01 X15.1446 Y80.5822 
G01 X15.1870 Y80.5646 
G01 X16.0330 Y80.5646 
G01 X16.0754 Y80.5822 
G01 X16.1078 Y80.6146 
G01 X16.1254 Y80.6570 
G01 X16.1254 Y81.9030 
G01 X16.1078 Y81.9454 
G01 X16.0754 Y81.9778 
G01 X16.0330 Y81.9954 
G01 X15.4824 Y81.9954 
G01 X15.4824 Y83.1046 
G01 X16.0330 Y83.1046 
G01 X16.0754 Y83.1222 
G01 X16.1078 Y83.1546 
G01 X16.1254 Y83.1970 
G01 X16.1254 Y84.4430 
G01 X16.1078 Y84.4854 
G01 X16.0754 Y84.5178 
G01 X16.0330 Y84.5354 
G01 X15.4824 Y84.5354 
G01 X15.4824 Y85.6446 
G01 X16.0330 Y85.6446 
G01 X16.0754 Y85.6622 
G01 X16.1078 Y85.6946 
G01 X16.1254 Y85.7370 
G01 X16.1254 Y86.9830 
G01 X16.1078 Y87.0254 
G01 X16.0754 Y87.0578 
G01 X16.0330 Y87.0754 
G01 X15.1870 Y87.0754 
G01 X15.1446 Y87.0578 
G01 X15.1122 Y87.0254 
G01 X15.0946 Y86.9830 
G00 Z2.5400 
G00 X5.4967 Y84.5704 
G01 Z-0.1500 F254.00 
G01 X3.4441 Y84.5704 F508.00 
G01 X3.4017 Y84.5528 
G01 X3.3693 Y84.5204 
G01 X3.3517 Y84.4780 
G01 X3.3517 Y80.6220 
G01 X3.3693 Y80.5796 
G01 X3.4017 Y80.5472 
G01 X3.4441 Y80.5296 
G01 X5.4967 Y80.5296 
G01 X5.5391 Y80.5472 
G01 X5.5715 Y80.5796 
G01 X5.5891 Y80.6220 
G01 X5.5891 Y84.4780 
G01 X5.5715 Y84.5204 
G01 X5.5391 Y84.5528 
G01 X5.4967 Y84.5704 
G00 Z2.5400 
G00 X15.1572 Y90.9176 
G01 Z-0.1500 F254.00 
G01 X12.7828 Y90.9176 F508.00 
G01 X12.5950 Y90.8879 
G01 X12.4142 Y90.8291 
G01 X12.2449 Y90.7428 
G01 X12.0911 Y90.6311 
G01 X11.9567 Y90.4967 
G01 X11.8450 Y90.3429 
G01 X11.7587 Y90.1736 
G01 X11.6999 Y89.9928 
G01 X11.6702 Y89.8050 
G01 X11.6702 Y89.6150 
G01 X11.6999 Y89.4272 
G01 X11.7587 Y89.2464 
G01 X11.8450 Y89.0771 
G01 X11.9567 Y88.9233 
G01 X12.0911 Y88.7889 
G01 X12.2449 Y88.6772 
G01 X12.4142 Y88.5909 
G01 X12.5950 Y88.5321 
G01 X12.7828 Y88.5024 
G01 X15.1572 Y88.5024 
G01 X15.3450 Y88.5321 
G01 X15.5258 Y88.5909 
G01 X15.6951 Y88.6772 
G01 X15.8489 Y88.7889 
G01 X15.9833 Y88.9233 
G01 X16.0950 Y89.0771 
G01 X16.1813 Y89.2464 
G01 X16.2401 Y89.4272 
G01 X16.2698 Y89.6150 
G01 X16.2698 Y89.8050 
G01 X16.2401 Y89.9928 
G01 X16.1813 Y90.1736 
G01 X16.0950 Y90.3429 
G01 X15.9833 Y90.4967 
G01 X15.8489 Y90.6311 
G01 X15.6951 Y90.7428 
G01 X15.5258 Y90.8291 
G01 X15.3450 Y90.8879 
G01 X15.1572 Y90.9176 
G00 Z2.5400 
G00 X10.3776 Y91.5228 
G01 Z-0.1500 F254.00 
G01 X10.3776 Y93.8972 F508.00 
G01 X10.3479 Y94.0850 
G01 X10.2891 Y94.2658 
G01 X10.2028 Y94.4351 
G01 X10.0911 Y94.5889 
G01 X9.9567 Y94.7233 
G01 X9.8029 Y94.8350 
G01 X9.6336 Y94.9213 
G01 X9.4528 Y94.9801 
G01 X9.2650 Y95.0098 
G01 X9.0750 Y95.0098 
G01 X8.8872 Y94.9801 
G01 X8.7064 Y94.9213 
G01 X8.5371 Y94.8350 
G01 X8.3833 Y94.7233 
G01 X8.2489 Y94.5889 
G01 X8.1372 Y94.4351 
G01 X8.0509 Y94.2658 
G01 X7.9921 Y94.0850 
G01 X7.9624 Y93.8972 
G01 X7.9624 Y91.5228 
G01 X7.9921 Y91.3350 
G01 X8.0509 Y91.1542 
G01 X8.1372 Y90.9849 
G01 X8.2489 Y90.8311 
G01 X8.3833 Y90.6967 
G01 X8.5371 Y90.5850 
G01 X8.7064 Y90.4987 
G01 X8.8872 Y90.4399 
G01 X9.0750 Y90.4102 
G01 X9.2650 Y90.4102 
G01 X9.4528 Y90.4399 
G01 X9.6336 Y90.4987 
G01 X9.8029 Y90.5850 
G01 X9.9567 Y90.6967 
G01 X10.0911 Y90.8311 
G01 X10.2028 Y90.9849 
G01 X10.2891 Y91.1542 
G01 X10.3479 Y91.3350 
G01 X10.3776 Y91.5228 
G00 Z2.5400 
G00 X6.0334 Y96.3743 
G01 Z-0.1500 F254.00 
G01 X6.0334 Y96.6657 F508.00 
G01 X5.9954 Y96.9547 
G01 X5.9199 Y97.2362 
G01 X5.8084 Y97.5055 
G01 X5.6627 Y97.7579 
G01 X5.4852 Y97.9891 
G01 X5.2791 Y98.1952 
G01 X5.0479 Y98.3727 
G01 X4.7955 Y98.5184 
G01 X4.5262 Y98.6299 
G01 X4.2447 Y98.7054 
G01 X3.9557 Y98.7434 
G01 X3.6643 Y98.7434 
G01 X3.3753 Y98.7054 
G01 X3.0938 Y98.6299 
G01 X2.8245 Y98.5184 
G01 X2.5721 Y98.3727 
G01 X2.3409 Y98.1952 
G01 X2.1348 Y97.9891 
G01 X1.9573 Y97.7579 
G01 X1.8116 Y97.5055 
G01 X1.7001 Y97.2362 
G01 X1.6246 Y96.9547 
G01 X1.5866 Y96.6657 
G01 X1.5866 Y96.3743 
G01 X1.6246 Y96.0853 
G01 X1.7001 Y95.8038 
G01 X1.8116 Y95.5345 
G01 X1.9573 Y95.2821 
G01 X2.1348 Y95.0509 
G01 X2.3409 Y94.8448 
G01 X2.5721 Y94.6673 
G01 X2.8245 Y94.5216 
G01 X3.0938 Y94.4101 
G01 X3.3753 Y94.3346 
G01 X3.6643 Y94.2966 
G01 X3.9557 Y94.2966 
G01 X4.2447 Y94.3346 
G01 X4.5262 Y94.4101 
G01 X4.7955 Y94.5216 
G01 X5.0479 Y94.6673 
G01 X5.2791 Y94.8448 
G01 X5.4852 Y95.0509 
G01 X5.6627 Y95.2821 
G01 X5.8084 Y95.5345 
G01 X5.9199 Y95.8038 
G01 X5.9954 Y96.0853 
G01 X6.0334 Y96.3743 
G00 Z2.5400 
G00 X6.0334 Y3.6643 
G01 Z-0.1500 F254.00 
G01 X6.0334 Y3.9557 F508.00 
G01 X5.9954 Y4.2447 
G01 X5.9199 Y4.5262 
G01 X5.8084 Y4.7955 
G01 X5.6627 Y5.0479 
G01 X5.4852 Y5.2791 
G01 X5.2791 Y5.4852 
G01 X5.0479 Y5.6627 
G01 X4.7955 Y5.8084 
G01 X4.5262 Y5.9199 
G01 X4.2447 Y5.9954 
G01 X3.9557 Y6.0334 
G01 X3.6643 Y6.0334 
G01 X3.3753 Y5.9954 
G01 X3.0938 Y5.9199 
G01 X2.8245 Y5.8084 
G01 X2.5721 Y5.6627 
G01 X2.3409 Y5.4852 
G01 X2.1348 Y5.2791 
G01 X1.9573 Y5.0479 
G01 X1.8116 Y4.7955 
G01 X1.7001 Y4.5262 
G01 X1.6246 Y4.2447 
G01 X1.5866 Y3.9557 
G01 X1.5866 Y3.6643 
G01 X1.6246 Y3.3753 
G01 X1.7001 Y3.0938 
G01 X1.8116 Y2.8245 
G01 X1.9573 Y2.5721 
G01 X2.1348 Y2.3409 
G01 X2.3409 Y2.1348 
G01 X2.5721 Y1.9573 
G01 X2.8245 Y1.8116 
G01 X3.0938 Y1.7001 
G01 X3.3753 Y1.6246 
G01 X3.6643 Y1.5866 
G01 X3.9557 Y1.5866 
G01 X4.2447 Y1.6246 
G01 X4.5262 Y1.7001 
G01 X4.7955 Y1.8116 
G01 X5.0479 Y1.9573 
G01 X5.2791 Y2.1348 
G01 X5.4852 Y2.3409 
G01 X5.6627 Y2.5721 
G01 X5.8084 Y2.8245 
G01 X5.9199 Y3.0938 
G01 X5.9954 Y3.3753 
G01 X6.0334 Y3.6643 
G00 Z2.5400 
G00 X87.3134 Y96.3743 
G01 Z-0.1500 F254.00 
G01 X87.3134 Y96.6657 F508.00 
G01 X87.2754 Y96.9547 
G01 X87.1999 Y97.2362 
G01 X87.0884 Y97.5055 
G01 X86.9427 Y97.7579 
G01 X86.7652 Y97.9891 
G01 X86.5591 Y98.1952 
G01 X86.3279 Y98.3727 
G01 X86.0755 Y98.5184 
G01 X85.8062 Y98.6299 
G01 X85.5247 Y98.7054 
G01 X85.2357 Y98.7434 
G01 X84.9443 Y98.7434 
G01 X84.6553 Y98.7054 
G01 X84.3738 Y98.6299 
G01 X84.1045 Y98.5184 
G01 X83.8521 Y98.3727 
G01 X83.6209 Y98.1952 
G01 X83.4148 Y97.9891 
G01 X83.2373 Y97.7579 
G01 X83.0916 Y97.5055 
G01 X82.9801 Y97.2362 
G01 X82.9046 Y96.9547 
G01 X82.8666 Y96.6657 
G01 X82.8666 Y96.3743 
G01 X82.9046 Y96.0853 
G01 X82.9801 Y95.8038 
G01 X83.0916 Y95.5345 
G01 X83.2373 Y95.2821 
G01 X83.4148 Y95.0509 
G01 X83.6209 Y94.8448 
G01 X83.8521 Y94.6673 
G01 X84.1045 Y94.5216 
G01 X84.3738 Y94.4101 
G01 X84.6553 Y94.3346 
G01 X84.9443 Y94.2966 
G01 X85.2357 Y94.2966 
G01 X85.5247 Y94.3346 
G01 X85.8062 Y94.4101 
G01 X86.0755 Y94.5216 
G01 X86.3279 Y94.6673 
G01 X86.5591 Y94.8448 
G01 X86.7652 Y95.0509 
G01 X86.9427 Y95.2821 
G01 X87.0884 Y95.5345 
G01 X87.1999 Y95.8038 
G01 X87.2754 Y96.0853 
G01 X87.3134 Y96.3743 
G00 Z2.5400 
G00 X87.3134 Y3.6643 
G01 Z-0.1500 F254.00 
G01 X87.3134 Y3.9557 F508.00 
G01 X87.2754 Y4.2447 
G01 X87.1999 Y4.5262 
G01 X87.0884 Y4.7955 
G01 X86.9427 Y5.0479 
G01 X86.7652 Y5.2791 
G01 X86.5591 Y5.4852 
G01 X86.3279 Y5.6627 
G01 X86.0755 Y5.8084 
G01 X85.8062 Y5.9199 
G01 X85.5247 Y5.9954 
G01 X85.2357 Y6.0334 
G01 X84.9443 Y6.0334 
G01 X84.6553 Y5.9954 
G01 X84.3738 Y5.9199 
G01 X84.1045 Y5.8084 
G01 X83.8521 Y5.6627 
G01 X83.6209 Y5.4852 
G01 X83.4148 Y5.2791 
G01 X83.2373 Y5.0479 
G01 X83.0916 Y4.7955 
G01 X82.9801 Y4.5262 
G01 X82.9046 Y4.2447 
G01 X82.8666 Y3.9557 
G01 X82.8666 Y3.6643 
G01 X82.9046 Y3.3753 
G01 X82.9801 Y3.0938 
G01 X83.0916 Y2.8245 
G01 X83.2373 Y2.5721 
G01 X83.4148 Y2.3409 
G01 X83.6209 Y2.1348 
G01 X83.8521 Y1.9573 
G01 X84.1045 Y1.8116 
G01 X84.3738 Y1.7001 
G01 X84.6553 Y1.6246 
G01 X84.9443 Y1.5866 
G01 X85.2357 Y1.5866 
G01 X85.5247 Y1.6246 
G01 X85.8062 Y1.7001 
G01 X86.0755 Y1.8116 
G01 X86.3279 Y1.9573 
G01 X86.5591 Y2.1348 
G01 X86.7652 Y2.3409 
G01 X86.9427 Y2.5721 
G01 X87.0884 Y2.8245 
G01 X87.1999 Y3.0938 
G01 X87.2754 Y3.3753 
G01 X87.3134 Y3.6643 
G00 Z2.5400 
G00 X21.7286 Y60.6578 
G01 Z-0.1500 F254.00 
G01 X21.7655 Y60.5687 F508.00 
G01 X21.8337 Y60.5005 
G01 X21.9228 Y60.4636 
G01 X22.4906 Y60.4636 
G01 X22.4906 Y57.5194 
G01 X16.8794 Y57.5194 
G01 X16.8794 Y57.6117 
G01 X16.9618 Y57.5776 
G01 X17.8582 Y57.5776 
G01 X17.9473 Y57.6145 
G01 X18.0155 Y57.6827 
G01 X18.0524 Y57.7718 
G01 X18.0524 Y58.1700 
G01 X18.0756 Y58.1932 
G01 X21.7286 Y61.8462 
G01 X21.7286 Y60.6578 
G00 Z2.5400 
G00 X16.9618 Y80.4376 
G01 Z-0.1500 F254.00 
G01 X17.8582 Y80.4376 F508.00 
G01 X17.9473 Y80.4745 
G01 X18.0155 Y80.5427 
G01 X18.0524 Y80.6318 
G01 X18.0524 Y80.9106 
G01 X19.6976 Y80.9106 
G01 X19.6976 Y80.6318 
G01 X19.7345 Y80.5427 
G01 X19.8027 Y80.4745 
G01 X19.8918 Y80.4376 
G01 X21.1882 Y80.4376 
G01 X21.2206 Y80.4510 
G01 X21.2206 Y79.1094 
G01 X18.0524 Y79.1094 
G01 X18.0524 Y79.3882 
G01 X18.0155 Y79.4773 
G01 X17.9473 Y79.5455 
G01 X17.8582 Y79.5824 
G01 X16.9618 Y79.5824 
G01 X16.8794 Y79.5483 
G01 X16.8794 Y80.4717 
G01 X16.9618 Y80.4376 
G00 Z2.5400 
G00 X16.0582 Y82.1224 
G01 Z-0.1500 F254.00 
G01 X15.6094 Y82.1224 F508.00 
G01 X15.6094 Y82.9776 
G01 X16.0582 Y82.9776 
G01 X16.1473 Y83.0145 
G01 X16.2155 Y83.0827 
G01 X16.2524 Y83.1718 
G01 X16.2524 Y84.4682 
G01 X16.2155 Y84.5573 
G01 X16.1473 Y84.6255 
G01 X16.0582 Y84.6624 
G01 X15.6094 Y84.6624 
G01 X15.6094 Y85.5176 
G01 X16.0582 Y85.5176 
G01 X16.1406 Y85.5517 
G01 X16.1406 Y85.0414 
G01 X16.1658 Y84.9474 
G01 X16.2144 Y84.8632 
G01 X16.2832 Y84.7944 
G01 X16.3674 Y84.7458 
G01 X16.4614 Y84.7206 
G01 X21.2206 Y84.7206 
G01 X21.2206 Y82.1090 
G01 X21.1882 Y82.1224 
G01 X19.8918 Y82.1224 
G01 X19.8027 Y82.0855 
G01 X19.7345 Y82.0173 
G01 X19.6976 Y81.9282 
G01 X19.6976 Y81.6494 
G01 X18.0524 Y81.6494 
G01 X18.0524 Y81.9282 
G01 X18.0155 Y82.0173 
G01 X17.9473 Y82.0855 
G01 X17.8582 Y82.1224 
G01 X16.9618 Y82.1224 
G01 X16.8794 Y82.0883 
G01 X16.8794 Y82.3970 
G01 X17.4600 Y82.9776 
G01 X17.8582 Y82.9776 
G01 X17.9473 Y83.0145 
G01 X18.0155 Y83.0827 
G01 X18.0524 Y83.1718 
G01 X18.0524 Y83.5700 
G01 X18.0756 Y83.5932 
G01 X18.1242 Y83.6774 
G01 X18.1494 Y83.7714 
G01 X18.1494 Y83.8686 
G01 X18.1242 Y83.9626 
G01 X18.0756 Y84.0468 
G01 X18.0524 Y84.0700 
G01 X18.0524 Y84.4682 
G01 X18.0155 Y84.5573 
G01 X17.9473 Y84.6255 
G01 X17.8582 Y84.6624 
G01 X16.9618 Y84.6624 
G01 X16.8727 Y84.6255 
G01 X16.8045 Y84.5573 
G01 X16.7676 Y84.4682 
G01 X16.7676 Y83.3300 
G01 X16.2832 Y82.8456 
G01 X16.2144 Y82.7768 
G01 X16.1658 Y82.6926 
G01 X16.1406 Y82.5986 
G01 X16.1406 Y82.0883 
G01 X16.0582 Y82.1224 
G00 Z2.5400 
G00 X16.0582 Y79.5824 
G01 Z-0.1500 F254.00 
G01 X15.1618 Y79.5824 F508.00 
G01 X15.0727 Y79.5455 
G01 X15.0045 Y79.4773 
G01 X14.9676 Y79.3882 
G01 X14.9676 Y79.1094 
G01 X11.7994 Y79.1094 
G01 X11.7994 Y79.2977 
G01 X11.8211 Y79.2977 
G01 X11.9102 Y79.3346 
G01 X11.9784 Y79.4028 
G01 X12.0153 Y79.4919 
G01 X12.0153 Y81.0869 
G01 X11.9784 Y81.1760 
G01 X11.9102 Y81.2442 
G01 X11.8211 Y81.2811 
G01 X9.7181 Y81.2811 
G01 X9.6290 Y81.2442 
G01 X9.5608 Y81.1760 
G01 X9.5239 Y81.0869 
G01 X9.5239 Y79.4919 
G01 X9.5608 Y79.4028 
G01 X9.6290 Y79.3346 
G01 X9.7181 Y79.2977 
G01 X11.0606 Y79.2977 
G01 X11.0606 Y73.8270 
G01 X10.9842 Y73.9322 
G01 X10.8640 Y74.0524 
G01 X10.7264 Y74.1524 
G01 X10.5748 Y74.2296 
G01 X10.4130 Y74.2822 
G01 X10.2450 Y74.3088 
G01 X10.0750 Y74.3088 
G01 X9.9070 Y74.2822 
G01 X9.7452 Y74.2296 
G01 X9.5936 Y74.1524 
G01 X9.4560 Y74.0524 
G01 X9.3358 Y73.9322 
G01 X9.2594 Y73.8270 
G01 X9.2594 Y81.1270 
G01 X9.7167 Y81.5843 
G01 X11.8211 Y81.5837 
G01 X11.9102 Y81.6206 
G01 X11.9784 Y81.6888 
G01 X12.0153 Y81.7779 
G01 X12.0153 Y82.1806 
G01 X14.8706 Y82.1806 
G01 X14.8706 Y81.2314 
G01 X14.8958 Y81.1374 
G01 X14.9444 Y81.0532 
G01 X14.9676 Y81.0300 
G01 X14.9676 Y80.6318 
G01 X15.0045 Y80.5427 
G01 X15.0727 Y80.4745 
G01 X15.1618 Y80.4376 
G01 X16.0582 Y80.4376 
G01 X16.1406 Y80.4717 
G01 X16.1406 Y79.5483 
G01 X16.0582 Y79.5824 
G00 Z2.5400 
G00 X33.7693 Y77.1028 
G01 Z-0.1500 F254.00 
G01 X32.2707 Y77.1028 F508.00 
G01 X32.0963 Y77.0681 
G01 X31.9320 Y77.0000 
G01 X31.7841 Y76.9012 
G01 X31.6584 Y76.7755 
G01 X31.5596 Y76.6276 
G01 X31.4919 Y76.4643 
G01 X31.4544 Y76.4268 
G01 X24.1300 Y69.1024 
G01 X16.8794 Y76.3530 
G01 X16.8794 Y77.9317 
G01 X16.9618 Y77.8976 
G01 X17.8582 Y77.8976 
G01 X17.9473 Y77.9345 
G01 X18.0155 Y78.0027 
G01 X18.0524 Y78.0918 
G01 X18.0524 Y78.3706 
G01 X25.4486 Y78.3706 
G01 X25.5426 Y78.3958 
G01 X25.6268 Y78.4444 
G01 X25.6956 Y78.5132 
G01 X25.7442 Y78.5974 
G01 X25.7694 Y78.6914 
G01 X25.7694 Y84.1706 
G01 X25.9411 Y84.1364 
G01 X26.1289 Y84.1364 
G01 X26.3132 Y84.1730 
G01 X26.4867 Y84.2449 
G01 X26.6429 Y84.3493 
G01 X26.7757 Y84.4821 
G01 X26.8801 Y84.6383 
G01 X26.9520 Y84.8118 
G01 X26.9886 Y84.9961 
G01 X26.9886 Y85.1839 
G01 X26.9520 Y85.3682 
G01 X26.8801 Y85.5417 
G01 X26.7757 Y85.6979 
G01 X26.6429 Y85.8307 
G01 X26.4867 Y85.9351 
G01 X26.3132 Y86.0070 
G01 X26.1289 Y86.0436 
G01 X25.9411 Y86.0436 
G01 X25.7568 Y86.0070 
G01 X25.5833 Y85.9351 
G01 X25.4271 Y85.8307 
G01 X25.2943 Y85.6979 
G01 X25.1899 Y85.5417 
G01 X25.1180 Y85.3682 
G01 X25.1087 Y85.3211 
G01 X25.1044 Y85.3168 
G01 X25.0558 Y85.2326 
G01 X25.0306 Y85.1386 
G01 X25.0306 Y79.1094 
G01 X21.9594 Y79.1094 
G01 X21.9594 Y80.4510 
G01 X21.9918 Y80.4376 
G01 X23.2882 Y80.4376 
G01 X23.3773 Y80.4745 
G01 X23.4455 Y80.5427 
G01 X23.4824 Y80.6318 
G01 X23.4824 Y81.3800 
G01 X24.3568 Y82.2544 
G01 X24.4256 Y82.3232 
G01 X24.4742 Y82.4074 
G01 X24.4994 Y82.5014 
G01 X24.4994 Y84.9370 
G01 X25.6268 Y86.0644 
G01 X25.6956 Y86.1332 
G01 X26.5744 Y87.0120 
G01 X26.6971 Y86.8893 
G01 X26.8533 Y86.7849 
G01 X27.0268 Y86.7130 
G01 X27.2111 Y86.6764 
G01 X27.3989 Y86.6764 
G01 X27.5832 Y86.7130 
G01 X27.7567 Y86.7849 
G01 X27.9129 Y86.8893 
G01 X28.0356 Y87.0120 
G01 X30.1106 Y84.9370 
G01 X30.1106 Y82.5014 
G01 X30.1358 Y82.4074 
G01 X30.1844 Y82.3232 
G01 X30.2532 Y82.2544 
G01 X30.3374 Y82.2058 
G01 X30.4314 Y82.1806 
G01 X35.1906 Y82.1806 
G01 X35.1906 Y61.1130 
G01 X33.4004 Y59.3228 
G01 X32.2707 Y59.3228 
G01 X32.0963 Y59.2881 
G01 X31.9320 Y59.2200 
G01 X31.7841 Y59.1212 
G01 X31.6584 Y58.9955 
G01 X31.5596 Y58.8476 
G01 X31.4915 Y58.6833 
G01 X31.4568 Y58.5089 
G01 X31.4568 Y58.3311 
G01 X31.4915 Y58.1567 
G01 X31.5596 Y57.9924 
G01 X31.6584 Y57.8445 
G01 X31.7841 Y57.7188 
G01 X31.9320 Y57.6200 
G01 X32.0963 Y57.5519 
G01 X32.2707 Y57.5172 
G01 X33.7693 Y57.5172 
G01 X33.9437 Y57.5519 
G01 X34.1080 Y57.6200 
G01 X34.2559 Y57.7188 
G01 X34.3816 Y57.8445 
G01 X34.4804 Y57.9924 
G01 X34.5485 Y58.1567 
G01 X34.5832 Y58.3311 
G01 X34.5832 Y58.5089 
G01 X34.5485 Y58.6833 
G01 X34.4804 Y58.8476 
G01 X34.3816 Y58.9955 
G01 X34.2559 Y59.1212 
G01 X34.2486 Y59.1262 
G01 X35.7868 Y60.6644 
G01 X35.8556 Y60.7332 
G01 X35.9042 Y60.8174 
G01 X35.9294 Y60.9114 
G01 X35.9294 Y81.7076 
G01 X36.3782 Y81.7076 
G01 X36.4606 Y81.7417 
G01 X36.4606 Y49.8994 
G01 X33.7803 Y49.8994 
G01 X33.9437 Y49.9319 
G01 X34.1080 Y50.0000 
G01 X34.2559 Y50.0988 
G01 X34.3816 Y50.2245 
G01 X34.4804 Y50.3724 
G01 X34.5485 Y50.5367 
G01 X34.5832 Y50.7111 
G01 X34.5832 Y50.8889 
G01 X34.5485 Y51.0633 
G01 X34.4804 Y51.2276 
G01 X34.3816 Y51.3755 
G01 X34.2559 Y51.5012 
G01 X34.1080 Y51.6000 
G01 X33.9437 Y51.6681 
G01 X33.7693 Y51.7028 
G01 X32.2707 Y51.7028 
G01 X32.0963 Y51.6681 
G01 X31.9320 Y51.6000 
G01 X31.7841 Y51.5012 
G01 X31.6584 Y51.3755 
G01 X31.5596 Y51.2276 
G01 X31.4915 Y51.0633 
G01 X31.4568 Y50.8889 
G01 X31.4568 Y50.7111 
G01 X31.4915 Y50.5367 
G01 X31.5596 Y50.3724 
G01 X31.6584 Y50.2245 
G01 X31.7841 Y50.0988 
G01 X31.9320 Y50.0000 
G01 X32.0963 Y49.9319 
G01 X32.2596 Y49.8994 
G01 X19.2030 Y49.8994 
G01 X15.3348 Y53.7676 
G01 X16.0582 Y53.7676 
G01 X16.1473 Y53.8045 
G01 X16.2155 Y53.8727 
G01 X16.2524 Y53.9618 
G01 X16.2524 Y55.2582 
G01 X16.2155 Y55.3473 
G01 X16.1473 Y55.4155 
G01 X16.0582 Y55.4524 
G01 X15.6094 Y55.4524 
G01 X15.6094 Y57.5776 
G01 X16.0582 Y57.5776 
G01 X16.1406 Y57.6117 
G01 X16.1406 Y57.1014 
G01 X16.1658 Y57.0074 
G01 X16.2144 Y56.9232 
G01 X16.2832 Y56.8544 
G01 X16.3674 Y56.8058 
G01 X16.4614 Y56.7806 
G01 X22.9086 Y56.7806 
G01 X23.0026 Y56.8058 
G01 X23.0868 Y56.8544 
G01 X23.1556 Y56.9232 
G01 X23.2042 Y57.0074 
G01 X23.2294 Y57.1014 
G01 X23.2294 Y57.5282 
G01 X23.7606 Y56.9970 
G01 X23.7606 Y56.3764 
G01 X21.9228 Y56.3764 
G01 X21.8337 Y56.3395 
G01 X21.7655 Y56.2713 
G01 X21.7286 Y56.1822 
G01 X21.7286 Y54.9794 
G01 X18.0524 Y54.9794 
G01 X18.0524 Y55.2582 
G01 X18.0155 Y55.3473 
G01 X17.9473 Y55.4155 
G01 X17.8582 Y55.4524 
G01 X16.9618 Y55.4524 
G01 X16.8727 Y55.4155 
G01 X16.8045 Y55.3473 
G01 X16.7676 Y55.2582 
G01 X16.7676 Y53.9618 
G01 X16.8045 Y53.8727 
G01 X16.8727 Y53.8045 
G01 X16.9618 Y53.7676 
G01 X17.8582 Y53.7676 
G01 X17.9473 Y53.8045 
G01 X18.0155 Y53.8727 
G01 X18.0524 Y53.9618 
G01 X18.0524 Y54.2406 
G01 X21.7286 Y54.2406 
G01 X21.7286 Y51.0058 
G01 X21.7655 Y50.9167 
G01 X21.8337 Y50.8485 
G01 X21.9228 Y50.8116 
G01 X23.7972 Y50.8116 
G01 X23.8863 Y50.8485 
G01 X23.9545 Y50.9167 
G01 X23.9914 Y51.0058 
G01 X23.9914 Y52.9706 
G01 X31.5354 Y52.9706 
G01 X31.5596 Y52.9124 
G01 X31.6584 Y52.7645 
G01 X31.7841 Y52.6388 
G01 X31.9320 Y52.5400 
G01 X32.0963 Y52.4719 
G01 X32.2707 Y52.4372 
G01 X33.7693 Y52.4372 
G01 X33.9437 Y52.4719 
G01 X34.1080 Y52.5400 
G01 X34.2559 Y52.6388 
G01 X34.3816 Y52.7645 
G01 X34.4804 Y52.9124 
G01 X34.5485 Y53.0767 
G01 X34.5832 Y53.2511 
G01 X34.5832 Y53.4289 
G01 X34.5485 Y53.6033 
G01 X34.4804 Y53.7676 
G01 X34.3816 Y53.9155 
G01 X34.2559 Y54.0412 
G01 X34.1080 Y54.1400 
G01 X33.9437 Y54.2081 
G01 X33.7693 Y54.2428 
G01 X32.2707 Y54.2428 
G01 X32.0963 Y54.2081 
G01 X31.9320 Y54.1400 
G01 X31.7841 Y54.0412 
G01 X31.6584 Y53.9155 
G01 X31.5596 Y53.7676 
G01 X31.5354 Y53.7094 
G01 X23.9914 Y53.7094 
G01 X23.9914 Y55.5347 
G01 X24.0814 Y55.5106 
G01 X31.5354 Y55.5106 
G01 X31.5596 Y55.4524 
G01 X31.6584 Y55.3045 
G01 X31.7841 Y55.1788 
G01 X31.9320 Y55.0800 
G01 X32.0963 Y55.0119 
G01 X32.2707 Y54.9772 
G01 X33.7693 Y54.9772 
G01 X33.9437 Y55.0119 
G01 X34.1080 Y55.0800 
G01 X34.2559 Y55.1788 
G01 X34.3816 Y55.3045 
G01 X34.4804 Y55.4524 
G01 X34.5485 Y55.6167 
G01 X34.5832 Y55.7911 
G01 X34.5832 Y55.9689 
G01 X34.5485 Y56.1433 
G01 X34.4804 Y56.3076 
G01 X34.3816 Y56.4555 
G01 X34.2559 Y56.5812 
G01 X34.1080 Y56.6800 
G01 X33.9437 Y56.7481 
G01 X33.7693 Y56.7828 
G01 X32.2707 Y56.7828 
G01 X32.0963 Y56.7481 
G01 X31.9320 Y56.6800 
G01 X31.7841 Y56.5812 
G01 X31.6584 Y56.4555 
G01 X31.5596 Y56.3076 
G01 X31.5354 Y56.2494 
G01 X24.4994 Y56.2494 
G01 X24.4994 Y57.1986 
G01 X24.4742 Y57.2926 
G01 X24.4256 Y57.3768 
G01 X23.2294 Y58.5730 
G01 X23.2294 Y60.4636 
G01 X23.7972 Y60.4636 
G01 X23.8863 Y60.5005 
G01 X23.9545 Y60.5687 
G01 X23.9914 Y60.6578 
G01 X23.9914 Y65.8342 
G01 X23.9545 Y65.9233 
G01 X23.8863 Y65.9915 
G01 X23.7972 Y66.0284 
G01 X22.1008 Y66.0284 
G01 X24.3568 Y68.2844 
G01 X24.4256 Y68.3532 
G01 X31.6776 Y75.6052 
G01 X31.7841 Y75.4988 
G01 X31.9320 Y75.4000 
G01 X32.0963 Y75.3319 
G01 X32.2707 Y75.2972 
G01 X33.7693 Y75.2972 
G01 X33.9437 Y75.3319 
G01 X34.1080 Y75.4000 
G01 X34.2559 Y75.4988 
G01 X34.3816 Y75.6245 
G01 X34.4804 Y75.7724 
G01 X34.5485 Y75.9367 
G01 X34.5832 Y76.1111 
G01 X34.5832 Y76.2889 
G01 X34.5485 Y76.4633 
G01 X34.4804 Y76.6276 
G01 X34.3816 Y76.7755 
G01 X34.2559 Y76.9012 
G01 X34.1080 Y77.0000 
G01 X33.9437 Y77.0681 
G01 X33.7693 Y77.1028 
G00 Z2.5400 
G00 X29.5286 Y84.9961 
G01 Z-0.1500 F254.00 
G01 X29.5286 Y85.1839 F508.00 
G01 X29.4920 Y85.3682 
G01 X29.4201 Y85.5417 
G01 X29.3157 Y85.6979 
G01 X29.1829 Y85.8307 
G01 X29.0267 Y85.9351 
G01 X28.8532 Y86.0070 
G01 X28.6689 Y86.0436 
G01 X28.4811 Y86.0436 
G01 X28.2968 Y86.0070 
G01 X28.1233 Y85.9351 
G01 X27.9671 Y85.8307 
G01 X27.8343 Y85.6979 
G01 X27.7299 Y85.5417 
G01 X27.6580 Y85.3682 
G01 X27.6214 Y85.1839 
G01 X27.6214 Y84.9961 
G01 X27.6580 Y84.8118 
G01 X27.7299 Y84.6383 
G01 X27.8343 Y84.4821 
G01 X27.9671 Y84.3493 
G01 X28.1233 Y84.2449 
G01 X28.2968 Y84.1730 
G01 X28.4811 Y84.1364 
G01 X28.6689 Y84.1364 
G01 X28.8532 Y84.1730 
G01 X29.0267 Y84.2449 
G01 X29.1829 Y84.3493 
G01 X29.3157 Y84.4821 
G01 X29.4201 Y84.6383 
G01 X29.4920 Y84.8118 
G01 X29.5286 Y84.9961 
G00 Z2.5400 
G00 X33.7693 Y74.5628 
G01 Z-0.1500 F254.00 
G01 X32.2707 Y74.5628 F508.00 
G01 X32.0963 Y74.5281 
G01 X31.9320 Y74.4600 
G01 X31.7841 Y74.3612 
G01 X31.6584 Y74.2355 
G01 X31.5596 Y74.0876 
G01 X31.4915 Y73.9233 
G01 X31.4568 Y73.7489 
G01 X31.4568 Y73.5711 
G01 X31.4915 Y73.3967 
G01 X31.5596 Y73.2324 
G01 X31.6584 Y73.0845 
G01 X31.7841 Y72.9588 
G01 X31.9320 Y72.8599 
G01 X32.0963 Y72.7919 
G01 X32.2707 Y72.7572 
G01 X33.7693 Y72.7572 
G01 X33.9437 Y72.7919 
G01 X34.1080 Y72.8599 
G01 X34.2559 Y72.9588 
G01 X34.3816 Y73.0845 
G01 X34.4804 Y73.2324 
G01 X34.5485 Y73.3967 
G01 X34.5832 Y73.5711 
G01 X34.5832 Y73.7489 
G01 X34.5485 Y73.9233 
G01 X34.4804 Y74.0876 
G01 X34.3816 Y74.2355 
G01 X34.2559 Y74.3612 
G01 X34.1080 Y74.4600 
G01 X33.9437 Y74.5281 
G01 X33.7693 Y74.5628 
G00 Z2.5400 
G00 X33.7693 Y72.0228 
G01 Z-0.1500 F254.00 
G01 X32.2707 Y72.0228 F508.00 
G01 X32.0963 Y71.9881 
G01 X31.9320 Y71.9200 
G01 X31.7841 Y71.8212 
G01 X31.6584 Y71.6955 
G01 X31.5596 Y71.5476 
G01 X31.4915 Y71.3833 
G01 X31.4568 Y71.2089 
G01 X31.4568 Y71.0311 
G01 X31.4915 Y70.8567 
G01 X31.5596 Y70.6924 
G01 X31.6584 Y70.5445 
G01 X31.7841 Y70.4188 
G01 X31.9320 Y70.3200 
G01 X32.0963 Y70.2519 
G01 X32.2707 Y70.2172 
G01 X33.7693 Y70.2172 
G01 X33.9437 Y70.2519 
G01 X34.1080 Y70.3200 
G01 X34.2559 Y70.4188 
G01 X34.3816 Y70.5445 
G01 X34.4804 Y70.6924 
G01 X34.5485 Y70.8567 
G01 X34.5832 Y71.0311 
G01 X34.5832 Y71.2089 
G01 X34.5485 Y71.3833 
G01 X34.4804 Y71.5476 
G01 X34.3816 Y71.6955 
G01 X34.2559 Y71.8212 
G01 X34.1080 Y71.9200 
G01 X33.9437 Y71.9881 
G01 X33.7693 Y72.0228 
G00 Z2.5400 
G00 X33.7693 Y69.4828 
G01 Z-0.1500 F254.00 
G01 X32.2707 Y69.4828 F508.00 
G01 X32.0963 Y69.4481 
G01 X31.9320 Y69.3800 
G01 X31.7841 Y69.2812 
G01 X31.6584 Y69.1555 
G01 X31.5596 Y69.0076 
G01 X31.4915 Y68.8433 
G01 X31.4568 Y68.6689 
G01 X31.4568 Y68.4911 
G01 X31.4915 Y68.3167 
G01 X31.5596 Y68.1524 
G01 X31.6584 Y68.0045 
G01 X31.7841 Y67.8787 
G01 X31.9320 Y67.7799 
G01 X32.0963 Y67.7119 
G01 X32.2707 Y67.6772 
G01 X33.7693 Y67.6772 
G01 X33.9437 Y67.7119 
G01 X34.1080 Y67.7799 
G01 X34.2559 Y67.8787 
G01 X34.3816 Y68.0045 
G01 X34.4804 Y68.1524 
G01 X34.5485 Y68.3167 
G01 X34.5832 Y68.4911 
G01 X34.5832 Y68.6689 
G01 X34.5485 Y68.8433 
G01 X34.4804 Y69.0076 
G01 X34.3816 Y69.1555 
G01 X34.2559 Y69.2812 
G01 X34.1080 Y69.3800 
G01 X33.9437 Y69.4481 
G01 X33.7693 Y69.4828 
G00 Z2.5400 
G00 X33.7693 Y66.9428 
G01 Z-0.1500 F254.00 
G01 X32.2707 Y66.9428 F508.00 
G01 X32.0963 Y66.9081 
G01 X31.9320 Y66.8400 
G01 X31.7841 Y66.7412 
G01 X31.6584 Y66.6155 
G01 X31.5596 Y66.4676 
G01 X31.4915 Y66.3033 
G01 X31.4568 Y66.1289 
G01 X31.4568 Y65.9511 
G01 X31.4915 Y65.7767 
G01 X31.5596 Y65.6124 
G01 X31.6584 Y65.4645 
G01 X31.7841 Y65.3388 
G01 X31.9320 Y65.2400 
G01 X32.0963 Y65.1719 
G01 X32.2707 Y65.1372 
G01 X33.7693 Y65.1372 
G01 X33.9437 Y65.1719 
G01 X34.1080 Y65.2400 
G01 X34.2559 Y65.3388 
G01 X34.3816 Y65.4645 
G01 X34.4804 Y65.6124 
G01 X34.5485 Y65.7767 
G01 X34.5832 Y65.9511 
G01 X34.5832 Y66.1289 
G01 X34.5485 Y66.3033 
G01 X34.4804 Y66.4676 
G01 X34.3816 Y66.6155 
G01 X34.2559 Y66.7412 
G01 X34.1080 Y66.8400 
G01 X33.9437 Y66.9081 
G01 X33.7693 Y66.9428 
G00 Z2.5400 
G00 X33.7693 Y64.4028 
G01 Z-0.1500 F254.00 
G01 X32.2707 Y64.4028 F508.00 
G01 X32.0963 Y64.3681 
G01 X31.9320 Y64.3000 
G01 X31.7841 Y64.2012 
G01 X31.6584 Y64.0755 
G01 X31.5596 Y63.9276 
G01 X31.4915 Y63.7633 
G01 X31.4568 Y63.5889 
G01 X31.4568 Y63.4111 
G01 X31.4915 Y63.2367 
G01 X31.5596 Y63.0724 
G01 X31.6584 Y62.9245 
G01 X31.7841 Y62.7988 
G01 X31.9320 Y62.7000 
G01 X32.0963 Y62.6319 
G01 X32.2707 Y62.5972 
G01 X33.7693 Y62.5972 
G01 X33.9437 Y62.6319 
G01 X34.1080 Y62.7000 
G01 X34.2559 Y62.7988 
G01 X34.3816 Y62.9245 
G01 X34.4804 Y63.0724 
G01 X34.5485 Y63.2367 
G01 X34.5832 Y63.4111 
G01 X34.5832 Y63.5889 
G01 X34.5485 Y63.7633 
G01 X34.4804 Y63.9276 
G01 X34.3816 Y64.0755 
G01 X34.2559 Y64.2012 
G01 X34.1080 Y64.3000 
G01 X33.9437 Y64.3681 
G01 X33.7693 Y64.4028 
G00 Z2.5400 
G00 X33.7693 Y61.8628 
G01 Z-0.1500 F254.00 
G01 X32.2707 Y61.8628 F508.00 
G01 X32.0963 Y61.8281 
G01 X31.9320 Y61.7600 
G01 X31.7841 Y61.6612 
G01 X31.6584 Y61.5355 
G01 X31.5596 Y61.3876 
G01 X31.4915 Y61.2233 
G01 X31.4568 Y61.0489 
G01 X31.4568 Y60.8711 
G01 X31.4915 Y60.6967 
G01 X31.5596 Y60.5324 
G01 X31.6584 Y60.3845 
G01 X31.7841 Y60.2588 
G01 X31.9320 Y60.1600 
G01 X32.0963 Y60.0919 
G01 X32.2707 Y60.0572 
G01 X33.7693 Y60.0572 
G01 X33.9437 Y60.0919 
G01 X34.1080 Y60.1600 
G01 X34.2559 Y60.2588 
G01 X34.3816 Y60.3845 
G01 X34.4804 Y60.5324 
G01 X34.5485 Y60.6967 
G01 X34.5832 Y60.8711 
G01 X34.5832 Y61.0489 
G01 X34.5485 Y61.2233 
G01 X34.4804 Y61.3876 
G01 X34.3816 Y61.5355 
G01 X34.2559 Y61.6612 
G01 X34.1080 Y61.7600 
G01 X33.9437 Y61.8281 
G01 X33.7693 Y61.8628 
G00 Z2.5400 
G00 X21.2944 Y66.2668 
G01 Z-0.1500 F254.00 
G01 X21.2458 Y66.1826 F508.00 
G01 X21.2206 Y66.0886 
G01 X21.2206 Y62.3830 
G01 X18.0052 Y59.1676 
G01 X17.9473 Y59.2255 
G01 X17.8582 Y59.2624 
G01 X16.9618 Y59.2624 
G01 X16.8794 Y59.2283 
G01 X16.8794 Y60.8070 
G01 X17.4600 Y61.3876 
G01 X17.8582 Y61.3876 
G01 X17.9473 Y61.4245 
G01 X18.0155 Y61.4927 
G01 X18.0524 Y61.5818 
G01 X18.0524 Y61.9800 
G01 X18.0756 Y62.0032 
