(.../pcb-gcode-3.6.0.4/pcb-gcode.ulp)
(Copyright 2005 - 2012 by John Johnson)
(See readme.txt for licensing terms.)
(This file generated from the board:)
(.../eagle/ARMEDBASE_V0/MCU/MCU.brd)
(Current profile is .../pcb-gcode-3.6.0.4/profiles/emc.pp  )
(This file generated 6/26/2014 2:01:29 PM)
(Settings from pcb-machine.h)
(  Tool Size)
(0.2000 )
(Z Axis Settings)
(  High     Up        Down     Drill)
(12.7000 	2.5400 	-0.1500 	-0.8128 )
(spindle on time = 3.0000)
(milling depth = -0.1500)
(text depth = -0.1270)
(tool change at 12.7000 15.2400 25.4000 )
(feed rate xy = F508.00 )
(feed rate z  = F254.00 )
(Settings from pcb-defaults.h)
(isolate min = 0.0154)
(isolate max = 0.5080)
(isolate step = 0.1270)
(Generated top outlines, top drill, bottom outlines, bottom drill, )
(Unit of measure: mm)
(Metric Mode)
G21
(Absolute Coordinates)
G90
G00 X0.0000 Y0.0000 
M03
G04 P3.000000
G00 Z2.5400 
G00 X91.7314 Y28.5392 
G01 Z-0.1500 F254.00 
G01 X92.2728 Y27.9978 F508.00 
G01 X91.7314 Y27.4564 
G01 X91.6707 Y27.4564 
G01 X91.6707 Y28.5392 
G01 X91.7314 Y28.5392 
G00 Z2.5400 
G00 X92.1170 Y34.4728 
G01 Z-0.1500 F254.00 
G01 X90.7650 Y34.4728 F508.00 
G01 X90.5140 Y34.7238 
G01 X90.5140 Y35.5556 
G01 X92.3680 Y35.5556 
G01 X92.3680 Y34.7238 
G01 X92.1170 Y34.4728 
G00 Z2.5400 
G00 X92.3680 Y42.5720 
G01 Z-0.1500 F254.00 
G01 X92.3680 Y41.7402 F508.00 
G01 X92.1170 Y41.4892 
G01 X91.5361 Y41.4892 
G01 X91.2851 Y41.7402 
G01 X91.2851 Y42.5720 
G01 X92.3680 Y42.5720 
G00 Z2.5400 
G00 X91.7314 Y44.9108 
G01 Z-0.1500 F254.00 
G01 X92.2728 Y44.3694 F508.00 
G01 X91.7314 Y43.8280 
G01 X91.6707 Y43.8280 
G01 X91.6707 Y44.9108 
G01 X91.7314 Y44.9108 
G00 Z2.5400 
G00 X90.9603 Y29.7952 
G01 Z-0.1500 F254.00 
G01 X90.7650 Y29.7952 F508.00 
G01 X90.5140 Y30.0462 
G01 X90.5140 Y30.8780 
G01 X91.2113 Y30.8780 
G01 X91.2113 Y30.0462 
G01 X90.9603 Y29.7952 
G00 Z2.5400 
G00 X92.3680 Y30.8780 
G01 Z-0.1500 F254.00 
G01 X92.3680 Y30.0462 F508.00 
G01 X92.1170 Y29.7952 
G01 X91.9217 Y29.7952 
G01 X91.6707 Y30.0462 
G01 X91.6707 Y30.8780 
G01 X92.3680 Y30.8780 
G00 Z2.5400 
G00 X90.2386 Y19.6434 
G01 Z-0.1500 F254.00 
G01 X90.1542 Y19.6085 F508.00 
G01 X90.0896 Y19.5439 
G01 X90.0546 Y19.4594 
G01 X90.0546 Y19.3681 
G01 X90.0896 Y19.2836 
G01 X90.1542 Y19.2190 
G01 X90.2386 Y19.1840 
G01 X92.0431 Y19.1840 
G01 X91.6964 Y18.8374 
G01 X91.6318 Y18.7727 
G01 X91.5969 Y18.6883 
G01 X91.5969 Y18.5969 
G01 X91.6318 Y18.5125 
G01 X92.0431 Y18.1012 
G01 X90.2386 Y18.1012 
G01 X90.1542 Y18.0662 
G01 X90.0896 Y18.0016 
G01 X90.0546 Y17.9172 
G01 X90.0546 Y17.8258 
G01 X90.0896 Y17.7414 
G01 X90.1542 Y17.6768 
G01 X90.2386 Y17.6418 
G01 X92.6434 Y17.6418 
G01 X92.7278 Y17.6768 
G01 X92.7924 Y17.7414 
G01 X92.8274 Y17.8258 
G01 X92.8274 Y17.9172 
G01 X92.7924 Y18.0016 
G01 X92.7278 Y18.0662 
G01 X92.1514 Y18.6426 
G01 X92.7924 Y19.2836 
G01 X92.8274 Y19.3681 
G01 X92.8274 Y19.4594 
G01 X92.7924 Y19.5439 
G01 X92.7278 Y19.6085 
G01 X92.6434 Y19.6434 
G01 X92.5520 Y19.6434 
G01 X90.2386 Y19.6434 
G00 Z2.5400 
G00 X90.5397 Y29.3708 
G01 Z-0.1500 F254.00 
G01 X90.6242 Y29.3358 F508.00 
G01 X91.1011 Y29.3358 
G01 X91.1855 Y29.3708 
G01 X91.2502 Y29.4354 
G01 X91.4410 Y29.6262 
G01 X91.6964 Y29.3708 
G01 X91.7809 Y29.3358 
G01 X92.2578 Y29.3358 
G01 X92.3422 Y29.3708 
G01 X92.4068 Y29.4354 
G01 X92.7924 Y29.8209 
G01 X92.8274 Y29.9054 
G01 X92.8274 Y31.1534 
G01 X92.7924 Y31.2378 
G01 X92.7278 Y31.3025 
G01 X92.6434 Y31.3374 
G01 X90.2386 Y31.3374 
G01 X90.1542 Y31.3025 
G01 X90.0896 Y31.2378 
G01 X90.0546 Y31.1534 
G01 X90.0546 Y29.9054 
G01 X90.0896 Y29.8209 
G01 X90.1542 Y29.7563 
G01 X90.5397 Y29.3708 
G00 Z2.5400 
G00 X92.3680 Y36.5362 
G01 Z-0.1500 F254.00 
G01 X92.4029 Y36.4518 F508.00 
G01 X92.4676 Y36.3871 
G01 X92.5520 Y36.3522 
G01 X92.6434 Y36.3522 
G01 X92.7278 Y36.3871 
G01 X92.7924 Y36.4518 
G01 X92.8274 Y36.5362 
G01 X92.8274 Y38.1698 
G01 X92.7924 Y38.2542 
G01 X92.7278 Y38.3189 
G01 X92.6434 Y38.3538 
G01 X90.2386 Y38.3538 
G01 X90.1542 Y38.3189 
G01 X90.0896 Y38.2542 
G01 X90.0546 Y38.1698 
G01 X90.0546 Y36.5362 
G01 X90.0896 Y36.4518 
G01 X90.1542 Y36.3871 
G01 X90.2386 Y36.3522 
G01 X90.3300 Y36.3522 
G01 X90.4144 Y36.3871 
G01 X90.4790 Y36.4518 
G01 X90.5140 Y36.5362 
G01 X90.5140 Y37.8944 
G01 X91.2113 Y37.8944 
G01 X91.2113 Y37.3073 
G01 X91.2463 Y37.2229 
G01 X91.3109 Y37.1583 
G01 X91.3953 Y37.1233 
G01 X91.4867 Y37.1233 
G01 X91.5711 Y37.1583 
G01 X91.6357 Y37.2229 
G01 X91.6707 Y37.3073 
G01 X91.6707 Y37.8944 
G01 X92.3680 Y37.8944 
G01 X92.3680 Y36.5362 
G00 Z2.5400 
G00 X92.6434 Y51.9272 
G01 Z-0.1500 F254.00 
G01 X92.7278 Y51.9622 F508.00 
G01 X92.7924 Y52.0268 
G01 X92.8274 Y52.1112 
G01 X92.8274 Y52.2026 
G01 X92.7924 Y52.2870 
G01 X92.7278 Y52.3516 
G01 X92.6434 Y52.3866 
G01 X90.2386 Y52.3866 
G01 X90.1542 Y52.3516 
G01 X90.0896 Y52.2870 
G01 X90.0546 Y52.2026 
G01 X90.0546 Y50.5690 
G01 X90.0896 Y50.4845 
G01 X90.1542 Y50.4199 
G01 X90.2386 Y50.3850 
G01 X90.3300 Y50.3850 
G01 X90.4144 Y50.4199 
G01 X90.4790 Y50.4845 
G01 X90.5140 Y50.5690 
G01 X90.5140 Y51.9272 
G01 X92.6434 Y51.9272 
G00 Z2.5400 
G00 X92.0174 Y53.0836 
G01 Z-0.1500 F254.00 
G01 X91.9824 Y52.9991 F508.00 
G01 X91.9824 Y52.9078 
G01 X92.0174 Y52.8233 
G01 X92.0820 Y52.7587 
G01 X92.1664 Y52.7238 
G01 X92.2578 Y52.7238 
G01 X92.3422 Y52.7587 
G01 X92.7278 Y53.1443 
G01 X92.7924 Y53.2089 
G01 X92.8274 Y53.2933 
G01 X92.8274 Y54.1558 
G01 X92.7924 Y54.2403 
G01 X92.4068 Y54.6258 
G01 X92.3422 Y54.6904 
G01 X92.2578 Y54.7254 
G01 X90.6242 Y54.7254 
G01 X90.5397 Y54.6904 
G01 X90.1542 Y54.3049 
G01 X90.0896 Y54.2403 
G01 X90.0546 Y54.1558 
G01 X90.0546 Y53.2933 
G01 X90.0896 Y53.2089 
G01 X90.5397 Y52.7587 
G01 X90.6242 Y52.7238 
G01 X90.7156 Y52.7238 
G01 X90.8000 Y52.7587 
G01 X90.8646 Y52.8233 
G01 X90.8996 Y52.9078 
G01 X90.8996 Y52.9991 
G01 X90.8646 Y53.0836 
G01 X90.5140 Y53.4342 
G01 X90.5140 Y54.0150 
G01 X90.7650 Y54.2660 
G01 X92.1170 Y54.2660 
G01 X92.3680 Y54.0150 
G01 X92.3680 Y53.4342 
G01 X92.0174 Y53.0836 
G00 Z2.5400 
G00 X90.2386 Y49.5884 
G01 Z-0.1500 F254.00 
G01 X90.9603 Y49.5884 F508.00 
G01 X91.1161 Y49.4325 
G01 X90.0896 Y48.4060 
G01 X90.0546 Y48.3215 
G01 X90.0546 Y48.2302 
G01 X90.0896 Y48.1457 
G01 X90.1542 Y48.0811 
G01 X90.2386 Y48.0462 
G01 X90.3300 Y48.0462 
G01 X90.4144 Y48.0811 
G01 X91.4410 Y49.1077 
G01 X92.4676 Y48.0811 
G01 X92.5520 Y48.0462 
G01 X92.6434 Y48.0462 
G01 X92.7278 Y48.0811 
G01 X92.7924 Y48.1457 
G01 X92.8274 Y48.2302 
G01 X92.8274 Y48.3215 
G01 X92.7924 Y48.4060 
G01 X91.6357 Y49.5627 
G01 X91.6100 Y49.5884 
G01 X92.6434 Y49.5884 
G01 X92.7278 Y49.6234 
G01 X92.7924 Y49.6880 
G01 X92.8274 Y49.7724 
G01 X92.8274 Y49.8638 
G01 X92.7924 Y49.9482 
G01 X92.7278 Y50.0128 
G01 X92.6434 Y50.0478 
G01 X90.2386 Y50.0478 
G01 X90.1542 Y50.0128 
G01 X90.0896 Y49.9482 
G01 X90.0546 Y49.8638 
G01 X90.0546 Y49.7724 
G01 X90.0896 Y49.6880 
G01 X90.1542 Y49.6234 
G01 X90.2386 Y49.5884 
G00 Z2.5400 
G00 X90.2386 Y45.3702 
G01 Z-0.1500 F254.00 
G01 X90.1542 Y45.3352 F508.00 
G01 X90.0896 Y45.2706 
G01 X90.0546 Y45.1862 
G01 X90.0546 Y45.0948 
G01 X90.0896 Y45.0104 
G01 X90.1542 Y44.9458 
G01 X90.2386 Y44.9108 
G01 X91.2113 Y44.9108 
G01 X91.2113 Y43.8280 
G01 X90.2386 Y43.8280 
G01 X90.1542 Y43.7930 
G01 X90.0896 Y43.7284 
G01 X90.0546 Y43.6440 
G01 X90.0546 Y43.5526 
G01 X90.0896 Y43.4681 
G01 X90.1542 Y43.4035 
G01 X90.2386 Y43.3686 
G01 X91.8722 Y43.3686 
G01 X91.9567 Y43.4035 
G01 X92.0213 Y43.4681 
G01 X92.7924 Y44.2393 
G01 X92.8274 Y44.3237 
G01 X92.8274 Y44.4151 
G01 X92.7924 Y44.4995 
G01 X92.7278 Y44.5641 
G01 X91.9567 Y45.3352 
G01 X91.8722 Y45.3702 
G01 X91.3953 Y45.3702 
G01 X90.2386 Y45.3702 
G00 Z2.5400 
G00 X90.2386 Y43.0314 
G01 Z-0.1500 F254.00 
G01 X90.1542 Y42.9964 F508.00 
G01 X90.0896 Y42.9318 
G01 X90.0546 Y42.8474 
G01 X90.0546 Y42.7560 
G01 X90.0896 Y42.6716 
G01 X90.1542 Y42.6070 
G01 X90.2386 Y42.5720 
G01 X90.8257 Y42.5720 
G01 X90.8257 Y42.1257 
G01 X90.0896 Y41.3896 
G01 X90.0546 Y41.3052 
G01 X90.0546 Y41.2138 
G01 X90.0896 Y41.1294 
G01 X90.1542 Y41.0647 
G01 X90.2386 Y41.0298 
G01 X90.3300 Y41.0298 
G01 X90.4144 Y41.0647 
G01 X90.8626 Y41.5130 
G01 X90.9253 Y41.4503 
G01 X91.3109 Y41.0647 
G01 X91.3953 Y41.0298 
G01 X92.2578 Y41.0298 
G01 X92.3422 Y41.0647 
G01 X92.4068 Y41.1294 
G01 X92.7924 Y41.5149 
G01 X92.8274 Y41.5993 
G01 X92.8274 Y42.8474 
G01 X92.7924 Y42.9318 
G01 X92.7278 Y42.9964 
G01 X92.6434 Y43.0314 
G01 X91.0097 Y43.0314 
G01 X90.2386 Y43.0314 
G00 Z2.5400 
G00 X90.2386 Y40.6926 
G01 Z-0.1500 F254.00 
G01 X90.1542 Y40.6576 F508.00 
G01 X90.0896 Y40.5930 
G01 X90.0546 Y40.5086 
G01 X90.0546 Y40.4172 
G01 X90.0896 Y40.3328 
G01 X90.1542 Y40.2682 
G01 X90.2386 Y40.2332 
G01 X92.0431 Y40.2332 
G01 X91.6964 Y39.8865 
G01 X91.6318 Y39.8219 
G01 X91.5969 Y39.7375 
G01 X91.5969 Y39.6461 
G01 X91.6318 Y39.5617 
G01 X92.0431 Y39.1504 
G01 X90.2386 Y39.1504 
G01 X90.1542 Y39.1154 
G01 X90.0896 Y39.0508 
G01 X90.0546 Y38.9664 
G01 X90.0546 Y38.8750 
G01 X90.0896 Y38.7906 
G01 X90.1542 Y38.7259 
G01 X90.2386 Y38.6910 
G01 X92.6434 Y38.6910 
G01 X92.7278 Y38.7259 
G01 X92.7924 Y38.7906 
G01 X92.8274 Y38.8750 
G01 X92.8274 Y38.9664 
G01 X92.7924 Y39.0508 
G01 X92.7278 Y39.1154 
G01 X92.1514 Y39.6918 
G01 X92.7924 Y40.3328 
G01 X92.8274 Y40.4172 
G01 X92.8274 Y40.5086 
G01 X92.7924 Y40.5930 
G01 X92.7278 Y40.6576 
G01 X92.6434 Y40.6926 
G01 X92.5520 Y40.6926 
G01 X90.2386 Y40.6926 
G00 Z2.5400 
G00 X92.8274 Y35.7396 
G01 Z-0.1500 F254.00 
G01 X92.8274 Y35.8310 F508.00 
G01 X92.7924 Y35.9154 
G01 X92.7278 Y35.9801 
G01 X92.6434 Y36.0150 
G01 X90.2386 Y36.0150 
G01 X90.1542 Y35.9801 
G01 X90.0896 Y35.9154 
G01 X90.0546 Y35.8310 
G01 X90.0546 Y34.5829 
G01 X90.0896 Y34.4985 
G01 X90.4751 Y34.1130 
G01 X90.5397 Y34.0483 
G01 X90.6242 Y34.0134 
G01 X92.2578 Y34.0134 
G01 X92.3422 Y34.0483 
G01 X92.7924 Y34.4985 
G01 X92.8274 Y34.5829 
G01 X92.8274 Y35.7396 
G00 Z2.5400 
G00 X90.2386 Y28.9986 
G01 Z-0.1500 F254.00 
G01 X90.1542 Y28.9637 F508.00 
G01 X90.0896 Y28.8990 
G01 X90.0546 Y28.8146 
G01 X90.0546 Y28.7232 
G01 X90.0896 Y28.6388 
G01 X90.1542 Y28.5742 
G01 X90.2386 Y28.5392 
G01 X91.2113 Y28.5392 
G01 X91.2113 Y27.4564 
G01 X90.2386 Y27.4564 
G01 X90.1542 Y27.4214 
G01 X90.0896 Y27.3568 
G01 X90.0546 Y27.2724 
G01 X90.0546 Y27.1810 
G01 X90.0896 Y27.0966 
G01 X90.1542 Y27.0320 
G01 X90.2386 Y26.9970 
G01 X91.8722 Y26.9970 
G01 X91.9567 Y27.0320 
G01 X92.0213 Y27.0966 
G01 X92.7924 Y27.8677 
G01 X92.8274 Y27.9521 
G01 X92.8274 Y28.0435 
G01 X92.7924 Y28.1279 
G01 X92.7278 Y28.1925 
G01 X91.9567 Y28.9637 
G01 X91.8722 Y28.9986 
G01 X91.3953 Y28.9986 
G01 X90.2386 Y28.9986 
G00 Z2.5400 
G00 X92.0174 Y25.0180 
G01 Z-0.1500 F254.00 
G01 X91.9824 Y24.9336 F508.00 
G01 X91.9824 Y24.8422 
G01 X92.0174 Y24.7578 
G01 X92.0820 Y24.6932 
G01 X92.1664 Y24.6582 
G01 X92.2578 Y24.6582 
G01 X92.3422 Y24.6932 
G01 X92.7278 Y25.0787 
G01 X92.7924 Y25.1433 
G01 X92.8274 Y25.2278 
G01 X92.8274 Y26.0903 
G01 X92.7924 Y26.1747 
G01 X92.4068 Y26.5602 
G01 X92.3422 Y26.6249 
G01 X92.2578 Y26.6598 
G01 X91.7809 Y26.6598 
G01 X91.6964 Y26.6249 
G01 X91.3109 Y26.2393 
G01 X91.2463 Y26.1747 
G01 X91.2113 Y26.0903 
G01 X91.2113 Y25.3686 
G01 X90.9603 Y25.1176 
G01 X90.7650 Y25.1176 
G01 X90.5140 Y25.3686 
G01 X90.5140 Y25.9494 
G01 X90.8646 Y26.3000 
G01 X90.8996 Y26.3844 
G01 X90.8996 Y26.4758 
G01 X90.8646 Y26.5602 
G01 X90.8000 Y26.6249 
G01 X90.7156 Y26.6598 
G01 X90.6242 Y26.6598 
G01 X90.5397 Y26.6249 
G01 X90.0896 Y26.1747 
G01 X90.0546 Y26.0903 
G01 X90.0546 Y25.2278 
G01 X90.0896 Y25.1433 
G01 X90.1542 Y25.0787 
G01 X90.5397 Y24.6932 
G01 X90.6242 Y24.6582 
G01 X91.1011 Y24.6582 
G01 X91.1855 Y24.6932 
G01 X91.2502 Y24.7578 
G01 X91.6357 Y25.1433 
G01 X91.6707 Y25.2278 
G01 X91.6707 Y25.9494 
G01 X91.9217 Y26.2004 
G01 X92.1170 Y26.2004 
G01 X92.3680 Y25.9494 
G01 X92.3680 Y25.3686 
G01 X92.0174 Y25.0180 
G00 Z2.5400 
G00 X92.3680 Y22.5034 
G01 Z-0.1500 F254.00 
G01 X92.4029 Y22.4190 F508.00 
G01 X92.4676 Y22.3544 
G01 X92.5520 Y22.3194 
G01 X92.6434 Y22.3194 
G01 X92.7278 Y22.3544 
G01 X92.7924 Y22.4190 
G01 X92.8274 Y22.5034 
G01 X92.8274 Y24.1370 
G01 X92.7924 Y24.2215 
G01 X92.7278 Y24.2861 
G01 X92.6434 Y24.3210 
G01 X90.2386 Y24.3210 
G01 X90.1542 Y24.2861 
G01 X90.0896 Y24.2215 
G01 X90.0546 Y24.1370 
G01 X90.0546 Y22.5034 
G01 X90.0896 Y22.4190 
G01 X90.1542 Y22.3544 
G01 X90.2386 Y22.3194 
G01 X90.3300 Y22.3194 
G01 X90.4144 Y22.3544 
G01 X90.4790 Y22.4190 
G01 X90.5140 Y22.5034 
G01 X90.5140 Y23.8616 
G01 X91.2113 Y23.8616 
G01 X91.2113 Y23.2745 
G01 X91.2463 Y23.1901 
G01 X91.3109 Y23.1255 
G01 X91.3953 Y23.0905 
G01 X91.4867 Y23.0905 
G01 X91.5711 Y23.1255 
G01 X91.6357 Y23.1901 
G01 X91.6707 Y23.2745 
G01 X91.6707 Y23.8616 
G01 X92.3680 Y23.8616 
G01 X92.3680 Y22.5034 
G00 Z2.5400 
G00 X92.0174 Y15.6628 
G01 Z-0.1500 F254.00 
G01 X91.9824 Y15.5784 F508.00 
G01 X91.9824 Y15.4870 
G01 X92.0174 Y15.4026 
G01 X92.0820 Y15.3380 
G01 X92.1664 Y15.3030 
G01 X92.2578 Y15.3030 
G01 X92.3422 Y15.3380 
G01 X92.7924 Y15.7881 
G01 X92.8274 Y15.8726 
G01 X92.8274 Y16.7351 
G01 X92.7924 Y16.8195 
G01 X92.4068 Y17.2051 
G01 X92.3422 Y17.2697 
G01 X92.2578 Y17.3046 
G01 X90.6242 Y17.3046 
G01 X90.5397 Y17.2697 
G01 X90.1542 Y16.8841 
G01 X90.0896 Y16.8195 
G01 X90.0546 Y16.7351 
G01 X90.0546 Y15.8726 
G01 X90.0896 Y15.7881 
G01 X90.5397 Y15.3380 
G01 X90.6242 Y15.3030 
G01 X90.7156 Y15.3030 
G01 X90.8000 Y15.3380 
G01 X90.8646 Y15.4026 
G01 X90.8996 Y15.4870 
G01 X90.8996 Y15.5784 
G01 X90.8646 Y15.6628 
G01 X90.5140 Y16.0134 
G01 X90.5140 Y16.5942 
G01 X90.7650 Y16.8453 
G01 X92.1170 Y16.8453 
G01 X92.3680 Y16.5942 
G01 X92.3680 Y16.0134 
G01 X92.0174 Y15.6628 
G00 Z2.5400 
G00 X92.6434 Y14.5065 
G01 Z-0.1500 F254.00 
G01 X92.7278 Y14.5414 F508.00 
G01 X92.7924 Y14.6060 
G01 X92.8274 Y14.6905 
G01 X92.8274 Y14.7818 
G01 X92.7924 Y14.8663 
G01 X92.7278 Y14.9309 
G01 X92.6434 Y14.9659 
G01 X90.6242 Y14.9659 
G01 X90.5397 Y14.9309 
G01 X90.1542 Y14.5453 
G01 X90.0896 Y14.4807 
G01 X90.0546 Y14.3963 
G01 X90.0546 Y13.5338 
G01 X90.0896 Y13.4494 
G01 X90.4751 Y13.0638 
G01 X90.5397 Y12.9992 
G01 X90.6242 Y12.9642 
G01 X92.6434 Y12.9642 
G01 X92.7278 Y12.9992 
G01 X92.7924 Y13.0638 
G01 X92.8274 Y13.1482 
G01 X92.8274 Y13.2396 
G01 X92.7924 Y13.3240 
G01 X92.7278 Y13.3886 
G01 X92.6434 Y13.4236 
G01 X90.7650 Y13.4236 
G01 X90.5140 Y13.6746 
G01 X90.5140 Y14.2554 
G01 X90.7650 Y14.5065 
G01 X92.6434 Y14.5065 
G00 Z2.5400 
G00 X10.3776 Y61.0428 
G01 Z-0.1500 F254.00 
G01 X10.3776 Y63.4172 F508.00 
G01 X10.3479 Y63.6050 
G01 X10.2891 Y63.7858 
G01 X10.2028 Y63.9551 
G01 X10.0911 Y64.1089 
G01 X9.9567 Y64.2433 
G01 X9.8029 Y64.3550 
G01 X9.6336 Y64.4413 
G01 X9.4528 Y64.5001 
G01 X9.2650 Y64.5298 
G01 X9.0750 Y64.5298 
G01 X8.8872 Y64.5001 
G01 X8.7064 Y64.4413 
G01 X8.5371 Y64.3550 
G01 X8.3833 Y64.2433 
G01 X8.2489 Y64.1089 
G01 X8.1372 Y63.9551 
G01 X8.0509 Y63.7858 
G01 X7.9921 Y63.6050 
G01 X7.9624 Y63.4172 
G01 X7.9624 Y61.0428 
G01 X7.9921 Y60.8550 
G01 X8.0509 Y60.6742 
G01 X8.1372 Y60.5049 
G01 X8.2489 Y60.3511 
G01 X8.3833 Y60.2167 
G01 X8.5371 Y60.1050 
G01 X8.7064 Y60.0187 
G01 X8.8872 Y59.9599 
G01 X9.0750 Y59.9302 
G01 X9.2650 Y59.9302 
G01 X9.4528 Y59.9599 
G01 X9.6336 Y60.0187 
G01 X9.8029 Y60.1050 
G01 X9.9567 Y60.2167 
G01 X10.0911 Y60.3511 
G01 X10.2028 Y60.5049 
G01 X10.2891 Y60.6742 
G01 X10.3479 Y60.8550 
G01 X10.3776 Y61.0428 
G00 Z2.5400 
G00 X15.1572 Y66.4376 
G01 Z-0.1500 F254.00 
G01 X12.7828 Y66.4376 F508.00 
G01 X12.5950 Y66.4079 
G01 X12.4142 Y66.3491 
G01 X12.2449 Y66.2628 
G01 X12.0911 Y66.1511 
G01 X11.9567 Y66.0167 
G01 X11.8450 Y65.8629 
G01 X11.7587 Y65.6936 
G01 X11.6999 Y65.5128 
G01 X11.6702 Y65.3250 
G01 X11.6702 Y65.1350 
G01 X11.6999 Y64.9472 
G01 X11.7587 Y64.7664 
G01 X11.8450 Y64.5971 
G01 X11.9567 Y64.4433 
G01 X12.0911 Y64.3089 
G01 X12.2449 Y64.1972 
G01 X12.4142 Y64.1109 
G01 X12.5950 Y64.0521 
G01 X12.7828 Y64.0224 
G01 X15.1572 Y64.0224 
G01 X15.3450 Y64.0521 
G01 X15.5258 Y64.1109 
G01 X15.6951 Y64.1972 
G01 X15.8489 Y64.3089 
G01 X15.9833 Y64.4433 
G01 X16.0950 Y64.5971 
G01 X16.1813 Y64.7664 
G01 X16.2401 Y64.9472 
G01 X16.2698 Y65.1350 
G01 X16.2698 Y65.3250 
G01 X16.2401 Y65.5128 
G01 X16.1813 Y65.6936 
G01 X16.0950 Y65.8629 
G01 X15.9833 Y66.0167 
G01 X15.8489 Y66.1511 
G01 X15.6951 Y66.2628 
G01 X15.5258 Y66.3491 
G01 X15.3450 Y66.4079 
G01 X15.1572 Y66.4376 
G00 Z2.5400 
G00 X15.1572 Y60.4376 
G01 Z-0.1500 F254.00 
G01 X12.7828 Y60.4376 F508.00 
G01 X12.5950 Y60.4079 
G01 X12.4142 Y60.3491 
G01 X12.2449 Y60.2628 
G01 X12.0911 Y60.1511 
G01 X11.9567 Y60.0167 
G01 X11.8450 Y59.8629 
G01 X11.7587 Y59.6936 
G01 X11.6999 Y59.5128 
G01 X11.6702 Y59.3250 
G01 X11.6702 Y59.1350 
G01 X11.6999 Y58.9472 
G01 X11.7587 Y58.7664 
G01 X11.8450 Y58.5971 
G01 X11.9567 Y58.4433 
G01 X12.0911 Y58.3089 
G01 X12.2449 Y58.1972 
G01 X12.4142 Y58.1109 
G01 X12.5950 Y58.0521 
G01 X12.7828 Y58.0224 
G01 X15.1572 Y58.0224 
G01 X15.3450 Y58.0521 
G01 X15.5258 Y58.1109 
G01 X15.6951 Y58.1972 
G01 X15.8489 Y58.3089 
G01 X15.9833 Y58.4433 
G01 X16.0950 Y58.5971 
G01 X16.1813 Y58.7664 
G01 X16.2401 Y58.9472 
G01 X16.2698 Y59.1350 
G01 X16.2698 Y59.3250 
G01 X16.2401 Y59.5128 
G01 X16.1813 Y59.6936 
G01 X16.0950 Y59.8629 
G01 X15.9833 Y60.0167 
G01 X15.8489 Y60.1511 
G01 X15.6951 Y60.2628 
G01 X15.5258 Y60.3491 
G01 X15.3450 Y60.4079 
G01 X15.1572 Y60.4376 
G00 Z2.5400 
G00 X17.3770 Y41.1946 
G01 Z-0.1500 F254.00 
G01 X18.6230 Y41.1946 F508.00 
G01 X18.6654 Y41.2122 
G01 X18.6978 Y41.2446 
G01 X18.7154 Y41.2870 
G01 X18.7154 Y42.5026 
G01 X19.1873 Y42.9745 
G01 X19.2555 Y43.0427 
G01 X19.2924 Y43.1318 
G01 X19.2924 Y45.7682 
G01 X19.2555 Y45.8573 
G01 X19.1954 Y45.9174 
G01 X19.1954 Y46.3430 
G01 X19.1778 Y46.3854 
G01 X19.1454 Y46.4178 
G01 X19.1030 Y46.4354 
G01 X18.2570 Y46.4354 
G01 X18.2146 Y46.4178 
G01 X18.1822 Y46.3854 
G01 X18.1646 Y46.3430 
G01 X18.1646 Y45.0970 
G01 X18.1822 Y45.0546 
G01 X18.2146 Y45.0222 
G01 X18.2570 Y45.0046 
G01 X18.8076 Y45.0046 
G01 X18.8076 Y43.2804 
G01 X18.1526 Y42.6254 
G01 X17.3770 Y42.6254 
G01 X17.3346 Y42.6078 
G01 X17.3022 Y42.5754 
G01 X17.2846 Y42.5330 
G01 X17.2846 Y41.2870 
G01 X17.3022 Y41.2446 
G01 X17.3346 Y41.2122 
G01 X17.3770 Y41.1946 
G00 Z2.5400 
G00 X7.2596 Y52.8280 
G01 Z-0.1500 F254.00 
G01 X7.2596 Y52.3124 F508.00 
G01 X4.3023 Y52.3124 
G01 X4.2952 Y52.3482 
G01 X4.2233 Y52.5217 
G01 X4.1189 Y52.6779 
G01 X3.9861 Y52.8107 
G01 X3.8299 Y52.9151 
G01 X3.6564 Y52.9870 
G01 X3.4721 Y53.0236 
G01 X1.6079 Y53.0236 
G01 X1.4236 Y52.9870 
G01 X1.2501 Y52.9151 
G01 X1.0939 Y52.8107 
G01 X0.9611 Y52.6779 
G01 X0.8567 Y52.5217 
G01 X0.7848 Y52.3482 
G01 X0.7482 Y52.1639 
G01 X0.7482 Y51.9761 
G01 X0.7848 Y51.7918 
G01 X0.8567 Y51.6183 
G01 X0.9611 Y51.4621 
G01 X1.0939 Y51.3293 
G01 X1.2501 Y51.2249 
G01 X1.4236 Y51.1530 
G01 X1.6079 Y51.1164 
G01 X3.4721 Y51.1164 
G01 X3.6564 Y51.1530 
G01 X3.8299 Y51.2249 
G01 X3.9861 Y51.3293 
G01 X4.1189 Y51.4621 
G01 X4.2233 Y51.6183 
G01 X4.2952 Y51.7918 
G01 X4.3023 Y51.8276 
G01 X7.2596 Y51.8276 
G01 X7.2596 Y51.3120 
G01 X7.2772 Y51.2696 
G01 X7.3096 Y51.2372 
G01 X7.3520 Y51.2196 
G01 X8.6680 Y51.2196 
G01 X8.7104 Y51.2372 
G01 X8.7428 Y51.2696 
G01 X8.7604 Y51.3120 
G01 X8.7604 Y52.8280 
G01 X8.7428 Y52.8704 
G01 X8.7104 Y52.9028 
G01 X8.6680 Y52.9204 
G01 X7.3520 Y52.9204 
G01 X7.3096 Y52.9028 
G01 X7.2772 Y52.8704 
G01 X7.2596 Y52.8280 
G00 Z2.5400 
G00 X1.6079 Y54.9264 
G01 Z-0.1500 F254.00 
G01 X3.4721 Y54.9264 F508.00 
G01 X3.6564 Y54.9630 
G01 X3.8299 Y55.0349 
G01 X3.9861 Y55.1393 
G01 X4.1189 Y55.2721 
G01 X4.2233 Y55.4283 
G01 X4.2952 Y55.6018 
G01 X4.3318 Y55.7861 
G01 X4.3318 Y55.9739 
G01 X4.2952 Y56.1582 
G01 X4.2233 Y56.3317 
G01 X4.1189 Y56.4879 
G01 X3.9861 Y56.6207 
G01 X3.8299 Y56.7251 
G01 X3.6564 Y56.7970 
G01 X3.4721 Y56.8336 
G01 X1.6079 Y56.8336 
G01 X1.4236 Y56.7970 
G01 X1.2501 Y56.7251 
G01 X1.0939 Y56.6207 
G01 X0.9611 Y56.4879 
G01 X0.8567 Y56.3317 
G01 X0.7848 Y56.1582 
G01 X0.7482 Y55.9739 
G01 X0.7482 Y55.7861 
G01 X0.7848 Y55.6018 
G01 X0.8567 Y55.4283 
G01 X0.9611 Y55.2721 
G01 X1.0939 Y55.1393 
G01 X1.2501 Y55.0349 
G01 X1.4236 Y54.9630 
G01 X1.6079 Y54.9264 
G00 Z2.5400 
G00 X1.6079 Y58.7364 
G01 Z-0.1500 F254.00 
G01 X3.4721 Y58.7364 F508.00 
G01 X3.6564 Y58.7730 
G01 X3.8299 Y58.8449 
G01 X3.9861 Y58.9493 
G01 X4.1189 Y59.0821 
G01 X4.2233 Y59.2383 
G01 X4.2952 Y59.4118 
G01 X4.3318 Y59.5961 
G01 X4.3318 Y59.7839 
G01 X4.2952 Y59.9682 
G01 X4.2233 Y60.1417 
G01 X4.1189 Y60.2979 
G01 X3.9861 Y60.4307 
G01 X3.8299 Y60.5351 
G01 X3.6564 Y60.6070 
G01 X3.4721 Y60.6436 
G01 X1.6079 Y60.6436 
G01 X1.4236 Y60.6070 
G01 X1.2501 Y60.5351 
G01 X1.0939 Y60.4307 
G01 X0.9611 Y60.2979 
G01 X0.8567 Y60.1417 
G01 X0.7848 Y59.9682 
G01 X0.7482 Y59.7839 
G01 X0.7482 Y59.5961 
G01 X0.7848 Y59.4118 
G01 X0.8567 Y59.2383 
G01 X0.9611 Y59.0821 
G01 X1.0939 Y58.9493 
G01 X1.2501 Y58.8449 
G01 X1.4236 Y58.7730 
G01 X1.6079 Y58.7364 
G00 Z2.5400 
G00 X68.2454 Y55.3270 
G01 Z-0.1500 F254.00 
G01 X68.2454 Y56.7730 F508.00 
G01 X68.2278 Y56.8154 
G01 X68.1954 Y56.8478 
G01 X68.1530 Y56.8654 
G01 X67.1070 Y56.8654 
G01 X67.0646 Y56.8478 
G01 X67.0322 Y56.8154 
G01 X67.0146 Y56.7730 
G01 X67.0146 Y56.1224 
G01 X63.7424 Y56.1224 
G01 X63.7424 Y57.1982 
G01 X63.7055 Y57.2873 
G01 X62.9454 Y58.0474 
G01 X62.9454 Y58.4730 
G01 X62.9278 Y58.5154 
G01 X62.8954 Y58.5478 
G01 X62.8530 Y58.5654 
G01 X62.4274 Y58.5654 
G01 X62.3673 Y58.6255 
G01 X62.2782 Y58.6624 
G01 X57.1018 Y58.6624 
G01 X57.0127 Y58.6255 
G01 X56.9526 Y58.5654 
G01 X56.5270 Y58.5654 
G01 X56.4846 Y58.5478 
G01 X56.4522 Y58.5154 
G01 X56.4346 Y58.4730 
G01 X56.4346 Y57.6270 
G01 X56.4522 Y57.5846 
G01 X56.4846 Y57.5522 
G01 X56.5270 Y57.5346 
G01 X57.7730 Y57.5346 
G01 X57.8154 Y57.5522 
G01 X57.8478 Y57.5846 
G01 X57.8654 Y57.6270 
G01 X57.8654 Y58.1776 
G01 X61.5146 Y58.1776 
G01 X61.5146 Y57.6270 
G01 X61.5322 Y57.5846 
G01 X61.5646 Y57.5522 
G01 X61.6070 Y57.5346 
G01 X62.7726 Y57.5346 
G01 X63.2576 Y57.0496 
G01 X63.2576 Y55.8318 
G01 X63.2945 Y55.7427 
G01 X63.3627 Y55.6745 
G01 X63.4518 Y55.6376 
G01 X67.0146 Y55.6376 
G01 X67.0146 Y55.3270 
G01 X67.0322 Y55.2846 
G01 X67.0646 Y55.2522 
G01 X67.1070 Y55.2346 
G01 X68.1530 Y55.2346 
G01 X68.1954 Y55.2522 
G01 X68.2278 Y55.2846 
G01 X68.2454 Y55.3270 
G00 Z2.5400 
G00 X44.6098 Y59.9311 
G01 Z-0.1500 F254.00 
G01 X44.5475 Y60.0815 F508.00 
G01 X44.4571 Y60.2169 
G01 X44.3419 Y60.3321 
G01 X44.2065 Y60.4225 
G01 X44.0561 Y60.4848 
G01 X43.8964 Y60.5166 
G01 X43.7336 Y60.5166 
G01 X43.5739 Y60.4848 
G01 X43.4235 Y60.4225 
G01 X43.2881 Y60.3321 
G01 X43.1729 Y60.2169 
G01 X43.0825 Y60.0815 
G01 X43.0202 Y59.9311 
G01 X42.9884 Y59.7714 
G01 X42.9884 Y59.6086 
G01 X43.0202 Y59.4489 
G01 X43.0825 Y59.2985 
G01 X43.1729 Y59.1631 
G01 X43.2881 Y59.0479 
G01 X43.4235 Y58.9575 
G01 X43.5739 Y58.8952 
G01 X43.7336 Y58.8634 
G01 X43.8964 Y58.8634 
G01 X44.0561 Y58.8952 
G01 X44.2065 Y58.9575 
G01 X44.3419 Y59.0479 
G01 X44.4571 Y59.1631 
G01 X44.5280 Y59.2692 
G01 X49.2876 Y54.5096 
G01 X49.2876 Y49.7724 
G01 X34.5324 Y49.7724 
G01 X34.5324 Y55.9282 
G01 X34.4955 Y56.0173 
G01 X34.4273 Y56.0855 
G01 X30.6855 Y59.8273 
G01 X30.6543 Y59.8585 
G01 X30.6398 Y59.9311 
G01 X30.5775 Y60.0815 
G01 X30.4871 Y60.2169 
G01 X30.3719 Y60.3321 
G01 X30.2365 Y60.4225 
G01 X30.0861 Y60.4848 
G01 X29.9264 Y60.5166 
G01 X29.7636 Y60.5166 
G01 X29.6039 Y60.4848 
G01 X29.4535 Y60.4225 
G01 X29.3181 Y60.3321 
G01 X29.2029 Y60.2169 
G01 X29.1125 Y60.0815 
G01 X29.0502 Y59.9311 
G01 X29.0184 Y59.7714 
G01 X29.0184 Y59.6086 
G01 X29.0502 Y59.4489 
G01 X29.1125 Y59.2985 
G01 X29.2029 Y59.1631 
G01 X29.3181 Y59.0479 
G01 X29.4535 Y58.9575 
G01 X29.6039 Y58.8952 
G01 X29.7636 Y58.8634 
G01 X29.9264 Y58.8634 
G01 X30.0861 Y58.8952 
G01 X30.2365 Y58.9575 
G01 X30.3719 Y59.0479 
G01 X30.4871 Y59.1631 
G01 X30.5580 Y59.2692 
G01 X34.0476 Y55.7796 
G01 X34.0476 Y52.7854 
G01 X33.4970 Y52.7854 
G01 X33.4546 Y52.7678 
G01 X33.4222 Y52.7354 
G01 X33.4046 Y52.6930 
G01 X33.4046 Y51.4470 
G01 X33.4222 Y51.4046 
G01 X33.4546 Y51.3722 
G01 X33.4970 Y51.3546 
G01 X34.0476 Y51.3546 
G01 X34.0476 Y48.9754 
G01 X33.4970 Y48.9754 
G01 X33.4546 Y48.9578 
G01 X33.4222 Y48.9254 
G01 X33.4046 Y48.8830 
G01 X33.4046 Y47.6370 
G01 X33.4222 Y47.5946 
G01 X33.4546 Y47.5622 
G01 X33.4970 Y47.5446 
G01 X34.3430 Y47.5446 
G01 X34.3854 Y47.5622 
G01 X34.4178 Y47.5946 
G01 X34.4354 Y47.6370 
G01 X34.4354 Y48.0626 
G01 X34.4955 Y48.1227 
G01 X34.5324 Y48.2118 
G01 X34.5324 Y49.2876 
G01 X56.2345 Y49.2876 
G01 X56.2345 Y49.1508 
G01 X56.7708 Y48.6145 
G01 X57.5292 Y48.6145 
G01 X58.0655 Y49.1508 
G01 X58.0655 Y49.9092 
G01 X57.5292 Y50.4455 
G01 X56.7708 Y50.4455 
G01 X56.2345 Y49.9092 
G01 X56.2345 Y49.7724 
G01 X49.7724 Y49.7724 
G01 X49.7724 Y54.6582 
G01 X49.7355 Y54.7473 
G01 X49.6673 Y54.8155 
G01 X44.6555 Y59.8273 
G01 X44.6243 Y59.8585 
G01 X44.6098 Y59.9311 
G00 Z2.5400 
G00 X43.3716 Y57.0686 
G01 Z-0.1500 F254.00 
G01 X43.3716 Y57.2314 F508.00 
G01 X43.3398 Y57.3911 
G01 X43.2775 Y57.5415 
G01 X43.1871 Y57.6769 
G01 X43.0719 Y57.7921 
G01 X42.9365 Y57.8825 
G01 X42.7861 Y57.9448 
G01 X42.6264 Y57.9766 
G01 X42.4636 Y57.9766 
G01 X42.3039 Y57.9448 
G01 X42.1535 Y57.8825 
G01 X42.0181 Y57.7921 
G01 X41.9029 Y57.6769 
G01 X41.8125 Y57.5415 
G01 X41.7502 Y57.3911 
G01 X41.7184 Y57.2314 
G01 X41.7184 Y57.0686 
G01 X41.7502 Y56.9089 
G01 X41.8125 Y56.7585 
G01 X41.9029 Y56.6231 
G01 X42.0181 Y56.5079 
G01 X42.1535 Y56.4175 
G01 X42.3039 Y56.3552 
G01 X42.4636 Y56.3234 
G01 X42.6264 Y56.3234 
G01 X42.7861 Y56.3552 
G01 X42.9365 Y56.4175 
G01 X43.0719 Y56.5079 
G01 X43.1871 Y56.6231 
G01 X43.2775 Y56.7585 
G01 X43.3398 Y56.9089 
G01 X43.3716 Y57.0686 
G00 Z2.5400 
G00 X40.8316 Y57.0686 
G01 Z-0.1500 F254.00 
G01 X40.8316 Y57.2314 F508.00 
G01 X40.7998 Y57.3911 
G01 X40.7375 Y57.5415 
G01 X40.6471 Y57.6769 
G01 X40.5319 Y57.7921 
G01 X40.3965 Y57.8825 
G01 X40.2461 Y57.9448 
G01 X40.0864 Y57.9766 
G01 X39.9236 Y57.9766 
G01 X39.7639 Y57.9448 
G01 X39.6135 Y57.8825 
G01 X39.4781 Y57.7921 
G01 X39.3629 Y57.6769 
G01 X39.2725 Y57.5415 
G01 X39.2102 Y57.3911 
G01 X39.1784 Y57.2314 
G01 X39.1784 Y57.0686 
G01 X39.2102 Y56.9089 
G01 X39.2725 Y56.7585 
G01 X39.3629 Y56.6231 
G01 X39.4781 Y56.5079 
G01 X39.6135 Y56.4175 
G01 X39.7639 Y56.3552 
G01 X39.9236 Y56.3234 
G01 X40.0864 Y56.3234 
G01 X40.2461 Y56.3552 
G01 X40.3965 Y56.4175 
G01 X40.5319 Y56.5079 
G01 X40.6471 Y56.6231 
G01 X40.7375 Y56.7585 
G01 X40.7998 Y56.9089 
G01 X40.8316 Y57.0686 
G00 Z2.5400 
G00 X65.6855 Y44.0708 
G01 Z-0.1500 F254.00 
G01 X65.6855 Y44.8292 F508.00 
G01 X65.5888 Y44.9260 
G01 X68.4346 Y47.7718 
G01 X68.4346 Y47.6370 
G01 X68.4522 Y47.5946 
G01 X68.4846 Y47.5622 
G01 X68.5270 Y47.5446 
G01 X69.3730 Y47.5446 
G01 X69.4154 Y47.5622 
G01 X69.4478 Y47.5946 
G01 X69.4654 Y47.6370 
G01 X69.4654 Y48.8830 
G01 X69.4478 Y48.9254 
G01 X69.4154 Y48.9578 
G01 X69.3730 Y48.9754 
G01 X68.5270 Y48.9754 
G01 X68.4846 Y48.9578 
G01 X68.4522 Y48.9254 
G01 X68.4346 Y48.8830 
G01 X68.4346 Y48.4574 
G01 X68.3745 Y48.3973 
G01 X65.2460 Y45.2688 
G01 X65.1492 Y45.3655 
G01 X64.3908 Y45.3655 
G01 X63.8545 Y44.8292 
G01 X63.8545 Y44.0708 
G01 X64.3908 Y43.5345 
G01 X64.5276 Y43.5345 
G01 X64.5276 Y30.7224 
G01 X63.6004 Y30.7224 
G01 X61.7358 Y32.5870 
G01 X61.7358 Y33.7568 
G01 X61.7060 Y33.9067 
G01 X61.6475 Y34.0479 
G01 X61.5626 Y34.1749 
G01 X61.4545 Y34.2830 
G01 X61.3275 Y34.3679 
G01 X61.1863 Y34.4264 
G01 X61.0364 Y34.4562 
G01 X60.8836 Y34.4562 
G01 X60.7337 Y34.4264 
G01 X60.5925 Y34.3679 
G01 X60.4655 Y34.2830 
G01 X60.3574 Y34.1749 
G01 X60.2725 Y34.0479 
G01 X60.2140 Y33.9067 
G01 X60.1842 Y33.7568 
G01 X60.1842 Y32.2832 
G01 X60.2140 Y32.1333 
G01 X60.2725 Y31.9921 
G01 X60.3574 Y31.8651 
G01 X60.4655 Y31.7570 
G01 X60.5925 Y31.6721 
G01 X60.7337 Y31.6136 
G01 X60.8836 Y31.5838 
G01 X61.0364 Y31.5838 
G01 X61.1863 Y31.6136 
G01 X61.3275 Y31.6721 
G01 X61.4545 Y31.7570 
G01 X61.5626 Y31.8651 
G01 X61.6465 Y31.9907 
G01 X63.2945 Y30.3427 
G01 X63.3627 Y30.2745 
G01 X63.4518 Y30.2376 
G01 X64.8182 Y30.2376 
G01 X64.9073 Y30.2745 
G01 X64.9755 Y30.3427 
G01 X65.0124 Y30.4318 
G01 X65.0124 Y43.5345 
G01 X65.1492 Y43.5345 
G01 X65.6855 Y44.0708 
G00 Z2.5400 
G00 X65.6855 Y46.6108 
G01 Z-0.1500 F254.00 
G01 X65.6855 Y47.3692 F508.00 
G01 X65.1492 Y47.9055 
G01 X65.0124 Y47.9055 
G01 X65.0124 Y48.1596 
G01 X68.4346 Y51.5818 
G01 X68.4346 Y51.4470 
G01 X68.4522 Y51.4046 
G01 X68.4846 Y51.3722 
G01 X68.5270 Y51.3546 
G01 X69.3730 Y51.3546 
G01 X69.4154 Y51.3722 
G01 X69.4478 Y51.4046 
G01 X69.4654 Y51.4470 
G01 X69.4654 Y52.6930 
G01 X69.4478 Y52.7354 
G01 X69.4154 Y52.7678 
G01 X69.3730 Y52.7854 
G01 X68.8224 Y52.7854 
G01 X68.8224 Y57.4346 
G01 X69.1030 Y57.4346 
G01 X69.1454 Y57.4522 
G01 X69.1778 Y57.4846 
G01 X69.1954 Y57.5270 
G01 X69.1954 Y58.9730 
G01 X69.1778 Y59.0154 
G01 X69.1454 Y59.0478 
G01 X69.1030 Y59.0654 
G01 X68.0570 Y59.0654 
G01 X68.0146 Y59.0478 
G01 X67.9822 Y59.0154 
G01 X67.9646 Y58.9730 
G01 X67.9646 Y57.5270 
G01 X67.9822 Y57.4846 
G01 X68.0146 Y57.4522 
G01 X68.0570 Y57.4346 
G01 X68.3376 Y57.4346 
G01 X68.3376 Y52.1704 
G01 X65.6855 Y49.5183 
G01 X65.6855 Y49.9092 
G01 X65.1492 Y50.4455 
G01 X64.3908 Y50.4455 
G01 X63.8545 Y49.9092 
G01 X63.8545 Y49.1508 
G01 X64.3908 Y48.6145 
G01 X64.5276 Y48.6145 
G01 X64.5276 Y47.9055 
G01 X64.3908 Y47.9055 
G01 X63.8545 Y47.3692 
G01 X63.8545 Y46.6108 
G01 X64.3908 Y46.0745 
G01 X65.1492 Y46.0745 
G01 X65.6855 Y46.6108 
G00 Z2.5400 
G00 X58.0655 Y46.6108 
G01 Z-0.1500 F254.00 
G01 X58.0655 Y47.3692 F508.00 
G01 X57.5292 Y47.9055 
G01 X56.7708 Y47.9055 
G01 X56.2345 Y47.3692 
G01 X56.2345 Y46.6108 
G01 X56.7708 Y46.0745 
G01 X57.5292 Y46.0745 
G01 X58.0655 Y46.6108 
G00 Z2.5400 
G00 X71.2654 Y47.6370 
G01 Z-0.1500 F254.00 
G01 X71.2654 Y48.0626 F508.00 
G01 X71.3255 Y48.1227 
G01 X71.3624 Y48.2118 
G01 X71.3624 Y59.7382 
G01 X71.3255 Y59.8273 
G01 X68.7855 Y62.3673 
G01 X68.7173 Y62.4355 
G01 X68.6282 Y62.4724 
G01 X62.7554 Y62.4724 
G01 X62.7644 Y62.5178 
G01 X62.7644 Y64.1422 
G01 X62.7319 Y64.3053 
G01 X62.6683 Y64.4590 
G01 X62.5759 Y64.5973 
G01 X62.4583 Y64.7149 
G01 X62.3200 Y64.8073 
G01 X62.1663 Y64.8709 
G01 X62.0032 Y64.9034 
G01 X61.8368 Y64.9034 
G01 X61.6737 Y64.8709 
G01 X61.5200 Y64.8073 
G01 X61.3817 Y64.7149 
G01 X61.2641 Y64.5973 
G01 X61.1717 Y64.4590 
G01 X61.1081 Y64.3053 
G01 X61.0756 Y64.1422 
G01 X61.0756 Y62.5178 
G01 X61.1081 Y62.3547 
G01 X61.1717 Y62.2010 
G01 X61.2641 Y62.0627 
G01 X61.3817 Y61.9451 
G01 X61.5200 Y61.8527 
G01 X61.6737 Y61.7891 
G01 X61.8368 Y61.7566 
G01 X62.0032 Y61.7566 
G01 X62.1663 Y61.7891 
G01 X62.3200 Y61.8527 
G01 X62.4583 Y61.9451 
G01 X62.5008 Y61.9876 
G01 X68.4796 Y61.9876 
G01 X70.8776 Y59.5896 
G01 X70.8776 Y52.7854 
G01 X70.3270 Y52.7854 
G01 X70.2846 Y52.7678 
G01 X70.2522 Y52.7354 
G01 X70.2346 Y52.6930 
G01 X70.2346 Y51.4470 
G01 X70.2522 Y51.4046 
G01 X70.2846 Y51.3722 
G01 X70.3270 Y51.3546 
G01 X70.8776 Y51.3546 
G01 X70.8776 Y48.9754 
G01 X70.3270 Y48.9754 
G01 X70.2846 Y48.9578 
G01 X70.2522 Y48.9254 
G01 X70.2346 Y48.8830 
G01 X70.2346 Y47.7174 
G01 X69.6445 Y47.1273 
G01 X69.6076 Y47.0382 
G01 X69.6076 Y28.1824 
G01 X49.7724 Y28.1824 
G01 X49.7724 Y34.1896 
G01 X57.2873 Y41.7045 
G01 X57.3555 Y41.7727 
G01 X57.3924 Y41.8618 
G01 X57.3924 Y43.5345 
G01 X57.5292 Y43.5345 
G01 X58.0655 Y44.0708 
G01 X58.0655 Y44.8292 
G01 X57.5292 Y45.3655 
G01 X56.7708 Y45.3655 
G01 X56.2345 Y44.8292 
G01 X56.2345 Y44.0708 
G01 X56.7708 Y43.5345 
G01 X56.9076 Y43.5345 
G01 X56.9076 Y42.0104 
G01 X49.3927 Y34.4955 
G01 X49.3245 Y34.4273 
G01 X48.9465 Y34.0493 
G01 X48.8626 Y34.1749 
G01 X48.7545 Y34.2830 
G01 X48.6275 Y34.3679 
G01 X48.4863 Y34.4264 
G01 X48.3364 Y34.4562 
G01 X48.1836 Y34.4562 
G01 X48.0337 Y34.4264 
G01 X47.8925 Y34.3679 
G01 X47.7655 Y34.2830 
G01 X47.6574 Y34.1749 
G01 X47.5725 Y34.0479 
G01 X47.5140 Y33.9067 
G01 X47.4842 Y33.7568 
G01 X47.4842 Y32.2832 
G01 X47.5140 Y32.1333 
G01 X47.5725 Y31.9921 
G01 X47.6574 Y31.8651 
G01 X47.7655 Y31.7570 
G01 X47.8925 Y31.6721 
G01 X48.0337 Y31.6136 
G01 X48.1836 Y31.5838 
G01 X48.3364 Y31.5838 
G01 X48.4863 Y31.6136 
G01 X48.6275 Y31.6721 
G01 X48.7545 Y31.7570 
G01 X48.8626 Y31.8651 
G01 X48.9475 Y31.9921 
G01 X49.0060 Y32.1333 
G01 X49.0358 Y32.2832 
G01 X49.0358 Y33.4530 
G01 X49.2876 Y33.7048 
G01 X49.2876 Y8.9904 
G01 X46.5143 Y6.2171 
G01 X46.4975 Y6.2576 
G01 X46.4015 Y6.4013 
G01 X46.2793 Y6.5235 
G01 X46.1356 Y6.6195 
G01 X45.9759 Y6.6857 
G01 X45.8064 Y6.7194 
G01 X45.6336 Y6.7194 
G01 X45.4641 Y6.6857 
G01 X45.3044 Y6.6195 
G01 X45.1607 Y6.5235 
G01 X45.0385 Y6.4013 
G01 X44.9425 Y6.2576 
G01 X44.8763 Y6.0979 
G01 X44.8426 Y5.9284 
G01 X44.8426 Y4.2316 
G01 X44.8763 Y4.0621 
G01 X44.9425 Y3.9024 
G01 X45.0385 Y3.7587 
G01 X45.1607 Y3.6365 
G01 X45.3044 Y3.5405 
G01 X45.4641 Y3.4743 
G01 X45.4776 Y3.4716 
G01 X45.4776 Y2.7824 
G01 X36.9304 Y2.7824 
G01 X29.3194 Y10.3934 
G01 X29.3552 Y10.4050 
G01 X29.5103 Y10.4841 
G01 X29.6511 Y10.5864 
G01 X29.7742 Y10.7095 
G01 X29.8765 Y10.8503 
G01 X29.9556 Y11.0054 
G01 X30.0094 Y11.1710 
G01 X30.0120 Y11.1876 
G01 X41.9582 Y11.1876 
G01 X42.0473 Y11.2245 
G01 X42.1155 Y11.2927 
G01 X42.1524 Y11.3818 
G01 X42.1524 Y26.0848 
G01 X42.4042 Y25.8330 
G01 X42.4042 Y24.6632 
G01 X42.4340 Y24.5133 
G01 X42.4925 Y24.3721 
G01 X42.5774 Y24.2451 
G01 X42.6855 Y24.1370 
G01 X42.8125 Y24.0521 
G01 X42.9537 Y23.9936 
G01 X43.1036 Y23.9638 
G01 X43.2564 Y23.9638 
G01 X43.4063 Y23.9936 
G01 X43.5475 Y24.0521 
G01 X43.6745 Y24.1370 
G01 X43.7826 Y24.2451 
G01 X43.8675 Y24.3721 
G01 X43.9260 Y24.5133 
G01 X43.9558 Y24.6632 
G01 X43.9558 Y26.1368 
G01 X43.9260 Y26.2867 
G01 X43.8675 Y26.4279 
G01 X43.7826 Y26.5549 
G01 X43.6745 Y26.6630 
G01 X43.5475 Y26.7479 
G01 X43.4063 Y26.8064 
G01 X43.2564 Y26.8362 
G01 X43.1036 Y26.8362 
G01 X42.9537 Y26.8064 
G01 X42.8125 Y26.7479 
G01 X42.6855 Y26.6630 
G01 X42.5774 Y26.5549 
G01 X42.4935 Y26.4293 
G01 X42.1155 Y26.8073 
G01 X42.0473 Y26.8755 
G01 X39.6124 Y29.3104 
G01 X39.6124 Y34.3382 
G01 X39.5755 Y34.4273 
G01 X39.5073 Y34.4955 
G01 X35.8024 Y38.2004 
G01 X35.8024 Y44.4982 
G01 X35.7655 Y44.5873 
G01 X35.6973 Y44.6555 
G01 X33.2624 Y47.0904 
G01 X33.2624 Y53.3882 
G01 X33.2255 Y53.4773 
G01 X33.1573 Y53.5455 
G01 X30.7224 Y55.9804 
G01 X30.7224 Y58.4682 
G01 X30.6855 Y58.5573 
G01 X30.6173 Y58.6255 
G01 X30.5282 Y58.6624 
G01 X25.3518 Y58.6624 
G01 X25.2627 Y58.6255 
G01 X25.1945 Y58.5573 
G01 X23.9245 Y57.2873 
G01 X23.8876 Y57.1982 
G01 X23.8876 Y56.1224 
G01 X11.5754 Y56.1224 
G01 X11.5754 Y56.5030 
G01 X11.5578 Y56.5454 
G01 X11.5254 Y56.5778 
G01 X11.4830 Y56.5954 
G01 X10.6370 Y56.5954 
G01 X10.5946 Y56.5778 
G01 X10.5622 Y56.5454 
G01 X10.5446 Y56.5030 
G01 X10.5446 Y55.2570 
G01 X10.5622 Y55.2146 
G01 X10.5946 Y55.1822 
G01 X10.6370 Y55.1646 
G01 X11.4830 Y55.1646 
G01 X11.5254 Y55.1822 
G01 X11.5578 Y55.2146 
G01 X11.5754 Y55.2570 
G01 X11.5754 Y55.6376 
G01 X24.1782 Y55.6376 
G01 X24.2673 Y55.6745 
G01 X24.3355 Y55.7427 
G01 X24.3724 Y55.8318 
G01 X24.3724 Y57.0496 
G01 X25.5004 Y58.1776 
G01 X30.2376 Y58.1776 
G01 X30.2376 Y55.8318 
G01 X30.2745 Y55.7427 
G01 X32.7776 Y53.2396 
G01 X32.7776 Y47.5752 
G01 X32.6354 Y47.7174 
G01 X32.6354 Y48.8830 
G01 X32.6178 Y48.9254 
G01 X32.5854 Y48.9578 
G01 X32.5430 Y48.9754 
G01 X31.6970 Y48.9754 
G01 X31.6546 Y48.9578 
G01 X31.6222 Y48.9254 
G01 X31.6046 Y48.8830 
G01 X31.6046 Y48.4574 
G01 X31.5445 Y48.3973 
G01 X31.5076 Y48.3082 
G01 X31.5076 Y48.2118 
G01 X31.5445 Y48.1227 
G01 X31.6046 Y48.0626 
G01 X31.6046 Y47.6370 
G01 X31.6222 Y47.5946 
G01 X31.6546 Y47.5622 
G01 X31.6970 Y47.5446 
G01 X32.1226 Y47.5446 
G01 X32.8145 Y46.8527 
G01 X32.8827 Y46.7845 
G01 X35.3176 Y44.3496 
G01 X35.3176 Y38.0518 
G01 X35.3545 Y37.9627 
G01 X39.1276 Y34.1896 
G01 X39.1276 Y29.1618 
G01 X39.1645 Y29.0727 
G01 X41.6676 Y26.5696 
G01 X41.6676 Y11.6724 
G01 X30.0120 Y11.6724 
G01 X30.0094 Y11.6890 
G01 X29.9556 Y11.8546 
G01 X29.8765 Y12.0097 
G01 X29.7742 Y12.1505 
G01 X29.6511 Y12.2736 
G01 X29.5103 Y12.3759 
G01 X29.3552 Y12.4550 
G01 X29.1896 Y12.5088 
G01 X29.0176 Y12.5360 
G01 X26.8624 Y12.5360 
G01 X26.6904 Y12.5088 
G01 X26.5248 Y12.4550 
G01 X26.3697 Y12.3759 
G01 X26.2289 Y12.2736 
G01 X26.1058 Y12.1505 
G01 X26.0035 Y12.0097 
G01 X25.9244 Y11.8546 
G01 X25.8706 Y11.6890 
G01 X25.8434 Y11.5170 
G01 X25.8434 Y11.3430 
G01 X25.8706 Y11.1710 
G01 X25.9244 Y11.0054 
G01 X26.0035 Y10.8503 
G01 X26.1058 Y10.7095 
G01 X26.2289 Y10.5864 
G01 X26.3697 Y10.4841 
G01 X26.5248 Y10.4050 
G01 X26.6904 Y10.3512 
G01 X26.8624 Y10.3240 
G01 X28.7032 Y10.3240 
G01 X36.6245 Y2.4027 
G01 X36.6927 Y2.3345 
G01 X36.7818 Y2.2976 
G01 X45.7682 Y2.2976 
G01 X45.8573 Y2.3345 
G01 X45.9255 Y2.4027 
G01 X45.9624 Y2.4918 
G01 X45.9624 Y3.4716 
G01 X45.9759 Y3.4743 
G01 X46.1356 Y3.5405 
G01 X46.2793 Y3.6365 
G01 X46.4015 Y3.7587 
G01 X46.4975 Y3.9024 
G01 X46.5637 Y4.0621 
G01 X46.5974 Y4.2316 
G01 X46.5974 Y5.6146 
G01 X49.6673 Y8.6845 
G01 X49.7355 Y8.7527 
G01 X49.7724 Y8.8418 
G01 X49.7724 Y27.6976 
G01 X69.6076 Y27.6976 
G01 X69.6076 Y15.1918 
G01 X69.6445 Y15.1027 
G01 X69.7127 Y15.0345 
G01 X71.2529 Y13.4943 
G01 X71.2124 Y13.4775 
G01 X71.0687 Y13.3815 
G01 X70.9465 Y13.2593 
G01 X70.8505 Y13.1156 
G01 X70.7843 Y12.9559 
G01 X70.7506 Y12.7864 
G01 X70.7506 Y12.6136 
G01 X70.7843 Y12.4441 
G01 X70.8505 Y12.2844 
G01 X70.9465 Y12.1407 
G01 X71.0687 Y12.0185 
G01 X71.2124 Y11.9225 
G01 X71.3721 Y11.8563 
G01 X71.5416 Y11.8226 
G01 X73.2384 Y11.8226 
G01 X73.4079 Y11.8563 
G01 X73.5676 Y11.9225 
G01 X73.7113 Y12.0185 
G01 X73.8335 Y12.1407 
G01 X73.9295 Y12.2844 
G01 X73.9957 Y12.4441 
G01 X74.0294 Y12.6136 
G01 X74.0294 Y12.7864 
G01 X73.9957 Y12.9559 
G01 X73.9295 Y13.1156 
G01 X73.8335 Y13.2593 
G01 X73.7113 Y13.3815 
G01 X73.5676 Y13.4775 
G01 X73.4079 Y13.5437 
G01 X73.2384 Y13.5774 
G01 X71.8554 Y13.5774 
G01 X70.0924 Y15.3404 
G01 X70.0924 Y46.8896 
G01 X70.7474 Y47.5446 
G01 X71.1730 Y47.5446 
G01 X71.2154 Y47.5622 
G01 X71.2478 Y47.5946 
G01 X71.2654 Y47.6370 
G00 Z2.5400 
G00 X27.5554 Y51.4470 
G01 Z-0.1500 F254.00 
G01 X27.5554 Y52.6930 F508.00 
G01 X27.5378 Y52.7354 
G01 X27.5054 Y52.7678 
G01 X27.4630 Y52.7854 
G01 X26.6170 Y52.7854 
G01 X26.5746 Y52.7678 
G01 X26.5422 Y52.7354 
G01 X26.5246 Y52.6930 
G01 X26.5246 Y52.2674 
G01 X26.4645 Y52.2073 
G01 X20.6926 Y46.4354 
G01 X20.5624 Y46.4354 
G01 X20.5624 Y46.8896 
G01 X22.4874 Y48.8146 
G01 X22.9130 Y48.8146 
G01 X22.9554 Y48.8322 
G01 X22.9878 Y48.8646 
G01 X23.0054 Y48.9070 
G01 X23.0054 Y49.3326 
G01 X23.0655 Y49.3927 
G01 X23.1024 Y49.4818 
G01 X23.1024 Y49.5782 
G01 X23.0655 Y49.6673 
G01 X23.0054 Y49.7274 
G01 X23.0054 Y50.1530 
G01 X22.9878 Y50.1954 
G01 X22.9554 Y50.2278 
G01 X22.9130 Y50.2454 
G01 X22.4874 Y50.2454 
G01 X22.1675 Y50.5653 
G01 X22.1894 Y50.6182 
G01 X22.2134 Y50.7386 
G01 X22.2134 Y50.8614 
G01 X22.1894 Y50.9818 
G01 X22.1424 Y51.0953 
G01 X22.0742 Y51.1974 
G01 X21.9874 Y51.2842 
G01 X21.8853 Y51.3524 
G01 X21.7718 Y51.3994 
G01 X21.6514 Y51.4234 
G01 X21.5286 Y51.4234 
G01 X21.4082 Y51.3994 
G01 X21.2947 Y51.3524 
G01 X21.1926 Y51.2842 
G01 X21.1058 Y51.1974 
G01 X21.0375 Y51.0953 
G01 X20.9906 Y50.9818 
G01 X20.9666 Y50.8614 
G01 X20.9666 Y50.7386 
G01 X20.9906 Y50.6182 
G01 X21.0375 Y50.5047 
G01 X21.1058 Y50.4026 
G01 X21.1926 Y50.3158 
G01 X21.2947 Y50.2476 
G01 X21.4082 Y50.2006 
G01 X21.5286 Y50.1766 
G01 X21.6514 Y50.1766 
G01 X21.7718 Y50.2006 
G01 X21.8247 Y50.2225 
G01 X21.9746 Y50.0726 
G01 X21.9746 Y48.9874 
G01 X20.1827 Y47.1955 
G01 X20.1145 Y47.1273 
G01 X20.0776 Y47.0382 
G01 X20.0776 Y42.6254 
G01 X19.4770 Y42.6254 
G01 X19.4346 Y42.6078 
G01 X19.4022 Y42.5754 
G01 X19.3846 Y42.5330 
G01 X19.3846 Y41.2870 
G01 X19.4022 Y41.2446 
G01 X19.4346 Y41.2122 
G01 X19.4770 Y41.1946 
G01 X20.7230 Y41.1946 
G01 X20.7654 Y41.2122 
G01 X20.7978 Y41.2446 
G01 X20.8154 Y41.2870 
G01 X20.8154 Y42.5330 
G01 X20.7978 Y42.5754 
G01 X20.7654 Y42.6078 
G01 X20.7230 Y42.6254 
G01 X20.5624 Y42.6254 
G01 X20.5624 Y45.0046 
G01 X21.1130 Y45.0046 
G01 X21.1554 Y45.0222 
G01 X21.1878 Y45.0546 
G01 X21.2054 Y45.0970 
G01 X21.2054 Y46.2626 
G01 X26.5246 Y51.5818 
G01 X26.5246 Y51.4470 
G01 X26.5422 Y51.4046 
G01 X26.5746 Y51.3722 
G01 X26.6170 Y51.3546 
G01 X27.4630 Y51.3546 
G01 X27.5054 Y51.3722 
G01 X27.5378 Y51.4046 
G01 X27.5554 Y51.4470 
G00 Z2.5400 
G00 X61.6070 Y55.7346 
G01 Z-0.1500 F254.00 
G01 X62.0326 Y55.7346 F508.00 
G01 X62.0927 Y55.6745 
G01 X64.5276 Y53.2396 
G01 X64.5276 Y52.9855 
G01 X64.3908 Y52.9855 
G01 X63.8545 Y52.4492 
G01 X63.8545 Y51.6908 
G01 X64.3908 Y51.1545 
G01 X65.1492 Y51.1545 
G01 X65.6855 Y51.6908 
G01 X65.6855 Y52.4492 
G01 X65.1492 Y52.9855 
G01 X65.0124 Y52.9855 
G01 X65.0124 Y53.3882 
G01 X64.9755 Y53.4773 
G01 X64.9073 Y53.5455 
G01 X62.7182 Y55.7346 
G01 X62.8530 Y55.7346 
G01 X62.8954 Y55.7522 
G01 X62.9278 Y55.7846 
G01 X62.9454 Y55.8270 
G01 X62.9454 Y56.6730 
G01 X62.9278 Y56.7154 
G01 X62.8954 Y56.7478 
G01 X62.8530 Y56.7654 
G01 X61.6070 Y56.7654 
G01 X61.5646 Y56.7478 
G01 X61.5322 Y56.7154 
G01 X61.5146 Y56.6730 
G01 X61.5146 Y55.8270 
G01 X61.5322 Y55.7846 
G01 X61.5646 Y55.7522 
G01 X61.6070 Y55.7346 
G00 Z2.5400 
G00 X57.5426 Y5.9284 
G01 Z-0.1500 F254.00 
G01 X57.5426 Y4.2316 F508.00 
G01 X57.5763 Y4.0621 
G01 X57.6425 Y3.9024 
G01 X57.7385 Y3.7587 
G01 X57.8607 Y3.6365 
G01 X58.0044 Y3.5405 
G01 X58.1641 Y3.4743 
G01 X58.3336 Y3.4406 
G01 X58.5064 Y3.4406 
G01 X58.6759 Y3.4743 
G01 X58.8356 Y3.5405 
G01 X58.9793 Y3.6365 
G01 X59.1015 Y3.7587 
G01 X59.1975 Y3.9024 
G01 X59.2637 Y4.0621 
G01 X59.2974 Y4.2316 
G01 X59.2974 Y5.9284 
G01 X59.2637 Y6.0979 
G01 X59.1975 Y6.2576 
G01 X59.1015 Y6.4013 
G01 X58.9793 Y6.5235 
G01 X58.8356 Y6.6195 
G01 X58.6759 Y6.6857 
G01 X58.6624 Y6.6884 
G01 X58.6624 Y24.0003 
G01 X58.7875 Y24.0521 
G01 X58.9145 Y24.1370 
G01 X59.0226 Y24.2451 
G01 X59.1075 Y24.3721 
G01 X59.1660 Y24.5133 
G01 X59.1958 Y24.6632 
G01 X59.1958 Y26.1368 
G01 X59.1660 Y26.2867 
G01 X59.1075 Y26.4279 
G01 X59.0226 Y26.5549 
G01 X58.9145 Y26.6630 
G01 X58.7875 Y26.7479 
G01 X58.6463 Y26.8064 
G01 X58.4964 Y26.8362 
G01 X58.3436 Y26.8362 
G01 X58.1937 Y26.8064 
G01 X58.0525 Y26.7479 
G01 X57.9255 Y26.6630 
G01 X57.8174 Y26.5549 
G01 X57.7325 Y26.4279 
G01 X57.6740 Y26.2867 
G01 X57.6442 Y26.1368 
G01 X57.6442 Y24.6632 
G01 X57.6740 Y24.5133 
G01 X57.7325 Y24.3721 
G01 X57.8174 Y24.2451 
G01 X57.9255 Y24.1370 
G01 X58.0525 Y24.0521 
G01 X58.1776 Y24.0003 
G01 X58.1776 Y6.6884 
G01 X58.1641 Y6.6857 
G01 X58.0044 Y6.6195 
G01 X57.8607 Y6.5235 
G01 X57.7385 Y6.4013 
G01 X57.6425 Y6.2576 
G01 X57.5763 Y6.0979 
G01 X57.5426 Y5.9284 
G00 Z2.5400 
G00 X62.6226 Y5.9284 
G01 Z-0.1500 F254.00 
G01 X62.6226 Y4.2316 F508.00 
G01 X62.6563 Y4.0621 
G01 X62.7225 Y3.9024 
G01 X62.8185 Y3.7587 
G01 X62.9407 Y3.6365 
G01 X63.0844 Y3.5405 
G01 X63.2441 Y3.4743 
G01 X63.4136 Y3.4406 
G01 X63.5864 Y3.4406 
G01 X63.7559 Y3.4743 
G01 X63.9156 Y3.5405 
G01 X64.0593 Y3.6365 
G01 X64.1815 Y3.7587 
G01 X64.2775 Y3.9024 
G01 X64.3437 Y4.0621 
G01 X64.3774 Y4.2316 
G01 X64.3774 Y5.9284 
G01 X64.3437 Y6.0979 
G01 X64.2775 Y6.2576 
G01 X64.1815 Y6.4013 
G01 X64.0593 Y6.5235 
G01 X63.9156 Y6.6195 
G01 X63.7559 Y6.6857 
G01 X63.7424 Y6.6884 
G01 X63.7424 Y24.0003 
G01 X63.8675 Y24.0521 
G01 X63.9945 Y24.1370 
G01 X64.1026 Y24.2451 
G01 X64.1875 Y24.3721 
G01 X64.2460 Y24.5133 
G01 X64.2758 Y24.6632 
G01 X64.2758 Y26.1368 
G01 X64.2460 Y26.2867 
G01 X64.1875 Y26.4279 
G01 X64.1026 Y26.5549 
G01 X63.9945 Y26.6630 
G01 X63.8675 Y26.7479 
G01 X63.7263 Y26.8064 
G01 X63.5764 Y26.8362 
G01 X63.4236 Y26.8362 
G01 X63.2737 Y26.8064 
G01 X63.1325 Y26.7479 
G01 X63.0055 Y26.6630 
G01 X62.8974 Y26.5549 
G01 X62.8125 Y26.4279 
G01 X62.7540 Y26.2867 
G01 X62.7242 Y26.1368 
G01 X62.7242 Y24.6632 
G01 X62.7540 Y24.5133 
G01 X62.8125 Y24.3721 
G01 X62.8974 Y24.2451 
G01 X63.0055 Y24.1370 
G01 X63.1325 Y24.0521 
G01 X63.2576 Y24.0003 
G01 X63.2576 Y6.6884 
G01 X63.2441 Y6.6857 
G01 X63.0844 Y6.6195 
G01 X62.9407 Y6.5235 
G01 X62.8185 Y6.4013 
G01 X62.7225 Y6.2576 
G01 X62.6563 Y6.0979 
G01 X62.6226 Y5.9284 
G00 Z2.5400 
G00 X59.1958 Y32.2832 
G01 Z-0.1500 F254.00 
G01 X59.1958 Y33.4530 F508.00 
G01 X62.3673 Y36.6245 
G01 X62.4355 Y36.6927 
G01 X62.4724 Y36.7818 
G01 X62.4724 Y48.9556 
G01 X62.5253 Y48.9776 
G01 X62.6274 Y49.0458 
G01 X62.7142 Y49.1326 
G01 X62.7824 Y49.2347 
G01 X62.8294 Y49.3482 
G01 X62.8534 Y49.4686 
G01 X62.8534 Y49.5914 
G01 X62.8294 Y49.7118 
G01 X62.7824 Y49.8253 
G01 X62.7142 Y49.9274 
G01 X62.6274 Y50.0142 
G01 X62.5253 Y50.0824 
G01 X62.4118 Y50.1294 
G01 X62.2914 Y50.1534 
G01 X62.1686 Y50.1534 
G01 X62.0482 Y50.1294 
G01 X61.9347 Y50.0824 
G01 X61.8326 Y50.0142 
G01 X61.7458 Y49.9274 
G01 X61.6776 Y49.8253 
G01 X61.6306 Y49.7118 
G01 X61.6066 Y49.5914 
G01 X61.6066 Y49.4686 
G01 X61.6306 Y49.3482 
G01 X61.6776 Y49.2347 
G01 X61.7458 Y49.1326 
G01 X61.8326 Y49.0458 
G01 X61.9347 Y48.9776 
G01 X61.9876 Y48.9556 
G01 X61.9876 Y36.9304 
G01 X59.1065 Y34.0493 
G01 X59.0226 Y34.1749 
G01 X58.9145 Y34.2830 
G01 X58.7875 Y34.3679 
G01 X58.6463 Y34.4264 
G01 X58.4964 Y34.4562 
G01 X58.3436 Y34.4562 
G01 X58.1937 Y34.4264 
G01 X58.0525 Y34.3679 
G01 X57.9255 Y34.2830 
G01 X57.8174 Y34.1749 
G01 X57.7325 Y34.0479 
G01 X57.6740 Y33.9067 
G01 X57.6442 Y33.7568 
G01 X57.6442 Y32.2832 
G01 X57.6740 Y32.1333 
G01 X57.7325 Y31.9921 
G01 X57.8174 Y31.8651 
G01 X57.9255 Y31.7570 
G01 X58.0525 Y31.6721 
G01 X58.1937 Y31.6136 
G01 X58.3436 Y31.5838 
G01 X58.4964 Y31.5838 
G01 X58.6463 Y31.6136 
G01 X58.7875 Y31.6721 
G01 X58.9145 Y31.7570 
G01 X59.0226 Y31.8651 
G01 X59.1075 Y31.9921 
G01 X59.1660 Y32.1333 
G01 X59.1958 Y32.2832 
G00 Z2.5400 
G00 X56.6558 Y32.2832 
G01 Z-0.1500 F254.00 
G01 X56.6558 Y33.4530 F508.00 
G01 X61.0973 Y37.8945 
G01 X61.1655 Y37.9627 
G01 X61.2024 Y38.0518 
G01 X61.2024 Y41.3356 
G01 X61.2553 Y41.3576 
G01 X61.3574 Y41.4258 
G01 X61.4442 Y41.5126 
G01 X61.5124 Y41.6147 
G01 X61.5594 Y41.7282 
G01 X61.5834 Y41.8486 
G01 X61.5834 Y41.9714 
G01 X61.5594 Y42.0918 
G01 X61.5124 Y42.2053 
G01 X61.4442 Y42.3074 
G01 X61.3574 Y42.3942 
G01 X61.2553 Y42.4624 
G01 X61.1418 Y42.5094 
G01 X61.0214 Y42.5334 
G01 X60.8986 Y42.5334 
G01 X60.7782 Y42.5094 
G01 X60.6647 Y42.4624 
G01 X60.5626 Y42.3942 
G01 X60.4758 Y42.3074 
G01 X60.4076 Y42.2053 
G01 X60.3606 Y42.0918 
G01 X60.3366 Y41.9714 
G01 X60.3366 Y41.8486 
G01 X60.3606 Y41.7282 
G01 X60.4076 Y41.6147 
G01 X60.4758 Y41.5126 
G01 X60.5626 Y41.4258 
G01 X60.6647 Y41.3576 
G01 X60.7176 Y41.3356 
G01 X60.7176 Y38.2004 
G01 X56.5665 Y34.0493 
G01 X56.4826 Y34.1749 
G01 X56.3745 Y34.2830 
G01 X56.2475 Y34.3679 
G01 X56.1063 Y34.4264 
G01 X55.9564 Y34.4562 
G01 X55.8036 Y34.4562 
G01 X55.6537 Y34.4264 
G01 X55.5125 Y34.3679 
G01 X55.3855 Y34.2830 
G01 X55.2774 Y34.1749 
G01 X55.1925 Y34.0479 
G01 X55.1340 Y33.9067 
G01 X55.1042 Y33.7568 
G01 X55.1042 Y32.2832 
G01 X55.1340 Y32.1333 
G01 X55.1925 Y31.9921 
G01 X55.2774 Y31.8651 
G01 X55.3855 Y31.7570 
G01 X55.5125 Y31.6721 
G01 X55.6537 Y31.6136 
G01 X55.8036 Y31.5838 
G01 X55.9564 Y31.5838 
G01 X56.1063 Y31.6136 
G01 X56.2475 Y31.6721 
G01 X56.3745 Y31.7570 
G01 X56.4826 Y31.8651 
G01 X56.5675 Y31.9921 
G01 X56.6260 Y32.1333 
G01 X56.6558 Y32.2832 
G00 Z2.5400 
G00 X54.1158 Y32.2832 
G01 Z-0.1500 F254.00 
G01 X54.1158 Y33.4530 F508.00 
G01 X56.0173 Y35.3545 
G01 X56.0855 Y35.4227 
G01 X56.1224 Y35.5118 
G01 X56.1224 Y36.2556 
G01 X56.1753 Y36.2776 
G01 X56.2774 Y36.3458 
G01 X56.3642 Y36.4326 
G01 X56.4324 Y36.5347 
G01 X56.4794 Y36.6482 
G01 X56.5034 Y36.7686 
G01 X56.5034 Y36.8914 
G01 X56.4794 Y37.0118 
G01 X56.4324 Y37.1253 
G01 X56.3642 Y37.2274 
G01 X56.2774 Y37.3142 
G01 X56.1753 Y37.3824 
G01 X56.0618 Y37.4294 
G01 X55.9414 Y37.4534 
G01 X55.8186 Y37.4534 
G01 X55.6982 Y37.4294 
G01 X55.5847 Y37.3824 
G01 X55.4826 Y37.3142 
G01 X55.3958 Y37.2274 
G01 X55.3276 Y37.1253 
G01 X55.2806 Y37.0118 
G01 X55.2566 Y36.8914 
G01 X55.2566 Y36.7686 
G01 X55.2806 Y36.6482 
G01 X55.3276 Y36.5347 
G01 X55.3958 Y36.4326 
G01 X55.4826 Y36.3458 
G01 X55.5847 Y36.2776 
G01 X55.6376 Y36.2556 
G01 X55.6376 Y35.6604 
G01 X54.0265 Y34.0493 
G01 X53.9426 Y34.1749 
G01 X53.8345 Y34.2830 
G01 X53.7075 Y34.3679 
G01 X53.5663 Y34.4264 
G01 X53.4164 Y34.4562 
G01 X53.2636 Y34.4562 
G01 X53.1137 Y34.4264 
G01 X52.9725 Y34.3679 
G01 X52.8455 Y34.2830 
G01 X52.7374 Y34.1749 
G01 X52.6525 Y34.0479 
G01 X52.5940 Y33.9067 
G01 X52.5642 Y33.7568 
G01 X52.5642 Y32.2832 
G01 X52.5940 Y32.1333 
G01 X52.6525 Y31.9921 
G01 X52.7374 Y31.8651 
G01 X52.8455 Y31.7570 
G01 X52.9725 Y31.6721 
G01 X53.1137 Y31.6136 
G01 X53.2636 Y31.5838 
G01 X53.4164 Y31.5838 
G01 X53.5663 Y31.6136 
G01 X53.7075 Y31.6721 
G01 X53.8345 Y31.7570 
G01 X53.9426 Y31.8651 
G01 X54.0275 Y31.9921 
G01 X54.0860 Y32.1333 
G01 X54.1158 Y32.2832 
G00 Z2.5400 
G00 X51.5758 Y32.2832 
G01 Z-0.1500 F254.00 
G01 X51.5758 Y33.7568 F508.00 
G01 X51.5460 Y33.9067 
G01 X51.4875 Y34.0479 
G01 X51.4026 Y34.1749 
G01 X51.2945 Y34.2830 
G01 X51.1675 Y34.3679 
G01 X51.0263 Y34.4264 
G01 X50.8764 Y34.4562 
G01 X50.7236 Y34.4562 
G01 X50.5737 Y34.4264 
G01 X50.4325 Y34.3679 
G01 X50.3055 Y34.2830 
G01 X50.1974 Y34.1749 
G01 X50.1125 Y34.0479 
G01 X50.0540 Y33.9067 
G01 X50.0242 Y33.7568 
G01 X50.0242 Y32.2832 
G01 X50.0540 Y32.1333 
G01 X50.1125 Y31.9921 
G01 X50.1974 Y31.8651 
G01 X50.3055 Y31.7570 
G01 X50.4325 Y31.6721 
G01 X50.5737 Y31.6136 
G01 X50.7236 Y31.5838 
G01 X50.8764 Y31.5838 
G01 X51.0263 Y31.6136 
G01 X51.1675 Y31.6721 
G01 X51.2945 Y31.7570 
G01 X51.4026 Y31.8651 
G01 X51.4875 Y31.9921 
G01 X51.5460 Y32.1333 
G01 X51.5758 Y32.2832 
G00 Z2.5400 
G00 X41.4158 Y32.2832 
G01 Z-0.1500 F254.00 
G01 X41.4158 Y33.7568 F508.00 
G01 X41.3860 Y33.9067 
G01 X41.3275 Y34.0479 
G01 X41.2426 Y34.1749 
G01 X41.1345 Y34.2830 
G01 X41.0075 Y34.3679 
G01 X40.8824 Y34.4197 
G01 X40.8824 Y40.9056 
G01 X42.1870 Y40.9056 
G01 X42.2294 Y40.9232 
G01 X42.2618 Y40.9556 
G01 X42.2794 Y40.9980 
G01 X42.2794 Y42.8220 
G01 X42.2618 Y42.8644 
G01 X42.2294 Y42.8968 
G01 X42.1870 Y42.9144 
G01 X40.8824 Y42.9144 
G01 X40.8824 Y48.1146 
G01 X41.2630 Y48.1146 
G01 X41.3054 Y48.1322 
G01 X41.3378 Y48.1646 
G01 X41.3554 Y48.2070 
G01 X41.3554 Y49.0530 
G01 X41.3378 Y49.0954 
G01 X41.3054 Y49.1278 
G01 X41.2630 Y49.1454 
G01 X40.0170 Y49.1454 
G01 X39.9746 Y49.1278 
G01 X39.9422 Y49.0954 
G01 X39.9246 Y49.0530 
G01 X39.9246 Y48.2070 
G01 X39.9422 Y48.1646 
G01 X39.9746 Y48.1322 
G01 X40.0170 Y48.1146 
G01 X40.3976 Y48.1146 
G01 X40.3976 Y42.9144 
G01 X37.0610 Y42.9144 
G01 X37.0186 Y42.8968 
G01 X36.9862 Y42.8644 
G01 X36.9686 Y42.8220 
G01 X36.9686 Y40.9980 
G01 X36.9862 Y40.9556 
G01 X37.0186 Y40.9232 
G01 X37.0610 Y40.9056 
G01 X40.3976 Y40.9056 
G01 X40.3976 Y34.4197 
G01 X40.2725 Y34.3679 
G01 X40.1455 Y34.2830 
G01 X40.0374 Y34.1749 
G01 X39.9525 Y34.0479 
G01 X39.8940 Y33.9067 
G01 X39.8642 Y33.7568 
G01 X39.8642 Y32.2832 
G01 X39.8940 Y32.1333 
G01 X39.9525 Y31.9921 
G01 X40.0374 Y31.8651 
G01 X40.1455 Y31.7570 
G01 X40.2725 Y31.6721 
G01 X40.4137 Y31.6136 
G01 X40.5636 Y31.5838 
G01 X40.7164 Y31.5838 
G01 X40.8663 Y31.6136 
G01 X41.0075 Y31.6721 
G01 X41.1345 Y31.7570 
G01 X41.2426 Y31.8651 
G01 X41.3275 Y31.9921 
G01 X41.3860 Y32.1333 
G01 X41.4158 Y32.2832 
G00 Z2.5400 
G00 X38.8758 Y32.2832 
G01 Z-0.1500 F254.00 
G01 X38.8758 Y33.7568 F508.00 
G01 X38.8460 Y33.9067 
G01 X38.7875 Y34.0479 
G01 X38.7026 Y34.1749 
G01 X38.5945 Y34.2830 
G01 X38.4675 Y34.3679 
G01 X38.3263 Y34.4264 
G01 X38.1764 Y34.4562 
G01 X38.0236 Y34.4562 
G01 X37.8737 Y34.4264 
G01 X37.7325 Y34.3679 
G01 X37.6055 Y34.2830 
G01 X37.4974 Y34.1749 
G01 X37.4125 Y34.0479 
G01 X37.3540 Y33.9067 
G01 X37.3242 Y33.7568 
G01 X37.3242 Y32.2832 
G01 X37.3540 Y32.1333 
G01 X37.4125 Y31.9921 
G01 X37.4974 Y31.8651 
G01 X37.6055 Y31.7570 
G01 X37.7325 Y31.6721 
G01 X37.8737 Y31.6136 
G01 X38.0236 Y31.5838 
G01 X38.1764 Y31.5838 
G01 X38.3263 Y31.6136 
G01 X38.4675 Y31.6721 
G01 X38.5945 Y31.7570 
G01 X38.7026 Y31.8651 
G01 X38.7875 Y31.9921 
G01 X38.8460 Y32.1333 
G01 X38.8758 Y32.2832 
G00 Z2.5400 
G00 X36.3358 Y32.2832 
G01 Z-0.1500 F254.00 
G01 X36.3358 Y33.7568 F508.00 
G01 X36.3060 Y33.9067 
G01 X36.2475 Y34.0479 
G01 X36.1626 Y34.1749 
G01 X36.0545 Y34.2830 
G01 X35.9275 Y34.3679 
G01 X35.7863 Y34.4264 
G01 X35.6364 Y34.4562 
G01 X35.4836 Y34.4562 
G01 X35.3337 Y34.4264 
G01 X35.1925 Y34.3679 
G01 X35.0655 Y34.2830 
G01 X34.9574 Y34.1749 
G01 X34.8725 Y34.0479 
G01 X34.8140 Y33.9067 
G01 X34.7842 Y33.7568 
G01 X34.7842 Y32.2832 
G01 X34.8140 Y32.1333 
G01 X34.8725 Y31.9921 
G01 X34.9574 Y31.8651 
G01 X35.0655 Y31.7570 
G01 X35.1925 Y31.6721 
G01 X35.3337 Y31.6136 
G01 X35.4836 Y31.5838 
G01 X35.6364 Y31.5838 
G01 X35.7863 Y31.6136 
G01 X35.9275 Y31.6721 
G01 X36.0545 Y31.7570 
G01 X36.1626 Y31.8651 
G01 X36.2475 Y31.9921 
G01 X36.3060 Y32.1333 
G01 X36.3358 Y32.2832 
G00 Z2.5400 
G00 X33.7958 Y32.2832 
G01 Z-0.1500 F254.00 
G01 X33.7958 Y33.7568 F508.00 
G01 X33.7660 Y33.9067 
G01 X33.7075 Y34.0479 
G01 X33.6226 Y34.1749 
G01 X33.5145 Y34.2830 
G01 X33.3875 Y34.3679 
G01 X33.2463 Y34.4264 
G01 X33.0964 Y34.4562 
G01 X32.9436 Y34.4562 
G01 X32.7937 Y34.4264 
G01 X32.6525 Y34.3679 
G01 X32.5255 Y34.2830 
G01 X32.4174 Y34.1749 
G01 X32.3325 Y34.0479 
G01 X32.2740 Y33.9067 
G01 X32.2442 Y33.7568 
G01 X32.2442 Y32.2832 
G01 X32.2740 Y32.1333 
G01 X32.3325 Y31.9921 
G01 X32.4174 Y31.8651 
G01 X32.5255 Y31.7570 
G01 X32.6525 Y31.6721 
G01 X32.7937 Y31.6136 
G01 X32.9436 Y31.5838 
G01 X33.0964 Y31.5838 
G01 X33.2463 Y31.6136 
G01 X33.3875 Y31.6721 
G01 X33.5145 Y31.7570 
G01 X33.6226 Y31.8651 
G01 X33.7075 Y31.9921 
G01 X33.7660 Y32.1333 
G01 X33.7958 Y32.2832 
G00 Z2.5400 
G00 X31.2558 Y32.2832 
G01 Z-0.1500 F254.00 
G01 X31.2558 Y33.7568 F508.00 
G01 X31.2260 Y33.9067 
G01 X31.1675 Y34.0479 
G01 X31.0826 Y34.1749 
G01 X30.9745 Y34.2830 
G01 X30.8475 Y34.3679 
G01 X30.7063 Y34.4264 
G01 X30.5564 Y34.4562 
G01 X30.4036 Y34.4562 
G01 X30.2537 Y34.4264 
G01 X30.1125 Y34.3679 
G01 X29.9855 Y34.2830 
G01 X29.8774 Y34.1749 
G01 X29.7925 Y34.0479 
G01 X29.7340 Y33.9067 
G01 X29.7042 Y33.7568 
G01 X29.7042 Y32.2832 
G01 X29.7340 Y32.1333 
G01 X29.7925 Y31.9921 
G01 X29.8774 Y31.8651 
G01 X29.9855 Y31.7570 
G01 X30.1125 Y31.6721 
G01 X30.2537 Y31.6136 
G01 X30.4036 Y31.5838 
G01 X30.5564 Y31.5838 
G01 X30.7063 Y31.6136 
G01 X30.8475 Y31.6721 
G01 X30.9745 Y31.7570 
G01 X31.0826 Y31.8651 
G01 X31.1675 Y31.9921 
G01 X31.2260 Y32.1333 
G01 X31.2558 Y32.2832 
G00 Z2.5400 
G00 X31.2558 Y24.6632 
G01 Z-0.1500 F254.00 
G01 X31.2558 Y26.1368 F508.00 
G01 X31.2260 Y26.2867 
G01 X31.1675 Y26.4279 
G01 X31.0826 Y26.5549 
G01 X30.9745 Y26.6630 
G01 X30.8475 Y26.7479 
G01 X30.7063 Y26.8064 
G01 X30.5564 Y26.8362 
G01 X30.4036 Y26.8362 
G01 X30.2537 Y26.8064 
G01 X30.1125 Y26.7479 
G01 X29.9855 Y26.6630 
G01 X29.8774 Y26.5549 
G01 X29.7935 Y26.4293 
G01 X23.0655 Y33.1573 
G01 X22.9973 Y33.2255 
G01 X22.9082 Y33.2624 
G01 X19.3884 Y33.2624 
G01 X19.3857 Y33.2759 
G01 X19.3195 Y33.4356 
G01 X19.2235 Y33.5793 
G01 X19.1013 Y33.7015 
G01 X18.9576 Y33.7975 
G01 X18.7979 Y33.8637 
G01 X18.6284 Y33.8974 
G01 X16.9316 Y33.8974 
G01 X16.7621 Y33.8637 
G01 X16.6024 Y33.7975 
G01 X16.4587 Y33.7015 
G01 X16.3365 Y33.5793 
G01 X16.2405 Y33.4356 
G01 X16.1743 Y33.2759 
G01 X16.1406 Y33.1064 
G01 X16.1406 Y32.9336 
G01 X16.1743 Y32.7641 
G01 X16.2405 Y32.6044 
G01 X16.3365 Y32.4607 
G01 X16.4587 Y32.3385 
G01 X16.6024 Y32.2425 
G01 X16.7621 Y32.1763 
G01 X16.9316 Y32.1426 
G01 X18.6284 Y32.1426 
G01 X18.7979 Y32.1763 
G01 X18.9576 Y32.2425 
G01 X19.1013 Y32.3385 
G01 X19.2235 Y32.4607 
G01 X19.3195 Y32.6044 
G01 X19.3857 Y32.7641 
G01 X19.3884 Y32.7776 
G01 X22.7596 Y32.7776 
G01 X29.7042 Y25.8330 
G01 X29.7042 Y24.6632 
G01 X29.7340 Y24.5133 
G01 X29.7925 Y24.3721 
G01 X29.8774 Y24.2451 
G01 X29.9855 Y24.1370 
G01 X30.1125 Y24.0521 
G01 X30.2537 Y23.9936 
G01 X30.4036 Y23.9638 
G01 X30.5564 Y23.9638 
G01 X30.7063 Y23.9936 
G01 X30.8475 Y24.0521 
G01 X30.9745 Y24.1370 
G01 X31.0826 Y24.2451 
G01 X31.1675 Y24.3721 
G01 X31.2260 Y24.5133 
G01 X31.2558 Y24.6632 
G00 Z2.5400 
G00 X33.7958 Y24.6632 
G01 Z-0.1500 F254.00 
G01 X33.7958 Y26.1368 F508.00 
G01 X33.7660 Y26.2867 
G01 X33.7075 Y26.4279 
G01 X33.6226 Y26.5549 
G01 X33.5145 Y26.6630 
G01 X33.3875 Y26.7479 
G01 X33.2463 Y26.8064 
G01 X33.0964 Y26.8362 
G01 X32.9436 Y26.8362 
G01 X32.7937 Y26.8064 
G01 X32.6525 Y26.7479 
G01 X32.5255 Y26.6630 
G01 X32.4174 Y26.5549 
G01 X32.3325 Y26.4279 
G01 X32.2740 Y26.2867 
G01 X32.2442 Y26.1368 
G01 X32.2442 Y24.9670 
G01 X30.3796 Y23.1024 
G01 X21.8324 Y23.1024 
G01 X21.8324 Y26.7182 
G01 X21.7955 Y26.8073 
G01 X18.9171 Y29.6857 
G01 X18.9576 Y29.7025 
G01 X19.1013 Y29.7985 
G01 X19.2235 Y29.9207 
G01 X19.3195 Y30.0644 
G01 X19.3857 Y30.2241 
G01 X19.4194 Y30.3936 
G01 X19.4194 Y30.5664 
G01 X19.3857 Y30.7359 
G01 X19.3195 Y30.8956 
G01 X19.2235 Y31.0393 
G01 X19.1013 Y31.1615 
G01 X18.9576 Y31.2575 
G01 X18.7979 Y31.3237 
G01 X18.6284 Y31.3574 
G01 X16.9316 Y31.3574 
G01 X16.7621 Y31.3237 
G01 X16.6024 Y31.2575 
G01 X16.4587 Y31.1615 
G01 X16.3365 Y31.0393 
G01 X16.2405 Y30.8956 
G01 X16.1743 Y30.7359 
G01 X16.1406 Y30.5664 
G01 X16.1406 Y30.3936 
G01 X16.1743 Y30.2241 
G01 X16.2405 Y30.0644 
G01 X16.3365 Y29.9207 
G01 X16.4587 Y29.7985 
G01 X16.6024 Y29.7025 
G01 X16.7621 Y29.6363 
G01 X16.9316 Y29.6026 
G01 X18.3146 Y29.6026 
G01 X21.3476 Y26.5696 
G01 X21.3476 Y22.8118 
G01 X21.3845 Y22.7227 
G01 X21.4527 Y22.6545 
G01 X21.5418 Y22.6176 
G01 X30.5282 Y22.6176 
G01 X30.6173 Y22.6545 
G01 X30.6855 Y22.7227 
G01 X32.3335 Y24.3707 
G01 X32.4174 Y24.2451 
G01 X32.5255 Y24.1370 
G01 X32.6525 Y24.0521 
G01 X32.7937 Y23.9936 
G01 X32.9436 Y23.9638 
G01 X33.0964 Y23.9638 
G01 X33.2463 Y23.9936 
G01 X33.3875 Y24.0521 
G01 X33.5145 Y24.1370 
G01 X33.6226 Y24.2451 
G01 X33.7075 Y24.3721 
G01 X33.7660 Y24.5133 
G01 X33.7958 Y24.6632 
G00 Z2.5400 
G00 X36.3358 Y24.6632 
G01 Z-0.1500 F254.00 
G01 X36.3358 Y26.1368 F508.00 
G01 X36.3060 Y26.2867 
G01 X36.2475 Y26.4279 
G01 X36.1626 Y26.5549 
G01 X36.0545 Y26.6630 
G01 X35.9275 Y26.7479 
G01 X35.7863 Y26.8064 
G01 X35.6364 Y26.8362 
G01 X35.4836 Y26.8362 
G01 X35.3337 Y26.8064 
G01 X35.1925 Y26.7479 
G01 X35.0655 Y26.6630 
G01 X34.9574 Y26.5549 
G01 X34.8725 Y26.4279 
G01 X34.8140 Y26.2867 
G01 X34.7842 Y26.1368 
G01 X34.7842 Y24.6632 
G01 X34.8140 Y24.5133 
G01 X34.8725 Y24.3721 
G01 X34.9574 Y24.2451 
G01 X35.0655 Y24.1370 
G01 X35.1925 Y24.0521 
G01 X35.3337 Y23.9936 
G01 X35.4836 Y23.9638 
G01 X35.6364 Y23.9638 
G01 X35.7863 Y23.9936 
G01 X35.9275 Y24.0521 
G01 X36.0545 Y24.1370 
G01 X36.1626 Y24.2451 
G01 X36.2475 Y24.3721 
G01 X36.3060 Y24.5133 
G01 X36.3358 Y24.6632 
G00 Z2.5400 
G00 X38.8758 Y24.6632 
G01 Z-0.1500 F254.00 
G01 X38.8758 Y26.1368 F508.00 
G01 X38.8460 Y26.2867 
G01 X38.7875 Y26.4279 
G01 X38.7026 Y26.5549 
G01 X38.5945 Y26.6630 
G01 X38.4675 Y26.7479 
G01 X38.3263 Y26.8064 
G01 X38.1764 Y26.8362 
G01 X38.0236 Y26.8362 
G01 X37.8737 Y26.8064 
G01 X37.7325 Y26.7479 
G01 X37.6055 Y26.6630 
G01 X37.4974 Y26.5549 
G01 X37.4125 Y26.4279 
G01 X37.3540 Y26.2867 
G01 X37.3242 Y26.1368 
G01 X37.3242 Y24.6632 
G01 X37.3540 Y24.5133 
G01 X37.4125 Y24.3721 
G01 X37.4974 Y24.2451 
G01 X37.6055 Y24.1370 
G01 X37.7325 Y24.0521 
G01 X37.8576 Y24.0003 
G01 X37.8576 Y22.1644 
G01 X37.8047 Y22.1424 
G01 X37.7026 Y22.0742 
G01 X37.6158 Y21.9874 
G01 X37.5476 Y21.8853 
G01 X37.5006 Y21.7718 
G01 X37.4766 Y21.6514 
G01 X37.4766 Y21.5286 
G01 X37.5006 Y21.4082 
G01 X37.5476 Y21.2947 
G01 X37.6158 Y21.1926 
G01 X37.7026 Y21.1058 
G01 X37.8047 Y21.0375 
G01 X37.9182 Y20.9906 
G01 X38.0386 Y20.9666 
G01 X38.1614 Y20.9666 
G01 X38.2818 Y20.9906 
G01 X38.3953 Y21.0375 
G01 X38.4974 Y21.1058 
G01 X38.5842 Y21.1926 
G01 X38.6524 Y21.2947 
G01 X38.6994 Y21.4082 
G01 X38.7234 Y21.5286 
G01 X38.7234 Y21.6514 
G01 X38.6994 Y21.7718 
G01 X38.6524 Y21.8853 
G01 X38.5842 Y21.9874 
G01 X38.4974 Y22.0742 
G01 X38.3953 Y22.1424 
G01 X38.3424 Y22.1644 
G01 X38.3424 Y24.0003 
G01 X38.4675 Y24.0521 
G01 X38.5945 Y24.1370 
G01 X38.7026 Y24.2451 
G01 X38.7875 Y24.3721 
G01 X38.8460 Y24.5133 
G01 X38.8758 Y24.6632 
G00 Z2.5400 
G00 X41.4158 Y24.6632 
G01 Z-0.1500 F254.00 
G01 X41.4158 Y26.1368 F508.00 
G01 X41.3860 Y26.2867 
G01 X41.3275 Y26.4279 
G01 X41.2426 Y26.5549 
G01 X41.1345 Y26.6630 
G01 X41.0075 Y26.7479 
G01 X40.8663 Y26.8064 
G01 X40.7164 Y26.8362 
G01 X40.5636 Y26.8362 
G01 X40.4137 Y26.8064 
G01 X40.2725 Y26.7479 
G01 X40.1455 Y26.6630 
G01 X40.0374 Y26.5549 
G01 X39.9525 Y26.4279 
G01 X39.8940 Y26.2867 
G01 X39.8642 Y26.1368 
G01 X39.8642 Y24.9670 
G01 X39.2327 Y24.3355 
G01 X39.1645 Y24.2673 
G01 X39.1276 Y24.1782 
G01 X39.1276 Y21.6904 
G01 X34.1896 Y16.7524 
G01 X20.5624 Y16.7524 
G01 X20.5624 Y25.4482 
G01 X20.5255 Y25.5373 
G01 X18.9171 Y27.1457 
G01 X18.9576 Y27.1625 
G01 X19.1013 Y27.2585 
G01 X19.2235 Y27.3807 
G01 X19.3195 Y27.5244 
G01 X19.3857 Y27.6841 
G01 X19.4194 Y27.8536 
G01 X19.4194 Y28.0264 
G01 X19.3857 Y28.1959 
G01 X19.3195 Y28.3556 
G01 X19.2235 Y28.4993 
G01 X19.1013 Y28.6215 
G01 X18.9576 Y28.7175 
G01 X18.7979 Y28.7837 
G01 X18.6284 Y28.8174 
G01 X16.9316 Y28.8174 
G01 X16.7621 Y28.7837 
G01 X16.6024 Y28.7175 
G01 X16.4587 Y28.6215 
G01 X16.3365 Y28.4993 
G01 X16.2405 Y28.3556 
G01 X16.1743 Y28.1959 
G01 X16.1406 Y28.0264 
G01 X16.1406 Y27.8536 
G01 X16.1743 Y27.6841 
G01 X16.2405 Y27.5244 
G01 X16.3365 Y27.3807 
G01 X16.4587 Y27.2585 
G01 X16.6024 Y27.1625 
G01 X16.7621 Y27.0963 
G01 X16.9316 Y27.0626 
G01 X18.3146 Y27.0626 
G01 X20.0776 Y25.2996 
G01 X20.0776 Y16.4618 
G01 X20.1145 Y16.3727 
G01 X20.1827 Y16.3045 
G01 X20.2718 Y16.2676 
G01 X34.3382 Y16.2676 
G01 X34.4273 Y16.3045 
G01 X34.4955 Y16.3727 
G01 X39.5755 Y21.4527 
G01 X39.6124 Y21.5418 
G01 X39.6124 Y24.0296 
G01 X39.9535 Y24.3707 
G01 X40.0374 Y24.2451 
G01 X40.1455 Y24.1370 
G01 X40.2725 Y24.0521 
G01 X40.4137 Y23.9936 
G01 X40.5636 Y23.9638 
G01 X40.7164 Y23.9638 
G01 X40.8663 Y23.9936 
G01 X41.0075 Y24.0521 
G01 X41.1345 Y24.1370 
G01 X41.2426 Y24.2451 
G01 X41.3275 Y24.3721 
G01 X41.3860 Y24.5133 
G01 X41.4158 Y24.6632 
G00 Z2.5400 
G00 X46.4958 Y24.6632 
G01 Z-0.1500 F254.00 
G01 X46.4958 Y26.1368 F508.00 
G01 X46.4660 Y26.2867 
G01 X46.4075 Y26.4279 
G01 X46.3226 Y26.5549 
G01 X46.2145 Y26.6630 
G01 X46.0875 Y26.7479 
G01 X45.9463 Y26.8064 
G01 X45.7964 Y26.8362 
G01 X45.6436 Y26.8362 
G01 X45.4937 Y26.8064 
G01 X45.3525 Y26.7479 
G01 X45.2255 Y26.6630 
G01 X45.1174 Y26.5549 
G01 X45.0325 Y26.4279 
G01 X44.9740 Y26.2867 
G01 X44.9442 Y26.1368 
G01 X44.9442 Y24.6632 
G01 X44.9740 Y24.5133 
G01 X45.0325 Y24.3721 
G01 X45.1174 Y24.2451 
G01 X45.2255 Y24.1370 
G01 X45.3525 Y24.0521 
G01 X45.4937 Y23.9936 
G01 X45.6436 Y23.9638 
G01 X45.7964 Y23.9638 
G01 X45.9463 Y23.9936 
G01 X46.0875 Y24.0521 
G01 X46.2145 Y24.1370 
G01 X46.3226 Y24.2451 
G01 X46.4075 Y24.3721 
G01 X46.4660 Y24.5133 
G01 X46.4958 Y24.6632 
G00 Z2.5400 
G00 X51.5758 Y24.6632 
G01 Z-0.1500 F254.00 
G01 X51.5758 Y26.1368 F508.00 
G01 X51.5460 Y26.2867 
G01 X51.4875 Y26.4279 
G01 X51.4026 Y26.5549 
G01 X51.2945 Y26.6630 
G01 X51.1675 Y26.7479 
G01 X51.0263 Y26.8064 
G01 X50.8764 Y26.8362 
G01 X50.7236 Y26.8362 
G01 X50.5737 Y26.8064 
G01 X50.4325 Y26.7479 
G01 X50.3055 Y26.6630 
G01 X50.1974 Y26.5549 
G01 X50.1125 Y26.4279 
G01 X50.0540 Y26.2867 
G01 X50.0242 Y26.1368 
G01 X50.0242 Y24.6632 
G01 X50.0540 Y24.5133 
G01 X50.1125 Y24.3721 
G01 X50.1974 Y24.2451 
G01 X50.3055 Y24.1370 
G01 X50.4325 Y24.0521 
G01 X50.5737 Y23.9936 
G01 X50.7236 Y23.9638 
G01 X50.8764 Y23.9638 
G01 X51.0263 Y23.9936 
G01 X51.1675 Y24.0521 
G01 X51.2945 Y24.1370 
G01 X51.4026 Y24.2451 
G01 X51.4875 Y24.3721 
G01 X51.5460 Y24.5133 
G01 X51.5758 Y24.6632 
G00 Z2.5400 
G00 X54.1158 Y24.6632 
G01 Z-0.1500 F254.00 
G01 X54.1158 Y26.1368 F508.00 
G01 X54.0860 Y26.2867 
G01 X54.0275 Y26.4279 
G01 X53.9426 Y26.5549 
G01 X53.8345 Y26.6630 
G01 X53.7075 Y26.7479 
G01 X53.5663 Y26.8064 
G01 X53.4164 Y26.8362 
G01 X53.2636 Y26.8362 
G01 X53.1137 Y26.8064 
G01 X52.9725 Y26.7479 
G01 X52.8455 Y26.6630 
G01 X52.7374 Y26.5549 
G01 X52.6525 Y26.4279 
G01 X52.5940 Y26.2867 
G01 X52.5642 Y26.1368 
G01 X52.5642 Y24.6632 
G01 X52.5940 Y24.5133 
G01 X52.6525 Y24.3721 
G01 X52.7374 Y24.2451 
G01 X52.8455 Y24.1370 
G01 X52.9725 Y24.0521 
G01 X53.1137 Y23.9936 
G01 X53.2636 Y23.9638 
G01 X53.4164 Y23.9638 
G01 X53.5663 Y23.9936 
G01 X53.7075 Y24.0521 
G01 X53.8345 Y24.1370 
G01 X53.9426 Y24.2451 
G01 X54.0275 Y24.3721 
G01 X54.0860 Y24.5133 
G01 X54.1158 Y24.6632 
G00 Z2.5400 
G00 X56.6558 Y24.6632 
G01 Z-0.1500 F254.00 
G01 X56.6558 Y26.1368 F508.00 
G01 X56.6260 Y26.2867 
G01 X56.5675 Y26.4279 
G01 X56.4826 Y26.5549 
G01 X56.3745 Y26.6630 
G01 X56.2475 Y26.7479 
G01 X56.1063 Y26.8064 
G01 X55.9564 Y26.8362 
G01 X55.8036 Y26.8362 
G01 X55.6537 Y26.8064 
G01 X55.5125 Y26.7479 
G01 X55.3855 Y26.6630 
G01 X55.2774 Y26.5549 
G01 X55.1925 Y26.4279 
G01 X55.1340 Y26.2867 
G01 X55.1042 Y26.1368 
G01 X55.1042 Y24.6632 
G01 X55.1340 Y24.5133 
G01 X55.1925 Y24.3721 
G01 X55.2774 Y24.2451 
G01 X55.3855 Y24.1370 
G01 X55.5125 Y24.0521 
G01 X55.6376 Y24.0003 
G01 X55.6376 Y6.6884 
G01 X55.6241 Y6.6857 
G01 X55.4644 Y6.6195 
G01 X55.3207 Y6.5235 
G01 X55.1985 Y6.4013 
G01 X55.1025 Y6.2576 
G01 X55.0363 Y6.0979 
G01 X55.0026 Y5.9284 
G01 X55.0026 Y4.2316 
G01 X55.0363 Y4.0621 
G01 X55.1025 Y3.9024 
G01 X55.1985 Y3.7587 
G01 X55.3207 Y3.6365 
G01 X55.4644 Y3.5405 
G01 X55.6241 Y3.4743 
G01 X55.7936 Y3.4406 
G01 X55.9664 Y3.4406 
G01 X56.1359 Y3.4743 
G01 X56.2956 Y3.5405 
G01 X56.4393 Y3.6365 
G01 X56.5615 Y3.7587 
G01 X56.6575 Y3.9024 
G01 X56.7237 Y4.0621 
G01 X56.7574 Y4.2316 
G01 X56.7574 Y5.9284 
G01 X56.7237 Y6.0979 
G01 X56.6575 Y6.2576 
G01 X56.5615 Y6.4013 
G01 X56.4393 Y6.5235 
G01 X56.2956 Y6.6195 
G01 X56.1359 Y6.6857 
G01 X56.1224 Y6.6884 
G01 X56.1224 Y24.0003 
G01 X56.2475 Y24.0521 
G01 X56.3745 Y24.1370 
G01 X56.4826 Y24.2451 
G01 X56.5675 Y24.3721 
G01 X56.6260 Y24.5133 
G01 X56.6558 Y24.6632 
G00 Z2.5400 
G00 X61.7358 Y24.6632 
G01 Z-0.1500 F254.00 
G01 X61.7358 Y26.1368 F508.00 
G01 X61.7060 Y26.2867 
G01 X61.6475 Y26.4279 
G01 X61.5626 Y26.5549 
G01 X61.4545 Y26.6630 
G01 X61.3275 Y26.7479 
G01 X61.1863 Y26.8064 
G01 X61.0364 Y26.8362 
G01 X60.8836 Y26.8362 
G01 X60.7337 Y26.8064 
G01 X60.5925 Y26.7479 
G01 X60.4655 Y26.6630 
G01 X60.3574 Y26.5549 
G01 X60.2725 Y26.4279 
G01 X60.2140 Y26.2867 
G01 X60.1842 Y26.1368 
G01 X60.1842 Y24.6632 
G01 X60.2140 Y24.5133 
G01 X60.2725 Y24.3721 
G01 X60.3574 Y24.2451 
G01 X60.4655 Y24.1370 
G01 X60.5925 Y24.0521 
G01 X60.7176 Y24.0003 
G01 X60.7176 Y6.6884 
G01 X60.7041 Y6.6857 
G01 X60.5444 Y6.6195 
G01 X60.4007 Y6.5235 
G01 X60.2785 Y6.4013 
G01 X60.1825 Y6.2576 
G01 X60.1163 Y6.0979 
G01 X60.0826 Y5.9284 
G01 X60.0826 Y4.2316 
G01 X60.1163 Y4.0621 
G01 X60.1825 Y3.9024 
G01 X60.2785 Y3.7587 
G01 X60.4007 Y3.6365 
G01 X60.5444 Y3.5405 
G01 X60.7041 Y3.4743 
G01 X60.8736 Y3.4406 
G01 X61.0464 Y3.4406 
G01 X61.2159 Y3.4743 
G01 X61.3756 Y3.5405 
G01 X61.5193 Y3.6365 
G01 X61.6415 Y3.7587 
G01 X61.7375 Y3.9024 
G01 X61.8037 Y4.0621 
G01 X61.8374 Y4.2316 
G01 X61.8374 Y5.9284 
G01 X61.8037 Y6.0979 
G01 X61.7375 Y6.2576 
G01 X61.6415 Y6.4013 
G01 X61.5193 Y6.5235 
G01 X61.3756 Y6.6195 
G01 X61.2159 Y6.6857 
G01 X61.2024 Y6.6884 
G01 X61.2024 Y24.0003 
G01 X61.3275 Y24.0521 
G01 X61.4545 Y24.1370 
G01 X61.5626 Y24.2451 
G01 X61.6475 Y24.3721 
G01 X61.7060 Y24.5133 
G01 X61.7358 Y24.6632 
G00 Z2.5400 
G00 X51.9314 Y40.9980 
G01 Z-0.1500 F254.00 
G01 X51.9314 Y42.8220 F508.00 
G01 X51.9138 Y42.8644 
G01 X51.8814 Y42.8968 
G01 X51.8390 Y42.9144 
G01 X48.5024 Y42.9144 
G01 X48.5024 Y44.4982 
G01 X48.4655 Y44.5873 
G01 X44.9382 Y48.1146 
G01 X45.0730 Y48.1146 
G01 X45.1154 Y48.1322 
G01 X45.1478 Y48.1646 
G01 X45.1654 Y48.2070 
G01 X45.1654 Y49.0530 
G01 X45.1478 Y49.0954 
G01 X45.1154 Y49.1278 
G01 X45.0730 Y49.1454 
G01 X43.8270 Y49.1454 
G01 X43.7846 Y49.1278 
G01 X43.7522 Y49.0954 
G01 X43.7346 Y49.0530 
G01 X43.7346 Y48.2070 
G01 X43.7522 Y48.1646 
G01 X43.7846 Y48.1322 
G01 X43.8270 Y48.1146 
G01 X44.2526 Y48.1146 
G01 X48.0176 Y44.3496 
G01 X48.0176 Y42.9144 
G01 X46.7130 Y42.9144 
G01 X46.6706 Y42.8968 
G01 X46.6382 Y42.8644 
G01 X46.6206 Y42.8220 
G01 X46.6206 Y40.9980 
G01 X46.6382 Y40.9556 
G01 X46.6706 Y40.9232 
G01 X46.7130 Y40.9056 
G01 X46.9128 Y40.9056 
G01 X42.9745 Y36.9673 
G01 X42.9376 Y36.8782 
G01 X42.9376 Y34.4197 
G01 X42.8125 Y34.3679 
G01 X42.6855 Y34.2830 
G01 X42.5774 Y34.1749 
G01 X42.4925 Y34.0479 
G01 X42.4340 Y33.9067 
G01 X42.4042 Y33.7568 
G01 X42.4042 Y32.2832 
G01 X42.4340 Y32.1333 
G01 X42.4925 Y31.9921 
G01 X42.5774 Y31.8651 
G01 X42.6855 Y31.7570 
G01 X42.8125 Y31.6721 
G01 X42.9537 Y31.6136 
G01 X43.1036 Y31.5838 
G01 X43.2564 Y31.5838 
G01 X43.4063 Y31.6136 
G01 X43.5475 Y31.6721 
G01 X43.6745 Y31.7570 
G01 X43.7826 Y31.8651 
G01 X43.8675 Y31.9921 
G01 X43.9260 Y32.1333 
G01 X43.9558 Y32.2832 
G01 X43.9558 Y33.7568 
G01 X43.9260 Y33.9067 
G01 X43.8675 Y34.0479 
G01 X43.7826 Y34.1749 
G01 X43.6745 Y34.2830 
G01 X43.5475 Y34.3679 
G01 X43.4224 Y34.4197 
G01 X43.4224 Y36.7296 
G01 X47.5984 Y40.9056 
G01 X51.8390 Y40.9056 
G01 X51.8814 Y40.9232 
G01 X51.9138 Y40.9556 
G01 X51.9314 Y40.9980 
G00 Z2.5400 
G00 X43.8270 Y49.9146 
G01 Z-0.1500 F254.00 
G01 X45.0730 Y49.9146 F508.00 
G01 X45.1154 Y49.9322 
G01 X45.1478 Y49.9646 
G01 X45.1654 Y50.0070 
G01 X45.1654 Y50.5576 
G01 X47.5446 Y50.5576 
G01 X47.5446 Y50.0070 
G01 X47.5622 Y49.9646 
G01 X47.5946 Y49.9322 
G01 X47.6370 Y49.9146 
G01 X48.8830 Y49.9146 
G01 X48.9254 Y49.9322 
G01 X48.9578 Y49.9646 
G01 X48.9754 Y50.0070 
G01 X48.9754 Y50.8530 
G01 X48.9578 Y50.8954 
G01 X48.9254 Y50.9278 
G01 X48.8830 Y50.9454 
G01 X48.4574 Y50.9454 
G01 X48.3973 Y51.0055 
G01 X48.3082 Y51.0424 
G01 X44.6924 Y51.0424 
G01 X44.6924 Y57.1982 
G01 X44.6555 Y57.2873 
G01 X44.5873 Y57.3555 
G01 X42.1155 Y59.8273 
G01 X42.0843 Y59.8585 
G01 X42.0698 Y59.9311 
G01 X42.0075 Y60.0815 
G01 X41.9171 Y60.2169 
G01 X41.8019 Y60.3321 
G01 X41.6665 Y60.4225 
G01 X41.5161 Y60.4848 
G01 X41.3564 Y60.5166 
G01 X41.1936 Y60.5166 
G01 X41.0339 Y60.4848 
G01 X40.8835 Y60.4225 
G01 X40.7481 Y60.3321 
G01 X40.6329 Y60.2169 
G01 X40.5425 Y60.0815 
G01 X40.4802 Y59.9311 
G01 X40.4484 Y59.7714 
G01 X40.4484 Y59.6086 
G01 X40.4802 Y59.4489 
G01 X40.5425 Y59.2985 
G01 X40.6329 Y59.1631 
G01 X40.7481 Y59.0479 
G01 X40.8835 Y58.9575 
G01 X41.0339 Y58.8952 
G01 X41.1936 Y58.8634 
G01 X41.3564 Y58.8634 
G01 X41.5161 Y58.8952 
G01 X41.6665 Y58.9575 
G01 X41.8019 Y59.0479 
G01 X41.9171 Y59.1631 
G01 X41.9880 Y59.2692 
G01 X44.2076 Y57.0496 
G01 X44.2076 Y51.0424 
G01 X40.5918 Y51.0424 
G01 X40.5027 Y51.0055 
G01 X40.4426 Y50.9454 
G01 X40.0170 Y50.9454 
G01 X39.9746 Y50.9278 
G01 X39.9422 Y50.8954 
G01 X39.9246 Y50.8530 
G01 X39.9246 Y50.0070 
G01 X39.9422 Y49.9646 
G01 X39.9746 Y49.9322 
G01 X40.0170 Y49.9146 
G01 X41.2630 Y49.9146 
G01 X41.3054 Y49.9322 
G01 X41.3378 Y49.9646 
G01 X41.3554 Y50.0070 
G01 X41.3554 Y50.5576 
G01 X43.7346 Y50.5576 
G01 X43.7346 Y50.0070 
G01 X43.7522 Y49.9646 
G01 X43.7846 Y49.9322 
G01 X43.8270 Y49.9146 
G00 Z2.5400 
G00 X47.6370 Y48.1146 
G01 Z-0.1500 F254.00 
G01 X47.7718 Y48.1146 F508.00 
G01 X47.2247 Y47.5675 
G01 X47.1718 Y47.5894 
G01 X47.0514 Y47.6134 
G01 X46.9286 Y47.6134 
G01 X46.8082 Y47.5894 
G01 X46.6947 Y47.5424 
G01 X46.5926 Y47.4742 
G01 X46.5058 Y47.3874 
G01 X46.4376 Y47.2853 
G01 X46.3906 Y47.1718 
G01 X46.3666 Y47.0514 
G01 X46.3666 Y46.9286 
G01 X46.3906 Y46.8082 
G01 X46.4376 Y46.6947 
G01 X46.5058 Y46.5926 
G01 X46.5926 Y46.5058 
G01 X46.6947 Y46.4376 
G01 X46.8082 Y46.3906 
G01 X46.9286 Y46.3666 
G01 X47.0514 Y46.3666 
G01 X47.1718 Y46.3906 
G01 X47.2853 Y46.4376 
G01 X47.3874 Y46.5058 
G01 X47.4742 Y46.5926 
G01 X47.5424 Y46.6947 
G01 X47.5894 Y46.8082 
G01 X47.6134 Y46.9286 
G01 X47.6134 Y47.0514 
G01 X47.5894 Y47.1718 
G01 X47.5675 Y47.2247 
G01 X48.3604 Y48.0176 
G01 X61.0082 Y48.0176 
G01 X61.0973 Y48.0545 
G01 X61.1655 Y48.1227 
G01 X61.2024 Y48.2118 
G01 X61.2024 Y49.4296 
G01 X62.3304 Y50.5576 
G01 X63.2576 Y50.5576 
G01 X63.2576 Y34.4197 
G01 X63.1325 Y34.3679 
G01 X63.0055 Y34.2830 
G01 X62.8974 Y34.1749 
G01 X62.8125 Y34.0479 
G01 X62.7540 Y33.9067 
G01 X62.7242 Y33.7568 
G01 X62.7242 Y32.2832 
G01 X62.7540 Y32.1333 
G01 X62.8125 Y31.9921 
G01 X62.8974 Y31.8651 
G01 X63.0055 Y31.7570 
G01 X63.1325 Y31.6721 
G01 X63.2737 Y31.6136 
G01 X63.4236 Y31.5838 
G01 X63.5764 Y31.5838 
G01 X63.7263 Y31.6136 
G01 X63.8675 Y31.6721 
G01 X63.9945 Y31.7570 
G01 X64.1026 Y31.8651 
G01 X64.1875 Y31.9921 
G01 X64.2460 Y32.1333 
G01 X64.2758 Y32.2832 
G01 X64.2758 Y33.7568 
G01 X64.2460 Y33.9067 
G01 X64.1875 Y34.0479 
G01 X64.1026 Y34.1749 
G01 X63.9945 Y34.2830 
G01 X63.8675 Y34.3679 
G01 X63.7424 Y34.4197 
G01 X63.7424 Y50.8482 
G01 X63.7055 Y50.9373 
G01 X63.6373 Y51.0055 
G01 X63.5482 Y51.0424 
G01 X62.1818 Y51.0424 
G01 X62.0927 Y51.0055 
G01 X62.0245 Y50.9373 
G01 X60.7545 Y49.6673 
G01 X60.7176 Y49.5782 
G01 X60.7176 Y48.5024 
G01 X48.9754 Y48.5024 
G01 X48.9754 Y49.0530 
G01 X48.9578 Y49.0954 
G01 X48.9254 Y49.1278 
G01 X48.8830 Y49.1454 
G01 X47.6370 Y49.1454 
G01 X47.5946 Y49.1278 
G01 X47.5622 Y49.0954 
G01 X47.5446 Y49.0530 
G01 X47.5446 Y48.2070 
G01 X47.5622 Y48.1646 
G01 X47.5946 Y48.1322 
G01 X47.6370 Y48.1146 
G00 Z2.5400 
G00 X10.5037 Y42.7424 
G01 Z-0.1500 F254.00 
G01 X10.4061 Y42.8768 F508.00 
G01 X10.2886 Y42.9943 
G01 X10.1542 Y43.0919 
G01 X10.0063 Y43.1673 
G01 X9.8483 Y43.2186 
G01 X9.6842 Y43.2446 
G01 X9.5182 Y43.2446 
G01 X9.3541 Y43.2186 
G01 X9.1961 Y43.1673 
G01 X9.0482 Y43.0919 
G01 X8.9138 Y42.9943 
G01 X8.7963 Y42.8768 
G01 X8.6987 Y42.7424 
G01 X8.6233 Y42.5945 
G01 X8.5720 Y42.4365 
G01 X8.5460 Y42.2724 
G01 X8.5460 Y42.1063 
G01 X8.5720 Y41.9423 
G01 X8.6233 Y41.7843 
G01 X8.6987 Y41.6364 
G01 X8.7963 Y41.5020 
G01 X8.9138 Y41.3845 
G01 X9.0482 Y41.2869 
G01 X9.1961 Y41.2115 
G01 X9.3541 Y41.1602 
G01 X9.5182 Y41.1342 
G01 X9.6842 Y41.1342 
G01 X9.8483 Y41.1602 
G01 X10.0063 Y41.2115 
G01 X10.1542 Y41.2869 
G01 X10.2886 Y41.3845 
G01 X10.4061 Y41.5020 
G01 X10.5037 Y41.6364 
G01 X10.5791 Y41.7843 
G01 X10.6304 Y41.9423 
G01 X10.6484 Y42.0556 
G01 X11.6355 Y43.0427 
G01 X11.6724 Y43.1318 
G01 X11.6724 Y47.0382 
G01 X11.6355 Y47.1273 
G01 X11.5673 Y47.1955 
G01 X10.4024 Y48.3604 
G01 X10.4024 Y54.6582 
G01 X10.3655 Y54.7473 
G01 X10.2973 Y54.8155 
G01 X9.7754 Y55.3374 
G01 X9.7754 Y56.5030 
G01 X9.7578 Y56.5454 
G01 X9.7254 Y56.5778 
G01 X9.6830 Y56.5954 
G01 X8.8370 Y56.5954 
G01 X8.7946 Y56.5778 
G01 X8.7622 Y56.5454 
G01 X8.7446 Y56.5030 
G01 X8.7446 Y56.0774 
G01 X8.6845 Y56.0173 
G01 X8.6476 Y55.9282 
G01 X8.6476 Y55.8318 
G01 X8.6845 Y55.7427 
G01 X8.7446 Y55.6826 
G01 X8.7446 Y55.2570 
G01 X8.7622 Y55.2146 
G01 X8.7946 Y55.1822 
G01 X8.8370 Y55.1646 
G01 X9.2626 Y55.1646 
G01 X9.9176 Y54.5096 
G01 X9.9176 Y48.2118 
G01 X9.9545 Y48.1227 
G01 X11.1876 Y46.8896 
G01 X11.1876 Y43.2804 
G01 X10.5530 Y42.6458 
G01 X10.5037 Y42.7424 
G00 Z2.5400 
G00 X4.1540 Y42.1063 
G01 Z-0.1500 F254.00 
G01 X4.1540 Y42.2724 F508.00 
G01 X4.1280 Y42.4365 
G01 X4.0767 Y42.5945 
G01 X4.0013 Y42.7424 
G01 X3.9037 Y42.8768 
G01 X3.7862 Y42.9943 
G01 X3.6518 Y43.0919 
G01 X3.5039 Y43.1673 
G01 X3.3459 Y43.2186 
G01 X3.1818 Y43.2446 
G01 X3.0158 Y43.2446 
G01 X2.8517 Y43.2186 
G01 X2.6937 Y43.1673 
G01 X2.5458 Y43.0919 
G01 X2.4114 Y42.9943 
G01 X2.2939 Y42.8768 
G01 X2.1963 Y42.7424 
G01 X2.1209 Y42.5945 
G01 X2.0696 Y42.4365 
G01 X2.0436 Y42.2724 
G01 X2.0436 Y42.1063 
G01 X2.0696 Y41.9423 
G01 X2.1209 Y41.7843 
G01 X2.1963 Y41.6364 
G01 X2.2939 Y41.5020 
G01 X2.4114 Y41.3845 
G01 X2.5458 Y41.2869 
G01 X2.6937 Y41.2115 
G01 X2.8517 Y41.1602 
G01 X3.0158 Y41.1342 
G01 X3.1818 Y41.1342 
G01 X3.3459 Y41.1602 
G01 X3.5039 Y41.2115 
G01 X3.6518 Y41.2869 
G01 X3.7862 Y41.3845 
G01 X3.9037 Y41.5020 
G01 X4.0013 Y41.6364 
G01 X4.0767 Y41.7843 
G01 X4.1280 Y41.9423 
G01 X4.1540 Y42.1063 
G00 Z2.5400 
G00 X10.6564 Y46.6275 
G01 Z-0.1500 F254.00 
G01 X10.6564 Y46.7936 F508.00 
G01 X10.6304 Y46.9577 
G01 X10.5791 Y47.1157 
G01 X10.5037 Y47.2636 
G01 X10.4061 Y47.3980 
G01 X10.2886 Y47.5155 
G01 X10.1542 Y47.6131 
G01 X10.0063 Y47.6885 
G01 X9.8483 Y47.7398 
G01 X9.6842 Y47.7658 
G01 X9.5182 Y47.7658 
G01 X9.3541 Y47.7398 
G01 X9.1961 Y47.6885 
G01 X9.0482 Y47.6131 
G01 X8.9138 Y47.5155 
G01 X8.7963 Y47.3980 
G01 X8.6987 Y47.2636 
G01 X8.6233 Y47.1157 
G01 X8.5720 Y46.9577 
G01 X8.5460 Y46.7936 
G01 X8.5460 Y46.6275 
G01 X8.5720 Y46.4635 
G01 X8.6233 Y46.3055 
G01 X8.6987 Y46.1576 
G01 X8.7963 Y46.0232 
G01 X8.9138 Y45.9057 
G01 X9.0482 Y45.8081 
G01 X9.1961 Y45.7327 
G01 X9.3541 Y45.6814 
G01 X9.5182 Y45.6554 
G01 X9.6842 Y45.6554 
G01 X9.8483 Y45.6814 
G01 X10.0063 Y45.7327 
G01 X10.1542 Y45.8081 
G01 X10.2886 Y45.9057 
G01 X10.4061 Y46.0232 
G01 X10.5037 Y46.1576 
G01 X10.5791 Y46.3055 
G01 X10.6304 Y46.4635 
G01 X10.6564 Y46.6275 
G00 Z2.5400 
G00 X4.1540 Y46.6275 
G01 Z-0.1500 F254.00 
G01 X4.1540 Y46.7936 F508.00 
G01 X4.1280 Y46.9577 
G01 X4.0767 Y47.1157 
G01 X4.0013 Y47.2636 
G01 X3.9037 Y47.3980 
G01 X3.7862 Y47.5155 
G01 X3.6518 Y47.6131 
G01 X3.5039 Y47.6885 
G01 X3.3459 Y47.7398 
G01 X3.1818 Y47.7658 
G01 X3.0158 Y47.7658 
G01 X2.8517 Y47.7398 
G01 X2.6937 Y47.6885 
G01 X2.5458 Y47.6131 
G01 X2.4114 Y47.5155 
G01 X2.2939 Y47.3980 
G01 X2.1963 Y47.2636 
G01 X2.1209 Y47.1157 
G01 X2.0696 Y46.9577 
G01 X2.0436 Y46.7936 
G01 X2.0436 Y46.6275 
G01 X2.0696 Y46.4635 
G01 X2.1209 Y46.3055 
G01 X2.1963 Y46.1576 
G01 X2.2939 Y46.0232 
G01 X2.4114 Y45.9057 
G01 X2.5458 Y45.8081 
G01 X2.6937 Y45.7327 
G01 X2.8517 Y45.6814 
G01 X3.0158 Y45.6554 
G01 X3.1818 Y45.6554 
G01 X3.3459 Y45.6814 
G01 X3.5039 Y45.7327 
G01 X3.6518 Y45.8081 
G01 X3.7862 Y45.9057 
G01 X3.9037 Y46.0232 
G01 X4.0013 Y46.1576 
G01 X4.0767 Y46.3055 
G01 X4.1280 Y46.4635 
G01 X4.1540 Y46.6275 
G00 Z2.5400 
G00 X78.0854 Y52.4470 
G01 Z-0.1500 F254.00 
G01 X78.0854 Y53.6126 F508.00 
G01 X81.4173 Y56.9445 
G01 X81.4855 Y57.0127 
G01 X81.5224 Y57.1018 
G01 X81.5224 Y57.5696 
G01 X81.5480 Y57.5696 
G01 X81.5904 Y57.5872 
G01 X81.6228 Y57.6196 
G01 X81.6404 Y57.6620 
G01 X81.6404 Y59.1780 
G01 X81.6228 Y59.2204 
G01 X81.5904 Y59.2528 
G01 X81.5480 Y59.2704 
G01 X81.5224 Y59.2704 
G01 X81.5224 Y62.3981 
G01 X81.6155 Y62.4657 
G01 X81.7682 Y62.6184 
G01 X81.8952 Y62.7932 
G01 X81.9933 Y62.9858 
G01 X82.0601 Y63.1913 
G01 X82.0939 Y63.4047 
G01 X82.0939 Y66.1353 
G01 X82.0601 Y66.3487 
G01 X81.9933 Y66.5542 
G01 X81.8952 Y66.7468 
G01 X81.7682 Y66.9216 
G01 X81.6155 Y67.0743 
G01 X81.4407 Y67.2013 
G01 X81.2481 Y67.2994 
G01 X81.0426 Y67.3662 
G01 X80.8292 Y67.4000 
G01 X80.6132 Y67.4000 
G01 X80.3998 Y67.3662 
G01 X80.1943 Y67.2994 
G01 X80.0017 Y67.2013 
G01 X79.8269 Y67.0743 
G01 X79.6742 Y66.9216 
G01 X79.5472 Y66.7468 
G01 X79.4491 Y66.5542 
G01 X79.3823 Y66.3487 
G01 X79.3485 Y66.1353 
G01 X79.3485 Y63.4047 
G01 X79.3823 Y63.1913 
G01 X79.4491 Y62.9858 
G01 X79.5472 Y62.7932 
G01 X79.6742 Y62.6184 
G01 X79.8269 Y62.4657 
G01 X80.0017 Y62.3387 
G01 X80.1943 Y62.2406 
G01 X80.3998 Y62.1738 
G01 X80.6132 Y62.1400 
G01 X80.8292 Y62.1400 
G01 X81.0376 Y62.1730 
G01 X81.0376 Y59.2704 
G01 X80.2320 Y59.2704 
G01 X80.1896 Y59.2528 
G01 X80.1572 Y59.2204 
G01 X80.1396 Y59.1780 
G01 X80.1396 Y57.6620 
G01 X80.1572 Y57.6196 
G01 X80.1896 Y57.5872 
G01 X80.2320 Y57.5696 
G01 X81.0376 Y57.5696 
G01 X81.0376 Y57.2504 
G01 X77.7726 Y53.9854 
G01 X76.9470 Y53.9854 
G01 X76.9046 Y53.9678 
G01 X76.8722 Y53.9354 
G01 X76.8546 Y53.8930 
G01 X76.8546 Y52.4470 
G01 X76.8722 Y52.4046 
G01 X76.9046 Y52.3722 
G01 X76.9470 Y52.3546 
G01 X77.9930 Y52.3546 
G01 X78.0354 Y52.3722 
G01 X78.0678 Y52.4046 
G01 X78.0854 Y52.4470 
G00 Z2.5400 
G00 X77.1354 Y50.2470 
G01 Z-0.1500 F254.00 
G01 X77.1354 Y51.6930 F508.00 
G01 X77.1178 Y51.7354 
G01 X77.0854 Y51.7678 
G01 X77.0430 Y51.7854 
G01 X75.9970 Y51.7854 
G01 X75.9546 Y51.7678 
G01 X75.9222 Y51.7354 
G01 X75.9046 Y51.6930 
G01 X75.9046 Y50.2470 
G01 X75.9222 Y50.2046 
G01 X75.9546 Y50.1722 
G01 X75.9576 Y50.1709 
G01 X75.9576 Y46.9418 
G01 X75.9945 Y46.8527 
G01 X76.0546 Y46.7926 
G01 X76.0546 Y46.3670 
G01 X76.0722 Y46.3246 
G01 X76.1046 Y46.2922 
G01 X76.1470 Y46.2746 
G01 X76.9930 Y46.2746 
G01 X77.0354 Y46.2922 
G01 X77.0678 Y46.3246 
G01 X77.0854 Y46.3670 
G01 X77.0854 Y47.6130 
G01 X77.0678 Y47.6554 
G01 X77.0354 Y47.6878 
G01 X76.9930 Y47.7054 
G01 X76.4424 Y47.7054 
G01 X76.4424 Y50.1546 
G01 X77.0430 Y50.1546 
G01 X77.0854 Y50.1722 
G01 X77.1178 Y50.2046 
G01 X77.1354 Y50.2470 
G00 Z2.5400 
G00 X78.8854 Y47.6130 
G01 Z-0.1500 F254.00 
G01 X78.8678 Y47.6554 F508.00 
G01 X78.8354 Y47.6878 
G01 X78.7930 Y47.7054 
G01 X77.9470 Y47.7054 
G01 X77.9046 Y47.6878 
G01 X77.8722 Y47.6554 
G01 X77.8546 Y47.6130 
G01 X77.8546 Y46.3670 
G01 X77.8722 Y46.3246 
G01 X77.9046 Y46.2922 
G01 X77.9470 Y46.2746 
G01 X78.4976 Y46.2746 
G01 X78.4976 Y38.6744 
G01 X78.4447 Y38.6524 
G01 X78.3426 Y38.5842 
G01 X78.2558 Y38.4974 
G01 X78.1876 Y38.3953 
G01 X78.1406 Y38.2818 
G01 X78.1166 Y38.1614 
G01 X78.1166 Y38.0386 
G01 X78.1406 Y37.9182 
G01 X78.1876 Y37.8047 
G01 X78.2558 Y37.7026 
G01 X78.3426 Y37.6158 
G01 X78.4447 Y37.5476 
G01 X78.5582 Y37.5006 
G01 X78.6786 Y37.4766 
G01 X78.8014 Y37.4766 
G01 X78.9218 Y37.5006 
G01 X79.0353 Y37.5476 
G01 X79.1374 Y37.6158 
G01 X79.2242 Y37.7026 
G01 X79.2924 Y37.8047 
G01 X79.3394 Y37.9182 
G01 X79.3634 Y38.0386 
G01 X79.3634 Y38.1614 
G01 X79.3394 Y38.2818 
G01 X79.2924 Y38.3953 
G01 X79.2242 Y38.4974 
G01 X79.1374 Y38.5842 
G01 X79.0353 Y38.6524 
G01 X78.9824 Y38.6744 
G01 X78.9824 Y47.0382 
G01 X78.9455 Y47.1273 
G01 X78.8854 Y47.1874 
G01 X78.8854 Y47.6130 
G00 Z2.5400 
G00 X75.8396 Y59.1780 
G01 Z-0.1500 F254.00 
G01 X75.8396 Y57.6620 F508.00 
G01 X75.8572 Y57.6196 
G01 X75.8896 Y57.5872 
G01 X75.9320 Y57.5696 
G01 X77.2480 Y57.5696 
G01 X77.2904 Y57.5872 
G01 X77.3228 Y57.6196 
G01 X77.3404 Y57.6620 
G01 X77.3404 Y59.1780 
G01 X77.3228 Y59.2204 
G01 X77.2904 Y59.2528 
G01 X77.2480 Y59.2704 
G01 X76.4424 Y59.2704 
G01 X76.4424 Y62.1730 
G01 X76.6508 Y62.1400 
G01 X76.8668 Y62.1400 
G01 X77.0802 Y62.1738 
G01 X77.2857 Y62.2406 
G01 X77.4783 Y62.3387 
G01 X77.6531 Y62.4657 
G01 X77.8058 Y62.6184 
G01 X77.9328 Y62.7932 
G01 X78.0309 Y62.9858 
G01 X78.0977 Y63.1913 
G01 X78.1315 Y63.4047 
G01 X78.1315 Y66.1353 
G01 X78.0977 Y66.3487 
G01 X78.0309 Y66.5542 
G01 X77.9328 Y66.7468 
G01 X77.8058 Y66.9216 
G01 X77.6531 Y67.0743 
G01 X77.4783 Y67.2013 
G01 X77.2857 Y67.2994 
G01 X77.0802 Y67.3662 
G01 X76.8668 Y67.4000 
G01 X76.6508 Y67.4000 
G01 X76.4374 Y67.3662 
G01 X76.2319 Y67.2994 
G01 X76.0393 Y67.2013 
G01 X75.8645 Y67.0743 
G01 X75.7118 Y66.9216 
G01 X75.5848 Y66.7468 
G01 X75.4867 Y66.5542 
G01 X75.4199 Y66.3487 
G01 X75.3861 Y66.1353 
G01 X75.3861 Y63.4047 
G01 X75.4199 Y63.1913 
G01 X75.4867 Y62.9858 
G01 X75.5848 Y62.7932 
G01 X75.7118 Y62.6184 
G01 X75.8645 Y62.4657 
G01 X75.9576 Y62.3981 
G01 X75.9576 Y59.2704 
G01 X75.9320 Y59.2704 
G01 X75.8896 Y59.2528 
G01 X75.8572 Y59.2204 
G01 X75.8396 Y59.1780 
G00 Z2.5400 
G00 X60.2644 Y62.5178 
G01 Z-0.1500 F254.00 
G01 X60.2644 Y64.1422 F508.00 
G01 X60.2319 Y64.3053 
G01 X60.1683 Y64.4590 
G01 X60.0759 Y64.5973 
G01 X59.9583 Y64.7149 
G01 X59.8200 Y64.8073 
G01 X59.6663 Y64.8709 
G01 X59.5032 Y64.9034 
G01 X59.3368 Y64.9034 
G01 X59.1737 Y64.8709 
G01 X59.0200 Y64.8073 
G01 X58.8817 Y64.7149 
G01 X58.7641 Y64.5973 
G01 X58.6717 Y64.4590 
G01 X58.6081 Y64.3053 
G01 X58.5756 Y64.1422 
G01 X58.5756 Y62.5178 
G01 X58.6081 Y62.3547 
G01 X58.6717 Y62.2010 
G01 X58.7641 Y62.0627 
G01 X58.8817 Y61.9451 
G01 X59.0200 Y61.8527 
G01 X59.1737 Y61.7891 
G01 X59.3368 Y61.7566 
G01 X59.5032 Y61.7566 
G01 X59.6663 Y61.7891 
G01 X59.8200 Y61.8527 
G01 X59.9583 Y61.9451 
G01 X60.0759 Y62.0627 
G01 X60.1683 Y62.2010 
G01 X60.2319 Y62.3547 
G01 X60.2644 Y62.5178 
G00 Z2.5400 
G00 X58.2644 Y62.5178 
G01 Z-0.1500 F254.00 
G01 X58.2644 Y64.1422 F508.00 
G01 X58.2319 Y64.3053 
G01 X58.1683 Y64.4590 
G01 X58.0759 Y64.5973 
G01 X57.9583 Y64.7149 
G01 X57.8200 Y64.8073 
G01 X57.6663 Y64.8709 
G01 X57.5032 Y64.9034 
G01 X57.3368 Y64.9034 
G01 X57.1737 Y64.8709 
G01 X57.0200 Y64.8073 
G01 X56.8817 Y64.7149 
G01 X56.7641 Y64.5973 
G01 X56.6717 Y64.4590 
G01 X56.6081 Y64.3053 
G01 X56.5756 Y64.1422 
G01 X56.5756 Y62.5178 
G01 X56.6081 Y62.3547 
G01 X56.6717 Y62.2010 
G01 X56.7641 Y62.0627 
G01 X56.8817 Y61.9451 
G01 X57.0200 Y61.8527 
G01 X57.1737 Y61.7891 
G01 X57.3368 Y61.7566 
G01 X57.5032 Y61.7566 
G01 X57.6663 Y61.7891 
G01 X57.8200 Y61.8527 
G01 X57.9583 Y61.9451 
G01 X58.0759 Y62.0627 
G01 X58.1683 Y62.2010 
G01 X58.2319 Y62.3547 
G01 X58.2644 Y62.5178 
G00 Z2.5400 
G00 X55.7644 Y62.5178 
G01 Z-0.1500 F254.00 
G01 X55.7644 Y64.1422 F508.00 
G01 X55.7319 Y64.3053 
G01 X55.6683 Y64.4590 
G01 X55.5759 Y64.5973 
G01 X55.4583 Y64.7149 
G01 X55.3200 Y64.8073 
G01 X55.1663 Y64.8709 
G01 X55.0032 Y64.9034 
G01 X54.8368 Y64.9034 
G01 X54.6737 Y64.8709 
G01 X54.5200 Y64.8073 
G01 X54.3817 Y64.7149 
G01 X54.2641 Y64.5973 
G01 X54.1717 Y64.4590 
G01 X54.1081 Y64.3053 
G01 X54.0756 Y64.1422 
G01 X54.0756 Y62.5178 
G01 X54.1081 Y62.3547 
G01 X54.1717 Y62.2010 
G01 X54.2641 Y62.0627 
G01 X54.3676 Y61.9592 
G01 X54.3676 Y60.9118 
G01 X54.4045 Y60.8227 
G01 X54.4727 Y60.7545 
G01 X54.5618 Y60.7176 
G01 X55.6376 Y60.7176 
G01 X55.6376 Y57.1018 
G01 X55.6745 Y57.0127 
G01 X56.4346 Y56.2526 
G01 X56.4346 Y55.8270 
G01 X56.4522 Y55.7846 
G01 X56.4846 Y55.7522 
G01 X56.5270 Y55.7346 
G01 X56.9076 Y55.7346 
G01 X56.9076 Y52.9855 
G01 X56.7708 Y52.9855 
G01 X56.2345 Y52.4492 
G01 X56.2345 Y51.6908 
G01 X56.7708 Y51.1545 
G01 X57.5292 Y51.1545 
G01 X58.0655 Y51.6908 
G01 X58.0655 Y52.4492 
G01 X57.5292 Y52.9855 
G01 X57.3924 Y52.9855 
G01 X57.3924 Y55.7346 
G01 X57.7730 Y55.7346 
G01 X57.8154 Y55.7522 
G01 X57.8478 Y55.7846 
G01 X57.8654 Y55.8270 
G01 X57.8654 Y56.6730 
G01 X57.8478 Y56.7154 
G01 X57.8154 Y56.7478 
G01 X57.7730 Y56.7654 
G01 X56.6074 Y56.7654 
G01 X56.1224 Y57.2504 
G01 X56.1224 Y60.7176 
G01 X68.4796 Y60.7176 
G01 X69.6076 Y59.5896 
G01 X69.6076 Y56.8654 
G01 X69.0070 Y56.8654 
G01 X68.9646 Y56.8478 
G01 X68.9322 Y56.8154 
G01 X68.9146 Y56.7730 
G01 X68.9146 Y55.3270 
G01 X68.9322 Y55.2846 
G01 X68.9646 Y55.2522 
G01 X69.0070 Y55.2346 
G01 X70.0530 Y55.2346 
G01 X70.0954 Y55.2522 
G01 X70.1278 Y55.2846 
G01 X70.1454 Y55.3270 
G01 X70.1454 Y56.7730 
G01 X70.1278 Y56.8154 
G01 X70.0954 Y56.8478 
G01 X70.0924 Y56.8491 
G01 X70.0924 Y59.7382 
G01 X70.0555 Y59.8273 
G01 X68.7855 Y61.0973 
G01 X68.7173 Y61.1655 
G01 X68.6282 Y61.2024 
G01 X54.8524 Y61.2024 
G01 X54.8524 Y61.7566 
G01 X55.0032 Y61.7566 
G01 X55.1663 Y61.7891 
G01 X55.3200 Y61.8527 
G01 X55.4583 Y61.9451 
G01 X55.5759 Y62.0627 
G01 X55.6683 Y62.2010 
G01 X55.7319 Y62.3547 
G01 X55.7644 Y62.5178 
G00 Z2.5400 
G00 X11.0374 Y37.2516 
G01 Z-0.1500 F254.00 
G01 X11.0374 Y38.6346 F508.00 
G01 X12.8373 Y40.4345 
G01 X12.9055 Y40.5027 
G01 X12.9424 Y40.5918 
G01 X12.9424 Y51.2196 
G01 X12.9680 Y51.2196 
G01 X13.0104 Y51.2372 
G01 X13.0428 Y51.2696 
G01 X13.0604 Y51.3120 
G01 X13.0604 Y51.8276 
G01 X25.4482 Y51.8276 
G01 X25.5373 Y51.8645 
G01 X25.6055 Y51.9327 
G01 X25.6424 Y52.0218 
G01 X25.6424 Y56.4182 
G01 X25.7939 Y56.3552 
G01 X25.9536 Y56.3234 
G01 X26.1164 Y56.3234 
G01 X26.2761 Y56.3552 
G01 X26.4265 Y56.4175 
G01 X26.5619 Y56.5079 
G01 X26.6771 Y56.6231 
G01 X26.7480 Y56.7292 
G01 X27.6976 Y55.7796 
G01 X27.6976 Y50.9004 
G01 X23.0054 Y46.2082 
G01 X23.0054 Y46.3430 
G01 X22.9878 Y46.3854 
G01 X22.9554 Y46.4178 
G01 X22.9130 Y46.4354 
G01 X22.0670 Y46.4354 
G01 X22.0246 Y46.4178 
G01 X21.9922 Y46.3854 
G01 X21.9746 Y46.3430 
G01 X21.9746 Y45.0970 
G01 X21.9922 Y45.0546 
G01 X22.0246 Y45.0222 
G01 X22.0670 Y45.0046 
G01 X22.9130 Y45.0046 
G01 X22.9554 Y45.0222 
G01 X22.9878 Y45.0546 
G01 X23.0054 Y45.0970 
G01 X23.0054 Y45.5226 
G01 X23.0655 Y45.5827 
G01 X28.0773 Y50.5945 
G01 X28.1455 Y50.6627 
G01 X28.1824 Y50.7518 
G01 X28.1824 Y55.9282 
G01 X28.1455 Y56.0173 
G01 X26.8755 Y57.2873 
G01 X26.8443 Y57.3185 
G01 X26.8298 Y57.3911 
G01 X26.7675 Y57.5415 
G01 X26.6771 Y57.6769 
G01 X26.5619 Y57.7921 
G01 X26.4265 Y57.8825 
G01 X26.2761 Y57.9448 
G01 X26.1164 Y57.9766 
G01 X25.9536 Y57.9766 
G01 X25.7939 Y57.9448 
G01 X25.6435 Y57.8825 
G01 X25.5081 Y57.7921 
G01 X25.3929 Y57.6769 
G01 X25.3025 Y57.5415 
G01 X25.2402 Y57.3911 
G01 X25.2257 Y57.3185 
G01 X25.1945 Y57.2873 
G01 X25.1576 Y57.1982 
G01 X25.1576 Y52.3124 
G01 X13.0604 Y52.3124 
G01 X13.0604 Y52.8280 
G01 X13.0428 Y52.8704 
G01 X13.0104 Y52.9028 
G01 X12.9680 Y52.9204 
G01 X11.6520 Y52.9204 
G01 X11.6096 Y52.9028 
G01 X11.5772 Y52.8704 
G01 X11.5596 Y52.8280 
G01 X11.5596 Y51.3120 
G01 X11.5772 Y51.2696 
G01 X11.6096 Y51.2372 
G01 X11.6520 Y51.2196 
G01 X12.4576 Y51.2196 
G01 X12.4576 Y40.7404 
G01 X10.9543 Y39.2371 
G01 X10.9375 Y39.2776 
G01 X10.8415 Y39.4213 
G01 X10.7193 Y39.5435 
G01 X10.5756 Y39.6395 
G01 X10.4159 Y39.7057 
G01 X10.2464 Y39.7394 
G01 X10.0736 Y39.7394 
G01 X9.9041 Y39.7057 
G01 X9.7444 Y39.6395 
G01 X9.6007 Y39.5435 
G01 X9.4785 Y39.4213 
G01 X9.3825 Y39.2776 
G01 X9.3163 Y39.1179 
G01 X9.2826 Y38.9484 
G01 X9.2826 Y37.2516 
G01 X9.3163 Y37.0821 
G01 X9.3825 Y36.9224 
G01 X9.4785 Y36.7787 
G01 X9.6007 Y36.6565 
G01 X9.7444 Y36.5605 
G01 X9.9041 Y36.4943 
G01 X10.0736 Y36.4606 
G01 X10.2464 Y36.4606 
G01 X10.4159 Y36.4943 
G01 X10.5756 Y36.5605 
G01 X10.7193 Y36.6565 
G01 X10.8415 Y36.7787 
G01 X10.9375 Y36.9224 
G01 X11.0037 Y37.0821 
G01 X11.0374 Y37.2516 
G00 Z2.5400 
G00 X8.4974 Y37.2516 
G01 Z-0.1500 F254.00 
G01 X8.4974 Y38.9484 F508.00 
G01 X8.4637 Y39.1179 
G01 X8.3975 Y39.2776 
G01 X8.3015 Y39.4213 
G01 X8.1793 Y39.5435 
G01 X8.0356 Y39.6395 
G01 X7.8759 Y39.7057 
G01 X7.7064 Y39.7394 
G01 X7.5336 Y39.7394 
G01 X7.3641 Y39.7057 
G01 X7.2044 Y39.6395 
G01 X7.0607 Y39.5435 
G01 X6.9385 Y39.4213 
G01 X6.8425 Y39.2776 
G01 X6.7763 Y39.1179 
G01 X6.7426 Y38.9484 
G01 X6.7426 Y37.2516 
G01 X6.7763 Y37.0821 
G01 X6.8425 Y36.9224 
G01 X6.9385 Y36.7787 
G01 X7.0607 Y36.6565 
G01 X7.2044 Y36.5605 
G01 X7.3641 Y36.4943 
G01 X7.5336 Y36.4606 
G01 X7.7064 Y36.4606 
G01 X7.8759 Y36.4943 
G01 X8.0356 Y36.5605 
G01 X8.1793 Y36.6565 
G01 X8.3015 Y36.7787 
G01 X8.3975 Y36.9224 
G01 X8.4637 Y37.0821 
G01 X8.4974 Y37.2516 
G00 Z2.5400 
G00 X29.3698 Y57.3911 
G01 Z-0.1500 F254.00 
G01 X29.3075 Y57.5415 F508.00 
G01 X29.2171 Y57.6769 
G01 X29.1019 Y57.7921 
G01 X28.9665 Y57.8825 
G01 X28.8161 Y57.9448 
G01 X28.6564 Y57.9766 
G01 X28.4936 Y57.9766 
G01 X28.3339 Y57.9448 
G01 X28.1835 Y57.8825 
G01 X28.0481 Y57.7921 
G01 X27.9329 Y57.6769 
G01 X27.8425 Y57.5415 
G01 X27.7802 Y57.3911 
G01 X27.7484 Y57.2314 
G01 X27.7484 Y57.0686 
G01 X27.7802 Y56.9089 
G01 X27.8425 Y56.7585 
G01 X27.9329 Y56.6231 
G01 X28.0481 Y56.5079 
G01 X28.1835 Y56.4175 
G01 X28.3339 Y56.3552 
G01 X28.4936 Y56.3234 
G01 X28.6564 Y56.3234 
G01 X28.8161 Y56.3552 
G01 X28.9665 Y56.4175 
G01 X28.9676 Y52.7854 
G01 X28.4170 Y52.7854 
G01 X28.3746 Y52.7678 
G01 X28.3422 Y52.7354 
G01 X28.3246 Y52.6930 
G01 X28.3246 Y51.4470 
G01 X28.3422 Y51.4046 
G01 X28.3746 Y51.3722 
G01 X28.4170 Y51.3546 
G01 X29.2630 Y51.3546 
G01 X29.3054 Y51.3722 
G01 X29.3378 Y51.4046 
G01 X29.3554 Y51.4470 
G01 X29.3554 Y51.8276 
G01 X31.6046 Y51.8276 
G01 X31.6046 Y51.4470 
G01 X31.6222 Y51.4046 
G01 X31.6546 Y51.3722 
G01 X31.6970 Y51.3546 
G01 X32.5430 Y51.3546 
G01 X32.5854 Y51.3722 
G01 X32.6178 Y51.4046 
G01 X32.6354 Y51.4470 
G01 X32.6354 Y52.6930 
G01 X32.6178 Y52.7354 
G01 X32.5854 Y52.7678 
G01 X32.5430 Y52.7854 
G01 X31.6970 Y52.7854 
G01 X31.6546 Y52.7678 
G01 X31.6222 Y52.7354 
G01 X31.6046 Y52.6930 
G01 X31.6046 Y52.3124 
G01 X29.4524 Y52.3124 
G01 X29.4524 Y57.1982 
G01 X29.4155 Y57.2873 
G01 X29.3843 Y57.3185 
G01 X29.3698 Y57.3911 
G00 Z2.5400 
G00 X28.1316 Y59.6086 
G01 Z-0.1500 F254.00 
G01 X28.1316 Y59.7714 F508.00 
G01 X28.0998 Y59.9311 
G01 X28.0375 Y60.0815 
G01 X27.9471 Y60.2169 
G01 X27.8319 Y60.3321 
G01 X27.6965 Y60.4225 
G01 X27.5461 Y60.4848 
G01 X27.3864 Y60.5166 
G01 X27.2236 Y60.5166 
G01 X27.0639 Y60.4848 
G01 X26.9135 Y60.4225 
G01 X26.7781 Y60.3321 
G01 X26.6629 Y60.2169 
G01 X26.5725 Y60.0815 
G01 X26.5102 Y59.9311 
G01 X26.4784 Y59.7714 
G01 X26.4784 Y59.6086 
G01 X26.5102 Y59.4489 
G01 X26.5725 Y59.2985 
G01 X26.6629 Y59.1631 
G01 X26.7781 Y59.0479 
G01 X26.9135 Y58.9575 
G01 X27.0639 Y58.8952 
G01 X27.2236 Y58.8634 
G01 X27.3864 Y58.8634 
G01 X27.5461 Y58.8952 
G01 X27.6965 Y58.9575 
G01 X27.8319 Y59.0479 
G01 X27.9471 Y59.1631 
G01 X28.0375 Y59.2985 
G01 X28.0998 Y59.4489 
G01 X28.1316 Y59.6086 
G00 Z2.5400 
G00 X6.1576 Y12.5360 
G01 Z-0.1500 F254.00 
G01 X4.3168 Y12.5360 F508.00 
G01 X4.0524 Y12.8004 
G01 X4.0524 Y29.1096 
G01 X14.1755 Y39.2327 
G01 X14.2124 Y39.3218 
G01 X14.2124 Y43.0796 
G01 X16.3646 Y45.2318 
G01 X16.3646 Y45.0970 
G01 X16.3822 Y45.0546 
G01 X16.4146 Y45.0222 
G01 X16.4570 Y45.0046 
G01 X17.3030 Y45.0046 
G01 X17.3454 Y45.0222 
G01 X17.3778 Y45.0546 
G01 X17.3954 Y45.0970 
G01 X17.3954 Y46.2626 
G01 X20.1746 Y49.0418 
G01 X20.1746 Y48.9070 
G01 X20.1922 Y48.8646 
G01 X20.2246 Y48.8322 
G01 X20.2670 Y48.8146 
G01 X21.1130 Y48.8146 
G01 X21.1554 Y48.8322 
G01 X21.1878 Y48.8646 
G01 X21.2054 Y48.9070 
G01 X21.2054 Y50.1530 
G01 X21.1878 Y50.1954 
G01 X21.1554 Y50.2278 
G01 X21.1130 Y50.2454 
G01 X20.2670 Y50.2454 
G01 X20.2246 Y50.2278 
G01 X20.1922 Y50.1954 
G01 X20.1746 Y50.1530 
G01 X20.1746 Y49.7274 
G01 X20.1145 Y49.6673 
G01 X16.8826 Y46.4354 
G01 X16.4570 Y46.4354 
G01 X16.4146 Y46.4178 
G01 X16.3822 Y46.3854 
G01 X16.3646 Y46.3430 
G01 X16.3646 Y45.9174 
G01 X16.3045 Y45.8573 
G01 X13.8327 Y43.3855 
G01 X13.7645 Y43.3173 
G01 X13.7276 Y43.2282 
G01 X13.7276 Y39.4704 
G01 X4.0524 Y29.7952 
G01 X4.0524 Y36.7296 
G01 X4.2857 Y36.9629 
G01 X4.3025 Y36.9224 
G01 X4.3985 Y36.7787 
G01 X4.5207 Y36.6565 
G01 X4.6644 Y36.5605 
G01 X4.8241 Y36.4943 
G01 X4.9936 Y36.4606 
G01 X5.1664 Y36.4606 
G01 X5.3359 Y36.4943 
G01 X5.4956 Y36.5605 
G01 X5.6393 Y36.6565 
G01 X5.7615 Y36.7787 
G01 X5.8575 Y36.9224 
G01 X5.9237 Y37.0821 
G01 X5.9574 Y37.2516 
G01 X5.9574 Y38.9484 
G01 X5.9237 Y39.1179 
G01 X5.8575 Y39.2776 
G01 X5.7615 Y39.4213 
G01 X5.6393 Y39.5435 
G01 X5.4956 Y39.6395 
G01 X5.3359 Y39.7057 
G01 X5.1664 Y39.7394 
G01 X4.9936 Y39.7394 
G01 X4.8241 Y39.7057 
G01 X4.6644 Y39.6395 
G01 X4.5207 Y39.5435 
G01 X4.3985 Y39.4213 
G01 X4.3025 Y39.2776 
G01 X4.2363 Y39.1179 
G01 X4.2026 Y38.9484 
G01 X4.2026 Y37.5654 
G01 X3.6727 Y37.0355 
G01 X3.6045 Y36.9673 
G01 X3.5676 Y36.8782 
G01 X3.5676 Y12.6518 
G01 X3.6045 Y12.5627 
G01 X3.7006 Y12.4666 
G01 X3.6648 Y12.4550 
G01 X3.5097 Y12.3759 
G01 X3.3689 Y12.2736 
G01 X3.2458 Y12.1505 
G01 X3.1435 Y12.0097 
G01 X3.0644 Y11.8546 
G01 X3.0106 Y11.6890 
G01 X2.9834 Y11.5170 
G01 X2.9834 Y11.3430 
G01 X3.0106 Y11.1710 
G01 X3.0644 Y11.0054 
G01 X3.1435 Y10.8503 
G01 X3.2458 Y10.7095 
G01 X3.3689 Y10.5864 
G01 X3.5097 Y10.4841 
G01 X3.6648 Y10.4050 
G01 X3.8304 Y10.3512 
G01 X4.0024 Y10.3240 
G01 X6.1576 Y10.3240 
G01 X6.3296 Y10.3512 
G01 X6.4952 Y10.4050 
G01 X6.6503 Y10.4841 
G01 X6.7911 Y10.5864 
G01 X6.9142 Y10.7095 
G01 X7.0165 Y10.8503 
G01 X7.0956 Y11.0054 
G01 X7.1494 Y11.1710 
G01 X7.1766 Y11.3430 
G01 X7.1766 Y11.5170 
G01 X7.1494 Y11.6890 
G01 X7.0956 Y11.8546 
G01 X7.0165 Y12.0097 
G01 X6.9142 Y12.1505 
G01 X6.7911 Y12.2736 
G01 X6.6503 Y12.3759 
G01 X6.4952 Y12.4550 
G01 X6.3296 Y12.5088 
G01 X6.1576 Y12.5360 
G00 Z2.5400 
G00 X73.2384 Y23.7374 
G01 Z-0.1500 F254.00 
G01 X71.5416 Y23.7374 F508.00 
G01 X71.3721 Y23.7037 
G01 X71.2124 Y23.6375 
G01 X71.0687 Y23.5415 
G01 X70.9465 Y23.4193 
G01 X70.8505 Y23.2756 
G01 X70.7843 Y23.1159 
G01 X70.7506 Y22.9464 
G01 X70.7506 Y22.7736 
G01 X70.7843 Y22.6041 
G01 X70.8505 Y22.4444 
G01 X70.9465 Y22.3007 
G01 X71.0687 Y22.1785 
G01 X71.2124 Y22.0825 
G01 X71.3721 Y22.0163 
G01 X71.5416 Y21.9826 
G01 X73.2384 Y21.9826 
G01 X73.4079 Y22.0163 
G01 X73.5676 Y22.0825 
G01 X73.7113 Y22.1785 
G01 X73.8335 Y22.3007 
G01 X73.9295 Y22.4444 
G01 X73.9957 Y22.6041 
G01 X74.0294 Y22.7736 
G01 X74.0294 Y22.9464 
G01 X73.9957 Y23.1159 
G01 X73.9295 Y23.2756 
G01 X73.8335 Y23.4193 
G01 X73.7113 Y23.5415 
G01 X73.5676 Y23.6375 
G01 X73.4079 Y23.7037 
G01 X73.2384 Y23.7374 
G00 Z2.5400 
G00 X73.2384 Y18.6574 
G01 Z-0.1500 F254.00 
G01 X71.5416 Y18.6574 F508.00 
G01 X71.3721 Y18.6237 
G01 X71.2124 Y18.5575 
G01 X71.0687 Y18.4615 
G01 X70.9465 Y18.3393 
G01 X70.8505 Y18.1956 
G01 X70.7843 Y18.0359 
G01 X70.7506 Y17.8664 
G01 X70.7506 Y17.6936 
G01 X70.7843 Y17.5241 
G01 X70.8505 Y17.3644 
G01 X70.9465 Y17.2207 
G01 X71.0687 Y17.0985 
G01 X71.2124 Y17.0025 
G01 X71.3721 Y16.9363 
G01 X71.5416 Y16.9026 
G01 X73.2384 Y16.9026 
G01 X73.4079 Y16.9363 
G01 X73.5676 Y17.0025 
G01 X73.7113 Y17.0985 
G01 X73.8335 Y17.2207 
G01 X73.9295 Y17.3644 
G01 X73.9957 Y17.5241 
G01 X74.0294 Y17.6936 
G01 X74.0294 Y17.8664 
G01 X73.9957 Y18.0359 
G01 X73.9295 Y18.1956 
G01 X73.8335 Y18.3393 
G01 X73.7113 Y18.4615 
G01 X73.5676 Y18.5575 
G01 X73.4079 Y18.6237 
G01 X73.2384 Y18.6574 
G00 Z2.5400 
G00 X73.2384 Y16.1174 
G01 Z-0.1500 F254.00 
G01 X71.5416 Y16.1174 F508.00 
G01 X71.3721 Y16.0837 
G01 X71.2124 Y16.0175 
G01 X71.0687 Y15.9215 
G01 X70.9465 Y15.7993 
G01 X70.8505 Y15.6556 
G01 X70.7843 Y15.4959 
G01 X70.7506 Y15.3264 
G01 X70.7506 Y15.1536 
G01 X70.7843 Y14.9841 
G01 X70.8505 Y14.8244 
G01 X70.9465 Y14.6807 
G01 X71.0687 Y14.5585 
G01 X71.2124 Y14.4625 
G01 X71.3721 Y14.3963 
G01 X71.5416 Y14.3626 
G01 X73.2384 Y14.3626 
G01 X73.4079 Y14.3963 
G01 X73.5676 Y14.4625 
G01 X73.7113 Y14.5585 
G01 X73.8335 Y14.6807 
G01 X73.9295 Y14.8244 
G01 X73.9957 Y14.9841 
G01 X73.9984 Y14.9976 
G01 X74.6876 Y14.9976 
G01 X74.6876 Y12.8004 
G01 X72.9246 Y11.0374 
G01 X71.5416 Y11.0374 
G01 X71.3721 Y11.0037 
G01 X71.2124 Y10.9375 
G01 X71.0687 Y10.8415 
G01 X70.9465 Y10.7193 
G01 X70.8505 Y10.5756 
G01 X70.7843 Y10.4159 
G01 X70.7506 Y10.2464 
G01 X70.7506 Y10.0736 
G01 X70.7843 Y9.9041 
G01 X70.8505 Y9.7444 
G01 X70.9465 Y9.6007 
G01 X71.0687 Y9.4785 
G01 X71.2124 Y9.3825 
G01 X71.3721 Y9.3163 
G01 X71.5416 Y9.2826 
G01 X73.2384 Y9.2826 
G01 X73.4079 Y9.3163 
G01 X73.5676 Y9.3825 
G01 X73.7113 Y9.4785 
G01 X73.8335 Y9.6007 
G01 X73.9295 Y9.7444 
G01 X73.9957 Y9.9041 
G01 X74.0294 Y10.0736 
G01 X74.0294 Y10.2464 
G01 X73.9957 Y10.4159 
G01 X73.9295 Y10.5756 
G01 X73.8335 Y10.7193 
G01 X73.7113 Y10.8415 
G01 X73.5676 Y10.9375 
G01 X73.5271 Y10.9543 
G01 X75.0673 Y12.4945 
G01 X75.1355 Y12.5627 
G01 X75.1724 Y12.6518 
G01 X75.1724 Y22.7596 
G01 X77.6755 Y25.2627 
G01 X77.7124 Y25.3518 
G01 X77.7124 Y49.4296 
G01 X78.4374 Y50.1546 
G01 X78.9430 Y50.1546 
G01 X78.9854 Y50.1722 
G01 X79.0178 Y50.2046 
G01 X79.0354 Y50.2470 
G01 X79.0354 Y51.6930 
G01 X79.0178 Y51.7354 
G01 X78.9854 Y51.7678 
G01 X78.9430 Y51.7854 
G01 X77.8970 Y51.7854 
G01 X77.8546 Y51.7678 
G01 X77.8222 Y51.7354 
G01 X77.8046 Y51.6930 
G01 X77.8046 Y50.2470 
G01 X77.8162 Y50.2190 
G01 X77.3327 Y49.7355 
G01 X77.2645 Y49.6673 
G01 X77.2276 Y49.5782 
G01 X77.2276 Y25.5004 
G01 X74.7927 Y23.0655 
G01 X74.7245 Y22.9973 
G01 X72.9246 Y21.1974 
G01 X71.5416 Y21.1974 
G01 X71.3721 Y21.1637 
G01 X71.2124 Y21.0975 
G01 X71.0687 Y21.0015 
G01 X70.9465 Y20.8793 
G01 X70.8505 Y20.7356 
G01 X70.7843 Y20.5759 
G01 X70.7506 Y20.4064 
G01 X70.7506 Y20.2336 
G01 X70.7843 Y20.0641 
G01 X70.8505 Y19.9044 
G01 X70.9465 Y19.7607 
G01 X71.0687 Y19.6385 
G01 X71.2124 Y19.5425 
G01 X71.3721 Y19.4763 
G01 X71.5416 Y19.4426 
G01 X73.2384 Y19.4426 
G01 X73.4079 Y19.4763 
G01 X73.5676 Y19.5425 
G01 X73.7113 Y19.6385 
G01 X73.8335 Y19.7607 
G01 X73.9295 Y19.9044 
G01 X73.9957 Y20.0641 
G01 X74.0294 Y20.2336 
G01 X74.0294 Y20.4064 
G01 X73.9957 Y20.5759 
G01 X73.9295 Y20.7356 
G01 X73.8335 Y20.8793 
G01 X73.7113 Y21.0015 
G01 X73.5676 Y21.0975 
G01 X73.5271 Y21.1143 
G01 X74.6876 Y22.2748 
G01 X74.6876 Y15.4824 
G01 X73.9984 Y15.4824 
G01 X73.9957 Y15.4959 
G01 X73.9295 Y15.6556 
G01 X73.8335 Y15.7993 
G01 X73.7113 Y15.9215 
G01 X73.5676 Y16.0175 
G01 X73.4079 Y16.0837 
G01 X73.2384 Y16.1174 
G00 Z2.5400 
G00 X73.2384 Y8.4974 
G01 Z-0.1500 F254.00 
G01 X71.5416 Y8.4974 F508.00 
G01 X71.3721 Y8.4637 
G01 X71.2124 Y8.3975 
G01 X71.0687 Y8.3015 
G01 X70.9465 Y8.1793 
G01 X70.8505 Y8.0356 
G01 X70.7843 Y7.8759 
G01 X70.7506 Y7.7064 
G01 X70.7506 Y7.5336 
G01 X70.7843 Y7.3641 
G01 X70.8505 Y7.2044 
G01 X70.9465 Y7.0607 
G01 X71.0687 Y6.9385 
