(.../pcb-gcode-3.6.0.4/pcb-gcode.ulp)
(Copyright 2005 - 2012 by John Johnson)
(See readme.txt for licensing terms.)
(This file generated from the board:)
(.../eagle/ARMEDBASE_V0/MCU/MCU.brd)
(Current profile is .../pcb-gcode-3.6.0.4/profiles/emc.pp  )
(This file generated 6/26/2014 2:01:43 PM)
(Settings from pcb-machine.h)
(  Tool Size)
(0.2000 )
(Z Axis Settings)
(  High     Up        Down     Drill)
(12.7000 	2.5400 	-0.1500 	-0.8128 )
(spindle on time = 3.0000)
(milling depth = -0.1500)
(text depth = -0.1270)
(tool change at 12.7000 15.2400 25.4000 )
(feed rate xy = F508.00 )
(feed rate z  = F254.00 )
(Settings from pcb-defaults.h)
(isolate min = 0.0154)
(isolate max = 0.5080)
(isolate step = 0.1270)
(Generated top outlines, top drill, bottom outlines, bottom drill, )
(Unit of measure: mm)
(Metric Mode)
G21
(Absolute Coordinates)
G90
G00 X0.0000 Y0.0000 
M03
G04 P3.000000
G00 Z2.5400 
G00 X-20.5255 Y52.2073 
G01 Z-0.1500 F254.00 
G01 X-20.5255 Y52.2073 F508.00 
G01 X-20.4573 Y52.2755 
G01 X-20.3682 Y52.3124 
G01 X-19.6352 Y52.3124 
G01 X-22.9973 Y55.6745 
G01 X-23.0655 Y55.7427 
G01 X-26.5920 Y59.2692 
G01 X-26.6629 Y59.1631 
G01 X-26.7781 Y59.0479 
G01 X-26.9135 Y58.9575 
G01 X-27.0639 Y58.8952 
G01 X-27.2236 Y58.8634 
G01 X-27.3864 Y58.8634 
G01 X-27.5461 Y58.8952 
G01 X-27.6965 Y58.9575 
G01 X-27.8319 Y59.0479 
G01 X-27.9471 Y59.1631 
G01 X-28.0375 Y59.2985 
G01 X-28.0998 Y59.4489 
G01 X-28.1316 Y59.6086 
G01 X-28.1316 Y59.7714 
G01 X-28.0998 Y59.9311 
G01 X-28.0375 Y60.0815 
G01 X-27.9471 Y60.2169 
G01 X-27.8319 Y60.3321 
G01 X-27.6965 Y60.4225 
G01 X-27.5461 Y60.4848 
G01 X-27.3864 Y60.5166 
G01 X-27.2236 Y60.5166 
G01 X-27.0639 Y60.4848 
G01 X-26.9135 Y60.4225 
G01 X-26.7781 Y60.3321 
G01 X-26.6629 Y60.2169 
G01 X-26.5725 Y60.0815 
G01 X-26.5102 Y59.9311 
G01 X-26.4957 Y59.8585 
G01 X-26.4645 Y59.8273 
G01 X-22.8600 Y56.2228 
G01 X-18.3652 Y60.7176 
G01 X-39.2696 Y60.7176 
G01 X-40.4345 Y59.5527 
G01 X-40.4657 Y59.5215 
G01 X-40.4802 Y59.4489 
G01 X-40.5425 Y59.2985 
G01 X-40.6329 Y59.1631 
G01 X-40.7481 Y59.0479 
G01 X-40.8835 Y58.9575 
G01 X-41.0339 Y58.8952 
G01 X-41.1936 Y58.8634 
G01 X-41.3564 Y58.8634 
G01 X-41.5161 Y58.8952 
G01 X-41.6665 Y58.9575 
G01 X-41.8019 Y59.0479 
G01 X-41.9171 Y59.1631 
G01 X-42.0075 Y59.2985 
G01 X-42.0698 Y59.4489 
G01 X-42.0843 Y59.5215 
G01 X-42.1155 Y59.5527 
G01 X-44.5504 Y61.9876 
G01 X-54.3392 Y61.9876 
G01 X-54.3817 Y61.9451 
G01 X-54.5200 Y61.8527 
G01 X-54.6737 Y61.7891 
G01 X-54.8368 Y61.7566 
G01 X-55.0032 Y61.7566 
G01 X-55.1663 Y61.7891 
G01 X-55.3200 Y61.8527 
G01 X-55.4583 Y61.9451 
G01 X-55.5759 Y62.0627 
G01 X-55.6683 Y62.2010 
G01 X-55.7319 Y62.3547 
G01 X-55.7644 Y62.5178 
G01 X-55.7644 Y64.1422 
G01 X-55.7319 Y64.3053 
G01 X-55.6683 Y64.4590 
G01 X-55.5759 Y64.5973 
G01 X-55.4583 Y64.7149 
G01 X-55.3200 Y64.8073 
G01 X-55.1663 Y64.8709 
G01 X-55.0032 Y64.9034 
G01 X-54.8368 Y64.9034 
G01 X-54.6737 Y64.8709 
G01 X-54.5200 Y64.8073 
G01 X-54.3817 Y64.7149 
G01 X-54.2641 Y64.5973 
G01 X-54.1717 Y64.4590 
G01 X-54.1081 Y64.3053 
G01 X-54.0756 Y64.1422 
G01 X-54.0756 Y62.5178 
G01 X-54.0846 Y62.4724 
G01 X-44.4018 Y62.4724 
G01 X-44.3127 Y62.4355 
G01 X-44.2445 Y62.3673 
G01 X-41.9880 Y60.1108 
G01 X-41.9171 Y60.2169 
G01 X-41.8019 Y60.3321 
G01 X-41.6665 Y60.4225 
G01 X-41.5161 Y60.4848 
G01 X-41.3564 Y60.5166 
G01 X-41.1936 Y60.5166 
G01 X-41.0339 Y60.4848 
G01 X-40.8835 Y60.4225 
G01 X-40.7481 Y60.3321 
G01 X-40.6329 Y60.2169 
G01 X-40.5620 Y60.1108 
G01 X-39.5755 Y61.0973 
G01 X-39.5073 Y61.1655 
G01 X-39.4182 Y61.2024 
G01 X-17.8804 Y61.2024 
G01 X-15.0604 Y64.0224 
G01 X-15.1572 Y64.0224 
G01 X-15.3450 Y64.0521 
G01 X-15.5258 Y64.1109 
G01 X-15.6951 Y64.1972 
G01 X-15.8489 Y64.3089 
G01 X-15.9833 Y64.4433 
G01 X-16.0950 Y64.5971 
G01 X-16.1813 Y64.7664 
G01 X-16.2401 Y64.9472 
G01 X-16.2698 Y65.1350 
G01 X-16.2698 Y65.3250 
G01 X-16.2401 Y65.5128 
G01 X-16.1813 Y65.6936 
G01 X-16.0950 Y65.8629 
G01 X-15.9833 Y66.0167 
G01 X-15.8489 Y66.1511 
G01 X-15.6951 Y66.2628 
G01 X-15.5258 Y66.3491 
G01 X-15.3450 Y66.4079 
G01 X-15.1572 Y66.4376 
G01 X-12.7828 Y66.4376 
G01 X-12.5950 Y66.4079 
G01 X-12.4142 Y66.3491 
G01 X-12.2449 Y66.2628 
G01 X-12.0911 Y66.1511 
G01 X-11.9567 Y66.0167 
G01 X-11.8450 Y65.8629 
G01 X-11.7587 Y65.6936 
G01 X-11.6999 Y65.5128 
G01 X-11.6702 Y65.3250 
G01 X-11.6702 Y65.1350 
G01 X-11.6999 Y64.9472 
G01 X-11.7587 Y64.7664 
G01 X-11.8450 Y64.5971 
G01 X-11.9567 Y64.4433 
G01 X-12.0911 Y64.3089 
G01 X-12.2449 Y64.1972 
G01 X-12.4142 Y64.1109 
G01 X-12.5950 Y64.0521 
G01 X-12.7828 Y64.0224 
G01 X-14.3748 Y64.0224 
G01 X-17.6427 Y60.7545 
G01 X-22.5172 Y55.8800 
G01 X-18.8445 Y52.2073 
G01 X-13.8696 Y47.2324 
G01 X-10.5196 Y47.2324 
G01 X-10.5037 Y47.2636 
G01 X-10.4061 Y47.3980 
G01 X-10.2886 Y47.5155 
G01 X-10.1542 Y47.6131 
G01 X-10.0063 Y47.6885 
G01 X-9.8483 Y47.7398 
G01 X-9.6842 Y47.7658 
G01 X-9.5182 Y47.7658 
G01 X-9.3541 Y47.7398 
G01 X-9.1961 Y47.6885 
G01 X-9.0482 Y47.6131 
G01 X-8.9138 Y47.5155 
G01 X-8.7963 Y47.3980 
G01 X-8.6987 Y47.2636 
G01 X-8.6828 Y47.2324 
G01 X-7.5718 Y47.2324 
G01 X-7.4827 Y47.1955 
G01 X-7.4145 Y47.1273 
G01 X-7.3776 Y47.0382 
G01 X-7.3776 Y39.7084 
G01 X-7.3641 Y39.7057 
G01 X-7.2044 Y39.6395 
G01 X-7.0607 Y39.5435 
G01 X-6.9385 Y39.4213 
G01 X-6.8425 Y39.2776 
G01 X-6.7763 Y39.1179 
G01 X-6.7426 Y38.9484 
G01 X-6.7426 Y37.2516 
G01 X-6.7763 Y37.0821 
G01 X-6.8425 Y36.9224 
G01 X-6.9385 Y36.7787 
G01 X-7.0607 Y36.6565 
G01 X-7.2044 Y36.5605 
G01 X-7.3641 Y36.4943 
G01 X-7.5336 Y36.4606 
G01 X-7.7064 Y36.4606 
G01 X-7.8759 Y36.4943 
G01 X-8.0356 Y36.5605 
G01 X-8.1793 Y36.6565 
G01 X-8.3015 Y36.7787 
G01 X-8.3975 Y36.9224 
G01 X-8.4637 Y37.0821 
G01 X-8.4974 Y37.2516 
G01 X-8.4974 Y38.9484 
G01 X-8.4637 Y39.1179 
G01 X-8.3975 Y39.2776 
G01 X-8.3015 Y39.4213 
G01 X-8.1793 Y39.5435 
G01 X-8.0356 Y39.6395 
G01 X-7.8759 Y39.7057 
G01 X-7.8624 Y39.7084 
G01 X-7.8624 Y46.7476 
G01 X-8.5460 Y46.7476 
G01 X-8.5460 Y46.6275 
G01 X-8.5720 Y46.4635 
G01 X-8.6233 Y46.3055 
G01 X-8.6987 Y46.1576 
G01 X-8.7963 Y46.0232 
G01 X-8.9138 Y45.9057 
G01 X-9.0482 Y45.8081 
G01 X-9.1961 Y45.7327 
G01 X-9.3541 Y45.6814 
G01 X-9.5182 Y45.6554 
G01 X-9.6842 Y45.6554 
G01 X-9.8483 Y45.6814 
G01 X-10.0063 Y45.7327 
G01 X-10.1542 Y45.8081 
G01 X-10.2886 Y45.9057 
G01 X-10.4061 Y46.0232 
G01 X-10.5037 Y46.1576 
G01 X-10.5791 Y46.3055 
G01 X-10.6304 Y46.4635 
G01 X-10.6564 Y46.6275 
G01 X-10.6564 Y46.7476 
G01 X-14.0182 Y46.7476 
G01 X-14.1073 Y46.7845 
G01 X-14.1755 Y46.8527 
G01 X-19.1504 Y51.8276 
G01 X-20.2196 Y51.8276 
G01 X-21.0125 Y51.0347 
G01 X-20.9906 Y50.9818 
G01 X-20.9666 Y50.8614 
G01 X-20.9666 Y50.7386 
G01 X-20.9906 Y50.6182 
G01 X-21.0375 Y50.5047 
G01 X-21.1058 Y50.4026 
G01 X-21.1926 Y50.3158 
G01 X-21.2947 Y50.2476 
G01 X-21.4082 Y50.2006 
G01 X-21.5286 Y50.1766 
G01 X-21.6514 Y50.1766 
G01 X-21.7718 Y50.2006 
G01 X-21.8853 Y50.2476 
G01 X-21.9874 Y50.3158 
G01 X-22.0742 Y50.4026 
G01 X-22.1424 Y50.5047 
G01 X-22.1894 Y50.6182 
G01 X-22.2134 Y50.7386 
G01 X-22.2134 Y50.8614 
G01 X-22.1894 Y50.9818 
G01 X-22.1424 Y51.0953 
G01 X-22.0742 Y51.1974 
G01 X-21.9874 Y51.2842 
G01 X-21.8853 Y51.3524 
G01 X-21.7718 Y51.3994 
G01 X-21.6514 Y51.4234 
G01 X-21.5286 Y51.4234 
G01 X-21.4082 Y51.3994 
G01 X-21.3553 Y51.3775 
G01 X-20.5255 Y52.2073 
G00 Z2.5400 
G00 X-44.8426 Y5.9284 
G01 Z-0.1500 F254.00 
G01 X-44.8426 Y4.2316 F508.00 
G01 X-44.8763 Y4.0621 
G01 X-44.9425 Y3.9024 
G01 X-45.0385 Y3.7587 
G01 X-45.1607 Y3.6365 
G01 X-45.3044 Y3.5405 
G01 X-45.4641 Y3.4743 
G01 X-45.6336 Y3.4406 
G01 X-45.8064 Y3.4406 
G01 X-45.9759 Y3.4743 
G01 X-46.1356 Y3.5405 
G01 X-46.2793 Y3.6365 
G01 X-46.4015 Y3.7587 
G01 X-46.4975 Y3.9024 
G01 X-46.5637 Y4.0621 
G01 X-46.5974 Y4.2316 
G01 X-46.5974 Y5.9284 
G01 X-46.5637 Y6.0979 
G01 X-46.4975 Y6.2576 
G01 X-46.4015 Y6.4013 
G01 X-46.2793 Y6.5235 
G01 X-46.1356 Y6.6195 
G01 X-45.9759 Y6.6857 
G01 X-45.8064 Y6.7194 
G01 X-45.6336 Y6.7194 
G01 X-45.4641 Y6.6857 
G01 X-45.3044 Y6.6195 
G01 X-45.1607 Y6.5235 
G01 X-45.0385 Y6.4013 
G01 X-44.9425 Y6.2576 
G01 X-44.8763 Y6.0979 
G01 X-44.8426 Y5.9284 
G00 Z2.5400 
G00 X-39.7626 Y5.9284 
G01 Z-0.1500 F254.00 
G01 X-39.7626 Y4.2316 F508.00 
G01 X-39.7963 Y4.0621 
G01 X-39.8625 Y3.9024 
G01 X-39.9585 Y3.7587 
G01 X-40.0807 Y3.6365 
G01 X-40.2244 Y3.5405 
G01 X-40.3841 Y3.4743 
G01 X-40.5536 Y3.4406 
G01 X-40.7264 Y3.4406 
G01 X-40.8959 Y3.4743 
G01 X-41.0556 Y3.5405 
G01 X-41.1993 Y3.6365 
G01 X-41.3215 Y3.7587 
G01 X-41.4175 Y3.9024 
G01 X-41.4837 Y4.0621 
G01 X-41.5174 Y4.2316 
G01 X-41.5174 Y5.9284 
G01 X-41.4837 Y6.0979 
G01 X-41.4175 Y6.2576 
G01 X-41.3215 Y6.4013 
G01 X-41.1993 Y6.5235 
G01 X-41.0556 Y6.6195 
G01 X-40.8959 Y6.6857 
G01 X-40.7264 Y6.7194 
G01 X-40.5536 Y6.7194 
G01 X-40.3841 Y6.6857 
G01 X-40.2244 Y6.6195 
G01 X-40.0807 Y6.5235 
G01 X-39.9585 Y6.4013 
G01 X-39.8625 Y6.2576 
G01 X-39.7963 Y6.0979 
G01 X-39.7626 Y5.9284 
G00 Z2.5400 
G00 X-16.9316 Y37.2226 
G01 Z-0.1500 F254.00 
G01 X-18.6284 Y37.2226 F508.00 
G01 X-18.7979 Y37.2563 
G01 X-18.9576 Y37.3225 
G01 X-19.1013 Y37.4185 
G01 X-19.2235 Y37.5407 
G01 X-19.3195 Y37.6844 
G01 X-19.3857 Y37.8441 
G01 X-19.3884 Y37.8576 
G01 X-30.3796 Y37.8576 
G01 X-34.7842 Y33.4530 
G01 X-34.7842 Y32.2832 
G01 X-34.8140 Y32.1333 
G01 X-34.8725 Y31.9921 
G01 X-34.9574 Y31.8651 
G01 X-35.0655 Y31.7570 
G01 X-35.1925 Y31.6721 
G01 X-35.3337 Y31.6136 
G01 X-35.4836 Y31.5838 
G01 X-35.6364 Y31.5838 
G01 X-35.7863 Y31.6136 
G01 X-35.9275 Y31.6721 
G01 X-36.0545 Y31.7570 
G01 X-36.1626 Y31.8651 
G01 X-36.2475 Y31.9921 
G01 X-36.3060 Y32.1333 
G01 X-36.3358 Y32.2832 
G01 X-36.3358 Y33.7568 
G01 X-36.3060 Y33.9067 
G01 X-36.2475 Y34.0479 
G01 X-36.1626 Y34.1749 
G01 X-36.0545 Y34.2830 
G01 X-35.9275 Y34.3679 
G01 X-35.7863 Y34.4264 
G01 X-35.6364 Y34.4562 
G01 X-35.4836 Y34.4562 
G01 X-35.3337 Y34.4264 
G01 X-35.1925 Y34.3679 
G01 X-35.0655 Y34.2830 
G01 X-34.9574 Y34.1749 
G01 X-34.8735 Y34.0493 
G01 X-30.6855 Y38.2373 
G01 X-30.6173 Y38.3055 
G01 X-30.5282 Y38.3424 
G01 X-19.3884 Y38.3424 
G01 X-19.3857 Y38.3559 
G01 X-19.3195 Y38.5156 
G01 X-19.2235 Y38.6593 
G01 X-19.1013 Y38.7815 
G01 X-18.9576 Y38.8775 
G01 X-18.7979 Y38.9437 
G01 X-18.6284 Y38.9774 
G01 X-16.9316 Y38.9774 
G01 X-16.7621 Y38.9437 
G01 X-16.6024 Y38.8775 
G01 X-16.4587 Y38.7815 
G01 X-16.3365 Y38.6593 
G01 X-16.2405 Y38.5156 
G01 X-16.1743 Y38.3559 
G01 X-16.1406 Y38.1864 
G01 X-16.1406 Y38.0136 
G01 X-16.1743 Y37.8441 
G01 X-16.2405 Y37.6844 
G01 X-16.3365 Y37.5407 
G01 X-16.4587 Y37.4185 
G01 X-16.6024 Y37.3225 
G01 X-16.7621 Y37.2563 
G01 X-16.9316 Y37.2226 
G00 Z2.5400 
G00 X-16.9316 Y34.6826 
G01 Z-0.1500 F254.00 
G01 X-18.6284 Y34.6826 F508.00 
G01 X-18.7979 Y34.7163 
G01 X-18.9576 Y34.7825 
G01 X-19.1013 Y34.8785 
G01 X-19.2235 Y35.0007 
G01 X-19.3195 Y35.1444 
G01 X-19.3857 Y35.3041 
G01 X-19.3884 Y35.3176 
G01 X-27.8396 Y35.3176 
G01 X-29.7042 Y33.4530 
G01 X-29.7042 Y32.2832 
G01 X-29.7340 Y32.1333 
G01 X-29.7925 Y31.9921 
G01 X-29.8774 Y31.8651 
G01 X-29.9855 Y31.7570 
G01 X-30.1125 Y31.6721 
G01 X-30.2537 Y31.6136 
G01 X-30.4036 Y31.5838 
G01 X-30.5564 Y31.5838 
G01 X-30.7063 Y31.6136 
G01 X-30.8475 Y31.6721 
G01 X-30.9745 Y31.7570 
G01 X-31.0826 Y31.8651 
G01 X-31.1675 Y31.9921 
G01 X-31.2260 Y32.1333 
G01 X-31.2558 Y32.2832 
G01 X-31.2558 Y33.7568 
G01 X-31.2260 Y33.9067 
G01 X-31.1675 Y34.0479 
G01 X-31.0826 Y34.1749 
G01 X-30.9745 Y34.2830 
G01 X-30.8475 Y34.3679 
G01 X-30.7063 Y34.4264 
G01 X-30.5564 Y34.4562 
G01 X-30.4036 Y34.4562 
G01 X-30.2537 Y34.4264 
G01 X-30.1125 Y34.3679 
G01 X-29.9855 Y34.2830 
G01 X-29.8774 Y34.1749 
G01 X-29.7935 Y34.0493 
G01 X-28.0773 Y35.7655 
G01 X-27.9882 Y35.8024 
G01 X-19.3884 Y35.8024 
G01 X-19.3857 Y35.8159 
G01 X-19.3195 Y35.9756 
G01 X-19.2235 Y36.1193 
G01 X-19.1013 Y36.2415 
G01 X-18.9576 Y36.3375 
G01 X-18.7979 Y36.4037 
G01 X-18.6284 Y36.4374 
G01 X-16.9316 Y36.4374 
G01 X-16.7621 Y36.4037 
G01 X-16.6024 Y36.3375 
G01 X-16.4587 Y36.2415 
G01 X-16.3365 Y36.1193 
G01 X-16.2405 Y35.9756 
G01 X-16.1743 Y35.8159 
G01 X-16.1406 Y35.6464 
G01 X-16.1406 Y35.4736 
G01 X-16.1743 Y35.3041 
G01 X-16.2405 Y35.1444 
G01 X-16.3365 Y35.0007 
G01 X-16.4587 Y34.8785 
G01 X-16.6024 Y34.7825 
G01 X-16.7621 Y34.7163 
G01 X-16.9316 Y34.6826 
G00 Z2.5400 
G00 X-16.9316 Y32.1426 
G01 Z-0.1500 F254.00 
G01 X-18.6284 Y32.1426 F508.00 
G01 X-18.7979 Y32.1763 
G01 X-18.9576 Y32.2425 
G01 X-19.1013 Y32.3385 
G01 X-19.2235 Y32.4607 
G01 X-19.3195 Y32.6044 
G01 X-19.3857 Y32.7641 
G01 X-19.4194 Y32.9336 
G01 X-19.4194 Y33.1064 
G01 X-19.3857 Y33.2759 
G01 X-19.3195 Y33.4356 
G01 X-19.2235 Y33.5793 
G01 X-19.1013 Y33.7015 
G01 X-18.9576 Y33.7975 
G01 X-18.7979 Y33.8637 
G01 X-18.6284 Y33.8974 
G01 X-16.9316 Y33.8974 
G01 X-16.7621 Y33.8637 
G01 X-16.6024 Y33.7975 
G01 X-16.4587 Y33.7015 
G01 X-16.3365 Y33.5793 
G01 X-16.2405 Y33.4356 
G01 X-16.1743 Y33.2759 
G01 X-16.1406 Y33.1064 
G01 X-16.1406 Y32.9336 
G01 X-16.1743 Y32.7641 
G01 X-16.2405 Y32.6044 
G01 X-16.3365 Y32.4607 
G01 X-16.4587 Y32.3385 
G01 X-16.6024 Y32.2425 
G01 X-16.7621 Y32.1763 
G01 X-16.9316 Y32.1426 
G00 Z2.5400 
G00 X-16.9316 Y29.6026 
G01 Z-0.1500 F254.00 
G01 X-18.6284 Y29.6026 F508.00 
G01 X-18.7979 Y29.6363 
G01 X-18.9576 Y29.7025 
G01 X-19.1013 Y29.7985 
G01 X-19.2235 Y29.9207 
G01 X-19.3195 Y30.0644 
G01 X-19.3857 Y30.2241 
G01 X-19.4194 Y30.3936 
G01 X-19.4194 Y30.5664 
G01 X-19.3857 Y30.7359 
G01 X-19.3195 Y30.8956 
G01 X-19.2235 Y31.0393 
G01 X-19.1013 Y31.1615 
G01 X-18.9576 Y31.2575 
G01 X-18.7979 Y31.3237 
G01 X-18.6284 Y31.3574 
G01 X-16.9316 Y31.3574 
G01 X-16.7621 Y31.3237 
G01 X-16.6024 Y31.2575 
G01 X-16.4587 Y31.1615 
G01 X-16.3365 Y31.0393 
G01 X-16.2405 Y30.8956 
G01 X-16.1743 Y30.7359 
G01 X-16.1406 Y30.5664 
G01 X-16.1406 Y30.3936 
G01 X-16.1743 Y30.2241 
G01 X-16.2405 Y30.0644 
G01 X-16.3365 Y29.9207 
G01 X-16.4587 Y29.7985 
G01 X-16.6024 Y29.7025 
G01 X-16.7621 Y29.6363 
G01 X-16.9316 Y29.6026 
G00 Z2.5400 
G00 X-16.9316 Y27.0626 
G01 Z-0.1500 F254.00 
G01 X-18.6284 Y27.0626 F508.00 
G01 X-18.7979 Y27.0963 
G01 X-18.9576 Y27.1625 
G01 X-19.1013 Y27.2585 
G01 X-19.2235 Y27.3807 
G01 X-19.3195 Y27.5244 
G01 X-19.3857 Y27.6841 
G01 X-19.4194 Y27.8536 
G01 X-19.4194 Y28.0264 
G01 X-19.3857 Y28.1959 
G01 X-19.3195 Y28.3556 
G01 X-19.2235 Y28.4993 
G01 X-19.1013 Y28.6215 
G01 X-18.9576 Y28.7175 
G01 X-18.7979 Y28.7837 
G01 X-18.6284 Y28.8174 
G01 X-16.9316 Y28.8174 
G01 X-16.7621 Y28.7837 
G01 X-16.6024 Y28.7175 
G01 X-16.4587 Y28.6215 
G01 X-16.3365 Y28.4993 
G01 X-16.2405 Y28.3556 
G01 X-16.1743 Y28.1959 
G01 X-16.1406 Y28.0264 
G01 X-16.1406 Y27.8536 
G01 X-16.1743 Y27.6841 
G01 X-16.2405 Y27.5244 
G01 X-16.3365 Y27.3807 
G01 X-16.4587 Y27.2585 
G01 X-16.6024 Y27.1625 
G01 X-16.7621 Y27.0963 
G01 X-16.9316 Y27.0626 
G00 Z2.5400 
G00 X-16.9316 Y21.9826 
G01 Z-0.1500 F254.00 
G01 X-18.6284 Y21.9826 F508.00 
G01 X-18.7979 Y22.0163 
G01 X-18.9576 Y22.0825 
G01 X-19.1013 Y22.1785 
G01 X-19.2235 Y22.3007 
G01 X-19.3195 Y22.4444 
G01 X-19.3857 Y22.6041 
G01 X-19.4194 Y22.7736 
G01 X-19.4194 Y22.9464 
G01 X-19.3857 Y23.1159 
G01 X-19.3195 Y23.2756 
G01 X-19.2235 Y23.4193 
G01 X-19.1013 Y23.5415 
G01 X-18.9576 Y23.6375 
G01 X-18.7979 Y23.7037 
G01 X-18.6284 Y23.7374 
G01 X-16.9316 Y23.7374 
G01 X-16.7621 Y23.7037 
G01 X-16.6024 Y23.6375 
G01 X-16.4587 Y23.5415 
G01 X-16.3365 Y23.4193 
G01 X-16.2405 Y23.2756 
G01 X-16.1743 Y23.1159 
G01 X-16.1716 Y23.1024 
G01 X-15.4824 Y23.1024 
G01 X-15.4824 Y25.2996 
G01 X-16.6104 Y26.4276 
G01 X-19.0982 Y26.4276 
G01 X-19.1873 Y26.4645 
G01 X-19.2555 Y26.5327 
G01 X-21.6904 Y28.9676 
G01 X-49.4296 Y28.9676 
G01 X-52.5642 Y25.8330 
G01 X-52.5642 Y24.6632 
G01 X-52.5940 Y24.5133 
G01 X-52.6525 Y24.3721 
G01 X-52.7374 Y24.2451 
G01 X-52.8455 Y24.1370 
G01 X-52.9725 Y24.0521 
G01 X-53.1137 Y23.9936 
G01 X-53.2636 Y23.9638 
G01 X-53.4164 Y23.9638 
G01 X-53.5663 Y23.9936 
G01 X-53.7075 Y24.0521 
G01 X-53.8345 Y24.1370 
G01 X-53.9426 Y24.2451 
G01 X-54.0275 Y24.3721 
G01 X-54.0860 Y24.5133 
G01 X-54.1158 Y24.6632 
G01 X-54.1158 Y26.1368 
G01 X-54.0860 Y26.2867 
G01 X-54.0275 Y26.4279 
G01 X-53.9426 Y26.5549 
G01 X-53.8345 Y26.6630 
G01 X-53.7075 Y26.7479 
G01 X-53.5663 Y26.8064 
G01 X-53.4164 Y26.8362 
G01 X-53.2636 Y26.8362 
G01 X-53.1137 Y26.8064 
G01 X-52.9725 Y26.7479 
G01 X-52.8455 Y26.6630 
G01 X-52.7374 Y26.5549 
G01 X-52.6535 Y26.4293 
G01 X-49.7355 Y29.3473 
G01 X-49.6673 Y29.4155 
G01 X-49.5782 Y29.4524 
G01 X-21.5418 Y29.4524 
G01 X-21.4527 Y29.4155 
G01 X-18.9496 Y26.9124 
G01 X-16.4618 Y26.9124 
G01 X-16.3727 Y26.8755 
G01 X-15.1027 Y25.6055 
G01 X-15.0345 Y25.5373 
G01 X-14.9976 Y25.4482 
G01 X-14.9976 Y22.8118 
G01 X-15.0345 Y22.7227 
G01 X-15.1027 Y22.6545 
G01 X-15.1918 Y22.6176 
G01 X-16.1716 Y22.6176 
G01 X-16.1743 Y22.6041 
G01 X-16.2405 Y22.4444 
G01 X-16.3365 Y22.3007 
G01 X-16.4587 Y22.1785 
G01 X-16.6024 Y22.0825 
G01 X-16.7621 Y22.0163 
G01 X-16.9316 Y21.9826 
G00 Z2.5400 
G00 X-73.2384 Y36.4374 
G01 Z-0.1500 F254.00 
G01 X-71.5416 Y36.4374 F508.00 
G01 X-71.3721 Y36.4037 
G01 X-71.2124 Y36.3375 
G01 X-71.0687 Y36.2415 
G01 X-70.9465 Y36.1193 
G01 X-70.8505 Y35.9756 
G01 X-70.7843 Y35.8159 
G01 X-70.7816 Y35.8024 
G01 X-40.5918 Y35.8024 
G01 X-40.5027 Y35.7655 
G01 X-40.4345 Y35.6973 
G01 X-38.7865 Y34.0493 
G01 X-38.7026 Y34.1749 
G01 X-38.5945 Y34.2830 
G01 X-38.4675 Y34.3679 
G01 X-38.3263 Y34.4264 
G01 X-38.1764 Y34.4562 
G01 X-38.0236 Y34.4562 
G01 X-37.8737 Y34.4264 
G01 X-37.7325 Y34.3679 
G01 X-37.6055 Y34.2830 
G01 X-37.4974 Y34.1749 
G01 X-37.4125 Y34.0479 
G01 X-37.3540 Y33.9067 
G01 X-37.3242 Y33.7568 
G01 X-37.3242 Y32.2832 
G01 X-37.3540 Y32.1333 
G01 X-37.4125 Y31.9921 
G01 X-37.4974 Y31.8651 
G01 X-37.6055 Y31.7570 
G01 X-37.7325 Y31.6721 
G01 X-37.8737 Y31.6136 
G01 X-38.0236 Y31.5838 
G01 X-38.1764 Y31.5838 
G01 X-38.3263 Y31.6136 
G01 X-38.4675 Y31.6721 
G01 X-38.5945 Y31.7570 
G01 X-38.7026 Y31.8651 
G01 X-38.7875 Y31.9921 
G01 X-38.8460 Y32.1333 
G01 X-38.8758 Y32.2832 
G01 X-38.8758 Y33.4530 
G01 X-40.7404 Y35.3176 
G01 X-70.7816 Y35.3176 
G01 X-70.7843 Y35.3041 
G01 X-70.8505 Y35.1444 
G01 X-70.9465 Y35.0007 
G01 X-71.0687 Y34.8785 
G01 X-71.2124 Y34.7825 
G01 X-71.3721 Y34.7163 
G01 X-71.5416 Y34.6826 
G01 X-73.2384 Y34.6826 
G01 X-73.4079 Y34.7163 
G01 X-73.5676 Y34.7825 
G01 X-73.7113 Y34.8785 
G01 X-73.8335 Y35.0007 
G01 X-73.9295 Y35.1444 
G01 X-73.9957 Y35.3041 
G01 X-74.0294 Y35.4736 
G01 X-74.0294 Y35.6464 
G01 X-73.9957 Y35.8159 
G01 X-73.9295 Y35.9756 
G01 X-73.8335 Y36.1193 
G01 X-73.7113 Y36.2415 
G01 X-73.5676 Y36.3375 
G01 X-73.4079 Y36.4037 
G01 X-73.2384 Y36.4374 
G00 Z2.5400 
G00 X-73.2384 Y5.9574 
G01 Z-0.1500 F254.00 
G01 X-71.5416 Y5.9574 F508.00 
G01 X-71.3721 Y5.9237 
G01 X-71.2124 Y5.8575 
G01 X-71.0687 Y5.7615 
G01 X-70.9465 Y5.6393 
G01 X-70.8505 Y5.4956 
G01 X-70.7843 Y5.3359 
G01 X-70.7506 Y5.1664 
G01 X-70.7506 Y4.9936 
G01 X-70.7843 Y4.8241 
G01 X-70.8505 Y4.6644 
G01 X-70.9465 Y4.5207 
G01 X-71.0687 Y4.3985 
G01 X-71.2124 Y4.3025 
G01 X-71.3721 Y4.2363 
G01 X-71.5416 Y4.2026 
G01 X-73.2384 Y4.2026 
G01 X-73.4079 Y4.2363 
G01 X-73.5676 Y4.3025 
G01 X-73.7113 Y4.3985 
G01 X-73.8335 Y4.5207 
G01 X-73.9295 Y4.6644 
G01 X-73.9957 Y4.8241 
G01 X-74.0294 Y4.9936 
G01 X-74.0294 Y5.1664 
G01 X-73.9957 Y5.3359 
G01 X-73.9295 Y5.4956 
G01 X-73.8335 Y5.6393 
G01 X-73.7113 Y5.7615 
G01 X-73.5676 Y5.8575 
G01 X-73.4079 Y5.9237 
G01 X-73.2384 Y5.9574 
G00 Z2.5400 
G00 X-73.2384 Y8.4974 
G01 Z-0.1500 F254.00 
G01 X-71.5416 Y8.4974 F508.00 
G01 X-71.3721 Y8.4637 
G01 X-71.2124 Y8.3975 
G01 X-71.0687 Y8.3015 
G01 X-70.9465 Y8.1793 
G01 X-70.8505 Y8.0356 
G01 X-70.7843 Y7.8759 
G01 X-70.7506 Y7.7064 
G01 X-70.7506 Y7.5336 
G01 X-70.7843 Y7.3641 
G01 X-70.8505 Y7.2044 
G01 X-70.9465 Y7.0607 
G01 X-71.0687 Y6.9385 
G01 X-71.2124 Y6.8425 
G01 X-71.3721 Y6.7763 
G01 X-71.5416 Y6.7426 
G01 X-73.2384 Y6.7426 
G01 X-73.4079 Y6.7763 
G01 X-73.5676 Y6.8425 
G01 X-73.7113 Y6.9385 
G01 X-73.8335 Y7.0607 
G01 X-73.9295 Y7.2044 
G01 X-73.9957 Y7.3641 
G01 X-74.0294 Y7.5336 
G01 X-74.0294 Y7.7064 
G01 X-73.9957 Y7.8759 
G01 X-73.9295 Y8.0356 
G01 X-73.8335 Y8.1793 
G01 X-73.7113 Y8.3015 
G01 X-73.5676 Y8.3975 
G01 X-73.4079 Y8.4637 
G01 X-73.2384 Y8.4974 
G00 Z2.5400 
G00 X-73.2384 Y11.0374 
G01 Z-0.1500 F254.00 
G01 X-71.5416 Y11.0374 F508.00 
G01 X-71.3721 Y11.0037 
G01 X-71.2124 Y10.9375 
G01 X-71.0687 Y10.8415 
G01 X-70.9465 Y10.7193 
G01 X-70.8505 Y10.5756 
G01 X-70.7843 Y10.4159 
G01 X-70.7816 Y10.4024 
G01 X-48.2118 Y10.4024 
G01 X-48.1227 Y10.3655 
G01 X-48.0545 Y10.2973 
G01 X-43.9743 Y6.2171 
G01 X-43.9575 Y6.2576 
G01 X-43.8615 Y6.4013 
G01 X-43.7393 Y6.5235 
G01 X-43.5956 Y6.6195 
G01 X-43.4359 Y6.6857 
G01 X-43.2664 Y6.7194 
G01 X-43.0936 Y6.7194 
G01 X-42.9241 Y6.6857 
G01 X-42.7644 Y6.6195 
G01 X-42.6207 Y6.5235 
G01 X-42.4985 Y6.4013 
G01 X-42.4025 Y6.2576 
G01 X-42.3363 Y6.0979 
G01 X-42.3026 Y5.9284 
G01 X-42.3026 Y4.2316 
G01 X-42.3363 Y4.0621 
G01 X-42.4025 Y3.9024 
G01 X-42.4985 Y3.7587 
G01 X-42.6207 Y3.6365 
G01 X-42.7644 Y3.5405 
G01 X-42.9241 Y3.4743 
G01 X-43.0936 Y3.4406 
G01 X-43.2664 Y3.4406 
G01 X-43.4359 Y3.4743 
G01 X-43.5956 Y3.5405 
G01 X-43.7393 Y3.6365 
G01 X-43.8615 Y3.7587 
G01 X-43.9575 Y3.9024 
G01 X-44.0237 Y4.0621 
G01 X-44.0574 Y4.2316 
G01 X-44.0574 Y5.6146 
G01 X-48.3604 Y9.9176 
G01 X-70.7816 Y9.9176 
G01 X-70.7843 Y9.9041 
G01 X-70.8505 Y9.7444 
G01 X-70.9465 Y9.6007 
G01 X-71.0687 Y9.4785 
G01 X-71.2124 Y9.3825 
G01 X-71.3721 Y9.3163 
G01 X-71.5416 Y9.2826 
G01 X-73.2384 Y9.2826 
G01 X-73.4079 Y9.3163 
G01 X-73.5676 Y9.3825 
G01 X-73.7113 Y9.4785 
G01 X-73.8335 Y9.6007 
G01 X-73.9295 Y9.7444 
G01 X-73.9957 Y9.9041 
G01 X-74.0294 Y10.0736 
G01 X-74.0294 Y10.2464 
G01 X-73.9957 Y10.4159 
G01 X-73.9295 Y10.5756 
G01 X-73.8335 Y10.7193 
G01 X-73.7113 Y10.8415 
G01 X-73.5676 Y10.9375 
G01 X-73.4079 Y11.0037 
G01 X-73.2384 Y11.0374 
G00 Z2.5400 
G00 X-73.2384 Y13.5774 
G01 Z-0.1500 F254.00 
G01 X-71.5416 Y13.5774 F508.00 
G01 X-71.3721 Y13.5437 
G01 X-71.2124 Y13.4775 
G01 X-71.0687 Y13.3815 
G01 X-70.9465 Y13.2593 
G01 X-70.8505 Y13.1156 
G01 X-70.7843 Y12.9559 
G01 X-70.7506 Y12.7864 
G01 X-70.7506 Y12.6136 
G01 X-70.7843 Y12.4441 
G01 X-70.8505 Y12.2844 
G01 X-70.9465 Y12.1407 
G01 X-71.0687 Y12.0185 
G01 X-71.2124 Y11.9225 
G01 X-71.3721 Y11.8563 
G01 X-71.5416 Y11.8226 
G01 X-73.2384 Y11.8226 
G01 X-73.4079 Y11.8563 
G01 X-73.5676 Y11.9225 
G01 X-73.7113 Y12.0185 
G01 X-73.8335 Y12.1407 
G01 X-73.9295 Y12.2844 
G01 X-73.9957 Y12.4441 
G01 X-74.0294 Y12.6136 
G01 X-74.0294 Y12.7864 
G01 X-73.9957 Y12.9559 
G01 X-73.9295 Y13.1156 
G01 X-73.8335 Y13.2593 
G01 X-73.7113 Y13.3815 
G01 X-73.5676 Y13.4775 
G01 X-73.4079 Y13.5437 
G01 X-73.2384 Y13.5774 
G00 Z2.5400 
G00 X-73.2384 Y16.1174 
G01 Z-0.1500 F254.00 
G01 X-71.5416 Y16.1174 F508.00 
G01 X-71.3721 Y16.0837 
G01 X-71.2124 Y16.0175 
G01 X-71.0687 Y15.9215 
G01 X-70.9465 Y15.7993 
G01 X-70.8505 Y15.6556 
G01 X-70.7843 Y15.4959 
G01 X-70.7506 Y15.3264 
G01 X-70.7506 Y15.1536 
G01 X-70.7843 Y14.9841 
G01 X-70.8505 Y14.8244 
G01 X-70.9465 Y14.6807 
G01 X-71.0687 Y14.5585 
G01 X-71.2124 Y14.4625 
G01 X-71.3721 Y14.3963 
G01 X-71.5416 Y14.3626 
G01 X-73.2384 Y14.3626 
G01 X-73.4079 Y14.3963 
G01 X-73.5676 Y14.4625 
G01 X-73.7113 Y14.5585 
G01 X-73.8335 Y14.6807 
G01 X-73.9295 Y14.8244 
G01 X-73.9957 Y14.9841 
G01 X-74.0294 Y15.1536 
G01 X-74.0294 Y15.3264 
G01 X-73.9957 Y15.4959 
G01 X-73.9295 Y15.6556 
G01 X-73.8335 Y15.7993 
G01 X-73.7113 Y15.9215 
G01 X-73.5676 Y16.0175 
G01 X-73.4079 Y16.0837 
G01 X-73.2384 Y16.1174 
G00 Z2.5400 
G00 X-73.2384 Y23.7374 
G01 Z-0.1500 F254.00 
G01 X-71.5416 Y23.7374 F508.00 
G01 X-71.3721 Y23.7037 
G01 X-71.2124 Y23.6375 
G01 X-71.0687 Y23.5415 
G01 X-70.9465 Y23.4193 
G01 X-70.8505 Y23.2756 
G01 X-70.7843 Y23.1159 
G01 X-70.7816 Y23.1024 
G01 X-38.2004 Y23.1024 
G01 X-36.3358 Y24.9670 
G01 X-36.3358 Y26.1368 
G01 X-36.3060 Y26.2867 
G01 X-36.2475 Y26.4279 
G01 X-36.1626 Y26.5549 
G01 X-36.0545 Y26.6630 
G01 X-35.9275 Y26.7479 
G01 X-35.7863 Y26.8064 
G01 X-35.6364 Y26.8362 
G01 X-35.4836 Y26.8362 
G01 X-35.3337 Y26.8064 
G01 X-35.1925 Y26.7479 
G01 X-35.0655 Y26.6630 
G01 X-34.9574 Y26.5549 
G01 X-34.8725 Y26.4279 
G01 X-34.8140 Y26.2867 
G01 X-34.7842 Y26.1368 
G01 X-34.7842 Y24.6632 
G01 X-34.8140 Y24.5133 
G01 X-34.8725 Y24.3721 
G01 X-34.9574 Y24.2451 
G01 X-35.0655 Y24.1370 
G01 X-35.1925 Y24.0521 
G01 X-35.3337 Y23.9936 
G01 X-35.4836 Y23.9638 
G01 X-35.6364 Y23.9638 
G01 X-35.7863 Y23.9936 
G01 X-35.9275 Y24.0521 
G01 X-36.0545 Y24.1370 
G01 X-36.1626 Y24.2451 
G01 X-36.2465 Y24.3707 
G01 X-37.8945 Y22.7227 
G01 X-37.9627 Y22.6545 
G01 X-38.0518 Y22.6176 
G01 X-70.7816 Y22.6176 
G01 X-70.7843 Y22.6041 
G01 X-70.8505 Y22.4444 
G01 X-70.9465 Y22.3007 
G01 X-71.0687 Y22.1785 
G01 X-71.2124 Y22.0825 
G01 X-71.3721 Y22.0163 
G01 X-71.5416 Y21.9826 
G01 X-73.2384 Y21.9826 
G01 X-73.4079 Y22.0163 
G01 X-73.5676 Y22.0825 
G01 X-73.7113 Y22.1785 
G01 X-73.8335 Y22.3007 
G01 X-73.9295 Y22.4444 
G01 X-73.9957 Y22.6041 
G01 X-74.0294 Y22.7736 
G01 X-74.0294 Y22.9464 
G01 X-73.9957 Y23.1159 
G01 X-73.9295 Y23.2756 
G01 X-73.8335 Y23.4193 
G01 X-73.7113 Y23.5415 
G01 X-73.5676 Y23.6375 
G01 X-73.4079 Y23.7037 
G01 X-73.2384 Y23.7374 
G00 Z2.5400 
G00 X-29.0176 Y12.5360 
G01 Z-0.1500 F254.00 
G01 X-26.8624 Y12.5360 F508.00 
G01 X-26.6904 Y12.5088 
G01 X-26.5248 Y12.4550 
G01 X-26.3697 Y12.3759 
G01 X-26.2289 Y12.2736 
G01 X-26.1058 Y12.1505 
G01 X-26.0035 Y12.0097 
G01 X-25.9244 Y11.8546 
G01 X-25.8706 Y11.6890 
G01 X-25.8434 Y11.5170 
G01 X-25.8434 Y11.3430 
G01 X-25.8706 Y11.1710 
G01 X-25.9244 Y11.0054 
G01 X-26.0035 Y10.8503 
G01 X-26.1058 Y10.7095 
G01 X-26.2289 Y10.5864 
G01 X-26.3697 Y10.4841 
G01 X-26.5248 Y10.4050 
G01 X-26.6904 Y10.3512 
G01 X-26.8624 Y10.3240 
G01 X-29.0176 Y10.3240 
G01 X-29.1896 Y10.3512 
G01 X-29.3552 Y10.4050 
G01 X-29.5103 Y10.4841 
G01 X-29.6511 Y10.5864 
G01 X-29.7742 Y10.7095 
G01 X-29.8765 Y10.8503 
G01 X-29.9556 Y11.0054 
G01 X-30.0094 Y11.1710 
G01 X-30.0366 Y11.3430 
G01 X-30.0366 Y11.5170 
G01 X-30.0094 Y11.6890 
G01 X-29.9556 Y11.8546 
G01 X-29.8765 Y12.0097 
G01 X-29.7742 Y12.1505 
G01 X-29.6511 Y12.2736 
G01 X-29.5103 Y12.3759 
G01 X-29.3552 Y12.4550 
G01 X-29.1896 Y12.5088 
G01 X-29.0176 Y12.5360 
G00 Z2.5400 
G00 X-6.1576 Y12.5360 
G01 Z-0.1500 F254.00 
G01 X-4.0024 Y12.5360 F508.00 
G01 X-3.8304 Y12.5088 
G01 X-3.6648 Y12.4550 
G01 X-3.5097 Y12.3759 
G01 X-3.3689 Y12.2736 
G01 X-3.2458 Y12.1505 
G01 X-3.1435 Y12.0097 
G01 X-3.0644 Y11.8546 
G01 X-3.0106 Y11.6890 
G01 X-2.9834 Y11.5170 
G01 X-2.9834 Y11.3430 
G01 X-3.0106 Y11.1710 
G01 X-3.0644 Y11.0054 
G01 X-3.1435 Y10.8503 
G01 X-3.2458 Y10.7095 
G01 X-3.3689 Y10.5864 
G01 X-3.5097 Y10.4841 
G01 X-3.6648 Y10.4050 
G01 X-3.8304 Y10.3512 
G01 X-4.0024 Y10.3240 
G01 X-6.1576 Y10.3240 
G01 X-6.3296 Y10.3512 
G01 X-6.4952 Y10.4050 
G01 X-6.6503 Y10.4841 
G01 X-6.7911 Y10.5864 
G01 X-6.9142 Y10.7095 
G01 X-7.0165 Y10.8503 
G01 X-7.0956 Y11.0054 
G01 X-7.1494 Y11.1710 
G01 X-7.1766 Y11.3430 
G01 X-7.1766 Y11.5170 
G01 X-7.1494 Y11.6890 
G01 X-7.0956 Y11.8546 
G01 X-7.0165 Y12.0097 
G01 X-6.9142 Y12.1505 
G01 X-6.7911 Y12.2736 
G01 X-6.6503 Y12.3759 
G01 X-6.4952 Y12.4550 
G01 X-6.3296 Y12.5088 
G01 X-6.1576 Y12.5360 
G00 Z2.5400 
G00 X-29.3698 Y57.3911 
G01 Z-0.1500 F254.00 
G01 X-29.3075 Y57.5415 F508.00 
G01 X-29.2171 Y57.6769 
G01 X-29.1019 Y57.7921 
G01 X-28.9665 Y57.8825 
G01 X-28.8161 Y57.9448 
G01 X-28.6564 Y57.9766 
G01 X-28.4936 Y57.9766 
G01 X-28.3339 Y57.9448 
G01 X-28.1835 Y57.8825 
G01 X-28.0481 Y57.7921 
G01 X-27.9329 Y57.6769 
G01 X-27.8425 Y57.5415 
G01 X-27.7802 Y57.3911 
G01 X-27.7484 Y57.2314 
G01 X-27.7484 Y57.0686 
G01 X-27.7802 Y56.9089 
G01 X-27.8425 Y56.7585 
G01 X-27.9329 Y56.6231 
G01 X-28.0481 Y56.5079 
G01 X-28.1835 Y56.4175 
G01 X-28.3339 Y56.3552 
G01 X-28.4936 Y56.3234 
G01 X-28.6564 Y56.3234 
G01 X-28.8161 Y56.3552 
G01 X-28.9665 Y56.4175 
G01 X-29.1019 Y56.5079 
G01 X-29.2171 Y56.6231 
G01 X-29.2880 Y56.7292 
G01 X-30.2745 Y55.7427 
G01 X-30.3427 Y55.6745 
G01 X-30.4318 Y55.6376 
G01 X-44.3496 Y55.6376 
G01 X-53.1345 Y46.8527 
G01 X-53.2027 Y46.7845 
G01 X-53.2918 Y46.7476 
G01 X-56.2345 Y46.7476 
G01 X-56.2345 Y46.6108 
G01 X-56.7708 Y46.0745 
G01 X-57.5292 Y46.0745 
G01 X-58.0655 Y46.6108 
G01 X-58.0655 Y47.3692 
G01 X-57.5292 Y47.9055 
G01 X-56.7708 Y47.9055 
G01 X-56.2345 Y47.3692 
G01 X-56.2345 Y47.2324 
G01 X-53.4404 Y47.2324 
G01 X-44.6555 Y56.0173 
G01 X-44.5873 Y56.0855 
G01 X-43.3855 Y57.2873 
G01 X-43.3543 Y57.3185 
G01 X-43.3398 Y57.3911 
G01 X-43.2775 Y57.5415 
G01 X-43.1871 Y57.6769 
G01 X-43.0719 Y57.7921 
G01 X-42.9365 Y57.8825 
G01 X-42.7861 Y57.9448 
G01 X-42.6264 Y57.9766 
G01 X-42.4636 Y57.9766 
G01 X-42.3039 Y57.9448 
G01 X-42.1535 Y57.8825 
G01 X-42.0181 Y57.7921 
G01 X-41.9029 Y57.6769 
G01 X-41.8125 Y57.5415 
G01 X-41.7502 Y57.3911 
G01 X-41.7184 Y57.2314 
G01 X-41.7184 Y57.0686 
G01 X-41.7502 Y56.9089 
G01 X-41.8125 Y56.7585 
G01 X-41.9029 Y56.6231 
G01 X-42.0181 Y56.5079 
G01 X-42.1535 Y56.4175 
G01 X-42.3039 Y56.3552 
G01 X-42.4636 Y56.3234 
G01 X-42.6264 Y56.3234 
G01 X-42.7861 Y56.3552 
G01 X-42.9365 Y56.4175 
G01 X-43.0719 Y56.5079 
G01 X-43.1871 Y56.6231 
G01 X-43.2580 Y56.7292 
G01 X-43.8648 Y56.1224 
G01 X-30.5804 Y56.1224 
G01 X-29.3843 Y57.3185 
G01 X-29.3698 Y57.3911 
G00 Z2.5400 
G00 X-30.6716 Y59.6086 
G01 Z-0.1500 F254.00 
G01 X-30.6716 Y59.7714 F508.00 
G01 X-30.6398 Y59.9311 
G01 X-30.5775 Y60.0815 
G01 X-30.4871 Y60.2169 
G01 X-30.3719 Y60.3321 
G01 X-30.2365 Y60.4225 
G01 X-30.0861 Y60.4848 
G01 X-29.9264 Y60.5166 
G01 X-29.7636 Y60.5166 
G01 X-29.6039 Y60.4848 
G01 X-29.4535 Y60.4225 
G01 X-29.3181 Y60.3321 
G01 X-29.2029 Y60.2169 
G01 X-29.1125 Y60.0815 
G01 X-29.0502 Y59.9311 
G01 X-29.0184 Y59.7714 
G01 X-29.0184 Y59.6086 
G01 X-29.0502 Y59.4489 
G01 X-29.1125 Y59.2985 
G01 X-29.2029 Y59.1631 
G01 X-29.3181 Y59.0479 
G01 X-29.4535 Y58.9575 
G01 X-29.6039 Y58.8952 
G01 X-29.7636 Y58.8634 
G01 X-29.9264 Y58.8634 
G01 X-30.0861 Y58.8952 
G01 X-30.2365 Y58.9575 
G01 X-30.3719 Y59.0479 
G01 X-30.4871 Y59.1631 
G01 X-30.5775 Y59.2985 
G01 X-30.6398 Y59.4489 
G01 X-30.6716 Y59.6086 
G00 Z2.5400 
G00 X-5.9574 Y37.2516 
G01 Z-0.1500 F254.00 
G01 X-5.9574 Y38.9484 F508.00 
G01 X-5.9237 Y39.1179 
G01 X-5.8575 Y39.2776 
G01 X-5.7615 Y39.4213 
G01 X-5.6393 Y39.5435 
G01 X-5.4956 Y39.6395 
G01 X-5.3359 Y39.7057 
G01 X-5.1664 Y39.7394 
G01 X-4.9936 Y39.7394 
G01 X-4.8241 Y39.7057 
G01 X-4.6644 Y39.6395 
G01 X-4.5207 Y39.5435 
G01 X-4.3985 Y39.4213 
G01 X-4.3025 Y39.2776 
G01 X-4.2363 Y39.1179 
G01 X-4.2026 Y38.9484 
G01 X-4.2026 Y37.2516 
G01 X-4.2363 Y37.0821 
G01 X-4.3025 Y36.9224 
G01 X-4.3985 Y36.7787 
G01 X-4.5207 Y36.6565 
G01 X-4.6644 Y36.5605 
G01 X-4.8241 Y36.4943 
G01 X-4.9936 Y36.4606 
G01 X-5.1664 Y36.4606 
G01 X-5.3359 Y36.4943 
G01 X-5.4956 Y36.5605 
G01 X-5.6393 Y36.6565 
G01 X-5.7615 Y36.7787 
G01 X-5.8575 Y36.9224 
G01 X-5.9237 Y37.0821 
G01 X-5.9574 Y37.2516 
G00 Z2.5400 
G00 X-11.0374 Y37.2516 
G01 Z-0.1500 F254.00 
G01 X-11.0374 Y38.9484 F508.00 
G01 X-11.0037 Y39.1179 
G01 X-10.9375 Y39.2776 
G01 X-10.8415 Y39.4213 
G01 X-10.7193 Y39.5435 
G01 X-10.5756 Y39.6395 
G01 X-10.4159 Y39.7057 
G01 X-10.2464 Y39.7394 
G01 X-10.0736 Y39.7394 
G01 X-9.9041 Y39.7057 
G01 X-9.7444 Y39.6395 
G01 X-9.6007 Y39.5435 
G01 X-9.4785 Y39.4213 
G01 X-9.3825 Y39.2776 
G01 X-9.3163 Y39.1179 
G01 X-9.2826 Y38.9484 
G01 X-9.2826 Y37.2516 
G01 X-9.3163 Y37.0821 
G01 X-9.3825 Y36.9224 
G01 X-9.4785 Y36.7787 
G01 X-9.6007 Y36.6565 
G01 X-9.7444 Y36.5605 
G01 X-9.9041 Y36.4943 
G01 X-9.9176 Y36.4916 
G01 X-9.9176 Y26.6218 
G01 X-9.9545 Y26.5327 
G01 X-10.0227 Y26.4645 
G01 X-15.1027 Y21.3845 
G01 X-15.1918 Y21.3476 
G01 X-21.4896 Y21.3476 
G01 X-40.5027 Y2.3345 
G01 X-40.5918 Y2.2976 
G01 X-45.7682 Y2.2976 
G01 X-45.8573 Y2.3345 
G01 X-45.9255 Y2.4027 
G01 X-47.4657 Y3.9429 
G01 X-47.4825 Y3.9024 
G01 X-47.5785 Y3.7587 
G01 X-47.7007 Y3.6365 
G01 X-47.8444 Y3.5405 
G01 X-48.0041 Y3.4743 
G01 X-48.1736 Y3.4406 
G01 X-48.3464 Y3.4406 
G01 X-48.5159 Y3.4743 
G01 X-48.6756 Y3.5405 
G01 X-48.8193 Y3.6365 
G01 X-48.9415 Y3.7587 
G01 X-49.0375 Y3.9024 
G01 X-49.1037 Y4.0621 
G01 X-49.1374 Y4.2316 
G01 X-49.1374 Y5.9284 
G01 X-49.1037 Y6.0979 
G01 X-49.0375 Y6.2576 
G01 X-48.9415 Y6.4013 
G01 X-48.8193 Y6.5235 
G01 X-48.6756 Y6.6195 
G01 X-48.5159 Y6.6857 
G01 X-48.3464 Y6.7194 
G01 X-48.1736 Y6.7194 
G01 X-48.0041 Y6.6857 
G01 X-47.8444 Y6.6195 
G01 X-47.7007 Y6.5235 
G01 X-47.5785 Y6.4013 
G01 X-47.4825 Y6.2576 
G01 X-47.4163 Y6.0979 
G01 X-47.3826 Y5.9284 
G01 X-47.3826 Y4.5454 
G01 X-45.6196 Y2.7824 
G01 X-40.7404 Y2.7824 
G01 X-21.7955 Y21.7273 
G01 X-21.7273 Y21.7955 
G01 X-21.6382 Y21.8324 
G01 X-15.3404 Y21.8324 
G01 X-10.4024 Y26.7704 
G01 X-10.4024 Y36.4916 
G01 X-10.4159 Y36.4943 
G01 X-10.5756 Y36.5605 
G01 X-10.7193 Y36.6565 
G01 X-10.8415 Y36.7787 
G01 X-10.9375 Y36.9224 
G01 X-11.0037 Y37.0821 
G01 X-11.0374 Y37.2516 
G00 Z2.5400 
G00 X-62.7644 Y62.5178 
G01 Z-0.1500 F254.00 
G01 X-62.7644 Y64.1422 F508.00 
G01 X-62.7319 Y64.3053 
G01 X-62.6683 Y64.4590 
G01 X-62.5759 Y64.5973 
G01 X-62.4583 Y64.7149 
G01 X-62.3200 Y64.8073 
G01 X-62.1663 Y64.8709 
G01 X-62.0032 Y64.9034 
G01 X-61.8368 Y64.9034 
G01 X-61.6737 Y64.8709 
G01 X-61.5200 Y64.8073 
G01 X-61.3817 Y64.7149 
G01 X-61.2641 Y64.5973 
G01 X-61.1717 Y64.4590 
G01 X-61.1081 Y64.3053 
G01 X-61.0756 Y64.1422 
G01 X-61.0756 Y62.5178 
G01 X-61.1081 Y62.3547 
G01 X-61.1717 Y62.2010 
G01 X-61.2641 Y62.0627 
G01 X-61.3817 Y61.9451 
G01 X-61.5200 Y61.8527 
G01 X-61.6737 Y61.7891 
G01 X-61.8368 Y61.7566 
G01 X-62.0032 Y61.7566 
G01 X-62.1663 Y61.7891 
G01 X-62.3200 Y61.8527 
G01 X-62.4583 Y61.9451 
G01 X-62.5759 Y62.0627 
G01 X-62.6683 Y62.2010 
G01 X-62.7319 Y62.3547 
G01 X-62.7644 Y62.5178 
G00 Z2.5400 
G00 X-58.2644 Y62.5178 
G01 Z-0.1500 F254.00 
G01 X-58.2644 Y64.1422 F508.00 
G01 X-58.2319 Y64.3053 
G01 X-58.1683 Y64.4590 
G01 X-58.0759 Y64.5973 
G01 X-57.9583 Y64.7149 
G01 X-57.8200 Y64.8073 
G01 X-57.6663 Y64.8709 
G01 X-57.5032 Y64.9034 
G01 X-57.3368 Y64.9034 
G01 X-57.1737 Y64.8709 
G01 X-57.0200 Y64.8073 
G01 X-56.8817 Y64.7149 
G01 X-56.7641 Y64.5973 
G01 X-56.6717 Y64.4590 
G01 X-56.6081 Y64.3053 
G01 X-56.5756 Y64.1422 
G01 X-56.5756 Y62.5178 
G01 X-56.6081 Y62.3547 
G01 X-56.6717 Y62.2010 
G01 X-56.7641 Y62.0627 
G01 X-56.8817 Y61.9451 
G01 X-57.0200 Y61.8527 
G01 X-57.1737 Y61.7891 
G01 X-57.3368 Y61.7566 
G01 X-57.5032 Y61.7566 
G01 X-57.6663 Y61.7891 
G01 X-57.8200 Y61.8527 
G01 X-57.9583 Y61.9451 
G01 X-58.0759 Y62.0627 
G01 X-58.1683 Y62.2010 
G01 X-58.2319 Y62.3547 
G01 X-58.2644 Y62.5178 
G00 Z2.5400 
G00 X-60.2644 Y62.5178 
G01 Z-0.1500 F254.00 
G01 X-60.2644 Y64.1422 F508.00 
G01 X-60.2319 Y64.3053 
G01 X-60.1683 Y64.4590 
G01 X-60.0759 Y64.5973 
G01 X-59.9583 Y64.7149 
G01 X-59.8200 Y64.8073 
G01 X-59.6663 Y64.8709 
G01 X-59.5032 Y64.9034 
G01 X-59.3368 Y64.9034 
G01 X-59.1737 Y64.8709 
G01 X-59.0200 Y64.8073 
G01 X-58.8817 Y64.7149 
G01 X-58.7641 Y64.5973 
G01 X-58.6717 Y64.4590 
G01 X-58.6081 Y64.3053 
G01 X-58.5756 Y64.1422 
G01 X-58.5756 Y62.5178 
G01 X-58.6081 Y62.3547 
G01 X-58.6717 Y62.2010 
G01 X-58.7641 Y62.0627 
G01 X-58.8817 Y61.9451 
G01 X-59.0200 Y61.8527 
G01 X-59.1737 Y61.7891 
G01 X-59.3368 Y61.7566 
G01 X-59.5032 Y61.7566 
G01 X-59.6663 Y61.7891 
G01 X-59.8200 Y61.8527 
G01 X-59.9583 Y61.9451 
G01 X-60.0759 Y62.0627 
G01 X-60.1683 Y62.2010 
G01 X-60.2319 Y62.3547 
G01 X-60.2644 Y62.5178 
G00 Z2.5400 
G00 X-4.1540 Y46.6275 
G01 Z-0.1500 F254.00 
G01 X-4.1540 Y46.7936 F508.00 
G01 X-4.1280 Y46.9577 
G01 X-4.0767 Y47.1157 
G01 X-4.0013 Y47.2636 
G01 X-3.9037 Y47.3980 
G01 X-3.7862 Y47.5155 
G01 X-3.6518 Y47.6131 
G01 X-3.5039 Y47.6885 
G01 X-3.3459 Y47.7398 
G01 X-3.1818 Y47.7658 
G01 X-3.0158 Y47.7658 
G01 X-2.8517 Y47.7398 
G01 X-2.6937 Y47.6885 
G01 X-2.5458 Y47.6131 
G01 X-2.4114 Y47.5155 
G01 X-2.2939 Y47.3980 
G01 X-2.1963 Y47.2636 
G01 X-2.1209 Y47.1157 
G01 X-2.0696 Y46.9577 
G01 X-2.0436 Y46.7936 
G01 X-2.0436 Y46.6275 
G01 X-2.0696 Y46.4635 
G01 X-2.1209 Y46.3055 
G01 X-2.1963 Y46.1576 
G01 X-2.2939 Y46.0232 
G01 X-2.4114 Y45.9057 
G01 X-2.5458 Y45.8081 
G01 X-2.6937 Y45.7327 
G01 X-2.8517 Y45.6814 
G01 X-3.0158 Y45.6554 
G01 X-3.1818 Y45.6554 
G01 X-3.3459 Y45.6814 
G01 X-3.5039 Y45.7327 
G01 X-3.6518 Y45.8081 
G01 X-3.7862 Y45.9057 
G01 X-3.9037 Y46.0232 
G01 X-4.0013 Y46.1576 
G01 X-4.0767 Y46.3055 
G01 X-4.1280 Y46.4635 
G01 X-4.1540 Y46.6275 
G00 Z2.5400 
G00 X-4.1540 Y42.1063 
G01 Z-0.1500 F254.00 
G01 X-4.1540 Y42.2724 F508.00 
G01 X-4.1280 Y42.4365 
G01 X-4.0767 Y42.5945 
G01 X-4.0013 Y42.7424 
G01 X-3.9037 Y42.8768 
G01 X-3.7862 Y42.9943 
G01 X-3.6518 Y43.0919 
G01 X-3.5039 Y43.1673 
G01 X-3.3459 Y43.2186 
G01 X-3.1818 Y43.2446 
G01 X-3.0158 Y43.2446 
G01 X-2.8517 Y43.2186 
G01 X-2.6937 Y43.1673 
G01 X-2.5458 Y43.0919 
G01 X-2.4114 Y42.9943 
G01 X-2.2939 Y42.8768 
G01 X-2.1963 Y42.7424 
G01 X-2.1209 Y42.5945 
G01 X-2.0696 Y42.4365 
G01 X-2.0436 Y42.2724 
G01 X-2.0436 Y42.1063 
G01 X-2.0696 Y41.9423 
G01 X-2.1209 Y41.7843 
G01 X-2.1963 Y41.6364 
G01 X-2.2939 Y41.5020 
G01 X-2.4114 Y41.3845 
G01 X-2.5458 Y41.2869 
G01 X-2.6937 Y41.2115 
G01 X-2.8517 Y41.1602 
G01 X-3.0158 Y41.1342 
G01 X-3.1818 Y41.1342 
G01 X-3.3459 Y41.1602 
G01 X-3.5039 Y41.2115 
G01 X-3.6518 Y41.2869 
G01 X-3.7862 Y41.3845 
G01 X-3.9037 Y41.5020 
G01 X-4.0013 Y41.6364 
G01 X-4.0767 Y41.7843 
G01 X-4.1280 Y41.9423 
G01 X-4.1540 Y42.1063 
G00 Z2.5400 
G00 X-10.5037 Y42.7424 
G01 Z-0.1500 F254.00 
G01 X-10.4061 Y42.8768 F508.00 
G01 X-10.2886 Y42.9943 
G01 X-10.1542 Y43.0919 
G01 X-10.0063 Y43.1673 
G01 X-9.8483 Y43.2186 
G01 X-9.6842 Y43.2446 
G01 X-9.5182 Y43.2446 
G01 X-9.3541 Y43.2186 
G01 X-9.1961 Y43.1673 
G01 X-9.0482 Y43.0919 
G01 X-8.9138 Y42.9943 
G01 X-8.7963 Y42.8768 
G01 X-8.6987 Y42.7424 
G01 X-8.6233 Y42.5945 
G01 X-8.5720 Y42.4365 
G01 X-8.5460 Y42.2724 
G01 X-8.5460 Y42.1063 
G01 X-8.5720 Y41.9423 
G01 X-8.6233 Y41.7843 
G01 X-8.6987 Y41.6364 
G01 X-8.7963 Y41.5020 
G01 X-8.9138 Y41.3845 
G01 X-9.0482 Y41.2869 
G01 X-9.1961 Y41.2115 
G01 X-9.3541 Y41.1602 
G01 X-9.5182 Y41.1342 
G01 X-9.6842 Y41.1342 
G01 X-9.8483 Y41.1602 
G01 X-10.0063 Y41.2115 
G01 X-10.1542 Y41.2869 
G01 X-10.2886 Y41.3845 
G01 X-10.4061 Y41.5020 
G01 X-10.5037 Y41.6364 
G01 X-10.5791 Y41.7843 
G01 X-10.6304 Y41.9423 
G01 X-10.6484 Y42.0556 
G01 X-15.3404 Y46.7476 
G01 X-46.4156 Y46.7476 
G01 X-46.4376 Y46.6947 
G01 X-46.5058 Y46.5926 
G01 X-46.5926 Y46.5058 
G01 X-46.6947 Y46.4376 
G01 X-46.8082 Y46.3906 
G01 X-46.9286 Y46.3666 
G01 X-47.0514 Y46.3666 
G01 X-47.1718 Y46.3906 
G01 X-47.2853 Y46.4376 
G01 X-47.3874 Y46.5058 
G01 X-47.4742 Y46.5926 
G01 X-47.5424 Y46.6947 
G01 X-47.5894 Y46.8082 
G01 X-47.6134 Y46.9286 
G01 X-47.6134 Y47.0514 
G01 X-47.5894 Y47.1718 
G01 X-47.5424 Y47.2853 
G01 X-47.4742 Y47.3874 
G01 X-47.3874 Y47.4742 
G01 X-47.2853 Y47.5424 
G01 X-47.1718 Y47.5894 
G01 X-47.0514 Y47.6134 
G01 X-46.9286 Y47.6134 
G01 X-46.8082 Y47.5894 
G01 X-46.6947 Y47.5424 
G01 X-46.5926 Y47.4742 
G01 X-46.5058 Y47.3874 
G01 X-46.4376 Y47.2853 
G01 X-46.4156 Y47.2324 
G01 X-15.1918 Y47.2324 
G01 X-15.1027 Y47.1955 
G01 X-15.0345 Y47.1273 
G01 X-10.5530 Y42.6458 
G01 X-10.5037 Y42.7424 
G00 Z2.5400 
G00 X-64.2758 Y24.6632 
G01 Z-0.1500 F254.00 
G01 X-64.2758 Y26.1368 F508.00 
G01 X-64.2460 Y26.2867 
G01 X-64.1875 Y26.4279 
G01 X-64.1026 Y26.5549 
G01 X-63.9945 Y26.6630 
G01 X-63.8675 Y26.7479 
G01 X-63.7263 Y26.8064 
G01 X-63.5764 Y26.8362 
G01 X-63.4236 Y26.8362 
G01 X-63.2737 Y26.8064 
G01 X-63.1325 Y26.7479 
G01 X-63.0055 Y26.6630 
G01 X-62.8974 Y26.5549 
G01 X-62.8125 Y26.4279 
G01 X-62.7540 Y26.2867 
G01 X-62.7242 Y26.1368 
G01 X-62.7242 Y24.6632 
G01 X-62.7540 Y24.5133 
G01 X-62.8125 Y24.3721 
G01 X-62.8974 Y24.2451 
G01 X-63.0055 Y24.1370 
G01 X-63.1325 Y24.0521 
G01 X-63.2737 Y23.9936 
G01 X-63.4236 Y23.9638 
G01 X-63.5764 Y23.9638 
G01 X-63.7263 Y23.9936 
G01 X-63.8675 Y24.0521 
G01 X-63.9945 Y24.1370 
G01 X-64.1026 Y24.2451 
G01 X-64.1875 Y24.3721 
G01 X-64.2460 Y24.5133 
G01 X-64.2758 Y24.6632 
G00 Z2.5400 
G00 X-61.7358 Y24.6632 
G01 Z-0.1500 F254.00 
G01 X-61.7358 Y26.1368 F508.00 
G01 X-61.7060 Y26.2867 
G01 X-61.6475 Y26.4279 
G01 X-61.5626 Y26.5549 
G01 X-61.4545 Y26.6630 
G01 X-61.3275 Y26.7479 
G01 X-61.1863 Y26.8064 
G01 X-61.0364 Y26.8362 
G01 X-60.8836 Y26.8362 
G01 X-60.7337 Y26.8064 
G01 X-60.5925 Y26.7479 
G01 X-60.4655 Y26.6630 
G01 X-60.3574 Y26.5549 
G01 X-60.2725 Y26.4279 
G01 X-60.2140 Y26.2867 
G01 X-60.1842 Y26.1368 
G01 X-60.1842 Y24.6632 
G01 X-60.2140 Y24.5133 
G01 X-60.2725 Y24.3721 
G01 X-60.3574 Y24.2451 
G01 X-60.4655 Y24.1370 
G01 X-60.5925 Y24.0521 
G01 X-60.7337 Y23.9936 
G01 X-60.8836 Y23.9638 
G01 X-61.0364 Y23.9638 
G01 X-61.1863 Y23.9936 
G01 X-61.3275 Y24.0521 
G01 X-61.4545 Y24.1370 
G01 X-61.5626 Y24.2451 
G01 X-61.6475 Y24.3721 
G01 X-61.7060 Y24.5133 
G01 X-61.7358 Y24.6632 
G00 Z2.5400 
G00 X-59.1958 Y24.6632 
G01 Z-0.1500 F254.00 
G01 X-59.1958 Y26.1368 F508.00 
G01 X-59.1660 Y26.2867 
G01 X-59.1075 Y26.4279 
G01 X-59.0226 Y26.5549 
G01 X-58.9145 Y26.6630 
G01 X-58.7875 Y26.7479 
G01 X-58.6463 Y26.8064 
G01 X-58.4964 Y26.8362 
G01 X-58.3436 Y26.8362 
G01 X-58.1937 Y26.8064 
G01 X-58.0525 Y26.7479 
G01 X-57.9255 Y26.6630 
G01 X-57.8174 Y26.5549 
G01 X-57.7325 Y26.4279 
G01 X-57.6740 Y26.2867 
G01 X-57.6442 Y26.1368 
G01 X-57.6442 Y24.6632 
G01 X-57.6740 Y24.5133 
G01 X-57.7325 Y24.3721 
G01 X-57.8174 Y24.2451 
G01 X-57.9255 Y24.1370 
G01 X-58.0525 Y24.0521 
G01 X-58.1937 Y23.9936 
G01 X-58.3436 Y23.9638 
G01 X-58.4964 Y23.9638 
G01 X-58.6463 Y23.9936 
G01 X-58.7875 Y24.0521 
G01 X-58.9145 Y24.1370 
G01 X-59.0226 Y24.2451 
G01 X-59.1075 Y24.3721 
G01 X-59.1660 Y24.5133 
G01 X-59.1958 Y24.6632 
G00 Z2.5400 
G00 X-56.6558 Y24.6632 
G01 Z-0.1500 F254.00 
G01 X-56.6558 Y26.1368 F508.00 
G01 X-56.6260 Y26.2867 
G01 X-56.5675 Y26.4279 
G01 X-56.4826 Y26.5549 
G01 X-56.3745 Y26.6630 
G01 X-56.2475 Y26.7479 
G01 X-56.1063 Y26.8064 
G01 X-55.9564 Y26.8362 
G01 X-55.8036 Y26.8362 
G01 X-55.6537 Y26.8064 
G01 X-55.5125 Y26.7479 
G01 X-55.3855 Y26.6630 
G01 X-55.2774 Y26.5549 
G01 X-55.1925 Y26.4279 
G01 X-55.1340 Y26.2867 
G01 X-55.1042 Y26.1368 
G01 X-55.1042 Y24.6632 
G01 X-55.1340 Y24.5133 
G01 X-55.1925 Y24.3721 
G01 X-55.2774 Y24.2451 
G01 X-55.3855 Y24.1370 
G01 X-55.5125 Y24.0521 
G01 X-55.6537 Y23.9936 
G01 X-55.8036 Y23.9638 
G01 X-55.9564 Y23.9638 
G01 X-56.1063 Y23.9936 
G01 X-56.2475 Y24.0521 
G01 X-56.3745 Y24.1370 
G01 X-56.4826 Y24.2451 
G01 X-56.5675 Y24.3721 
G01 X-56.6260 Y24.5133 
G01 X-56.6558 Y24.6632 
G00 Z2.5400 
G00 X-51.5758 Y24.6632 
G01 Z-0.1500 F254.00 
G01 X-51.5758 Y26.1368 F508.00 
G01 X-51.5460 Y26.2867 
G01 X-51.4875 Y26.4279 
G01 X-51.4026 Y26.5549 
G01 X-51.2945 Y26.6630 
G01 X-51.1675 Y26.7479 
G01 X-51.0263 Y26.8064 
G01 X-50.8764 Y26.8362 
G01 X-50.7236 Y26.8362 
G01 X-50.5737 Y26.8064 
G01 X-50.4325 Y26.7479 
G01 X-50.3055 Y26.6630 
G01 X-50.1974 Y26.5549 
G01 X-50.1135 Y26.4293 
G01 X-48.4655 Y28.0773 
G01 X-48.3973 Y28.1455 
G01 X-48.3082 Y28.1824 
G01 X-21.5418 Y28.1824 
G01 X-21.4527 Y28.1455 
G01 X-19.2407 Y25.9335 
G01 X-19.2235 Y25.9593 
G01 X-19.1013 Y26.0815 
G01 X-18.9576 Y26.1775 
G01 X-18.7979 Y26.2437 
G01 X-18.6284 Y26.2774 
G01 X-16.9316 Y26.2774 
G01 X-16.7621 Y26.2437 
G01 X-16.6024 Y26.1775 
G01 X-16.4587 Y26.0815 
G01 X-16.3365 Y25.9593 
G01 X-16.2405 Y25.8156 
G01 X-16.1743 Y25.6559 
G01 X-16.1406 Y25.4864 
G01 X-16.1406 Y25.3136 
G01 X-16.1743 Y25.1441 
G01 X-16.2405 Y24.9844 
G01 X-16.3365 Y24.8407 
G01 X-16.4587 Y24.7185 
G01 X-16.6024 Y24.6225 
G01 X-16.7621 Y24.5563 
G01 X-16.9316 Y24.5226 
G01 X-18.6284 Y24.5226 
G01 X-18.7979 Y24.5563 
G01 X-18.9576 Y24.6225 
G01 X-19.1013 Y24.7185 
G01 X-19.2235 Y24.8407 
G01 X-19.3195 Y24.9844 
G01 X-19.3857 Y25.1441 
G01 X-19.4194 Y25.3136 
G01 X-19.4194 Y25.4266 
G01 X-21.6904 Y27.6976 
G01 X-48.1596 Y27.6976 
G01 X-50.0242 Y25.8330 
G01 X-50.0242 Y24.6632 
G01 X-50.0540 Y24.5133 
G01 X-50.1125 Y24.3721 
G01 X-50.1974 Y24.2451 
G01 X-50.3055 Y24.1370 
G01 X-50.4325 Y24.0521 
G01 X-50.5737 Y23.9936 
G01 X-50.7236 Y23.9638 
G01 X-50.8764 Y23.9638 
G01 X-51.0263 Y23.9936 
G01 X-51.1675 Y24.0521 
G01 X-51.2945 Y24.1370 
G01 X-51.4026 Y24.2451 
G01 X-51.4875 Y24.3721 
G01 X-51.5460 Y24.5133 
G01 X-51.5758 Y24.6632 
G00 Z2.5400 
G00 X-49.0358 Y24.6632 
G01 Z-0.1500 F254.00 
G01 X-49.0358 Y26.1368 F508.00 
G01 X-49.0060 Y26.2867 
G01 X-48.9475 Y26.4279 
G01 X-48.8626 Y26.5549 
G01 X-48.7545 Y26.6630 
G01 X-48.6275 Y26.7479 
G01 X-48.4863 Y26.8064 
G01 X-48.3364 Y26.8362 
G01 X-48.1836 Y26.8362 
G01 X-48.0337 Y26.8064 
G01 X-47.8925 Y26.7479 
G01 X-47.7655 Y26.6630 
G01 X-47.6574 Y26.5549 
G01 X-47.5725 Y26.4279 
G01 X-47.5140 Y26.2867 
G01 X-47.4842 Y26.1368 
G01 X-47.4842 Y24.6632 
G01 X-47.5140 Y24.5133 
G01 X-47.5725 Y24.3721 
G01 X-47.6574 Y24.2451 
G01 X-47.7655 Y24.1370 
G01 X-47.8925 Y24.0521 
G01 X-48.0337 Y23.9936 
G01 X-48.1836 Y23.9638 
G01 X-48.3364 Y23.9638 
G01 X-48.4863 Y23.9936 
G01 X-48.6275 Y24.0521 
G01 X-48.7545 Y24.1370 
G01 X-48.8626 Y24.2451 
G01 X-48.9475 Y24.3721 
G01 X-49.0060 Y24.5133 
G01 X-49.0358 Y24.6632 
G00 Z2.5400 
G00 X-46.4958 Y24.6632 
G01 Z-0.1500 F254.00 
G01 X-46.4958 Y26.1368 F508.00 
G01 X-46.4660 Y26.2867 
G01 X-46.4075 Y26.4279 
G01 X-46.3226 Y26.5549 
G01 X-46.2145 Y26.6630 
G01 X-46.0875 Y26.7479 
G01 X-45.9463 Y26.8064 
G01 X-45.7964 Y26.8362 
G01 X-45.6436 Y26.8362 
G01 X-45.4937 Y26.8064 
G01 X-45.3525 Y26.7479 
G01 X-45.2255 Y26.6630 
G01 X-45.1174 Y26.5549 
G01 X-45.0325 Y26.4279 
G01 X-44.9740 Y26.2867 
G01 X-44.9442 Y26.1368 
G01 X-44.9442 Y24.6632 
G01 X-44.9740 Y24.5133 
G01 X-45.0325 Y24.3721 
G01 X-45.1174 Y24.2451 
G01 X-45.2255 Y24.1370 
G01 X-45.3525 Y24.0521 
G01 X-45.4937 Y23.9936 
G01 X-45.6436 Y23.9638 
G01 X-45.7964 Y23.9638 
G01 X-45.9463 Y23.9936 
G01 X-46.0875 Y24.0521 
G01 X-46.2145 Y24.1370 
G01 X-46.3226 Y24.2451 
G01 X-46.4075 Y24.3721 
G01 X-46.4660 Y24.5133 
G01 X-46.4958 Y24.6632 
G00 Z2.5400 
G00 X-43.9558 Y24.6632 
G01 Z-0.1500 F254.00 
G01 X-43.9558 Y26.1368 F508.00 
G01 X-43.9260 Y26.2867 
G01 X-43.8675 Y26.4279 
G01 X-43.7826 Y26.5549 
G01 X-43.6745 Y26.6630 
G01 X-43.5475 Y26.7479 
G01 X-43.4063 Y26.8064 
G01 X-43.2564 Y26.8362 
G01 X-43.1036 Y26.8362 
G01 X-42.9537 Y26.8064 
G01 X-42.8125 Y26.7479 
G01 X-42.6855 Y26.6630 
G01 X-42.5774 Y26.5549 
G01 X-42.4925 Y26.4279 
G01 X-42.4340 Y26.2867 
G01 X-42.4042 Y26.1368 
G01 X-42.4042 Y24.6632 
G01 X-42.4340 Y24.5133 
G01 X-42.4925 Y24.3721 
G01 X-42.5774 Y24.2451 
G01 X-42.6855 Y24.1370 
G01 X-42.8125 Y24.0521 
G01 X-42.9537 Y23.9936 
G01 X-43.1036 Y23.9638 
G01 X-43.2564 Y23.9638 
G01 X-43.4063 Y23.9936 
G01 X-43.5475 Y24.0521 
G01 X-43.6745 Y24.1370 
G01 X-43.7826 Y24.2451 
G01 X-43.8675 Y24.3721 
G01 X-43.9260 Y24.5133 
G01 X-43.9558 Y24.6632 
G00 Z2.5400 
G00 X-41.4158 Y24.6632 
G01 Z-0.1500 F254.00 
G01 X-41.4158 Y26.1368 F508.00 
G01 X-41.3860 Y26.2867 
G01 X-41.3275 Y26.4279 
G01 X-41.2426 Y26.5549 
G01 X-41.1345 Y26.6630 
G01 X-41.0075 Y26.7479 
G01 X-40.8663 Y26.8064 
G01 X-40.7164 Y26.8362 
G01 X-40.5636 Y26.8362 
G01 X-40.4137 Y26.8064 
G01 X-40.2725 Y26.7479 
G01 X-40.1455 Y26.6630 
G01 X-40.0374 Y26.5549 
G01 X-39.9525 Y26.4279 
G01 X-39.8940 Y26.2867 
G01 X-39.8642 Y26.1368 
G01 X-39.8642 Y24.6632 
G01 X-39.8940 Y24.5133 
G01 X-39.9525 Y24.3721 
G01 X-40.0374 Y24.2451 
G01 X-40.1455 Y24.1370 
G01 X-40.2725 Y24.0521 
G01 X-40.4137 Y23.9936 
G01 X-40.5636 Y23.9638 
G01 X-40.7164 Y23.9638 
G01 X-40.8663 Y23.9936 
G01 X-41.0075 Y24.0521 
G01 X-41.1345 Y24.1370 
G01 X-41.2426 Y24.2451 
G01 X-41.3275 Y24.3721 
G01 X-41.3860 Y24.5133 
G01 X-41.4158 Y24.6632 
G00 Z2.5400 
G00 X-38.8758 Y24.6632 
G01 Z-0.1500 F254.00 
G01 X-38.8758 Y26.1368 F508.00 
G01 X-38.8460 Y26.2867 
G01 X-38.7875 Y26.4279 
G01 X-38.7026 Y26.5549 
G01 X-38.5945 Y26.6630 
G01 X-38.4675 Y26.7479 
G01 X-38.3263 Y26.8064 
G01 X-38.1764 Y26.8362 
G01 X-38.0236 Y26.8362 
G01 X-37.8737 Y26.8064 
G01 X-37.7325 Y26.7479 
G01 X-37.6055 Y26.6630 
G01 X-37.4974 Y26.5549 
G01 X-37.4125 Y26.4279 
G01 X-37.3540 Y26.2867 
G01 X-37.3242 Y26.1368 
G01 X-37.3242 Y24.6632 
G01 X-37.3540 Y24.5133 
G01 X-37.4125 Y24.3721 
G01 X-37.4974 Y24.2451 
G01 X-37.6055 Y24.1370 
G01 X-37.7325 Y24.0521 
G01 X-37.8737 Y23.9936 
G01 X-38.0236 Y23.9638 
G01 X-38.1764 Y23.9638 
G01 X-38.3263 Y23.9936 
G01 X-38.4675 Y24.0521 
G01 X-38.5945 Y24.1370 
G01 X-38.7026 Y24.2451 
G01 X-38.7875 Y24.3721 
G01 X-38.8460 Y24.5133 
G01 X-38.8758 Y24.6632 
G00 Z2.5400 
G00 X-33.7958 Y24.6632 
G01 Z-0.1500 F254.00 
G01 X-33.7958 Y26.1368 F508.00 
G01 X-33.7660 Y26.2867 
G01 X-33.7075 Y26.4279 
G01 X-33.6226 Y26.5549 
G01 X-33.5145 Y26.6630 
G01 X-33.3875 Y26.7479 
G01 X-33.2463 Y26.8064 
G01 X-33.0964 Y26.8362 
G01 X-32.9436 Y26.8362 
G01 X-32.7937 Y26.8064 
G01 X-32.6525 Y26.7479 
G01 X-32.5255 Y26.6630 
G01 X-32.4174 Y26.5549 
G01 X-32.3325 Y26.4279 
G01 X-32.2740 Y26.2867 
G01 X-32.2442 Y26.1368 
G01 X-32.2442 Y24.6632 
G01 X-32.2740 Y24.5133 
G01 X-32.3325 Y24.3721 
G01 X-32.4174 Y24.2451 
G01 X-32.5255 Y24.1370 
G01 X-32.6525 Y24.0521 
G01 X-32.7937 Y23.9936 
G01 X-32.9436 Y23.9638 
G01 X-33.0964 Y23.9638 
G01 X-33.2463 Y23.9936 
G01 X-33.3875 Y24.0521 
G01 X-33.5145 Y24.1370 
G01 X-33.6226 Y24.2451 
G01 X-33.7075 Y24.3721 
G01 X-33.7660 Y24.5133 
G01 X-33.7958 Y24.6632 
G00 Z2.5400 
G00 X-31.2558 Y24.6632 
G01 Z-0.1500 F254.00 
G01 X-31.2558 Y26.1368 F508.00 
G01 X-31.2260 Y26.2867 
G01 X-31.1675 Y26.4279 
G01 X-31.0826 Y26.5549 
G01 X-30.9745 Y26.6630 
G01 X-30.8475 Y26.7479 
G01 X-30.7063 Y26.8064 
G01 X-30.5564 Y26.8362 
G01 X-30.4036 Y26.8362 
G01 X-30.2537 Y26.8064 
G01 X-30.1125 Y26.7479 
G01 X-29.9855 Y26.6630 
G01 X-29.8774 Y26.5549 
G01 X-29.7925 Y26.4279 
G01 X-29.7340 Y26.2867 
G01 X-29.7042 Y26.1368 
G01 X-29.7042 Y24.6632 
G01 X-29.7340 Y24.5133 
G01 X-29.7925 Y24.3721 
G01 X-29.8774 Y24.2451 
G01 X-29.9855 Y24.1370 
G01 X-30.1125 Y24.0521 
G01 X-30.2537 Y23.9936 
G01 X-30.4036 Y23.9638 
G01 X-30.5564 Y23.9638 
G01 X-30.7063 Y23.9936 
G01 X-30.8475 Y24.0521 
G01 X-30.9745 Y24.1370 
G01 X-31.0826 Y24.2451 
G01 X-31.1675 Y24.3721 
G01 X-31.2260 Y24.5133 
G01 X-31.2558 Y24.6632 
G00 Z2.5400 
G00 X-33.7958 Y33.7568 
G01 Z-0.1500 F254.00 
G01 X-33.7660 Y33.9067 F508.00 
G01 X-33.7075 Y34.0479 
G01 X-33.6226 Y34.1749 
G01 X-33.5145 Y34.2830 
G01 X-33.3875 Y34.3679 
G01 X-33.2463 Y34.4264 
G01 X-33.0964 Y34.4562 
G01 X-32.9436 Y34.4562 
G01 X-32.7937 Y34.4264 
G01 X-32.6525 Y34.3679 
G01 X-32.5255 Y34.2830 
G01 X-32.4174 Y34.1749 
G01 X-32.3325 Y34.0479 
G01 X-32.2740 Y33.9067 
G01 X-32.2442 Y33.7568 
G01 X-32.2442 Y32.2832 
G01 X-32.2740 Y32.1333 
G01 X-32.3325 Y31.9921 
G01 X-32.4174 Y31.8651 
G01 X-32.5255 Y31.7570 
G01 X-32.6525 Y31.6721 
G01 X-32.7937 Y31.6136 
G01 X-32.9436 Y31.5838 
G01 X-33.0964 Y31.5838 
G01 X-33.2463 Y31.6136 
G01 X-33.3875 Y31.6721 
G01 X-33.5145 Y31.7570 
G01 X-33.6226 Y31.8651 
G01 X-33.7065 Y31.9907 
G01 X-35.4227 Y30.2745 
G01 X-35.5118 Y30.2376 
G01 X-49.4296 Y30.2376 
G01 X-50.6627 Y29.0045 
G01 X-50.7518 Y28.9676 
G01 X-69.8982 Y28.9676 
G01 X-69.9873 Y29.0045 
G01 X-70.0555 Y29.0727 
G01 X-78.5053 Y37.5225 
G01 X-78.5582 Y37.5006 
G01 X-78.6786 Y37.4766 
G01 X-78.8014 Y37.4766 
G01 X-78.9218 Y37.5006 
G01 X-79.0353 Y37.5476 
G01 X-79.1374 Y37.6158 
G01 X-79.2242 Y37.7026 
G01 X-79.2924 Y37.8047 
G01 X-79.3394 Y37.9182 
G01 X-79.3634 Y38.0386 
G01 X-79.3634 Y38.1614 
G01 X-79.3394 Y38.2818 
G01 X-79.2924 Y38.3953 
G01 X-79.2242 Y38.4974 
G01 X-79.1374 Y38.5842 
G01 X-79.0353 Y38.6524 
G01 X-78.9218 Y38.6994 
G01 X-78.8014 Y38.7234 
G01 X-78.6786 Y38.7234 
G01 X-78.5582 Y38.6994 
G01 X-78.4447 Y38.6524 
G01 X-78.3426 Y38.5842 
G01 X-78.2558 Y38.4974 
G01 X-78.1876 Y38.3953 
G01 X-78.1406 Y38.2818 
G01 X-78.1166 Y38.1614 
G01 X-78.1166 Y38.0386 
G01 X-78.1406 Y37.9182 
G01 X-78.1625 Y37.8653 
G01 X-69.7496 Y29.4524 
G01 X-50.9004 Y29.4524 
G01 X-49.7355 Y30.6173 
G01 X-49.6673 Y30.6855 
G01 X-49.5782 Y30.7224 
G01 X-35.6604 Y30.7224 
G01 X-33.7958 Y32.5870 
G01 X-33.7958 Y33.7568 
G00 Z2.5400 
G00 X-41.4158 Y32.2832 
G01 Z-0.1500 F254.00 
G01 X-41.4158 Y33.7568 F508.00 
G01 X-41.3860 Y33.9067 
G01 X-41.3275 Y34.0479 
G01 X-41.2426 Y34.1749 
G01 X-41.1345 Y34.2830 
G01 X-41.0075 Y34.3679 
G01 X-40.8663 Y34.4264 
G01 X-40.7164 Y34.4562 
G01 X-40.5636 Y34.4562 
G01 X-40.4137 Y34.4264 
G01 X-40.2725 Y34.3679 
G01 X-40.1455 Y34.2830 
G01 X-40.0374 Y34.1749 
G01 X-39.9525 Y34.0479 
G01 X-39.8940 Y33.9067 
G01 X-39.8642 Y33.7568 
G01 X-39.8642 Y32.2832 
G01 X-39.8940 Y32.1333 
G01 X-39.9525 Y31.9921 
G01 X-40.0374 Y31.8651 
G01 X-40.1455 Y31.7570 
G01 X-40.2725 Y31.6721 
G01 X-40.4137 Y31.6136 
G01 X-40.5636 Y31.5838 
G01 X-40.7164 Y31.5838 
G01 X-40.8663 Y31.6136 
G01 X-41.0075 Y31.6721 
G01 X-41.1345 Y31.7570 
G01 X-41.2426 Y31.8651 
G01 X-41.3275 Y31.9921 
G01 X-41.3860 Y32.1333 
G01 X-41.4158 Y32.2832 
G00 Z2.5400 
G00 X-43.9558 Y32.2832 
G01 Z-0.1500 F254.00 
G01 X-43.9558 Y33.7568 F508.00 
G01 X-43.9260 Y33.9067 
G01 X-43.8675 Y34.0479 
G01 X-43.7826 Y34.1749 
G01 X-43.6745 Y34.2830 
G01 X-43.5475 Y34.3679 
G01 X-43.4063 Y34.4264 
G01 X-43.2564 Y34.4562 
G01 X-43.1036 Y34.4562 
G01 X-42.9537 Y34.4264 
G01 X-42.8125 Y34.3679 
G01 X-42.6855 Y34.2830 
G01 X-42.5774 Y34.1749 
G01 X-42.4925 Y34.0479 
G01 X-42.4340 Y33.9067 
G01 X-42.4042 Y33.7568 
G01 X-42.4042 Y32.2832 
G01 X-42.4340 Y32.1333 
G01 X-42.4925 Y31.9921 
G01 X-42.5774 Y31.8651 
G01 X-42.6855 Y31.7570 
G01 X-42.8125 Y31.6721 
G01 X-42.9537 Y31.6136 
G01 X-43.1036 Y31.5838 
G01 X-43.2564 Y31.5838 
G01 X-43.4063 Y31.6136 
G01 X-43.5475 Y31.6721 
G01 X-43.6745 Y31.7570 
G01 X-43.7826 Y31.8651 
G01 X-43.8675 Y31.9921 
G01 X-43.9260 Y32.1333 
G01 X-43.9558 Y32.2832 
G00 Z2.5400 
G00 X-46.4958 Y32.2832 
G01 Z-0.1500 F254.00 
G01 X-46.4958 Y33.7568 F508.00 
G01 X-46.4660 Y33.9067 
G01 X-46.4075 Y34.0479 
G01 X-46.3226 Y34.1749 
G01 X-46.2145 Y34.2830 
G01 X-46.0875 Y34.3679 
G01 X-45.9463 Y34.4264 
G01 X-45.7964 Y34.4562 
G01 X-45.6436 Y34.4562 
G01 X-45.4937 Y34.4264 
G01 X-45.3525 Y34.3679 
G01 X-45.2255 Y34.2830 
G01 X-45.1174 Y34.1749 
G01 X-45.0325 Y34.0479 
G01 X-44.9740 Y33.9067 
G01 X-44.9442 Y33.7568 
G01 X-44.9442 Y32.2832 
G01 X-44.9740 Y32.1333 
G01 X-45.0325 Y31.9921 
G01 X-45.1174 Y31.8651 
G01 X-45.2255 Y31.7570 
G01 X-45.3525 Y31.6721 
G01 X-45.4937 Y31.6136 
G01 X-45.6436 Y31.5838 
G01 X-45.7964 Y31.5838 
G01 X-45.9463 Y31.6136 
G01 X-46.0875 Y31.6721 
G01 X-46.2145 Y31.7570 
G01 X-46.3226 Y31.8651 
G01 X-46.4075 Y31.9921 
G01 X-46.4660 Y32.1333 
G01 X-46.4958 Y32.2832 
G00 Z2.5400 
G00 X-49.0358 Y32.2832 
G01 Z-0.1500 F254.00 
G01 X-49.0358 Y33.7568 F508.00 
G01 X-49.0060 Y33.9067 
G01 X-48.9475 Y34.0479 
G01 X-48.8626 Y34.1749 
G01 X-48.7545 Y34.2830 
G01 X-48.6275 Y34.3679 
G01 X-48.4863 Y34.4264 
G01 X-48.3364 Y34.4562 
G01 X-48.1836 Y34.4562 
G01 X-48.0337 Y34.4264 
G01 X-47.8925 Y34.3679 
G01 X-47.7655 Y34.2830 
G01 X-47.6574 Y34.1749 
G01 X-47.5725 Y34.0479 
G01 X-47.5140 Y33.9067 
G01 X-47.4842 Y33.7568 
G01 X-47.4842 Y32.2832 
G01 X-47.5140 Y32.1333 
G01 X-47.5725 Y31.9921 
G01 X-47.6574 Y31.8651 
G01 X-47.7655 Y31.7570 
G01 X-47.8925 Y31.6721 
G01 X-48.0337 Y31.6136 
G01 X-48.1836 Y31.5838 
G01 X-48.3364 Y31.5838 
G01 X-48.4863 Y31.6136 
G01 X-48.6275 Y31.6721 
G01 X-48.7545 Y31.7570 
G01 X-48.8626 Y31.8651 
G01 X-48.9475 Y31.9921 
G01 X-49.0060 Y32.1333 
G01 X-49.0358 Y32.2832 
G00 Z2.5400 
G00 X-51.5758 Y33.7568 
G01 Z-0.1500 F254.00 
G01 X-51.5460 Y33.9067 F508.00 
G01 X-51.4875 Y34.0479 
G01 X-51.4026 Y34.1749 
G01 X-51.2945 Y34.2830 
G01 X-51.1675 Y34.3679 
G01 X-51.0263 Y34.4264 
G01 X-50.8764 Y34.4562 
G01 X-50.7236 Y34.4562 
G01 X-50.5737 Y34.4264 
G01 X-50.4325 Y34.3679 
G01 X-50.3055 Y34.2830 
G01 X-50.1974 Y34.1749 
G01 X-50.1125 Y34.0479 
G01 X-50.0540 Y33.9067 
G01 X-50.0242 Y33.7568 
G01 X-50.0242 Y32.2832 
G01 X-50.0540 Y32.1333 
G01 X-50.1125 Y31.9921 
G01 X-50.1974 Y31.8651 
G01 X-50.3055 Y31.7570 
G01 X-50.4325 Y31.6721 
G01 X-50.5737 Y31.6136 
G01 X-50.7236 Y31.5838 
G01 X-50.8764 Y31.5838 
G01 X-51.0263 Y31.6136 
G01 X-51.1675 Y31.6721 
G01 X-51.2945 Y31.7570 
G01 X-51.4026 Y31.8651 
G01 X-51.4865 Y31.9907 
G01 X-53.1345 Y30.3427 
G01 X-53.2027 Y30.2745 
G01 X-53.2918 Y30.2376 
G01 X-69.8982 Y30.2376 
G01 X-69.9873 Y30.2745 
G01 X-75.0673 Y35.3545 
G01 X-75.1355 Y35.4227 
G01 X-75.1724 Y35.5118 
G01 X-75.1724 Y38.1482 
G01 X-75.1355 Y38.2373 
G01 X-75.0673 Y38.3055 
G01 X-74.9782 Y38.3424 
G01 X-73.9984 Y38.3424 
G01 X-73.9957 Y38.3559 
G01 X-73.9295 Y38.5156 
G01 X-73.8335 Y38.6593 
G01 X-73.7113 Y38.7815 
G01 X-73.5676 Y38.8775 
G01 X-73.4079 Y38.9437 
G01 X-73.2384 Y38.9774 
G01 X-71.5416 Y38.9774 
G01 X-71.3721 Y38.9437 
G01 X-71.2124 Y38.8775 
G01 X-71.0687 Y38.7815 
G01 X-70.9465 Y38.6593 
G01 X-70.8505 Y38.5156 
G01 X-70.7843 Y38.3559 
G01 X-70.7506 Y38.1864 
G01 X-70.7506 Y38.0136 
G01 X-70.7843 Y37.8441 
G01 X-70.8505 Y37.6844 
G01 X-70.9465 Y37.5407 
G01 X-71.0687 Y37.4185 
G01 X-71.2124 Y37.3225 
G01 X-71.3721 Y37.2563 
G01 X-71.5416 Y37.2226 
G01 X-73.2384 Y37.2226 
G01 X-73.4079 Y37.2563 
G01 X-73.5676 Y37.3225 
G01 X-73.7113 Y37.4185 
G01 X-73.8335 Y37.5407 
G01 X-73.9295 Y37.6844 
G01 X-73.9957 Y37.8441 
G01 X-73.9984 Y37.8576 
G01 X-74.6876 Y37.8576 
G01 X-74.6876 Y35.6604 
G01 X-69.7496 Y30.7224 
G01 X-53.4404 Y30.7224 
G01 X-51.5758 Y32.5870 
G01 X-51.5758 Y33.7568 
G00 Z2.5400 
G00 X-54.1158 Y32.2832 
G01 Z-0.1500 F254.00 
G01 X-54.1158 Y33.7568 F508.00 
G01 X-54.0860 Y33.9067 
G01 X-54.0275 Y34.0479 
G01 X-53.9426 Y34.1749 
G01 X-53.8345 Y34.2830 
G01 X-53.7075 Y34.3679 
G01 X-53.5663 Y34.4264 
G01 X-53.4164 Y34.4562 
G01 X-53.2636 Y34.4562 
G01 X-53.1137 Y34.4264 
G01 X-52.9725 Y34.3679 
G01 X-52.8455 Y34.2830 
G01 X-52.7374 Y34.1749 
G01 X-52.6525 Y34.0479 
G01 X-52.5940 Y33.9067 
G01 X-52.5642 Y33.7568 
G01 X-52.5642 Y32.2832 
G01 X-52.5940 Y32.1333 
G01 X-52.6525 Y31.9921 
G01 X-52.7374 Y31.8651 
G01 X-52.8455 Y31.7570 
G01 X-52.9725 Y31.6721 
G01 X-53.1137 Y31.6136 
G01 X-53.2636 Y31.5838 
G01 X-53.4164 Y31.5838 
G01 X-53.5663 Y31.6136 
G01 X-53.7075 Y31.6721 
G01 X-53.8345 Y31.7570 
G01 X-53.9426 Y31.8651 
G01 X-54.0275 Y31.9921 
G01 X-54.0860 Y32.1333 
G01 X-54.1158 Y32.2832 
G00 Z2.5400 
G00 X-56.6558 Y32.2832 
G01 Z-0.1500 F254.00 
G01 X-56.6558 Y33.7568 F508.00 
G01 X-56.6260 Y33.9067 
G01 X-56.5675 Y34.0479 
G01 X-56.4826 Y34.1749 
G01 X-56.3745 Y34.2830 
G01 X-56.2475 Y34.3679 
G01 X-56.1063 Y34.4264 
G01 X-55.9564 Y34.4562 
G01 X-55.8036 Y34.4562 
G01 X-55.6537 Y34.4264 
G01 X-55.5125 Y34.3679 
G01 X-55.3855 Y34.2830 
G01 X-55.2774 Y34.1749 
G01 X-55.1925 Y34.0479 
G01 X-55.1340 Y33.9067 
G01 X-55.1042 Y33.7568 
G01 X-55.1042 Y32.2832 
G01 X-55.1340 Y32.1333 
G01 X-55.1925 Y31.9921 
G01 X-55.2774 Y31.8651 
G01 X-55.3855 Y31.7570 
G01 X-55.5125 Y31.6721 
G01 X-55.6537 Y31.6136 
G01 X-55.8036 Y31.5838 
G01 X-55.9564 Y31.5838 
G01 X-56.1063 Y31.6136 
G01 X-56.2475 Y31.6721 
G01 X-56.3745 Y31.7570 
G01 X-56.4826 Y31.8651 
G01 X-56.5675 Y31.9921 
G01 X-56.6260 Y32.1333 
G01 X-56.6558 Y32.2832 
G00 Z2.5400 
G00 X-59.1958 Y32.2832 
G01 Z-0.1500 F254.00 
G01 X-59.1958 Y33.7568 F508.00 
G01 X-59.1660 Y33.9067 
G01 X-59.1075 Y34.0479 
G01 X-59.0226 Y34.1749 
G01 X-58.9145 Y34.2830 
G01 X-58.7875 Y34.3679 
G01 X-58.6463 Y34.4264 
G01 X-58.4964 Y34.4562 
G01 X-58.3436 Y34.4562 
G01 X-58.1937 Y34.4264 
G01 X-58.0525 Y34.3679 
G01 X-57.9255 Y34.2830 
G01 X-57.8174 Y34.1749 
G01 X-57.7325 Y34.0479 
G01 X-57.6740 Y33.9067 
G01 X-57.6442 Y33.7568 
G01 X-57.6442 Y32.2832 
G01 X-57.6740 Y32.1333 
G01 X-57.7325 Y31.9921 
G01 X-57.8174 Y31.8651 
G01 X-57.9255 Y31.7570 
G01 X-58.0525 Y31.6721 
G01 X-58.1937 Y31.6136 
G01 X-58.3436 Y31.5838 
G01 X-58.4964 Y31.5838 
G01 X-58.6463 Y31.6136 
G01 X-58.7875 Y31.6721 
G01 X-58.9145 Y31.7570 
G01 X-59.0226 Y31.8651 
G01 X-59.1075 Y31.9921 
G01 X-59.1660 Y32.1333 
G01 X-59.1958 Y32.2832 
G00 Z2.5400 
G00 X-61.7358 Y32.2832 
G01 Z-0.1500 F254.00 
G01 X-61.7358 Y33.7568 F508.00 
G01 X-61.7060 Y33.9067 
G01 X-61.6475 Y34.0479 
G01 X-61.5626 Y34.1749 
G01 X-61.4545 Y34.2830 
G01 X-61.3275 Y34.3679 
G01 X-61.1863 Y34.4264 
G01 X-61.0364 Y34.4562 
G01 X-60.8836 Y34.4562 
G01 X-60.7337 Y34.4264 
G01 X-60.5925 Y34.3679 
G01 X-60.4655 Y34.2830 
G01 X-60.3574 Y34.1749 
G01 X-60.2725 Y34.0479 
G01 X-60.2140 Y33.9067 
G01 X-60.1842 Y33.7568 
G01 X-60.1842 Y32.2832 
G01 X-60.2140 Y32.1333 
G01 X-60.2725 Y31.9921 
G01 X-60.3574 Y31.8651 
G01 X-60.4655 Y31.7570 
G01 X-60.5925 Y31.6721 
G01 X-60.7337 Y31.6136 
G01 X-60.8836 Y31.5838 
G01 X-61.0364 Y31.5838 
G01 X-61.1863 Y31.6136 
G01 X-61.3275 Y31.6721 
G01 X-61.4545 Y31.7570 
G01 X-61.5626 Y31.8651 
G01 X-61.6475 Y31.9921 
G01 X-61.7060 Y32.1333 
G01 X-61.7358 Y32.2832 
G00 Z2.5400 
G00 X-64.2758 Y32.2832 
G01 Z-0.1500 F254.00 
G01 X-64.2758 Y33.7568 F508.00 
G01 X-64.2460 Y33.9067 
G01 X-64.1875 Y34.0479 
G01 X-64.1026 Y34.1749 
G01 X-63.9945 Y34.2830 
G01 X-63.8675 Y34.3679 
G01 X-63.7263 Y34.4264 
G01 X-63.5764 Y34.4562 
G01 X-63.4236 Y34.4562 
G01 X-63.2737 Y34.4264 
G01 X-63.1325 Y34.3679 
G01 X-63.0055 Y34.2830 
G01 X-62.8974 Y34.1749 
G01 X-62.8125 Y34.0479 
G01 X-62.7540 Y33.9067 
G01 X-62.7242 Y33.7568 
G01 X-62.7242 Y32.2832 
G01 X-62.7540 Y32.1333 
G01 X-62.8125 Y31.9921 
G01 X-62.8974 Y31.8651 
G01 X-63.0055 Y31.7570 
G01 X-63.1325 Y31.6721 
G01 X-63.2737 Y31.6136 
G01 X-63.4236 Y31.5838 
G01 X-63.5764 Y31.5838 
G01 X-63.7263 Y31.6136 
G01 X-63.8675 Y31.6721 
G01 X-63.9945 Y31.7570 
G01 X-64.1026 Y31.8651 
G01 X-64.1875 Y31.9921 
G01 X-64.2460 Y32.1333 
G01 X-64.2758 Y32.2832 
G00 Z2.5400 
G00 X-62.6226 Y5.9284 
G01 Z-0.1500 F254.00 
G01 X-62.6226 Y4.2316 F508.00 
G01 X-62.6563 Y4.0621 
G01 X-62.7225 Y3.9024 
G01 X-62.8185 Y3.7587 
G01 X-62.9407 Y3.6365 
G01 X-63.0844 Y3.5405 
G01 X-63.2441 Y3.4743 
G01 X-63.4136 Y3.4406 
G01 X-63.5864 Y3.4406 
G01 X-63.7559 Y3.4743 
G01 X-63.9156 Y3.5405 
G01 X-64.0593 Y3.6365 
G01 X-64.1815 Y3.7587 
G01 X-64.2775 Y3.9024 
G01 X-64.3437 Y4.0621 
G01 X-64.3774 Y4.2316 
G01 X-64.3774 Y5.9284 
G01 X-64.3437 Y6.0979 
G01 X-64.2775 Y6.2576 
G01 X-64.1815 Y6.4013 
G01 X-64.0593 Y6.5235 
G01 X-63.9156 Y6.6195 
G01 X-63.7559 Y6.6857 
G01 X-63.5864 Y6.7194 
G01 X-63.4136 Y6.7194 
G01 X-63.2441 Y6.6857 
G01 X-63.0844 Y6.6195 
G01 X-62.9407 Y6.5235 
G01 X-62.8185 Y6.4013 
G01 X-62.7225 Y6.2576 
G01 X-62.6563 Y6.0979 
G01 X-62.6226 Y5.9284 
G00 Z2.5400 
G00 X-60.0826 Y5.9284 
G01 Z-0.1500 F254.00 
G01 X-60.0826 Y4.2316 F508.00 
G01 X-60.1163 Y4.0621 
G01 X-60.1825 Y3.9024 
G01 X-60.2785 Y3.7587 
G01 X-60.4007 Y3.6365 
G01 X-60.5444 Y3.5405 
G01 X-60.7041 Y3.4743 
G01 X-60.8736 Y3.4406 
G01 X-61.0464 Y3.4406 
G01 X-61.2159 Y3.4743 
G01 X-61.3756 Y3.5405 
G01 X-61.5193 Y3.6365 
G01 X-61.6415 Y3.7587 
G01 X-61.7375 Y3.9024 
G01 X-61.8037 Y4.0621 
G01 X-61.8374 Y4.2316 
G01 X-61.8374 Y5.9284 
G01 X-61.8037 Y6.0979 
G01 X-61.7375 Y6.2576 
G01 X-61.6415 Y6.4013 
G01 X-61.5193 Y6.5235 
G01 X-61.3756 Y6.6195 
G01 X-61.2159 Y6.6857 
G01 X-61.0464 Y6.7194 
G01 X-60.8736 Y6.7194 
G01 X-60.7041 Y6.6857 
G01 X-60.5444 Y6.6195 
G01 X-60.4007 Y6.5235 
G01 X-60.2785 Y6.4013 
G01 X-60.1825 Y6.2576 
G01 X-60.1163 Y6.0979 
G01 X-60.0826 Y5.9284 
G00 Z2.5400 
G00 X-57.5426 Y5.9284 
G01 Z-0.1500 F254.00 
G01 X-57.5426 Y4.2316 F508.00 
G01 X-57.5763 Y4.0621 
G01 X-57.6425 Y3.9024 
G01 X-57.7385 Y3.7587 
G01 X-57.8607 Y3.6365 
G01 X-58.0044 Y3.5405 
G01 X-58.1641 Y3.4743 
G01 X-58.3336 Y3.4406 
G01 X-58.5064 Y3.4406 
G01 X-58.6759 Y3.4743 
G01 X-58.8356 Y3.5405 
G01 X-58.9793 Y3.6365 
G01 X-59.1015 Y3.7587 
G01 X-59.1975 Y3.9024 
G01 X-59.2637 Y4.0621 
G01 X-59.2974 Y4.2316 
G01 X-59.2974 Y5.9284 
G01 X-59.2637 Y6.0979 
G01 X-59.1975 Y6.2576 
G01 X-59.1015 Y6.4013 
G01 X-58.9793 Y6.5235 
G01 X-58.8356 Y6.6195 
G01 X-58.6759 Y6.6857 
G01 X-58.5064 Y6.7194 
G01 X-58.3336 Y6.7194 
G01 X-58.1641 Y6.6857 
G01 X-58.0044 Y6.6195 
G01 X-57.8607 Y6.5235 
G01 X-57.7385 Y6.4013 
G01 X-57.6425 Y6.2576 
G01 X-57.5763 Y6.0979 
G01 X-57.5426 Y5.9284 
G00 Z2.5400 
G00 X-55.0026 Y5.9284 
G01 Z-0.1500 F254.00 
G01 X-55.0026 Y4.2316 F508.00 
G01 X-55.0363 Y4.0621 
G01 X-55.1025 Y3.9024 
G01 X-55.1985 Y3.7587 
G01 X-55.3207 Y3.6365 
G01 X-55.4644 Y3.5405 
G01 X-55.6241 Y3.4743 
G01 X-55.7936 Y3.4406 
G01 X-55.9664 Y3.4406 
G01 X-56.1359 Y3.4743 
G01 X-56.2956 Y3.5405 
G01 X-56.4393 Y3.6365 
G01 X-56.5615 Y3.7587 
G01 X-56.6575 Y3.9024 
G01 X-56.7237 Y4.0621 
G01 X-56.7574 Y4.2316 
G01 X-56.7574 Y5.9284 
G01 X-56.7237 Y6.0979 
G01 X-56.6575 Y6.2576 
G01 X-56.5615 Y6.4013 
G01 X-56.4393 Y6.5235 
G01 X-56.2956 Y6.6195 
G01 X-56.1359 Y6.6857 
G01 X-55.9664 Y6.7194 
G01 X-55.7936 Y6.7194 
G01 X-55.6241 Y6.6857 
G01 X-55.4644 Y6.6195 
G01 X-55.3207 Y6.5235 
G01 X-55.1985 Y6.4013 
G01 X-55.1025 Y6.2576 
G01 X-55.0363 Y6.0979 
G01 X-55.0026 Y5.9284 
G00 Z2.5400 
G00 X-58.0655 Y44.0708 
G01 Z-0.1500 F254.00 
G01 X-58.0655 Y44.8292 F508.00 
G01 X-57.5292 Y45.3655 
G01 X-56.7708 Y45.3655 
G01 X-56.2345 Y44.8292 
G01 X-56.2345 Y44.0708 
G01 X-56.7708 Y43.5345 
G01 X-57.5292 Y43.5345 
G01 X-58.0655 Y44.0708 
G00 Z2.5400 
G00 X-58.0655 Y49.1508 
G01 Z-0.1500 F254.00 
G01 X-58.0655 Y49.9092 F508.00 
G01 X-57.5292 Y50.4455 
G01 X-56.7708 Y50.4455 
G01 X-56.2345 Y49.9092 
G01 X-56.2345 Y49.1508 
G01 X-56.7708 Y48.6145 
G01 X-57.5292 Y48.6145 
G01 X-58.0655 Y49.1508 
G00 Z2.5400 
G00 X-58.0655 Y51.6908 
G01 Z-0.1500 F254.00 
G01 X-58.0655 Y52.4492 F508.00 
G01 X-57.5292 Y52.9855 
G01 X-56.7708 Y52.9855 
G01 X-56.2345 Y52.4492 
G01 X-56.2345 Y51.6908 
G01 X-56.7708 Y51.1545 
G01 X-57.5292 Y51.1545 
G01 X-57.6260 Y51.2512 
G01 X-60.8227 Y48.0545 
G01 X-60.9118 Y48.0176 
G01 X-79.7676 Y48.0176 
G01 X-79.7676 Y28.0404 
G01 X-72.9246 Y21.1974 
G01 X-71.5416 Y21.1974 
G01 X-71.3721 Y21.1637 
G01 X-71.2124 Y21.0975 
G01 X-71.0687 Y21.0015 
G01 X-70.9465 Y20.8793 
G01 X-70.8505 Y20.7356 
G01 X-70.7843 Y20.5759 
G01 X-70.7506 Y20.4064 
G01 X-70.7506 Y20.2336 
G01 X-70.7843 Y20.0641 
G01 X-70.8505 Y19.9044 
G01 X-70.9465 Y19.7607 
G01 X-71.0687 Y19.6385 
G01 X-71.2124 Y19.5425 
G01 X-71.3721 Y19.4763 
G01 X-71.5416 Y19.4426 
G01 X-73.2384 Y19.4426 
G01 X-73.4079 Y19.4763 
G01 X-73.5676 Y19.5425 
G01 X-73.7113 Y19.6385 
G01 X-73.8335 Y19.7607 
G01 X-73.9295 Y19.9044 
G01 X-73.9957 Y20.0641 
G01 X-74.0294 Y20.2336 
G01 X-74.0294 Y20.4064 
G01 X-73.9957 Y20.5759 
G01 X-73.9295 Y20.7356 
G01 X-73.8335 Y20.8793 
G01 X-73.7113 Y21.0015 
G01 X-73.5676 Y21.0975 
G01 X-73.5271 Y21.1143 
G01 X-80.1473 Y27.7345 
G01 X-80.2155 Y27.8027 
G01 X-80.2524 Y27.8918 
G01 X-80.2524 Y48.3082 
G01 X-80.2155 Y48.3973 
G01 X-80.1473 Y48.4655 
G01 X-80.0582 Y48.5024 
G01 X-61.0604 Y48.5024 
G01 X-57.9688 Y51.5940 
G01 X-58.0655 Y51.6908 
G00 Z2.5400 
G00 X-65.6855 Y51.6908 
G01 Z-0.1500 F254.00 
G01 X-65.6855 Y52.4492 F508.00 
G01 X-65.1492 Y52.9855 
G01 X-64.3908 Y52.9855 
G01 X-63.8545 Y52.4492 
G01 X-63.8545 Y51.6908 
G01 X-63.9512 Y51.5940 
G01 X-62.4647 Y50.1075 
G01 X-62.4118 Y50.1294 
G01 X-62.2914 Y50.1534 
G01 X-62.1686 Y50.1534 
G01 X-62.0482 Y50.1294 
G01 X-61.9347 Y50.0824 
G01 X-61.8326 Y50.0142 
G01 X-61.7458 Y49.9274 
G01 X-61.6776 Y49.8253 
G01 X-61.6306 Y49.7118 
G01 X-61.6066 Y49.5914 
G01 X-61.6066 Y49.4686 
G01 X-61.6306 Y49.3482 
G01 X-61.6776 Y49.2347 
G01 X-61.7458 Y49.1326 
G01 X-61.8326 Y49.0458 
G01 X-61.9347 Y48.9776 
G01 X-62.0482 Y48.9306 
G01 X-62.1686 Y48.9066 
G01 X-62.2914 Y48.9066 
G01 X-62.4118 Y48.9306 
G01 X-62.5253 Y48.9776 
G01 X-62.6274 Y49.0458 
G01 X-62.7142 Y49.1326 
G01 X-62.7824 Y49.2347 
G01 X-62.8294 Y49.3482 
G01 X-62.8534 Y49.4686 
G01 X-62.8534 Y49.5914 
G01 X-62.8294 Y49.7118 
G01 X-62.8075 Y49.7647 
G01 X-64.2940 Y51.2512 
G01 X-64.3908 Y51.1545 
G01 X-65.1492 Y51.1545 
G01 X-65.6855 Y51.6908 
G00 Z2.5400 
G00 X-65.6855 Y49.1508 
G01 Z-0.1500 F254.00 
G01 X-65.6855 Y49.9092 F508.00 
G01 X-65.1492 Y50.4455 
G01 X-64.3908 Y50.4455 
G01 X-63.8545 Y49.9092 
G01 X-63.8545 Y49.1508 
G01 X-64.3908 Y48.6145 
G01 X-65.1492 Y48.6145 
G01 X-65.6855 Y49.1508 
G00 Z2.5400 
G00 X-65.6855 Y46.6108 
G01 Z-0.1500 F254.00 
G01 X-65.6855 Y47.3692 F508.00 
G01 X-65.1492 Y47.9055 
G01 X-64.3908 Y47.9055 
G01 X-63.8545 Y47.3692 
G01 X-63.8545 Y46.6108 
G01 X-64.3908 Y46.0745 
G01 X-65.1492 Y46.0745 
G01 X-65.6855 Y46.6108 
G00 Z2.5400 
G00 X-65.6855 Y44.0708 
G01 Z-0.1500 F254.00 
G01 X-65.6855 Y44.8292 F508.00 
G01 X-65.1492 Y45.3655 
G01 X-64.3908 Y45.3655 
G01 X-63.8545 Y44.8292 
G01 X-63.8545 Y44.0708 
G01 X-64.3908 Y43.5345 
G01 X-65.1492 Y43.5345 
G01 X-65.6855 Y44.0708 
G00 Z2.5400 
G00 X-44.6416 Y59.6086 
G01 Z-0.1500 F254.00 
G01 X-44.6416 Y59.7714 F508.00 
G01 X-44.6098 Y59.9311 
G01 X-44.5475 Y60.0815 
G01 X-44.4571 Y60.2169 
G01 X-44.3419 Y60.3321 
G01 X-44.2065 Y60.4225 
G01 X-44.0561 Y60.4848 
G01 X-43.8964 Y60.5166 
G01 X-43.7336 Y60.5166 
G01 X-43.5739 Y60.4848 
G01 X-43.4235 Y60.4225 
G01 X-43.2881 Y60.3321 
G01 X-43.1729 Y60.2169 
G01 X-43.0825 Y60.0815 
G01 X-43.0202 Y59.9311 
G01 X-42.9884 Y59.7714 
G01 X-42.9884 Y59.6086 
G01 X-43.0202 Y59.4489 
G01 X-43.0825 Y59.2985 
G01 X-43.1729 Y59.1631 
G01 X-43.2881 Y59.0479 
G01 X-43.4235 Y58.9575 
G01 X-43.5739 Y58.8952 
G01 X-43.7336 Y58.8634 
G01 X-43.8964 Y58.8634 
G01 X-44.0561 Y58.8952 
G01 X-44.2065 Y58.9575 
G01 X-44.3419 Y59.0479 
G01 X-44.4571 Y59.1631 
G01 X-44.5475 Y59.2985 
G01 X-44.6098 Y59.4489 
G01 X-44.6416 Y59.6086 
G00 Z2.5400 
G00 X-75.3861 Y66.1353 
G01 Z-0.1500 F254.00 
G01 X-75.3861 Y64.2989 F508.00 
G01 X-69.7496 Y58.6624 
G01 X-27.8918 Y58.6624 
G01 X-27.8027 Y58.6255 
G01 X-26.7480 Y57.5708 
G01 X-26.6771 Y57.6769 
G01 X-26.5619 Y57.7921 
G01 X-26.4265 Y57.8825 
G01 X-26.2761 Y57.9448 
G01 X-26.1164 Y57.9766 
G01 X-25.9536 Y57.9766 
G01 X-25.7939 Y57.9448 
G01 X-25.6435 Y57.8825 
G01 X-25.5081 Y57.7921 
G01 X-25.3929 Y57.6769 
G01 X-25.3025 Y57.5415 
G01 X-25.2402 Y57.3911 
G01 X-25.2084 Y57.2314 
G01 X-25.2084 Y57.0686 
G01 X-25.2402 Y56.9089 
G01 X-25.3025 Y56.7585 
G01 X-25.3929 Y56.6231 
G01 X-25.5081 Y56.5079 
G01 X-25.6435 Y56.4175 
G01 X-25.7939 Y56.3552 
G01 X-25.9536 Y56.3234 
G01 X-26.1164 Y56.3234 
G01 X-26.2761 Y56.3552 
G01 X-26.4265 Y56.4175 
G01 X-26.5619 Y56.5079 
G01 X-26.6771 Y56.6231 
G01 X-26.7675 Y56.7585 
G01 X-26.8298 Y56.9089 
G01 X-26.8443 Y56.9815 
G01 X-26.8755 Y57.0127 
G01 X-28.0404 Y58.1776 
G01 X-37.9996 Y58.1776 
G01 X-39.1645 Y57.0127 
G01 X-39.1957 Y56.9815 
G01 X-39.2102 Y56.9089 
G01 X-39.2725 Y56.7585 
G01 X-39.3629 Y56.6231 
G01 X-39.4781 Y56.5079 
G01 X-39.6135 Y56.4175 
G01 X-39.7639 Y56.3552 
G01 X-39.9236 Y56.3234 
G01 X-40.0864 Y56.3234 
G01 X-40.2461 Y56.3552 
G01 X-40.3965 Y56.4175 
G01 X-40.5319 Y56.5079 
G01 X-40.6471 Y56.6231 
G01 X-40.7375 Y56.7585 
G01 X-40.7998 Y56.9089 
G01 X-40.8316 Y57.0686 
G01 X-40.8316 Y57.2314 
G01 X-40.7998 Y57.3911 
G01 X-40.7375 Y57.5415 
G01 X-40.6471 Y57.6769 
G01 X-40.5319 Y57.7921 
G01 X-40.3965 Y57.8825 
G01 X-40.2461 Y57.9448 
G01 X-40.0864 Y57.9766 
G01 X-39.9236 Y57.9766 
G01 X-39.7639 Y57.9448 
G01 X-39.6135 Y57.8825 
G01 X-39.4781 Y57.7921 
G01 X-39.3629 Y57.6769 
G01 X-39.2920 Y57.5708 
G01 X-38.6852 Y58.1776 
G01 X-69.8982 Y58.1776 
G01 X-69.9873 Y58.2145 
G01 X-70.0555 Y58.2827 
G01 X-75.3861 Y63.6133 
G01 X-75.3861 Y63.4047 
G01 X-75.4199 Y63.1913 
G01 X-75.4867 Y62.9858 
G01 X-75.5848 Y62.7932 
G01 X-75.7118 Y62.6184 
G01 X-75.8645 Y62.4657 
G01 X-76.0393 Y62.3387 
G01 X-76.2319 Y62.2406 
G01 X-76.4374 Y62.1738 
G01 X-76.6508 Y62.1400 
G01 X-76.8668 Y62.1400 
G01 X-77.0802 Y62.1738 
G01 X-77.2857 Y62.2406 
G01 X-77.4783 Y62.3387 
G01 X-77.6531 Y62.4657 
G01 X-77.8058 Y62.6184 
G01 X-77.9328 Y62.7932 
G01 X-78.0309 Y62.9858 
G01 X-78.0977 Y63.1913 
G01 X-78.1315 Y63.4047 
G01 X-78.1315 Y66.1353 
G01 X-78.0977 Y66.3487 
G01 X-78.0309 Y66.5542 
G01 X-77.9328 Y66.7468 
G01 X-77.8058 Y66.9216 
G01 X-77.6531 Y67.0743 
G01 X-77.4783 Y67.2013 
G01 X-77.2857 Y67.2994 
G01 X-77.0802 Y67.3662 
G01 X-76.8668 Y67.4000 
G01 X-76.6508 Y67.4000 
G01 X-76.4374 Y67.3662 
G01 X-76.2319 Y67.2994 
G01 X-76.0393 Y67.2013 
G01 X-75.8645 Y67.0743 
G01 X-75.7118 Y66.9216 
G01 X-75.5848 Y66.7468 
G01 X-75.4867 Y66.5542 
G01 X-75.4199 Y66.3487 
G01 X-75.3861 Y66.1353 
G00 Z2.5400 
G00 X-79.3485 Y66.1353 
G01 Z-0.1500 F254.00 
G01 X-79.3485 Y63.4047 F508.00 
G01 X-79.3823 Y63.1913 
G01 X-79.4491 Y62.9858 
G01 X-79.5472 Y62.7932 
G01 X-79.6742 Y62.6184 
G01 X-79.8269 Y62.4657 
G01 X-80.0017 Y62.3387 
G01 X-80.1943 Y62.2406 
G01 X-80.3998 Y62.1738 
G01 X-80.6132 Y62.1400 
G01 X-80.8292 Y62.1400 
G01 X-81.0426 Y62.1738 
G01 X-81.2481 Y62.2406 
G01 X-81.4407 Y62.3387 
G01 X-81.6155 Y62.4657 
G01 X-81.7682 Y62.6184 
G01 X-81.8952 Y62.7932 
G01 X-81.9933 Y62.9858 
G01 X-82.0601 Y63.1913 
G01 X-82.0939 Y63.4047 
G01 X-82.0939 Y66.1353 
G01 X-82.0601 Y66.3487 
G01 X-81.9933 Y66.5542 
G01 X-81.8952 Y66.7468 
G01 X-81.7682 Y66.9216 
G01 X-81.6155 Y67.0743 
G01 X-81.4407 Y67.2013 
G01 X-81.2481 Y67.2994 
G01 X-81.0426 Y67.3662 
G01 X-80.8292 Y67.4000 
G01 X-80.6132 Y67.4000 
G01 X-80.3998 Y67.3662 
G01 X-80.1943 Y67.2994 
G01 X-80.0017 Y67.2013 
G01 X-79.8269 Y67.0743 
G01 X-79.6742 Y66.9216 
G01 X-79.5472 Y66.7468 
G01 X-79.4491 Y66.5542 
G01 X-79.3823 Y66.3487 
G01 X-79.3485 Y66.1353 
G00 Z2.5400 
G00 X-1.6079 Y58.7364 
G01 Z-0.1500 F254.00 
G01 X-3.4721 Y58.7364 F508.00 
G01 X-3.6564 Y58.7730 
G01 X-3.8299 Y58.8449 
G01 X-3.9861 Y58.9493 
G01 X-4.1189 Y59.0821 
G01 X-4.2233 Y59.2383 
G01 X-4.2952 Y59.4118 
G01 X-4.3318 Y59.5961 
G01 X-4.3318 Y59.7839 
G01 X-4.2952 Y59.9682 
G01 X-4.2233 Y60.1417 
G01 X-4.1189 Y60.2979 
G01 X-3.9861 Y60.4307 
G01 X-3.8299 Y60.5351 
G01 X-3.6564 Y60.6070 
G01 X-3.4721 Y60.6436 
G01 X-1.6079 Y60.6436 
G01 X-1.4236 Y60.6070 
G01 X-1.2501 Y60.5351 
G01 X-1.0939 Y60.4307 
G01 X-0.9611 Y60.2979 
G01 X-0.8567 Y60.1417 
G01 X-0.7848 Y59.9682 
G01 X-0.7482 Y59.7839 
G01 X-0.7482 Y59.5961 
G01 X-0.7848 Y59.4118 
G01 X-0.8567 Y59.2383 
G01 X-0.9611 Y59.0821 
G01 X-1.0939 Y58.9493 
G01 X-1.2501 Y58.8449 
G01 X-1.4236 Y58.7730 
G01 X-1.6079 Y58.7364 
G00 Z2.5400 
G00 X-1.6079 Y54.9264 
G01 Z-0.1500 F254.00 
G01 X-3.4721 Y54.9264 F508.00 
G01 X-3.6564 Y54.9630 
G01 X-3.8299 Y55.0349 
G01 X-3.9861 Y55.1393 
G01 X-4.1189 Y55.2721 
G01 X-4.2233 Y55.4283 
G01 X-4.2952 Y55.6018 
G01 X-4.3318 Y55.7861 
G01 X-4.3318 Y55.9739 
G01 X-4.2952 Y56.1582 
G01 X-4.2233 Y56.3317 
G01 X-4.1189 Y56.4879 
G01 X-3.9861 Y56.6207 
G01 X-3.8299 Y56.7251 
G01 X-3.7578 Y56.7549 
G01 X-5.1804 Y58.1776 
G01 X-12.2833 Y58.1776 
G01 X-12.4142 Y58.1109 
G01 X-12.5950 Y58.0521 
G01 X-12.7828 Y58.0224 
G01 X-15.1572 Y58.0224 
G01 X-15.3450 Y58.0521 
G01 X-15.5258 Y58.1109 
G01 X-15.6951 Y58.1972 
G01 X-15.8489 Y58.3089 
G01 X-15.9833 Y58.4433 
G01 X-16.0950 Y58.5971 
G01 X-16.1813 Y58.7664 
G01 X-16.2401 Y58.9472 
G01 X-16.2698 Y59.1350 
G01 X-16.2698 Y59.3250 
G01 X-16.2401 Y59.5128 
G01 X-16.1813 Y59.6936 
G01 X-16.0950 Y59.8629 
G01 X-15.9833 Y60.0167 
G01 X-15.8489 Y60.1511 
G01 X-15.6951 Y60.2628 
G01 X-15.5258 Y60.3491 
G01 X-15.3450 Y60.4079 
G01 X-15.1572 Y60.4376 
G01 X-12.7828 Y60.4376 
G01 X-12.5950 Y60.4079 
G01 X-12.4142 Y60.3491 
G01 X-12.2449 Y60.2628 
G01 X-12.0911 Y60.1511 
G01 X-11.9567 Y60.0167 
G01 X-11.8450 Y59.8629 
G01 X-11.7587 Y59.6936 
G01 X-11.6999 Y59.5128 
G01 X-11.6702 Y59.3250 
G01 X-11.6702 Y59.1350 
G01 X-11.6999 Y58.9472 
G01 X-11.7587 Y58.7664 
G01 X-11.8117 Y58.6624 
G01 X-5.0318 Y58.6624 
G01 X-4.9427 Y58.6255 
G01 X-4.8745 Y58.5573 
G01 X-3.1508 Y56.8336 
G01 X-1.6079 Y56.8336 
G01 X-1.4236 Y56.7970 
G01 X-1.2501 Y56.7251 
G01 X-1.0939 Y56.6207 
G01 X-0.9611 Y56.4879 
G01 X-0.8567 Y56.3317 
G01 X-0.7848 Y56.1582 
G01 X-0.7482 Y55.9739 
G01 X-0.7482 Y55.7861 
G01 X-0.7848 Y55.6018 
G01 X-0.8567 Y55.4283 
G01 X-0.9611 Y55.2721 
G01 X-1.0939 Y55.1393 
G01 X-1.2501 Y55.0349 
G01 X-1.4236 Y54.9630 
G01 X-1.6079 Y54.9264 
G00 Z2.5400 
G00 X-1.6079 Y51.1164 
G01 Z-0.1500 F254.00 
G01 X-3.4721 Y51.1164 F508.00 
G01 X-3.6564 Y51.1530 
G01 X-3.8299 Y51.2249 
G01 X-3.9861 Y51.3293 
G01 X-4.1189 Y51.4621 
G01 X-4.2233 Y51.6183 
G01 X-4.2952 Y51.7918 
G01 X-4.3318 Y51.9761 
G01 X-4.3318 Y52.1639 
G01 X-4.2952 Y52.3482 
G01 X-4.2233 Y52.5217 
G01 X-4.1189 Y52.6779 
G01 X-3.9861 Y52.8107 
G01 X-3.8299 Y52.9151 
G01 X-3.6564 Y52.9870 
G01 X-3.4721 Y53.0236 
G01 X-1.6079 Y53.0236 
G01 X-1.4236 Y52.9870 
G01 X-1.2501 Y52.9151 
G01 X-1.0939 Y52.8107 
G01 X-0.9611 Y52.6779 
G01 X-0.8567 Y52.5217 
G01 X-0.7848 Y52.3482 
G01 X-0.7482 Y52.1639 
G01 X-0.7482 Y51.9761 
G01 X-0.7848 Y51.7918 
G01 X-0.8567 Y51.6183 
G01 X-0.9611 Y51.4621 
G01 X-1.0939 Y51.3293 
G01 X-1.2501 Y51.2249 
G01 X-1.4236 Y51.1530 
G01 X-1.6079 Y51.1164 
G00 Z2.5400 
G00 X-10.3776 Y61.0428 
G01 Z-0.1500 F254.00 
G01 X-10.3776 Y63.4172 F508.00 
G01 X-10.3479 Y63.6050 
G01 X-10.2891 Y63.7858 
G01 X-10.2028 Y63.9551 
G01 X-10.0911 Y64.1089 
G01 X-9.9567 Y64.2433 
G01 X-9.8029 Y64.3550 
G01 X-9.6336 Y64.4413 
G01 X-9.4528 Y64.5001 
G01 X-9.2650 Y64.5298 
G01 X-9.0750 Y64.5298 
G01 X-8.8872 Y64.5001 
G01 X-8.7064 Y64.4413 
G01 X-8.5371 Y64.3550 
G01 X-8.3833 Y64.2433 
G01 X-8.2489 Y64.1089 
G01 X-8.1372 Y63.9551 
G01 X-8.0509 Y63.7858 
G01 X-7.9921 Y63.6050 
G01 X-7.9624 Y63.4172 
G01 X-7.9624 Y61.0428 
G01 X-7.9921 Y60.8550 
G01 X-8.0509 Y60.6742 
G01 X-8.1372 Y60.5049 
G01 X-8.2489 Y60.3511 
G01 X-8.3833 Y60.2167 
G01 X-8.5371 Y60.1050 
G01 X-8.7064 Y60.0187 
G01 X-8.8872 Y59.9599 
G01 X-9.0750 Y59.9302 
G01 X-9.2650 Y59.9302 
G01 X-9.4528 Y59.9599 
G01 X-9.6336 Y60.0187 
G01 X-9.8029 Y60.1050 
G01 X-9.9567 Y60.2167 
G01 X-10.0911 Y60.3511 
G01 X-10.2028 Y60.5049 
G01 X-10.2891 Y60.6742 
G01 X-10.3479 Y60.8550 
G01 X-10.3776 Y61.0428 
G00 Z2.5400 
G00 X-6.0334 Y65.8943 
G01 Z-0.1500 F254.00 
G01 X-6.0334 Y66.1857 F508.00 
G01 X-5.9954 Y66.4747 
G01 X-5.9199 Y66.7562 
G01 X-5.8084 Y67.0255 
G01 X-5.6627 Y67.2779 
G01 X-5.4852 Y67.5091 
G01 X-5.2791 Y67.7152 
G01 X-5.0479 Y67.8927 
G01 X-4.7955 Y68.0384 
G01 X-4.5262 Y68.1499 
G01 X-4.2447 Y68.2254 
G01 X-3.9557 Y68.2634 
G01 X-3.6643 Y68.2634 
G01 X-3.3753 Y68.2254 
G01 X-3.0938 Y68.1499 
G01 X-2.8245 Y68.0384 
G01 X-2.5721 Y67.8927 
G01 X-2.3409 Y67.7152 
G01 X-2.1348 Y67.5091 
G01 X-1.9573 Y67.2779 
G01 X-1.8116 Y67.0255 
G01 X-1.7001 Y66.7562 
G01 X-1.6246 Y66.4747 
G01 X-1.5866 Y66.1857 
G01 X-1.5866 Y65.8943 
G01 X-1.6246 Y65.6053 
G01 X-1.7001 Y65.3238 
G01 X-1.8116 Y65.0545 
G01 X-1.9573 Y64.8021 
G01 X-2.1348 Y64.5709 
G01 X-2.3409 Y64.3648 
G01 X-2.5721 Y64.1873 
G01 X-2.8245 Y64.0416 
G01 X-3.0938 Y63.9301 
G01 X-3.3753 Y63.8546 
G01 X-3.6643 Y63.8166 
G01 X-3.9557 Y63.8166 
G01 X-4.2447 Y63.8546 
G01 X-4.5262 Y63.9301 
G01 X-4.7955 Y64.0416 
G01 X-5.0479 Y64.1873 
G01 X-5.2791 Y64.3648 
G01 X-5.4852 Y64.5709 
G01 X-5.6627 Y64.8021 
G01 X-5.8084 Y65.0545 
G01 X-5.9199 Y65.3238 
G01 X-5.9954 Y65.6053 
G01 X-6.0334 Y65.8943 
G00 Z2.5400 
G00 X-6.0334 Y3.6643 
G01 Z-0.1500 F254.00 
G01 X-6.0334 Y3.9557 F508.00 
G01 X-5.9954 Y4.2447 
G01 X-5.9199 Y4.5262 
G01 X-5.8084 Y4.7955 
G01 X-5.6627 Y5.0479 
G01 X-5.4852 Y5.2791 
G01 X-5.2791 Y5.4852 
G01 X-5.0479 Y5.6627 
G01 X-4.7955 Y5.8084 
G01 X-4.5262 Y5.9199 
G01 X-4.2447 Y5.9954 
G01 X-3.9557 Y6.0334 
G01 X-3.6643 Y6.0334 
G01 X-3.3753 Y5.9954 
G01 X-3.0938 Y5.9199 
G01 X-2.8245 Y5.8084 
G01 X-2.5721 Y5.6627 
G01 X-2.3409 Y5.4852 
G01 X-2.1348 Y5.2791 
G01 X-1.9573 Y5.0479 
G01 X-1.8116 Y4.7955 
G01 X-1.7001 Y4.5262 
G01 X-1.6246 Y4.2447 
G01 X-1.5866 Y3.9557 
G01 X-1.5866 Y3.6643 
G01 X-1.6246 Y3.3753 
G01 X-1.7001 Y3.0938 
G01 X-1.8116 Y2.8245 
G01 X-1.9573 Y2.5721 
G01 X-2.1348 Y2.3409 
G01 X-2.3409 Y2.1348 
G01 X-2.5721 Y1.9573 
G01 X-2.8245 Y1.8116 
G01 X-3.0938 Y1.7001 
G01 X-3.3753 Y1.6246 
G01 X-3.6643 Y1.5866 
G01 X-3.9557 Y1.5866 
G01 X-4.2447 Y1.6246 
G01 X-4.5262 Y1.7001 
G01 X-4.7955 Y1.8116 
G01 X-5.0479 Y1.9573 
G01 X-5.2791 Y2.1348 
G01 X-5.4852 Y2.3409 
G01 X-5.6627 Y2.5721 
G01 X-5.8084 Y2.8245 
G01 X-5.9199 Y3.0938 
G01 X-5.9954 Y3.3753 
G01 X-6.0334 Y3.6643 
G00 Z2.5400 
G00 X-97.4734 Y65.8943 
G01 Z-0.1500 F254.00 
G01 X-97.4734 Y66.1857 F508.00 
G01 X-97.4354 Y66.4747 
G01 X-97.3599 Y66.7562 
G01 X-97.2484 Y67.0255 
G01 X-97.1027 Y67.2779 
G01 X-96.9252 Y67.5091 
G01 X-96.7191 Y67.7152 
G01 X-96.4879 Y67.8927 
G01 X-96.2355 Y68.0384 
G01 X-95.9662 Y68.1499 
G01 X-95.6847 Y68.2254 
G01 X-95.3957 Y68.2634 
G01 X-95.1043 Y68.2634 
G01 X-94.8153 Y68.2254 
G01 X-94.5338 Y68.1499 
G01 X-94.2645 Y68.0384 
G01 X-94.0121 Y67.8927 
G01 X-93.7809 Y67.7152 
G01 X-93.5748 Y67.5091 
G01 X-93.3973 Y67.2779 
G01 X-93.2516 Y67.0255 
G01 X-93.1401 Y66.7562 
G01 X-93.0646 Y66.4747 
G01 X-93.0266 Y66.1857 
G01 X-93.0266 Y65.8943 
G01 X-93.0646 Y65.6053 
G01 X-93.1401 Y65.3238 
G01 X-93.2516 Y65.0545 
G01 X-93.3973 Y64.8021 
G01 X-93.5748 Y64.5709 
G01 X-93.7809 Y64.3648 
G01 X-94.0121 Y64.1873 
G01 X-94.2645 Y64.0416 
G01 X-94.5338 Y63.9301 
G01 X-94.8153 Y63.8546 
G01 X-95.1043 Y63.8166 
G01 X-95.3957 Y63.8166 
G01 X-95.6847 Y63.8546 
G01 X-95.9662 Y63.9301 
G01 X-96.2355 Y64.0416 
G01 X-96.4879 Y64.1873 
G01 X-96.7191 Y64.3648 
G01 X-96.9252 Y64.5709 
G01 X-97.1027 Y64.8021 
G01 X-97.2484 Y65.0545 
G01 X-97.3599 Y65.3238 
G01 X-97.4354 Y65.6053 
G01 X-97.4734 Y65.8943 
G00 Z2.5400 
G00 X-97.4734 Y3.6643 
G01 Z-0.1500 F254.00 
G01 X-97.4734 Y3.9557 F508.00 
G01 X-97.4354 Y4.2447 
G01 X-97.3599 Y4.5262 
G01 X-97.2484 Y4.7955 
G01 X-97.1027 Y5.0479 
G01 X-96.9252 Y5.2791 
G01 X-96.7191 Y5.4852 
G01 X-96.4879 Y5.6627 
G01 X-96.2355 Y5.8084 
G01 X-95.9662 Y5.9199 
G01 X-95.6847 Y5.9954 
G01 X-95.3957 Y6.0334 
G01 X-95.1043 Y6.0334 
G01 X-94.8153 Y5.9954 
G01 X-94.5338 Y5.9199 
G01 X-94.2645 Y5.8084 
G01 X-94.0121 Y5.6627 
G01 X-93.7809 Y5.4852 
G01 X-93.5748 Y5.2791 
G01 X-93.3973 Y5.0479 
G01 X-93.2516 Y4.7955 
G01 X-93.1401 Y4.5262 
G01 X-93.0646 Y4.2447 
G01 X-93.0266 Y3.9557 
G01 X-93.0266 Y3.6643 
G01 X-93.0646 Y3.3753 
G01 X-93.1401 Y3.0938 
G01 X-93.2516 Y2.8245 
G01 X-93.3973 Y2.5721 
G01 X-93.5748 Y2.3409 
G01 X-93.7809 Y2.1348 
G01 X-94.0121 Y1.9573 
G01 X-94.2645 Y1.8116 
G01 X-94.5338 Y1.7001 
G01 X-94.8153 Y1.6246 
G01 X-95.1043 Y1.5866 
G01 X-95.3957 Y1.5866 
G01 X-95.6847 Y1.6246 
G01 X-95.9662 Y1.7001 
G01 X-96.2355 Y1.8116 
G01 X-96.4879 Y1.9573 
G01 X-96.7191 Y2.1348 
G01 X-96.9252 Y2.3409 
G01 X-97.1027 Y2.5721 
G01 X-97.2484 Y2.8245 
G01 X-97.3599 Y3.0938 
G01 X-97.4354 Y3.3753 
G01 X-97.4734 Y3.6643 
G00 Z2.5400 
G00 X-62.3304 Y42.9376 
G01 Z-0.1500 F254.00 
G01 X-70.7816 Y42.9376 F508.00 
G01 X-70.7843 Y42.9241 
G01 X-70.8505 Y42.7644 
G01 X-70.9465 Y42.6207 
G01 X-71.0687 Y42.4985 
G01 X-71.2124 Y42.4025 
G01 X-71.3721 Y42.3363 
G01 X-71.5416 Y42.3026 
G01 X-73.2384 Y42.3026 
G01 X-73.4079 Y42.3363 
G01 X-73.5676 Y42.4025 
G01 X-73.7113 Y42.4985 
G01 X-73.8335 Y42.6207 
G01 X-73.9295 Y42.7644 
G01 X-73.9957 Y42.9241 
G01 X-74.0294 Y43.0936 
G01 X-74.0294 Y43.2664 
G01 X-73.9957 Y43.4359 
G01 X-73.9295 Y43.5956 
G01 X-73.8335 Y43.7393 
G01 X-73.7113 Y43.8615 
G01 X-73.5676 Y43.9575 
G01 X-73.4079 Y44.0237 
G01 X-73.2384 Y44.0574 
G01 X-71.5416 Y44.0574 
G01 X-71.3721 Y44.0237 
G01 X-71.2124 Y43.9575 
G01 X-71.0687 Y43.8615 
G01 X-70.9465 Y43.7393 
G01 X-70.8505 Y43.5956 
G01 X-70.7843 Y43.4359 
G01 X-70.7816 Y43.4224 
G01 X-62.1818 Y43.4224 
G01 X-62.0927 Y43.3855 
G01 X-62.0245 Y43.3173 
G01 X-61.1947 Y42.4875 
G01 X-61.1418 Y42.5094 
G01 X-61.0214 Y42.5334 
G01 X-60.8986 Y42.5334 
G01 X-60.7782 Y42.5094 
G01 X-60.6647 Y42.4624 
G01 X-60.5626 Y42.3942 
G01 X-60.4758 Y42.3074 
G01 X-60.4076 Y42.2053 
G01 X-60.3606 Y42.0918 
G01 X-60.3366 Y41.9714 
G01 X-60.3366 Y41.8486 
G01 X-60.3606 Y41.7282 
G01 X-60.4076 Y41.6147 
G01 X-60.4758 Y41.5126 
G01 X-60.5626 Y41.4258 
G01 X-60.6647 Y41.3576 
G01 X-60.7782 Y41.3106 
G01 X-60.8986 Y41.2866 
G01 X-61.0214 Y41.2866 
G01 X-61.1418 Y41.3106 
G01 X-61.2553 Y41.3576 
G01 X-61.3574 Y41.4258 
G01 X-61.4442 Y41.5126 
G01 X-61.5124 Y41.6147 
G01 X-61.5594 Y41.7282 
G01 X-61.5834 Y41.8486 
G01 X-61.5834 Y41.9714 
G01 X-61.5594 Y42.0918 
G01 X-61.5375 Y42.1447 
G01 X-62.3304 Y42.9376 
G00 Z2.5400 
G00 X-59.7904 Y40.3976 
G01 Z-0.1500 F254.00 
G01 X-70.7816 Y40.3976 F508.00 
G01 X-70.7843 Y40.3841 
G01 X-70.8505 Y40.2244 
G01 X-70.9465 Y40.0807 
G01 X-71.0687 Y39.9585 
G01 X-71.2124 Y39.8625 
G01 X-71.3721 Y39.7963 
G01 X-71.5416 Y39.7626 
G01 X-73.2384 Y39.7626 
G01 X-73.4079 Y39.7963 
G01 X-73.5676 Y39.8625 
G01 X-73.7113 Y39.9585 
G01 X-73.8335 Y40.0807 
G01 X-73.9295 Y40.2244 
G01 X-73.9957 Y40.3841 
G01 X-74.0294 Y40.5536 
G01 X-74.0294 Y40.7264 
G01 X-73.9957 Y40.8959 
G01 X-73.9295 Y41.0556 
G01 X-73.8335 Y41.1993 
G01 X-73.7113 Y41.3215 
G01 X-73.5676 Y41.4175 
G01 X-73.4079 Y41.4837 
G01 X-73.2384 Y41.5174 
G01 X-71.5416 Y41.5174 
G01 X-71.3721 Y41.4837 
G01 X-71.2124 Y41.4175 
G01 X-71.0687 Y41.3215 
G01 X-70.9465 Y41.1993 
G01 X-70.8505 Y41.0556 
G01 X-70.7843 Y40.8959 
G01 X-70.7816 Y40.8824 
G01 X-59.6418 Y40.8824 
G01 X-59.5527 Y40.8455 
G01 X-59.4845 Y40.7773 
G01 X-56.1147 Y37.4075 
G01 X-56.0618 Y37.4294 
G01 X-55.9414 Y37.4534 
G01 X-55.8186 Y37.4534 
G01 X-55.6982 Y37.4294 
G01 X-55.5847 Y37.3824 
G01 X-55.4826 Y37.3142 
G01 X-55.3958 Y37.2274 
G01 X-55.3276 Y37.1253 
G01 X-55.2806 Y37.0118 
G01 X-55.2566 Y36.8914 
G01 X-55.2566 Y36.7686 
G01 X-55.2806 Y36.6482 
G01 X-55.3276 Y36.5347 
G01 X-55.3958 Y36.4326 
G01 X-55.4826 Y36.3458 
G01 X-55.5847 Y36.2776 
G01 X-55.6982 Y36.2306 
G01 X-55.8186 Y36.2066 
G01 X-55.9414 Y36.2066 
G01 X-56.0618 Y36.2306 
G01 X-56.1753 Y36.2776 
G01 X-56.2774 Y36.3458 
G01 X-56.3642 Y36.4326 
G01 X-56.4324 Y36.5347 
G01 X-56.4794 Y36.6482 
G01 X-56.5034 Y36.7686 
G01 X-56.5034 Y36.8914 
G01 X-56.4794 Y37.0118 
G01 X-56.4575 Y37.0647 
G01 X-59.7904 Y40.3976 
G00 Z2.5400 
G00 X-41.7045 Y17.6427 
G01 Z-0.1500 F254.00 
G01 X-41.7727 Y17.5745 F508.00 
G01 X-41.8618 Y17.5376 
G01 X-70.7816 Y17.5376 
G01 X-70.7843 Y17.5241 
G01 X-70.8505 Y17.3644 
G01 X-70.9465 Y17.2207 
G01 X-71.0687 Y17.0985 
G01 X-71.2124 Y17.0025 
G01 X-71.3721 Y16.9363 
G01 X-71.5416 Y16.9026 
G01 X-73.2384 Y16.9026 
G01 X-73.4079 Y16.9363 
G01 X-73.5676 Y17.0025 
G01 X-73.7113 Y17.0985 
G01 X-73.8335 Y17.2207 
G01 X-73.9295 Y17.3644 
G01 X-73.9957 Y17.5241 
G01 X-74.0294 Y17.6936 
G01 X-74.0294 Y17.8664 
G01 X-73.9957 Y18.0359 
G01 X-73.9295 Y18.1956 
G01 X-73.8335 Y18.3393 
G01 X-73.7113 Y18.4615 
G01 X-73.5676 Y18.5575 
G01 X-73.4079 Y18.6237 
G01 X-73.2384 Y18.6574 
G01 X-71.5416 Y18.6574 
G01 X-71.3721 Y18.6237 
G01 X-71.2124 Y18.5575 
G01 X-71.0687 Y18.4615 
G01 X-70.9465 Y18.3393 
G01 X-70.8505 Y18.1956 
G01 X-70.7843 Y18.0359 
G01 X-70.7816 Y18.0224 
G01 X-42.0104 Y18.0224 
G01 X-38.6775 Y21.3553 
G01 X-38.6994 Y21.4082 
G01 X-38.7234 Y21.5286 
G01 X-38.7234 Y21.6514 
G01 X-38.6994 Y21.7718 
G01 X-38.6524 Y21.8853 
G01 X-38.5842 Y21.9874 
G01 X-38.4974 Y22.0742 
G01 X-38.3953 Y22.1424 
G01 X-38.2818 Y22.1894 
G01 X-38.1614 Y22.2134 
G01 X-38.0386 Y22.2134 
G01 X-37.9182 Y22.1894 
G01 X-37.8047 Y22.1424 
G01 X-37.7026 Y22.0742 
G01 X-37.6158 Y21.9874 
G01 X-37.5476 Y21.8853 
G01 X-37.5006 Y21.7718 
G01 X-37.4766 Y21.6514 
G01 X-37.4766 Y21.5286 
G01 X-37.5006 Y21.4082 
G01 X-37.5476 Y21.2947 
G01 X-37.6158 Y21.1926 
G01 X-37.7026 Y21.1058 
G01 X-37.8047 Y21.0375 
G01 X-37.9182 Y20.9906 
G01 X-38.0386 Y20.9666 
G01 X-38.1614 Y20.9666 
G01 X-38.2818 Y20.9906 
G01 X-38.3347 Y21.0125 
G01 X-41.7045 Y17.6427 
G00 Z2.5400 
G00 X-26.8533 Y60.5351 
G01 Z-0.1500 F254.00 
G01 X-26.6971 Y60.4307 F508.00 
G01 X-26.5643 Y60.2979 
G01 X-26.4599 Y60.1417 
G01 X-26.3880 Y59.9682 
G01 X-26.3787 Y59.9211 
G01 X-26.3744 Y59.9168 
G01 X-22.8600 Y56.4024 
G01 X-18.6718 Y60.5906 
G01 X-26.9874 Y60.5906 
G01 X-26.8533 Y60.5351 
G00 Z2.5400 
G00 X-29.5013 Y57.3811 
G01 Z-0.1500 F254.00 
G01 X-29.4920 Y57.4282 F508.00 
G01 X-29.4201 Y57.6017 
G01 X-29.3157 Y57.7579 
G01 X-29.1829 Y57.8907 
G01 X-29.0267 Y57.9951 
G01 X-28.8926 Y58.0506 
G01 X-37.9470 Y58.0506 
G01 X-39.0744 Y56.9232 
G01 X-39.0787 Y56.9189 
G01 X-39.0880 Y56.8718 
G01 X-39.1599 Y56.6983 
G01 X-39.2643 Y56.5421 
G01 X-39.3971 Y56.4093 
G01 X-39.5533 Y56.3049 
G01 X-39.6874 Y56.2494 
G01 X-30.6330 Y56.2494 
G01 X-29.5013 Y57.3811 
G00 Z2.5400 
G00 X-40.4567 Y56.3049 
G01 Z-0.1500 F254.00 
G01 X-40.6129 Y56.4093 F508.00 
G01 X-40.7457 Y56.5421 
G01 X-40.8501 Y56.6983 
G01 X-40.9220 Y56.8718 
G01 X-40.9586 Y57.0561 
G01 X-40.9586 Y57.2439 
G01 X-40.9220 Y57.4282 
G01 X-40.8501 Y57.6017 
G01 X-40.7457 Y57.7579 
G01 X-40.6129 Y57.8907 
G01 X-40.4567 Y57.9951 
G01 X-40.3226 Y58.0506 
G01 X-42.2274 Y58.0506 
G01 X-42.0933 Y57.9951 
G01 X-41.9371 Y57.8907 
G01 X-41.8043 Y57.7579 
G01 X-41.6999 Y57.6017 
G01 X-41.6280 Y57.4282 
G01 X-41.5914 Y57.2439 
G01 X-41.5914 Y57.0561 
G01 X-41.6280 Y56.8718 
G01 X-41.6999 Y56.6983 
G01 X-41.8043 Y56.5421 
G01 X-41.9371 Y56.4093 
G01 X-42.0933 Y56.3049 
G01 X-42.2274 Y56.2494 
G01 X-40.3226 Y56.2494 
G01 X-40.4567 Y56.3049 
G00 Z2.5400 
G00 X-42.9967 Y56.3049 
G01 Z-0.1500 F254.00 
G01 X-43.1529 Y56.4093 F508.00 
G01 X-43.2756 Y56.5320 
G01 X-43.5582 Y56.2494 
G01 X-42.8626 Y56.2494 
G01 X-42.9967 Y56.3049 
G00 Z2.5400 
G00 X-30.1626 Y58.7894 
G01 Z-0.1500 F254.00 
G01 X-30.2967 Y58.8449 F508.00 
G01 X-30.4529 Y58.9493 
G01 X-30.5857 Y59.0821 
G01 X-30.6901 Y59.2383 
G01 X-30.7620 Y59.4118 
G01 X-30.7986 Y59.5961 
G01 X-30.7986 Y59.7839 
G01 X-30.7620 Y59.9682 
G01 X-30.6901 Y60.1417 
G01 X-30.5857 Y60.2979 
G01 X-30.4529 Y60.4307 
G01 X-30.2967 Y60.5351 
G01 X-30.1626 Y60.5906 
G01 X-39.2170 Y60.5906 
G01 X-40.3444 Y59.4632 
G01 X-40.3487 Y59.4589 
G01 X-40.3580 Y59.4118 
G01 X-40.4299 Y59.2383 
G01 X-40.5343 Y59.0821 
G01 X-40.6671 Y58.9493 
G01 X-40.8233 Y58.8449 
G01 X-40.9574 Y58.7894 
G01 X-38.0514 Y58.7894 
G01 X-30.1626 Y58.7894 
G00 Z2.5400 
G00 X-39.5533 Y57.9951 
G01 Z-0.1500 F254.00 
G01 X-39.3971 Y57.8907 F508.00 
G01 X-39.2744 Y57.7680 
G01 X-38.9918 Y58.0506 
G01 X-39.6874 Y58.0506 
G01 X-39.5533 Y57.9951 
G00 Z2.5400 
G00 X-16.9191 Y37.0956 
G01 Z-0.1500 F254.00 
G01 X-18.6409 Y37.0956 F508.00 
G01 X-18.8350 Y37.1342 
G01 X-19.0178 Y37.2099 
G01 X-19.1823 Y37.3198 
G01 X-19.3222 Y37.4597 
G01 X-19.4321 Y37.6242 
G01 X-19.4761 Y37.7306 
G01 X-30.3270 Y37.7306 
G01 X-34.6572 Y33.4004 
G01 X-34.6572 Y32.2707 
G01 X-34.6919 Y32.0963 
G01 X-34.7600 Y31.9320 
G01 X-34.8588 Y31.7841 
G01 X-34.9845 Y31.6584 
G01 X-35.1324 Y31.5596 
G01 X-35.2967 Y31.4915 
G01 X-35.4711 Y31.4568 
G01 X-35.6489 Y31.4568 
G01 X-35.8233 Y31.4915 
G01 X-35.9876 Y31.5596 
G01 X-36.1355 Y31.6584 
G01 X-36.2612 Y31.7841 
G01 X-36.3600 Y31.9320 
G01 X-36.4281 Y32.0963 
G01 X-36.4628 Y32.2707 
G01 X-36.4628 Y33.7693 
G01 X-36.4281 Y33.9437 
G01 X-36.3600 Y34.1080 
G01 X-36.2612 Y34.2559 
G01 X-36.1355 Y34.3816 
G01 X-35.9876 Y34.4804 
G01 X-35.8233 Y34.5485 
G01 X-35.6489 Y34.5832 
G01 X-35.4711 Y34.5832 
G01 X-35.2967 Y34.5485 
G01 X-35.1324 Y34.4804 
G01 X-34.9845 Y34.3816 
G01 X-34.8588 Y34.2559 
G01 X-34.8538 Y34.2486 
G01 X-30.7756 Y38.3268 
G01 X-30.7068 Y38.3956 
G01 X-30.6226 Y38.4442 
G01 X-30.5286 Y38.4694 
G01 X-19.4761 Y38.4694 
G01 X-19.4321 Y38.5758 
G01 X-19.3222 Y38.7403 
G01 X-19.1823 Y38.8802 
G01 X-19.0178 Y38.9901 
G01 X-18.8350 Y39.0658 
G01 X-18.6409 Y39.1044 
G01 X-16.9191 Y39.1044 
G01 X-16.7250 Y39.0658 
G01 X-16.5422 Y38.9901 
G01 X-16.3777 Y38.8802 
G01 X-16.2378 Y38.7403 
G01 X-16.1279 Y38.5758 
G01 X-16.0522 Y38.3930 
G01 X-16.0136 Y38.1989 
G01 X-16.0136 Y38.0011 
G01 X-16.0522 Y37.8070 
G01 X-16.1279 Y37.6242 
G01 X-16.2378 Y37.4597 
G01 X-16.3777 Y37.3198 
G01 X-16.5422 Y37.2099 
G01 X-16.7250 Y37.1342 
G01 X-16.9191 Y37.0956 
G00 Z2.5400 
G00 X-16.9191 Y34.5556 
G01 Z-0.1500 F254.00 
G01 X-18.6409 Y34.5556 F508.00 
G01 X-18.8350 Y34.5942 
G01 X-19.0178 Y34.6699 
G01 X-19.1823 Y34.7798 
G01 X-19.3222 Y34.9197 
G01 X-19.4321 Y35.0842 
G01 X-19.4761 Y35.1906 
G01 X-27.7870 Y35.1906 
G01 X-29.5772 Y33.4004 
G01 X-29.5772 Y32.2707 
G01 X-29.6119 Y32.0963 
G01 X-29.6800 Y31.9320 
G01 X-29.7788 Y31.7841 
G01 X-29.9045 Y31.6584 
G01 X-30.0524 Y31.5596 
G01 X-30.2167 Y31.4915 
G01 X-30.3911 Y31.4568 
G01 X-30.5689 Y31.4568 
G01 X-30.7433 Y31.4915 
G01 X-30.9076 Y31.5596 
G01 X-31.0555 Y31.6584 
G01 X-31.1812 Y31.7841 
G01 X-31.2800 Y31.9320 
G01 X-31.3481 Y32.0963 
G01 X-31.3828 Y32.2707 
G01 X-31.3828 Y33.7693 
G01 X-31.3481 Y33.9437 
G01 X-31.2800 Y34.1080 
G01 X-31.1812 Y34.2559 
G01 X-31.0555 Y34.3816 
G01 X-30.9076 Y34.4804 
G01 X-30.7433 Y34.5485 
G01 X-30.5689 Y34.5832 
G01 X-30.3911 Y34.5832 
G01 X-30.2167 Y34.5485 
G01 X-30.0524 Y34.4804 
G01 X-29.9045 Y34.3816 
G01 X-29.7788 Y34.2559 
G01 X-29.7738 Y34.2486 
G01 X-28.1668 Y35.8556 
G01 X-28.0826 Y35.9042 
G01 X-27.9886 Y35.9294 
G01 X-19.4761 Y35.9294 
G01 X-19.4321 Y36.0358 
G01 X-19.3222 Y36.2003 
G01 X-19.1823 Y36.3402 
G01 X-19.0178 Y36.4501 
G01 X-18.8350 Y36.5258 
G01 X-18.6409 Y36.5644 
G01 X-16.9191 Y36.5644 
G01 X-16.7250 Y36.5258 
G01 X-16.5422 Y36.4501 
G01 X-16.3777 Y36.3402 
G01 X-16.2378 Y36.2003 
G01 X-16.1279 Y36.0358 
G01 X-16.0522 Y35.8530 
G01 X-16.0136 Y35.6589 
G01 X-16.0136 Y35.4611 
G01 X-16.0522 Y35.2670 
G01 X-16.1279 Y35.0842 
G01 X-16.2378 Y34.9197 
G01 X-16.3777 Y34.7798 
G01 X-16.5422 Y34.6699 
G01 X-16.7250 Y34.5942 
G01 X-16.9191 Y34.5556 
G00 Z2.5400 
G00 X-16.9191 Y32.0156 
G01 Z-0.1500 F254.00 
G01 X-18.6409 Y32.0156 F508.00 
G01 X-18.8350 Y32.0542 
G01 X-19.0178 Y32.1299 
G01 X-19.1823 Y32.2398 
G01 X-19.3222 Y32.3797 
G01 X-19.4321 Y32.5442 
G01 X-19.5078 Y32.7270 
G01 X-19.5464 Y32.9211 
G01 X-19.5464 Y33.1189 
G01 X-19.5078 Y33.3130 
G01 X-19.4321 Y33.4958 
G01 X-19.3222 Y33.6603 
G01 X-19.1823 Y33.8002 
G01 X-19.0178 Y33.9101 
G01 X-18.8350 Y33.9858 
G01 X-18.6409 Y34.0244 
G01 X-16.9191 Y34.0244 
G01 X-16.7250 Y33.9858 
G01 X-16.5422 Y33.9101 
G01 X-16.3777 Y33.8002 
G01 X-16.2378 Y33.6603 
G01 X-16.1279 Y33.4958 
G01 X-16.0522 Y33.3130 
G01 X-16.0136 Y33.1189 
G01 X-16.0136 Y32.9211 
G01 X-16.0522 Y32.7270 
G01 X-16.1279 Y32.5442 
G01 X-16.2378 Y32.3797 
G01 X-16.3777 Y32.2398 
G01 X-16.5422 Y32.1299 
G01 X-16.7250 Y32.0542 
G01 X-16.9191 Y32.0156 
G00 Z2.5400 
G00 X-16.9191 Y29.4756 
G01 Z-0.1500 F254.00 
G01 X-18.6409 Y29.4756 F508.00 
G01 X-18.8350 Y29.5142 
G01 X-19.0178 Y29.5899 
G01 X-19.1823 Y29.6998 
G01 X-19.3222 Y29.8397 
G01 X-19.4321 Y30.0042 
G01 X-19.5078 Y30.1870 
G01 X-19.5464 Y30.3811 
G01 X-19.5464 Y30.5789 
G01 X-19.5078 Y30.7730 
G01 X-19.4321 Y30.9558 
G01 X-19.3222 Y31.1203 
G01 X-19.1823 Y31.2602 
G01 X-19.0178 Y31.3701 
G01 X-18.8350 Y31.4458 
G01 X-18.6409 Y31.4844 
G01 X-16.9191 Y31.4844 
G01 X-16.7250 Y31.4458 
G01 X-16.5422 Y31.3701 
G01 X-16.3777 Y31.2602 
G01 X-16.2378 Y31.1203 
G01 X-16.1279 Y30.9558 
G01 X-16.0522 Y30.7730 
G01 X-16.0136 Y30.5789 
G01 X-16.0136 Y30.3811 
G01 X-16.0522 Y30.1870 
G01 X-16.1279 Y30.0042 
G01 X-16.2378 Y29.8397 
G01 X-16.3777 Y29.6998 
G01 X-16.5422 Y29.5899 
G01 X-16.7250 Y29.5142 
G01 X-16.9191 Y29.4756 
G00 Z2.5400 
G00 X-16.0136 Y25.4989 
G01 Z-0.1500 F254.00 
G01 X-16.0136 Y25.3011 F508.00 
G01 X-16.0522 Y25.1070 
G01 X-16.1279 Y24.9242 
G01 X-16.2378 Y24.7597 
G01 X-16.3777 Y24.6198 
G01 X-16.5422 Y24.5099 
G01 X-16.7250 Y24.4342 
G01 X-16.9191 Y24.3956 
G01 X-18.6409 Y24.3956 
G01 X-18.8350 Y24.4342 
G01 X-19.0178 Y24.5099 
G01 X-19.1823 Y24.6198 
G01 X-19.3222 Y24.7597 
G01 X-19.4321 Y24.9242 
G01 X-19.5078 Y25.1070 
G01 X-19.5464 Y25.3011 
G01 X-19.5464 Y25.3740 
G01 X-21.7430 Y27.5706 
G01 X-48.1070 Y27.5706 
G01 X-49.8972 Y25.7804 
G01 X-49.8972 Y24.6507 
G01 X-49.9319 Y24.4763 
G01 X-50.0000 Y24.3120 
G01 X-50.0988 Y24.1641 
G01 X-50.2245 Y24.0384 
G01 X-50.3724 Y23.9396 
G01 X-50.5367 Y23.8715 
G01 X-50.7111 Y23.8368 
G01 X-50.8889 Y23.8368 
G01 X-51.0633 Y23.8715 
G01 X-51.2276 Y23.9396 
G01 X-51.3755 Y24.0384 
G01 X-51.5012 Y24.1641 
G01 X-51.6000 Y24.3120 
G01 X-51.6681 Y24.4763 
G01 X-51.7028 Y24.6507 
G01 X-51.7028 Y26.1493 
G01 X-51.6681 Y26.3237 
G01 X-51.6000 Y26.4880 
G01 X-51.5012 Y26.6359 
G01 X-51.3755 Y26.7616 
G01 X-51.2276 Y26.8604 
G01 X-51.0633 Y26.9285 
G01 X-50.8889 Y26.9632 
G01 X-50.7111 Y26.9632 
G01 X-50.5367 Y26.9285 
G01 X-50.3724 Y26.8604 
G01 X-50.2245 Y26.7616 
G01 X-50.0988 Y26.6359 
G01 X-50.0938 Y26.6286 
G01 X-48.5556 Y28.1668 
G01 X-48.4868 Y28.2356 
G01 X-48.4026 Y28.2842 
G01 X-48.3086 Y28.3094 
G01 X-21.5414 Y28.3094 
G01 X-21.4474 Y28.2842 
G01 X-21.3632 Y28.2356 
G01 X-19.2450 Y26.1174 
G01 X-19.1823 Y26.1802 
G01 X-19.0178 Y26.2901 
G01 X-18.9924 Y26.3006 
G01 X-19.0986 Y26.3006 
G01 X-19.1926 Y26.3258 
G01 X-19.2768 Y26.3744 
G01 X-19.3456 Y26.4432 
G01 X-21.7430 Y28.8406 
G01 X-49.3770 Y28.8406 
G01 X-52.4372 Y25.7804 
G01 X-52.4372 Y24.6507 
G01 X-52.4719 Y24.4763 
G01 X-52.5400 Y24.3120 
G01 X-52.6388 Y24.1641 
G01 X-52.7645 Y24.0384 
G01 X-52.9124 Y23.9396 
G01 X-53.0767 Y23.8715 
G01 X-53.2511 Y23.8368 
G01 X-53.4289 Y23.8368 
G01 X-53.6033 Y23.8715 
G01 X-53.7676 Y23.9396 
G01 X-53.9155 Y24.0384 
G01 X-54.0412 Y24.1641 
G01 X-54.1400 Y24.3120 
G01 X-54.2081 Y24.4763 
G01 X-54.2428 Y24.6507 
G01 X-54.2428 Y26.1493 
G01 X-54.2081 Y26.3237 
G01 X-54.1400 Y26.4880 
G01 X-54.0412 Y26.6359 
G01 X-53.9155 Y26.7616 
G01 X-53.7676 Y26.8604 
G01 X-53.6033 Y26.9285 
G01 X-53.4289 Y26.9632 
G01 X-53.2511 Y26.9632 
G01 X-53.0767 Y26.9285 
G01 X-52.9124 Y26.8604 
G01 X-52.7645 Y26.7616 
G01 X-52.6388 Y26.6359 
G01 X-52.6338 Y26.6286 
G01 X-49.8256 Y29.4368 
G01 X-49.7568 Y29.5056 
G01 X-49.6726 Y29.5542 
G01 X-49.5786 Y29.5794 
G01 X-21.5414 Y29.5794 
G01 X-21.4474 Y29.5542 
G01 X-21.3632 Y29.5056 
G01 X-19.5086 Y27.6510 
G01 X-19.5464 Y27.8411 
G01 X-19.5464 Y28.0389 
G01 X-19.5078 Y28.2330 
G01 X-19.4321 Y28.4158 
G01 X-19.3222 Y28.5803 
G01 X-19.1823 Y28.7202 
G01 X-19.0178 Y28.8301 
G01 X-18.8350 Y28.9058 
G01 X-18.6409 Y28.9444 
G01 X-16.9191 Y28.9444 
G01 X-16.7250 Y28.9058 
G01 X-16.5422 Y28.8301 
G01 X-16.3777 Y28.7202 
G01 X-16.2378 Y28.5803 
G01 X-16.1279 Y28.4158 
G01 X-16.0522 Y28.2330 
G01 X-16.0136 Y28.0389 
G01 X-16.0136 Y27.8411 
G01 X-16.0522 Y27.6470 
G01 X-16.1279 Y27.4642 
G01 X-16.2378 Y27.2997 
G01 X-16.3777 Y27.1598 
G01 X-16.5422 Y27.0499 
G01 X-16.5676 Y27.0394 
G01 X-16.4614 Y27.0394 
G01 X-16.3674 Y27.0142 
G01 X-16.2832 Y26.9656 
G01 X-15.0132 Y25.6956 
G01 X-14.9444 Y25.6268 
G01 X-14.8958 Y25.5426 
G01 X-14.8706 Y25.4486 
G01 X-14.8706 Y22.8114 
G01 X-14.8958 Y22.7174 
G01 X-14.9444 Y22.6332 
G01 X-15.0132 Y22.5644 
G01 X-15.0974 Y22.5158 
G01 X-15.1914 Y22.4906 
G01 X-16.0839 Y22.4906 
G01 X-16.1279 Y22.3842 
G01 X-16.2378 Y22.2197 
G01 X-16.3777 Y22.0798 
G01 X-16.5422 Y21.9699 
G01 X-16.5676 Y21.9594 
G01 X-15.3930 Y21.9594 
G01 X-10.5294 Y26.8230 
G01 X-10.5294 Y36.4039 
G01 X-10.6358 Y36.4479 
G01 X-10.8003 Y36.5578 
G01 X-10.9402 Y36.6977 
G01 X-11.0501 Y36.8622 
G01 X-11.1258 Y37.0450 
G01 X-11.1644 Y37.2391 
G01 X-11.1644 Y38.9609 
G01 X-11.1258 Y39.1550 
G01 X-11.0501 Y39.3378 
G01 X-10.9402 Y39.5023 
G01 X-10.8003 Y39.6422 
G01 X-10.6358 Y39.7521 
G01 X-10.4530 Y39.8278 
G01 X-10.2589 Y39.8664 
G01 X-10.0611 Y39.8664 
G01 X-9.8670 Y39.8278 
G01 X-9.6842 Y39.7521 
G01 X-9.5197 Y39.6422 
G01 X-9.3798 Y39.5023 
G01 X-9.2699 Y39.3378 
G01 X-9.1942 Y39.1550 
G01 X-9.1556 Y38.9609 
G01 X-9.1556 Y37.2391 
G01 X-9.1942 Y37.0450 
G01 X-9.2699 Y36.8622 
G01 X-9.3798 Y36.6977 
G01 X-9.5197 Y36.5578 
G01 X-9.6842 Y36.4479 
G01 X-9.7906 Y36.4039 
G01 X-9.7906 Y26.6214 
G01 X-9.8158 Y26.5274 
G01 X-9.8644 Y26.4432 
G01 X-9.9332 Y26.3744 
G01 X-15.0132 Y21.2944 
G01 X-15.0974 Y21.2458 
G01 X-15.1914 Y21.2206 
G01 X-21.4370 Y21.2206 
G01 X-40.4132 Y2.2444 
G01 X-40.4974 Y2.1958 
G01 X-40.5914 Y2.1706 
G01 X-45.7686 Y2.1706 
G01 X-45.8626 Y2.1958 
G01 X-45.9468 Y2.2444 
G01 X-46.0156 Y2.3132 
G01 X-47.4399 Y3.7375 
G01 X-47.4798 Y3.6777 
G01 X-47.6197 Y3.5378 
G01 X-47.7842 Y3.4279 
G01 X-47.9670 Y3.3522 
G01 X-48.1611 Y3.3136 
G01 X-48.3589 Y3.3136 
G01 X-48.5530 Y3.3522 
G01 X-48.7358 Y3.4279 
G01 X-48.9003 Y3.5378 
G01 X-49.0402 Y3.6777 
G01 X-49.1501 Y3.8422 
G01 X-49.2258 Y4.0250 
G01 X-49.2644 Y4.2191 
G01 X-49.2644 Y5.9409 
G01 X-49.2258 Y6.1350 
G01 X-49.1501 Y6.3178 
G01 X-49.0402 Y6.4823 
G01 X-48.9003 Y6.6222 
G01 X-48.7358 Y6.7321 
G01 X-48.5530 Y6.8078 
G01 X-48.3589 Y6.8464 
G01 X-48.1611 Y6.8464 
G01 X-47.9670 Y6.8078 
G01 X-47.7842 Y6.7321 
G01 X-47.6197 Y6.6222 
G01 X-47.4798 Y6.4823 
G01 X-47.3699 Y6.3178 
G01 X-47.2942 Y6.1350 
G01 X-47.2556 Y5.9409 
G01 X-47.2556 Y4.5980 
G01 X-46.6866 Y4.0290 
G01 X-46.7244 Y4.2191 
G01 X-46.7244 Y5.9409 
G01 X-46.6858 Y6.1350 
G01 X-46.6101 Y6.3178 
G01 X-46.5002 Y6.4823 
G01 X-46.3603 Y6.6222 
