(.../pcb-gcode-3.6.0.4/pcb-gcode.ulp)
(Copyright 2005 - 2012 by John Johnson)
(See readme.txt for licensing terms.)
(This file generated from the board:)
(.../eagle/ARMEDBASE_V0/MCU/MCU.brd)
(Current profile is .../pcb-gcode-3.6.0.4/profiles/emc.pp  )
(This file generated 6/20/2014 3:23:15 PM)
(Settings from pcb-machine.h)
(  Tool Size)
(0.2000 )
(Z Axis Settings)
(  High     Up        Down     Drill)
(12.7000 	2.5400 	-0.1500 	-0.8128 )
(spindle on time = 3.0000)
(milling depth = -0.1500)
(text depth = -0.1270)
(tool change at 12.7000 15.2400 25.4000 )
(feed rate xy = F508.00 )
(feed rate z  = F254.00 )
(Settings from pcb-defaults.h)
(isolate min = 0.0154)
(isolate max = 0.5080)
(isolate step = 0.1270)
(Generated top outlines, top drill, bottom outlines, bottom drill, )
(Unit of measure: mm)
(Metric Mode)
G21
(Absolute Coordinates)
G90
G00 X0.0000 Y0.0000 
M03
G04 P3.000000
G00 Z2.5400 
G00 X58.0596 Y73.1480 
G01 Z-0.1500 F254.00 
G01 X58.0596 Y71.6320 F508.00 
G01 X58.0772 Y71.5896 
G01 X58.1096 Y71.5572 
G01 X58.1520 Y71.5396 
G01 X59.4680 Y71.5396 
G01 X59.5104 Y71.5572 
G01 X59.5428 Y71.5896 
G01 X59.5604 Y71.6320 
G01 X59.5604 Y72.1476 
G01 X60.8596 Y72.1476 
G01 X62.0245 Y70.9827 
G01 X62.0927 Y70.9145 
G01 X62.1818 Y70.8776 
G01 X68.6282 Y70.8776 
G01 X68.7173 Y70.9145 
G01 X68.7855 Y70.9827 
G01 X68.8224 Y71.0718 
G01 X68.8224 Y71.4046 
G01 X69.1030 Y71.4046 
G01 X69.1454 Y71.4222 
G01 X69.1778 Y71.4546 
G01 X69.1954 Y71.4970 
G01 X69.1954 Y72.9430 
G01 X69.1778 Y72.9854 
G01 X69.1454 Y73.0178 
G01 X69.1030 Y73.0354 
G01 X68.8224 Y73.0354 
G01 X68.8224 Y76.3912 
G01 X68.9795 Y76.3401 
G01 X69.1724 Y76.3096 
G01 X69.3676 Y76.3096 
G01 X69.5605 Y76.3401 
G01 X69.7461 Y76.4005 
G01 X69.9201 Y76.4891 
G01 X70.0781 Y76.6039 
G01 X70.2161 Y76.7419 
G01 X70.3309 Y76.8999 
G01 X70.4195 Y77.0739 
G01 X70.4799 Y77.2595 
G01 X70.5104 Y77.4524 
G01 X70.5104 Y77.6476 
G01 X70.4799 Y77.8405 
G01 X70.4195 Y78.0261 
G01 X70.3309 Y78.2001 
G01 X70.2161 Y78.3581 
G01 X70.0781 Y78.4961 
G01 X69.9201 Y78.6109 
G01 X69.7461 Y78.6995 
G01 X69.5605 Y78.7599 
G01 X69.3676 Y78.7904 
G01 X69.1724 Y78.7904 
G01 X68.9795 Y78.7599 
G01 X68.7939 Y78.6995 
G01 X68.6199 Y78.6109 
G01 X68.4619 Y78.4961 
G01 X68.3239 Y78.3581 
G01 X68.2091 Y78.2001 
G01 X68.1205 Y78.0261 
G01 X68.0601 Y77.8405 
G01 X68.0296 Y77.6476 
G01 X68.0296 Y77.4524 
G01 X68.0601 Y77.2595 
G01 X68.1205 Y77.0739 
G01 X68.2091 Y76.8999 
G01 X68.3239 Y76.7419 
G01 X68.3376 Y76.7282 
G01 X68.3376 Y73.0354 
G01 X68.0570 Y73.0354 
G01 X68.0146 Y73.0178 
G01 X67.9822 Y72.9854 
G01 X67.9646 Y72.9430 
G01 X67.9646 Y71.4970 
G01 X67.9822 Y71.4546 
G01 X68.0146 Y71.4222 
G01 X68.0570 Y71.4046 
G01 X68.3376 Y71.4046 
G01 X68.3376 Y71.3624 
G01 X62.3304 Y71.3624 
G01 X61.0973 Y72.5955 
G01 X61.0082 Y72.6324 
G01 X59.5604 Y72.6324 
G01 X59.5604 Y73.1480 
G01 X59.5428 Y73.1904 
G01 X59.5104 Y73.2228 
G01 X59.4680 Y73.2404 
G01 X58.1520 Y73.2404 
G01 X58.1096 Y73.2228 
G01 X58.0772 Y73.1904 
G01 X58.0596 Y73.1480 
G00 Z2.5400 
G00 X61.3446 Y69.2030 
G01 Z-0.1500 F254.00 
G01 X61.3446 Y67.9570 F508.00 
G01 X61.3622 Y67.9146 
G01 X61.3946 Y67.8822 
G01 X61.4370 Y67.8646 
G01 X62.2830 Y67.8646 
G01 X62.3254 Y67.8822 
G01 X62.3578 Y67.9146 
G01 X62.3754 Y67.9570 
G01 X62.3754 Y68.3376 
G01 X67.3582 Y68.3376 
G01 X67.4473 Y68.3745 
G01 X67.5155 Y68.4427 
G01 X67.5524 Y68.5318 
G01 X67.5524 Y69.2046 
G01 X68.1530 Y69.2046 
G01 X68.1954 Y69.2222 
G01 X68.2278 Y69.2546 
G01 X68.2454 Y69.2970 
G01 X68.2454 Y70.7430 
G01 X68.2278 Y70.7854 
G01 X68.1954 Y70.8178 
G01 X68.1530 Y70.8354 
G01 X67.1070 Y70.8354 
G01 X67.0646 Y70.8178 
G01 X67.0322 Y70.7854 
G01 X67.0146 Y70.7430 
G01 X67.0146 Y69.2970 
G01 X67.0322 Y69.2546 
G01 X67.0646 Y69.2222 
G01 X67.0676 Y69.2209 
G01 X67.0676 Y68.8224 
G01 X62.3754 Y68.8224 
G01 X62.3754 Y69.2030 
G01 X62.3578 Y69.2454 
G01 X62.3254 Y69.2778 
G01 X62.2830 Y69.2954 
G01 X61.4370 Y69.2954 
G01 X61.3946 Y69.2778 
G01 X61.3622 Y69.2454 
G01 X61.3446 Y69.2030 
G00 Z2.5400 
G00 X70.1454 Y69.2970 
G01 Z-0.1500 F254.00 
G01 X70.1454 Y69.8026 F508.00 
G01 X71.2573 Y70.9145 
G01 X71.3255 Y70.9827 
G01 X71.3624 Y71.0718 
G01 X71.3624 Y81.3782 
G01 X71.4795 Y81.3401 
G01 X71.6724 Y81.3096 
G01 X71.8676 Y81.3096 
G01 X72.0605 Y81.3401 
G01 X72.2461 Y81.4005 
G01 X72.4201 Y81.4891 
G01 X72.5781 Y81.6039 
G01 X72.7161 Y81.7419 
G01 X72.8309 Y81.8999 
G01 X72.9195 Y82.0739 
G01 X72.9799 Y82.2595 
G01 X73.0104 Y82.4524 
G01 X73.0104 Y82.6476 
G01 X72.9799 Y82.8405 
G01 X72.9195 Y83.0261 
G01 X72.8309 Y83.2001 
G01 X72.7161 Y83.3581 
G01 X72.5781 Y83.4961 
G01 X72.4201 Y83.6109 
G01 X72.2461 Y83.6995 
G01 X72.0605 Y83.7599 
G01 X71.8676 Y83.7904 
G01 X71.6724 Y83.7904 
G01 X71.4795 Y83.7599 
G01 X71.2939 Y83.6995 
G01 X71.1199 Y83.6109 
G01 X70.9619 Y83.4961 
G01 X70.8239 Y83.3581 
G01 X70.7091 Y83.2001 
G01 X70.6205 Y83.0261 
G01 X70.5601 Y82.8405 
G01 X70.5296 Y82.6476 
G01 X70.5296 Y82.4524 
G01 X70.5601 Y82.2595 
G01 X70.6205 Y82.0739 
G01 X70.7091 Y81.8999 
G01 X70.8239 Y81.7419 
G01 X70.8776 Y81.6882 
G01 X70.8776 Y71.2204 
G01 X70.1454 Y70.4882 
G01 X70.1454 Y70.7430 
G01 X70.1278 Y70.7854 
G01 X70.0954 Y70.8178 
G01 X70.0530 Y70.8354 
G01 X69.0070 Y70.8354 
G01 X68.9646 Y70.8178 
G01 X68.9322 Y70.7854 
G01 X68.9146 Y70.7430 
G01 X68.9146 Y69.2970 
G01 X68.9322 Y69.2546 
G01 X68.9646 Y69.2222 
G01 X69.0070 Y69.2046 
G01 X70.0530 Y69.2046 
G01 X70.0954 Y69.2222 
G01 X70.1278 Y69.2546 
G01 X70.1454 Y69.2970 
G00 Z2.5400 
G00 X5.4240 Y66.9476 
G01 Z-0.1500 F254.00 
G01 X5.4240 Y67.1136 F508.00 
G01 X5.3980 Y67.2777 
G01 X5.3467 Y67.4357 
G01 X5.2713 Y67.5836 
G01 X5.1737 Y67.7180 
G01 X5.0562 Y67.8355 
G01 X4.9218 Y67.9331 
G01 X4.7739 Y68.0085 
G01 X4.6159 Y68.0598 
G01 X4.4518 Y68.0858 
G01 X4.2858 Y68.0858 
G01 X4.1217 Y68.0598 
G01 X3.9637 Y68.0085 
G01 X3.8158 Y67.9331 
G01 X3.6814 Y67.8355 
G01 X3.5639 Y67.7180 
G01 X3.4663 Y67.5836 
G01 X3.3909 Y67.4357 
G01 X3.3396 Y67.2777 
G01 X3.3136 Y67.1136 
G01 X3.3136 Y66.9476 
G01 X3.3396 Y66.7835 
G01 X3.3909 Y66.6255 
G01 X3.4663 Y66.4776 
G01 X3.5639 Y66.3432 
G01 X3.6814 Y66.2257 
G01 X3.8158 Y66.1281 
G01 X3.9637 Y66.0527 
G01 X4.1217 Y66.0014 
G01 X4.2858 Y65.9754 
G01 X4.4518 Y65.9754 
G01 X4.6159 Y66.0014 
G01 X4.7739 Y66.0527 
G01 X4.9218 Y66.1281 
G01 X5.0562 Y66.2257 
G01 X5.1737 Y66.3432 
G01 X5.2713 Y66.4776 
G01 X5.3467 Y66.6255 
G01 X5.3980 Y66.7835 
G01 X5.4240 Y66.9476 
G00 Z2.5400 
G00 X5.4240 Y62.4264 
G01 Z-0.1500 F254.00 
G01 X5.4240 Y62.5924 F508.00 
G01 X5.3980 Y62.7565 
G01 X5.3467 Y62.9145 
G01 X5.2713 Y63.0624 
G01 X5.1737 Y63.1968 
G01 X5.0562 Y63.3143 
G01 X4.9218 Y63.4119 
G01 X4.7739 Y63.4873 
G01 X4.6159 Y63.5386 
G01 X4.4518 Y63.5646 
G01 X4.2858 Y63.5646 
G01 X4.1217 Y63.5386 
G01 X3.9637 Y63.4873 
G01 X3.8158 Y63.4119 
G01 X3.6814 Y63.3143 
G01 X3.5639 Y63.1968 
G01 X3.4663 Y63.0624 
G01 X3.3909 Y62.9145 
G01 X3.3396 Y62.7565 
G01 X3.3136 Y62.5924 
G01 X3.3136 Y62.4264 
G01 X3.3396 Y62.2623 
G01 X3.3909 Y62.1043 
G01 X3.4663 Y61.9564 
G01 X3.5639 Y61.8220 
G01 X3.6814 Y61.7045 
G01 X3.8158 Y61.6069 
G01 X3.9637 Y61.5315 
G01 X4.1217 Y61.4802 
G01 X4.2858 Y61.4542 
G01 X4.4518 Y61.4542 
G01 X4.6159 Y61.4802 
G01 X4.7739 Y61.5315 
G01 X4.9218 Y61.6069 
G01 X5.0562 Y61.7045 
G01 X5.1737 Y61.8220 
G01 X5.2713 Y61.9564 
G01 X5.3467 Y62.1043 
G01 X5.3980 Y62.2623 
G01 X5.4240 Y62.4264 
G00 Z2.5400 
G00 X11.9264 Y62.4264 
G01 Z-0.1500 F254.00 
G01 X11.9264 Y62.5924 F508.00 
G01 X11.9004 Y62.7565 
G01 X11.8491 Y62.9145 
G01 X11.7737 Y63.0624 
G01 X11.6761 Y63.1968 
G01 X11.5586 Y63.3143 
G01 X11.4242 Y63.4119 
G01 X11.2763 Y63.4873 
G01 X11.1183 Y63.5386 
G01 X10.9542 Y63.5646 
G01 X10.7881 Y63.5646 
G01 X10.6241 Y63.5386 
G01 X10.4661 Y63.4873 
G01 X10.3182 Y63.4119 
G01 X10.1838 Y63.3143 
G01 X10.0663 Y63.1968 
G01 X9.9687 Y63.0624 
G01 X9.8933 Y62.9145 
G01 X9.8420 Y62.7565 
G01 X9.8160 Y62.5924 
G01 X9.8160 Y62.4264 
G01 X9.8420 Y62.2623 
G01 X9.8933 Y62.1043 
G01 X9.9687 Y61.9564 
G01 X10.0663 Y61.8220 
G01 X10.1838 Y61.7045 
G01 X10.3182 Y61.6069 
G01 X10.4661 Y61.5315 
G01 X10.6241 Y61.4802 
G01 X10.7881 Y61.4542 
G01 X10.9542 Y61.4542 
G01 X11.1183 Y61.4802 
G01 X11.2763 Y61.5315 
G01 X11.4242 Y61.6069 
G01 X11.5586 Y61.7045 
G01 X11.6761 Y61.8220 
G01 X11.7737 Y61.9564 
G01 X11.8491 Y62.1043 
G01 X11.9004 Y62.2623 
G01 X11.9264 Y62.4264 
G00 Z2.5400 
G00 X17.9254 Y83.1970 
G01 Z-0.1500 F254.00 
G01 X17.9254 Y83.6226 F508.00 
G01 X17.9855 Y83.6827 
G01 X18.0224 Y83.7718 
G01 X18.0224 Y83.8682 
G01 X17.9855 Y83.9573 
G01 X17.9254 Y84.0174 
G01 X17.9254 Y84.4430 
G01 X17.9078 Y84.4854 
G01 X17.8754 Y84.5178 
G01 X17.8330 Y84.5354 
G01 X16.9870 Y84.5354 
G01 X16.9446 Y84.5178 
G01 X16.9122 Y84.4854 
G01 X16.8946 Y84.4430 
G01 X16.8946 Y83.2774 
G01 X16.3727 Y82.7555 
G01 X16.3045 Y82.6873 
G01 X16.2676 Y82.5982 
G01 X16.2676 Y76.1518 
G01 X16.3045 Y76.0627 
G01 X27.5972 Y64.7700 
G01 X17.9254 Y55.0982 
G01 X17.9254 Y55.2330 
G01 X17.9078 Y55.2754 
G01 X17.8754 Y55.3078 
G01 X17.8330 Y55.3254 
G01 X16.9870 Y55.3254 
G01 X16.9446 Y55.3078 
G01 X16.9122 Y55.2754 
G01 X16.8946 Y55.2330 
G01 X16.8946 Y53.9870 
G01 X16.9122 Y53.9446 
G01 X16.9446 Y53.9122 
G01 X16.9870 Y53.8946 
G01 X17.8330 Y53.8946 
G01 X17.8754 Y53.9122 
G01 X17.9078 Y53.9446 
G01 X17.9254 Y53.9870 
G01 X17.9254 Y54.4126 
G01 X17.9855 Y54.4727 
G01 X28.0773 Y64.5645 
G01 X28.1455 Y64.6327 
G01 X31.6934 Y68.1806 
G01 X31.7570 Y68.0855 
G01 X31.8651 Y67.9774 
G01 X31.9921 Y67.8925 
G01 X32.1333 Y67.8340 
G01 X32.2832 Y67.8042 
G01 X33.7568 Y67.8042 
G01 X33.9067 Y67.8340 
G01 X34.0479 Y67.8925 
G01 X34.1749 Y67.9774 
G01 X34.2830 Y68.0855 
G01 X34.3679 Y68.2125 
G01 X34.4264 Y68.3537 
G01 X34.4562 Y68.5036 
G01 X34.4562 Y68.6564 
G01 X34.4264 Y68.8063 
G01 X34.3679 Y68.9475 
G01 X34.2830 Y69.0745 
G01 X34.1749 Y69.1826 
G01 X34.0479 Y69.2675 
G01 X33.9067 Y69.3260 
G01 X33.7568 Y69.3558 
G01 X32.2832 Y69.3558 
G01 X32.1333 Y69.3260 
G01 X31.9921 Y69.2675 
G01 X31.8651 Y69.1826 
G01 X31.7570 Y69.0745 
G01 X31.6721 Y68.9475 
G01 X31.6136 Y68.8063 
G01 X31.6087 Y68.7815 
G01 X31.5445 Y68.7173 
G01 X27.9400 Y65.1128 
G01 X16.7524 Y76.3004 
G01 X16.7524 Y82.4496 
G01 X17.4074 Y83.1046 
G01 X17.8330 Y83.1046 
G01 X17.8754 Y83.1222 
G01 X17.9078 Y83.1546 
G01 X17.9254 Y83.1970 
G00 Z2.5400 
G00 X17.9254 Y50.1770 
G01 Z-0.1500 F254.00 
G01 X17.9254 Y50.6026 F508.00 
G01 X17.9855 Y50.6627 
G01 X21.8556 Y54.5328 
G01 X21.8556 Y53.0630 
G01 X21.8732 Y53.0206 
G01 X21.9056 Y52.9882 
G01 X21.9480 Y52.9706 
G01 X23.7720 Y52.9706 
G01 X23.8144 Y52.9882 
G01 X23.8468 Y53.0206 
G01 X23.8644 Y53.0630 
G01 X23.8644 Y53.2628 
G01 X23.8876 Y53.2396 
G01 X23.8876 Y48.2118 
G01 X23.9245 Y48.1227 
G01 X23.9927 Y48.0545 
G01 X24.0818 Y48.0176 
G01 X31.6203 Y48.0176 
G01 X31.6721 Y47.8925 
G01 X31.7570 Y47.7655 
G01 X31.8651 Y47.6574 
G01 X31.9921 Y47.5725 
G01 X32.1333 Y47.5140 
G01 X32.2832 Y47.4842 
G01 X33.7568 Y47.4842 
G01 X33.9067 Y47.5140 
G01 X34.0479 Y47.5725 
G01 X34.1749 Y47.6574 
G01 X34.2830 Y47.7655 
G01 X34.3679 Y47.8925 
G01 X34.4264 Y48.0337 
G01 X34.4562 Y48.1836 
G01 X34.4562 Y48.3364 
G01 X34.4264 Y48.4863 
G01 X34.3679 Y48.6275 
G01 X34.2830 Y48.7545 
G01 X34.1749 Y48.8626 
G01 X34.0479 Y48.9475 
G01 X33.9067 Y49.0060 
G01 X33.7568 Y49.0358 
G01 X32.2832 Y49.0358 
G01 X32.1333 Y49.0060 
G01 X31.9921 Y48.9475 
G01 X31.8651 Y48.8626 
G01 X31.7570 Y48.7545 
G01 X31.6721 Y48.6275 
G01 X31.6203 Y48.5024 
G01 X24.3724 Y48.5024 
G01 X24.3724 Y53.3882 
G01 X24.3355 Y53.4773 
G01 X23.8644 Y53.9484 
G01 X23.8644 Y58.1890 
G01 X23.8468 Y58.2314 
G01 X23.8144 Y58.2638 
G01 X23.7720 Y58.2814 
G01 X21.9480 Y58.2814 
G01 X21.9056 Y58.2638 
G01 X21.8732 Y58.2314 
G01 X21.8556 Y58.1890 
G01 X21.8556 Y55.2184 
G01 X17.9254 Y51.2882 
G01 X17.9254 Y51.4230 
G01 X17.9078 Y51.4654 
G01 X17.8754 Y51.4978 
G01 X17.8330 Y51.5154 
G01 X16.9870 Y51.5154 
G01 X16.9446 Y51.4978 
G01 X16.9122 Y51.4654 
G01 X16.8946 Y51.4230 
G01 X16.8946 Y50.1770 
G01 X16.9122 Y50.1346 
G01 X16.9446 Y50.1022 
G01 X16.9870 Y50.0846 
G01 X17.8330 Y50.0846 
G01 X17.8754 Y50.1022 
G01 X17.9078 Y50.1346 
G01 X17.9254 Y50.1770 
G00 Z2.5400 
G00 X16.1254 Y50.1770 
G01 Z-0.1500 F254.00 
G01 X16.1254 Y51.4230 F508.00 
G01 X16.1078 Y51.4654 
G01 X16.0754 Y51.4978 
G01 X16.0330 Y51.5154 
G01 X15.4824 Y51.5154 
G01 X15.4824 Y53.8946 
G01 X16.0330 Y53.8946 
G01 X16.0754 Y53.9122 
G01 X16.1078 Y53.9446 
G01 X16.1254 Y53.9870 
G01 X16.1254 Y55.2330 
G01 X16.1078 Y55.2754 
G01 X16.0754 Y55.3078 
G01 X16.0330 Y55.3254 
G01 X15.4824 Y55.3254 
G01 X15.4824 Y78.0246 
G01 X16.0330 Y78.0246 
G01 X16.0754 Y78.0422 
G01 X16.1078 Y78.0746 
G01 X16.1254 Y78.1170 
G01 X16.1254 Y79.3630 
G01 X16.1078 Y79.4054 
G01 X16.0754 Y79.4378 
G01 X16.0330 Y79.4554 
G01 X15.1870 Y79.4554 
G01 X15.1446 Y79.4378 
G01 X15.1122 Y79.4054 
G01 X15.0946 Y79.3630 
G01 X15.0946 Y78.9824 
G01 X11.6724 Y78.9824 
G01 X11.6724 Y79.4247 
G01 X11.7959 Y79.4247 
G01 X11.8383 Y79.4423 
G01 X11.8707 Y79.4747 
G01 X11.8883 Y79.5171 
G01 X11.8883 Y81.0617 
G01 X11.8707 Y81.1041 
G01 X11.8383 Y81.1365 
G01 X11.7959 Y81.1541 
G01 X9.7433 Y81.1541 
G01 X9.7009 Y81.1365 
G01 X9.6685 Y81.1041 
G01 X9.6509 Y81.0617 
G01 X9.6509 Y79.5171 
G01 X9.6685 Y79.4747 
G01 X9.7009 Y79.4423 
G01 X9.7433 Y79.4247 
G01 X11.1876 Y79.4247 
G01 X11.1876 Y68.0373 
G01 X11.1183 Y68.0598 
G01 X10.9542 Y68.0858 
G01 X10.7881 Y68.0858 
G01 X10.6241 Y68.0598 
G01 X10.4661 Y68.0085 
G01 X10.3182 Y67.9331 
G01 X10.1838 Y67.8355 
G01 X10.0663 Y67.7180 
G01 X9.9687 Y67.5836 
G01 X9.8933 Y67.4357 
G01 X9.8420 Y67.2777 
G01 X9.8160 Y67.1136 
G01 X9.8160 Y66.9476 
G01 X9.8420 Y66.7835 
G01 X9.8933 Y66.6255 
G01 X9.9687 Y66.4776 
G01 X10.0663 Y66.3432 
G01 X10.1838 Y66.2257 
G01 X10.3182 Y66.1281 
G01 X10.4661 Y66.0527 
G01 X10.6241 Y66.0014 
G01 X10.7881 Y65.9754 
G01 X10.9542 Y65.9754 
G01 X11.1183 Y66.0014 
G01 X11.2763 Y66.0527 
G01 X11.4242 Y66.1281 
G01 X11.5586 Y66.2257 
G01 X11.6761 Y66.3432 
G01 X11.7737 Y66.4776 
G01 X11.8491 Y66.6255 
G01 X11.9004 Y66.7835 
G01 X11.9264 Y66.9476 
G01 X11.9264 Y67.1136 
G01 X11.9004 Y67.2777 
G01 X11.8491 Y67.4357 
G01 X11.7737 Y67.5836 
G01 X11.6761 Y67.7180 
G01 X11.6724 Y67.7217 
G01 X11.6724 Y78.4976 
G01 X14.9976 Y78.4976 
G01 X14.9976 Y46.9418 
G01 X15.0345 Y46.8527 
G01 X15.0946 Y46.7926 
G01 X15.0946 Y46.3670 
G01 X15.1122 Y46.3246 
G01 X15.1446 Y46.2922 
G01 X15.1870 Y46.2746 
G01 X16.0330 Y46.2746 
G01 X16.0754 Y46.2922 
G01 X16.1078 Y46.3246 
G01 X16.1254 Y46.3670 
G01 X16.1254 Y47.6130 
G01 X16.1078 Y47.6554 
G01 X16.0754 Y47.6878 
G01 X16.0330 Y47.7054 
G01 X15.4824 Y47.7054 
G01 X15.4824 Y50.0846 
G01 X16.0330 Y50.0846 
G01 X16.0754 Y50.1022 
G01 X16.1078 Y50.1346 
G01 X16.1254 Y50.1770 
G00 Z2.5400 
G00 X23.7720 Y48.6294 
G01 Z-0.1500 F254.00 
G01 X21.9480 Y48.6294 F508.00 
G01 X21.9056 Y48.6118 
G01 X21.8732 Y48.5794 
G01 X21.8556 Y48.5370 
G01 X21.8556 Y47.2324 
G01 X17.9254 Y47.2324 
G01 X17.9254 Y47.6130 
G01 X17.9078 Y47.6554 
G01 X17.8754 Y47.6878 
G01 X17.8330 Y47.7054 
G01 X16.9870 Y47.7054 
G01 X16.9446 Y47.6878 
G01 X16.9122 Y47.6554 
G01 X16.8946 Y47.6130 
G01 X16.8946 Y46.3670 
G01 X16.9122 Y46.3246 
G01 X16.9446 Y46.2922 
G01 X16.9870 Y46.2746 
G01 X17.8330 Y46.2746 
G01 X17.8754 Y46.2922 
G01 X17.9078 Y46.3246 
G01 X17.9254 Y46.3670 
G01 X17.9254 Y46.7476 
G01 X21.8556 Y46.7476 
G01 X21.8556 Y43.4110 
G01 X21.8732 Y43.3686 
G01 X21.9056 Y43.3362 
G01 X21.9480 Y43.3186 
G01 X23.7720 Y43.3186 
G01 X23.8144 Y43.3362 
G01 X23.8468 Y43.3686 
G01 X23.8644 Y43.4110 
G01 X23.8644 Y45.4776 
G01 X31.6203 Y45.4776 
G01 X31.6721 Y45.3525 
G01 X31.7570 Y45.2255 
G01 X31.8651 Y45.1174 
G01 X31.9921 Y45.0325 
G01 X32.1333 Y44.9740 
G01 X32.2832 Y44.9442 
G01 X33.7568 Y44.9442 
G01 X33.9067 Y44.9740 
G01 X34.0479 Y45.0325 
G01 X34.1749 Y45.1174 
G01 X34.2830 Y45.2255 
G01 X34.3679 Y45.3525 
G01 X34.4264 Y45.4937 
G01 X34.4562 Y45.6436 
G01 X34.4562 Y45.7964 
G01 X34.4264 Y45.9463 
G01 X34.3679 Y46.0875 
G01 X34.2830 Y46.2145 
G01 X34.1749 Y46.3226 
G01 X34.0479 Y46.4075 
G01 X33.9067 Y46.4660 
G01 X33.7568 Y46.4958 
G01 X32.2832 Y46.4958 
G01 X32.1333 Y46.4660 
G01 X31.9921 Y46.4075 
G01 X31.8651 Y46.3226 
G01 X31.7570 Y46.2145 
G01 X31.6721 Y46.0875 
G01 X31.6203 Y45.9624 
G01 X23.8644 Y45.9624 
G01 X23.8644 Y48.5370 
G01 X23.8468 Y48.5794 
G01 X23.8144 Y48.6118 
G01 X23.7720 Y48.6294 
G00 Z2.5400 
G00 X41.3768 Y69.3558 
G01 Z-0.1500 F254.00 
G01 X39.9032 Y69.3558 F508.00 
G01 X39.7533 Y69.3260 
G01 X39.6121 Y69.2675 
G01 X39.4851 Y69.1826 
G01 X39.3770 Y69.0745 
G01 X39.2921 Y68.9475 
G01 X39.2336 Y68.8063 
G01 X39.2038 Y68.6564 
G01 X39.2038 Y68.5036 
G01 X39.2336 Y68.3537 
G01 X39.2921 Y68.2125 
G01 X39.3770 Y68.0855 
G01 X39.4851 Y67.9774 
G01 X39.6121 Y67.8925 
G01 X39.7533 Y67.8340 
G01 X39.9032 Y67.8042 
G01 X41.3768 Y67.8042 
G01 X41.5267 Y67.8340 
G01 X41.6679 Y67.8925 
G01 X41.7949 Y67.9774 
G01 X41.9030 Y68.0855 
G01 X41.9879 Y68.2125 
G01 X42.0464 Y68.3537 
G01 X42.0762 Y68.5036 
G01 X42.0762 Y68.6564 
G01 X42.0464 Y68.8063 
G01 X41.9879 Y68.9475 
G01 X41.9030 Y69.0745 
G01 X41.7949 Y69.1826 
G01 X41.6679 Y69.2675 
G01 X41.5267 Y69.3260 
G01 X41.3768 Y69.3558 
G00 Z2.5400 
G00 X41.3768 Y66.8158 
G01 Z-0.1500 F254.00 
G01 X39.9032 Y66.8158 F508.00 
G01 X39.7533 Y66.7860 
G01 X39.6121 Y66.7275 
G01 X39.4851 Y66.6426 
G01 X39.3770 Y66.5345 
G01 X39.2921 Y66.4075 
G01 X39.2336 Y66.2663 
G01 X39.2038 Y66.1164 
G01 X39.2038 Y65.9636 
G01 X39.2336 Y65.8137 
G01 X39.2921 Y65.6725 
G01 X39.3770 Y65.5455 
G01 X39.4851 Y65.4374 
G01 X39.6121 Y65.3525 
G01 X39.7533 Y65.2940 
G01 X39.9032 Y65.2642 
G01 X41.3768 Y65.2642 
G01 X41.5267 Y65.2940 
G01 X41.6679 Y65.3525 
G01 X41.7949 Y65.4374 
G01 X41.9030 Y65.5455 
G01 X41.9879 Y65.6725 
G01 X42.0464 Y65.8137 
G01 X42.0762 Y65.9636 
G01 X42.0762 Y66.1164 
G01 X42.0464 Y66.2663 
G01 X41.9879 Y66.4075 
G01 X41.9030 Y66.5345 
G01 X41.7949 Y66.6426 
G01 X41.6679 Y66.7275 
G01 X41.5267 Y66.7860 
G01 X41.3768 Y66.8158 
G00 Z2.5400 
G00 X41.3768 Y64.2758 
G01 Z-0.1500 F254.00 
G01 X39.9032 Y64.2758 F508.00 
G01 X39.7533 Y64.2460 
G01 X39.6121 Y64.1875 
G01 X39.4851 Y64.1026 
G01 X39.3770 Y63.9945 
G01 X39.2921 Y63.8675 
G01 X39.2336 Y63.7263 
G01 X39.2038 Y63.5764 
G01 X39.2038 Y63.4236 
G01 X39.2336 Y63.2737 
G01 X39.2921 Y63.1325 
G01 X39.3770 Y63.0055 
G01 X39.4851 Y62.8974 
G01 X39.6121 Y62.8125 
G01 X39.7533 Y62.7540 
G01 X39.9032 Y62.7242 
G01 X41.3768 Y62.7242 
G01 X41.5267 Y62.7540 
G01 X41.6679 Y62.8125 
G01 X41.7949 Y62.8974 
G01 X41.9030 Y63.0055 
G01 X41.9879 Y63.1325 
G01 X42.0464 Y63.2737 
G01 X42.0762 Y63.4236 
G01 X42.0762 Y63.5764 
G01 X42.0464 Y63.7263 
G01 X41.9879 Y63.8675 
G01 X41.9030 Y63.9945 
G01 X41.7949 Y64.1026 
G01 X41.6679 Y64.1875 
G01 X41.5267 Y64.2460 
G01 X41.3768 Y64.2758 
G00 Z2.5400 
G00 X41.3768 Y61.7358 
G01 Z-0.1500 F254.00 
G01 X39.9032 Y61.7358 F508.00 
G01 X39.7533 Y61.7060 
G01 X39.6121 Y61.6475 
G01 X39.4851 Y61.5626 
G01 X39.3770 Y61.4545 
G01 X39.2921 Y61.3275 
G01 X39.2336 Y61.1863 
G01 X39.2038 Y61.0364 
G01 X39.2038 Y60.8836 
G01 X39.2336 Y60.7337 
G01 X39.2921 Y60.5925 
G01 X39.3770 Y60.4655 
G01 X39.4851 Y60.3574 
G01 X39.6121 Y60.2725 
G01 X39.7533 Y60.2140 
G01 X39.9032 Y60.1842 
G01 X41.3768 Y60.1842 
G01 X41.5267 Y60.2140 
G01 X41.6679 Y60.2725 
G01 X41.7949 Y60.3574 
G01 X41.9030 Y60.4655 
G01 X41.9879 Y60.5925 
G01 X42.0464 Y60.7337 
G01 X42.0762 Y60.8836 
G01 X42.0762 Y61.0364 
G01 X42.0464 Y61.1863 
G01 X41.9879 Y61.3275 
G01 X41.9030 Y61.4545 
G01 X41.7949 Y61.5626 
G01 X41.6679 Y61.6475 
G01 X41.5267 Y61.7060 
G01 X41.3768 Y61.7358 
G00 Z2.5400 
G00 X41.3768 Y59.1958 
G01 Z-0.1500 F254.00 
G01 X39.9032 Y59.1958 F508.00 
G01 X39.7533 Y59.1660 
G01 X39.6121 Y59.1075 
G01 X39.4851 Y59.0226 
G01 X39.3770 Y58.9145 
G01 X39.2921 Y58.7875 
G01 X39.2336 Y58.6463 
G01 X39.2038 Y58.4964 
G01 X39.2038 Y58.3436 
G01 X39.2336 Y58.1937 
G01 X39.2921 Y58.0525 
G01 X39.3770 Y57.9255 
G01 X39.4851 Y57.8174 
G01 X39.6121 Y57.7325 
G01 X39.7533 Y57.6740 
G01 X39.9032 Y57.6442 
G01 X41.3768 Y57.6442 
G01 X41.5267 Y57.6740 
G01 X41.6679 Y57.7325 
G01 X41.7949 Y57.8174 
G01 X41.9030 Y57.9255 
G01 X41.9879 Y58.0525 
G01 X42.0464 Y58.1937 
G01 X42.0762 Y58.3436 
G01 X42.0762 Y58.4964 
G01 X42.0464 Y58.6463 
G01 X41.9879 Y58.7875 
G01 X41.9030 Y58.9145 
G01 X41.7949 Y59.0226 
G01 X41.6679 Y59.1075 
G01 X41.5267 Y59.1660 
G01 X41.3768 Y59.1958 
G00 Z2.5400 
G00 X41.3768 Y56.6558 
G01 Z-0.1500 F254.00 
G01 X39.9032 Y56.6558 F508.00 
G01 X39.7533 Y56.6260 
G01 X39.6121 Y56.5675 
G01 X39.4851 Y56.4826 
G01 X39.3770 Y56.3745 
G01 X39.2921 Y56.2475 
G01 X39.2336 Y56.1063 
G01 X39.2038 Y55.9564 
G01 X39.2038 Y55.8036 
G01 X39.2336 Y55.6537 
G01 X39.2921 Y55.5125 
G01 X39.3770 Y55.3855 
G01 X39.4851 Y55.2774 
G01 X39.6121 Y55.1925 
G01 X39.7533 Y55.1340 
G01 X39.9032 Y55.1042 
G01 X41.3768 Y55.1042 
G01 X41.5267 Y55.1340 
G01 X41.6679 Y55.1925 
G01 X41.7949 Y55.2774 
G01 X41.9030 Y55.3855 
G01 X41.9879 Y55.5125 
G01 X42.0464 Y55.6537 
G01 X42.0762 Y55.8036 
G01 X42.0762 Y55.9564 
G01 X42.0464 Y56.1063 
G01 X41.9879 Y56.2475 
G01 X41.9030 Y56.3745 
G01 X41.7949 Y56.4826 
G01 X41.6679 Y56.5675 
G01 X41.5267 Y56.6260 
G01 X41.3768 Y56.6558 
G00 Z2.5400 
G00 X41.3768 Y54.1158 
G01 Z-0.1500 F254.00 
G01 X39.9032 Y54.1158 F508.00 
G01 X39.7533 Y54.0860 
G01 X39.6121 Y54.0275 
G01 X39.4851 Y53.9426 
G01 X39.3770 Y53.8345 
G01 X39.2921 Y53.7075 
G01 X39.2336 Y53.5663 
G01 X39.2038 Y53.4164 
G01 X39.2038 Y53.2636 
G01 X39.2336 Y53.1137 
G01 X39.2921 Y52.9725 
G01 X39.3770 Y52.8455 
G01 X39.4851 Y52.7374 
G01 X39.6121 Y52.6525 
G01 X39.7533 Y52.5940 
G01 X39.9032 Y52.5642 
G01 X41.3768 Y52.5642 
G01 X41.5267 Y52.5940 
G01 X41.6679 Y52.6525 
G01 X41.7949 Y52.7374 
G01 X41.9030 Y52.8455 
G01 X41.9879 Y52.9725 
G01 X42.0464 Y53.1137 
G01 X42.0762 Y53.2636 
G01 X42.0762 Y53.4164 
G01 X42.0464 Y53.5663 
G01 X41.9879 Y53.7075 
G01 X41.9030 Y53.8345 
G01 X41.7949 Y53.9426 
G01 X41.6679 Y54.0275 
G01 X41.5267 Y54.0860 
G01 X41.3768 Y54.1158 
G00 Z2.5400 
G00 X41.3768 Y51.5758 
G01 Z-0.1500 F254.00 
G01 X39.9032 Y51.5758 F508.00 
G01 X39.7533 Y51.5460 
G01 X39.6121 Y51.4875 
G01 X39.4851 Y51.4026 
G01 X39.3770 Y51.2945 
G01 X39.2921 Y51.1675 
G01 X39.2336 Y51.0263 
G01 X39.2038 Y50.8764 
G01 X39.2038 Y50.7236 
G01 X39.2336 Y50.5737 
G01 X39.2921 Y50.4325 
G01 X39.3770 Y50.3055 
G01 X39.4851 Y50.1974 
G01 X39.6121 Y50.1125 
G01 X39.7533 Y50.0540 
G01 X39.9032 Y50.0242 
G01 X41.3768 Y50.0242 
G01 X41.5267 Y50.0540 
G01 X41.6679 Y50.1125 
G01 X41.7949 Y50.1974 
G01 X41.9030 Y50.3055 
G01 X41.9879 Y50.4325 
G01 X42.0464 Y50.5737 
G01 X42.0762 Y50.7236 
G01 X42.0762 Y50.8764 
G01 X42.0464 Y51.0263 
G01 X41.9879 Y51.1675 
G01 X41.9030 Y51.2945 
G01 X41.7949 Y51.4026 
G01 X41.6679 Y51.4875 
G01 X41.5267 Y51.5460 
G01 X41.3768 Y51.5758 
G00 Z2.5400 
G00 X41.3768 Y49.0358 
G01 Z-0.1500 F254.00 
G01 X40.2070 Y49.0358 F508.00 
G01 X38.3424 Y50.9004 
G01 X38.3424 Y85.1382 
G01 X38.3055 Y85.2273 
G01 X38.2373 Y85.2955 
G01 X37.6488 Y85.8840 
G01 X37.7455 Y85.9808 
G01 X37.7455 Y86.7392 
G01 X37.2092 Y87.2755 
G01 X36.4508 Y87.2755 
G01 X35.9145 Y86.7392 
G01 X35.9145 Y85.9808 
G01 X36.4508 Y85.4445 
G01 X37.2092 Y85.4445 
G01 X37.3060 Y85.5412 
G01 X37.8576 Y84.9896 
G01 X37.8576 Y50.7518 
G01 X37.8945 Y50.6627 
G01 X39.6107 Y48.9465 
G01 X39.4851 Y48.8626 
G01 X39.3770 Y48.7545 
G01 X39.2921 Y48.6275 
G01 X39.2336 Y48.4863 
G01 X39.2038 Y48.3364 
G01 X39.2038 Y48.1836 
G01 X39.2336 Y48.0337 
G01 X39.2921 Y47.8925 
G01 X39.3770 Y47.7655 
G01 X39.4851 Y47.6574 
G01 X39.6121 Y47.5725 
G01 X39.7533 Y47.5140 
G01 X39.9032 Y47.4842 
G01 X41.3768 Y47.4842 
G01 X41.5267 Y47.5140 
G01 X41.6679 Y47.5725 
G01 X41.7949 Y47.6574 
G01 X41.9030 Y47.7655 
G01 X41.9879 Y47.8925 
G01 X42.0464 Y48.0337 
G01 X42.0762 Y48.1836 
G01 X42.0762 Y48.3364 
G01 X42.0464 Y48.4863 
G01 X41.9879 Y48.6275 
G01 X41.9030 Y48.7545 
G01 X41.7949 Y48.8626 
G01 X41.6679 Y48.9475 
G01 X41.5267 Y49.0060 
G01 X41.3768 Y49.0358 
G00 Z2.5400 
G00 X41.3768 Y46.4958 
G01 Z-0.1500 F254.00 
G01 X39.9032 Y46.4958 F508.00 
G01 X39.7533 Y46.4660 
G01 X39.6121 Y46.4075 
G01 X39.4851 Y46.3226 
G01 X39.3770 Y46.2145 
G01 X39.2921 Y46.0875 
G01 X39.2336 Y45.9463 
G01 X39.2038 Y45.7964 
G01 X39.2038 Y45.6436 
G01 X39.2336 Y45.4937 
G01 X39.2921 Y45.3525 
G01 X39.3770 Y45.2255 
G01 X39.4851 Y45.1174 
G01 X39.6121 Y45.0325 
G01 X39.7533 Y44.9740 
G01 X39.9032 Y44.9442 
G01 X41.3768 Y44.9442 
G01 X41.5267 Y44.9740 
G01 X41.6679 Y45.0325 
G01 X41.7949 Y45.1174 
G01 X41.9030 Y45.2255 
G01 X41.9879 Y45.3525 
G01 X42.0464 Y45.4937 
G01 X42.0762 Y45.6436 
G01 X42.0762 Y45.7964 
G01 X42.0464 Y45.9463 
G01 X41.9879 Y46.0875 
G01 X41.9030 Y46.2145 
G01 X41.7949 Y46.3226 
G01 X41.6679 Y46.4075 
G01 X41.5267 Y46.4660 
G01 X41.3768 Y46.4958 
G00 Z2.5400 
G00 X41.3768 Y43.9558 
G01 Z-0.1500 F254.00 
G01 X39.9032 Y43.9558 F508.00 
G01 X39.7533 Y43.9260 
G01 X39.6121 Y43.8675 
G01 X39.4851 Y43.7826 
G01 X39.3770 Y43.6745 
G01 X39.2921 Y43.5475 
G01 X39.2336 Y43.4063 
G01 X39.2038 Y43.2564 
G01 X39.2038 Y43.1036 
G01 X39.2336 Y42.9537 
G01 X39.2921 Y42.8125 
G01 X39.3770 Y42.6855 
G01 X39.4851 Y42.5774 
G01 X39.6121 Y42.4925 
G01 X39.7533 Y42.4340 
G01 X39.9032 Y42.4042 
G01 X41.3768 Y42.4042 
G01 X41.5267 Y42.4340 
G01 X41.6679 Y42.4925 
G01 X41.7949 Y42.5774 
G01 X41.9030 Y42.6855 
G01 X41.9879 Y42.8125 
G01 X42.0464 Y42.9537 
G01 X42.0762 Y43.1036 
G01 X42.0762 Y43.2564 
G01 X42.0464 Y43.4063 
G01 X41.9879 Y43.5475 
G01 X41.9030 Y43.6745 
G01 X41.7949 Y43.7826 
G01 X41.6679 Y43.8675 
G01 X41.5267 Y43.9260 
G01 X41.3768 Y43.9558 
G00 Z2.5400 
G00 X41.3768 Y41.4158 
G01 Z-0.1500 F254.00 
G01 X39.9032 Y41.4158 F508.00 
G01 X39.7533 Y41.3860 
G01 X39.6121 Y41.3275 
G01 X39.4851 Y41.2426 
G01 X39.3770 Y41.1345 
G01 X39.2921 Y41.0075 
G01 X39.2336 Y40.8663 
G01 X39.2038 Y40.7164 
G01 X39.2038 Y40.5636 
G01 X39.2336 Y40.4137 
G01 X39.2921 Y40.2725 
G01 X39.3770 Y40.1455 
G01 X39.4851 Y40.0374 
G01 X39.6121 Y39.9525 
G01 X39.7533 Y39.8940 
G01 X39.9032 Y39.8642 
G01 X41.3768 Y39.8642 
G01 X41.5267 Y39.8940 
G01 X41.6679 Y39.9525 
G01 X41.7949 Y40.0374 
G01 X41.9030 Y40.1455 
G01 X41.9879 Y40.2725 
G01 X42.0464 Y40.4137 
G01 X42.0762 Y40.5636 
G01 X42.0762 Y40.7164 
G01 X42.0464 Y40.8663 
G01 X41.9879 Y41.0075 
G01 X41.9030 Y41.1345 
G01 X41.7949 Y41.2426 
G01 X41.6679 Y41.3275 
G01 X41.5267 Y41.3860 
G01 X41.3768 Y41.4158 
G00 Z2.5400 
G00 X41.3768 Y38.8758 
G01 Z-0.1500 F254.00 
G01 X39.9032 Y38.8758 F508.00 
G01 X39.7533 Y38.8460 
G01 X39.6121 Y38.7875 
G01 X39.4851 Y38.7026 
G01 X39.3770 Y38.5945 
G01 X39.2921 Y38.4675 
G01 X39.2336 Y38.3263 
G01 X39.2038 Y38.1764 
G01 X39.2038 Y38.0236 
G01 X39.2336 Y37.8737 
G01 X39.2921 Y37.7325 
G01 X39.3770 Y37.6055 
G01 X39.4851 Y37.4974 
G01 X39.6121 Y37.4125 
G01 X39.7533 Y37.3540 
G01 X39.9032 Y37.3242 
G01 X41.3768 Y37.3242 
G01 X41.5267 Y37.3540 
G01 X41.6679 Y37.4125 
G01 X41.7949 Y37.4974 
G01 X41.9030 Y37.6055 
G01 X41.9879 Y37.7325 
G01 X42.0464 Y37.8737 
G01 X42.0762 Y38.0236 
G01 X42.0762 Y38.1764 
G01 X42.0464 Y38.3263 
G01 X41.9879 Y38.4675 
G01 X41.9030 Y38.5945 
G01 X41.7949 Y38.7026 
G01 X41.6679 Y38.7875 
G01 X41.5267 Y38.8460 
G01 X41.3768 Y38.8758 
G00 Z2.5400 
G00 X41.3768 Y36.3358 
G01 Z-0.1500 F254.00 
G01 X39.9032 Y36.3358 F508.00 
G01 X39.7533 Y36.3060 
G01 X39.6121 Y36.2475 
G01 X39.4851 Y36.1626 
G01 X39.3770 Y36.0545 
G01 X39.2921 Y35.9275 
G01 X39.2336 Y35.7863 
G01 X39.2038 Y35.6364 
G01 X39.2038 Y35.4836 
G01 X39.2336 Y35.3337 
G01 X39.2921 Y35.1925 
G01 X39.3770 Y35.0655 
G01 X39.4851 Y34.9574 
G01 X39.6121 Y34.8725 
G01 X39.7533 Y34.8140 
G01 X39.9032 Y34.7842 
G01 X41.3768 Y34.7842 
G01 X41.5267 Y34.8140 
G01 X41.6679 Y34.8725 
G01 X41.7949 Y34.9574 
G01 X41.9030 Y35.0655 
G01 X41.9879 Y35.1925 
G01 X42.0464 Y35.3337 
G01 X42.0762 Y35.4836 
G01 X42.0762 Y35.6364 
G01 X42.0464 Y35.7863 
G01 X41.9879 Y35.9275 
G01 X41.9030 Y36.0545 
G01 X41.7949 Y36.1626 
G01 X41.6679 Y36.2475 
G01 X41.5267 Y36.3060 
G01 X41.3768 Y36.3358 
G00 Z2.5400 
G00 X33.7568 Y36.3358 
G01 Z-0.1500 F254.00 
G01 X32.2832 Y36.3358 F508.00 
G01 X32.1333 Y36.3060 
G01 X31.9921 Y36.2475 
G01 X31.8651 Y36.1626 
G01 X31.7570 Y36.0545 
G01 X31.6721 Y35.9275 
G01 X31.6136 Y35.7863 
G01 X31.5838 Y35.6364 
G01 X31.5838 Y35.4836 
G01 X31.6136 Y35.3337 
G01 X31.6721 Y35.1925 
G01 X31.7570 Y35.0655 
G01 X31.8651 Y34.9574 
G01 X31.9921 Y34.8725 
G01 X32.1333 Y34.8140 
G01 X32.2832 Y34.7842 
G01 X33.7568 Y34.7842 
G01 X33.9067 Y34.8140 
G01 X34.0479 Y34.8725 
G01 X34.1749 Y34.9574 
G01 X34.2830 Y35.0655 
G01 X34.3679 Y35.1925 
G01 X34.4264 Y35.3337 
G01 X34.4562 Y35.4836 
G01 X34.4562 Y35.6364 
G01 X34.4264 Y35.7863 
G01 X34.3679 Y35.9275 
G01 X34.2830 Y36.0545 
G01 X34.1749 Y36.1626 
G01 X34.0479 Y36.2475 
G01 X33.9067 Y36.3060 
G01 X33.7568 Y36.3358 
G00 Z2.5400 
G00 X33.7568 Y38.8758 
G01 Z-0.1500 F254.00 
G01 X33.2624 Y38.8758 F508.00 
G01 X33.2624 Y39.1276 
G01 X41.9582 Y39.1276 
G01 X42.0473 Y39.1645 
G01 X42.1155 Y39.2327 
G01 X45.9255 Y43.0427 
G01 X45.9624 Y43.1318 
G01 X45.9624 Y54.5096 
G01 X59.5446 Y68.0918 
G01 X59.5446 Y67.9570 
G01 X59.5622 Y67.9146 
G01 X59.5946 Y67.8822 
G01 X59.6370 Y67.8646 
G01 X60.4830 Y67.8646 
G01 X60.5254 Y67.8822 
G01 X60.5578 Y67.9146 
G01 X60.5754 Y67.9570 
G01 X60.5754 Y69.2030 
G01 X60.5578 Y69.2454 
G01 X60.5254 Y69.2778 
G01 X60.4830 Y69.2954 
G01 X59.6370 Y69.2954 
G01 X59.5946 Y69.2778 
G01 X59.5622 Y69.2454 
G01 X59.5446 Y69.2030 
G01 X59.5446 Y68.7774 
G01 X59.4845 Y68.7173 
G01 X45.5827 Y54.8155 
G01 X45.5145 Y54.7473 
G01 X45.4776 Y54.6582 
G01 X45.4776 Y43.2804 
G01 X41.8096 Y39.6124 
G01 X32.9718 Y39.6124 
G01 X32.8827 Y39.5755 
G01 X32.8145 Y39.5073 
G01 X32.7776 Y39.4182 
G01 X32.7776 Y38.8758 
G01 X32.2832 Y38.8758 
G01 X32.1333 Y38.8460 
G01 X31.9921 Y38.7875 
G01 X31.8651 Y38.7026 
G01 X31.7570 Y38.5945 
G01 X31.6721 Y38.4675 
G01 X31.6136 Y38.3263 
G01 X31.5838 Y38.1764 
G01 X31.5838 Y38.0236 
G01 X31.6136 Y37.8737 
G01 X31.6721 Y37.7325 
G01 X31.7570 Y37.6055 
G01 X31.8651 Y37.4974 
G01 X31.9921 Y37.4125 
G01 X32.1333 Y37.3540 
G01 X32.2832 Y37.3242 
G01 X33.7568 Y37.3242 
G01 X33.9067 Y37.3540 
G01 X34.0479 Y37.4125 
G01 X34.1749 Y37.4974 
G01 X34.2830 Y37.6055 
G01 X34.3679 Y37.7325 
G01 X34.4264 Y37.8737 
G01 X34.4562 Y38.0236 
G01 X34.4562 Y38.1764 
G01 X34.4264 Y38.3263 
G01 X34.3679 Y38.4675 
G01 X34.2830 Y38.5945 
G01 X34.1749 Y38.7026 
G01 X34.0479 Y38.7875 
G01 X33.9067 Y38.8460 
G01 X33.7568 Y38.8758 
G00 Z2.5400 
G00 X33.7568 Y41.4158 
G01 Z-0.1500 F254.00 
G01 X32.2832 Y41.4158 F508.00 
G01 X32.1333 Y41.3860 
G01 X31.9921 Y41.3275 
G01 X31.8651 Y41.2426 
G01 X31.7570 Y41.1345 
G01 X31.6721 Y41.0075 
G01 X31.6136 Y40.8663 
G01 X31.5838 Y40.7164 
G01 X31.5838 Y40.5636 
G01 X31.6136 Y40.4137 
G01 X31.6721 Y40.2725 
G01 X31.7570 Y40.1455 
G01 X31.8651 Y40.0374 
G01 X31.9921 Y39.9525 
G01 X32.1333 Y39.8940 
G01 X32.2832 Y39.8642 
G01 X33.7568 Y39.8642 
G01 X33.9067 Y39.8940 
G01 X34.0479 Y39.9525 
G01 X34.1749 Y40.0374 
G01 X34.2830 Y40.1455 
G01 X34.3679 Y40.2725 
G01 X34.4264 Y40.4137 
G01 X34.4562 Y40.5636 
G01 X34.4562 Y40.7164 
G01 X34.4264 Y40.8663 
G01 X34.3679 Y41.0075 
G01 X34.2830 Y41.1345 
G01 X34.1749 Y41.2426 
G01 X34.0479 Y41.3275 
G01 X33.9067 Y41.3860 
G01 X33.7568 Y41.4158 
G00 Z2.5400 
G00 X33.7568 Y43.9558 
G01 Z-0.1500 F254.00 
G01 X32.2832 Y43.9558 F508.00 
G01 X32.1333 Y43.9260 
G01 X31.9921 Y43.8675 
G01 X31.8651 Y43.7826 
G01 X31.7570 Y43.6745 
G01 X31.6721 Y43.5475 
G01 X31.6136 Y43.4063 
G01 X31.5838 Y43.2564 
G01 X31.5838 Y43.1036 
G01 X31.6136 Y42.9537 
G01 X31.6721 Y42.8125 
G01 X31.7570 Y42.6855 
G01 X31.8651 Y42.5774 
G01 X31.9921 Y42.4925 
G01 X32.1333 Y42.4340 
G01 X32.2832 Y42.4042 
G01 X33.7568 Y42.4042 
G01 X33.9067 Y42.4340 
G01 X34.0479 Y42.4925 
G01 X34.1749 Y42.5774 
G01 X34.2830 Y42.6855 
G01 X34.3679 Y42.8125 
G01 X34.4264 Y42.9537 
G01 X34.4562 Y43.1036 
G01 X34.4562 Y43.2564 
G01 X34.4264 Y43.4063 
G01 X34.3679 Y43.5475 
G01 X34.2830 Y43.6745 
G01 X34.1749 Y43.7826 
G01 X34.0479 Y43.8675 
G01 X33.9067 Y43.9260 
G01 X33.7568 Y43.9558 
G00 Z2.5400 
G00 X33.7568 Y54.1158 
G01 Z-0.1500 F254.00 
G01 X32.2832 Y54.1158 F508.00 
G01 X32.1333 Y54.0860 
G01 X31.9921 Y54.0275 
G01 X31.8651 Y53.9426 
G01 X31.7570 Y53.8345 
G01 X31.6721 Y53.7075 
G01 X31.6136 Y53.5663 
G01 X31.5838 Y53.4164 
G01 X31.5838 Y53.2636 
G01 X31.6136 Y53.1137 
G01 X31.6721 Y52.9725 
G01 X31.7570 Y52.8455 
G01 X31.8651 Y52.7374 
G01 X31.9921 Y52.6525 
G01 X32.1333 Y52.5940 
G01 X32.2832 Y52.5642 
G01 X33.7568 Y52.5642 
G01 X33.9067 Y52.5940 
G01 X34.0479 Y52.6525 
G01 X34.1749 Y52.7374 
G01 X34.2830 Y52.8455 
G01 X34.3679 Y52.9725 
G01 X34.4264 Y53.1137 
G01 X34.4562 Y53.2636 
G01 X34.4562 Y53.4164 
G01 X34.4264 Y53.5663 
G01 X34.3679 Y53.7075 
G01 X34.2830 Y53.8345 
G01 X34.1749 Y53.9426 
G01 X34.0479 Y54.0275 
G01 X33.9067 Y54.0860 
G01 X33.7568 Y54.1158 
G00 Z2.5400 
G00 X33.7568 Y56.6558 
G01 Z-0.1500 F254.00 
G01 X32.2832 Y56.6558 F508.00 
G01 X32.1333 Y56.6260 
G01 X31.9921 Y56.5675 
G01 X31.8651 Y56.4826 
G01 X31.7570 Y56.3745 
G01 X31.6721 Y56.2475 
G01 X31.6136 Y56.1063 
G01 X31.5838 Y55.9564 
G01 X31.5838 Y55.8036 
G01 X31.6136 Y55.6537 
G01 X31.6721 Y55.5125 
G01 X31.7570 Y55.3855 
G01 X31.8651 Y55.2774 
G01 X31.9921 Y55.1925 
G01 X32.1333 Y55.1340 
G01 X32.2832 Y55.1042 
G01 X33.7568 Y55.1042 
G01 X33.9067 Y55.1340 
G01 X34.0479 Y55.1925 
G01 X34.1749 Y55.2774 
G01 X34.2830 Y55.3855 
G01 X34.3679 Y55.5125 
G01 X34.4264 Y55.6537 
G01 X34.4562 Y55.8036 
G01 X34.4562 Y55.9564 
G01 X34.4264 Y56.1063 
G01 X34.3679 Y56.2475 
G01 X34.2830 Y56.3745 
G01 X34.1749 Y56.4826 
G01 X34.0479 Y56.5675 
G01 X33.9067 Y56.6260 
G01 X33.7568 Y56.6558 
G00 Z2.5400 
G00 X33.7568 Y59.1958 
G01 Z-0.1500 F254.00 
G01 X32.2832 Y59.1958 F508.00 
G01 X32.1333 Y59.1660 
G01 X31.9921 Y59.1075 
G01 X31.8651 Y59.0226 
G01 X31.7570 Y58.9145 
G01 X31.6721 Y58.7875 
G01 X31.6136 Y58.6463 
G01 X31.5838 Y58.4964 
G01 X31.5838 Y58.3436 
G01 X31.6136 Y58.1937 
G01 X31.6721 Y58.0525 
G01 X31.7570 Y57.9255 
G01 X31.8651 Y57.8174 
G01 X31.9921 Y57.7325 
G01 X32.1333 Y57.6740 
G01 X32.2832 Y57.6442 
G01 X33.7568 Y57.6442 
G01 X33.9067 Y57.6740 
G01 X34.0479 Y57.7325 
G01 X34.1749 Y57.8174 
G01 X34.2830 Y57.9255 
G01 X34.3679 Y58.0525 
G01 X34.4264 Y58.1937 
G01 X34.4562 Y58.3436 
G01 X34.4562 Y58.4964 
G01 X34.4264 Y58.6463 
G01 X34.3679 Y58.7875 
G01 X34.2830 Y58.9145 
G01 X34.1749 Y59.0226 
G01 X34.0479 Y59.1075 
G01 X33.9067 Y59.1660 
G01 X33.7568 Y59.1958 
G00 Z2.5400 
G00 X33.7568 Y61.7358 
G01 Z-0.1500 F254.00 
G01 X32.2832 Y61.7358 F508.00 
G01 X32.1333 Y61.7060 
G01 X31.9921 Y61.6475 
G01 X31.8651 Y61.5626 
G01 X31.7570 Y61.4545 
G01 X31.6721 Y61.3275 
G01 X31.6136 Y61.1863 
G01 X31.5838 Y61.0364 
G01 X31.5838 Y60.8836 
G01 X31.6136 Y60.7337 
G01 X31.6721 Y60.5925 
G01 X31.7570 Y60.4655 
G01 X31.8651 Y60.3574 
G01 X31.9921 Y60.2725 
G01 X32.1333 Y60.2140 
G01 X32.2832 Y60.1842 
G01 X33.7568 Y60.1842 
G01 X33.9067 Y60.2140 
G01 X34.0479 Y60.2725 
G01 X34.1749 Y60.3574 
G01 X34.2830 Y60.4655 
G01 X34.3679 Y60.5925 
G01 X34.4264 Y60.7337 
G01 X34.4562 Y60.8836 
G01 X34.4562 Y61.0364 
G01 X34.4264 Y61.1863 
G01 X34.3679 Y61.3275 
G01 X34.2830 Y61.4545 
G01 X34.1749 Y61.5626 
G01 X34.0479 Y61.6475 
G01 X33.9067 Y61.7060 
G01 X33.7568 Y61.7358 
G00 Z2.5400 
G00 X32.2832 Y66.8158 
G01 Z-0.1500 F254.00 
G01 X32.1333 Y66.7860 F508.00 
G01 X31.9921 Y66.7275 
G01 X31.8651 Y66.6426 
G01 X31.7570 Y66.5345 
G01 X31.6721 Y66.4075 
G01 X31.6136 Y66.2663 
G01 X31.5838 Y66.1164 
G01 X31.5838 Y65.9636 
G01 X31.6136 Y65.8137 
G01 X31.6721 Y65.6725 
G01 X31.7570 Y65.5455 
G01 X31.8651 Y65.4374 
G01 X31.9921 Y65.3525 
G01 X32.1333 Y65.2940 
G01 X32.2832 Y65.2642 
G01 X33.7568 Y65.2642 
G01 X33.9067 Y65.2940 
G01 X34.0479 Y65.3525 
G01 X34.1749 Y65.4374 
G01 X34.2830 Y65.5455 
G01 X34.3679 Y65.6725 
G01 X34.4264 Y65.8137 
G01 X34.4562 Y65.9636 
G01 X34.4562 Y66.1164 
G01 X34.4264 Y66.2663 
G01 X34.3679 Y66.4075 
G01 X34.2830 Y66.5345 
G01 X34.1749 Y66.6426 
G01 X34.0493 Y66.7265 
G01 X35.6973 Y68.3745 
G01 X35.7655 Y68.4427 
G01 X35.8024 Y68.5318 
G01 X35.8024 Y89.9276 
G01 X42.9376 Y89.9276 
G01 X42.9376 Y87.5818 
G01 X42.9745 Y87.4927 
G01 X43.6312 Y86.8360 
G01 X43.5345 Y86.7392 
G01 X43.5345 Y85.9808 
G01 X44.0708 Y85.4445 
G01 X44.8292 Y85.4445 
G01 X45.3655 Y85.9808 
G01 X45.3655 Y86.7392 
G01 X44.8292 Y87.2755 
G01 X44.0708 Y87.2755 
G01 X43.9740 Y87.1788 
G01 X43.4224 Y87.7304 
G01 X43.4224 Y90.2182 
G01 X43.3855 Y90.3073 
G01 X43.3173 Y90.3755 
G01 X43.2282 Y90.4124 
G01 X35.5118 Y90.4124 
G01 X35.4227 Y90.3755 
G01 X35.3545 Y90.3073 
G01 X35.3176 Y90.2182 
G01 X35.3176 Y68.6804 
G01 X33.4530 Y66.8158 
G01 X32.2832 Y66.8158 
G00 Z2.5400 
G00 X151.5226 Y93.5584 
G01 Z-0.1500 F254.00 
G01 X151.5226 Y91.8616 F508.00 
G01 X151.5563 Y91.6921 
G01 X151.6225 Y91.5324 
G01 X151.7185 Y91.3887 
G01 X151.8407 Y91.2665 
G01 X151.9844 Y91.1705 
G01 X152.1441 Y91.1043 
G01 X152.3136 Y91.0706 
G01 X152.4864 Y91.0706 
G01 X152.6559 Y91.1043 
G01 X152.8156 Y91.1705 
G01 X152.9593 Y91.2665 
G01 X153.0815 Y91.3887 
G01 X153.1775 Y91.5324 
G01 X153.2437 Y91.6921 
G01 X153.2774 Y91.8616 
G01 X153.2774 Y93.5584 
G01 X153.2437 Y93.7279 
G01 X153.1775 Y93.8876 
G01 X153.0815 Y94.0313 
G01 X152.9593 Y94.1535 
G01 X152.8156 Y94.2495 
G01 X152.6559 Y94.3157 
G01 X152.4864 Y94.3494 
G01 X152.3136 Y94.3494 
G01 X152.1441 Y94.3157 
G01 X151.9844 Y94.2495 
G01 X151.8407 Y94.1535 
G01 X151.7185 Y94.0313 
G01 X151.6225 Y93.8876 
G01 X151.5563 Y93.7279 
G01 X151.5226 Y93.5584 
G00 Z2.5400 
G00 X148.9826 Y93.5584 
G01 Z-0.1500 F254.00 
G01 X148.9826 Y91.8616 F508.00 
G01 X149.0163 Y91.6921 
G01 X149.0825 Y91.5324 
G01 X149.1785 Y91.3887 
G01 X149.3007 Y91.2665 
G01 X149.4444 Y91.1705 
G01 X149.6041 Y91.1043 
G01 X149.7736 Y91.0706 
G01 X149.9464 Y91.0706 
G01 X150.1159 Y91.1043 
G01 X150.2756 Y91.1705 
G01 X150.4193 Y91.2665 
G01 X150.5415 Y91.3887 
G01 X150.6375 Y91.5324 
G01 X150.7037 Y91.6921 
G01 X150.7374 Y91.8616 
G01 X150.7374 Y93.5584 
G01 X150.7037 Y93.7279 
G01 X150.6375 Y93.8876 
G01 X150.5415 Y94.0313 
G01 X150.4193 Y94.1535 
G01 X150.2756 Y94.2495 
G01 X150.1159 Y94.3157 
G01 X149.9464 Y94.3494 
G01 X149.7736 Y94.3494 
G01 X149.6041 Y94.3157 
G01 X149.4444 Y94.2495 
G01 X149.3007 Y94.1535 
G01 X149.1785 Y94.0313 
G01 X149.0825 Y93.8876 
G01 X149.0163 Y93.7279 
G01 X148.9826 Y93.5584 
G00 Z2.5400 
G00 X146.4426 Y93.5584 
G01 Z-0.1500 F254.00 
G01 X146.4426 Y91.8616 F508.00 
G01 X146.4763 Y91.6921 
G01 X146.5425 Y91.5324 
G01 X146.6385 Y91.3887 
G01 X146.7607 Y91.2665 
G01 X146.9044 Y91.1705 
G01 X147.0641 Y91.1043 
G01 X147.2336 Y91.0706 
G01 X147.4064 Y91.0706 
G01 X147.5759 Y91.1043 
G01 X147.7356 Y91.1705 
G01 X147.8793 Y91.2665 
G01 X148.0015 Y91.3887 
G01 X148.0975 Y91.5324 
G01 X148.1637 Y91.6921 
G01 X148.1974 Y91.8616 
G01 X148.1974 Y93.5584 
G01 X148.1637 Y93.7279 
G01 X148.0975 Y93.8876 
G01 X148.0015 Y94.0313 
G01 X147.8793 Y94.1535 
G01 X147.7356 Y94.2495 
G01 X147.5759 Y94.3157 
G01 X147.4064 Y94.3494 
G01 X147.2336 Y94.3494 
G01 X147.0641 Y94.3157 
G01 X146.9044 Y94.2495 
G01 X146.7607 Y94.1535 
G01 X146.6385 Y94.0313 
G01 X146.5425 Y93.8876 
G01 X146.4763 Y93.7279 
G01 X146.4426 Y93.5584 
G00 Z2.5400 
G00 X143.9026 Y93.5584 
G01 Z-0.1500 F254.00 
G01 X143.9026 Y91.8616 F508.00 
G01 X143.9363 Y91.6921 
G01 X144.0025 Y91.5324 
G01 X144.0985 Y91.3887 
G01 X144.2207 Y91.2665 
G01 X144.3644 Y91.1705 
G01 X144.5241 Y91.1043 
G01 X144.6936 Y91.0706 
G01 X144.8664 Y91.0706 
G01 X145.0359 Y91.1043 
G01 X145.1956 Y91.1705 
G01 X145.3393 Y91.2665 
G01 X145.4615 Y91.3887 
G01 X145.5575 Y91.5324 
G01 X145.6237 Y91.6921 
G01 X145.6574 Y91.8616 
G01 X145.6574 Y93.5584 
G01 X145.6237 Y93.7279 
G01 X145.5575 Y93.8876 
G01 X145.4615 Y94.0313 
G01 X145.3393 Y94.1535 
G01 X145.1956 Y94.2495 
G01 X145.0359 Y94.3157 
G01 X144.8664 Y94.3494 
G01 X144.6936 Y94.3494 
G01 X144.5241 Y94.3157 
G01 X144.3644 Y94.2495 
G01 X144.2207 Y94.1535 
G01 X144.0985 Y94.0313 
G01 X144.0025 Y93.8876 
G01 X143.9363 Y93.7279 
G01 X143.9026 Y93.5584 
G00 Z2.5400 
G00 X49.1454 Y79.3870 
G01 Z-0.1500 F254.00 
G01 X49.1454 Y80.5526 F508.00 
G01 X53.4773 Y84.8845 
G01 X53.5455 Y84.9527 
G01 X53.5824 Y85.0418 
G01 X53.5824 Y95.2982 
G01 X53.5455 Y95.3873 
G01 X52.2755 Y96.6573 
G01 X52.2073 Y96.7255 
G01 X52.1182 Y96.7624 
G01 X51.4291 Y96.7624 
G01 X51.4278 Y96.7654 
G01 X51.3954 Y96.7978 
G01 X51.3530 Y96.8154 
G01 X49.9070 Y96.8154 
G01 X49.8646 Y96.7978 
G01 X49.8322 Y96.7654 
G01 X49.8309 Y96.7624 
G01 X36.7818 Y96.7624 
G01 X36.6927 Y96.7255 
G01 X36.6245 Y96.6573 
G01 X36.5876 Y96.5682 
G01 X36.5876 Y94.8955 
G01 X36.4508 Y94.8955 
G01 X35.9145 Y94.3592 
G01 X35.9145 Y93.6008 
G01 X36.0112 Y93.5040 
G01 X31.6496 Y89.1424 
G01 X27.8918 Y89.1424 
G01 X27.8027 Y89.1055 
G01 X27.7345 Y89.0373 
G01 X27.6976 Y88.9482 
G01 X27.6976 Y88.3618 
G01 X27.5461 Y88.4248 
G01 X27.3864 Y88.4566 
G01 X27.2236 Y88.4566 
G01 X27.0639 Y88.4248 
G01 X26.9135 Y88.3625 
G01 X26.7781 Y88.2721 
G01 X26.6629 Y88.1569 
G01 X26.5725 Y88.0215 
G01 X26.5102 Y87.8711 
G01 X26.4957 Y87.7985 
G01 X26.4645 Y87.7673 
G01 X25.2996 Y86.6024 
G01 X18.0224 Y86.6024 
G01 X18.0224 Y91.4882 
G01 X17.9855 Y91.5773 
G01 X17.9173 Y91.6455 
G01 X15.0604 Y94.5024 
G01 X15.1572 Y94.5024 
G01 X15.3450 Y94.5321 
G01 X15.5258 Y94.5909 
G01 X15.6951 Y94.6772 
G01 X15.8489 Y94.7889 
G01 X15.9833 Y94.9233 
G01 X16.0950 Y95.0771 
G01 X16.1813 Y95.2464 
G01 X16.2401 Y95.4272 
G01 X16.2698 Y95.6150 
G01 X16.2698 Y95.8050 
G01 X16.2401 Y95.9928 
G01 X16.1813 Y96.1736 
G01 X16.0950 Y96.3429 
G01 X15.9833 Y96.4967 
G01 X15.8489 Y96.6311 
G01 X15.6951 Y96.7428 
G01 X15.5258 Y96.8291 
G01 X15.3450 Y96.8879 
G01 X15.1572 Y96.9176 
G01 X12.7828 Y96.9176 
G01 X12.5950 Y96.8879 
G01 X12.4142 Y96.8291 
G01 X12.2449 Y96.7428 
G01 X12.0911 Y96.6311 
G01 X11.9567 Y96.4967 
G01 X11.8450 Y96.3429 
G01 X11.7587 Y96.1736 
G01 X11.6999 Y95.9928 
G01 X11.6702 Y95.8050 
G01 X11.6702 Y95.6150 
G01 X11.6999 Y95.4272 
G01 X11.7587 Y95.2464 
G01 X11.8450 Y95.0771 
G01 X11.9567 Y94.9233 
G01 X12.0911 Y94.7889 
G01 X12.2449 Y94.6772 
G01 X12.4142 Y94.5909 
G01 X12.5950 Y94.5321 
G01 X12.7828 Y94.5024 
G01 X14.3748 Y94.5024 
G01 X17.5376 Y91.3396 
G01 X17.5376 Y87.0754 
G01 X16.9870 Y87.0754 
G01 X16.9446 Y87.0578 
G01 X16.9122 Y87.0254 
G01 X16.8946 Y86.9830 
G01 X16.8946 Y85.7370 
G01 X16.9122 Y85.6946 
G01 X16.9446 Y85.6622 
G01 X16.9870 Y85.6446 
G01 X17.8330 Y85.6446 
G01 X17.8754 Y85.6622 
G01 X17.9078 Y85.6946 
G01 X17.9254 Y85.7370 
G01 X17.9254 Y86.1176 
G01 X24.8148 Y86.1176 
G01 X23.9245 Y85.2273 
G01 X23.8876 Y85.1382 
G01 X23.8876 Y82.6504 
G01 X23.2326 Y81.9954 
G01 X22.0170 Y81.9954 
G01 X21.9746 Y81.9778 
G01 X21.9422 Y81.9454 
G01 X21.9246 Y81.9030 
G01 X21.9246 Y80.6570 
G01 X21.9422 Y80.6146 
G01 X21.9746 Y80.5822 
G01 X22.0170 Y80.5646 
G01 X23.2630 Y80.5646 
G01 X23.3054 Y80.5822 
G01 X23.3378 Y80.6146 
G01 X23.3554 Y80.6570 
G01 X23.3554 Y81.4326 
G01 X24.2673 Y82.3445 
G01 X24.3355 Y82.4127 
G01 X24.3724 Y82.5018 
G01 X24.3724 Y84.9896 
G01 X25.5373 Y86.1545 
G01 X25.6055 Y86.2227 
G01 X26.5920 Y87.2092 
G01 X26.6629 Y87.1031 
G01 X26.7781 Y86.9879 
G01 X26.9135 Y86.8975 
G01 X27.0639 Y86.8352 
G01 X27.2236 Y86.8034 
G01 X27.3864 Y86.8034 
G01 X27.5461 Y86.8352 
G01 X27.6965 Y86.8975 
G01 X27.8319 Y86.9879 
G01 X27.9471 Y87.1031 
G01 X28.0375 Y87.2385 
G01 X28.0998 Y87.3889 
G01 X28.1143 Y87.4615 
G01 X28.1455 Y87.4927 
G01 X28.1824 Y87.5818 
G01 X28.1824 Y88.6576 
G01 X31.7982 Y88.6576 
G01 X31.8873 Y88.6945 
G01 X31.9555 Y88.7627 
G01 X36.3540 Y93.1612 
G01 X36.4508 Y93.0645 
G01 X37.2092 Y93.0645 
G01 X37.7455 Y93.6008 
G01 X37.7455 Y94.3592 
G01 X37.2092 Y94.8955 
G01 X37.0724 Y94.8955 
G01 X37.0724 Y96.2776 
G01 X49.8146 Y96.2776 
G01 X49.8146 Y95.6770 
G01 X49.8322 Y95.6346 
G01 X49.8646 Y95.6022 
G01 X49.9070 Y95.5846 
G01 X51.3530 Y95.5846 
G01 X51.3954 Y95.6022 
G01 X51.4278 Y95.6346 
G01 X51.4454 Y95.6770 
G01 X51.4454 Y96.2776 
G01 X51.9696 Y96.2776 
G01 X53.0976 Y95.1496 
G01 X53.0976 Y85.1904 
G01 X48.6326 Y80.7254 
G01 X48.2070 Y80.7254 
G01 X48.1646 Y80.7078 
G01 X48.1322 Y80.6754 
G01 X48.1146 Y80.6330 
G01 X48.1146 Y80.2074 
G01 X48.0545 Y80.1473 
G01 X48.0176 Y80.0582 
G01 X48.0176 Y79.9618 
G01 X48.0545 Y79.8727 
G01 X48.1146 Y79.8126 
G01 X48.1146 Y79.3870 
G01 X48.1322 Y79.3446 
G01 X48.1646 Y79.3122 
G01 X48.2070 Y79.2946 
G01 X49.0530 Y79.2946 
G01 X49.0954 Y79.3122 
G01 X49.1278 Y79.3446 
G01 X49.1454 Y79.3870 
G00 Z2.5400 
G00 X44.3046 Y80.6330 
G01 Z-0.1500 F254.00 
G01 X44.3046 Y80.2074 F508.00 
G01 X44.2445 Y80.1473 
G01 X44.2076 Y80.0582 
G01 X44.2076 Y47.2324 
G01 X39.4704 Y47.2324 
G01 X37.0724 Y49.6304 
G01 X37.0724 Y59.7382 
G01 X37.0355 Y59.8273 
G01 X36.9673 Y59.8955 
G01 X34.0493 Y62.8135 
G01 X34.1749 Y62.8974 
G01 X34.2830 Y63.0055 
G01 X34.3679 Y63.1325 
G01 X34.4264 Y63.2737 
G01 X34.4562 Y63.4236 
G01 X34.4562 Y63.5764 
G01 X34.4264 Y63.7263 
G01 X34.3679 Y63.8675 
G01 X34.2830 Y63.9945 
G01 X34.1749 Y64.1026 
G01 X34.0479 Y64.1875 
G01 X33.9067 Y64.2460 
G01 X33.7568 Y64.2758 
G01 X32.2832 Y64.2758 
G01 X32.1333 Y64.2460 
G01 X31.9921 Y64.1875 
G01 X31.8651 Y64.1026 
G01 X31.7570 Y63.9945 
G01 X31.6721 Y63.8675 
G01 X31.6136 Y63.7263 
G01 X31.5838 Y63.5764 
G01 X31.5838 Y63.4236 
G01 X31.6136 Y63.2737 
G01 X31.6721 Y63.1325 
G01 X31.7570 Y63.0055 
G01 X31.8651 Y62.8974 
G01 X31.9921 Y62.8125 
G01 X32.1333 Y62.7540 
G01 X32.2832 Y62.7242 
G01 X33.4530 Y62.7242 
G01 X36.5876 Y59.5896 
G01 X36.5876 Y49.4818 
G01 X36.6245 Y49.3927 
G01 X39.1645 Y46.8527 
G01 X39.2327 Y46.7845 
G01 X39.3218 Y46.7476 
G01 X44.4982 Y46.7476 
G01 X44.5873 Y46.7845 
G01 X44.6555 Y46.8527 
G01 X44.6924 Y46.9418 
G01 X44.6924 Y79.2946 
G01 X45.2430 Y79.2946 
G01 X45.2854 Y79.3122 
G01 X45.3178 Y79.3446 
G01 X45.3354 Y79.3870 
G01 X45.3354 Y80.5526 
G01 X45.8573 Y81.0745 
G01 X45.9255 Y81.1427 
G01 X45.9624 Y81.2318 
G01 X45.9624 Y92.7582 
G01 X45.9255 Y92.8473 
G01 X45.2688 Y93.5040 
G01 X45.3655 Y93.6008 
G01 X45.3655 Y94.3592 
G01 X44.8292 Y94.8955 
G01 X44.0708 Y94.8955 
G01 X43.5345 Y94.3592 
G01 X43.5345 Y93.6008 
G01 X44.0708 Y93.0645 
G01 X44.8292 Y93.0645 
G01 X44.9260 Y93.1612 
G01 X45.4776 Y92.6096 
G01 X45.4776 Y81.3804 
G01 X44.8226 Y80.7254 
G01 X44.3970 Y80.7254 
G01 X44.3546 Y80.7078 
G01 X44.3222 Y80.6754 
G01 X44.3046 Y80.6330 
G00 Z2.5400 
G00 X46.1046 Y80.6330 
G01 Z-0.1500 F254.00 
G01 X46.1046 Y79.3870 F508.00 
G01 X46.1222 Y79.3446 
G01 X46.1546 Y79.3122 
G01 X46.1970 Y79.2946 
G01 X47.0430 Y79.2946 
G01 X47.0854 Y79.3122 
G01 X47.1178 Y79.3446 
G01 X47.1354 Y79.3870 
G01 X47.1354 Y79.5218 
G01 X48.0545 Y78.6027 
G01 X48.1227 Y78.5345 
G01 X48.2118 Y78.4976 
G01 X50.8482 Y78.4976 
G01 X50.9373 Y78.5345 
G01 X51.0055 Y78.6027 
G01 X51.0424 Y78.6918 
G01 X51.0424 Y80.0582 
G01 X51.0055 Y80.1473 
G01 X50.9454 Y80.2074 
G01 X50.9454 Y80.6330 
G01 X50.9278 Y80.6754 
G01 X50.8954 Y80.7078 
G01 X50.8530 Y80.7254 
G01 X50.0070 Y80.7254 
G01 X49.9646 Y80.7078 
G01 X49.9322 Y80.6754 
G01 X49.9146 Y80.6330 
G01 X49.9146 Y79.3870 
G01 X49.9322 Y79.3446 
G01 X49.9646 Y79.3122 
G01 X50.0070 Y79.2946 
G01 X50.5576 Y79.2946 
G01 X50.5576 Y78.9824 
G01 X48.3604 Y78.9824 
G01 X47.2324 Y80.1104 
G01 X47.2324 Y93.7376 
G01 X49.8309 Y93.7376 
G01 X49.8322 Y93.7346 
G01 X49.8646 Y93.7022 
G01 X49.9070 Y93.6846 
G01 X51.3530 Y93.6846 
G01 X51.3954 Y93.7022 
G01 X51.4278 Y93.7346 
G01 X51.4454 Y93.7770 
G01 X51.4454 Y94.8230 
G01 X51.4278 Y94.8654 
G01 X51.3954 Y94.8978 
G01 X51.3530 Y94.9154 
G01 X49.9070 Y94.9154 
G01 X49.8646 Y94.8978 
G01 X49.8322 Y94.8654 
G01 X49.8146 Y94.8230 
G01 X49.8146 Y94.2224 
G01 X46.9418 Y94.2224 
G01 X46.8527 Y94.1855 
G01 X46.7845 Y94.1173 
G01 X46.7476 Y94.0282 
G01 X46.7476 Y80.7254 
G01 X46.1970 Y80.7254 
G01 X46.1546 Y80.7078 
G01 X46.1222 Y80.6754 
G01 X46.1046 Y80.6330 
G00 Z2.5400 
G00 X43.3254 Y79.3870 
G01 Z-0.1500 F254.00 
G01 X43.3254 Y79.8126 F508.00 
G01 X43.3855 Y79.8727 
G01 X43.4224 Y79.9618 
G01 X43.4224 Y80.0582 
G01 X43.3855 Y80.1473 
G01 X43.3254 Y80.2074 
G01 X43.3254 Y80.6330 
G01 X43.3078 Y80.6754 
G01 X43.2754 Y80.7078 
G01 X43.2330 Y80.7254 
G01 X42.8074 Y80.7254 
G01 X40.8824 Y82.6504 
G01 X40.8824 Y87.0556 
G01 X40.9353 Y87.0776 
G01 X41.0374 Y87.1458 
G01 X41.1242 Y87.2326 
G01 X41.1924 Y87.3347 
G01 X41.2394 Y87.4482 
G01 X41.2634 Y87.5686 
G01 X41.2634 Y87.6914 
G01 X41.2394 Y87.8118 
G01 X41.1924 Y87.9253 
G01 X41.1242 Y88.0274 
G01 X41.0374 Y88.1142 
G01 X40.9353 Y88.1824 
G01 X40.8218 Y88.2294 
G01 X40.7014 Y88.2534 
G01 X40.5786 Y88.2534 
G01 X40.4582 Y88.2294 
G01 X40.3447 Y88.1824 
G01 X40.2426 Y88.1142 
G01 X40.1558 Y88.0274 
G01 X40.0876 Y87.9253 
G01 X40.0406 Y87.8118 
G01 X40.0166 Y87.6914 
G01 X40.0166 Y87.5686 
G01 X40.0406 Y87.4482 
G01 X40.0876 Y87.3347 
G01 X40.1558 Y87.2326 
G01 X40.2426 Y87.1458 
G01 X40.3447 Y87.0776 
G01 X40.3976 Y87.0556 
G01 X40.3976 Y82.5018 
G01 X40.4345 Y82.4127 
G01 X40.5027 Y82.3445 
G01 X42.2946 Y80.5526 
G01 X42.2946 Y79.3870 
G01 X42.3122 Y79.3446 
G01 X42.3446 Y79.3122 
G01 X42.3870 Y79.2946 
G01 X43.2330 Y79.2946 
G01 X43.2754 Y79.3122 
G01 X43.3078 Y79.3446 
G01 X43.3254 Y79.3870 
G00 Z2.5400 
G00 X37.7154 Y79.3870 
G01 Z-0.1500 F254.00 
G01 X37.7154 Y80.6330 F508.00 
G01 X37.6978 Y80.6754 
G01 X37.6654 Y80.7078 
G01 X37.6230 Y80.7254 
G01 X36.7770 Y80.7254 
G01 X36.7346 Y80.7078 
G01 X36.7022 Y80.6754 
G01 X36.6846 Y80.6330 
G01 X36.6846 Y80.2074 
G01 X36.6245 Y80.1473 
G01 X36.5876 Y80.0582 
G01 X36.5876 Y67.4104 
G01 X34.1896 Y65.0124 
G01 X30.4318 Y65.0124 
G01 X30.3427 Y64.9755 
G01 X30.2745 Y64.9073 
G01 X30.2376 Y64.8182 
G01 X30.2376 Y53.2918 
G01 X30.2745 Y53.2027 
G01 X31.9907 Y51.4865 
G01 X31.8651 Y51.4026 
G01 X31.7570 Y51.2945 
G01 X31.6721 Y51.1675 
G01 X31.6136 Y51.0263 
G01 X31.5838 Y50.8764 
G01 X31.5838 Y50.7236 
G01 X31.6136 Y50.5737 
G01 X31.6721 Y50.4325 
G01 X31.7570 Y50.3055 
G01 X31.8651 Y50.1974 
G01 X31.9921 Y50.1125 
G01 X32.1333 Y50.0540 
G01 X32.2832 Y50.0242 
G01 X33.7568 Y50.0242 
G01 X33.9067 Y50.0540 
G01 X34.0479 Y50.1125 
G01 X34.1749 Y50.1974 
G01 X34.2830 Y50.3055 
G01 X34.3679 Y50.4325 
G01 X34.4264 Y50.5737 
G01 X34.4562 Y50.7236 
G01 X34.4562 Y50.8764 
G01 X34.4264 Y51.0263 
G01 X34.3679 Y51.1675 
G01 X34.2830 Y51.2945 
G01 X34.1749 Y51.4026 
G01 X34.0479 Y51.4875 
G01 X33.9067 Y51.5460 
G01 X33.7568 Y51.5758 
G01 X32.5870 Y51.5758 
G01 X30.7224 Y53.4404 
G01 X30.7224 Y64.5276 
G01 X34.3382 Y64.5276 
G01 X34.4273 Y64.5645 
G01 X34.4955 Y64.6327 
G01 X37.0355 Y67.1727 
G01 X37.0724 Y67.2618 
G01 X37.0724 Y79.2946 
G01 X37.6230 Y79.2946 
G01 X37.6654 Y79.3122 
G01 X37.6978 Y79.3446 
G01 X37.7154 Y79.3870 
G00 Z2.5400 
G00 X49.1454 Y83.1970 
G01 Z-0.1500 F254.00 
G01 X49.1454 Y84.3626 F508.00 
G01 X49.2953 Y84.5125 
G01 X49.3482 Y84.4906 
G01 X49.4686 Y84.4666 
G01 X49.5914 Y84.4666 
G01 X49.7118 Y84.4906 
G01 X49.8253 Y84.5376 
G01 X49.9274 Y84.6058 
G01 X50.0142 Y84.6926 
G01 X50.0824 Y84.7947 
G01 X50.1294 Y84.9082 
G01 X50.1534 Y85.0286 
G01 X50.1534 Y85.1514 
G01 X50.1294 Y85.2718 
G01 X50.0824 Y85.3853 
G01 X50.0142 Y85.4874 
G01 X49.9274 Y85.5742 
G01 X49.8253 Y85.6424 
G01 X49.7118 Y85.6894 
G01 X49.5914 Y85.7134 
G01 X49.4686 Y85.7134 
G01 X49.3482 Y85.6894 
G01 X49.2347 Y85.6424 
G01 X49.1326 Y85.5742 
G01 X49.0458 Y85.4874 
G01 X48.9776 Y85.3853 
G01 X48.9306 Y85.2718 
G01 X48.9066 Y85.1514 
G01 X48.9066 Y85.0286 
G01 X48.9306 Y84.9082 
G01 X48.9525 Y84.8553 
G01 X48.6326 Y84.5354 
G01 X48.2070 Y84.5354 
G01 X48.1646 Y84.5178 
G01 X48.1322 Y84.4854 
G01 X48.1146 Y84.4430 
G01 X48.1146 Y84.0174 
G01 X48.0545 Y83.9573 
G01 X48.0176 Y83.8682 
G01 X48.0176 Y83.7718 
G01 X48.0545 Y83.6827 
G01 X48.1146 Y83.6226 
G01 X48.1146 Y83.1970 
G01 X48.1322 Y83.1546 
G01 X48.1646 Y83.1222 
G01 X48.2070 Y83.1046 
G01 X49.0530 Y83.1046 
G01 X49.0954 Y83.1222 
G01 X49.1278 Y83.1546 
G01 X49.1454 Y83.1970 
G00 Z2.5400 
G00 X49.1454 Y88.2530 
G01 Z-0.1500 F254.00 
G01 X49.1278 Y88.2954 F508.00 
G01 X49.0954 Y88.3278 
G01 X49.0530 Y88.3454 
G01 X48.2070 Y88.3454 
G01 X48.1646 Y88.3278 
G01 X48.1322 Y88.2954 
G01 X48.1146 Y88.2530 
G01 X48.1146 Y87.8274 
G01 X48.0545 Y87.7673 
G01 X48.0176 Y87.6782 
G01 X48.0176 Y87.5818 
G01 X48.0545 Y87.4927 
G01 X48.1146 Y87.4326 
G01 X48.1146 Y87.0070 
G01 X48.1322 Y86.9646 
G01 X48.1646 Y86.9322 
G01 X48.2070 Y86.9146 
G01 X48.6326 Y86.9146 
G01 X48.9525 Y86.5947 
G01 X48.9306 Y86.5418 
G01 X48.9066 Y86.4214 
G01 X48.9066 Y86.2986 
G01 X48.9306 Y86.1782 
G01 X48.9776 Y86.0647 
G01 X49.0458 Y85.9626 
G01 X49.1326 Y85.8758 
G01 X49.2347 Y85.8076 
G01 X49.3482 Y85.7606 
G01 X49.4686 Y85.7366 
G01 X49.5914 Y85.7366 
G01 X49.7118 Y85.7606 
G01 X49.8253 Y85.8076 
G01 X49.9274 Y85.8758 
G01 X50.0142 Y85.9626 
G01 X50.0824 Y86.0647 
G01 X50.1294 Y86.1782 
G01 X50.1534 Y86.2986 
G01 X50.1534 Y86.4214 
G01 X50.1294 Y86.5418 
G01 X50.0824 Y86.6553 
G01 X50.0142 Y86.7574 
G01 X49.9274 Y86.8442 
G01 X49.8253 Y86.9124 
G01 X49.7118 Y86.9594 
G01 X49.5914 Y86.9834 
G01 X49.4686 Y86.9834 
G01 X49.3482 Y86.9594 
G01 X49.2953 Y86.9375 
G01 X49.1454 Y87.0874 
G01 X49.1454 Y88.2530 
G00 Z2.5400 
G00 X37.7455 Y88.5208 
G01 Z-0.1500 F254.00 
G01 X37.7455 Y89.2792 F508.00 
G01 X37.2092 Y89.8155 
G01 X36.4508 Y89.8155 
G01 X35.9145 Y89.2792 
G01 X35.9145 Y88.5208 
G01 X36.4508 Y87.9845 
G01 X37.2092 Y87.9845 
G01 X37.3060 Y88.0812 
G01 X39.1276 Y86.2596 
G01 X39.1276 Y80.7254 
G01 X38.5770 Y80.7254 
G01 X38.5346 Y80.7078 
G01 X38.5022 Y80.6754 
G01 X38.4846 Y80.6330 
G01 X38.4846 Y79.3870 
G01 X38.5022 Y79.3446 
G01 X38.5346 Y79.3122 
G01 X38.5770 Y79.2946 
G01 X39.4230 Y79.2946 
G01 X39.4654 Y79.3122 
G01 X39.4978 Y79.3446 
G01 X39.5154 Y79.3870 
G01 X39.5154 Y79.7676 
G01 X40.4946 Y79.7676 
G01 X40.4946 Y79.3870 
G01 X40.5122 Y79.3446 
G01 X40.5446 Y79.3122 
G01 X40.5870 Y79.2946 
G01 X41.4330 Y79.2946 
G01 X41.4754 Y79.3122 
G01 X41.5078 Y79.3446 
G01 X41.5254 Y79.3870 
G01 X41.5254 Y80.6330 
G01 X41.5078 Y80.6754 
G01 X41.4754 Y80.7078 
G01 X41.4330 Y80.7254 
G01 X40.5870 Y80.7254 
G01 X40.5446 Y80.7078 
G01 X40.5122 Y80.6754 
G01 X40.4946 Y80.6330 
G01 X40.4946 Y80.2524 
G01 X39.6124 Y80.2524 
G01 X39.6124 Y86.4082 
G01 X39.5755 Y86.4973 
G01 X37.6488 Y88.4240 
G01 X37.7455 Y88.5208 
G00 Z2.5400 
G00 X37.7455 Y91.0608 
G01 Z-0.1500 F254.00 
G01 X37.7455 Y91.8192 F508.00 
G01 X37.2092 Y92.3555 
G01 X36.4508 Y92.3555 
G01 X35.9145 Y91.8192 
G01 X35.9145 Y91.0608 
G01 X36.4508 Y90.5245 
G01 X37.2092 Y90.5245 
G01 X37.7455 Y91.0608 
G00 Z2.5400 
G00 X45.3655 Y88.5208 
G01 Z-0.1500 F254.00 
G01 X45.3655 Y89.2792 F508.00 
G01 X44.8292 Y89.8155 
G01 X44.6924 Y89.8155 
G01 X44.6924 Y90.5245 
G01 X44.8292 Y90.5245 
G01 X45.3655 Y91.0608 
G01 X45.3655 Y91.8192 
G01 X44.8292 Y92.3555 
G01 X44.0708 Y92.3555 
G01 X43.9740 Y92.2588 
G01 X43.4224 Y92.8104 
G01 X43.4224 Y95.0076 
G01 X47.6146 Y95.0076 
G01 X47.6146 Y94.7270 
G01 X47.6322 Y94.6846 
G01 X47.6646 Y94.6522 
G01 X47.7070 Y94.6346 
G01 X49.1530 Y94.6346 
G01 X49.1954 Y94.6522 
G01 X49.2278 Y94.6846 
G01 X49.2454 Y94.7270 
G01 X49.2454 Y95.0076 
G01 X51.8276 Y95.0076 
G01 X51.8276 Y92.9524 
G01 X49.4818 Y92.9524 
G01 X49.3927 Y92.9155 
G01 X49.3245 Y92.8473 
G01 X48.6326 Y92.1554 
G01 X48.2070 Y92.1554 
G01 X48.1646 Y92.1378 
G01 X48.1322 Y92.1054 
G01 X48.1146 Y92.0630 
G01 X48.1146 Y91.6374 
G01 X48.0545 Y91.5773 
G01 X48.0176 Y91.4882 
G01 X48.0176 Y91.3918 
G01 X48.0545 Y91.3027 
G01 X48.1146 Y91.2426 
G01 X48.1146 Y90.8170 
G01 X48.1322 Y90.7746 
G01 X48.1646 Y90.7422 
G01 X48.2070 Y90.7246 
G01 X49.0530 Y90.7246 
G01 X49.0954 Y90.7422 
G01 X49.1278 Y90.7746 
G01 X49.1454 Y90.8170 
G01 X49.1454 Y91.9826 
G01 X49.6304 Y92.4676 
G01 X52.1182 Y92.4676 
G01 X52.2073 Y92.5045 
G01 X52.2755 Y92.5727 
G01 X52.3124 Y92.6618 
G01 X52.3124 Y95.2982 
G01 X52.2755 Y95.3873 
G01 X52.2073 Y95.4555 
G01 X52.1182 Y95.4924 
G01 X49.2454 Y95.4924 
G01 X49.2454 Y95.7730 
G01 X49.2278 Y95.8154 
G01 X49.1954 Y95.8478 
G01 X49.1530 Y95.8654 
G01 X47.7070 Y95.8654 
G01 X47.6646 Y95.8478 
G01 X47.6322 Y95.8154 
G01 X47.6146 Y95.7730 
G01 X47.6146 Y95.4924 
G01 X43.1318 Y95.4924 
G01 X43.0427 Y95.4555 
G01 X42.9745 Y95.3873 
G01 X42.9376 Y95.2982 
G01 X42.9376 Y92.6618 
G01 X42.9745 Y92.5727 
G01 X43.6312 Y91.9160 
G01 X43.5345 Y91.8192 
G01 X43.5345 Y91.0608 
G01 X44.0708 Y90.5245 
G01 X44.2076 Y90.5245 
G01 X44.2076 Y89.8155 
G01 X44.0708 Y89.8155 
G01 X43.5345 Y89.2792 
G01 X43.5345 Y88.5208 
G01 X44.0708 Y87.9845 
G01 X44.8292 Y87.9845 
G01 X45.3655 Y88.5208 
G00 Z2.5400 
G00 X26.8616 Y85.0086 
G01 Z-0.1500 F254.00 
G01 X26.8616 Y85.1714 F508.00 
G01 X26.8298 Y85.3311 
G01 X26.7675 Y85.4815 
G01 X26.6771 Y85.6169 
G01 X26.5619 Y85.7321 
G01 X26.4265 Y85.8225 
G01 X26.2761 Y85.8848 
G01 X26.1164 Y85.9166 
G01 X25.9536 Y85.9166 
G01 X25.7939 Y85.8848 
G01 X25.6435 Y85.8225 
G01 X25.5081 Y85.7321 
G01 X25.3929 Y85.6169 
G01 X25.3025 Y85.4815 
G01 X25.2402 Y85.3311 
G01 X25.2257 Y85.2585 
G01 X25.1945 Y85.2273 
G01 X25.1576 Y85.1382 
G01 X25.1576 Y78.9824 
G01 X21.8324 Y78.9824 
G01 X21.8324 Y85.1382 
G01 X21.7955 Y85.2273 
G01 X21.7273 Y85.2955 
G01 X21.6382 Y85.3324 
G01 X16.7524 Y85.3324 
G01 X16.7524 Y87.6782 
G01 X16.7155 Y87.7673 
G01 X16.6473 Y87.8355 
G01 X16.5582 Y87.8724 
G01 X13.9218 Y87.8724 
G01 X13.8327 Y87.8355 
G01 X13.7645 Y87.7673 
G01 X11.7233 Y85.7261 
G01 X9.8667 Y85.7261 
G01 X6.7104 Y88.8824 
G01 X6.7104 Y89.6580 
G01 X6.6928 Y89.7004 
G01 X6.6604 Y89.7328 
G01 X6.6180 Y89.7504 
G01 X5.3020 Y89.7504 
G01 X5.2596 Y89.7328 
G01 X5.2272 Y89.7004 
G01 X5.2096 Y89.6580 
G01 X5.2096 Y88.1420 
G01 X5.2272 Y88.0996 
G01 X5.2596 Y88.0672 
G01 X5.3020 Y88.0496 
G01 X6.6180 Y88.0496 
G01 X6.6604 Y88.0672 
G01 X6.6928 Y88.0996 
G01 X6.7104 Y88.1420 
G01 X6.7104 Y88.1968 
G01 X9.6509 Y85.2563 
G01 X9.6509 Y84.0891 
G01 X9.6685 Y84.0467 
G01 X9.7009 Y84.0143 
G01 X9.7433 Y83.9967 
G01 X11.7959 Y83.9967 
G01 X11.8383 Y84.0143 
G01 X11.8707 Y84.0467 
G01 X11.8883 Y84.0891 
G01 X11.8883 Y85.2055 
G01 X14.0704 Y87.3876 
G01 X16.2676 Y87.3876 
G01 X16.2676 Y85.0418 
G01 X16.3045 Y84.9527 
G01 X16.3727 Y84.8845 
G01 X16.4618 Y84.8476 
G01 X21.3476 Y84.8476 
G01 X21.3476 Y78.9824 
G01 X17.9254 Y78.9824 
G01 X17.9254 Y79.3630 
G01 X17.9078 Y79.4054 
G01 X17.8754 Y79.4378 
G01 X17.8330 Y79.4554 
G01 X16.9870 Y79.4554 
G01 X16.9446 Y79.4378 
G01 X16.9122 Y79.4054 
G01 X16.8946 Y79.3630 
G01 X16.8946 Y78.1170 
G01 X16.9122 Y78.0746 
G01 X16.9446 Y78.0422 
G01 X16.9870 Y78.0246 
G01 X17.8330 Y78.0246 
G01 X17.8754 Y78.0422 
G01 X17.9078 Y78.0746 
G01 X17.9254 Y78.1170 
G01 X17.9254 Y78.4976 
G01 X25.4482 Y78.4976 
G01 X25.5373 Y78.5345 
G01 X25.6055 Y78.6027 
G01 X25.6424 Y78.6918 
G01 X25.6424 Y84.3582 
G01 X25.7939 Y84.2952 
G01 X25.9536 Y84.2634 
G01 X26.1164 Y84.2634 
G01 X26.2761 Y84.2952 
G01 X26.4265 Y84.3575 
G01 X26.5619 Y84.4479 
G01 X26.6771 Y84.5631 
G01 X26.7675 Y84.6985 
G01 X26.8298 Y84.8489 
G01 X26.8616 Y85.0086 
G00 Z2.5400 
G00 X29.4016 Y85.0086 
G01 Z-0.1500 F254.00 
G01 X29.4016 Y85.1714 F508.00 
G01 X29.3698 Y85.3311 
G01 X29.3075 Y85.4815 
G01 X29.2171 Y85.6169 
G01 X29.1019 Y85.7321 
G01 X28.9665 Y85.8225 
G01 X28.8161 Y85.8848 
G01 X28.6564 Y85.9166 
G01 X28.4936 Y85.9166 
G01 X28.3339 Y85.8848 
G01 X28.1835 Y85.8225 
G01 X28.0481 Y85.7321 
G01 X27.9329 Y85.6169 
G01 X27.8425 Y85.4815 
G01 X27.7802 Y85.3311 
G01 X27.7484 Y85.1714 
G01 X27.7484 Y85.0086 
G01 X27.7802 Y84.8489 
G01 X27.8425 Y84.6985 
G01 X27.9329 Y84.5631 
G01 X28.0481 Y84.4479 
G01 X28.1835 Y84.3575 
G01 X28.3339 Y84.2952 
G01 X28.4936 Y84.2634 
G01 X28.6564 Y84.2634 
G01 X28.8161 Y84.2952 
G01 X28.9665 Y84.3575 
G01 X29.1019 Y84.4479 
G01 X29.2171 Y84.5631 
G01 X29.3075 Y84.6985 
G01 X29.3698 Y84.8489 
G01 X29.4016 Y85.0086 
G00 Z2.5400 
G00 X30.6716 Y87.5486 
G01 Z-0.1500 F254.00 
G01 X30.6716 Y87.7114 F508.00 
G01 X30.6398 Y87.8711 
G01 X30.5775 Y88.0215 
G01 X30.4871 Y88.1569 
G01 X30.3719 Y88.2721 
G01 X30.2365 Y88.3625 
G01 X30.0861 Y88.4248 
G01 X29.9264 Y88.4566 
G01 X29.7636 Y88.4566 
G01 X29.6039 Y88.4248 
G01 X29.4535 Y88.3625 
G01 X29.3181 Y88.2721 
G01 X29.2029 Y88.1569 
G01 X29.1125 Y88.0215 
G01 X29.0502 Y87.8711 
G01 X29.0184 Y87.7114 
G01 X29.0184 Y87.5486 
G01 X29.0502 Y87.3889 
G01 X29.1125 Y87.2385 
G01 X29.2029 Y87.1031 
G01 X29.3181 Y86.9879 
G01 X29.4535 Y86.8975 
G01 X29.6039 Y86.8352 
G01 X29.7636 Y86.8034 
G01 X29.9264 Y86.8034 
G01 X30.0861 Y86.8352 
G01 X30.2365 Y86.8975 
G01 X30.3719 Y86.9879 
G01 X30.4871 Y87.1031 
G01 X30.5775 Y87.2385 
G01 X30.6398 Y87.3889 
G01 X30.6716 Y87.5486 
G00 Z2.5400 
G00 X50.9454 Y92.0630 
G01 Z-0.1500 F254.00 
G01 X50.9278 Y92.1054 F508.00 
G01 X50.8954 Y92.1378 
G01 X50.8530 Y92.1554 
G01 X50.0070 Y92.1554 
G01 X49.9646 Y92.1378 
G01 X49.9322 Y92.1054 
G01 X49.9146 Y92.0630 
G01 X49.9146 Y90.8170 
G01 X49.9322 Y90.7746 
G01 X49.9646 Y90.7422 
G01 X50.0070 Y90.7246 
G01 X50.5576 Y90.7246 
G01 X50.5576 Y88.3454 
G01 X50.0070 Y88.3454 
G01 X49.9646 Y88.3278 
G01 X49.9322 Y88.2954 
G01 X49.9146 Y88.2530 
G01 X49.9146 Y87.0070 
G01 X49.9322 Y86.9646 
G01 X49.9646 Y86.9322 
G01 X50.0070 Y86.9146 
G01 X50.5576 Y86.9146 
G01 X50.5576 Y84.5354 
G01 X50.0070 Y84.5354 
G01 X49.9646 Y84.5178 
G01 X49.9322 Y84.4854 
G01 X49.9146 Y84.4430 
G01 X49.9146 Y83.2774 
G01 X49.7647 Y83.1275 
G01 X49.7118 Y83.1494 
G01 X49.5914 Y83.1734 
G01 X49.4686 Y83.1734 
G01 X49.3482 Y83.1494 
G01 X49.2347 Y83.1024 
G01 X49.1326 Y83.0342 
G01 X49.0458 Y82.9474 
G01 X48.9776 Y82.8453 
G01 X48.9306 Y82.7318 
G01 X48.9066 Y82.6114 
G01 X48.9066 Y82.4886 
G01 X48.9306 Y82.3682 
G01 X48.9776 Y82.2547 
G01 X49.0458 Y82.1526 
G01 X49.1326 Y82.0658 
G01 X49.2347 Y81.9976 
G01 X49.3482 Y81.9506 
G01 X49.4686 Y81.9266 
G01 X49.5914 Y81.9266 
G01 X49.7118 Y81.9506 
G01 X49.8253 Y81.9976 
G01 X49.9274 Y82.0658 
G01 X50.0142 Y82.1526 
G01 X50.0824 Y82.2547 
G01 X50.1294 Y82.3682 
G01 X50.1534 Y82.4886 
G01 X50.1534 Y82.6114 
G01 X50.1294 Y82.7318 
G01 X50.1075 Y82.7847 
G01 X50.4274 Y83.1046 
G01 X50.8530 Y83.1046 
G01 X50.8954 Y83.1222 
G01 X50.9278 Y83.1546 
G01 X50.9454 Y83.1970 
G01 X50.9454 Y83.6226 
G01 X51.0055 Y83.6827 
G01 X51.0424 Y83.7718 
G01 X51.0424 Y91.4882 
G01 X51.0055 Y91.5773 
G01 X50.9454 Y91.6374 
G01 X50.9454 Y92.0630 
G00 Z2.5400 
G00 X147.7761 Y52.1653 
G01 Z-0.1500 F254.00 
G01 X147.7761 Y49.4347 F508.00 
G01 X147.8099 Y49.2213 
G01 X147.8767 Y49.0158 
G01 X147.9748 Y48.8232 
G01 X148.1018 Y48.6484 
G01 X148.2545 Y48.4957 
G01 X148.4293 Y48.3687 
G01 X148.6219 Y48.2706 
G01 X148.8274 Y48.2038 
G01 X149.0408 Y48.1700 
G01 X149.2568 Y48.1700 
G01 X149.4702 Y48.2038 
G01 X149.6757 Y48.2706 
G01 X149.8683 Y48.3687 
G01 X150.0431 Y48.4957 
G01 X150.1958 Y48.6484 
G01 X150.3228 Y48.8232 
G01 X150.4209 Y49.0158 
G01 X150.4877 Y49.2213 
G01 X150.5215 Y49.4347 
G01 X150.5215 Y52.1653 
G01 X150.4877 Y52.3787 
G01 X150.4209 Y52.5842 
G01 X150.3228 Y52.7767 
G01 X150.1958 Y52.9516 
G01 X150.0431 Y53.1043 
G01 X149.8683 Y53.2313 
G01 X149.6757 Y53.3294 
G01 X149.4702 Y53.3962 
G01 X149.2568 Y53.4300 
G01 X149.0408 Y53.4300 
G01 X148.8274 Y53.3962 
G01 X148.6219 Y53.3294 
G01 X148.4293 Y53.2313 
G01 X148.2545 Y53.1043 
G01 X148.1018 Y52.9516 
G01 X147.9748 Y52.7767 
G01 X147.8767 Y52.5842 
G01 X147.8099 Y52.3787 
G01 X147.7761 Y52.1653 
G00 Z2.5400 
G00 X151.7385 Y52.1653 
G01 Z-0.1500 F254.00 
G01 X151.7385 Y49.4347 F508.00 
G01 X151.7723 Y49.2213 
G01 X151.8391 Y49.0158 
G01 X151.9372 Y48.8232 
G01 X152.0642 Y48.6484 
G01 X152.2169 Y48.4957 
G01 X152.3917 Y48.3687 
G01 X152.5843 Y48.2706 
G01 X152.7898 Y48.2038 
G01 X153.0032 Y48.1700 
G01 X153.2192 Y48.1700 
G01 X153.4326 Y48.2038 
G01 X153.6381 Y48.2706 
G01 X153.8307 Y48.3687 
G01 X154.0055 Y48.4957 
G01 X154.1582 Y48.6484 
G01 X154.2852 Y48.8232 
G01 X154.3833 Y49.0158 
G01 X154.4501 Y49.2213 
G01 X154.4839 Y49.4347 
G01 X154.4839 Y52.1653 
G01 X154.4501 Y52.3787 
G01 X154.3833 Y52.5842 
G01 X154.2852 Y52.7767 
G01 X154.1582 Y52.9516 
G01 X154.0055 Y53.1043 
G01 X153.8307 Y53.2313 
G01 X153.6381 Y53.3294 
G01 X153.4326 Y53.3962 
G01 X153.2192 Y53.4300 
G01 X153.0032 Y53.4300 
G01 X152.7898 Y53.3962 
G01 X152.5843 Y53.3294 
G01 X152.3917 Y53.2313 
G01 X152.2169 Y53.1043 
G01 X152.0642 Y52.9516 
G01 X151.9372 Y52.7767 
G01 X151.8391 Y52.5842 
G01 X151.7723 Y52.3787 
G01 X151.7385 Y52.1653 
G00 Z2.5400 
G00 X146.5061 Y67.4053 
G01 Z-0.1500 F254.00 
G01 X146.5061 Y64.6747 F508.00 
G01 X146.5399 Y64.4613 
G01 X146.6067 Y64.2558 
G01 X146.7048 Y64.0632 
G01 X146.8318 Y63.8884 
G01 X146.9845 Y63.7357 
G01 X147.1593 Y63.6087 
G01 X147.3519 Y63.5106 
G01 X147.5574 Y63.4438 
G01 X147.7708 Y63.4100 
G01 X147.9868 Y63.4100 
G01 X148.2002 Y63.4438 
G01 X148.4057 Y63.5106 
G01 X148.5983 Y63.6087 
G01 X148.7731 Y63.7357 
G01 X148.9258 Y63.8884 
G01 X149.0528 Y64.0632 
G01 X149.1509 Y64.2558 
G01 X149.2177 Y64.4613 
G01 X149.2515 Y64.6747 
G01 X149.2515 Y67.4053 
G01 X149.2177 Y67.6187 
G01 X149.1509 Y67.8242 
G01 X149.0528 Y68.0168 
G01 X148.9258 Y68.1916 
G01 X148.7731 Y68.3443 
G01 X148.5983 Y68.4713 
G01 X148.4057 Y68.5694 
G01 X148.2002 Y68.6362 
G01 X147.9868 Y68.6700 
G01 X147.7708 Y68.6700 
G01 X147.5574 Y68.6362 
G01 X147.3519 Y68.5694 
G01 X147.1593 Y68.4713 
G01 X146.9845 Y68.3443 
G01 X146.8318 Y68.1916 
G01 X146.7048 Y68.0168 
G01 X146.6067 Y67.8242 
G01 X146.5399 Y67.6187 
G01 X146.5061 Y67.4053 
G00 Z2.5400 
G00 X150.4685 Y67.4053 
G01 Z-0.1500 F254.00 
G01 X150.4685 Y64.6747 F508.00 
G01 X150.5023 Y64.4613 
G01 X150.5691 Y64.2558 
G01 X150.6672 Y64.0632 
G01 X150.7942 Y63.8884 
G01 X150.9469 Y63.7357 
G01 X151.1217 Y63.6087 
G01 X151.3143 Y63.5106 
G01 X151.5198 Y63.4438 
G01 X151.7332 Y63.4100 
G01 X151.9492 Y63.4100 
G01 X152.1626 Y63.4438 
G01 X152.3681 Y63.5106 
G01 X152.5607 Y63.6087 
G01 X152.7355 Y63.7357 
G01 X152.8882 Y63.8884 
G01 X153.0152 Y64.0632 
G01 X153.1133 Y64.2558 
G01 X153.1801 Y64.4613 
G01 X153.2139 Y64.6747 
G01 X153.2139 Y67.4053 
G01 X153.1801 Y67.6187 
G01 X153.1133 Y67.8242 
G01 X153.0152 Y68.0168 
G01 X152.8882 Y68.1916 
G01 X152.7355 Y68.3443 
G01 X152.5607 Y68.4713 
G01 X152.3681 Y68.5694 
G01 X152.1626 Y68.6362 
G01 X151.9492 Y68.6700 
G01 X151.7332 Y68.6700 
G01 X151.5198 Y68.6362 
G01 X151.3143 Y68.5694 
G01 X151.1217 Y68.4713 
G01 X150.9469 Y68.3443 
G01 X150.7942 Y68.1916 
G01 X150.6672 Y68.0168 
G01 X150.5691 Y67.8242 
G01 X150.5023 Y67.6187 
G01 X150.4685 Y67.4053 
G00 Z2.5400 
G00 X147.7761 Y82.6453 
G01 Z-0.1500 F254.00 
G01 X147.7761 Y79.9147 F508.00 
G01 X147.8099 Y79.7013 
G01 X147.8767 Y79.4958 
G01 X147.9748 Y79.3032 
G01 X148.1018 Y79.1284 
G01 X148.2545 Y78.9757 
G01 X148.4293 Y78.8487 
G01 X148.6219 Y78.7506 
G01 X148.8274 Y78.6838 
G01 X149.0408 Y78.6500 
G01 X149.2568 Y78.6500 
G01 X149.4702 Y78.6838 
G01 X149.6757 Y78.7506 
G01 X149.8683 Y78.8487 
G01 X150.0431 Y78.9757 
G01 X150.1958 Y79.1284 
G01 X150.3228 Y79.3032 
G01 X150.4209 Y79.4958 
G01 X150.4877 Y79.7013 
G01 X150.5215 Y79.9147 
G01 X150.5215 Y82.6453 
G01 X150.4877 Y82.8587 
G01 X150.4209 Y83.0642 
G01 X150.3228 Y83.2568 
G01 X150.1958 Y83.4316 
G01 X150.0431 Y83.5843 
G01 X149.8683 Y83.7113 
G01 X149.6757 Y83.8094 
G01 X149.4702 Y83.8762 
G01 X149.2568 Y83.9100 
G01 X149.0408 Y83.9100 
G01 X148.8274 Y83.8762 
G01 X148.6219 Y83.8094 
G01 X148.4293 Y83.7113 
G01 X148.2545 Y83.5843 
G01 X148.1018 Y83.4316 
G01 X147.9748 Y83.2568 
G01 X147.8767 Y83.0642 
G01 X147.8099 Y82.8587 
G01 X147.7761 Y82.6453 
G00 Z2.5400 
G00 X151.7385 Y82.6453 
G01 Z-0.1500 F254.00 
G01 X151.7385 Y79.9147 F508.00 
G01 X151.7723 Y79.7013 
G01 X151.8391 Y79.4958 
G01 X151.9372 Y79.3032 
G01 X152.0642 Y79.1284 
G01 X152.2169 Y78.9757 
G01 X152.3917 Y78.8487 
G01 X152.5843 Y78.7506 
G01 X152.7898 Y78.6838 
G01 X153.0032 Y78.6500 
G01 X153.2192 Y78.6500 
G01 X153.4326 Y78.6838 
G01 X153.6381 Y78.7506 
G01 X153.8307 Y78.8487 
G01 X154.0055 Y78.9757 
G01 X154.1582 Y79.1284 
G01 X154.2852 Y79.3032 
G01 X154.3833 Y79.4958 
G01 X154.4501 Y79.7013 
G01 X154.4839 Y79.9147 
G01 X154.4839 Y82.6453 
G01 X154.4501 Y82.8587 
G01 X154.3833 Y83.0642 
G01 X154.2852 Y83.2568 
G01 X154.1582 Y83.4316 
G01 X154.0055 Y83.5843 
G01 X153.8307 Y83.7113 
G01 X153.6381 Y83.8094 
G01 X153.4326 Y83.8762 
G01 X153.2192 Y83.9100 
G01 X153.0032 Y83.9100 
G01 X152.7898 Y83.8762 
G01 X152.5843 Y83.8094 
G01 X152.3917 Y83.7113 
G01 X152.2169 Y83.5843 
G01 X152.0642 Y83.4316 
G01 X151.9372 Y83.2568 
G01 X151.8391 Y83.0642 
G01 X151.7723 Y82.8587 
G01 X151.7385 Y82.6453 
G00 Z2.5400 
G00 X70.5104 Y87.4524 
G01 Z-0.1500 F254.00 
G01 X70.5104 Y87.6476 F508.00 
G01 X70.4799 Y87.8405 
G01 X70.4195 Y88.0261 
G01 X70.3309 Y88.2001 
G01 X70.2161 Y88.3581 
G01 X70.0781 Y88.4961 
G01 X69.9201 Y88.6109 
G01 X69.7461 Y88.6995 
G01 X69.5605 Y88.7599 
G01 X69.3676 Y88.7904 
G01 X69.1724 Y88.7904 
G01 X68.9795 Y88.7599 
G01 X68.7939 Y88.6995 
G01 X68.6199 Y88.6109 
G01 X68.4619 Y88.4961 
G01 X68.3239 Y88.3581 
G01 X68.2091 Y88.2001 
G01 X68.1205 Y88.0261 
G01 X68.0705 Y87.8724 
G01 X63.7424 Y87.8724 
G01 X63.7424 Y92.8781 
G01 X63.8355 Y92.9457 
G01 X63.9882 Y93.0984 
G01 X64.1152 Y93.2732 
G01 X64.2133 Y93.4658 
G01 X64.2801 Y93.6713 
G01 X64.3139 Y93.8847 
G01 X64.3139 Y96.6153 
G01 X64.2801 Y96.8287 
G01 X64.2133 Y97.0342 
G01 X64.1152 Y97.2268 
G01 X63.9882 Y97.4016 
G01 X63.8355 Y97.5543 
G01 X63.6607 Y97.6813 
G01 X63.4681 Y97.7794 
G01 X63.2626 Y97.8462 
G01 X63.0492 Y97.8800 
G01 X62.8332 Y97.8800 
G01 X62.6198 Y97.8462 
G01 X62.4143 Y97.7794 
G01 X62.2217 Y97.6813 
G01 X62.0469 Y97.5543 
G01 X61.8942 Y97.4016 
G01 X61.7672 Y97.2268 
G01 X61.6691 Y97.0342 
G01 X61.6023 Y96.8287 
G01 X61.5685 Y96.6153 
G01 X61.5685 Y93.8847 
G01 X61.6023 Y93.6713 
G01 X61.6691 Y93.4658 
G01 X61.7672 Y93.2732 
G01 X61.8942 Y93.0984 
G01 X62.0469 Y92.9457 
G01 X62.2217 Y92.8187 
G01 X62.4143 Y92.7206 
G01 X62.6198 Y92.6538 
G01 X62.8332 Y92.6200 
G01 X63.0492 Y92.6200 
G01 X63.2576 Y92.6530 
G01 X63.2576 Y73.2404 
G01 X62.4520 Y73.2404 
G01 X62.4096 Y73.2228 
G01 X62.3772 Y73.1904 
G01 X62.3596 Y73.1480 
G01 X62.3596 Y71.6320 
G01 X62.3772 Y71.5896 
G01 X62.4096 Y71.5572 
G01 X62.4520 Y71.5396 
G01 X63.7680 Y71.5396 
G01 X63.8104 Y71.5572 
G01 X63.8428 Y71.5896 
G01 X63.8604 Y71.6320 
G01 X63.8604 Y73.1480 
G01 X63.8428 Y73.1904 
G01 X63.8104 Y73.2228 
G01 X63.7680 Y73.2404 
G01 X63.7424 Y73.2404 
G01 X63.7424 Y87.3876 
G01 X68.0399 Y87.3876 
G01 X68.0601 Y87.2595 
G01 X68.1205 Y87.0739 
G01 X68.2091 Y86.8999 
G01 X68.3239 Y86.7419 
G01 X68.4619 Y86.6039 
G01 X68.6199 Y86.4891 
G01 X68.7939 Y86.4005 
G01 X68.9795 Y86.3401 
G01 X69.1724 Y86.3096 
G01 X69.3676 Y86.3096 
G01 X69.5605 Y86.3401 
G01 X69.7461 Y86.4005 
G01 X69.9201 Y86.4891 
G01 X70.0781 Y86.6039 
G01 X70.2161 Y86.7419 
G01 X70.3309 Y86.8999 
G01 X70.4195 Y87.0739 
G01 X70.4799 Y87.2595 
G01 X70.5104 Y87.4524 
G00 Z2.5400 
G00 X60.3104 Y77.4524 
G01 Z-0.1500 F254.00 
G01 X60.3104 Y77.6476 F508.00 
G01 X60.2799 Y77.8405 
G01 X60.2195 Y78.0261 
G01 X60.1309 Y78.2001 
G01 X60.0161 Y78.3581 
G01 X59.8781 Y78.4961 
G01 X59.7201 Y78.6109 
G01 X59.5461 Y78.6995 
G01 X59.3605 Y78.7599 
G01 X59.1676 Y78.7904 
G01 X58.9724 Y78.7904 
G01 X58.7795 Y78.7599 
G01 X58.5939 Y78.6995 
G01 X58.4199 Y78.6109 
G01 X58.2619 Y78.4961 
G01 X58.1239 Y78.3581 
G01 X58.0091 Y78.2001 
G01 X57.9205 Y78.0261 
G01 X57.8601 Y77.8405 
G01 X57.8296 Y77.6476 
G01 X57.8296 Y77.4524 
G01 X57.8601 Y77.2595 
G01 X57.9205 Y77.0739 
G01 X58.0091 Y76.8999 
G01 X58.1239 Y76.7419 
G01 X58.2619 Y76.6039 
G01 X58.4199 Y76.4891 
G01 X58.5939 Y76.4005 
G01 X58.7795 Y76.3401 
G01 X58.9724 Y76.3096 
G01 X59.1676 Y76.3096 
G01 X59.3605 Y76.3401 
G01 X59.5461 Y76.4005 
G01 X59.7201 Y76.4891 
G01 X59.8781 Y76.6039 
G01 X60.0161 Y76.7419 
G01 X60.1309 Y76.8999 
G01 X60.2195 Y77.0739 
G01 X60.2799 Y77.2595 
G01 X60.3104 Y77.4524 
G00 Z2.5400 
G00 X60.3104 Y87.4524 
G01 Z-0.1500 F254.00 
G01 X60.3104 Y87.6476 F508.00 
G01 X60.2799 Y87.8405 
G01 X60.2195 Y88.0261 
G01 X60.1309 Y88.2001 
G01 X60.0161 Y88.3581 
G01 X59.9324 Y88.4418 
G01 X59.9324 Y93.0050 
G01 X60.0258 Y93.0984 
G01 X60.1528 Y93.2732 
G01 X60.2509 Y93.4658 
G01 X60.3177 Y93.6713 
G01 X60.3515 Y93.8847 
G01 X60.3515 Y96.6153 
G01 X60.3177 Y96.8287 
G01 X60.2509 Y97.0342 
G01 X60.1528 Y97.2268 
G01 X60.0258 Y97.4016 
G01 X59.8731 Y97.5543 
G01 X59.6983 Y97.6813 
G01 X59.5057 Y97.7794 
G01 X59.3002 Y97.8462 
G01 X59.0868 Y97.8800 
G01 X58.8708 Y97.8800 
G01 X58.6574 Y97.8462 
G01 X58.4519 Y97.7794 
G01 X58.2593 Y97.6813 
G01 X58.0845 Y97.5543 
G01 X57.9318 Y97.4016 
G01 X57.8048 Y97.2268 
G01 X57.7067 Y97.0342 
G01 X57.6399 Y96.8287 
G01 X57.6061 Y96.6153 
G01 X57.6061 Y93.8847 
G01 X57.6399 Y93.6713 
G01 X57.7067 Y93.4658 
G01 X57.8048 Y93.2732 
G01 X57.9318 Y93.0984 
G01 X58.0845 Y92.9457 
G01 X58.2593 Y92.8187 
G01 X58.4519 Y92.7206 
G01 X58.6574 Y92.6538 
G01 X58.8708 Y92.6200 
G01 X59.0868 Y92.6200 
G01 X59.3002 Y92.6538 
G01 X59.4476 Y92.7017 
G01 X59.4476 Y88.7315 
G01 X59.3605 Y88.7599 
G01 X59.1676 Y88.7904 
G01 X58.9724 Y88.7904 
G01 X58.7795 Y88.7599 
G01 X58.5939 Y88.6995 
G01 X58.4199 Y88.6109 
G01 X58.2619 Y88.4961 
G01 X58.1239 Y88.3581 
G01 X58.0091 Y88.2001 
G01 X57.9205 Y88.0261 
G01 X57.8601 Y87.8405 
G01 X57.8296 Y87.6476 
G01 X57.8296 Y87.4524 
G01 X57.8601 Y87.2595 
G01 X57.9205 Y87.0739 
G01 X58.0091 Y86.8999 
G01 X58.1239 Y86.7419 
G01 X58.2619 Y86.6039 
G01 X58.4199 Y86.4891 
G01 X58.5939 Y86.4005 
G01 X58.7795 Y86.3401 
G01 X58.9724 Y86.3096 
G01 X59.1676 Y86.3096 
G01 X59.3605 Y86.3401 
G01 X59.5461 Y86.4005 
G01 X59.7201 Y86.4891 
G01 X59.8781 Y86.6039 
G01 X60.0161 Y86.7419 
G01 X60.1309 Y86.8999 
G01 X60.2195 Y87.0739 
G01 X60.2799 Y87.2595 
G01 X60.3104 Y87.4524 
G00 Z2.5400 
G00 X9.2064 Y73.3221 
G01 Z-0.1500 F254.00 
G01 X9.2064 Y71.4579 F508.00 
G01 X9.2430 Y71.2736 
G01 X9.3149 Y71.1001 
G01 X9.4193 Y70.9439 
G01 X9.5521 Y70.8111 
G01 X9.7083 Y70.7067 
G01 X9.8818 Y70.6348 
G01 X10.0661 Y70.5982 
G01 X10.2539 Y70.5982 
G01 X10.4382 Y70.6348 
G01 X10.6117 Y70.7067 
G01 X10.7679 Y70.8111 
G01 X10.9007 Y70.9439 
G01 X11.0051 Y71.1001 
G01 X11.0770 Y71.2736 
G01 X11.1136 Y71.4579 
G01 X11.1136 Y73.3221 
G01 X11.0770 Y73.5064 
G01 X11.0051 Y73.6799 
G01 X10.9007 Y73.8361 
G01 X10.7679 Y73.9689 
G01 X10.6117 Y74.0733 
G01 X10.4382 Y74.1452 
G01 X10.2539 Y74.1818 
G01 X10.0661 Y74.1818 
G01 X9.8818 Y74.1452 
G01 X9.7083 Y74.0733 
G01 X9.5521 Y73.9689 
G01 X9.4193 Y73.8361 
G01 X9.3149 Y73.6799 
G01 X9.2430 Y73.5064 
G01 X9.2064 Y73.3221 
G00 Z2.5400 
G00 X5.3964 Y73.3221 
G01 Z-0.1500 F254.00 
G01 X5.3964 Y71.4579 F508.00 
G01 X5.4330 Y71.2736 
G01 X5.5049 Y71.1001 
G01 X5.6093 Y70.9439 
G01 X5.7421 Y70.8111 
G01 X5.8983 Y70.7067 
G01 X6.0718 Y70.6348 
G01 X6.2561 Y70.5982 
G01 X6.4439 Y70.5982 
G01 X6.6282 Y70.6348 
G01 X6.8017 Y70.7067 
G01 X6.9579 Y70.8111 
G01 X7.0907 Y70.9439 
G01 X7.1951 Y71.1001 
G01 X7.2670 Y71.2736 
G01 X7.3036 Y71.4579 
G01 X7.3036 Y73.3221 
G01 X7.2670 Y73.5064 
G01 X7.1951 Y73.6799 
G01 X7.0907 Y73.8361 
G01 X6.9579 Y73.9689 
G01 X6.8017 Y74.0733 
G01 X6.6282 Y74.1452 
G01 X6.4439 Y74.1818 
G01 X6.2561 Y74.1818 
G01 X6.0718 Y74.1452 
G01 X5.8983 Y74.0733 
G01 X5.7421 Y73.9689 
G01 X5.6093 Y73.8361 
G01 X5.5049 Y73.6799 
G01 X5.4330 Y73.5064 
G01 X5.3964 Y73.3221 
G00 Z2.5400 
G00 X0.9096 Y89.6580 
G01 Z-0.1500 F254.00 
G01 X0.9096 Y88.1420 F508.00 
G01 X0.9272 Y88.0996 
G01 X0.9596 Y88.0672 
G01 X1.0020 Y88.0496 
G01 X1.7776 Y88.0496 
G01 X2.2976 Y87.5296 
G01 X2.2976 Y74.1523 
G01 X2.2618 Y74.1452 
G01 X2.0883 Y74.0733 
G01 X1.9321 Y73.9689 
G01 X1.7993 Y73.8361 
G01 X1.6949 Y73.6799 
G01 X1.6230 Y73.5064 
G01 X1.5864 Y73.3221 
G01 X1.5864 Y71.4579 
G01 X1.6230 Y71.2736 
G01 X1.6949 Y71.1001 
G01 X1.7993 Y70.9439 
G01 X1.9321 Y70.8111 
G01 X2.0883 Y70.7067 
G01 X2.2618 Y70.6348 
G01 X2.4461 Y70.5982 
G01 X2.6339 Y70.5982 
G01 X2.8182 Y70.6348 
G01 X2.9917 Y70.7067 
G01 X3.1479 Y70.8111 
G01 X3.2807 Y70.9439 
G01 X3.3851 Y71.1001 
G01 X3.4569 Y71.2736 
G01 X3.4936 Y71.4579 
G01 X3.4936 Y73.3221 
G01 X3.4569 Y73.5064 
G01 X3.3851 Y73.6799 
G01 X3.2807 Y73.8361 
G01 X3.1479 Y73.9689 
G01 X2.9917 Y74.0733 
G01 X2.8182 Y74.1452 
G01 X2.7824 Y74.1523 
G01 X2.7824 Y87.6782 
G01 X2.7455 Y87.7673 
G01 X2.6773 Y87.8355 
G01 X2.3988 Y88.1140 
G01 X2.4104 Y88.1420 
G01 X2.4104 Y89.6580 
G01 X2.3928 Y89.7004 
G01 X2.3604 Y89.7328 
G01 X2.3180 Y89.7504 
G01 X1.0020 Y89.7504 
G01 X0.9596 Y89.7328 
G01 X0.9272 Y89.7004 
G01 X0.9096 Y89.6580 
G00 Z2.5400 
G00 X19.9170 Y80.5646 
G01 Z-0.1500 F254.00 
G01 X21.1630 Y80.5646 F508.00 
G01 X21.2054 Y80.5822 
G01 X21.2378 Y80.6146 
G01 X21.2554 Y80.6570 
G01 X21.2554 Y81.9030 
G01 X21.2378 Y81.9454 
G01 X21.2054 Y81.9778 
G01 X21.1630 Y81.9954 
G01 X19.9170 Y81.9954 
G01 X19.8746 Y81.9778 
G01 X19.8422 Y81.9454 
G01 X19.8246 Y81.9030 
G01 X19.8246 Y81.5224 
G01 X17.9254 Y81.5224 
G01 X17.9254 Y81.9030 
G01 X17.9078 Y81.9454 
G01 X17.8754 Y81.9778 
G01 X17.8330 Y81.9954 
G01 X16.9870 Y81.9954 
G01 X16.9446 Y81.9778 
G01 X16.9122 Y81.9454 
G01 X16.8946 Y81.9030 
G01 X16.8946 Y80.6570 
G01 X16.9122 Y80.6146 
G01 X16.9446 Y80.5822 
G01 X16.9870 Y80.5646 
G01 X17.8330 Y80.5646 
G01 X17.8754 Y80.5822 
G01 X17.9078 Y80.6146 
G01 X17.9254 Y80.6570 
G01 X17.9254 Y81.0376 
G01 X19.8246 Y81.0376 
G01 X19.8246 Y80.6570 
G01 X19.8422 Y80.6146 
G01 X19.8746 Y80.5822 
G01 X19.9170 Y80.5646 
G00 Z2.5400 
G00 X5.4967 Y84.5704 
G01 Z-0.1500 F254.00 
G01 X3.4441 Y84.5704 F508.00 
G01 X3.4017 Y84.5528 
G01 X3.3693 Y84.5204 
G01 X3.3517 Y84.4780 
G01 X3.3517 Y80.6220 
G01 X3.3693 Y80.5796 
G01 X3.4017 Y80.5472 
G01 X3.4441 Y80.5296 
G01 X5.4967 Y80.5296 
G01 X5.5391 Y80.5472 
G01 X5.5715 Y80.5796 
G01 X5.5891 Y80.6220 
G01 X5.5891 Y84.4780 
G01 X5.5715 Y84.5204 
G01 X5.5391 Y84.5528 
G01 X5.4967 Y84.5704 
G00 Z2.5400 
G00 X11.7959 Y83.4401 
G01 Z-0.1500 F254.00 
G01 X9.7433 Y83.4401 F508.00 
G01 X9.7009 Y83.4225 
G01 X9.6685 Y83.3901 
G01 X9.6509 Y83.3477 
G01 X9.6509 Y81.8031 
G01 X9.6685 Y81.7607 
G01 X9.7009 Y81.7283 
G01 X9.7433 Y81.7107 
G01 X11.7959 Y81.7107 
G01 X11.8383 Y81.7283 
G01 X11.8707 Y81.7607 
G01 X11.8883 Y81.8031 
G01 X11.8883 Y82.3076 
G01 X13.3956 Y82.3076 
G01 X13.4176 Y82.2547 
G01 X13.4858 Y82.1526 
G01 X13.5726 Y82.0658 
G01 X13.6747 Y81.9976 
G01 X13.7882 Y81.9506 
G01 X13.9086 Y81.9266 
G01 X14.0314 Y81.9266 
G01 X14.1518 Y81.9506 
G01 X14.2653 Y81.9976 
G01 X14.3674 Y82.0658 
G01 X14.4542 Y82.1526 
G01 X14.5224 Y82.2547 
G01 X14.5444 Y82.3076 
G01 X14.9976 Y82.3076 
G01 X14.9976 Y81.2318 
G01 X15.0345 Y81.1427 
G01 X15.0946 Y81.0826 
G01 X15.0946 Y80.6570 
G01 X15.1122 Y80.6146 
G01 X15.1446 Y80.5822 
G01 X15.1870 Y80.5646 
G01 X16.0330 Y80.5646 
G01 X16.0754 Y80.5822 
G01 X16.1078 Y80.6146 
G01 X16.1254 Y80.6570 
G01 X16.1254 Y81.9030 
G01 X16.1078 Y81.9454 
G01 X16.0754 Y81.9778 
G01 X16.0330 Y81.9954 
G01 X15.4824 Y81.9954 
G01 X15.4824 Y83.1046 
G01 X16.0330 Y83.1046 
G01 X16.0754 Y83.1222 
G01 X16.1078 Y83.1546 
G01 X16.1254 Y83.1970 
G01 X16.1254 Y84.4430 
G01 X16.1078 Y84.4854 
G01 X16.0754 Y84.5178 
G01 X16.0330 Y84.5354 
G01 X15.4824 Y84.5354 
G01 X15.4824 Y85.6446 
G01 X16.0330 Y85.6446 
G01 X16.0754 Y85.6622 
G01 X16.1078 Y85.6946 
G01 X16.1254 Y85.7370 
G01 X16.1254 Y86.9830 
G01 X16.1078 Y87.0254 
G01 X16.0754 Y87.0578 
G01 X16.0330 Y87.0754 
G01 X15.1870 Y87.0754 
G01 X15.1446 Y87.0578 
G01 X15.1122 Y87.0254 
G01 X15.0946 Y86.9830 
G01 X15.0946 Y86.5574 
G01 X15.0345 Y86.4973 
G01 X14.9976 Y86.4082 
G01 X14.9976 Y82.7924 
G01 X14.5444 Y82.7924 
G01 X14.5224 Y82.8453 
G01 X14.4542 Y82.9474 
G01 X14.3674 Y83.0342 
G01 X14.2653 Y83.1024 
G01 X14.1518 Y83.1494 
G01 X14.0314 Y83.1734 
G01 X13.9086 Y83.1734 
G01 X13.7882 Y83.1494 
G01 X13.6747 Y83.1024 
G01 X13.5726 Y83.0342 
G01 X13.4858 Y82.9474 
G01 X13.4176 Y82.8453 
G01 X13.3956 Y82.7924 
G01 X11.8883 Y82.7924 
G01 X11.8883 Y83.3477 
G01 X11.8707 Y83.3901 
G01 X11.8383 Y83.4225 
G01 X11.7959 Y83.4401 
G00 Z2.5400 
G00 X15.1572 Y90.9176 
G01 Z-0.1500 F254.00 
G01 X12.7828 Y90.9176 F508.00 
G01 X12.5950 Y90.8879 
G01 X12.4142 Y90.8291 
G01 X12.2449 Y90.7428 
G01 X12.0911 Y90.6311 
G01 X11.9567 Y90.4967 
G01 X11.8450 Y90.3429 
G01 X11.7587 Y90.1736 
G01 X11.6999 Y89.9928 
G01 X11.6702 Y89.8050 
G01 X11.6702 Y89.6150 
G01 X11.6999 Y89.4272 
G01 X11.7587 Y89.2464 
G01 X11.8450 Y89.0771 
G01 X11.9567 Y88.9233 
G01 X12.0911 Y88.7889 
G01 X12.2449 Y88.6772 
G01 X12.4142 Y88.5909 
G01 X12.5950 Y88.5321 
G01 X12.7828 Y88.5024 
G01 X15.1572 Y88.5024 
G01 X15.3450 Y88.5321 
G01 X15.5258 Y88.5909 
G01 X15.6951 Y88.6772 
G01 X15.8489 Y88.7889 
G01 X15.9833 Y88.9233 
G01 X16.0950 Y89.0771 
G01 X16.1813 Y89.2464 
G01 X16.2401 Y89.4272 
G01 X16.2698 Y89.6150 
G01 X16.2698 Y89.8050 
G01 X16.2401 Y89.9928 
G01 X16.1813 Y90.1736 
G01 X16.0950 Y90.3429 
G01 X15.9833 Y90.4967 
G01 X15.8489 Y90.6311 
G01 X15.6951 Y90.7428 
G01 X15.5258 Y90.8291 
G01 X15.3450 Y90.8879 
G01 X15.1572 Y90.9176 
G00 Z2.5400 
G00 X10.3776 Y91.5228 
G01 Z-0.1500 F254.00 
G01 X10.3776 Y93.8972 F508.00 
G01 X10.3479 Y94.0850 
G01 X10.2891 Y94.2658 
G01 X10.2028 Y94.4351 
G01 X10.0911 Y94.5889 
G01 X9.9567 Y94.7233 
G01 X9.8029 Y94.8350 
G01 X9.6336 Y94.9213 
G01 X9.4528 Y94.9801 
G01 X9.2650 Y95.0098 
G01 X9.0750 Y95.0098 
G01 X8.8872 Y94.9801 
G01 X8.7064 Y94.9213 
G01 X8.5371 Y94.8350 
G01 X8.3833 Y94.7233 
G01 X8.2489 Y94.5889 
G01 X8.1372 Y94.4351 
G01 X8.0509 Y94.2658 
G01 X7.9921 Y94.0850 
G01 X7.9624 Y93.8972 
G01 X7.9624 Y91.5228 
G01 X7.9921 Y91.3350 
G01 X8.0509 Y91.1542 
G01 X8.1372 Y90.9849 
G01 X8.2489 Y90.8311 
G01 X8.3833 Y90.6967 
G01 X8.5371 Y90.5850 
G01 X8.7064 Y90.4987 
G01 X8.8872 Y90.4399 
G01 X9.0750 Y90.4102 
G01 X9.2650 Y90.4102 
G01 X9.4528 Y90.4399 
G01 X9.6336 Y90.4987 
G01 X9.8029 Y90.5850 
G01 X9.9567 Y90.6967 
G01 X10.0911 Y90.8311 
G01 X10.2028 Y90.9849 
G01 X10.2891 Y91.1542 
G01 X10.3479 Y91.3350 
G01 X10.3776 Y91.5228 
G00 Z2.5400 
G00 X6.0334 Y96.3743 
G01 Z-0.1500 F254.00 
G01 X6.0334 Y96.6657 F508.00 
G01 X5.9954 Y96.9547 
G01 X5.9199 Y97.2362 
G01 X5.8084 Y97.5055 
G01 X5.6627 Y97.7579 
G01 X5.4852 Y97.9891 
G01 X5.2791 Y98.1952 
G01 X5.0479 Y98.3727 
G01 X4.7955 Y98.5184 
G01 X4.5262 Y98.6299 
G01 X4.2447 Y98.7054 
G01 X3.9557 Y98.7434 
G01 X3.6643 Y98.7434 
G01 X3.3753 Y98.7054 
G01 X3.0938 Y98.6299 
G01 X2.8245 Y98.5184 
G01 X2.5721 Y98.3727 
G01 X2.3409 Y98.1952 
G01 X2.1348 Y97.9891 
G01 X1.9573 Y97.7579 
G01 X1.8116 Y97.5055 
G01 X1.7001 Y97.2362 
G01 X1.6246 Y96.9547 
G01 X1.5866 Y96.6657 
G01 X1.5866 Y96.3743 
G01 X1.6246 Y96.0853 
G01 X1.7001 Y95.8038 
G01 X1.8116 Y95.5345 
G01 X1.9573 Y95.2821 
G01 X2.1348 Y95.0509 
G01 X2.3409 Y94.8448 
G01 X2.5721 Y94.6673 
G01 X2.8245 Y94.5216 
G01 X3.0938 Y94.4101 
G01 X3.3753 Y94.3346 
G01 X3.6643 Y94.2966 
G01 X3.9557 Y94.2966 
G01 X4.2447 Y94.3346 
G01 X4.5262 Y94.4101 
G01 X4.7955 Y94.5216 
G01 X5.0479 Y94.6673 
G01 X5.2791 Y94.8448 
G01 X5.4852 Y95.0509 
G01 X5.6627 Y95.2821 
G01 X5.8084 Y95.5345 
G01 X5.9199 Y95.8038 
G01 X5.9954 Y96.0853 
G01 X6.0334 Y96.3743 
G00 Z2.5400 
G00 X6.0334 Y3.6643 
G01 Z-0.1500 F254.00 
G01 X6.0334 Y3.9557 F508.00 
G01 X5.9954 Y4.2447 
G01 X5.9199 Y4.5262 
G01 X5.8084 Y4.7955 
G01 X5.6627 Y5.0479 
G01 X5.4852 Y5.2791 
G01 X5.2791 Y5.4852 
G01 X5.0479 Y5.6627 
G01 X4.7955 Y5.8084 
G01 X4.5262 Y5.9199 
G01 X4.2447 Y5.9954 
G01 X3.9557 Y6.0334 
G01 X3.6643 Y6.0334 
G01 X3.3753 Y5.9954 
G01 X3.0938 Y5.9199 
G01 X2.8245 Y5.8084 
G01 X2.5721 Y5.6627 
G01 X2.3409 Y5.4852 
G01 X2.1348 Y5.2791 
G01 X1.9573 Y5.0479 
G01 X1.8116 Y4.7955 
G01 X1.7001 Y4.5262 
G01 X1.6246 Y4.2447 
G01 X1.5866 Y3.9557 
G01 X1.5866 Y3.6643 
G01 X1.6246 Y3.3753 
G01 X1.7001 Y3.0938 
G01 X1.8116 Y2.8245 
G01 X1.9573 Y2.5721 
G01 X2.1348 Y2.3409 
G01 X2.3409 Y2.1348 
G01 X2.5721 Y1.9573 
G01 X2.8245 Y1.8116 
G01 X3.0938 Y1.7001 
G01 X3.3753 Y1.6246 
G01 X3.6643 Y1.5866 
G01 X3.9557 Y1.5866 
G01 X4.2447 Y1.6246 
G01 X4.5262 Y1.7001 
G01 X4.7955 Y1.8116 
G01 X5.0479 Y1.9573 
G01 X5.2791 Y2.1348 
G01 X5.4852 Y2.3409 
G01 X5.6627 Y2.5721 
G01 X5.8084 Y2.8245 
G01 X5.9199 Y3.0938 
G01 X5.9954 Y3.3753 
G01 X6.0334 Y3.6643 
G00 Z2.5400 
G00 X87.3134 Y96.3743 
G01 Z-0.1500 F254.00 
G01 X87.3134 Y96.6657 F508.00 
G01 X87.2754 Y96.9547 
G01 X87.1999 Y97.2362 
G01 X87.0884 Y97.5055 
G01 X86.9427 Y97.7579 
G01 X86.7652 Y97.9891 
G01 X86.5591 Y98.1952 
G01 X86.3279 Y98.3727 
G01 X86.0755 Y98.5184 
G01 X85.8062 Y98.6299 
G01 X85.5247 Y98.7054 
G01 X85.2357 Y98.7434 
G01 X84.9443 Y98.7434 
G01 X84.6553 Y98.7054 
G01 X84.3738 Y98.6299 
G01 X84.1045 Y98.5184 
G01 X83.8521 Y98.3727 
G01 X83.6209 Y98.1952 
G01 X83.4148 Y97.9891 
G01 X83.2373 Y97.7579 
G01 X83.0916 Y97.5055 
G01 X82.9801 Y97.2362 
G01 X82.9046 Y96.9547 
G01 X82.8666 Y96.6657 
G01 X82.8666 Y96.3743 
G01 X82.9046 Y96.0853 
G01 X82.9801 Y95.8038 
G01 X83.0916 Y95.5345 
G01 X83.2373 Y95.2821 
G01 X83.4148 Y95.0509 
G01 X83.6209 Y94.8448 
G01 X83.8521 Y94.6673 
G01 X84.1045 Y94.5216 
G01 X84.3738 Y94.4101 
G01 X84.6553 Y94.3346 
G01 X84.9443 Y94.2966 
G01 X85.2357 Y94.2966 
G01 X85.5247 Y94.3346 
G01 X85.8062 Y94.4101 
G01 X86.0755 Y94.5216 
G01 X86.3279 Y94.6673 
G01 X86.5591 Y94.8448 
G01 X86.7652 Y95.0509 
G01 X86.9427 Y95.2821 
G01 X87.0884 Y95.5345 
G01 X87.1999 Y95.8038 
G01 X87.2754 Y96.0853 
G01 X87.3134 Y96.3743 
G00 Z2.5400 
G00 X87.3134 Y3.6643 
G01 Z-0.1500 F254.00 
G01 X87.3134 Y3.9557 F508.00 
G01 X87.2754 Y4.2447 
G01 X87.1999 Y4.5262 
G01 X87.0884 Y4.7955 
G01 X86.9427 Y5.0479 
G01 X86.7652 Y5.2791 
G01 X86.5591 Y5.4852 
G01 X86.3279 Y5.6627 
G01 X86.0755 Y5.8084 
G01 X85.8062 Y5.9199 
G01 X85.5247 Y5.9954 
G01 X85.2357 Y6.0334 
G01 X84.9443 Y6.0334 
G01 X84.6553 Y5.9954 
G01 X84.3738 Y5.9199 
G01 X84.1045 Y5.8084 
G01 X83.8521 Y5.6627 
G01 X83.6209 Y5.4852 
G01 X83.4148 Y5.2791 
G01 X83.2373 Y5.0479 
G01 X83.0916 Y4.7955 
G01 X82.9801 Y4.5262 
G01 X82.9046 Y4.2447 
G01 X82.8666 Y3.9557 
G01 X82.8666 Y3.6643 
G01 X82.9046 Y3.3753 
G01 X82.9801 Y3.0938 
G01 X83.0916 Y2.8245 
G01 X83.2373 Y2.5721 
G01 X83.4148 Y2.3409 
G01 X83.6209 Y2.1348 
G01 X83.8521 Y1.9573 
G01 X84.1045 Y1.8116 
G01 X84.3738 Y1.7001 
G01 X84.6553 Y1.6246 
G01 X84.9443 Y1.5866 
G01 X85.2357 Y1.5866 
G01 X85.5247 Y1.6246 
G01 X85.8062 Y1.7001 
G01 X86.0755 Y1.8116 
G01 X86.3279 Y1.9573 
G01 X86.5591 Y2.1348 
G01 X86.7652 Y2.3409 
G01 X86.9427 Y2.5721 
G01 X87.0884 Y2.8245 
G01 X87.1999 Y3.0938 
G01 X87.2754 Y3.3753 
G01 X87.3134 Y3.6643 
G00 Z2.5400 
G00 X37.1994 Y49.6830 
G01 Z-0.1500 F254.00 
G01 X37.1994 Y59.7386 F508.00 
G01 X37.1742 Y59.8326 
G01 X37.1256 Y59.9168 
G01 X37.0568 Y59.9856 
G01 X34.2486 Y62.7938 
G01 X34.2559 Y62.7988 
G01 X34.3816 Y62.9245 
G01 X34.4804 Y63.0724 
G01 X34.5485 Y63.2367 
G01 X34.5832 Y63.4111 
G01 X34.5832 Y63.5889 
G01 X34.5485 Y63.7633 
G01 X34.4804 Y63.9276 
G01 X34.3816 Y64.0755 
G01 X34.2559 Y64.2012 
G01 X34.1080 Y64.3000 
G01 X33.9437 Y64.3681 
G01 X33.7804 Y64.4006 
G01 X34.3386 Y64.4006 
G01 X34.4326 Y64.4258 
G01 X34.5168 Y64.4744 
G01 X34.5856 Y64.5432 
G01 X37.1256 Y67.0832 
G01 X37.1742 Y67.1674 
G01 X37.1994 Y67.2614 
G01 X37.1994 Y79.1676 
G01 X37.6482 Y79.1676 
G01 X37.7306 Y79.2017 
G01 X37.7306 Y50.7514 
G01 X37.7558 Y50.6574 
G01 X37.8044 Y50.5732 
G01 X39.4114 Y48.9661 
G01 X39.4041 Y48.9612 
G01 X39.2784 Y48.8355 
G01 X39.1795 Y48.6876 
G01 X39.1115 Y48.5233 
G01 X39.0768 Y48.3489 
G01 X39.0768 Y48.1711 
G01 X39.1115 Y47.9967 
G01 X39.1795 Y47.8324 
G01 X39.2784 Y47.6845 
G01 X39.4041 Y47.5588 
G01 X39.5520 Y47.4599 
G01 X39.7163 Y47.3919 
G01 X39.8796 Y47.3594 
G01 X39.5230 Y47.3594 
G01 X37.1994 Y49.6830 
G00 Z2.5400 
G00 X36.3982 Y87.8575 
G01 Z-0.1500 F254.00 
G01 X37.2618 Y87.8575 F508.00 
G01 X37.3060 Y87.9016 
G01 X39.0006 Y86.2070 
G01 X39.0006 Y80.8524 
G01 X38.5518 Y80.8524 
G01 X38.4694 Y80.8183 
G01 X38.4694 Y85.1386 
G01 X38.4442 Y85.2326 
G01 X38.3956 Y85.3168 
G01 X38.3268 Y85.3856 
G01 X37.8284 Y85.8840 
G01 X37.8725 Y85.9282 
G01 X37.8725 Y86.7918 
G01 X37.2618 Y87.4025 
G01 X36.3982 Y87.4025 
G01 X35.9294 Y86.9337 
G01 X35.9294 Y88.3263 
G01 X36.3982 Y87.8575 
G00 Z2.5400 
G00 X36.3982 Y85.3175 
G01 Z-0.1500 F254.00 
G01 X37.2618 Y85.3175 F508.00 
G01 X37.3060 Y85.3616 
G01 X37.7306 Y84.9370 
G01 X37.7306 Y80.8183 
G01 X37.6482 Y80.8524 
G01 X36.7518 Y80.8524 
G01 X36.6627 Y80.8155 
G01 X36.5945 Y80.7473 
G01 X36.5576 Y80.6582 
G01 X36.5576 Y80.2600 
G01 X36.5344 Y80.2368 
G01 X36.4858 Y80.1526 
G01 X36.4606 Y80.0586 
G01 X36.4606 Y67.4630 
G01 X34.1370 Y65.1394 
G01 X33.7804 Y65.1394 
G01 X33.9437 Y65.1719 
G01 X34.1080 Y65.2400 
G01 X34.2559 Y65.3388 
G01 X34.3816 Y65.4645 
G01 X34.4804 Y65.6124 
G01 X34.5485 Y65.7767 
G01 X34.5832 Y65.9511 
G01 X34.5832 Y66.1289 
G01 X34.5485 Y66.3033 
G01 X34.4804 Y66.4676 
G01 X34.3816 Y66.6155 
G01 X34.2559 Y66.7412 
G01 X34.2486 Y66.7462 
G01 X35.7868 Y68.2844 
G01 X35.8556 Y68.3532 
G01 X35.9042 Y68.4374 
G01 X35.9294 Y68.5314 
G01 X35.9294 Y85.7863 
G01 X36.3982 Y85.3175 
G00 Z2.5400 
G00 X49.7766 Y93.6106 
G01 Z-0.1500 F254.00 
G01 X49.7927 Y93.5945 F508.00 
G01 X49.8818 Y93.5576 
G01 X51.3782 Y93.5576 
G01 X51.4673 Y93.5945 
G01 X51.5355 Y93.6627 
G01 X51.5724 Y93.7518 
G01 X51.5724 Y94.8482 
G01 X51.5590 Y94.8806 
G01 X51.7006 Y94.8806 
G01 X51.7006 Y93.0794 
G01 X49.4814 Y93.0794 
G01 X49.3874 Y93.0542 
G01 X49.3032 Y93.0056 
G01 X49.2344 Y92.9368 
G01 X48.5800 Y92.2824 
G01 X48.1818 Y92.2824 
G01 X48.0927 Y92.2455 
G01 X48.0245 Y92.1773 
G01 X47.9876 Y92.0882 
G01 X47.9876 Y91.6900 
G01 X47.9644 Y91.6668 
G01 X47.9158 Y91.5826 
G01 X47.8906 Y91.4886 
G01 X47.8906 Y91.3914 
G01 X47.9158 Y91.2974 
G01 X47.9644 Y91.2132 
G01 X47.9876 Y91.1900 
G01 X47.9876 Y90.7918 
G01 X48.0245 Y90.7027 
G01 X48.0927 Y90.6345 
G01 X48.1818 Y90.5976 
G01 X49.0782 Y90.5976 
G01 X49.1673 Y90.6345 
G01 X49.2355 Y90.7027 
G01 X49.2724 Y90.7918 
G01 X49.2724 Y91.9300 
G01 X49.6830 Y92.3406 
G01 X52.1186 Y92.3406 
G01 X52.2126 Y92.3658 
G01 X52.2968 Y92.4144 
G01 X52.3656 Y92.4832 
G01 X52.4142 Y92.5674 
G01 X52.4394 Y92.6614 
G01 X52.4394 Y95.2986 
G01 X52.4142 Y95.3926 
G01 X52.3656 Y95.4768 
G01 X52.2968 Y95.5456 
G01 X52.2126 Y95.5942 
G01 X52.1186 Y95.6194 
G01 X51.5590 Y95.6194 
G01 X51.5724 Y95.6518 
G01 X51.5724 Y96.1506 
G01 X51.9170 Y96.1506 
G01 X52.9706 Y95.0970 
G01 X52.9706 Y85.2430 
G01 X51.0724 Y83.3448 
G01 X51.0724 Y83.5700 
G01 X51.0956 Y83.5932 
G01 X51.1442 Y83.6774 
G01 X51.1694 Y83.7714 
G01 X51.1694 Y91.4886 
G01 X51.1442 Y91.5826 
G01 X51.0956 Y91.6668 
G01 X51.0724 Y91.6900 
G01 X51.0724 Y92.0882 
G01 X51.0355 Y92.1773 
G01 X50.9673 Y92.2455 
G01 X50.8782 Y92.2824 
G01 X49.9818 Y92.2824 
G01 X49.8927 Y92.2455 
G01 X49.8245 Y92.1773 
G01 X49.7876 Y92.0882 
G01 X49.7876 Y90.7918 
G01 X49.8245 Y90.7027 
G01 X49.8927 Y90.6345 
G01 X49.9818 Y90.5976 
G01 X50.4306 Y90.5976 
G01 X50.4306 Y88.4724 
G01 X49.9818 Y88.4724 
G01 X49.8927 Y88.4355 
G01 X49.8245 Y88.3673 
G01 X49.7876 Y88.2782 
G01 X49.7876 Y87.0655 
G01 X49.7489 Y87.0816 
G01 X49.6039 Y87.1104 
G01 X49.4561 Y87.1104 
G01 X49.3276 Y87.0848 
G01 X49.2724 Y87.1400 
G01 X49.2724 Y88.2782 
G01 X49.2355 Y88.3673 
G01 X49.1673 Y88.4355 
G01 X49.0782 Y88.4724 
G01 X48.1818 Y88.4724 
G01 X48.0927 Y88.4355 
G01 X48.0245 Y88.3673 
G01 X47.9876 Y88.2782 
G01 X47.9876 Y87.8800 
G01 X47.9644 Y87.8568 
G01 X47.9158 Y87.7726 
G01 X47.8906 Y87.6786 
G01 X47.8906 Y87.5814 
G01 X47.9158 Y87.4874 
G01 X47.9644 Y87.4032 
G01 X47.9876 Y87.3800 
G01 X47.9876 Y86.9818 
G01 X48.0245 Y86.8927 
G01 X48.0927 Y86.8245 
G01 X48.1818 Y86.7876 
G01 X48.5800 Y86.7876 
G01 X48.8052 Y86.5624 
G01 X48.7796 Y86.4339 
G01 X48.7796 Y86.2861 
G01 X48.8084 Y86.1411 
G01 X48.8650 Y86.0046 
G01 X48.9471 Y85.8816 
G01 X49.0516 Y85.7771 
G01 X49.1297 Y85.7250 
G01 X49.0516 Y85.6729 
G01 X48.9471 Y85.5684 
G01 X48.8650 Y85.4454 
G01 X48.8084 Y85.3089 
G01 X48.7796 Y85.1639 
G01 X48.7796 Y85.0161 
G01 X48.8052 Y84.8876 
G01 X48.5800 Y84.6624 
G01 X48.1818 Y84.6624 
G01 X48.0927 Y84.6255 
G01 X48.0245 Y84.5573 
G01 X47.9876 Y84.4682 
G01 X47.9876 Y84.0700 
G01 X47.9644 Y84.0468 
G01 X47.9158 Y83.9626 
G01 X47.8906 Y83.8686 
G01 X47.8906 Y83.7714 
G01 X47.9158 Y83.6774 
G01 X47.9644 Y83.5932 
G01 X47.9876 Y83.5700 
G01 X47.9876 Y83.1718 
G01 X48.0245 Y83.0827 
G01 X48.0927 Y83.0145 
G01 X48.1818 Y82.9776 
G01 X48.9132 Y82.9776 
G01 X48.8650 Y82.9054 
G01 X48.8084 Y82.7689 
G01 X48.7796 Y82.6239 
G01 X48.7796 Y82.4761 
G01 X48.8084 Y82.3311 
G01 X48.8650 Y82.1946 
G01 X48.9471 Y82.0716 
G01 X49.0516 Y81.9671 
G01 X49.1746 Y81.8850 
G01 X49.3111 Y81.8284 
G01 X49.4561 Y81.7996 
G01 X49.5272 Y81.7996 
G01 X48.5800 Y80.8524 
G01 X48.1818 Y80.8524 
G01 X48.0927 Y80.8155 
G01 X48.0245 Y80.7473 
G01 X47.9876 Y80.6582 
G01 X47.9876 Y80.2600 
G01 X47.9644 Y80.2368 
G01 X47.9158 Y80.1526 
G01 X47.8906 Y80.0586 
G01 X47.8906 Y79.9614 
G01 X47.9158 Y79.8674 
G01 X47.9644 Y79.7832 
G01 X47.9876 Y79.7600 
G01 X47.9876 Y79.5348 
G01 X47.3594 Y80.1630 
G01 X47.3594 Y93.6106 
G01 X49.7766 Y93.6106 
G00 Z2.5400 
G00 X50.4306 Y86.7876 
G01 Z-0.1500 F254.00 
G01 X50.4306 Y84.6624 F508.00 
G01 X50.1468 Y84.6624 
G01 X50.1950 Y84.7345 
G01 X50.2516 Y84.8711 
G01 X50.2804 Y85.0161 
G01 X50.2804 Y85.1639 
G01 X50.2516 Y85.3089 
G01 X50.1950 Y85.4454 
G01 X50.1129 Y85.5684 
G01 X50.0084 Y85.6729 
G01 X49.9303 Y85.7250 
G01 X50.0084 Y85.7771 
G01 X50.1129 Y85.8816 
G01 X50.1950 Y86.0046 
G01 X50.2516 Y86.1411 
G01 X50.2804 Y86.2861 
G01 X50.2804 Y86.4339 
G01 X50.2516 Y86.5789 
G01 X50.1950 Y86.7154 
G01 X50.1468 Y86.7876 
G01 X50.4306 Y86.7876 
G00 Z2.5400 
G00 X49.7876 Y83.3300 
G01 Z-0.1500 F254.00 
G01 X49.7324 Y83.2748 F508.00 
G01 X49.6039 Y83.3004 
G01 X49.4561 Y83.3004 
G01 X49.3111 Y83.2716 
G01 X49.2724 Y83.2555 
G01 X49.2724 Y84.3100 
G01 X49.3276 Y84.3652 
G01 X49.4561 Y84.3396 
G01 X49.6039 Y84.3396 
G01 X49.7489 Y84.3684 
G01 X49.7876 Y84.3845 
G01 X49.7876 Y83.3300 
G00 Z2.5400 
G00 X45.3506 Y92.0137 
G01 Z-0.1500 F254.00 
G01 X44.8818 Y92.4825 F508.00 
G01 X44.0182 Y92.4825 
G01 X43.9740 Y92.4384 
G01 X43.5494 Y92.8630 
G01 X43.5494 Y93.4063 
G01 X44.0182 Y92.9375 
G01 X44.8818 Y92.9375 
G01 X44.9260 Y92.9816 
G01 X45.3506 Y92.5570 
G01 X45.3506 Y92.0137 
G00 Z2.5400 
G00 X44.8818 Y89.9425 
G01 Z-0.1500 F254.00 
G01 X44.8194 Y89.9425 F508.00 
G01 X44.8194 Y90.3975 
G01 X44.8818 Y90.3975 
G01 X45.3506 Y90.8663 
G01 X45.3506 Y89.4737 
G01 X44.8818 Y89.9425 
G00 Z2.5400 
G00 X50.2804 Y82.6239 
G01 Z-0.1500 F254.00 
G01 X50.2548 Y82.7524 F508.00 
G01 X50.4800 Y82.9776 
G01 X50.7052 Y82.9776 
G01 X50.2804 Y82.5528 
G01 X50.2804 Y82.6239 
G00 Z2.5400 
G00 X35.9294 Y89.4737 
G01 Z-0.1500 F254.00 
G01 X35.9294 Y89.8006 F508.00 
G01 X36.2563 Y89.8006 
G01 X35.9294 Y89.4737 
G00 Z2.5400 
G00 X43.4075 Y86.7918 
G01 Z-0.1500 F254.00 
G01 X43.4075 Y85.9282 F508.00 
G01 X44.0182 Y85.3175 
G01 X44.8818 Y85.3175 
G01 X45.3506 Y85.7863 
G01 X45.3506 Y81.4330 
G01 X44.7700 Y80.8524 
G01 X44.3718 Y80.8524 
G01 X44.2827 Y80.8155 
G01 X44.2145 Y80.7473 
G01 X44.1776 Y80.6582 
G01 X44.1776 Y80.2600 
G01 X44.1544 Y80.2368 
G01 X44.1058 Y80.1526 
G01 X44.0806 Y80.0586 
G01 X44.0806 Y47.3594 
G01 X41.4004 Y47.3594 
G01 X41.5637 Y47.3919 
G01 X41.7280 Y47.4599 
G01 X41.8759 Y47.5588 
G01 X42.0016 Y47.6845 
G01 X42.1004 Y47.8324 
G01 X42.1685 Y47.9967 
G01 X42.2032 Y48.1711 
G01 X42.2032 Y48.3489 
G01 X42.1685 Y48.5233 
G01 X42.1004 Y48.6876 
G01 X42.0016 Y48.8355 
G01 X41.8759 Y48.9612 
G01 X41.7280 Y49.0600 
G01 X41.5637 Y49.1281 
G01 X41.3893 Y49.1628 
G01 X40.2596 Y49.1628 
G01 X38.4694 Y50.9530 
G01 X38.4694 Y79.2017 
G01 X38.5518 Y79.1676 
G01 X39.4482 Y79.1676 
G01 X39.5373 Y79.2045 
G01 X39.6055 Y79.2727 
G01 X39.6424 Y79.3618 
G01 X39.6424 Y79.6406 
G01 X40.3676 Y79.6406 
G01 X40.3676 Y79.3618 
G01 X40.4045 Y79.2727 
G01 X40.4727 Y79.2045 
G01 X40.5618 Y79.1676 
G01 X41.4582 Y79.1676 
G01 X41.5473 Y79.2045 
G01 X41.6155 Y79.2727 
G01 X41.6524 Y79.3618 
G01 X41.6524 Y80.6582 
G01 X41.6155 Y80.7473 
G01 X41.5473 Y80.8155 
G01 X41.4582 Y80.8524 
G01 X40.5618 Y80.8524 
G01 X40.4727 Y80.8155 
G01 X40.4045 Y80.7473 
G01 X40.3676 Y80.6582 
G01 X40.3676 Y80.3794 
G01 X39.7394 Y80.3794 
G01 X39.7394 Y86.4086 
G01 X39.7142 Y86.5026 
G01 X39.6656 Y86.5868 
G01 X37.8284 Y88.4240 
G01 X37.8725 Y88.4682 
G01 X37.8725 Y89.3318 
G01 X37.4037 Y89.8006 
G01 X42.8106 Y89.8006 
G01 X42.8106 Y87.5814 
G01 X42.8358 Y87.4874 
G01 X42.8844 Y87.4032 
G01 X43.4516 Y86.8360 
G01 X43.4075 Y86.7918 
G00 Z2.5400 
G00 X43.4524 Y79.3618 
G01 Z-0.1500 F254.00 
G01 X43.4524 Y79.7600 F508.00 
G01 X43.4756 Y79.7832 
G01 X43.5242 Y79.8674 
G01 X43.5494 Y79.9614 
G01 X43.5494 Y80.0586 
G01 X43.5242 Y80.1526 
G01 X43.4756 Y80.2368 
G01 X43.4524 Y80.2600 
G01 X43.4524 Y80.6582 
G01 X43.4155 Y80.7473 
G01 X43.3473 Y80.8155 
G01 X43.2582 Y80.8524 
G01 X42.8600 Y80.8524 
G01 X41.0094 Y82.7030 
G01 X41.0094 Y86.9743 
G01 X41.1183 Y87.0471 
G01 X41.2229 Y87.1516 
G01 X41.3050 Y87.2746 
G01 X41.3616 Y87.4111 
G01 X41.3904 Y87.5561 
G01 X41.3904 Y87.7039 
G01 X41.3616 Y87.8489 
G01 X41.3050 Y87.9854 
G01 X41.2229 Y88.1084 
G01 X41.1183 Y88.2129 
G01 X40.9954 Y88.2950 
G01 X40.8589 Y88.3516 
G01 X40.7139 Y88.3804 
G01 X40.5661 Y88.3804 
G01 X40.4211 Y88.3516 
G01 X40.2846 Y88.2950 
G01 X40.1616 Y88.2129 
G01 X40.0571 Y88.1084 
G01 X39.9750 Y87.9854 
G01 X39.9184 Y87.8489 
G01 X39.8896 Y87.7039 
G01 X39.8896 Y87.5561 
G01 X39.9184 Y87.4111 
G01 X39.9750 Y87.2746 
G01 X40.0571 Y87.1516 
G01 X40.1616 Y87.0471 
G01 X40.2706 Y86.9743 
G01 X40.2706 Y82.5014 
G01 X40.2958 Y82.4074 
G01 X40.3444 Y82.3232 
G01 X40.4132 Y82.2544 
G01 X42.1676 Y80.5000 
G01 X42.1676 Y79.3618 
G01 X42.2045 Y79.2727 
G01 X42.2727 Y79.2045 
G01 X42.3618 Y79.1676 
G01 X43.2582 Y79.1676 
G01 X43.3473 Y79.2045 
G01 X43.4155 Y79.2727 
G01 X43.4524 Y79.3618 
G00 Z2.5400 
G00 X41.3893 Y51.7028 
G01 Z-0.1500 F254.00 
G01 X39.8907 Y51.7028 F508.00 
G01 X39.7163 Y51.6681 
G01 X39.5520 Y51.6000 
G01 X39.4041 Y51.5012 
G01 X39.2784 Y51.3755 
G01 X39.1795 Y51.2276 
G01 X39.1115 Y51.0633 
G01 X39.0768 Y50.8889 
G01 X39.0768 Y50.7111 
G01 X39.1115 Y50.5367 
G01 X39.1795 Y50.3724 
G01 X39.2784 Y50.2245 
G01 X39.4041 Y50.0988 
G01 X39.5520 Y50.0000 
G01 X39.7163 Y49.9319 
G01 X39.8907 Y49.8972 
G01 X41.3893 Y49.8972 
G01 X41.5637 Y49.9319 
G01 X41.7280 Y50.0000 
G01 X41.8759 Y50.0988 
G01 X42.0016 Y50.2245 
G01 X42.1004 Y50.3724 
G01 X42.1685 Y50.5367 
G01 X42.2032 Y50.7111 
G01 X42.2032 Y50.8889 
G01 X42.1685 Y51.0633 
G01 X42.1004 Y51.2276 
G01 X42.0016 Y51.3755 
G01 X41.8759 Y51.5012 
G01 X41.7280 Y51.6000 
G01 X41.5637 Y51.6681 
G01 X41.3893 Y51.7028 
G00 Z2.5400 
G00 X41.3893 Y54.2428 
G01 Z-0.1500 F254.00 
G01 X39.8907 Y54.2428 F508.00 
G01 X39.7163 Y54.2081 
G01 X39.5520 Y54.1400 
G01 X39.4041 Y54.0412 
G01 X39.2784 Y53.9155 
G01 X39.1795 Y53.7676 
G01 X39.1115 Y53.6033 
G01 X39.0768 Y53.4289 
G01 X39.0768 Y53.2511 
G01 X39.1115 Y53.0767 
G01 X39.1795 Y52.9124 
G01 X39.2784 Y52.7645 
G01 X39.4041 Y52.6388 
G01 X39.5520 Y52.5400 
G01 X39.7163 Y52.4719 
G01 X39.8907 Y52.4372 
G01 X41.3893 Y52.4372 
G01 X41.5637 Y52.4719 
G01 X41.7280 Y52.5400 
G01 X41.8759 Y52.6388 
G01 X42.0016 Y52.7645 
G01 X42.1004 Y52.9124 
G01 X42.1685 Y53.0767 
G01 X42.2032 Y53.2511 
G01 X42.2032 Y53.4289 
G01 X42.1685 Y53.6033 
G01 X42.1004 Y53.7676 
G01 X42.0016 Y53.9155 
G01 X41.8759 Y54.0412 
G01 X41.7280 Y54.1400 
G01 X41.5637 Y54.2081 
G01 X41.3893 Y54.2428 
G00 Z2.5400 
G00 X41.3893 Y56.7828 
G01 Z-0.1500 F254.00 
G01 X39.8907 Y56.7828 F508.00 
G01 X39.7163 Y56.7481 
G01 X39.5520 Y56.6800 
G01 X39.4041 Y56.5812 
G01 X39.2784 Y56.4555 
G01 X39.1795 Y56.3076 
G01 X39.1115 Y56.1433 
G01 X39.0768 Y55.9689 
G01 X39.0768 Y55.7911 
G01 X39.1115 Y55.6167 
G01 X39.1795 Y55.4524 
G01 X39.2784 Y55.3045 
G01 X39.4041 Y55.1788 
G01 X39.5520 Y55.0800 
G01 X39.7163 Y55.0119 
G01 X39.8907 Y54.9772 
G01 X41.3893 Y54.9772 
G01 X41.5637 Y55.0119 
G01 X41.7280 Y55.0800 
G01 X41.8759 Y55.1788 
G01 X42.0016 Y55.3045 
G01 X42.1004 Y55.4524 
G01 X42.1685 Y55.6167 
G01 X42.2032 Y55.7911 
G01 X42.2032 Y55.9689 
G01 X42.1685 Y56.1433 
G01 X42.1004 Y56.3076 
G01 X42.0016 Y56.4555 
G01 X41.8759 Y56.5812 
G01 X41.7280 Y56.6800 
G01 X41.5637 Y56.7481 
G01 X41.3893 Y56.7828 
G00 Z2.5400 
G00 X41.3893 Y59.3228 
G01 Z-0.1500 F254.00 
G01 X39.8907 Y59.3228 F508.00 
G01 X39.7163 Y59.2881 
G01 X39.5520 Y59.2200 
G01 X39.4041 Y59.1212 
G01 X39.2784 Y58.9955 
G01 X39.1795 Y58.8476 
G01 X39.1115 Y58.6833 
G01 X39.0768 Y58.5089 
G01 X39.0768 Y58.3311 
G01 X39.1115 Y58.1567 
G01 X39.1795 Y57.9924 
G01 X39.2784 Y57.8445 
G01 X39.4041 Y57.7188 
G01 X39.5520 Y57.6200 
G01 X39.7163 Y57.5519 
G01 X39.8907 Y57.5172 
