(.../pcb-gcode-3.6.0.4/pcb-gcode.ulp)
(Copyright 2005 - 2012 by John Johnson)
(See readme.txt for licensing terms.)
(This file generated from the board:)
(.../eagle/ARMEDBASE_V0/MCU/MCU.brd)
(Current profile is .../pcb-gcode-3.6.0.4/profiles/emc.pp  )
(This file generated 7/1/2014 1:22:47 PM)
(Settings from pcb-machine.h)
(  Tool Size)
(0.1000 )
(Z Axis Settings)
(  High     Up        Down     Drill)
(15.0000 	2.0000 	-0.1000 	-1.0000 )
(spindle on time = 1.0000)
(milling depth = -0.1000)
(text depth = -0.1000)
(tool change at 15.0000 15.0000 15.0000 )
(feed rate xy = F508.00 )
(feed rate z  = F254.00 )
(Settings from pcb-defaults.h)
(isolate min = 0.0200)
(isolate max = 0.3000)
(isolate step = 0.1000)
(Generated top outlines, top drill, bottom outlines, bottom drill, )
(Unit of measure: mm)
(Metric Mode)
G21
(Absolute Coordinates)
G90
G00 X0.0000 Y0.0000 
M03
G04 P1.000000
G00 Z2.0000 
G00 X-57.5911 Y40.2800 
G01 Z-0.1000 F254.00 
G01 X-70.8766 Y40.2800 F508.00 
G01 X-70.8907 Y40.2459 
G01 X-70.9817 Y40.1096 
G01 X-71.0976 Y39.9937 
G01 X-71.2339 Y39.9027 
G01 X-71.3853 Y39.8400 
G01 X-71.5461 Y39.8080 
G01 X-73.2339 Y39.8080 
G01 X-73.3947 Y39.8400 
G01 X-73.5461 Y39.9027 
G01 X-73.6824 Y39.9937 
G01 X-73.7983 Y40.1096 
G01 X-73.8893 Y40.2459 
G01 X-73.9520 Y40.3973 
G01 X-73.9840 Y40.5581 
G01 X-73.9840 Y40.7219 
G01 X-73.9520 Y40.8827 
G01 X-73.8893 Y41.0341 
G01 X-73.7983 Y41.1704 
G01 X-73.6824 Y41.2863 
G01 X-73.5461 Y41.3773 
G01 X-73.3947 Y41.4400 
G01 X-73.2339 Y41.4720 
G01 X-71.5461 Y41.4720 
G01 X-71.3853 Y41.4400 
G01 X-71.2339 Y41.3773 
G01 X-71.0976 Y41.2863 
G01 X-70.9817 Y41.1704 
G01 X-70.8907 Y41.0341 
G01 X-70.8280 Y40.8827 
G01 X-70.7960 Y40.7219 
G01 X-57.4562 Y40.7200 
G01 X-57.3754 Y40.6865 
G01 X-57.3135 Y40.6246 
G01 X-53.9759 Y37.2870 
G01 X-53.9731 Y37.2886 
G01 X-53.8261 Y37.3280 
G01 X-53.6739 Y37.3280 
G01 X-53.5269 Y37.2886 
G01 X-53.3951 Y37.2125 
G01 X-53.2875 Y37.1049 
G01 X-53.2114 Y36.9731 
G01 X-53.1720 Y36.8261 
G01 X-53.1720 Y36.6739 
G01 X-53.2114 Y36.5269 
G01 X-53.2875 Y36.3951 
G01 X-53.3951 Y36.2875 
G01 X-53.5269 Y36.2114 
G01 X-53.6739 Y36.1720 
G01 X-53.8261 Y36.1720 
G01 X-53.9731 Y36.2114 
G01 X-54.1049 Y36.2875 
G01 X-54.2125 Y36.3951 
G01 X-54.2886 Y36.5269 
G01 X-54.3280 Y36.6739 
G01 X-54.3280 Y36.8261 
G01 X-54.2886 Y36.9731 
G01 X-54.2870 Y36.9759 
G01 X-57.5911 Y40.2800 
G00 Z2.0000 
G00 X-44.7938 Y34.9700 
G01 Z-0.1000 F254.00 
G01 X-44.7062 Y34.9700 F508.00 
G01 X-44.6254 Y34.9365 
G01 X-43.7824 Y34.0935 
G01 X-43.7473 Y34.1460 
G01 X-43.6456 Y34.2477 
G01 X-43.5260 Y34.3277 
G01 X-43.3931 Y34.3827 
G01 X-43.2519 Y34.4108 
G01 X-43.1081 Y34.4108 
G01 X-42.9669 Y34.3827 
G01 X-42.8340 Y34.3277 
G01 X-42.7144 Y34.2477 
G01 X-42.6127 Y34.1460 
G01 X-42.5327 Y34.0264 
G01 X-42.4777 Y33.8935 
G01 X-42.4496 Y33.7523 
G01 X-42.4496 Y32.2877 
G01 X-42.4777 Y32.1465 
G01 X-42.5327 Y32.0136 
G01 X-42.6127 Y31.8940 
G01 X-42.7144 Y31.7923 
G01 X-42.8340 Y31.7123 
G01 X-42.9669 Y31.6573 
G01 X-43.1081 Y31.6292 
G01 X-43.2519 Y31.6292 
G01 X-43.3931 Y31.6573 
G01 X-43.5260 Y31.7123 
G01 X-43.6456 Y31.7923 
G01 X-43.7473 Y31.8940 
G01 X-43.8273 Y32.0136 
G01 X-43.8823 Y32.1465 
G01 X-43.9104 Y32.2877 
G01 X-43.9104 Y33.5993 
G01 X-44.8411 Y34.5300 
G01 X-46.2106 Y34.5300 
G01 X-46.2114 Y34.5269 
G01 X-46.2875 Y34.3951 
G01 X-46.3951 Y34.2875 
G01 X-46.5269 Y34.2114 
G01 X-46.6739 Y34.1720 
G01 X-46.8261 Y34.1720 
G01 X-46.9731 Y34.2114 
G01 X-47.1049 Y34.2875 
G01 X-47.2125 Y34.3951 
G01 X-47.2886 Y34.5269 
G01 X-47.3280 Y34.6739 
G01 X-47.3280 Y34.8261 
G01 X-47.2886 Y34.9731 
G01 X-47.2125 Y35.1049 
G01 X-47.1049 Y35.2125 
G01 X-46.9731 Y35.2886 
G01 X-46.8261 Y35.3280 
G01 X-46.6739 Y35.3280 
G01 X-46.5269 Y35.2886 
G01 X-46.3951 Y35.2125 
G01 X-46.2875 Y35.1049 
G01 X-46.2114 Y34.9731 
G01 X-46.2106 Y34.9700 
G01 X-44.7938 Y34.9700 
G00 Z2.0000 
G00 X-47.4280 Y5.9239 
G01 Z-0.1000 F254.00 
G01 X-47.4280 Y4.2361 F508.00 
G01 X-47.4600 Y4.0753 
G01 X-47.5227 Y3.9239 
G01 X-47.6137 Y3.7876 
G01 X-47.7296 Y3.6717 
G01 X-47.8659 Y3.5807 
G01 X-48.0173 Y3.5180 
G01 X-48.1781 Y3.4860 
G01 X-48.3419 Y3.4860 
G01 X-48.5027 Y3.5180 
G01 X-48.6541 Y3.5807 
G01 X-48.7904 Y3.6717 
G01 X-48.9063 Y3.7876 
G01 X-48.9973 Y3.9239 
G01 X-49.0600 Y4.0753 
G01 X-49.0920 Y4.2361 
G01 X-49.0920 Y5.9239 
G01 X-49.0600 Y6.0847 
G01 X-48.9973 Y6.2361 
G01 X-48.9063 Y6.3724 
G01 X-48.7904 Y6.4883 
G01 X-48.6541 Y6.5793 
G01 X-48.5027 Y6.6420 
G01 X-48.3419 Y6.6740 
G01 X-48.1781 Y6.6740 
G01 X-48.0173 Y6.6420 
G01 X-47.8659 Y6.5793 
G01 X-47.7296 Y6.4883 
G01 X-47.6137 Y6.3724 
G01 X-47.5227 Y6.2361 
G01 X-47.4600 Y6.0847 
G01 X-47.4280 Y5.9239 
G00 Z2.0000 
G00 X-44.8880 Y4.2361 
G01 Z-0.1000 F254.00 
G01 X-44.9200 Y4.0753 F508.00 
G01 X-44.9827 Y3.9239 
G01 X-45.0737 Y3.7876 
G01 X-45.1896 Y3.6717 
G01 X-45.3259 Y3.5807 
G01 X-45.4773 Y3.5180 
G01 X-45.6381 Y3.4860 
G01 X-45.8019 Y3.4860 
G01 X-45.9627 Y3.5180 
G01 X-46.1141 Y3.5807 
G01 X-46.2504 Y3.6717 
G01 X-46.3663 Y3.7876 
G01 X-46.4573 Y3.9239 
G01 X-46.5200 Y4.0753 
G01 X-46.5520 Y4.2361 
G01 X-46.5520 Y5.9239 
G01 X-46.5200 Y6.0847 
G01 X-46.4573 Y6.2361 
G01 X-46.3663 Y6.3724 
G01 X-46.2504 Y6.4883 
G01 X-46.1141 Y6.5793 
G01 X-45.9627 Y6.6420 
G01 X-45.8019 Y6.6740 
G01 X-45.6381 Y6.6740 
G01 X-45.4773 Y6.6420 
G01 X-45.3259 Y6.5793 
G01 X-45.1896 Y6.4883 
G01 X-45.0737 Y6.3724 
G01 X-44.9827 Y6.2361 
G01 X-44.9365 Y6.1246 
G01 X-44.0311 Y7.0300 
G01 X-67.0438 Y7.0300 
G01 X-67.1246 Y7.0635 
G01 X-67.1865 Y7.1254 
G01 X-71.9291 Y11.8680 
G01 X-73.2339 Y11.8680 
G01 X-73.3947 Y11.9000 
G01 X-73.5461 Y11.9627 
G01 X-73.6824 Y12.0537 
G01 X-73.7983 Y12.1696 
G01 X-73.8893 Y12.3059 
G01 X-73.9520 Y12.4573 
G01 X-73.9840 Y12.6181 
G01 X-73.9840 Y12.7819 
G01 X-73.9520 Y12.9427 
G01 X-73.8893 Y13.0941 
G01 X-73.7983 Y13.2304 
G01 X-73.6824 Y13.3463 
G01 X-73.5461 Y13.4373 
G01 X-73.3947 Y13.5000 
G01 X-73.2339 Y13.5320 
G01 X-71.5461 Y13.5320 
G01 X-71.3853 Y13.5000 
G01 X-71.2339 Y13.4373 
G01 X-71.0976 Y13.3463 
G01 X-70.9817 Y13.2304 
G01 X-70.8907 Y13.0941 
G01 X-70.8280 Y12.9427 
G01 X-70.7960 Y12.7819 
G01 X-70.7960 Y12.6181 
G01 X-70.8280 Y12.4573 
G01 X-70.8907 Y12.3059 
G01 X-70.9817 Y12.1696 
G01 X-71.0976 Y12.0537 
G01 X-71.2339 Y11.9627 
G01 X-71.3525 Y11.9136 
G01 X-66.9089 Y7.4700 
G01 X-10.5911 Y7.4700 
G01 X-9.9488 Y8.1124 
G01 X-10.0461 Y8.1527 
G01 X-10.1824 Y8.2437 
G01 X-10.2983 Y8.3596 
G01 X-10.3893 Y8.4959 
G01 X-10.4520 Y8.6473 
G01 X-10.4840 Y8.8081 
G01 X-10.4840 Y8.9719 
G01 X-10.4520 Y9.1327 
G01 X-10.3893 Y9.2841 
G01 X-10.2983 Y9.4204 
G01 X-10.1824 Y9.5363 
G01 X-10.0461 Y9.6273 
G01 X-9.8947 Y9.6900 
G01 X-9.7339 Y9.7220 
G01 X-8.0461 Y9.7220 
G01 X-7.8853 Y9.6900 
G01 X-7.7339 Y9.6273 
G01 X-7.5976 Y9.5363 
G01 X-7.4817 Y9.4204 
G01 X-7.3907 Y9.2841 
G01 X-7.3280 Y9.1327 
G01 X-7.2960 Y8.9719 
G01 X-7.2960 Y8.8081 
G01 X-7.3280 Y8.6473 
G01 X-7.3907 Y8.4959 
G01 X-7.4817 Y8.3596 
G01 X-7.5976 Y8.2437 
G01 X-7.7339 Y8.1527 
G01 X-7.8853 Y8.0900 
G01 X-8.0461 Y8.0580 
G01 X-9.3809 Y8.0580 
G01 X-10.3135 Y7.1254 
G01 X-10.3754 Y7.0635 
G01 X-10.4562 Y7.0300 
G01 X-43.4089 Y7.0300 
G01 X-44.8880 Y5.5509 
G01 X-44.8880 Y4.2361 
G00 Z2.0000 
G00 X-39.8080 Y5.9239 
G01 Z-0.1000 F254.00 
G01 X-39.8080 Y4.2361 F508.00 
G01 X-39.8400 Y4.0753 
G01 X-39.9027 Y3.9239 
G01 X-39.9937 Y3.7876 
G01 X-40.1096 Y3.6717 
G01 X-40.2459 Y3.5807 
G01 X-40.3973 Y3.5180 
G01 X-40.5581 Y3.4860 
G01 X-40.7219 Y3.4860 
G01 X-40.8827 Y3.5180 
G01 X-41.0341 Y3.5807 
G01 X-41.1704 Y3.6717 
G01 X-41.2863 Y3.7876 
G01 X-41.3773 Y3.9239 
G01 X-41.4400 Y4.0753 
G01 X-41.4720 Y4.2361 
G01 X-41.4720 Y5.9239 
G01 X-41.4400 Y6.0847 
G01 X-41.3773 Y6.2361 
G01 X-41.2863 Y6.3724 
G01 X-41.1704 Y6.4883 
G01 X-41.0341 Y6.5793 
G01 X-40.8827 Y6.6420 
G01 X-40.7219 Y6.6740 
G01 X-40.5581 Y6.6740 
G01 X-40.3973 Y6.6420 
G01 X-40.2459 Y6.5793 
G01 X-40.1096 Y6.4883 
G01 X-39.9937 Y6.3724 
G01 X-39.9027 Y6.2361 
G01 X-39.8400 Y6.0847 
G01 X-39.8080 Y5.9239 
G00 Z2.0000 
G00 X-18.2061 Y32.1880 
G01 Z-0.1000 F254.00 
G01 X-19.8939 Y32.1880 F508.00 
G01 X-20.0547 Y32.2200 
G01 X-20.2061 Y32.2827 
G01 X-20.3424 Y32.3737 
G01 X-20.4583 Y32.4896 
G01 X-20.5493 Y32.6259 
G01 X-20.6120 Y32.7773 
G01 X-20.6440 Y32.9381 
G01 X-20.6440 Y33.1019 
G01 X-20.6120 Y33.2627 
G01 X-20.5493 Y33.4141 
G01 X-20.4583 Y33.5504 
G01 X-20.3424 Y33.6663 
G01 X-20.2061 Y33.7573 
G01 X-20.0547 Y33.8200 
G01 X-19.8939 Y33.8520 
G01 X-18.2061 Y33.8520 
G01 X-18.0453 Y33.8200 
G01 X-17.8939 Y33.7573 
G01 X-17.7576 Y33.6663 
G01 X-17.6417 Y33.5504 
G01 X-17.5507 Y33.4141 
G01 X-17.4880 Y33.2627 
G01 X-17.4560 Y33.1019 
G01 X-17.4560 Y32.9381 
G01 X-17.4880 Y32.7773 
G01 X-17.5507 Y32.6259 
G01 X-17.6417 Y32.4896 
G01 X-17.7576 Y32.3737 
G01 X-17.8939 Y32.2827 
G01 X-18.0453 Y32.2200 
G01 X-18.2061 Y32.1880 
G00 Z2.0000 
G00 X-18.2061 Y29.6480 
G01 Z-0.1000 F254.00 
G01 X-19.8939 Y29.6480 F508.00 
G01 X-20.0547 Y29.6800 
G01 X-20.2061 Y29.7427 
G01 X-20.3424 Y29.8337 
G01 X-20.4583 Y29.9496 
G01 X-20.5493 Y30.0859 
G01 X-20.6120 Y30.2373 
G01 X-20.6440 Y30.3981 
G01 X-20.6440 Y30.5619 
G01 X-20.6120 Y30.7227 
G01 X-20.5493 Y30.8741 
G01 X-20.4583 Y31.0104 
G01 X-20.3424 Y31.1263 
G01 X-20.2061 Y31.2173 
G01 X-20.0547 Y31.2800 
G01 X-19.8939 Y31.3120 
G01 X-18.2061 Y31.3120 
G01 X-18.0453 Y31.2800 
G01 X-17.8939 Y31.2173 
G01 X-17.7576 Y31.1263 
G01 X-17.6417 Y31.0104 
G01 X-17.5507 Y30.8741 
G01 X-17.4880 Y30.7227 
G01 X-17.4560 Y30.5619 
G01 X-17.4560 Y30.3981 
G01 X-17.4880 Y30.2373 
G01 X-17.5507 Y30.0859 
G01 X-17.6417 Y29.9496 
G01 X-17.7576 Y29.8337 
G01 X-17.8939 Y29.7427 
G01 X-18.0453 Y29.6800 
G01 X-18.2061 Y29.6480 
G00 Z2.0000 
G00 X-18.2061 Y27.1080 
G01 Z-0.1000 F254.00 
G01 X-19.8939 Y27.1080 F508.00 
G01 X-20.0547 Y27.1400 
G01 X-20.2061 Y27.2027 
G01 X-20.3424 Y27.2937 
G01 X-20.4583 Y27.4096 
G01 X-20.5493 Y27.5459 
G01 X-20.6120 Y27.6973 
G01 X-20.6440 Y27.8581 
G01 X-20.6440 Y28.0219 
G01 X-20.6120 Y28.1827 
G01 X-20.5493 Y28.3341 
G01 X-20.4583 Y28.4704 
G01 X-20.3424 Y28.5863 
G01 X-20.2061 Y28.6773 
G01 X-20.0547 Y28.7400 
G01 X-19.8939 Y28.7720 
G01 X-18.2061 Y28.7720 
G01 X-18.0453 Y28.7400 
G01 X-17.8939 Y28.6773 
G01 X-17.7576 Y28.5863 
G01 X-17.6417 Y28.4704 
G01 X-17.5507 Y28.3341 
G01 X-17.4880 Y28.1827 
G01 X-17.4560 Y28.0219 
G01 X-17.4560 Y27.8581 
G01 X-17.4880 Y27.6973 
G01 X-17.5507 Y27.5459 
G01 X-17.6417 Y27.4096 
G01 X-17.7576 Y27.2937 
G01 X-17.8939 Y27.2027 
G01 X-18.0453 Y27.1400 
G01 X-18.2061 Y27.1080 
G00 Z2.0000 
G00 X-18.2061 Y24.5680 
G01 Z-0.1000 F254.00 
G01 X-19.8939 Y24.5680 F508.00 
G01 X-20.0547 Y24.6000 
G01 X-20.2061 Y24.6627 
G01 X-20.3424 Y24.7537 
G01 X-20.4583 Y24.8696 
G01 X-20.5493 Y25.0059 
G01 X-20.6120 Y25.1573 
G01 X-20.6440 Y25.3181 
G01 X-20.6440 Y25.4819 
G01 X-20.6120 Y25.6427 
G01 X-20.5493 Y25.7941 
G01 X-20.4583 Y25.9304 
G01 X-20.3424 Y26.0463 
G01 X-20.2061 Y26.1373 
G01 X-20.2007 Y26.1395 
G01 X-21.0911 Y27.0300 
G01 X-48.9089 Y27.0300 
G01 X-50.0696 Y25.8693 
G01 X-50.0696 Y24.6677 
G01 X-50.0977 Y24.5265 
G01 X-50.1527 Y24.3936 
G01 X-50.2327 Y24.2740 
G01 X-50.3344 Y24.1723 
G01 X-50.4540 Y24.0923 
G01 X-50.5869 Y24.0373 
G01 X-50.7281 Y24.0092 
G01 X-50.8719 Y24.0092 
G01 X-51.0130 Y24.0373 
G01 X-51.1460 Y24.0923 
G01 X-51.2656 Y24.1723 
G01 X-51.3673 Y24.2740 
G01 X-51.4473 Y24.3936 
G01 X-51.5023 Y24.5265 
G01 X-51.5304 Y24.6677 
G01 X-51.5304 Y26.1323 
G01 X-51.5023 Y26.2735 
G01 X-51.4473 Y26.4064 
G01 X-51.3673 Y26.5260 
G01 X-51.2656 Y26.6277 
G01 X-51.1460 Y26.7077 
G01 X-51.0130 Y26.7627 
G01 X-50.8719 Y26.7908 
G01 X-50.7281 Y26.7908 
G01 X-50.5869 Y26.7627 
G01 X-50.4540 Y26.7077 
G01 X-50.3344 Y26.6277 
G01 X-50.2327 Y26.5260 
G01 X-50.1535 Y26.4076 
G01 X-49.1865 Y27.3746 
G01 X-49.1246 Y27.4365 
G01 X-49.0438 Y27.4700 
G01 X-20.9562 Y27.4700 
G01 X-20.8754 Y27.4365 
G01 X-19.6709 Y26.2320 
G01 X-18.2061 Y26.2320 
G01 X-18.0453 Y26.2000 
G01 X-17.8939 Y26.1373 
G01 X-17.7576 Y26.0463 
G01 X-17.6417 Y25.9304 
G01 X-17.5507 Y25.7941 
G01 X-17.4880 Y25.6427 
G01 X-17.4560 Y25.4819 
G01 X-17.4560 Y25.3181 
G01 X-17.4880 Y25.1573 
G01 X-17.5507 Y25.0059 
G01 X-17.6417 Y24.8696 
G01 X-17.7576 Y24.7537 
G01 X-17.8939 Y24.6627 
G01 X-18.0453 Y24.6000 
G01 X-18.2061 Y24.5680 
G00 Z2.0000 
G00 X-18.2061 Y22.0280 
G01 Z-0.1000 F254.00 
G01 X-19.8939 Y22.0280 F508.00 
G01 X-20.0547 Y22.0600 
G01 X-20.2061 Y22.1227 
G01 X-20.3424 Y22.2137 
G01 X-20.4583 Y22.3296 
G01 X-20.5493 Y22.4659 
G01 X-20.6120 Y22.6173 
G01 X-20.6440 Y22.7781 
G01 X-51.0438 Y22.7800 
G01 X-51.1246 Y22.8135 
G01 X-51.1865 Y22.8754 
G01 X-52.6975 Y24.3864 
G01 X-52.7727 Y24.2740 
G01 X-52.8744 Y24.1723 
G01 X-52.9940 Y24.0923 
G01 X-53.1269 Y24.0373 
G01 X-53.2681 Y24.0092 
G01 X-53.4119 Y24.0092 
G01 X-53.5531 Y24.0373 
G01 X-53.6860 Y24.0923 
G01 X-53.8056 Y24.1723 
G01 X-53.9073 Y24.2740 
G01 X-53.9873 Y24.3936 
G01 X-54.0423 Y24.5265 
G01 X-54.0704 Y24.6677 
G01 X-54.0704 Y26.1323 
G01 X-54.0423 Y26.2735 
G01 X-53.9873 Y26.4064 
G01 X-53.9073 Y26.5260 
G01 X-53.8056 Y26.6277 
G01 X-53.6860 Y26.7077 
G01 X-53.5531 Y26.7627 
G01 X-53.4119 Y26.7908 
G01 X-53.2681 Y26.7908 
G01 X-53.1269 Y26.7627 
G01 X-52.9940 Y26.7077 
G01 X-52.8744 Y26.6277 
G01 X-52.7727 Y26.5260 
G01 X-52.6927 Y26.4064 
G01 X-52.6377 Y26.2735 
G01 X-52.6096 Y26.1323 
G01 X-52.6096 Y24.9207 
G01 X-50.9089 Y23.2200 
G01 X-20.5634 Y23.2200 
G01 X-20.5493 Y23.2541 
G01 X-20.4583 Y23.3904 
G01 X-20.3424 Y23.5063 
G01 X-20.2061 Y23.5973 
G01 X-20.0547 Y23.6600 
G01 X-19.8939 Y23.6920 
G01 X-18.2061 Y23.6920 
G01 X-18.0453 Y23.6600 
G01 X-17.8939 Y23.5973 
G01 X-17.7576 Y23.5063 
G01 X-17.6417 Y23.3904 
G01 X-17.5507 Y23.2541 
G01 X-17.4880 Y23.1027 
G01 X-17.4560 Y22.9419 
G01 X-17.4560 Y22.7781 
G01 X-17.4880 Y22.6173 
G01 X-17.5507 Y22.4659 
G01 X-17.6417 Y22.3296 
G01 X-17.7576 Y22.2137 
G01 X-17.8939 Y22.1227 
G01 X-18.0453 Y22.0600 
G01 X-18.2061 Y22.0280 
G00 Z2.0000 
G00 X-73.2339 Y38.9320 
G01 Z-0.1000 F254.00 
G01 X-71.5461 Y38.9320 F508.00 
G01 X-71.3853 Y38.9000 
G01 X-71.2339 Y38.8373 
G01 X-71.0976 Y38.7463 
G01 X-70.9817 Y38.6304 
G01 X-70.8907 Y38.4941 
G01 X-70.8280 Y38.3427 
G01 X-70.7960 Y38.1819 
G01 X-70.7960 Y38.0181 
G01 X-70.8280 Y37.8573 
G01 X-70.8907 Y37.7059 
G01 X-70.9817 Y37.5696 
G01 X-71.0976 Y37.4537 
G01 X-71.2339 Y37.3627 
G01 X-71.3853 Y37.3000 
G01 X-71.5461 Y37.2680 
G01 X-73.2339 Y37.2680 
G01 X-73.3947 Y37.3000 
G01 X-73.5461 Y37.3627 
G01 X-73.6824 Y37.4537 
G01 X-73.7983 Y37.5696 
G01 X-73.8893 Y37.7059 
G01 X-73.9200 Y37.7800 
G01 X-74.2800 Y37.7800 
G01 X-74.2800 Y35.3411 
G01 X-73.4089 Y34.4700 
G01 X-71.3411 Y34.4700 
G01 X-70.8746 Y34.9365 
G01 X-70.7938 Y34.9700 
G01 X-52.4562 Y34.9700 
G01 X-52.3754 Y34.9365 
G01 X-52.3135 Y34.8746 
G01 X-51.4525 Y34.0137 
G01 X-51.4473 Y34.0264 
G01 X-51.3673 Y34.1460 
G01 X-51.2656 Y34.2477 
G01 X-51.1460 Y34.3277 
G01 X-51.0130 Y34.3827 
G01 X-50.8719 Y34.4108 
G01 X-50.7281 Y34.4108 
G01 X-50.5869 Y34.3827 
G01 X-50.4540 Y34.3277 
G01 X-50.3344 Y34.2477 
G01 X-50.2327 Y34.1460 
G01 X-50.1527 Y34.0264 
G01 X-50.0977 Y33.8935 
G01 X-50.0696 Y33.7523 
G01 X-50.0696 Y32.2877 
G01 X-50.0977 Y32.1465 
G01 X-50.1527 Y32.0136 
G01 X-50.2327 Y31.8940 
G01 X-50.3344 Y31.7923 
G01 X-50.4540 Y31.7123 
G01 X-50.5869 Y31.6573 
G01 X-50.7281 Y31.6292 
G01 X-50.8719 Y31.6292 
G01 X-51.0130 Y31.6573 
G01 X-51.1460 Y31.7123 
G01 X-51.2656 Y31.7923 
G01 X-51.3673 Y31.8940 
G01 X-51.4473 Y32.0136 
G01 X-51.5023 Y32.1465 
G01 X-51.5304 Y32.2877 
G01 X-51.5304 Y33.4693 
G01 X-52.5911 Y34.5300 
G01 X-70.6589 Y34.5300 
G01 X-71.0635 Y34.1254 
G01 X-71.1254 Y34.0635 
G01 X-71.2062 Y34.0300 
G01 X-73.5438 Y34.0300 
G01 X-73.6246 Y34.0635 
G01 X-74.6246 Y35.0635 
G01 X-74.6865 Y35.1254 
G01 X-74.7200 Y35.2062 
G01 X-74.7200 Y38.0438 
G01 X-74.6865 Y38.1246 
G01 X-74.6246 Y38.1865 
G01 X-74.5438 Y38.2200 
G01 X-73.9764 Y38.2200 
G01 X-73.9520 Y38.3427 
G01 X-73.8893 Y38.4941 
G01 X-73.7983 Y38.6304 
G01 X-73.6824 Y38.7463 
G01 X-73.5461 Y38.8373 
G01 X-73.3947 Y38.9000 
G01 X-73.2339 Y38.9320 
G00 Z2.0000 
G00 X-73.2339 Y5.9120 
G01 Z-0.1000 F254.00 
G01 X-71.5461 Y5.9120 F508.00 
G01 X-71.3853 Y5.8800 
G01 X-71.2339 Y5.8173 
G01 X-71.0976 Y5.7263 
G01 X-70.9817 Y5.6104 
G01 X-70.8907 Y5.4741 
G01 X-70.8280 Y5.3227 
G01 X-70.7960 Y5.1619 
G01 X-70.7960 Y4.9981 
G01 X-70.8280 Y4.8373 
G01 X-70.8907 Y4.6859 
G01 X-70.9817 Y4.5496 
G01 X-71.0976 Y4.4337 
G01 X-71.2339 Y4.3427 
G01 X-71.3853 Y4.2800 
G01 X-71.5461 Y4.2480 
G01 X-73.2339 Y4.2480 
G01 X-73.3947 Y4.2800 
G01 X-73.5461 Y4.3427 
G01 X-73.6824 Y4.4337 
G01 X-73.7983 Y4.5496 
G01 X-73.8893 Y4.6859 
G01 X-73.9520 Y4.8373 
G01 X-73.9840 Y4.9981 
G01 X-73.9840 Y5.1619 
G01 X-73.9520 Y5.3227 
G01 X-73.8893 Y5.4741 
G01 X-73.7983 Y5.6104 
G01 X-73.6824 Y5.7263 
G01 X-73.5461 Y5.8173 
G01 X-73.3947 Y5.8800 
G01 X-73.2339 Y5.9120 
G00 Z2.0000 
G00 X-73.2339 Y8.4520 
G01 Z-0.1000 F254.00 
G01 X-71.5461 Y8.4520 F508.00 
G01 X-71.3853 Y8.4200 
G01 X-71.2339 Y8.3573 
G01 X-71.0976 Y8.2663 
G01 X-70.9817 Y8.1504 
G01 X-70.8907 Y8.0141 
G01 X-70.8280 Y7.8627 
G01 X-70.7960 Y7.7019 
G01 X-70.7960 Y7.5381 
G01 X-70.8280 Y7.3773 
G01 X-70.8907 Y7.2259 
G01 X-70.9817 Y7.0896 
G01 X-71.0976 Y6.9737 
G01 X-71.2339 Y6.8827 
G01 X-71.3853 Y6.8200 
G01 X-71.5461 Y6.7880 
G01 X-73.2339 Y6.7880 
G01 X-73.3947 Y6.8200 
G01 X-73.5461 Y6.8827 
G01 X-73.6824 Y6.9737 
G01 X-73.7983 Y7.0896 
G01 X-73.8893 Y7.2259 
G01 X-73.9520 Y7.3773 
G01 X-73.9840 Y7.5381 
G01 X-73.9840 Y7.7019 
G01 X-73.9520 Y7.8627 
G01 X-73.8893 Y8.0141 
G01 X-73.7983 Y8.1504 
G01 X-73.6824 Y8.2663 
G01 X-73.5461 Y8.3573 
G01 X-73.3947 Y8.4200 
G01 X-73.2339 Y8.4520 
G00 Z2.0000 
G00 X-73.2339 Y10.9920 
G01 Z-0.1000 F254.00 
G01 X-71.5461 Y10.9920 F508.00 
G01 X-71.3853 Y10.9600 
G01 X-71.2339 Y10.8973 
G01 X-71.0976 Y10.8063 
G01 X-70.9817 Y10.6904 
G01 X-70.8907 Y10.5541 
G01 X-70.8280 Y10.4027 
G01 X-70.7960 Y10.2419 
G01 X-70.7960 Y10.0781 
G01 X-70.8280 Y9.9173 
G01 X-70.8907 Y9.7659 
G01 X-70.9817 Y9.6296 
G01 X-71.0976 Y9.5137 
G01 X-71.2339 Y9.4227 
G01 X-71.3242 Y9.3853 
G01 X-65.1589 Y3.2200 
G01 X-45.3411 Y3.2200 
G01 X-44.0120 Y4.5491 
G01 X-44.0120 Y5.9239 
G01 X-43.9800 Y6.0847 
G01 X-43.9173 Y6.2361 
G01 X-43.8263 Y6.3724 
G01 X-43.7104 Y6.4883 
G01 X-43.5741 Y6.5793 
G01 X-43.4227 Y6.6420 
G01 X-43.2619 Y6.6740 
G01 X-43.0981 Y6.6740 
G01 X-42.9373 Y6.6420 
G01 X-42.7859 Y6.5793 
G01 X-42.6496 Y6.4883 
G01 X-42.5337 Y6.3724 
G01 X-42.4427 Y6.2361 
G01 X-42.3800 Y6.0847 
G01 X-42.3480 Y5.9239 
G01 X-42.3480 Y4.2361 
G01 X-42.3800 Y4.0753 
G01 X-42.4427 Y3.9239 
G01 X-42.5337 Y3.7876 
G01 X-42.6496 Y3.6717 
G01 X-42.7859 Y3.5807 
G01 X-42.9373 Y3.5180 
G01 X-43.0981 Y3.4860 
G01 X-43.2619 Y3.4860 
G01 X-43.4227 Y3.5180 
G01 X-43.5741 Y3.5807 
G01 X-43.7104 Y3.6717 
G01 X-43.8263 Y3.7876 
G01 X-43.9173 Y3.9239 
G01 X-43.9459 Y3.9930 
G01 X-45.1254 Y2.8135 
G01 X-45.2062 Y2.7800 
G01 X-65.2938 Y2.7800 
G01 X-65.3746 Y2.8135 
G01 X-65.4365 Y2.8754 
G01 X-71.8891 Y9.3280 
G01 X-73.2339 Y9.3280 
G01 X-73.3947 Y9.3600 
G01 X-73.5461 Y9.4227 
G01 X-73.6824 Y9.5137 
G01 X-73.7983 Y9.6296 
G01 X-73.8893 Y9.7659 
G01 X-73.9520 Y9.9173 
G01 X-73.9840 Y10.0781 
G01 X-73.9840 Y10.2419 
G01 X-73.9520 Y10.4027 
G01 X-73.8893 Y10.5541 
G01 X-73.7983 Y10.6904 
G01 X-73.6824 Y10.8063 
G01 X-73.5461 Y10.8973 
G01 X-73.3947 Y10.9600 
G01 X-73.2339 Y10.9920 
G00 Z2.0000 
G00 X-73.2339 Y16.0720 
G01 Z-0.1000 F254.00 
G01 X-71.5461 Y16.0720 F508.00 
G01 X-71.3853 Y16.0400 
G01 X-71.2339 Y15.9773 
G01 X-71.0976 Y15.8863 
G01 X-70.9817 Y15.7704 
G01 X-70.8907 Y15.6341 
G01 X-70.8280 Y15.4827 
G01 X-70.7960 Y15.3219 
G01 X-70.7960 Y15.1581 
G01 X-70.8280 Y14.9973 
G01 X-70.8907 Y14.8459 
G01 X-70.9817 Y14.7096 
G01 X-71.0976 Y14.5937 
G01 X-71.2339 Y14.5027 
G01 X-71.3853 Y14.4400 
G01 X-71.5461 Y14.4080 
G01 X-73.2339 Y14.4080 
G01 X-73.3947 Y14.4400 
G01 X-73.5461 Y14.5027 
G01 X-73.6824 Y14.5937 
G01 X-73.7983 Y14.7096 
G01 X-73.8893 Y14.8459 
G01 X-73.9520 Y14.9973 
G01 X-73.9840 Y15.1581 
G01 X-73.9840 Y15.3219 
G01 X-73.9520 Y15.4827 
G01 X-73.8893 Y15.6341 
G01 X-73.7983 Y15.7704 
G01 X-73.6824 Y15.8863 
G01 X-73.5461 Y15.9773 
G01 X-73.3947 Y16.0400 
G01 X-73.2339 Y16.0720 
G00 Z2.0000 
G00 X-73.2339 Y21.1520 
G01 Z-0.1000 F254.00 
G01 X-71.5461 Y21.1520 F508.00 
G01 X-71.3853 Y21.1200 
G01 X-71.2339 Y21.0573 
G01 X-71.0976 Y20.9663 
G01 X-70.9817 Y20.8504 
G01 X-70.8907 Y20.7141 
G01 X-70.8280 Y20.5627 
G01 X-70.7960 Y20.4019 
G01 X-70.7960 Y20.2381 
G01 X-70.8280 Y20.0773 
G01 X-70.8907 Y19.9259 
G01 X-70.9817 Y19.7896 
G01 X-71.0976 Y19.6737 
G01 X-71.2339 Y19.5827 
G01 X-71.3853 Y19.5200 
G01 X-71.5461 Y19.4880 
G01 X-73.2339 Y19.4880 
G01 X-73.3947 Y19.5200 
G01 X-73.5461 Y19.5827 
G01 X-73.6824 Y19.6737 
G01 X-73.7983 Y19.7896 
G01 X-73.8893 Y19.9259 
G01 X-73.9520 Y20.0773 
G01 X-73.9840 Y20.2381 
G01 X-73.9840 Y20.4019 
G01 X-73.9520 Y20.5627 
G01 X-73.8893 Y20.7141 
G01 X-73.7983 Y20.8504 
G01 X-73.6824 Y20.9663 
G01 X-73.5461 Y21.0573 
G01 X-73.3947 Y21.1200 
G01 X-73.2339 Y21.1520 
G00 Z2.0000 
G00 X-28.0862 Y59.6131 
G01 Z-0.1000 F254.00 
G01 X-28.0862 Y59.7669 F508.00 
G01 X-28.0562 Y59.9179 
G01 X-28.0336 Y59.9724 
G01 X-28.8411 Y60.7800 
G01 X-39.9089 Y60.7800 
G01 X-40.6012 Y60.0877 
G01 X-40.5827 Y60.0600 
G01 X-40.5238 Y59.9179 
G01 X-40.4938 Y59.7669 
G01 X-40.4938 Y59.6131 
G01 X-40.5238 Y59.4621 
G01 X-40.5827 Y59.3200 
G01 X-40.6682 Y59.1920 
G01 X-40.7770 Y59.0832 
G01 X-40.9050 Y58.9977 
G01 X-41.0471 Y58.9388 
G01 X-41.1981 Y58.9088 
G01 X-41.3519 Y58.9088 
G01 X-41.5029 Y58.9388 
G01 X-41.6450 Y58.9977 
G01 X-41.7730 Y59.0832 
G01 X-41.8818 Y59.1920 
G01 X-41.9673 Y59.3200 
G01 X-42.0262 Y59.4621 
G01 X-42.0562 Y59.6131 
G01 X-42.0562 Y59.7669 
G01 X-42.0262 Y59.9179 
G01 X-41.9673 Y60.0600 
G01 X-41.8818 Y60.1880 
G01 X-41.7730 Y60.2968 
G01 X-41.6450 Y60.3823 
G01 X-41.5029 Y60.4412 
G01 X-41.3519 Y60.4712 
G01 X-41.1981 Y60.4712 
G01 X-41.0471 Y60.4412 
G01 X-40.9218 Y60.3893 
G01 X-40.1246 Y61.1865 
G01 X-40.0438 Y61.2200 
G01 X-28.7062 Y61.2200 
G01 X-28.6254 Y61.1865 
G01 X-28.5635 Y61.1246 
G01 X-27.7626 Y60.3238 
G01 X-27.6750 Y60.3823 
G01 X-27.5329 Y60.4412 
G01 X-27.3819 Y60.4712 
G01 X-27.2281 Y60.4712 
G01 X-27.0771 Y60.4412 
G01 X-26.9350 Y60.3823 
G01 X-26.8070 Y60.2968 
G01 X-26.6982 Y60.1880 
G01 X-26.6127 Y60.0600 
G01 X-26.5538 Y59.9179 
G01 X-26.5238 Y59.7669 
G01 X-26.5238 Y59.6131 
G01 X-26.5538 Y59.4621 
G01 X-26.6127 Y59.3200 
G01 X-26.6982 Y59.1920 
G01 X-26.8070 Y59.0832 
G01 X-26.9350 Y58.9977 
G01 X-27.0771 Y58.9388 
G01 X-27.2281 Y58.9088 
G01 X-27.3819 Y58.9088 
G01 X-27.5329 Y58.9388 
G01 X-27.6750 Y58.9977 
G01 X-27.8030 Y59.0832 
G01 X-27.9118 Y59.1920 
G01 X-27.9973 Y59.3200 
G01 X-28.0562 Y59.4621 
G01 X-28.0862 Y59.6131 
G00 Z2.0000 
G00 X-30.6262 Y59.6131 
G01 Z-0.1000 F254.00 
G01 X-30.6262 Y59.7669 F508.00 
G01 X-30.5962 Y59.9179 
G01 X-30.5373 Y60.0600 
G01 X-30.4518 Y60.1880 
G01 X-30.3430 Y60.2968 
G01 X-30.2150 Y60.3823 
G01 X-30.0729 Y60.4412 
G01 X-29.9219 Y60.4712 
G01 X-29.7681 Y60.4712 
G01 X-29.6171 Y60.4412 
G01 X-29.4750 Y60.3823 
G01 X-29.3470 Y60.2968 
G01 X-29.2382 Y60.1880 
G01 X-29.1527 Y60.0600 
G01 X-29.0938 Y59.9179 
G01 X-29.0638 Y59.7669 
G01 X-29.0638 Y59.6131 
G01 X-29.0938 Y59.4621 
G01 X-29.1527 Y59.3200 
G01 X-29.2382 Y59.1920 
G01 X-29.3470 Y59.0832 
G01 X-29.4750 Y58.9977 
G01 X-29.6171 Y58.9388 
G01 X-29.7681 Y58.9088 
G01 X-29.9219 Y58.9088 
G01 X-30.0729 Y58.9388 
G01 X-30.2150 Y58.9977 
G01 X-30.3430 Y59.0832 
G01 X-30.4518 Y59.1920 
G01 X-30.5373 Y59.3200 
G01 X-30.5962 Y59.4621 
G01 X-30.6262 Y59.6131 
G00 Z2.0000 
G00 X-9.7339 Y12.2620 
G01 Z-0.1000 F254.00 
G01 X-8.0461 Y12.2620 F508.00 
G01 X-7.8853 Y12.2300 
G01 X-7.7339 Y12.1673 
G01 X-7.5976 Y12.0763 
G01 X-7.4817 Y11.9604 
G01 X-7.3907 Y11.8241 
G01 X-7.3280 Y11.6727 
G01 X-7.2960 Y11.5119 
G01 X-7.2960 Y11.3481 
G01 X-7.3280 Y11.1873 
G01 X-7.3907 Y11.0359 
G01 X-7.4817 Y10.8996 
G01 X-7.5976 Y10.7837 
G01 X-7.7339 Y10.6927 
G01 X-7.8853 Y10.6300 
G01 X-8.0461 Y10.5980 
G01 X-9.7339 Y10.5980 
G01 X-9.8947 Y10.6300 
G01 X-10.0461 Y10.6927 
G01 X-10.1824 Y10.7837 
G01 X-10.2983 Y10.8996 
G01 X-10.3893 Y11.0359 
G01 X-10.4520 Y11.1873 
G01 X-10.4840 Y11.3481 
G01 X-10.4840 Y11.5119 
G01 X-10.4520 Y11.6727 
G01 X-10.3893 Y11.8241 
G01 X-10.2983 Y11.9604 
G01 X-10.1824 Y12.0763 
G01 X-10.0461 Y12.1673 
G01 X-9.8947 Y12.2300 
G01 X-9.7339 Y12.2620 
G00 Z2.0000 
G00 X-9.7339 Y14.8020 
G01 Z-0.1000 F254.00 
G01 X-8.0461 Y14.8020 F508.00 
G01 X-7.8853 Y14.7700 
G01 X-7.7339 Y14.7073 
G01 X-7.5976 Y14.6163 
G01 X-7.4817 Y14.5004 
G01 X-7.3907 Y14.3641 
G01 X-7.3280 Y14.2127 
G01 X-7.2960 Y14.0519 
G01 X-7.2960 Y13.8881 
G01 X-7.3280 Y13.7273 
G01 X-7.3907 Y13.5759 
G01 X-7.4817 Y13.4396 
G01 X-7.5976 Y13.3237 
G01 X-7.7339 Y13.2327 
G01 X-7.8853 Y13.1700 
G01 X-8.0461 Y13.1380 
G01 X-9.7339 Y13.1380 
G01 X-9.8947 Y13.1700 
G01 X-10.0461 Y13.2327 
G01 X-10.1824 Y13.3237 
G01 X-10.2983 Y13.4396 
G01 X-10.3893 Y13.5759 
G01 X-10.4520 Y13.7273 
G01 X-10.4840 Y13.8881 
G01 X-10.4840 Y14.0519 
G01 X-10.4520 Y14.2127 
G01 X-10.3893 Y14.3641 
G01 X-10.2983 Y14.5004 
G01 X-10.1824 Y14.6163 
G01 X-10.0461 Y14.7073 
G01 X-9.8947 Y14.7700 
G01 X-9.7339 Y14.8020 
G00 Z2.0000 
G00 X-55.7190 Y62.5223 
G01 Z-0.1000 F254.00 
G01 X-55.7190 Y64.1377 F508.00 
G01 X-55.6883 Y64.2921 
G01 X-55.6281 Y64.4375 
G01 X-55.5406 Y64.5683 
G01 X-55.4293 Y64.6796 
G01 X-55.2985 Y64.7671 
G01 X-55.1531 Y64.8273 
G01 X-54.9987 Y64.8580 
G01 X-54.8413 Y64.8580 
G01 X-54.6869 Y64.8273 
G01 X-54.5415 Y64.7671 
G01 X-54.4107 Y64.6796 
G01 X-54.2994 Y64.5683 
G01 X-54.2119 Y64.4375 
G01 X-54.1517 Y64.2921 
G01 X-54.1210 Y64.1377 
G01 X-54.1210 Y62.5223 
G01 X-54.1517 Y62.3679 
G01 X-54.2119 Y62.2225 
G01 X-54.2994 Y62.0917 
G01 X-54.4107 Y61.9804 
G01 X-54.5415 Y61.8929 
G01 X-54.6869 Y61.8327 
G01 X-54.8413 Y61.8020 
G01 X-54.9987 Y61.8020 
G01 X-55.1531 Y61.8327 
G01 X-55.2985 Y61.8929 
G01 X-55.4293 Y61.9804 
G01 X-55.5406 Y62.0917 
G01 X-55.6281 Y62.2225 
G01 X-55.6883 Y62.3679 
G01 X-55.7190 Y62.5223 
G00 Z2.0000 
G00 X-62.7190 Y62.5223 
G01 Z-0.1000 F254.00 
G01 X-62.7190 Y64.1377 F508.00 
G01 X-62.6883 Y64.2921 
G01 X-62.6281 Y64.4375 
G01 X-62.5406 Y64.5683 
G01 X-62.4293 Y64.6796 
G01 X-62.2985 Y64.7671 
G01 X-62.1531 Y64.8273 
G01 X-61.9987 Y64.8580 
G01 X-61.8413 Y64.8580 
G01 X-61.6869 Y64.8273 
G01 X-61.5415 Y64.7671 
G01 X-61.4107 Y64.6796 
G01 X-61.2994 Y64.5683 
G01 X-61.2119 Y64.4375 
G01 X-61.1517 Y64.2921 
G01 X-61.1210 Y64.1377 
G01 X-61.1210 Y62.5223 
G01 X-61.1517 Y62.3679 
G01 X-61.2119 Y62.2225 
G01 X-61.2994 Y62.0917 
G01 X-61.4107 Y61.9804 
G01 X-61.5415 Y61.8929 
G01 X-61.6869 Y61.8327 
G01 X-61.8413 Y61.8020 
G01 X-61.9987 Y61.8020 
G01 X-62.1531 Y61.8327 
G01 X-62.2985 Y61.8929 
G01 X-62.4293 Y61.9804 
G01 X-62.5406 Y62.0917 
G01 X-62.6281 Y62.2225 
G01 X-62.6883 Y62.3679 
G01 X-62.7190 Y62.5223 
G00 Z2.0000 
G00 X-58.2190 Y62.5223 
G01 Z-0.1000 F254.00 
G01 X-58.2190 Y64.1377 F508.00 
G01 X-58.1883 Y64.2921 
G01 X-58.1281 Y64.4375 
G01 X-58.0406 Y64.5683 
G01 X-57.9293 Y64.6796 
G01 X-57.7985 Y64.7671 
G01 X-57.6531 Y64.8273 
G01 X-57.4987 Y64.8580 
G01 X-57.3413 Y64.8580 
G01 X-57.1869 Y64.8273 
G01 X-57.0415 Y64.7671 
G01 X-56.9107 Y64.6796 
G01 X-56.7994 Y64.5683 
G01 X-56.7119 Y64.4375 
G01 X-56.6517 Y64.2921 
G01 X-56.6210 Y64.1377 
G01 X-56.6210 Y62.5223 
G01 X-56.6517 Y62.3679 
G01 X-56.7119 Y62.2225 
G01 X-56.7994 Y62.0917 
G01 X-56.9107 Y61.9804 
G01 X-57.0415 Y61.8929 
G01 X-57.1869 Y61.8327 
G01 X-57.3413 Y61.8020 
G01 X-57.4987 Y61.8020 
G01 X-57.6531 Y61.8327 
G01 X-57.7985 Y61.8929 
G01 X-57.9293 Y61.9804 
G01 X-58.0406 Y62.0917 
G01 X-58.1281 Y62.2225 
G01 X-58.1883 Y62.3679 
G01 X-58.2190 Y62.5223 
G00 Z2.0000 
G00 X-60.2190 Y62.5223 
G01 Z-0.1000 F254.00 
G01 X-60.2190 Y64.1377 F508.00 
G01 X-60.1883 Y64.2921 
G01 X-60.1281 Y64.4375 
G01 X-60.0406 Y64.5683 
G01 X-59.9293 Y64.6796 
G01 X-59.7985 Y64.7671 
G01 X-59.6531 Y64.8273 
G01 X-59.4987 Y64.8580 
G01 X-59.3413 Y64.8580 
G01 X-59.1869 Y64.8273 
G01 X-59.0415 Y64.7671 
G01 X-58.9107 Y64.6796 
G01 X-58.7994 Y64.5683 
G01 X-58.7119 Y64.4375 
G01 X-58.6517 Y64.2921 
G01 X-58.6210 Y64.1377 
G01 X-58.6210 Y62.5223 
G01 X-58.6517 Y62.3679 
G01 X-58.7119 Y62.2225 
G01 X-58.7994 Y62.0917 
G01 X-58.9107 Y61.9804 
G01 X-59.0415 Y61.8929 
G01 X-59.1869 Y61.8327 
G01 X-59.3413 Y61.8020 
G01 X-59.4987 Y61.8020 
G01 X-59.6531 Y61.8327 
G01 X-59.7985 Y61.8929 
G01 X-59.9293 Y61.9804 
G01 X-60.0406 Y62.0917 
G01 X-60.1281 Y62.2225 
G01 X-60.1883 Y62.3679 
G01 X-60.2190 Y62.5223 
G00 Z2.0000 
G00 X-4.1086 Y37.7211 
G01 Z-0.1000 F254.00 
G01 X-4.1086 Y37.9201 F508.00 
G01 X-4.0698 Y38.1151 
G01 X-3.9937 Y38.2989 
G01 X-3.8832 Y38.4643 
G01 X-3.7425 Y38.6050 
G01 X-3.5771 Y38.7155 
G01 X-3.3933 Y38.7916 
G01 X-3.1983 Y38.8304 
G01 X-2.9993 Y38.8304 
G01 X-2.8043 Y38.7916 
G01 X-2.6205 Y38.7155 
G01 X-2.4551 Y38.6050 
G01 X-2.3144 Y38.4643 
G01 X-2.2039 Y38.2989 
G01 X-2.1278 Y38.1151 
G01 X-2.0890 Y37.9201 
G01 X-2.0890 Y37.7211 
G01 X-2.1278 Y37.5261 
G01 X-2.2039 Y37.3423 
G01 X-2.3144 Y37.1769 
G01 X-2.4551 Y37.0362 
G01 X-2.6205 Y36.9257 
G01 X-2.8043 Y36.8496 
G01 X-2.9993 Y36.8108 
G01 X-3.1983 Y36.8108 
G01 X-3.3933 Y36.8496 
G01 X-3.5771 Y36.9257 
G01 X-3.7425 Y37.0362 
G01 X-3.8832 Y37.1769 
G01 X-3.9937 Y37.3423 
G01 X-4.0698 Y37.5261 
G01 X-4.1086 Y37.7211 
G00 Z2.0000 
G00 X-10.6110 Y37.7211 
G01 Z-0.1000 F254.00 
G01 X-10.6110 Y37.9201 F508.00 
G01 X-10.5722 Y38.1151 
G01 X-10.4961 Y38.2989 
G01 X-10.3856 Y38.4643 
G01 X-10.2449 Y38.6050 
G01 X-10.0795 Y38.7155 
G01 X-9.8957 Y38.7916 
G01 X-9.7007 Y38.8304 
G01 X-9.5017 Y38.8304 
G01 X-9.3067 Y38.7916 
G01 X-9.1229 Y38.7155 
G01 X-8.9575 Y38.6050 
G01 X-8.8168 Y38.4643 
G01 X-8.7063 Y38.2989 
G01 X-8.6302 Y38.1151 
G01 X-8.5914 Y37.9201 
G01 X-8.5914 Y37.7211 
G01 X-8.6302 Y37.5261 
G01 X-8.7063 Y37.3423 
G01 X-8.8168 Y37.1769 
G01 X-8.9575 Y37.0362 
G01 X-9.1229 Y36.9257 
G01 X-9.3067 Y36.8496 
G01 X-9.5017 Y36.8108 
G01 X-9.7007 Y36.8108 
G01 X-9.8957 Y36.8496 
G01 X-10.0795 Y36.9257 
G01 X-10.2449 Y37.0362 
G01 X-10.3856 Y37.1769 
G01 X-10.4961 Y37.3423 
G01 X-10.5722 Y37.5261 
G01 X-10.6110 Y37.7211 
G00 Z2.0000 
G00 X-4.1086 Y33.1999 
G01 Z-0.1000 F254.00 
G01 X-4.1086 Y33.3989 F508.00 
G01 X-4.0698 Y33.5939 
G01 X-3.9937 Y33.7777 
G01 X-3.8832 Y33.9431 
G01 X-3.7425 Y34.0838 
G01 X-3.5771 Y34.1943 
G01 X-3.3933 Y34.2704 
G01 X-3.1983 Y34.3092 
G01 X-2.9993 Y34.3092 
G01 X-2.8043 Y34.2704 
G01 X-2.6205 Y34.1943 
G01 X-2.4551 Y34.0838 
G01 X-2.3144 Y33.9431 
G01 X-2.2039 Y33.7777 
G01 X-2.1278 Y33.5939 
G01 X-2.0890 Y33.3989 
G01 X-2.0890 Y33.1999 
G01 X-2.1278 Y33.0049 
G01 X-2.2039 Y32.8211 
G01 X-2.3144 Y32.6557 
G01 X-2.4551 Y32.5150 
G01 X-2.6205 Y32.4045 
G01 X-2.8043 Y32.3284 
G01 X-2.9993 Y32.2896 
G01 X-3.1983 Y32.2896 
G01 X-3.3933 Y32.3284 
G01 X-3.5771 Y32.4045 
G01 X-3.7425 Y32.5150 
G01 X-3.8832 Y32.6557 
G01 X-3.9937 Y32.8211 
G01 X-4.0698 Y33.0049 
G01 X-4.1086 Y33.1999 
G00 Z2.0000 
G00 X-10.6110 Y33.1999 
G01 Z-0.1000 F254.00 
G01 X-10.6110 Y33.3989 F508.00 
G01 X-10.5722 Y33.5939 
G01 X-10.4961 Y33.7777 
G01 X-10.4331 Y33.8720 
G01 X-15.8411 Y39.2800 
G01 X-54.2106 Y39.2800 
G01 X-54.2114 Y39.2769 
G01 X-54.2875 Y39.1451 
G01 X-54.3951 Y39.0375 
G01 X-54.5269 Y38.9614 
G01 X-54.6739 Y38.9220 
G01 X-54.8261 Y38.9220 
G01 X-54.9731 Y38.9614 
G01 X-55.1049 Y39.0375 
G01 X-55.2125 Y39.1451 
G01 X-55.2886 Y39.2769 
G01 X-55.3280 Y39.4239 
G01 X-55.3280 Y39.5761 
G01 X-55.2886 Y39.7231 
G01 X-55.2125 Y39.8549 
G01 X-55.1049 Y39.9625 
G01 X-54.9731 Y40.0386 
G01 X-54.8261 Y40.0780 
G01 X-54.6739 Y40.0780 
G01 X-54.5269 Y40.0386 
G01 X-54.3951 Y39.9625 
G01 X-54.2875 Y39.8549 
G01 X-54.2114 Y39.7231 
G01 X-54.2106 Y39.7200 
G01 X-15.7062 Y39.7200 
G01 X-15.6254 Y39.6865 
G01 X-15.5635 Y39.6246 
G01 X-10.1117 Y34.1728 
G01 X-10.0795 Y34.1943 
G01 X-9.8957 Y34.2704 
G01 X-9.7007 Y34.3092 
G01 X-9.5017 Y34.3092 
G01 X-9.3067 Y34.2704 
G01 X-9.1229 Y34.1943 
G01 X-8.9575 Y34.0838 
G01 X-8.8168 Y33.9431 
G01 X-8.7063 Y33.7777 
G01 X-8.6302 Y33.5939 
G01 X-8.5914 Y33.3989 
G01 X-8.5914 Y33.1999 
G01 X-8.6302 Y33.0049 
G01 X-8.7063 Y32.8211 
G01 X-8.8168 Y32.6557 
G01 X-8.9575 Y32.5150 
G01 X-9.1229 Y32.4045 
G01 X-9.3067 Y32.3284 
G01 X-9.5017 Y32.2896 
G01 X-9.7007 Y32.2896 
G01 X-9.8957 Y32.3284 
G01 X-10.0795 Y32.4045 
G01 X-10.2449 Y32.5150 
G01 X-10.3856 Y32.6557 
G01 X-10.4961 Y32.8211 
G01 X-10.5722 Y33.0049 
G01 X-10.6110 Y33.1999 
G00 Z2.0000 
G00 X-64.2304 Y24.6677 
G01 Z-0.1000 F254.00 
G01 X-64.2304 Y26.1323 F508.00 
G01 X-64.2023 Y26.2735 
G01 X-64.1473 Y26.4064 
G01 X-64.0673 Y26.5260 
G01 X-63.9656 Y26.6277 
G01 X-63.8460 Y26.7077 
G01 X-63.7131 Y26.7627 
G01 X-63.5719 Y26.7908 
G01 X-63.4281 Y26.7908 
G01 X-63.2869 Y26.7627 
G01 X-63.1540 Y26.7077 
G01 X-63.0344 Y26.6277 
G01 X-62.9327 Y26.5260 
G01 X-62.8527 Y26.4064 
G01 X-62.7977 Y26.2735 
G01 X-62.7696 Y26.1323 
G01 X-62.7696 Y24.6677 
G01 X-62.7977 Y24.5265 
G01 X-62.8527 Y24.3936 
G01 X-62.9327 Y24.2740 
G01 X-63.0344 Y24.1723 
G01 X-63.1540 Y24.0923 
G01 X-63.2869 Y24.0373 
G01 X-63.4281 Y24.0092 
G01 X-63.5719 Y24.0092 
G01 X-63.7131 Y24.0373 
G01 X-63.8460 Y24.0923 
G01 X-63.9656 Y24.1723 
G01 X-64.0673 Y24.2740 
G01 X-64.1473 Y24.3936 
G01 X-64.2023 Y24.5265 
G01 X-64.2304 Y24.6677 
G00 Z2.0000 
G00 X-61.6904 Y24.6677 
G01 Z-0.1000 F254.00 
G01 X-61.6904 Y26.1323 F508.00 
G01 X-61.6623 Y26.2735 
G01 X-61.6073 Y26.4064 
G01 X-61.5273 Y26.5260 
G01 X-61.4256 Y26.6277 
G01 X-61.3060 Y26.7077 
G01 X-61.1731 Y26.7627 
G01 X-61.0319 Y26.7908 
G01 X-60.8881 Y26.7908 
G01 X-60.7469 Y26.7627 
G01 X-60.6140 Y26.7077 
G01 X-60.4944 Y26.6277 
G01 X-60.3927 Y26.5260 
G01 X-60.3127 Y26.4064 
G01 X-60.2577 Y26.2735 
G01 X-60.2296 Y26.1323 
G01 X-60.2296 Y24.6677 
G01 X-60.2577 Y24.5265 
G01 X-60.3127 Y24.3936 
G01 X-60.3927 Y24.2740 
G01 X-60.4944 Y24.1723 
G01 X-60.6140 Y24.0923 
G01 X-60.7469 Y24.0373 
G01 X-60.8881 Y24.0092 
G01 X-61.0319 Y24.0092 
G01 X-61.1731 Y24.0373 
G01 X-61.3060 Y24.0923 
G01 X-61.4256 Y24.1723 
G01 X-61.5273 Y24.2740 
G01 X-61.6073 Y24.3936 
G01 X-61.6623 Y24.5265 
G01 X-61.6904 Y24.6677 
G00 Z2.0000 
G00 X-59.1504 Y24.6677 
G01 Z-0.1000 F254.00 
G01 X-59.1504 Y26.1323 F508.00 
G01 X-59.1223 Y26.2735 
G01 X-59.0673 Y26.4064 
G01 X-58.9873 Y26.5260 
G01 X-58.8856 Y26.6277 
G01 X-58.7660 Y26.7077 
G01 X-58.6331 Y26.7627 
G01 X-58.4919 Y26.7908 
G01 X-58.3481 Y26.7908 
G01 X-58.2069 Y26.7627 
G01 X-58.0740 Y26.7077 
G01 X-57.9544 Y26.6277 
G01 X-57.8527 Y26.5260 
G01 X-57.7727 Y26.4064 
G01 X-57.7177 Y26.2735 
G01 X-57.6896 Y26.1323 
G01 X-57.6896 Y24.6677 
G01 X-57.7177 Y24.5265 
G01 X-57.7727 Y24.3936 
G01 X-57.8527 Y24.2740 
G01 X-57.9544 Y24.1723 
G01 X-58.0740 Y24.0923 
G01 X-58.2069 Y24.0373 
G01 X-58.3481 Y24.0092 
G01 X-58.4919 Y24.0092 
G01 X-58.6331 Y24.0373 
G01 X-58.7660 Y24.0923 
G01 X-58.8856 Y24.1723 
G01 X-58.9873 Y24.2740 
G01 X-59.0673 Y24.3936 
G01 X-59.1223 Y24.5265 
G01 X-59.1504 Y24.6677 
G00 Z2.0000 
G00 X-56.6104 Y24.6677 
G01 Z-0.1000 F254.00 
G01 X-56.6104 Y26.1323 F508.00 
G01 X-56.5823 Y26.2735 
G01 X-56.5273 Y26.4064 
G01 X-56.4473 Y26.5260 
G01 X-56.3456 Y26.6277 
G01 X-56.2260 Y26.7077 
G01 X-56.0931 Y26.7627 
G01 X-55.9519 Y26.7908 
G01 X-55.8081 Y26.7908 
G01 X-55.6669 Y26.7627 
G01 X-55.5340 Y26.7077 
G01 X-55.4144 Y26.6277 
G01 X-55.3127 Y26.5260 
G01 X-55.2327 Y26.4064 
G01 X-55.1777 Y26.2735 
G01 X-55.1496 Y26.1323 
G01 X-55.1496 Y24.6677 
G01 X-55.1777 Y24.5265 
G01 X-55.2327 Y24.3936 
G01 X-55.3127 Y24.2740 
G01 X-55.4144 Y24.1723 
G01 X-55.5340 Y24.0923 
G01 X-55.6669 Y24.0373 
G01 X-55.8081 Y24.0092 
G01 X-55.9519 Y24.0092 
G01 X-56.0931 Y24.0373 
G01 X-56.2260 Y24.0923 
G01 X-56.3456 Y24.1723 
G01 X-56.4473 Y24.2740 
G01 X-56.5273 Y24.3936 
G01 X-56.5823 Y24.5265 
G01 X-56.6104 Y24.6677 
G00 Z2.0000 
G00 X-48.9904 Y24.6677 
G01 Z-0.1000 F254.00 
G01 X-48.9904 Y26.1323 F508.00 
G01 X-48.9623 Y26.2735 
G01 X-48.9073 Y26.4064 
G01 X-48.8273 Y26.5260 
G01 X-48.7256 Y26.6277 
G01 X-48.6060 Y26.7077 
G01 X-48.4731 Y26.7627 
G01 X-48.3319 Y26.7908 
G01 X-48.1881 Y26.7908 
G01 X-48.0469 Y26.7627 
G01 X-47.9140 Y26.7077 
G01 X-47.7944 Y26.6277 
G01 X-47.6927 Y26.5260 
G01 X-47.6127 Y26.4064 
G01 X-47.5577 Y26.2735 
G01 X-47.5296 Y26.1323 
G01 X-47.5296 Y24.6677 
G01 X-47.5577 Y24.5265 
G01 X-47.6127 Y24.3936 
G01 X-47.6927 Y24.2740 
G01 X-47.7944 Y24.1723 
G01 X-47.9140 Y24.0923 
G01 X-48.0469 Y24.0373 
G01 X-48.1881 Y24.0092 
G01 X-48.3319 Y24.0092 
G01 X-48.4731 Y24.0373 
G01 X-48.6060 Y24.0923 
G01 X-48.7256 Y24.1723 
G01 X-48.8273 Y24.2740 
G01 X-48.9073 Y24.3936 
G01 X-48.9623 Y24.5265 
G01 X-48.9904 Y24.6677 
G00 Z2.0000 
G00 X-46.4504 Y24.6677 
G01 Z-0.1000 F254.00 
G01 X-46.4504 Y26.1323 F508.00 
G01 X-46.4223 Y26.2735 
G01 X-46.3673 Y26.4064 
G01 X-46.2873 Y26.5260 
G01 X-46.1856 Y26.6277 
G01 X-46.0660 Y26.7077 
G01 X-45.9331 Y26.7627 
G01 X-45.7919 Y26.7908 
G01 X-45.6481 Y26.7908 
G01 X-45.5069 Y26.7627 
G01 X-45.3740 Y26.7077 
G01 X-45.2544 Y26.6277 
G01 X-45.1527 Y26.5260 
G01 X-45.0727 Y26.4064 
G01 X-45.0177 Y26.2735 
G01 X-44.9896 Y26.1323 
G01 X-44.9896 Y24.6677 
G01 X-45.0177 Y24.5265 
G01 X-45.0727 Y24.3936 
G01 X-45.1527 Y24.2740 
G01 X-45.2544 Y24.1723 
G01 X-45.3740 Y24.0923 
G01 X-45.5069 Y24.0373 
G01 X-45.6481 Y24.0092 
G01 X-45.7919 Y24.0092 
G01 X-45.9331 Y24.0373 
G01 X-46.0660 Y24.0923 
G01 X-46.1856 Y24.1723 
G01 X-46.2873 Y24.2740 
G01 X-46.3673 Y24.3936 
G01 X-46.4223 Y24.5265 
G01 X-46.4504 Y24.6677 
G00 Z2.0000 
G00 X-43.9104 Y24.6677 
G01 Z-0.1000 F254.00 
G01 X-43.9104 Y26.1323 F508.00 
G01 X-43.8823 Y26.2735 
G01 X-43.8273 Y26.4064 
G01 X-43.7473 Y26.5260 
G01 X-43.6456 Y26.6277 
G01 X-43.5260 Y26.7077 
G01 X-43.3931 Y26.7627 
G01 X-43.2519 Y26.7908 
G01 X-43.1081 Y26.7908 
G01 X-42.9669 Y26.7627 
G01 X-42.8340 Y26.7077 
G01 X-42.7144 Y26.6277 
G01 X-42.6127 Y26.5260 
G01 X-42.5327 Y26.4064 
G01 X-42.4777 Y26.2735 
G01 X-42.4496 Y26.1323 
G01 X-42.4496 Y24.6677 
G01 X-42.4777 Y24.5265 
G01 X-42.5327 Y24.3936 
G01 X-42.6127 Y24.2740 
G01 X-42.7144 Y24.1723 
G01 X-42.8340 Y24.0923 
G01 X-42.9669 Y24.0373 
G01 X-43.1081 Y24.0092 
G01 X-43.2519 Y24.0092 
G01 X-43.3931 Y24.0373 
G01 X-43.5260 Y24.0923 
G01 X-43.6456 Y24.1723 
G01 X-43.7473 Y24.2740 
G01 X-43.8273 Y24.3936 
G01 X-43.8823 Y24.5265 
G01 X-43.9104 Y24.6677 
G00 Z2.0000 
G00 X-41.3704 Y24.6677 
G01 Z-0.1000 F254.00 
G01 X-41.3704 Y26.1323 F508.00 
G01 X-41.3423 Y26.2735 
G01 X-41.2873 Y26.4064 
G01 X-41.2073 Y26.5260 
G01 X-41.1056 Y26.6277 
G01 X-40.9860 Y26.7077 
G01 X-40.8531 Y26.7627 
G01 X-40.7119 Y26.7908 
G01 X-40.5681 Y26.7908 
G01 X-40.4269 Y26.7627 
G01 X-40.2940 Y26.7077 
G01 X-40.1744 Y26.6277 
G01 X-40.0727 Y26.5260 
G01 X-39.9927 Y26.4064 
G01 X-39.9377 Y26.2735 
G01 X-39.9096 Y26.1323 
G01 X-39.9096 Y24.6677 
G01 X-39.9377 Y24.5265 
G01 X-39.9927 Y24.3936 
G01 X-40.0727 Y24.2740 
G01 X-40.1744 Y24.1723 
G01 X-40.2940 Y24.0923 
G01 X-40.4269 Y24.0373 
G01 X-40.5681 Y24.0092 
G01 X-40.7119 Y24.0092 
G01 X-40.8531 Y24.0373 
G01 X-40.9860 Y24.0923 
G01 X-41.1056 Y24.1723 
G01 X-41.2073 Y24.2740 
G01 X-41.2873 Y24.3936 
G01 X-41.3423 Y24.5265 
G01 X-41.3704 Y24.6677 
G00 Z2.0000 
G00 X-38.8304 Y24.6677 
G01 Z-0.1000 F254.00 
G01 X-38.8304 Y26.1323 F508.00 
G01 X-38.8023 Y26.2735 
G01 X-38.7473 Y26.4064 
G01 X-38.6673 Y26.5260 
G01 X-38.5656 Y26.6277 
G01 X-38.4460 Y26.7077 
G01 X-38.3131 Y26.7627 
G01 X-38.1719 Y26.7908 
G01 X-38.0281 Y26.7908 
G01 X-37.8869 Y26.7627 
G01 X-37.7540 Y26.7077 
G01 X-37.6344 Y26.6277 
G01 X-37.5327 Y26.5260 
G01 X-37.4527 Y26.4064 
G01 X-37.3977 Y26.2735 
G01 X-37.3696 Y26.1323 
G01 X-37.3696 Y24.6677 
G01 X-37.3977 Y24.5265 
G01 X-37.4527 Y24.3936 
G01 X-37.5327 Y24.2740 
G01 X-37.6344 Y24.1723 
G01 X-37.7540 Y24.0923 
G01 X-37.8869 Y24.0373 
G01 X-38.0281 Y24.0092 
G01 X-38.1719 Y24.0092 
G01 X-38.3131 Y24.0373 
G01 X-38.4460 Y24.0923 
G01 X-38.5656 Y24.1723 
G01 X-38.6673 Y24.2740 
G01 X-38.7473 Y24.3936 
G01 X-38.8023 Y24.5265 
G01 X-38.8304 Y24.6677 
G00 Z2.0000 
G00 X-36.2904 Y24.6677 
G01 Z-0.1000 F254.00 
G01 X-36.2904 Y26.1323 F508.00 
G01 X-36.2623 Y26.2735 
G01 X-36.2073 Y26.4064 
G01 X-36.1273 Y26.5260 
G01 X-36.0256 Y26.6277 
G01 X-35.9060 Y26.7077 
G01 X-35.7731 Y26.7627 
G01 X-35.6319 Y26.7908 
G01 X-35.4881 Y26.7908 
G01 X-35.3469 Y26.7627 
G01 X-35.2140 Y26.7077 
G01 X-35.0944 Y26.6277 
G01 X-34.9927 Y26.5260 
G01 X-34.9127 Y26.4064 
G01 X-34.8577 Y26.2735 
G01 X-34.8296 Y26.1323 
G01 X-34.8296 Y24.6677 
G01 X-34.8577 Y24.5265 
G01 X-34.9127 Y24.3936 
G01 X-34.9927 Y24.2740 
G01 X-35.0944 Y24.1723 
G01 X-35.2140 Y24.0923 
G01 X-35.3469 Y24.0373 
G01 X-35.4881 Y24.0092 
G01 X-35.6319 Y24.0092 
G01 X-35.7731 Y24.0373 
G01 X-35.9060 Y24.0923 
G01 X-36.0256 Y24.1723 
G01 X-36.1273 Y24.2740 
G01 X-36.2073 Y24.3936 
G01 X-36.2623 Y24.5265 
G01 X-36.2904 Y24.6677 
G00 Z2.0000 
G00 X-33.7504 Y24.6677 
G01 Z-0.1000 F254.00 
G01 X-33.7504 Y26.1323 F508.00 
G01 X-33.7223 Y26.2735 
G01 X-33.6673 Y26.4064 
G01 X-33.5873 Y26.5260 
G01 X-33.4856 Y26.6277 
G01 X-33.3660 Y26.7077 
G01 X-33.2330 Y26.7627 
G01 X-33.0919 Y26.7908 
G01 X-32.9481 Y26.7908 
G01 X-32.8069 Y26.7627 
G01 X-32.6740 Y26.7077 
G01 X-32.5544 Y26.6277 
G01 X-32.4527 Y26.5260 
G01 X-32.3727 Y26.4064 
G01 X-32.3177 Y26.2735 
G01 X-32.2896 Y26.1323 
G01 X-32.2896 Y24.6677 
G01 X-32.3177 Y24.5265 
G01 X-32.3727 Y24.3936 
G01 X-32.4527 Y24.2740 
G01 X-32.5544 Y24.1723 
G01 X-32.6740 Y24.0923 
G01 X-32.8069 Y24.0373 
G01 X-32.9481 Y24.0092 
G01 X-33.0919 Y24.0092 
G01 X-33.2330 Y24.0373 
G01 X-33.3660 Y24.0923 
G01 X-33.4856 Y24.1723 
G01 X-33.5873 Y24.2740 
G01 X-33.6673 Y24.3936 
G01 X-33.7223 Y24.5265 
G01 X-33.7504 Y24.6677 
G00 Z2.0000 
G00 X-31.2104 Y24.6677 
G01 Z-0.1000 F254.00 
G01 X-31.2104 Y26.1323 F508.00 
G01 X-31.1823 Y26.2735 
G01 X-31.1273 Y26.4064 
G01 X-31.0473 Y26.5260 
G01 X-30.9456 Y26.6277 
G01 X-30.8260 Y26.7077 
G01 X-30.6931 Y26.7627 
G01 X-30.5519 Y26.7908 
G01 X-30.4081 Y26.7908 
G01 X-30.2669 Y26.7627 
G01 X-30.1340 Y26.7077 
G01 X-30.0144 Y26.6277 
G01 X-29.9127 Y26.5260 
G01 X-29.8327 Y26.4064 
G01 X-29.7777 Y26.2735 
G01 X-29.7496 Y26.1323 
G01 X-29.7496 Y24.6677 
G01 X-29.7777 Y24.5265 
G01 X-29.8327 Y24.3936 
G01 X-29.9127 Y24.2740 
G01 X-30.0144 Y24.1723 
G01 X-30.1340 Y24.0923 
G01 X-30.2669 Y24.0373 
G01 X-30.4081 Y24.0092 
G01 X-30.5519 Y24.0092 
G01 X-30.6931 Y24.0373 
G01 X-30.8260 Y24.0923 
G01 X-30.9456 Y24.1723 
G01 X-31.0473 Y24.2740 
G01 X-31.1273 Y24.3936 
G01 X-31.1823 Y24.5265 
G01 X-31.2104 Y24.6677 
G00 Z2.0000 
G00 X-31.2104 Y32.2877 
G01 Z-0.1000 F254.00 
G01 X-31.2104 Y33.7523 F508.00 
G01 X-31.1823 Y33.8935 
G01 X-31.1273 Y34.0264 
G01 X-31.0473 Y34.1460 
G01 X-30.9456 Y34.2477 
G01 X-30.8260 Y34.3277 
G01 X-30.6931 Y34.3827 
G01 X-30.5519 Y34.4108 
G01 X-30.4081 Y34.4108 
G01 X-30.2669 Y34.3827 
G01 X-30.1340 Y34.3277 
G01 X-30.0144 Y34.2477 
G01 X-29.9127 Y34.1460 
G01 X-29.8327 Y34.0264 
G01 X-29.8187 Y33.9924 
G01 X-28.1865 Y35.6246 
G01 X-28.1246 Y35.6865 
G01 X-28.0438 Y35.7200 
G01 X-20.6285 Y35.7200 
G01 X-20.6120 Y35.8027 
G01 X-20.5493 Y35.9541 
G01 X-20.4583 Y36.0904 
G01 X-20.3424 Y36.2063 
G01 X-20.2061 Y36.2973 
G01 X-20.0547 Y36.3600 
G01 X-19.8939 Y36.3920 
G01 X-18.2061 Y36.3920 
G01 X-18.0453 Y36.3600 
G01 X-17.8939 Y36.2973 
G01 X-17.7576 Y36.2063 
G01 X-17.6417 Y36.0904 
G01 X-17.5507 Y35.9541 
G01 X-17.4880 Y35.8027 
G01 X-17.4560 Y35.6419 
G01 X-17.4560 Y35.4781 
G01 X-17.4880 Y35.3173 
G01 X-17.5507 Y35.1659 
G01 X-17.6417 Y35.0296 
G01 X-17.7576 Y34.9137 
G01 X-17.8939 Y34.8227 
G01 X-18.0453 Y34.7600 
G01 X-18.2061 Y34.7280 
G01 X-19.8939 Y34.7280 
G01 X-20.0547 Y34.7600 
G01 X-20.2061 Y34.8227 
G01 X-20.3424 Y34.9137 
G01 X-20.4583 Y35.0296 
G01 X-20.5493 Y35.1659 
G01 X-20.5966 Y35.2800 
G01 X-27.9089 Y35.2800 
G01 X-29.7496 Y33.4393 
G01 X-29.7496 Y32.2877 
G01 X-29.7777 Y32.1465 
G01 X-29.8327 Y32.0136 
G01 X-29.9127 Y31.8940 
G01 X-30.0144 Y31.7923 
G01 X-30.1340 Y31.7123 
G01 X-30.2669 Y31.6573 
G01 X-30.4081 Y31.6292 
G01 X-30.5519 Y31.6292 
G01 X-30.6931 Y31.6573 
G01 X-30.8260 Y31.7123 
G01 X-30.9456 Y31.7923 
G01 X-31.0473 Y31.8940 
G01 X-31.1273 Y32.0136 
G01 X-31.1823 Y32.1465 
G01 X-31.2104 Y32.2877 
G00 Z2.0000 
G00 X-33.7504 Y33.7523 
G01 Z-0.1000 F254.00 
G01 X-33.7223 Y33.8935 F508.00 
G01 X-33.6673 Y34.0264 
G01 X-33.5873 Y34.1460 
G01 X-33.4856 Y34.2477 
G01 X-33.3660 Y34.3277 
G01 X-33.2330 Y34.3827 
G01 X-33.0919 Y34.4108 
G01 X-32.9481 Y34.4108 
G01 X-32.8069 Y34.3827 
G01 X-32.6740 Y34.3277 
G01 X-32.5544 Y34.2477 
G01 X-32.4527 Y34.1460 
G01 X-32.3727 Y34.0264 
G01 X-32.3177 Y33.8935 
G01 X-32.2896 Y33.7523 
G01 X-32.2896 Y32.2877 
G01 X-32.3177 Y32.1465 
G01 X-32.3727 Y32.0136 
G01 X-32.4527 Y31.8940 
G01 X-32.5544 Y31.7923 
G01 X-32.6740 Y31.7123 
G01 X-32.8069 Y31.6573 
G01 X-32.9481 Y31.6292 
G01 X-33.0919 Y31.6292 
G01 X-33.2330 Y31.6573 
G01 X-33.3660 Y31.7123 
G01 X-33.4856 Y31.7923 
G01 X-33.5873 Y31.8940 
G01 X-33.6673 Y32.0136 
G01 X-33.7223 Y32.1465 
G01 X-33.7339 Y32.2049 
G01 X-34.8754 Y31.0635 
G01 X-34.9562 Y31.0300 
G01 X-71.5438 Y31.0300 
G01 X-71.6246 Y31.0635 
G01 X-71.6865 Y31.1254 
G01 X-75.2741 Y34.7130 
G01 X-75.2769 Y34.7114 
G01 X-75.4239 Y34.6720 
G01 X-75.5761 Y34.6720 
G01 X-75.7231 Y34.7114 
G01 X-75.8549 Y34.7875 
G01 X-75.9625 Y34.8951 
G01 X-76.0386 Y35.0269 
G01 X-76.0780 Y35.1739 
G01 X-76.0780 Y35.3261 
G01 X-76.0386 Y35.4731 
G01 X-75.9625 Y35.6049 
G01 X-75.8549 Y35.7125 
G01 X-75.7231 Y35.7886 
G01 X-75.5761 Y35.8280 
G01 X-75.4239 Y35.8280 
G01 X-75.2769 Y35.7886 
G01 X-75.1451 Y35.7125 
G01 X-75.0375 Y35.6049 
G01 X-74.9614 Y35.4731 
G01 X-74.9220 Y35.3261 
G01 X-74.9220 Y35.1739 
G01 X-74.9614 Y35.0269 
G01 X-74.9630 Y35.0241 
G01 X-71.4089 Y31.4700 
G01 X-35.0911 Y31.4700 
G01 X-33.7504 Y32.8107 
G01 X-33.7504 Y33.7523 
G00 Z2.0000 
G00 X-36.2904 Y32.2877 
G01 Z-0.1000 F254.00 
G01 X-36.2904 Y33.7523 F508.00 
G01 X-36.2623 Y33.8935 
G01 X-36.2073 Y34.0264 
G01 X-36.1273 Y34.1460 
G01 X-36.0256 Y34.2477 
G01 X-35.9060 Y34.3277 
G01 X-35.7731 Y34.3827 
G01 X-35.6319 Y34.4108 
G01 X-35.4881 Y34.4108 
G01 X-35.3469 Y34.3827 
G01 X-35.2140 Y34.3277 
G01 X-35.0944 Y34.2477 
G01 X-34.9927 Y34.1460 
G01 X-34.9616 Y34.0995 
G01 X-30.9365 Y38.1246 
G01 X-30.8746 Y38.1865 
G01 X-30.7938 Y38.2200 
G01 X-20.6364 Y38.2200 
G01 X-20.6120 Y38.3427 
G01 X-20.5493 Y38.4941 
G01 X-20.4583 Y38.6304 
G01 X-20.3424 Y38.7463 
G01 X-20.2061 Y38.8373 
G01 X-20.0547 Y38.9000 
G01 X-19.8939 Y38.9320 
G01 X-18.2061 Y38.9320 
G01 X-18.0453 Y38.9000 
G01 X-17.8939 Y38.8373 
G01 X-17.7576 Y38.7463 
G01 X-17.6417 Y38.6304 
G01 X-17.5507 Y38.4941 
G01 X-17.4880 Y38.3427 
G01 X-17.4560 Y38.1819 
G01 X-17.4560 Y38.0181 
G01 X-17.4880 Y37.8573 
G01 X-17.5507 Y37.7059 
G01 X-17.6417 Y37.5696 
G01 X-17.7576 Y37.4537 
G01 X-17.8939 Y37.3627 
G01 X-18.0453 Y37.3000 
G01 X-18.2061 Y37.2680 
G01 X-19.8939 Y37.2680 
G01 X-20.0547 Y37.3000 
G01 X-20.2061 Y37.3627 
G01 X-20.3424 Y37.4537 
G01 X-20.4583 Y37.5696 
G01 X-20.5493 Y37.7059 
G01 X-20.5800 Y37.7800 
G01 X-30.6589 Y37.7800 
G01 X-34.8296 Y33.6093 
G01 X-34.8296 Y32.2877 
G01 X-34.8577 Y32.1465 
G01 X-34.9127 Y32.0136 
G01 X-34.9927 Y31.8940 
G01 X-35.0944 Y31.7923 
G01 X-35.2140 Y31.7123 
G01 X-35.3469 Y31.6573 
G01 X-35.4881 Y31.6292 
G01 X-35.6319 Y31.6292 
G01 X-35.7731 Y31.6573 
G01 X-35.9060 Y31.7123 
G01 X-36.0256 Y31.7923 
G01 X-36.1273 Y31.8940 
G01 X-36.2073 Y32.0136 
G01 X-36.2623 Y32.1465 
G01 X-36.2904 Y32.2877 
G00 Z2.0000 
G00 X-38.8304 Y32.2877 
G01 Z-0.1000 F254.00 
G01 X-38.8304 Y33.5193 F508.00 
G01 X-40.8411 Y35.5300 
G01 X-70.7960 Y35.5300 
G01 X-70.7960 Y35.4781 
G01 X-70.8280 Y35.3173 
G01 X-70.8907 Y35.1659 
G01 X-70.9817 Y35.0296 
G01 X-71.0976 Y34.9137 
G01 X-71.2339 Y34.8227 
G01 X-71.3853 Y34.7600 
G01 X-71.5461 Y34.7280 
G01 X-73.2339 Y34.7280 
G01 X-73.3947 Y34.7600 
G01 X-73.5461 Y34.8227 
G01 X-73.6824 Y34.9137 
G01 X-73.7983 Y35.0296 
G01 X-73.8893 Y35.1659 
G01 X-73.9520 Y35.3173 
G01 X-73.9840 Y35.4781 
G01 X-73.9840 Y35.6419 
G01 X-73.9520 Y35.8027 
G01 X-73.8893 Y35.9541 
G01 X-73.7983 Y36.0904 
G01 X-73.6824 Y36.2063 
G01 X-73.5461 Y36.2973 
G01 X-73.3947 Y36.3600 
G01 X-73.2339 Y36.3920 
G01 X-71.5461 Y36.3920 
G01 X-71.3853 Y36.3600 
G01 X-71.2339 Y36.2973 
G01 X-71.0976 Y36.2063 
G01 X-70.9817 Y36.0904 
G01 X-70.9013 Y35.9700 
G01 X-40.7062 Y35.9700 
G01 X-40.6254 Y35.9365 
G01 X-40.5635 Y35.8746 
G01 X-38.7344 Y34.0456 
G01 X-38.6673 Y34.1460 
G01 X-38.5656 Y34.2477 
G01 X-38.4460 Y34.3277 
G01 X-38.3131 Y34.3827 
G01 X-38.1719 Y34.4108 
G01 X-38.0281 Y34.4108 
G01 X-37.8869 Y34.3827 
G01 X-37.7540 Y34.3277 
G01 X-37.6344 Y34.2477 
G01 X-37.5327 Y34.1460 
G01 X-37.4527 Y34.0264 
G01 X-37.3977 Y33.8935 
G01 X-37.3696 Y33.7523 
G01 X-37.3696 Y32.2877 
G01 X-37.3977 Y32.1465 
G01 X-37.4527 Y32.0136 
G01 X-37.5327 Y31.8940 
G01 X-37.6344 Y31.7923 
G01 X-37.7540 Y31.7123 
G01 X-37.8869 Y31.6573 
G01 X-38.0281 Y31.6292 
G01 X-38.1719 Y31.6292 
G01 X-38.3131 Y31.6573 
G01 X-38.4460 Y31.7123 
G01 X-38.5656 Y31.7923 
G01 X-38.6673 Y31.8940 
G01 X-38.7473 Y32.0136 
G01 X-38.8023 Y32.1465 
G01 X-38.8304 Y32.2877 
G00 Z2.0000 
G00 X-41.3704 Y32.2877 
G01 Z-0.1000 F254.00 
G01 X-41.3704 Y33.7523 F508.00 
G01 X-41.3423 Y33.8935 
G01 X-41.2873 Y34.0264 
G01 X-41.2073 Y34.1460 
G01 X-41.1056 Y34.2477 
G01 X-40.9860 Y34.3277 
G01 X-40.8531 Y34.3827 
G01 X-40.7119 Y34.4108 
G01 X-40.5681 Y34.4108 
G01 X-40.4269 Y34.3827 
G01 X-40.2940 Y34.3277 
G01 X-40.1744 Y34.2477 
G01 X-40.0727 Y34.1460 
G01 X-39.9927 Y34.0264 
G01 X-39.9377 Y33.8935 
G01 X-39.9096 Y33.7523 
G01 X-39.9096 Y32.2877 
G01 X-39.9377 Y32.1465 
G01 X-39.9927 Y32.0136 
G01 X-40.0727 Y31.8940 
G01 X-40.1744 Y31.7923 
G01 X-40.2940 Y31.7123 
G01 X-40.4269 Y31.6573 
G01 X-40.5681 Y31.6292 
G01 X-40.7119 Y31.6292 
G01 X-40.8531 Y31.6573 
G01 X-40.9860 Y31.7123 
G01 X-41.1056 Y31.7923 
G01 X-41.2073 Y31.8940 
G01 X-41.2873 Y32.0136 
G01 X-41.3423 Y32.1465 
G01 X-41.3704 Y32.2877 
G00 Z2.0000 
G00 X-46.4504 Y32.2877 
G01 Z-0.1000 F254.00 
G01 X-46.4504 Y33.7523 F508.00 
G01 X-46.4223 Y33.8935 
G01 X-46.3673 Y34.0264 
G01 X-46.2873 Y34.1460 
G01 X-46.1856 Y34.2477 
G01 X-46.0660 Y34.3277 
G01 X-45.9331 Y34.3827 
G01 X-45.7919 Y34.4108 
G01 X-45.6481 Y34.4108 
G01 X-45.5069 Y34.3827 
G01 X-45.3740 Y34.3277 
G01 X-45.2544 Y34.2477 
G01 X-45.1527 Y34.1460 
G01 X-45.0727 Y34.0264 
G01 X-45.0177 Y33.8935 
G01 X-44.9896 Y33.7523 
G01 X-44.9896 Y32.2877 
G01 X-45.0177 Y32.1465 
G01 X-45.0727 Y32.0136 
G01 X-45.1527 Y31.8940 
G01 X-45.2544 Y31.7923 
G01 X-45.3740 Y31.7123 
G01 X-45.5069 Y31.6573 
G01 X-45.6481 Y31.6292 
G01 X-45.7919 Y31.6292 
G01 X-45.9331 Y31.6573 
G01 X-46.0660 Y31.7123 
G01 X-46.1856 Y31.7923 
G01 X-46.2873 Y31.8940 
G01 X-46.3673 Y32.0136 
G01 X-46.4223 Y32.1465 
G01 X-46.4504 Y32.2877 
G00 Z2.0000 
G00 X-48.9904 Y32.2877 
G01 Z-0.1000 F254.00 
G01 X-48.9904 Y33.7523 F508.00 
G01 X-48.9623 Y33.8935 
G01 X-48.9073 Y34.0264 
G01 X-48.8273 Y34.1460 
G01 X-48.7256 Y34.2477 
G01 X-48.6060 Y34.3277 
G01 X-48.4731 Y34.3827 
G01 X-48.3319 Y34.4108 
G01 X-48.1881 Y34.4108 
G01 X-48.0469 Y34.3827 
G01 X-47.9140 Y34.3277 
G01 X-47.7944 Y34.2477 
G01 X-47.6927 Y34.1460 
G01 X-47.6127 Y34.0264 
G01 X-47.5577 Y33.8935 
G01 X-47.5296 Y33.7523 
G01 X-47.5296 Y32.2877 
G01 X-47.5577 Y32.1465 
G01 X-47.6127 Y32.0136 
G01 X-47.6927 Y31.8940 
G01 X-47.7944 Y31.7923 
G01 X-47.9140 Y31.7123 
G01 X-48.0469 Y31.6573 
G01 X-48.1881 Y31.6292 
G01 X-48.3319 Y31.6292 
G01 X-48.4731 Y31.6573 
G01 X-48.6060 Y31.7123 
G01 X-48.7256 Y31.7923 
G01 X-48.8273 Y31.8940 
G01 X-48.9073 Y32.0136 
G01 X-48.9623 Y32.1465 
G01 X-48.9904 Y32.2877 
G00 Z2.0000 
G00 X-54.0704 Y32.2877 
G01 Z-0.1000 F254.00 
G01 X-54.0704 Y33.7523 F508.00 
G01 X-54.0423 Y33.8935 
G01 X-53.9873 Y34.0264 
G01 X-53.9073 Y34.1460 
G01 X-53.8056 Y34.2477 
G01 X-53.6860 Y34.3277 
G01 X-53.5531 Y34.3827 
G01 X-53.4119 Y34.4108 
G01 X-53.2681 Y34.4108 
G01 X-53.1269 Y34.3827 
G01 X-52.9940 Y34.3277 
G01 X-52.8744 Y34.2477 
G01 X-52.7727 Y34.1460 
G01 X-52.6927 Y34.0264 
G01 X-52.6377 Y33.8935 
G01 X-52.6096 Y33.7523 
G01 X-52.6096 Y32.2877 
G01 X-52.6377 Y32.1465 
G01 X-52.6927 Y32.0136 
G01 X-52.7727 Y31.8940 
G01 X-52.8744 Y31.7923 
G01 X-52.9940 Y31.7123 
G01 X-53.1269 Y31.6573 
G01 X-53.2681 Y31.6292 
G01 X-53.4119 Y31.6292 
G01 X-53.5531 Y31.6573 
G01 X-53.6860 Y31.7123 
G01 X-53.8056 Y31.7923 
G01 X-53.9073 Y31.8940 
G01 X-53.9873 Y32.0136 
G01 X-54.0423 Y32.1465 
G01 X-54.0704 Y32.2877 
G00 Z2.0000 
G00 X-56.6104 Y32.2877 
G01 Z-0.1000 F254.00 
G01 X-56.6104 Y33.7523 F508.00 
G01 X-56.5823 Y33.8935 
G01 X-56.5273 Y34.0264 
G01 X-56.4473 Y34.1460 
G01 X-56.3456 Y34.2477 
G01 X-56.2260 Y34.3277 
G01 X-56.0931 Y34.3827 
G01 X-55.9519 Y34.4108 
G01 X-55.8081 Y34.4108 
G01 X-55.6669 Y34.3827 
G01 X-55.5340 Y34.3277 
G01 X-55.4144 Y34.2477 
G01 X-55.3127 Y34.1460 
G01 X-55.2327 Y34.0264 
G01 X-55.1777 Y33.8935 
G01 X-55.1496 Y33.7523 
G01 X-55.1496 Y32.2877 
G01 X-55.1777 Y32.1465 
G01 X-55.2327 Y32.0136 
G01 X-55.3127 Y31.8940 
G01 X-55.4144 Y31.7923 
G01 X-55.5340 Y31.7123 
G01 X-55.6669 Y31.6573 
G01 X-55.8081 Y31.6292 
G01 X-55.9519 Y31.6292 
G01 X-56.0931 Y31.6573 
G01 X-56.2260 Y31.7123 
G01 X-56.3456 Y31.7923 
G01 X-56.4473 Y31.8940 
G01 X-56.5273 Y32.0136 
G01 X-56.5823 Y32.1465 
G01 X-56.6104 Y32.2877 
G00 Z2.0000 
G00 X-59.1504 Y32.2877 
G01 Z-0.1000 F254.00 
G01 X-59.1504 Y33.7523 F508.00 
G01 X-59.1223 Y33.8935 
G01 X-59.0673 Y34.0264 
G01 X-58.9873 Y34.1460 
G01 X-58.8856 Y34.2477 
G01 X-58.7660 Y34.3277 
G01 X-58.6331 Y34.3827 
G01 X-58.4919 Y34.4108 
G01 X-58.3481 Y34.4108 
G01 X-58.2069 Y34.3827 
G01 X-58.0740 Y34.3277 
G01 X-57.9544 Y34.2477 
G01 X-57.8527 Y34.1460 
G01 X-57.7727 Y34.0264 
G01 X-57.7177 Y33.8935 
G01 X-57.6896 Y33.7523 
G01 X-57.6896 Y32.2877 
G01 X-57.7177 Y32.1465 
G01 X-57.7727 Y32.0136 
G01 X-57.8527 Y31.8940 
G01 X-57.9544 Y31.7923 
G01 X-58.0740 Y31.7123 
G01 X-58.2069 Y31.6573 
G01 X-58.3481 Y31.6292 
G01 X-58.4919 Y31.6292 
G01 X-58.6331 Y31.6573 
G01 X-58.7660 Y31.7123 
G01 X-58.8856 Y31.7923 
G01 X-58.9873 Y31.8940 
G01 X-59.0673 Y32.0136 
G01 X-59.1223 Y32.1465 
G01 X-59.1504 Y32.2877 
G00 Z2.0000 
G00 X-61.6904 Y32.2877 
G01 Z-0.1000 F254.00 
G01 X-61.6904 Y33.7523 F508.00 
G01 X-61.6623 Y33.8935 
G01 X-61.6073 Y34.0264 
G01 X-61.5273 Y34.1460 
G01 X-61.4256 Y34.2477 
G01 X-61.3060 Y34.3277 
G01 X-61.1731 Y34.3827 
G01 X-61.0319 Y34.4108 
G01 X-60.8881 Y34.4108 
G01 X-60.7469 Y34.3827 
G01 X-60.6140 Y34.3277 
G01 X-60.4944 Y34.2477 
G01 X-60.3927 Y34.1460 
G01 X-60.3127 Y34.0264 
G01 X-60.2577 Y33.8935 
G01 X-60.2296 Y33.7523 
G01 X-60.2296 Y32.2877 
G01 X-60.2577 Y32.1465 
G01 X-60.3127 Y32.0136 
G01 X-60.3927 Y31.8940 
G01 X-60.4944 Y31.7923 
G01 X-60.6140 Y31.7123 
G01 X-60.7469 Y31.6573 
G01 X-60.8881 Y31.6292 
G01 X-61.0319 Y31.6292 
G01 X-61.1731 Y31.6573 
G01 X-61.3060 Y31.7123 
G01 X-61.4256 Y31.7923 
G01 X-61.5273 Y31.8940 
G01 X-61.6073 Y32.0136 
G01 X-61.6623 Y32.1465 
G01 X-61.6904 Y32.2877 
G00 Z2.0000 
G00 X-64.2304 Y32.2877 
G01 Z-0.1000 F254.00 
G01 X-64.2304 Y33.7523 F508.00 
G01 X-64.2023 Y33.8935 
G01 X-64.1473 Y34.0264 
G01 X-64.0673 Y34.1460 
G01 X-63.9656 Y34.2477 
G01 X-63.8460 Y34.3277 
G01 X-63.7131 Y34.3827 
G01 X-63.5719 Y34.4108 
G01 X-63.4281 Y34.4108 
G01 X-63.2869 Y34.3827 
G01 X-63.1540 Y34.3277 
G01 X-63.0344 Y34.2477 
G01 X-62.9327 Y34.1460 
G01 X-62.8527 Y34.0264 
G01 X-62.7977 Y33.8935 
G01 X-62.7696 Y33.7523 
G01 X-62.7696 Y32.2877 
G01 X-62.7977 Y32.1465 
G01 X-62.8527 Y32.0136 
G01 X-62.9327 Y31.8940 
G01 X-63.0344 Y31.7923 
G01 X-63.1540 Y31.7123 
G01 X-63.2869 Y31.6573 
G01 X-63.4281 Y31.6292 
G01 X-63.5719 Y31.6292 
G01 X-63.7131 Y31.6573 
G01 X-63.8460 Y31.7123 
G01 X-63.9656 Y31.7923 
G01 X-64.0673 Y31.8940 
G01 X-64.1473 Y32.0136 
G01 X-64.2023 Y32.1465 
G01 X-64.2304 Y32.2877 
G00 Z2.0000 
G00 X-62.6680 Y5.9239 
G01 Z-0.1000 F254.00 
G01 X-62.6680 Y4.2361 F508.00 
G01 X-62.7000 Y4.0753 
G01 X-62.7627 Y3.9239 
G01 X-62.8537 Y3.7876 
G01 X-62.9696 Y3.6717 
G01 X-63.1059 Y3.5807 
G01 X-63.2573 Y3.5180 
G01 X-63.4181 Y3.4860 
G01 X-63.5819 Y3.4860 
G01 X-63.7427 Y3.5180 
G01 X-63.8941 Y3.5807 
G01 X-64.0304 Y3.6717 
G01 X-64.1463 Y3.7876 
G01 X-64.2373 Y3.9239 
G01 X-64.3000 Y4.0753 
G01 X-64.3320 Y4.2361 
G01 X-64.3320 Y5.9239 
G01 X-64.3000 Y6.0847 
G01 X-64.2373 Y6.2361 
G01 X-64.1463 Y6.3724 
G01 X-64.0304 Y6.4883 
G01 X-63.8941 Y6.5793 
G01 X-63.7427 Y6.6420 
G01 X-63.5819 Y6.6740 
G01 X-63.4181 Y6.6740 
G01 X-63.2573 Y6.6420 
G01 X-63.1059 Y6.5793 
G01 X-62.9696 Y6.4883 
G01 X-62.8537 Y6.3724 
G01 X-62.7627 Y6.2361 
G01 X-62.7000 Y6.0847 
G01 X-62.6680 Y5.9239 
G00 Z2.0000 
G00 X-60.1280 Y5.9239 
G01 Z-0.1000 F254.00 
G01 X-60.1280 Y4.2361 F508.00 
G01 X-60.1600 Y4.0753 
G01 X-60.2227 Y3.9239 
G01 X-60.3137 Y3.7876 
G01 X-60.4296 Y3.6717 
G01 X-60.5659 Y3.5807 
G01 X-60.7173 Y3.5180 
G01 X-60.8781 Y3.4860 
G01 X-61.0419 Y3.4860 
G01 X-61.2027 Y3.5180 
G01 X-61.3541 Y3.5807 
G01 X-61.4904 Y3.6717 
G01 X-61.6063 Y3.7876 
G01 X-61.6973 Y3.9239 
G01 X-61.7600 Y4.0753 
G01 X-61.7920 Y4.2361 
G01 X-61.7920 Y5.9239 
G01 X-61.7600 Y6.0847 
G01 X-61.6973 Y6.2361 
G01 X-61.6063 Y6.3724 
G01 X-61.4904 Y6.4883 
G01 X-61.3541 Y6.5793 
G01 X-61.2027 Y6.6420 
G01 X-61.0419 Y6.6740 
G01 X-60.8781 Y6.6740 
G01 X-60.7173 Y6.6420 
G01 X-60.5659 Y6.5793 
G01 X-60.4296 Y6.4883 
G01 X-60.3137 Y6.3724 
G01 X-60.2227 Y6.2361 
G01 X-60.1600 Y6.0847 
G01 X-60.1280 Y5.9239 
G00 Z2.0000 
G00 X-57.5880 Y5.9239 
G01 Z-0.1000 F254.00 
G01 X-57.5880 Y4.2361 F508.00 
G01 X-57.6200 Y4.0753 
G01 X-57.6827 Y3.9239 
G01 X-57.7737 Y3.7876 
G01 X-57.8896 Y3.6717 
G01 X-58.0259 Y3.5807 
G01 X-58.1773 Y3.5180 
G01 X-58.3381 Y3.4860 
G01 X-58.5019 Y3.4860 
G01 X-58.6627 Y3.5180 
G01 X-58.8141 Y3.5807 
G01 X-58.9504 Y3.6717 
G01 X-59.0663 Y3.7876 
G01 X-59.1573 Y3.9239 
G01 X-59.2200 Y4.0753 
G01 X-59.2520 Y4.2361 
G01 X-59.2520 Y5.9239 
G01 X-59.2200 Y6.0847 
G01 X-59.1573 Y6.2361 
G01 X-59.0663 Y6.3724 
G01 X-58.9504 Y6.4883 
G01 X-58.8141 Y6.5793 
G01 X-58.6627 Y6.6420 
G01 X-58.5019 Y6.6740 
G01 X-58.3381 Y6.6740 
G01 X-58.1773 Y6.6420 
G01 X-58.0259 Y6.5793 
G01 X-57.8896 Y6.4883 
G01 X-57.7737 Y6.3724 
G01 X-57.6827 Y6.2361 
G01 X-57.6200 Y6.0847 
G01 X-57.5880 Y5.9239 
G00 Z2.0000 
G00 X-55.0480 Y5.9239 
G01 Z-0.1000 F254.00 
G01 X-55.0480 Y4.2361 F508.00 
G01 X-55.0800 Y4.0753 
G01 X-55.1427 Y3.9239 
G01 X-55.2337 Y3.7876 
G01 X-55.3496 Y3.6717 
G01 X-55.4859 Y3.5807 
G01 X-55.6373 Y3.5180 
G01 X-55.7981 Y3.4860 
G01 X-55.9619 Y3.4860 
G01 X-56.1227 Y3.5180 
G01 X-56.2741 Y3.5807 
G01 X-56.4104 Y3.6717 
G01 X-56.5263 Y3.7876 
G01 X-56.6173 Y3.9239 
G01 X-56.6800 Y4.0753 
G01 X-56.7120 Y4.2361 
G01 X-56.7120 Y5.9239 
G01 X-56.6800 Y6.0847 
G01 X-56.6173 Y6.2361 
G01 X-56.5263 Y6.3724 
G01 X-56.4104 Y6.4883 
G01 X-56.2741 Y6.5793 
G01 X-56.1227 Y6.6420 
G01 X-55.9619 Y6.6740 
G01 X-55.7981 Y6.6740 
G01 X-55.6373 Y6.6420 
G01 X-55.4859 Y6.5793 
G01 X-55.3496 Y6.4883 
G01 X-55.2337 Y6.3724 
G01 X-55.1427 Y6.2361 
G01 X-55.0800 Y6.0847 
G01 X-55.0480 Y5.9239 
G00 Z2.0000 
G00 X-58.0201 Y51.7096 
G01 Z-0.1000 F254.00 
G01 X-58.0201 Y52.4304 F508.00 
G01 X-57.5104 Y52.9401 
G01 X-56.7896 Y52.9401 
G01 X-56.2799 Y52.4304 
G01 X-56.2799 Y51.7096 
G01 X-56.7896 Y51.1999 
G01 X-57.5104 Y51.1999 
G01 X-58.0201 Y51.7096 
G00 Z2.0000 
G00 X-65.6401 Y51.7096 
G01 Z-0.1000 F254.00 
G01 X-65.6401 Y52.4304 F508.00 
G01 X-65.1304 Y52.9401 
G01 X-64.4096 Y52.9401 
G01 X-63.8999 Y52.4304 
G01 X-63.8999 Y51.7096 
G01 X-64.4096 Y51.1999 
G01 X-65.1304 Y51.1999 
G01 X-65.6401 Y51.7096 
G00 Z2.0000 
G00 X-65.6401 Y49.1696 
G01 Z-0.1000 F254.00 
G01 X-65.6401 Y49.8904 F508.00 
G01 X-65.1304 Y50.4001 
G01 X-64.4096 Y50.4001 
G01 X-63.8999 Y49.8904 
G01 X-63.8999 Y49.1696 
G01 X-64.4096 Y48.6599 
G01 X-65.1304 Y48.6599 
G01 X-65.6401 Y49.1696 
G00 Z2.0000 
G00 X-65.6401 Y46.6296 
G01 Z-0.1000 F254.00 
G01 X-65.6401 Y47.3504 F508.00 
G01 X-65.1304 Y47.8601 
G01 X-64.4096 Y47.8601 
G01 X-63.8999 Y47.3504 
G01 X-63.8999 Y46.6296 
G01 X-64.4096 Y46.1199 
G01 X-65.1304 Y46.1199 
G01 X-65.6401 Y46.6296 
G00 Z2.0000 
G00 X-65.6401 Y44.0896 
G01 Z-0.1000 F254.00 
G01 X-65.6401 Y44.8104 F508.00 
G01 X-65.1304 Y45.3201 
G01 X-64.4096 Y45.3201 
G01 X-63.8999 Y44.8104 
G01 X-63.8999 Y44.0896 
G01 X-64.4096 Y43.5799 
G01 X-65.1304 Y43.5799 
G01 X-65.6401 Y44.0896 
G00 Z2.0000 
G00 X-40.7862 Y57.0731 
G01 Z-0.1000 F254.00 
G01 X-40.7862 Y57.2269 F508.00 
G01 X-40.7562 Y57.3779 
G01 X-40.6973 Y57.5200 
G01 X-40.6118 Y57.6480 
G01 X-40.5030 Y57.7568 
G01 X-40.3750 Y57.8423 
G01 X-40.2329 Y57.9012 
G01 X-40.0819 Y57.9312 
G01 X-39.9281 Y57.9312 
G01 X-39.7771 Y57.9012 
G01 X-39.6943 Y57.8668 
G01 X-39.2811 Y58.2800 
G01 X-42.5438 Y58.2800 
G01 X-42.6246 Y58.3135 
G01 X-42.6865 Y58.3754 
G01 X-42.7200 Y58.4562 
G01 X-42.7200 Y59.9089 
G01 X-43.5911 Y60.7800 
G01 X-73.0438 Y60.7800 
G01 X-73.1246 Y60.8135 
G01 X-73.1865 Y60.8754 
G01 X-75.4762 Y63.1650 
G01 X-75.5287 Y63.0032 
G01 X-75.6236 Y62.8170 
G01 X-75.7464 Y62.6480 
G01 X-75.8941 Y62.5003 
G01 X-76.0631 Y62.3775 
G01 X-76.2493 Y62.2826 
G01 X-76.4480 Y62.2181 
G01 X-76.6543 Y62.1854 
G01 X-76.8633 Y62.1854 
G01 X-77.0696 Y62.2181 
G01 X-77.2683 Y62.2826 
G01 X-77.4545 Y62.3775 
G01 X-77.6235 Y62.5003 
G01 X-77.7712 Y62.6480 
G01 X-77.8940 Y62.8170 
G01 X-77.9889 Y63.0032 
G01 X-78.0534 Y63.2019 
G01 X-78.0861 Y63.4082 
G01 X-78.0861 Y66.1318 
G01 X-78.0534 Y66.3381 
G01 X-77.9889 Y66.5368 
G01 X-77.8940 Y66.7230 
G01 X-77.7712 Y66.8920 
G01 X-77.6235 Y67.0397 
G01 X-77.4545 Y67.1625 
G01 X-77.2683 Y67.2574 
G01 X-77.0696 Y67.3219 
G01 X-76.8633 Y67.3546 
G01 X-76.6543 Y67.3546 
G01 X-76.4480 Y67.3219 
G01 X-76.2493 Y67.2574 
G01 X-76.0631 Y67.1625 
G01 X-75.8941 Y67.0397 
G01 X-75.7464 Y66.8920 
G01 X-75.6236 Y66.7230 
G01 X-75.5287 Y66.5368 
G01 X-75.4642 Y66.3381 
G01 X-75.4315 Y66.1318 
G01 X-75.4315 Y63.7426 
G01 X-72.9089 Y61.2200 
G01 X-43.4562 Y61.2200 
G01 X-43.3754 Y61.1865 
G01 X-42.3754 Y60.1865 
G01 X-42.3135 Y60.1246 
G01 X-42.2800 Y60.0438 
G01 X-42.2800 Y58.7200 
G01 X-27.4562 Y58.7200 
G01 X-27.3754 Y58.6865 
G01 X-26.4806 Y57.7918 
G01 X-26.4050 Y57.8423 
G01 X-26.2629 Y57.9012 
G01 X-26.1119 Y57.9312 
G01 X-25.9581 Y57.9312 
G01 X-25.8071 Y57.9012 
G01 X-25.6650 Y57.8423 
G01 X-25.5370 Y57.7568 
G01 X-25.4282 Y57.6480 
G01 X-25.3427 Y57.5200 
G01 X-25.2838 Y57.3779 
G01 X-25.2538 Y57.2269 
G01 X-25.2538 Y57.0731 
G01 X-25.2838 Y56.9221 
G01 X-25.3427 Y56.7800 
G01 X-25.4282 Y56.6520 
G01 X-25.5370 Y56.5432 
G01 X-25.6650 Y56.4577 
G01 X-25.8071 Y56.3988 
G01 X-25.9581 Y56.3688 
G01 X-26.1119 Y56.3688 
G01 X-26.2629 Y56.3988 
G01 X-26.4050 Y56.4577 
G01 X-26.5330 Y56.5432 
G01 X-26.6418 Y56.6520 
G01 X-26.7273 Y56.7800 
G01 X-26.7862 Y56.9221 
G01 X-26.8162 Y57.0731 
G01 X-26.8162 Y57.2269 
G01 X-26.7862 Y57.3779 
G01 X-26.7577 Y57.4466 
G01 X-27.5911 Y58.2800 
G01 X-38.6589 Y58.2800 
G01 X-39.3552 Y57.5837 
G01 X-39.3127 Y57.5200 
G01 X-39.2538 Y57.3779 
G01 X-39.2238 Y57.2269 
G01 X-39.2238 Y57.0731 
G01 X-39.2538 Y56.9221 
G01 X-39.3127 Y56.7800 
G01 X-39.3982 Y56.6520 
G01 X-39.5070 Y56.5432 
G01 X-39.6350 Y56.4577 
G01 X-39.7771 Y56.3988 
G01 X-39.9281 Y56.3688 
G01 X-40.0819 Y56.3688 
G01 X-40.2329 Y56.3988 
G01 X-40.3750 Y56.4577 
G01 X-40.5030 Y56.5432 
G01 X-40.6118 Y56.6520 
G01 X-40.6973 Y56.7800 
G01 X-40.7562 Y56.9221 
G01 X-40.7862 Y57.0731 
G00 Z2.0000 
G00 X-43.3262 Y57.2269 
G01 Z-0.1000 F254.00 
G01 X-43.2962 Y57.3779 F508.00 
G01 X-43.2373 Y57.5200 
G01 X-43.1518 Y57.6480 
G01 X-43.0430 Y57.7568 
G01 X-42.9150 Y57.8423 
G01 X-42.7729 Y57.9012 
G01 X-42.6219 Y57.9312 
G01 X-42.4681 Y57.9312 
G01 X-42.3171 Y57.9012 
G01 X-42.1750 Y57.8423 
G01 X-42.0470 Y57.7568 
G01 X-41.9382 Y57.6480 
G01 X-41.8527 Y57.5200 
G01 X-41.7938 Y57.3779 
G01 X-41.7638 Y57.2269 
G01 X-41.7638 Y57.0731 
G01 X-41.7938 Y56.9221 
G01 X-41.8527 Y56.7800 
G01 X-41.8992 Y56.7104 
G01 X-41.4089 Y56.2200 
G01 X-29.8411 Y56.2200 
G01 X-29.2714 Y56.7898 
G01 X-29.3262 Y56.9221 
G01 X-29.3562 Y57.0731 
G01 X-29.3562 Y57.2269 
G01 X-29.3262 Y57.3779 
G01 X-29.2673 Y57.5200 
G01 X-29.1818 Y57.6480 
G01 X-29.0730 Y57.7568 
G01 X-28.9450 Y57.8423 
G01 X-28.8029 Y57.9012 
G01 X-28.6519 Y57.9312 
G01 X-28.4981 Y57.9312 
G01 X-28.3471 Y57.9012 
G01 X-28.2050 Y57.8423 
G01 X-28.0770 Y57.7568 
G01 X-27.9682 Y57.6480 
G01 X-27.8827 Y57.5200 
G01 X-27.8238 Y57.3779 
G01 X-27.7938 Y57.2269 
G01 X-27.7938 Y57.0731 
G01 X-27.8238 Y56.9221 
G01 X-27.8827 Y56.7800 
G01 X-27.9682 Y56.6520 
G01 X-28.0770 Y56.5432 
G01 X-28.2050 Y56.4577 
G01 X-28.3471 Y56.3988 
G01 X-28.4981 Y56.3688 
G01 X-28.6519 Y56.3688 
G01 X-28.8029 Y56.3988 
G01 X-28.9450 Y56.4577 
G01 X-28.9667 Y56.4722 
G01 X-29.6254 Y55.8135 
G01 X-29.7062 Y55.7800 
G01 X-41.5438 Y55.7800 
G01 X-41.6246 Y55.8135 
G01 X-41.6865 Y55.8754 
G01 X-42.2413 Y56.4302 
G01 X-42.3171 Y56.3988 
G01 X-42.4681 Y56.3688 
G01 X-42.6219 Y56.3688 
G01 X-42.7729 Y56.3988 
G01 X-42.9150 Y56.4577 
G01 X-43.0430 Y56.5432 
G01 X-43.1518 Y56.6520 
G01 X-43.2373 Y56.7800 
G01 X-46.9089 Y56.7800 
G01 X-56.3092 Y47.3797 
G01 X-56.2799 Y47.3504 
G01 X-56.2799 Y46.6296 
G01 X-56.7896 Y46.1199 
G01 X-57.5104 Y46.1199 
G01 X-58.0201 Y46.6296 
G01 X-58.0201 Y47.3504 
G01 X-57.5104 Y47.8601 
G01 X-56.7896 Y47.8601 
G01 X-56.6203 Y47.6908 
G01 X-47.1865 Y57.1246 
G01 X-47.1246 Y57.1865 
G01 X-47.0438 Y57.2200 
G01 X-43.3262 Y57.2200 
G01 X-43.3262 Y57.2269 
G00 Z2.0000 
G00 X-44.5962 Y59.7669 
G01 Z-0.1000 F254.00 
G01 X-44.5662 Y59.9179 F508.00 
G01 X-44.5073 Y60.0600 
G01 X-44.4218 Y60.1880 
G01 X-44.3130 Y60.2968 
G01 X-44.1850 Y60.3823 
G01 X-44.0429 Y60.4412 
G01 X-43.8919 Y60.4712 
G01 X-43.7381 Y60.4712 
G01 X-43.5871 Y60.4412 
G01 X-43.4450 Y60.3823 
G01 X-43.3170 Y60.2968 
G01 X-43.2082 Y60.1880 
G01 X-43.1227 Y60.0600 
G01 X-43.0638 Y59.9179 
G01 X-43.0338 Y59.7669 
G01 X-43.0338 Y59.6131 
G01 X-43.0638 Y59.4621 
G01 X-43.1227 Y59.3200 
G01 X-43.2082 Y59.1920 
G01 X-43.3170 Y59.0832 
G01 X-43.4450 Y58.9977 
G01 X-43.5871 Y58.9388 
G01 X-43.7381 Y58.9088 
G01 X-43.8919 Y58.9088 
G01 X-44.0429 Y58.9388 
G01 X-44.1850 Y58.9977 
G01 X-44.3130 Y59.0832 
G01 X-44.4218 Y59.1920 
G01 X-44.4806 Y59.2800 
G01 X-47.1589 Y59.2800 
G01 X-56.4142 Y50.0247 
G01 X-56.2799 Y49.8904 
G01 X-56.2799 Y49.1696 
G01 X-56.7896 Y48.6599 
G01 X-57.5104 Y48.6599 
G01 X-58.0201 Y49.1696 
G01 X-58.0201 Y49.8904 
G01 X-57.5104 Y50.4001 
G01 X-56.7896 Y50.4001 
G01 X-56.7253 Y50.3358 
G01 X-47.4365 Y59.6246 
G01 X-47.3746 Y59.6865 
G01 X-47.2938 Y59.7200 
G01 X-44.5962 Y59.7200 
G01 X-44.5962 Y59.7669 
G00 Z2.0000 
G00 X-79.3939 Y66.1318 
G01 Z-0.1000 F254.00 
G01 X-79.3939 Y63.4082 F508.00 
G01 X-79.4266 Y63.2019 
G01 X-79.4911 Y63.0032 
G01 X-79.5860 Y62.8170 
G01 X-79.7088 Y62.6480 
G01 X-79.8565 Y62.5003 
G01 X-80.0255 Y62.3775 
G01 X-80.2117 Y62.2826 
G01 X-80.4104 Y62.2181 
G01 X-80.6167 Y62.1854 
G01 X-80.8257 Y62.1854 
G01 X-81.0320 Y62.2181 
G01 X-81.2307 Y62.2826 
G01 X-81.4169 Y62.3775 
G01 X-81.5859 Y62.5003 
G01 X-81.7336 Y62.6480 
G01 X-81.8564 Y62.8170 
G01 X-81.9513 Y63.0032 
G01 X-82.0158 Y63.2019 
G01 X-82.0485 Y63.4082 
G01 X-82.0485 Y66.1318 
G01 X-82.0158 Y66.3381 
G01 X-81.9513 Y66.5368 
G01 X-81.8564 Y66.7230 
G01 X-81.7336 Y66.8920 
G01 X-81.5859 Y67.0397 
G01 X-81.4169 Y67.1625 
G01 X-81.2307 Y67.2574 
G01 X-81.0320 Y67.3219 
G01 X-80.8257 Y67.3546 
G01 X-80.6167 Y67.3546 
G01 X-80.4104 Y67.3219 
G01 X-80.2117 Y67.2574 
G01 X-80.0255 Y67.1625 
G01 X-79.8565 Y67.0397 
G01 X-79.7088 Y66.8920 
G01 X-79.5860 Y66.7230 
G01 X-79.4911 Y66.5368 
G01 X-79.4266 Y66.3381 
G01 X-79.3939 Y66.1318 
G00 Z2.0000 
G00 X-1.6123 Y58.7818 
G01 Z-0.1000 F254.00 
G01 X-3.4677 Y58.7818 F508.00 
G01 X-3.6431 Y58.8167 
G01 X-3.8084 Y58.8852 
G01 X-3.9571 Y58.9846 
G01 X-4.0836 Y59.1111 
G01 X-4.1830 Y59.2598 
G01 X-4.2515 Y59.4251 
G01 X-4.2864 Y59.6005 
G01 X-4.2864 Y59.7795 
G01 X-4.2515 Y59.9549 
G01 X-4.1830 Y60.1202 
G01 X-4.0836 Y60.2689 
G01 X-3.9571 Y60.3954 
G01 X-3.8084 Y60.4948 
G01 X-3.6431 Y60.5633 
G01 X-3.4677 Y60.5982 
G01 X-1.6123 Y60.5982 
G01 X-1.4369 Y60.5633 
G01 X-1.2716 Y60.4948 
G01 X-1.1229 Y60.3954 
G01 X-0.9964 Y60.2689 
G01 X-0.8970 Y60.1202 
G01 X-0.8285 Y59.9549 
G01 X-0.7936 Y59.7795 
G01 X-0.7936 Y59.6005 
G01 X-0.8285 Y59.4251 
G01 X-0.8970 Y59.2598 
G01 X-0.9964 Y59.1111 
G01 X-1.1229 Y58.9846 
G01 X-1.2716 Y58.8852 
G01 X-1.4369 Y58.8167 
G01 X-1.6123 Y58.7818 
G00 Z2.0000 
G00 X-1.6123 Y54.9718 
G01 Z-0.1000 F254.00 
G01 X-3.4677 Y54.9718 F508.00 
G01 X-3.6431 Y55.0067 
G01 X-3.8084 Y55.0752 
G01 X-3.9571 Y55.1746 
G01 X-4.0836 Y55.3011 
G01 X-4.1830 Y55.4498 
G01 X-4.2515 Y55.6151 
G01 X-4.2864 Y55.7905 
G01 X-4.2864 Y55.9695 
G01 X-4.2515 Y56.1449 
G01 X-4.1830 Y56.3102 
G01 X-4.0836 Y56.4589 
G01 X-3.9571 Y56.5854 
G01 X-3.8084 Y56.6848 
G01 X-3.7642 Y56.7031 
G01 X-5.8411 Y58.7800 
G01 X-11.8027 Y58.7800 
G01 X-11.8838 Y58.6209 
G01 X-11.9913 Y58.4729 
G01 X-12.1207 Y58.3435 
G01 X-12.2687 Y58.2360 
G01 X-12.4317 Y58.1529 
G01 X-12.6057 Y58.0964 
G01 X-12.7863 Y58.0678 
G01 X-15.1537 Y58.0678 
G01 X-15.3343 Y58.0964 
G01 X-15.5083 Y58.1529 
G01 X-15.6713 Y58.2360 
G01 X-15.8193 Y58.3435 
G01 X-15.9487 Y58.4729 
G01 X-16.0562 Y58.6209 
G01 X-16.1393 Y58.7839 
G01 X-16.1958 Y58.9579 
G01 X-16.2244 Y59.1385 
G01 X-16.2244 Y59.3215 
G01 X-16.1958 Y59.5021 
G01 X-16.1393 Y59.6761 
G01 X-16.0562 Y59.8391 
G01 X-15.9487 Y59.9871 
G01 X-15.8193 Y60.1165 
G01 X-15.6713 Y60.2240 
G01 X-15.5083 Y60.3071 
G01 X-15.3343 Y60.3636 
G01 X-15.1537 Y60.3922 
G01 X-12.7863 Y60.3922 
G01 X-12.6057 Y60.3636 
G01 X-12.4317 Y60.3071 
G01 X-12.2687 Y60.2240 
G01 X-12.1207 Y60.1165 
G01 X-11.9913 Y59.9871 
G01 X-11.8838 Y59.8391 
G01 X-11.8007 Y59.6761 
G01 X-11.7442 Y59.5021 
G01 X-11.7156 Y59.3215 
G01 X-11.7156 Y59.2200 
G01 X-5.7062 Y59.2200 
G01 X-5.6254 Y59.1865 
G01 X-5.5635 Y59.1246 
G01 X-3.2271 Y56.7882 
G01 X-1.6123 Y56.7882 
G01 X-1.4369 Y56.7533 
G01 X-1.2716 Y56.6848 
G01 X-1.1229 Y56.5854 
G01 X-0.9964 Y56.4589 
G01 X-0.8970 Y56.3102 
G01 X-0.8285 Y56.1449 
G01 X-0.7936 Y55.9695 
G01 X-0.7936 Y55.7905 
G01 X-0.8285 Y55.6151 
G01 X-0.8970 Y55.4498 
G01 X-0.9964 Y55.3011 
G01 X-1.1229 Y55.1746 
G01 X-1.2716 Y55.0752 
G01 X-1.4369 Y55.0067 
G01 X-1.6123 Y54.9718 
G00 Z2.0000 
G00 X-1.6123 Y51.1618 
G01 Z-0.1000 F254.00 
G01 X-3.4677 Y51.1618 F508.00 
G01 X-3.6431 Y51.1967 
G01 X-3.8084 Y51.2652 
G01 X-3.9571 Y51.3646 
G01 X-4.0836 Y51.4911 
G01 X-4.1830 Y51.6398 
G01 X-4.2515 Y51.8051 
G01 X-4.2864 Y51.9805 
G01 X-4.2864 Y52.1594 
G01 X-4.2515 Y52.3349 
G01 X-4.1830 Y52.5002 
G01 X-4.0836 Y52.6489 
G01 X-3.9571 Y52.7754 
G01 X-3.8084 Y52.8748 
G01 X-3.6431 Y52.9433 
G01 X-3.4677 Y52.9782 
G01 X-1.6123 Y52.9782 
G01 X-1.4369 Y52.9433 
G01 X-1.2716 Y52.8748 
G01 X-1.1229 Y52.7754 
G01 X-0.9964 Y52.6489 
G01 X-0.8970 Y52.5002 
G01 X-0.8285 Y52.3349 
G01 X-0.7936 Y52.1594 
G01 X-0.7936 Y51.9805 
G01 X-0.8285 Y51.8051 
G01 X-0.8970 Y51.6398 
G01 X-0.9964 Y51.4911 
G01 X-1.1229 Y51.3646 
G01 X-1.2716 Y51.2652 
G01 X-1.4369 Y51.1967 
G01 X-1.6123 Y51.1618 
G00 Z2.0000 
G00 X-15.1537 Y66.3922 
G01 Z-0.1000 F254.00 
G01 X-12.7863 Y66.3922 F508.00 
G01 X-12.6057 Y66.3636 
G01 X-12.4317 Y66.3071 
G01 X-12.2687 Y66.2240 
G01 X-12.1207 Y66.1165 
G01 X-11.9913 Y65.9871 
G01 X-11.8838 Y65.8391 
G01 X-11.8007 Y65.6761 
G01 X-11.7442 Y65.5021 
G01 X-11.7156 Y65.3215 
G01 X-11.7156 Y65.1385 
G01 X-11.7442 Y64.9579 
G01 X-11.8007 Y64.7839 
G01 X-11.8838 Y64.6209 
G01 X-11.9913 Y64.4729 
G01 X-12.1207 Y64.3435 
G01 X-12.2687 Y64.2360 
G01 X-12.4317 Y64.1529 
G01 X-12.6057 Y64.0964 
G01 X-12.7863 Y64.0678 
G01 X-15.1537 Y64.0678 
G01 X-15.3343 Y64.0964 
G01 X-15.5083 Y64.1529 
G01 X-15.6713 Y64.2360 
G01 X-15.8193 Y64.3435 
G01 X-15.9487 Y64.4729 
G01 X-16.0562 Y64.6209 
G01 X-16.1393 Y64.7839 
G01 X-16.1958 Y64.9579 
G01 X-16.2244 Y65.1385 
G01 X-16.2244 Y65.3215 
G01 X-16.1958 Y65.5021 
G01 X-16.1393 Y65.6761 
G01 X-16.0562 Y65.8391 
G01 X-15.9487 Y65.9871 
G01 X-15.8193 Y66.1165 
G01 X-15.6713 Y66.2240 
G01 X-15.5083 Y66.3071 
G01 X-15.3343 Y66.3636 
G01 X-15.1537 Y66.3922 
G00 Z2.0000 
G00 X-10.3322 Y61.0463 
G01 Z-0.1000 F254.00 
G01 X-10.3322 Y63.4137 F508.00 
G01 X-10.3036 Y63.5943 
G01 X-10.2470 Y63.7683 
G01 X-10.1640 Y63.9313 
G01 X-10.0565 Y64.0793 
G01 X-9.9271 Y64.2087 
G01 X-9.7791 Y64.3162 
G01 X-9.6161 Y64.3993 
G01 X-9.4421 Y64.4558 
G01 X-9.2615 Y64.4844 
G01 X-9.0785 Y64.4844 
G01 X-8.8979 Y64.4558 
G01 X-8.7239 Y64.3993 
G01 X-8.5609 Y64.3162 
G01 X-8.4129 Y64.2087 
G01 X-8.2835 Y64.0793 
G01 X-8.1760 Y63.9313 
G01 X-8.0929 Y63.7683 
G01 X-8.0364 Y63.5943 
G01 X-8.0078 Y63.4137 
G01 X-8.0078 Y61.0463 
G01 X-8.0364 Y60.8657 
G01 X-8.0929 Y60.6917 
G01 X-8.1760 Y60.5287 
G01 X-8.2835 Y60.3807 
G01 X-8.4129 Y60.2513 
G01 X-8.5609 Y60.1438 
G01 X-8.7239 Y60.0607 
G01 X-8.8979 Y60.0042 
G01 X-9.0785 Y59.9756 
G01 X-9.2615 Y59.9756 
G01 X-9.4421 Y60.0042 
G01 X-9.6161 Y60.0607 
G01 X-9.7791 Y60.1438 
G01 X-9.9271 Y60.2513 
G01 X-10.0565 Y60.3807 
G01 X-10.1640 Y60.5287 
G01 X-10.2470 Y60.6917 
G01 X-10.3036 Y60.8657 
G01 X-10.3322 Y61.0463 
G00 Z2.0000 
G00 X-20.3135 Y44.3754 
G01 Z-0.1000 F254.00 
G01 X-20.3754 Y44.3135 F508.00 
G01 X-20.4562 Y44.2800 
G01 X-35.4606 Y44.2800 
G01 X-35.4614 Y44.2769 
G01 X-35.5375 Y44.1451 
G01 X-35.6451 Y44.0375 
G01 X-35.7769 Y43.9614 
G01 X-35.9239 Y43.9220 
G01 X-36.0761 Y43.9220 
G01 X-36.2231 Y43.9614 
G01 X-36.3549 Y44.0375 
G01 X-36.4625 Y44.1451 
G01 X-36.5386 Y44.2769 
G01 X-36.5394 Y44.2800 
G01 X-56.2799 Y44.2800 
G01 X-56.2799 Y44.0896 
G01 X-56.7896 Y43.5799 
G01 X-57.5104 Y43.5799 
G01 X-58.0201 Y44.0896 
G01 X-58.0201 Y44.8104 
G01 X-57.5104 Y45.3201 
G01 X-56.7896 Y45.3201 
G01 X-56.2799 Y44.8104 
G01 X-56.2799 Y44.7200 
G01 X-36.5394 Y44.7200 
G01 X-36.5386 Y44.7231 
G01 X-36.4625 Y44.8549 
G01 X-36.3549 Y44.9625 
G01 X-36.2231 Y45.0386 
G01 X-36.0761 Y45.0780 
G01 X-35.9239 Y45.0780 
G01 X-35.7769 Y45.0386 
G01 X-35.6451 Y44.9625 
G01 X-35.5375 Y44.8549 
G01 X-35.4614 Y44.7231 
G01 X-35.4606 Y44.7200 
G01 X-20.5911 Y44.7200 
G01 X-20.0370 Y45.2741 
G01 X-20.0386 Y45.2769 
G01 X-20.0780 Y45.4239 
G01 X-20.0780 Y45.5761 
G01 X-20.0386 Y45.7231 
G01 X-19.9625 Y45.8549 
G01 X-19.8549 Y45.9625 
G01 X-19.7231 Y46.0386 
G01 X-19.5761 Y46.0780 
G01 X-19.4239 Y46.0780 
G01 X-19.2769 Y46.0386 
G01 X-19.1451 Y45.9625 
G01 X-19.0375 Y45.8549 
G01 X-18.9614 Y45.7231 
G01 X-18.9220 Y45.5761 
G01 X-18.9220 Y45.4239 
G01 X-18.9614 Y45.2769 
G01 X-19.0375 Y45.1451 
G01 X-19.1451 Y45.0375 
G01 X-19.2769 Y44.9614 
G01 X-19.4239 Y44.9220 
G01 X-19.5761 Y44.9220 
G01 X-19.7231 Y44.9614 
G01 X-19.7259 Y44.9630 
G01 X-20.3135 Y44.3754 
G00 Z2.0000 
G00 X-5.9880 Y65.8972 
G01 Z-0.1000 F254.00 
G01 X-5.9880 Y66.1828 F508.00 
G01 X-5.9507 Y66.4658 
G01 X-5.8768 Y66.7416 
G01 X-5.7676 Y67.0054 
G01 X-5.6248 Y67.2526 
G01 X-5.4510 Y67.4791 
G01 X-5.2491 Y67.6810 
G01 X-5.0226 Y67.8548 
G01 X-4.7754 Y67.9976 
G01 X-4.5116 Y68.1068 
G01 X-4.2358 Y68.1807 
G01 X-3.9528 Y68.2180 
G01 X-3.6672 Y68.2180 
G01 X-3.3842 Y68.1807 
G01 X-3.1084 Y68.1068 
G01 X-2.8446 Y67.9976 
G01 X-2.5974 Y67.8548 
G01 X-2.3709 Y67.6810 
G01 X-2.1690 Y67.4791 
G01 X-1.9952 Y67.2526 
G01 X-1.8524 Y67.0054 
G01 X-1.7432 Y66.7416 
G01 X-1.6693 Y66.4658 
G01 X-1.6320 Y66.1828 
G01 X-1.6320 Y65.8972 
G01 X-1.6693 Y65.6142 
G01 X-1.7432 Y65.3384 
G01 X-1.8524 Y65.0746 
G01 X-1.9952 Y64.8274 
G01 X-2.1690 Y64.6009 
G01 X-2.3709 Y64.3990 
G01 X-2.5974 Y64.2252 
G01 X-2.8446 Y64.0824 
G01 X-3.1084 Y63.9732 
G01 X-3.3842 Y63.8993 
G01 X-3.6672 Y63.8620 
G01 X-3.9528 Y63.8620 
G01 X-4.2358 Y63.8993 
G01 X-4.5116 Y63.9732 
G01 X-4.7754 Y64.0824 
G01 X-5.0226 Y64.2252 
G01 X-5.2491 Y64.3990 
G01 X-5.4510 Y64.6009 
G01 X-5.6248 Y64.8274 
G01 X-5.7676 Y65.0746 
G01 X-5.8768 Y65.3384 
G01 X-5.9507 Y65.6142 
G01 X-5.9880 Y65.8972 
G00 Z2.0000 
G00 X-5.9880 Y3.6672 
G01 Z-0.1000 F254.00 
G01 X-5.9880 Y3.9528 F508.00 
G01 X-5.9507 Y4.2358 
G01 X-5.8768 Y4.5116 
G01 X-5.7676 Y4.7754 
G01 X-5.6248 Y5.0226 
G01 X-5.4510 Y5.2491 
G01 X-5.2491 Y5.4510 
G01 X-5.0226 Y5.6248 
G01 X-4.7754 Y5.7676 
G01 X-4.5116 Y5.8768 
G01 X-4.2358 Y5.9507 
G01 X-3.9528 Y5.9880 
G01 X-3.6672 Y5.9880 
G01 X-3.3842 Y5.9507 
G01 X-3.1084 Y5.8768 
G01 X-2.8446 Y5.7676 
G01 X-2.5974 Y5.6248 
G01 X-2.3709 Y5.4510 
G01 X-2.1690 Y5.2491 
G01 X-1.9952 Y5.0226 
G01 X-1.8524 Y4.7754 
G01 X-1.7432 Y4.5116 
G01 X-1.6693 Y4.2358 
G01 X-1.6320 Y3.9528 
G01 X-1.6320 Y3.6672 
G01 X-1.6693 Y3.3842 
G01 X-1.7432 Y3.1084 
G01 X-1.8524 Y2.8446 
G01 X-1.9952 Y2.5974 
G01 X-2.1690 Y2.3709 
G01 X-2.3709 Y2.1690 
G01 X-2.5974 Y1.9952 
G01 X-2.8446 Y1.8524 
G01 X-3.1084 Y1.7432 
G01 X-3.3842 Y1.6693 
G01 X-3.6672 Y1.6320 
G01 X-3.9528 Y1.6320 
G01 X-4.2358 Y1.6693 
G01 X-4.5116 Y1.7432 
G01 X-4.7754 Y1.8524 
G01 X-5.0226 Y1.9952 
G01 X-5.2491 Y2.1690 
G01 X-5.4510 Y2.3709 
G01 X-5.6248 Y2.5974 
G01 X-5.7676 Y2.8446 
G01 X-5.8768 Y3.1084 
G01 X-5.9507 Y3.3842 
G01 X-5.9880 Y3.6672 
G00 Z2.0000 
G00 X-97.4280 Y65.8972 
G01 Z-0.1000 F254.00 
G01 X-97.4280 Y66.1828 F508.00 
G01 X-97.3907 Y66.4658 
G01 X-97.3168 Y66.7416 
G01 X-97.2076 Y67.0054 
G01 X-97.0648 Y67.2526 
G01 X-96.8910 Y67.4791 
G01 X-96.6891 Y67.6810 
G01 X-96.4626 Y67.8548 
G01 X-96.2154 Y67.9976 
G01 X-95.9516 Y68.1068 
G01 X-95.6758 Y68.1807 
G01 X-95.3928 Y68.2180 
G01 X-95.1072 Y68.2180 
G01 X-94.8242 Y68.1807 
G01 X-94.5484 Y68.1068 
G01 X-94.2846 Y67.9976 
G01 X-94.0374 Y67.8548 
G01 X-93.8109 Y67.6810 
G01 X-93.6090 Y67.4791 
G01 X-93.4352 Y67.2526 
G01 X-93.2924 Y67.0054 
G01 X-93.1832 Y66.7416 
G01 X-93.1093 Y66.4658 
G01 X-93.0720 Y66.1828 
G01 X-93.0720 Y65.8972 
G01 X-93.1093 Y65.6142 
G01 X-93.1832 Y65.3384 
G01 X-93.2924 Y65.0746 
G01 X-93.4352 Y64.8274 
G01 X-93.6090 Y64.6009 
G01 X-93.8109 Y64.3990 
G01 X-94.0374 Y64.2252 
G01 X-94.2846 Y64.0824 
G01 X-94.5484 Y63.9732 
G01 X-94.8242 Y63.8993 
G01 X-95.1072 Y63.8620 
G01 X-95.3928 Y63.8620 
G01 X-95.6758 Y63.8993 
G01 X-95.9516 Y63.9732 
G01 X-96.2154 Y64.0824 
G01 X-96.4626 Y64.2252 
G01 X-96.6891 Y64.3990 
G01 X-96.8910 Y64.6009 
G01 X-97.0648 Y64.8274 
G01 X-97.2076 Y65.0746 
G01 X-97.3168 Y65.3384 
G01 X-97.3907 Y65.6142 
G01 X-97.4280 Y65.8972 
G00 Z2.0000 
G00 X-97.4280 Y3.6672 
G01 Z-0.1000 F254.00 
G01 X-97.4280 Y3.9528 F508.00 
G01 X-97.3907 Y4.2358 
G01 X-97.3168 Y4.5116 
G01 X-97.2076 Y4.7754 
G01 X-97.0648 Y5.0226 
G01 X-96.8910 Y5.2491 
G01 X-96.6891 Y5.4510 
G01 X-96.4626 Y5.6248 
G01 X-96.2154 Y5.7676 
G01 X-95.9516 Y5.8768 
G01 X-95.6758 Y5.9507 
G01 X-95.3928 Y5.9880 
G01 X-95.1072 Y5.9880 
G01 X-94.8242 Y5.9507 
G01 X-94.5484 Y5.8768 
G01 X-94.2846 Y5.7676 
G01 X-94.0374 Y5.6248 
G01 X-93.8109 Y5.4510 
G01 X-93.6090 Y5.2491 
G01 X-93.4352 Y5.0226 
G01 X-93.2924 Y4.7754 
G01 X-93.1832 Y4.5116 
G01 X-93.1093 Y4.2358 
G01 X-93.0720 Y3.9528 
G01 X-93.0720 Y3.6672 
G01 X-93.1093 Y3.3842 
G01 X-93.1832 Y3.1084 
G01 X-93.2924 Y2.8446 
G01 X-93.4352 Y2.5974 
G01 X-93.6090 Y2.3709 
G01 X-93.8109 Y2.1690 
G01 X-94.0374 Y1.9952 
G01 X-94.2846 Y1.8524 
G01 X-94.5484 Y1.7432 
G01 X-94.8242 Y1.6693 
G01 X-95.1072 Y1.6320 
G01 X-95.3928 Y1.6320 
G01 X-95.6758 Y1.6693 
G01 X-95.9516 Y1.7432 
G01 X-96.2154 Y1.8524 
G01 X-96.4626 Y1.9952 
G01 X-96.6891 Y2.1690 
G01 X-96.8910 Y2.3709 
G01 X-97.0648 Y2.5974 
G01 X-97.2076 Y2.8446 
G01 X-97.3168 Y3.1084 
G01 X-97.3907 Y3.3842 
G01 X-97.4280 Y3.6672 
G00 Z2.0000 
G00 X-64.0911 Y42.7800 
G01 Z-0.1000 F254.00 
G01 X-70.8946 Y42.7800 F508.00 
G01 X-70.9817 Y42.6496 
G01 X-71.0976 Y42.5337 
G01 X-71.2339 Y42.4427 
G01 X-71.3853 Y42.3800 
G01 X-71.5461 Y42.3480 
G01 X-73.2339 Y42.3480 
G01 X-73.3947 Y42.3800 
G01 X-73.5461 Y42.4427 
G01 X-73.6824 Y42.5337 
G01 X-73.7983 Y42.6496 
G01 X-73.8893 Y42.7859 
G01 X-73.9520 Y42.9373 
G01 X-73.9840 Y43.0981 
G01 X-73.9840 Y43.2619 
G01 X-73.9520 Y43.4227 
G01 X-73.8893 Y43.5741 
G01 X-73.7983 Y43.7104 
G01 X-73.6824 Y43.8263 
G01 X-73.5461 Y43.9173 
G01 X-73.3947 Y43.9800 
G01 X-73.2339 Y44.0120 
G01 X-71.5461 Y44.0120 
G01 X-71.3853 Y43.9800 
G01 X-71.2339 Y43.9173 
G01 X-71.0976 Y43.8263 
G01 X-70.9817 Y43.7104 
G01 X-70.8907 Y43.5741 
G01 X-70.8280 Y43.4227 
G01 X-70.7960 Y43.2619 
G01 X-70.7960 Y43.2200 
G01 X-63.9562 Y43.2200 
G01 X-63.8754 Y43.1865 
G01 X-63.8135 Y43.1246 
G01 X-62.7259 Y42.0370 
G01 X-62.7231 Y42.0386 
G01 X-62.5761 Y42.0780 
G01 X-62.4239 Y42.0780 
G01 X-62.2769 Y42.0386 
G01 X-62.1451 Y41.9625 
G01 X-62.0375 Y41.8549 
G01 X-61.9614 Y41.7231 
G01 X-61.9220 Y41.5761 
G01 X-61.9220 Y41.4239 
G01 X-61.9614 Y41.2769 
G01 X-62.0375 Y41.1451 
G01 X-62.1451 Y41.0375 
G01 X-62.2769 Y40.9614 
G01 X-62.4239 Y40.9220 
G01 X-62.5761 Y40.9220 
G01 X-62.7231 Y40.9614 
G01 X-62.8549 Y41.0375 
G01 X-62.9625 Y41.1451 
G01 X-63.0386 Y41.2769 
G01 X-63.0780 Y41.4239 
G01 X-63.0780 Y41.5761 
G01 X-63.0386 Y41.7231 
G01 X-63.0370 Y41.7259 
G01 X-64.0911 Y42.7800 
G00 Z2.0000 
G00 X-45.3135 Y17.8754 
G01 Z-0.1000 F254.00 
G01 X-45.3754 Y17.8135 F508.00 
G01 X-45.4562 Y17.7800 
G01 X-70.7960 Y17.7800 
G01 X-70.7960 Y17.6981 
G01 X-70.8280 Y17.5373 
G01 X-70.8907 Y17.3859 
G01 X-70.9817 Y17.2496 
G01 X-71.0976 Y17.1337 
G01 X-71.2339 Y17.0427 
G01 X-71.3853 Y16.9800 
G01 X-71.5461 Y16.9480 
G01 X-73.2339 Y16.9480 
G01 X-73.3947 Y16.9800 
G01 X-73.5461 Y17.0427 
G01 X-73.6824 Y17.1337 
G01 X-73.7983 Y17.2496 
G01 X-73.8893 Y17.3859 
G01 X-73.9520 Y17.5373 
G01 X-73.9840 Y17.6981 
G01 X-73.9840 Y17.8619 
G01 X-73.9520 Y18.0227 
G01 X-73.8893 Y18.1741 
G01 X-73.7983 Y18.3104 
G01 X-73.6824 Y18.4263 
G01 X-73.5461 Y18.5173 
G01 X-73.3947 Y18.5800 
G01 X-73.2339 Y18.6120 
G01 X-71.5461 Y18.6120 
G01 X-71.3853 Y18.5800 
G01 X-71.2339 Y18.5173 
G01 X-71.0976 Y18.4263 
G01 X-70.9817 Y18.3104 
G01 X-70.9214 Y18.2200 
G01 X-45.5911 Y18.2200 
G01 X-42.7870 Y21.0241 
G01 X-42.7886 Y21.0269 
G01 X-42.8280 Y21.1739 
G01 X-42.8280 Y21.3261 
G01 X-42.7886 Y21.4731 
G01 X-42.7125 Y21.6049 
G01 X-42.6049 Y21.7125 
G01 X-42.4731 Y21.7886 
G01 X-42.3261 Y21.8280 
G01 X-42.1739 Y21.8280 
G01 X-42.0269 Y21.7886 
G01 X-41.8951 Y21.7125 
G01 X-41.7875 Y21.6049 
G01 X-41.7114 Y21.4731 
G01 X-41.6720 Y21.3261 
G01 X-41.6720 Y21.1739 
G01 X-41.7114 Y21.0269 
G01 X-41.7875 Y20.8951 
G01 X-41.8951 Y20.7875 
G01 X-42.0269 Y20.7114 
G01 X-42.1739 Y20.6720 
G01 X-42.3261 Y20.6720 
G01 X-42.4731 Y20.7114 
G01 X-42.4759 Y20.7130 
G01 X-45.3135 Y17.8754 
G00 Z2.0000 
G00 X-71.5360 Y22.0300 
G01 Z-0.1000 F254.00 
G01 X-71.5461 Y22.0280 F508.00 
G01 X-73.2339 Y22.0280 
G01 X-73.3947 Y22.0600 
G01 X-73.5461 Y22.1227 
G01 X-73.6824 Y22.2137 
G01 X-73.7983 Y22.3296 
G01 X-73.8893 Y22.4659 
G01 X-73.9520 Y22.6173 
G01 X-73.9840 Y22.7781 
G01 X-73.9840 Y22.9419 
G01 X-73.9520 Y23.1027 
G01 X-73.8893 Y23.2541 
G01 X-73.7983 Y23.3904 
G01 X-73.6824 Y23.5063 
G01 X-73.5461 Y23.5973 
G01 X-73.3947 Y23.6600 
G01 X-73.2339 Y23.6920 
G01 X-71.5461 Y23.6920 
G01 X-71.3853 Y23.6600 
G01 X-71.2339 Y23.5973 
G01 X-71.0976 Y23.5063 
G01 X-70.9817 Y23.3904 
G01 X-70.8907 Y23.2541 
G01 X-70.8280 Y23.1027 
G01 X-70.7960 Y22.9419 
G01 X-70.7960 Y22.7781 
G01 X-70.8280 Y22.6173 
G01 X-70.8890 Y22.4700 
G01 X-39.3419 Y22.4700 
G01 X-39.2231 Y22.5386 
G01 X-39.0761 Y22.5780 
G01 X-38.9239 Y22.5780 
G01 X-38.7769 Y22.5386 
G01 X-38.6451 Y22.4625 
G01 X-38.5375 Y22.3549 
G01 X-38.4614 Y22.2231 
G01 X-38.4220 Y22.0761 
G01 X-38.4220 Y21.9239 
G01 X-38.4614 Y21.7769 
G01 X-38.5375 Y21.6451 
G01 X-38.6451 Y21.5375 
G01 X-38.7769 Y21.4614 
G01 X-38.9239 Y21.4220 
G01 X-39.0761 Y21.4220 
G01 X-39.2231 Y21.4614 
G01 X-39.3549 Y21.5375 
G01 X-39.4625 Y21.6451 
G01 X-39.5386 Y21.7769 
G01 X-39.5780 Y21.9239 
G01 X-39.5780 Y22.0300 
G01 X-71.5360 Y22.0300 
G00 Z2.0000 
G00 X-71.3825 Y34.5700 
G01 Z-0.1000 F254.00 
G01 X-71.2411 Y34.7115 F508.00 
G01 X-71.3561 Y34.6638 
G01 X-71.5362 Y34.6280 
G01 X-73.2438 Y34.6280 
G01 X-73.4239 Y34.6638 
G01 X-73.4877 Y34.6903 
G01 X-73.3675 Y34.5700 
G01 X-71.3825 Y34.5700 
G00 Z2.0000 
G00 X-63.1067 Y34.4163 
G01 Z-0.1000 F254.00 
G01 X-62.9707 Y34.3254 F508.00 
G01 X-62.8550 Y34.2097 
G01 X-62.7641 Y34.0737 
G01 X-62.7015 Y33.9226 
G01 X-62.6696 Y33.7622 
G01 X-62.6696 Y32.2778 
G01 X-62.7015 Y32.1174 
G01 X-62.7641 Y31.9663 
G01 X-62.8550 Y31.8303 
G01 X-62.9707 Y31.7146 
G01 X-63.1067 Y31.6237 
G01 X-63.2363 Y31.5700 
G01 X-61.2237 Y31.5700 
G01 X-61.3533 Y31.6237 
G01 X-61.4893 Y31.7146 
G01 X-61.6050 Y31.8303 
G01 X-61.6959 Y31.9663 
G01 X-61.7585 Y32.1174 
G01 X-61.7904 Y32.2778 
G01 X-61.7904 Y33.7622 
G01 X-61.7585 Y33.9226 
G01 X-61.6959 Y34.0737 
G01 X-61.6050 Y34.2097 
G01 X-61.4893 Y34.3254 
G01 X-61.3533 Y34.4163 
G01 X-61.3202 Y34.4300 
G01 X-63.1398 Y34.4300 
G01 X-63.1067 Y34.4163 
G00 Z2.0000 
G00 X-60.5667 Y34.4163 
G01 Z-0.1000 F254.00 
G01 X-60.4306 Y34.3254 F508.00 
G01 X-60.3150 Y34.2097 
G01 X-60.2241 Y34.0737 
G01 X-60.1615 Y33.9226 
G01 X-60.1296 Y33.7622 
G01 X-60.1296 Y32.2778 
G01 X-60.1615 Y32.1174 
G01 X-60.2241 Y31.9663 
G01 X-60.3150 Y31.8303 
G01 X-60.4306 Y31.7146 
G01 X-60.5667 Y31.6237 
G01 X-60.6963 Y31.5700 
G01 X-58.6837 Y31.5700 
G01 X-58.8133 Y31.6237 
G01 X-58.9493 Y31.7146 
G01 X-59.0650 Y31.8303 
G01 X-59.1559 Y31.9663 
G01 X-59.2185 Y32.1174 
G01 X-59.2504 Y32.2778 
G01 X-59.2504 Y33.7622 
G01 X-59.2185 Y33.9226 
G01 X-59.1559 Y34.0737 
G01 X-59.0650 Y34.2097 
G01 X-58.9493 Y34.3254 
G01 X-58.8133 Y34.4163 
G01 X-58.7802 Y34.4300 
G01 X-60.5998 Y34.4300 
G01 X-60.5667 Y34.4163 
G00 Z2.0000 
G00 X-58.0267 Y34.4163 
G01 Z-0.1000 F254.00 
G01 X-57.8907 Y34.3254 F508.00 
G01 X-57.7750 Y34.2097 
G01 X-57.6841 Y34.0737 
G01 X-57.6215 Y33.9226 
G01 X-57.5896 Y33.7622 
G01 X-57.5896 Y32.2778 
G01 X-57.6215 Y32.1174 
G01 X-57.6841 Y31.9663 
G01 X-57.7750 Y31.8303 
G01 X-57.8907 Y31.7146 
G01 X-58.0267 Y31.6237 
G01 X-58.1563 Y31.5700 
G01 X-56.1437 Y31.5700 
G01 X-56.2733 Y31.6237 
G01 X-56.4093 Y31.7146 
G01 X-56.5250 Y31.8303 
G01 X-56.6159 Y31.9663 
G01 X-56.6785 Y32.1174 
G01 X-56.7104 Y32.2778 
G01 X-56.7104 Y33.7622 
G01 X-56.6785 Y33.9226 
G01 X-56.6159 Y34.0737 
G01 X-56.5250 Y34.2097 
G01 X-56.4093 Y34.3254 
G01 X-56.2733 Y34.4163 
G01 X-56.2402 Y34.4300 
G01 X-58.0598 Y34.4300 
G01 X-58.0267 Y34.4163 
G00 Z2.0000 
G00 X-55.4867 Y34.4163 
G01 Z-0.1000 F254.00 
G01 X-55.3507 Y34.3254 F508.00 
G01 X-55.2350 Y34.2097 
G01 X-55.1441 Y34.0737 
G01 X-55.0815 Y33.9226 
G01 X-55.0496 Y33.7622 
G01 X-55.0496 Y32.2778 
G01 X-55.0815 Y32.1174 
G01 X-55.1441 Y31.9663 
G01 X-55.2350 Y31.8303 
G01 X-55.3507 Y31.7146 
G01 X-55.4867 Y31.6237 
G01 X-55.6163 Y31.5700 
G01 X-53.6037 Y31.5700 
G01 X-53.7333 Y31.6237 
G01 X-53.8693 Y31.7146 
G01 X-53.9850 Y31.8303 
G01 X-54.0759 Y31.9663 
G01 X-54.1385 Y32.1174 
G01 X-54.1704 Y32.2778 
G01 X-54.1704 Y33.7622 
G01 X-54.1385 Y33.9226 
G01 X-54.0759 Y34.0737 
G01 X-53.9850 Y34.2097 
G01 X-53.8693 Y34.3254 
G01 X-53.7333 Y34.4163 
G01 X-53.7002 Y34.4300 
G01 X-55.5198 Y34.4300 
G01 X-55.4867 Y34.4163 
G00 Z2.0000 
G00 X-52.9467 Y34.4163 
G01 Z-0.1000 F254.00 
G01 X-52.8107 Y34.3254 F508.00 
G01 X-52.6950 Y34.2097 
G01 X-52.6041 Y34.0737 
G01 X-52.5415 Y33.9226 
G01 X-52.5096 Y33.7622 
G01 X-52.5096 Y32.2778 
G01 X-52.5415 Y32.1174 
G01 X-52.6041 Y31.9663 
G01 X-52.6950 Y31.8303 
G01 X-52.8107 Y31.7146 
G01 X-52.9467 Y31.6237 
G01 X-53.0763 Y31.5700 
G01 X-51.0637 Y31.5700 
G01 X-51.1933 Y31.6237 
G01 X-51.3293 Y31.7146 
G01 X-51.4450 Y31.8303 
G01 X-51.5359 Y31.9663 
G01 X-51.5985 Y32.1174 
G01 X-51.6304 Y32.2778 
G01 X-51.6304 Y33.4278 
G01 X-52.6325 Y34.4300 
G01 X-52.9798 Y34.4300 
G01 X-52.9467 Y34.4163 
G00 Z2.0000 
G00 X-70.7318 Y35.2881 
G01 Z-0.1000 F254.00 
G01 X-70.8021 Y35.1185 F508.00 
G01 X-70.8437 Y35.0562 
G01 X-70.7921 Y35.0700 
G01 X-52.4579 Y35.0700 
G01 X-52.3765 Y35.0482 
G01 X-52.3035 Y35.0061 
G01 X-52.2439 Y34.9465 
G01 X-51.4699 Y34.1725 
G01 X-51.4450 Y34.2097 
G01 X-51.3293 Y34.3254 
G01 X-51.1933 Y34.4163 
G01 X-51.0422 Y34.4789 
G01 X-50.8818 Y34.5108 
G01 X-50.7182 Y34.5108 
G01 X-50.5578 Y34.4789 
G01 X-50.4067 Y34.4163 
G01 X-50.2707 Y34.3254 
G01 X-50.1550 Y34.2097 
G01 X-50.0641 Y34.0737 
G01 X-50.0015 Y33.9226 
G01 X-49.9696 Y33.7622 
G01 X-49.9696 Y32.2778 
G01 X-50.0015 Y32.1174 
G01 X-50.0641 Y31.9663 
G01 X-50.1550 Y31.8303 
G01 X-50.2707 Y31.7146 
G01 X-50.4067 Y31.6237 
G01 X-50.5363 Y31.5700 
G01 X-48.5237 Y31.5700 
G01 X-48.6533 Y31.6237 
G01 X-48.7893 Y31.7146 
G01 X-48.9050 Y31.8303 
G01 X-48.9959 Y31.9663 
G01 X-49.0585 Y32.1174 
G01 X-49.0904 Y32.2778 
G01 X-49.0904 Y33.7622 
G01 X-49.0585 Y33.9226 
G01 X-48.9959 Y34.0737 
G01 X-48.9050 Y34.2097 
G01 X-48.7893 Y34.3254 
G01 X-48.6533 Y34.4163 
G01 X-48.5022 Y34.4789 
G01 X-48.3418 Y34.5108 
G01 X-48.1782 Y34.5108 
G01 X-48.0178 Y34.4789 
G01 X-47.8667 Y34.4163 
G01 X-47.7307 Y34.3254 
G01 X-47.6150 Y34.2097 
G01 X-47.5241 Y34.0737 
G01 X-47.4615 Y33.9226 
G01 X-47.4296 Y33.7622 
G01 X-47.4296 Y32.2778 
G01 X-47.4615 Y32.1174 
G01 X-47.5241 Y31.9663 
G01 X-47.6150 Y31.8303 
G01 X-47.7307 Y31.7146 
G01 X-47.8667 Y31.6237 
G01 X-47.9963 Y31.5700 
G01 X-45.9837 Y31.5700 
G01 X-46.1133 Y31.6237 
G01 X-46.2493 Y31.7146 
G01 X-46.3650 Y31.8303 
G01 X-46.4559 Y31.9663 
G01 X-46.5185 Y32.1174 
G01 X-46.5504 Y32.2778 
G01 X-46.5504 Y33.7622 
G01 X-46.5185 Y33.9226 
G01 X-46.4559 Y34.0737 
G01 X-46.3867 Y34.1774 
G01 X-46.4288 Y34.1492 
G01 X-46.5522 Y34.0981 
G01 X-46.6832 Y34.0720 
G01 X-46.8168 Y34.0720 
G01 X-46.9478 Y34.0981 
G01 X-47.0712 Y34.1492 
G01 X-47.1822 Y34.2234 
G01 X-47.2766 Y34.3178 
G01 X-47.3508 Y34.4288 
G01 X-47.4019 Y34.5522 
G01 X-47.4280 Y34.6832 
G01 X-47.4280 Y34.8168 
G01 X-47.4019 Y34.9478 
G01 X-47.3508 Y35.0712 
G01 X-47.2766 Y35.1822 
G01 X-47.1822 Y35.2766 
G01 X-47.0712 Y35.3508 
G01 X-46.9478 Y35.4019 
G01 X-46.8168 Y35.4280 
G01 X-46.6832 Y35.4280 
G01 X-46.5522 Y35.4019 
G01 X-46.4288 Y35.3508 
G01 X-46.3178 Y35.2766 
G01 X-46.2234 Y35.1822 
G01 X-46.1492 Y35.0712 
G01 X-44.7079 Y35.0700 
G01 X-44.6265 Y35.0482 
G01 X-44.5535 Y35.0061 
G01 X-43.7911 Y34.2437 
G01 X-43.7093 Y34.3254 
G01 X-43.5733 Y34.4163 
G01 X-43.4222 Y34.4789 
G01 X-43.2618 Y34.5108 
G01 X-43.0982 Y34.5108 
G01 X-42.9378 Y34.4789 
G01 X-42.7867 Y34.4163 
G01 X-42.6506 Y34.3254 
G01 X-42.5350 Y34.2097 
G01 X-42.4441 Y34.0737 
G01 X-42.3815 Y33.9226 
G01 X-42.3496 Y33.7622 
G01 X-42.3496 Y32.2778 
G01 X-42.3815 Y32.1174 
G01 X-42.4441 Y31.9663 
G01 X-42.5350 Y31.8303 
G01 X-42.6506 Y31.7146 
G01 X-42.7867 Y31.6237 
G01 X-42.9163 Y31.5700 
G01 X-40.9037 Y31.5700 
G01 X-41.0333 Y31.6237 
G01 X-41.1693 Y31.7146 
G01 X-41.2850 Y31.8303 
G01 X-41.3759 Y31.9663 
G01 X-41.4385 Y32.1174 
G01 X-41.4704 Y32.2778 
G01 X-41.4704 Y33.7622 
G01 X-41.4385 Y33.9226 
G01 X-41.3759 Y34.0737 
G01 X-41.2850 Y34.2097 
G01 X-41.1693 Y34.3254 
G01 X-41.0333 Y34.4163 
G01 X-40.8822 Y34.4789 
G01 X-40.7218 Y34.5108 
G01 X-40.5582 Y34.5108 
G01 X-40.3978 Y34.4789 
G01 X-40.2467 Y34.4163 
G01 X-40.1106 Y34.3254 
G01 X-39.9950 Y34.2097 
G01 X-39.9041 Y34.0737 
G01 X-39.8415 Y33.9226 
G01 X-39.8096 Y33.7622 
G01 X-39.8096 Y32.2778 
G01 X-39.8415 Y32.1174 
G01 X-39.9041 Y31.9663 
G01 X-39.9950 Y31.8303 
G01 X-40.1106 Y31.7146 
G01 X-40.2467 Y31.6237 
G01 X-40.3763 Y31.5700 
G01 X-38.3637 Y31.5700 
G01 X-38.4933 Y31.6237 
G01 X-38.6293 Y31.7146 
G01 X-38.7450 Y31.8303 
G01 X-38.8359 Y31.9663 
G01 X-38.8985 Y32.1174 
G01 X-38.9304 Y32.2778 
G01 X-38.9304 Y33.4779 
G01 X-40.8825 Y35.4300 
G01 X-70.7036 Y35.4300 
G01 X-70.7318 Y35.2881 
G00 Z2.0000 
G00 X-44.1120 Y5.9338 
G01 Z-0.1000 F254.00 
G01 X-44.0762 Y6.1139 F508.00 
G01 X-44.0059 Y6.2835 
G01 X-43.9897 Y6.3078 
G01 X-44.7880 Y5.5095 
G01 X-44.7880 Y4.2262 
G01 X-44.8238 Y4.0461 
G01 X-44.8941 Y3.8765 
G01 X-44.9961 Y3.7239 
G01 X-45.1259 Y3.5941 
G01 X-45.2785 Y3.4921 
G01 X-45.4481 Y3.4218 
G01 X-45.6282 Y3.3860 
G01 X-45.8118 Y3.3860 
G01 X-45.9919 Y3.4218 
G01 X-46.1615 Y3.4921 
G01 X-46.3141 Y3.5941 
G01 X-46.4439 Y3.7239 
G01 X-46.5459 Y3.8765 
G01 X-46.6162 Y4.0461 
G01 X-46.6520 Y4.2262 
G01 X-46.6520 Y5.9338 
G01 X-46.6162 Y6.1139 
G01 X-46.5459 Y6.2835 
G01 X-46.4439 Y6.4361 
G01 X-46.3141 Y6.5659 
G01 X-46.1615 Y6.6679 
G01 X-45.9919 Y6.7382 
G01 X-45.8118 Y6.7740 
G01 X-45.6282 Y6.7740 
G01 X-45.4481 Y6.7382 
G01 X-45.2785 Y6.6679 
G01 X-45.1259 Y6.5659 
G01 X-44.9961 Y6.4361 
G01 X-44.9041 Y6.2985 
G01 X-44.2725 Y6.9300 
G01 X-67.0421 Y6.9300 
G01 X-67.1235 Y6.9518 
G01 X-67.1965 Y6.9939 
G01 X-67.2561 Y7.0535 
G01 X-70.8007 Y10.5982 
G01 X-70.7318 Y10.4319 
G01 X-70.6960 Y10.2518 
G01 X-70.6960 Y10.0682 
G01 X-70.7318 Y9.8881 
G01 X-70.8021 Y9.7185 
G01 X-70.9041 Y9.5659 
G01 X-71.0339 Y9.4361 
G01 X-71.1536 Y9.3561 
G01 X-65.1175 Y3.3200 
G01 X-45.3825 Y3.3200 
G01 X-44.1120 Y4.5905 
G01 X-44.1120 Y5.9338 
G00 Z2.0000 
G00 X-54.9480 Y5.9338 
G01 Z-0.1000 F254.00 
G01 X-54.9480 Y4.2262 F508.00 
G01 X-54.9838 Y4.0461 
G01 X-55.0541 Y3.8765 
G01 X-55.1561 Y3.7239 
G01 X-55.2859 Y3.5941 
G01 X-55.4385 Y3.4921 
G01 X-55.6081 Y3.4218 
G01 X-55.7882 Y3.3860 
G01 X-55.9718 Y3.3860 
G01 X-56.1519 Y3.4218 
G01 X-56.3215 Y3.4921 
G01 X-56.4741 Y3.5941 
G01 X-56.6039 Y3.7239 
G01 X-56.7059 Y3.8765 
G01 X-56.7762 Y4.0461 
G01 X-56.8120 Y4.2262 
G01 X-56.8120 Y5.9338 
G01 X-56.7762 Y6.1139 
G01 X-56.7059 Y6.2835 
G01 X-56.6039 Y6.4361 
G01 X-56.4741 Y6.5659 
G01 X-56.3215 Y6.6679 
G01 X-56.1519 Y6.7382 
G01 X-55.9718 Y6.7740 
G01 X-55.7882 Y6.7740 
G01 X-55.6081 Y6.7382 
G01 X-55.4385 Y6.6679 
G01 X-55.2859 Y6.5659 
G01 X-55.1561 Y6.4361 
G01 X-55.0541 Y6.2835 
G01 X-54.9838 Y6.1139 
G01 X-54.9480 Y5.9338 
G00 Z2.0000 
G00 X-57.4880 Y5.9338 
G01 Z-0.1000 F254.00 
G01 X-57.4880 Y4.2262 F508.00 
G01 X-57.5238 Y4.0461 
G01 X-57.5941 Y3.8765 
G01 X-57.6961 Y3.7239 
G01 X-57.8259 Y3.5941 
G01 X-57.9785 Y3.4921 
G01 X-58.1481 Y3.4218 
G01 X-58.3282 Y3.3860 
G01 X-58.5118 Y3.3860 
G01 X-58.6919 Y3.4218 
G01 X-58.8615 Y3.4921 
G01 X-59.0141 Y3.5941 
G01 X-59.1439 Y3.7239 
G01 X-59.2459 Y3.8765 
G01 X-59.3162 Y4.0461 
G01 X-59.3520 Y4.2262 
G01 X-59.3520 Y5.9338 
G01 X-59.3162 Y6.1139 
G01 X-59.2459 Y6.2835 
G01 X-59.1439 Y6.4361 
G01 X-59.0141 Y6.5659 
G01 X-58.8615 Y6.6679 
G01 X-58.6919 Y6.7382 
G01 X-58.5118 Y6.7740 
G01 X-58.3282 Y6.7740 
G01 X-58.1481 Y6.7382 
G01 X-57.9785 Y6.6679 
G01 X-57.8259 Y6.5659 
G01 X-57.6961 Y6.4361 
G01 X-57.5941 Y6.2835 
G01 X-57.5238 Y6.1139 
G01 X-57.4880 Y5.9338 
G00 Z2.0000 
G00 X-60.0280 Y5.9338 
G01 Z-0.1000 F254.00 
G01 X-60.0280 Y4.2262 F508.00 
G01 X-60.0638 Y4.0461 
G01 X-60.1341 Y3.8765 
G01 X-60.2361 Y3.7239 
G01 X-60.3659 Y3.5941 
G01 X-60.5185 Y3.4921 
G01 X-60.6881 Y3.4218 
G01 X-60.8682 Y3.3860 
G01 X-61.0518 Y3.3860 
G01 X-61.2319 Y3.4218 
G01 X-61.4015 Y3.4921 
G01 X-61.5541 Y3.5941 
G01 X-61.6839 Y3.7239 
G01 X-61.7859 Y3.8765 
G01 X-61.8562 Y4.0461 
G01 X-61.8920 Y4.2262 
G01 X-61.8920 Y5.9338 
G01 X-61.8562 Y6.1139 
G01 X-61.7859 Y6.2835 
G01 X-61.6839 Y6.4361 
G01 X-61.5541 Y6.5659 
G01 X-61.4015 Y6.6679 
G01 X-61.2319 Y6.7382 
G01 X-61.0518 Y6.7740 
G01 X-60.8682 Y6.7740 
G01 X-60.6881 Y6.7382 
G01 X-60.5185 Y6.6679 
G01 X-60.3659 Y6.5659 
G01 X-60.2361 Y6.4361 
G01 X-60.1341 Y6.2835 
G01 X-60.0638 Y6.1139 
G01 X-60.0280 Y5.9338 
G00 Z2.0000 
G00 X-62.5680 Y5.9338 
G01 Z-0.1000 F254.00 
G01 X-62.5680 Y4.2262 F508.00 
G01 X-62.6038 Y4.0461 
G01 X-62.6741 Y3.8765 
G01 X-62.7761 Y3.7239 
G01 X-62.9059 Y3.5941 
G01 X-63.0585 Y3.4921 
G01 X-63.2281 Y3.4218 
G01 X-63.4082 Y3.3860 
G01 X-63.5918 Y3.3860 
G01 X-63.7719 Y3.4218 
G01 X-63.9415 Y3.4921 
G01 X-64.0941 Y3.5941 
G01 X-64.2239 Y3.7239 
G01 X-64.3259 Y3.8765 
G01 X-64.3962 Y4.0461 
G01 X-64.4320 Y4.2262 
G01 X-64.4320 Y5.9338 
G01 X-64.3962 Y6.1139 
G01 X-64.3259 Y6.2835 
G01 X-64.2239 Y6.4361 
G01 X-64.0941 Y6.5659 
G01 X-63.9415 Y6.6679 
G01 X-63.7719 Y6.7382 
G01 X-63.5918 Y6.7740 
G01 X-63.4082 Y6.7740 
G01 X-63.2281 Y6.7382 
G01 X-63.0585 Y6.6679 
G01 X-62.9059 Y6.5659 
G01 X-62.7761 Y6.4361 
G01 X-62.6741 Y6.2835 
G01 X-62.6038 Y6.1139 
G01 X-62.5680 Y5.9338 
G00 Z2.0000 
G00 X-47.3280 Y5.9338 
G01 Z-0.1000 F254.00 
G01 X-47.3280 Y4.2262 F508.00 
G01 X-47.3638 Y4.0461 
G01 X-47.4341 Y3.8765 
G01 X-47.5361 Y3.7239 
G01 X-47.6659 Y3.5941 
G01 X-47.8185 Y3.4921 
G01 X-47.9881 Y3.4218 
G01 X-48.1682 Y3.3860 
G01 X-48.3518 Y3.3860 
G01 X-48.5319 Y3.4218 
G01 X-48.7015 Y3.4921 
G01 X-48.8541 Y3.5941 
G01 X-48.9839 Y3.7239 
G01 X-49.0859 Y3.8765 
G01 X-49.1562 Y4.0461 
G01 X-49.1920 Y4.2262 
G01 X-49.1920 Y5.9338 
G01 X-49.1562 Y6.1139 
G01 X-49.0859 Y6.2835 
G01 X-48.9839 Y6.4361 
G01 X-48.8541 Y6.5659 
G01 X-48.7015 Y6.6679 
G01 X-48.5319 Y6.7382 
G01 X-48.3518 Y6.7740 
G01 X-48.1682 Y6.7740 
G01 X-47.9881 Y6.7382 
G01 X-47.8185 Y6.6679 
G01 X-47.6659 Y6.5659 
G01 X-47.5361 Y6.4361 
G01 X-47.4341 Y6.2835 
G01 X-47.3638 Y6.1139 
G01 X-47.3280 Y5.9338 
G00 Z2.0000 
G00 X-46.1133 Y34.4163 
G01 Z-0.1000 F254.00 
G01 X-46.0802 Y34.4300 F508.00 
G01 X-46.1487 Y34.4300 
G01 X-46.1932 Y34.3629 
G01 X-46.1133 Y34.4163 
G00 Z2.0000 
G00 X-43.5733 Y31.6237 
G01 Z-0.1000 F254.00 
G01 X-43.7093 Y31.7146 F508.00 
G01 X-43.8250 Y31.8303 
G01 X-43.9159 Y31.9663 
G01 X-43.9785 Y32.1174 
G01 X-44.0104 Y32.2778 
G01 X-44.0104 Y33.5579 
G01 X-44.8825 Y34.4300 
G01 X-45.3598 Y34.4300 
G01 X-45.3267 Y34.4163 
G01 X-45.1907 Y34.3254 
G01 X-45.0750 Y34.2097 
G01 X-44.9841 Y34.0737 
G01 X-44.9215 Y33.9226 
G01 X-44.8896 Y33.7622 
G01 X-44.8896 Y32.2778 
G01 X-44.9215 Y32.1174 
G01 X-44.9841 Y31.9663 
G01 X-45.0750 Y31.8303 
G01 X-45.1907 Y31.7146 
G01 X-45.3267 Y31.6237 
G01 X-45.4563 Y31.5700 
G01 X-43.4437 Y31.5700 
G01 X-43.5733 Y31.6237 
G00 Z2.0000 
G00 X-57.6325 Y40.1800 
G01 Z-0.1000 F254.00 
G01 X-70.8145 Y40.1800 F508.00 
G01 X-70.9041 Y40.0459 
G01 X-71.0339 Y39.9161 
G01 X-71.1865 Y39.8141 
G01 X-71.3561 Y39.7438 
G01 X-71.5362 Y39.7080 
G01 X-73.2438 Y39.7080 
G01 X-73.4239 Y39.7438 
G01 X-73.5935 Y39.8141 
G01 X-73.7461 Y39.9161 
G01 X-73.8759 Y40.0459 
G01 X-73.9779 Y40.1985 
G01 X-74.0482 Y40.3681 
G01 X-74.0840 Y40.5482 
G01 X-74.0840 Y40.7318 
G01 X-74.0482 Y40.9119 
G01 X-73.9779 Y41.0815 
G01 X-73.8759 Y41.2341 
G01 X-73.7461 Y41.3639 
G01 X-73.5935 Y41.4659 
G01 X-73.4239 Y41.5362 
G01 X-73.2438 Y41.5720 
G01 X-71.5362 Y41.5720 
G01 X-71.3561 Y41.5362 
G01 X-71.1865 Y41.4659 
G01 X-71.0339 Y41.3639 
G01 X-70.9041 Y41.2341 
G01 X-70.8021 Y41.0815 
G01 X-70.7318 Y40.9119 
G01 X-70.7135 Y40.8200 
G01 X-57.4579 Y40.8200 
G01 X-57.3765 Y40.7982 
G01 X-57.3035 Y40.7561 
G01 X-57.2439 Y40.6965 
G01 X-53.9489 Y37.4015 
G01 X-53.8168 Y37.4280 
G01 X-53.6832 Y37.4280 
G01 X-53.5522 Y37.4019 
G01 X-53.4288 Y37.3508 
G01 X-53.3178 Y37.2766 
G01 X-53.2234 Y37.1822 
G01 X-53.1492 Y37.0712 
G01 X-53.0981 Y36.9478 
G01 X-53.0720 Y36.8168 
G01 X-53.0720 Y36.6832 
G01 X-53.0981 Y36.5522 
G01 X-53.1492 Y36.4288 
G01 X-53.2234 Y36.3178 
G01 X-53.3178 Y36.2234 
G01 X-53.4288 Y36.1492 
G01 X-53.5522 Y36.0981 
G01 X-53.6832 Y36.0720 
G01 X-53.8168 Y36.0720 
G01 X-53.9478 Y36.0981 
G01 X-54.0712 Y36.1492 
G01 X-54.1822 Y36.2234 
G01 X-54.2766 Y36.3178 
G01 X-54.3508 Y36.4288 
G01 X-54.4019 Y36.5522 
G01 X-54.4280 Y36.6832 
G01 X-54.4280 Y36.8168 
G01 X-54.4019 Y36.9478 
G01 X-57.6325 Y40.1800 
G00 Z2.0000 
G00 X-20.2439 Y44.3035 
G01 Z-0.1000 F254.00 
G01 X-20.3035 Y44.2439 F508.00 
G01 X-20.3765 Y44.2018 
G01 X-20.4579 Y44.1800 
G01 X-35.3987 Y44.1800 
G01 X-35.4734 Y44.0678 
G01 X-35.5678 Y43.9734 
G01 X-35.6788 Y43.8992 
G01 X-35.8022 Y43.8481 
G01 X-35.9332 Y43.8220 
G01 X-36.0668 Y43.8220 
G01 X-36.1978 Y43.8481 
G01 X-36.3212 Y43.8992 
G01 X-36.4322 Y43.9734 
G01 X-36.5266 Y44.0678 
G01 X-36.6008 Y44.1788 
G01 X-56.1799 Y44.1800 
G01 X-56.1799 Y44.0482 
G01 X-56.7482 Y43.4799 
G01 X-57.5518 Y43.4799 
G01 X-58.1201 Y44.0482 
G01 X-58.1201 Y44.8518 
G01 X-57.5518 Y45.4201 
G01 X-56.7482 Y45.4201 
G01 X-56.1799 Y44.8518 
G01 X-56.1799 Y44.8200 
G01 X-36.6013 Y44.8200 
G01 X-36.5266 Y44.9322 
G01 X-36.4322 Y45.0266 
G01 X-36.3212 Y45.1008 
G01 X-36.1978 Y45.1519 
G01 X-36.0668 Y45.1780 
G01 X-35.9332 Y45.1780 
G01 X-35.8022 Y45.1519 
G01 X-35.6788 Y45.1008 
G01 X-35.5678 Y45.0266 
G01 X-35.4734 Y44.9322 
G01 X-35.3992 Y44.8212 
G01 X-20.6325 Y44.8200 
G01 X-20.1515 Y45.3011 
G01 X-20.1780 Y45.4332 
G01 X-20.1780 Y45.5668 
G01 X-20.1519 Y45.6978 
G01 X-20.1008 Y45.8212 
G01 X-20.0266 Y45.9322 
G01 X-19.9322 Y46.0266 
G01 X-19.8212 Y46.1008 
G01 X-19.6978 Y46.1519 
G01 X-19.5668 Y46.1780 
G01 X-19.4332 Y46.1780 
G01 X-19.3022 Y46.1519 
