(.../pcb-gcode-3.6.0.4/pcb-gcode.ulp)
(Copyright 2005 - 2012 by John Johnson)
(See readme.txt for licensing terms.)
(This file generated from the board:)
(.../eagle/ARMEDBASE_V0/MCU/MCU.brd)
(Current profile is .../pcb-gcode-3.6.0.4/profiles/emc.pp  )
(This file generated 6/20/2014 1:39:56 PM)
(Settings from pcb-machine.h)
(  Tool Size)
(0.2000 )
(Z Axis Settings)
(  High     Up        Down     Drill)
(12.7000 	2.5400 	-0.1500 	-0.8128 )
(spindle on time = 3.0000)
(milling depth = -0.1500)
(text depth = -0.1270)
(tool change at 12.7000 15.2400 25.4000 )
(feed rate xy = F508.00 )
(feed rate z  = F254.00 )
(Settings from pcb-defaults.h)
(isolate min = 0.0154)
(isolate max = 0.5080)
(isolate step = 0.1270)
(Generated top outlines, top drill, bottom outlines, bottom drill, )
(Unit of measure: mm)
(Metric Mode)
G21
(Absolute Coordinates)
G90
G00 X0.0000 Y0.0000 
M03
G04 P3.000000
G00 Z2.5400 
G00 X-5.4240 Y66.9476 
G01 Z-0.1500 F254.00 
G01 X-5.4240 Y67.1136 F508.00 
G01 X-5.3980 Y67.2777 
G01 X-5.3467 Y67.4357 
G01 X-5.2713 Y67.5836 
G01 X-5.1737 Y67.7180 
G01 X-5.0562 Y67.8355 
G01 X-4.9218 Y67.9331 
G01 X-4.7739 Y68.0085 
G01 X-4.6159 Y68.0598 
G01 X-4.4518 Y68.0858 
G01 X-4.2858 Y68.0858 
G01 X-4.1217 Y68.0598 
G01 X-3.9637 Y68.0085 
G01 X-3.8158 Y67.9331 
G01 X-3.6814 Y67.8355 
G01 X-3.5639 Y67.7180 
G01 X-3.4663 Y67.5836 
G01 X-3.3909 Y67.4357 
G01 X-3.3396 Y67.2777 
G01 X-3.3136 Y67.1136 
G01 X-3.3136 Y66.9476 
G01 X-3.3396 Y66.7835 
G01 X-3.3909 Y66.6255 
G01 X-3.4663 Y66.4776 
G01 X-3.5639 Y66.3432 
G01 X-3.6814 Y66.2257 
G01 X-3.8158 Y66.1281 
G01 X-3.9637 Y66.0527 
G01 X-4.1217 Y66.0014 
G01 X-4.2858 Y65.9754 
G01 X-4.4518 Y65.9754 
G01 X-4.6159 Y66.0014 
G01 X-4.7739 Y66.0527 
G01 X-4.9218 Y66.1281 
G01 X-5.0562 Y66.2257 
G01 X-5.1737 Y66.3432 
G01 X-5.2713 Y66.4776 
G01 X-5.3467 Y66.6255 
G01 X-5.3980 Y66.7835 
G01 X-5.4240 Y66.9476 
G00 Z2.5400 
G00 X-5.4240 Y62.4264 
G01 Z-0.1500 F254.00 
G01 X-5.4240 Y62.5924 F508.00 
G01 X-5.3980 Y62.7565 
G01 X-5.3467 Y62.9145 
G01 X-5.2713 Y63.0624 
G01 X-5.1737 Y63.1968 
G01 X-5.0562 Y63.3143 
G01 X-4.9218 Y63.4119 
G01 X-4.7739 Y63.4873 
G01 X-4.6159 Y63.5386 
G01 X-4.4518 Y63.5646 
G01 X-4.2858 Y63.5646 
G01 X-4.1217 Y63.5386 
G01 X-3.9637 Y63.4873 
G01 X-3.8158 Y63.4119 
G01 X-3.6814 Y63.3143 
G01 X-3.5639 Y63.1968 
G01 X-3.4663 Y63.0624 
G01 X-3.3909 Y62.9145 
G01 X-3.3396 Y62.7565 
G01 X-3.3136 Y62.5924 
G01 X-3.3136 Y62.4264 
G01 X-3.3396 Y62.2623 
G01 X-3.3909 Y62.1043 
G01 X-3.4663 Y61.9564 
G01 X-3.5639 Y61.8220 
G01 X-3.6814 Y61.7045 
G01 X-3.8158 Y61.6069 
G01 X-3.9637 Y61.5315 
G01 X-4.1217 Y61.4802 
G01 X-4.2858 Y61.4542 
G01 X-4.4518 Y61.4542 
G01 X-4.6159 Y61.4802 
G01 X-4.7739 Y61.5315 
G01 X-4.9218 Y61.6069 
G01 X-5.0562 Y61.7045 
G01 X-5.1737 Y61.8220 
G01 X-5.2713 Y61.9564 
G01 X-5.3467 Y62.1043 
G01 X-5.3980 Y62.2623 
G01 X-5.4240 Y62.4264 
G00 Z2.5400 
G00 X-11.7737 Y63.0624 
G01 Z-0.1500 F254.00 
G01 X-11.6761 Y63.1968 F508.00 
G01 X-11.5586 Y63.3143 
G01 X-11.4242 Y63.4119 
G01 X-11.2763 Y63.4873 
G01 X-11.1183 Y63.5386 
G01 X-10.9542 Y63.5646 
G01 X-10.7881 Y63.5646 
G01 X-10.6241 Y63.5386 
G01 X-10.4661 Y63.4873 
G01 X-10.3182 Y63.4119 
G01 X-10.1838 Y63.3143 
G01 X-10.0663 Y63.1968 
G01 X-9.9687 Y63.0624 
G01 X-9.8933 Y62.9145 
G01 X-9.8420 Y62.7565 
G01 X-9.8160 Y62.5924 
G01 X-9.8160 Y62.4264 
G01 X-9.8420 Y62.2623 
G01 X-9.8933 Y62.1043 
G01 X-9.9687 Y61.9564 
G01 X-10.0663 Y61.8220 
G01 X-10.1838 Y61.7045 
G01 X-10.3182 Y61.6069 
G01 X-10.4661 Y61.5315 
G01 X-10.6241 Y61.4802 
G01 X-10.7881 Y61.4542 
G01 X-10.9542 Y61.4542 
G01 X-11.1183 Y61.4802 
G01 X-11.2763 Y61.5315 
G01 X-11.4242 Y61.6069 
G01 X-11.5586 Y61.7045 
G01 X-11.6761 Y61.8220 
G01 X-11.7737 Y61.9564 
G01 X-11.8491 Y62.1043 
G01 X-11.9004 Y62.2623 
G01 X-11.9184 Y62.3756 
G01 X-25.5004 Y75.9576 
G01 X-31.6203 Y75.9576 
G01 X-31.6721 Y75.8325 
G01 X-31.7570 Y75.7055 
G01 X-31.8651 Y75.5974 
G01 X-31.9921 Y75.5125 
G01 X-32.1333 Y75.4540 
G01 X-32.2832 Y75.4242 
G01 X-33.7568 Y75.4242 
G01 X-33.9067 Y75.4540 
G01 X-34.0479 Y75.5125 
G01 X-34.1749 Y75.5974 
G01 X-34.2830 Y75.7055 
G01 X-34.3679 Y75.8325 
G01 X-34.4264 Y75.9737 
G01 X-34.4562 Y76.1236 
G01 X-34.4562 Y76.2764 
G01 X-34.4264 Y76.4263 
G01 X-34.3679 Y76.5675 
G01 X-34.2830 Y76.6945 
G01 X-34.1749 Y76.8026 
G01 X-34.0479 Y76.8875 
G01 X-33.9067 Y76.9460 
G01 X-33.7568 Y76.9758 
G01 X-32.2832 Y76.9758 
G01 X-32.1333 Y76.9460 
G01 X-31.9921 Y76.8875 
G01 X-31.8651 Y76.8026 
G01 X-31.7570 Y76.6945 
G01 X-31.6721 Y76.5675 
G01 X-31.6203 Y76.4424 
G01 X-25.3518 Y76.4424 
G01 X-25.2627 Y76.4055 
G01 X-25.1945 Y76.3373 
G01 X-11.8230 Y62.9658 
G01 X-11.7737 Y63.0624 
G00 Z2.5400 
G00 X-41.3768 Y76.9758 
G01 Z-0.1500 F254.00 
G01 X-39.9032 Y76.9758 F508.00 
G01 X-39.7533 Y76.9460 
G01 X-39.6121 Y76.8875 
G01 X-39.4851 Y76.8026 
G01 X-39.3770 Y76.6945 
G01 X-39.2921 Y76.5675 
G01 X-39.2336 Y76.4263 
G01 X-39.2038 Y76.2764 
G01 X-39.2038 Y76.1236 
G01 X-39.2336 Y75.9737 
G01 X-39.2921 Y75.8325 
G01 X-39.3770 Y75.7055 
G01 X-39.4851 Y75.5974 
G01 X-39.6121 Y75.5125 
G01 X-39.7533 Y75.4540 
G01 X-39.9032 Y75.4242 
G01 X-41.3768 Y75.4242 
G01 X-41.5267 Y75.4540 
G01 X-41.6679 Y75.5125 
G01 X-41.7949 Y75.5974 
G01 X-41.9030 Y75.7055 
G01 X-41.9879 Y75.8325 
G01 X-42.0464 Y75.9737 
G01 X-42.0762 Y76.1236 
G01 X-42.0762 Y76.2764 
G01 X-42.0464 Y76.4263 
G01 X-41.9879 Y76.5675 
G01 X-41.9030 Y76.6945 
G01 X-41.7949 Y76.8026 
G01 X-41.6679 Y76.8875 
G01 X-41.5267 Y76.9460 
G01 X-41.3768 Y76.9758 
G00 Z2.5400 
G00 X-41.3768 Y74.4358 
G01 Z-0.1500 F254.00 
G01 X-39.9032 Y74.4358 F508.00 
G01 X-39.7533 Y74.4060 
G01 X-39.6121 Y74.3475 
G01 X-39.4851 Y74.2626 
G01 X-39.3770 Y74.1545 
G01 X-39.2921 Y74.0275 
G01 X-39.2336 Y73.8863 
G01 X-39.2038 Y73.7364 
G01 X-39.2038 Y73.5836 
G01 X-39.2336 Y73.4337 
G01 X-39.2921 Y73.2925 
G01 X-39.3770 Y73.1655 
G01 X-39.4851 Y73.0574 
G01 X-39.6121 Y72.9725 
G01 X-39.7533 Y72.9140 
G01 X-39.9032 Y72.8842 
G01 X-41.3768 Y72.8842 
G01 X-41.5267 Y72.9140 
G01 X-41.6679 Y72.9725 
G01 X-41.7949 Y73.0574 
G01 X-41.9030 Y73.1655 
G01 X-41.9879 Y73.2925 
G01 X-42.0464 Y73.4337 
G01 X-42.0762 Y73.5836 
G01 X-42.0762 Y73.7364 
G01 X-42.0464 Y73.8863 
G01 X-41.9879 Y74.0275 
G01 X-41.9030 Y74.1545 
G01 X-41.7949 Y74.2626 
G01 X-41.6679 Y74.3475 
G01 X-41.5267 Y74.4060 
G01 X-41.3768 Y74.4358 
G00 Z2.5400 
G00 X-41.3768 Y71.8958 
G01 Z-0.1500 F254.00 
G01 X-39.9032 Y71.8958 F508.00 
G01 X-39.7533 Y71.8660 
G01 X-39.6121 Y71.8075 
G01 X-39.4851 Y71.7226 
G01 X-39.3770 Y71.6145 
G01 X-39.2921 Y71.4875 
G01 X-39.2336 Y71.3463 
G01 X-39.2038 Y71.1964 
G01 X-39.2038 Y71.0436 
G01 X-39.2336 Y70.8937 
G01 X-39.2921 Y70.7525 
G01 X-39.3770 Y70.6255 
G01 X-39.4851 Y70.5174 
G01 X-39.6121 Y70.4325 
G01 X-39.7533 Y70.3740 
G01 X-39.9032 Y70.3442 
G01 X-41.3768 Y70.3442 
G01 X-41.5267 Y70.3740 
G01 X-41.6679 Y70.4325 
G01 X-41.7949 Y70.5174 
G01 X-41.9030 Y70.6255 
G01 X-41.9879 Y70.7525 
G01 X-42.0464 Y70.8937 
G01 X-42.0762 Y71.0436 
G01 X-42.0762 Y71.1964 
G01 X-42.0464 Y71.3463 
G01 X-41.9879 Y71.4875 
G01 X-41.9030 Y71.6145 
G01 X-41.7949 Y71.7226 
G01 X-41.6679 Y71.8075 
G01 X-41.5267 Y71.8660 
G01 X-41.3768 Y71.8958 
G00 Z2.5400 
G00 X-41.3768 Y69.3558 
G01 Z-0.1500 F254.00 
G01 X-39.9032 Y69.3558 F508.00 
G01 X-39.7533 Y69.3260 
G01 X-39.6121 Y69.2675 
G01 X-39.4851 Y69.1826 
G01 X-39.3770 Y69.0745 
G01 X-39.2921 Y68.9475 
G01 X-39.2336 Y68.8063 
G01 X-39.2038 Y68.6564 
G01 X-39.2038 Y68.5036 
G01 X-39.2336 Y68.3537 
G01 X-39.2921 Y68.2125 
G01 X-39.3770 Y68.0855 
G01 X-39.4851 Y67.9774 
G01 X-39.6121 Y67.8925 
G01 X-39.7533 Y67.8340 
G01 X-39.9032 Y67.8042 
G01 X-41.3768 Y67.8042 
G01 X-41.5267 Y67.8340 
G01 X-41.6679 Y67.8925 
G01 X-41.7949 Y67.9774 
G01 X-41.9030 Y68.0855 
G01 X-41.9879 Y68.2125 
G01 X-42.0464 Y68.3537 
G01 X-42.0762 Y68.5036 
G01 X-42.0762 Y68.6564 
G01 X-42.0464 Y68.8063 
G01 X-41.9879 Y68.9475 
G01 X-41.9030 Y69.0745 
G01 X-41.7949 Y69.1826 
G01 X-41.6679 Y69.2675 
G01 X-41.5267 Y69.3260 
G01 X-41.3768 Y69.3558 
G00 Z2.5400 
G00 X-41.3768 Y66.8158 
G01 Z-0.1500 F254.00 
G01 X-39.9032 Y66.8158 F508.00 
G01 X-39.7533 Y66.7860 
G01 X-39.6121 Y66.7275 
G01 X-39.4851 Y66.6426 
G01 X-39.3770 Y66.5345 
G01 X-39.2921 Y66.4075 
G01 X-39.2336 Y66.2663 
G01 X-39.2038 Y66.1164 
G01 X-39.2038 Y65.9636 
G01 X-39.2336 Y65.8137 
G01 X-39.2921 Y65.6725 
G01 X-39.3770 Y65.5455 
G01 X-39.4851 Y65.4374 
G01 X-39.6121 Y65.3525 
G01 X-39.7533 Y65.2940 
G01 X-39.9032 Y65.2642 
G01 X-41.3768 Y65.2642 
G01 X-41.5267 Y65.2940 
G01 X-41.6679 Y65.3525 
G01 X-41.7949 Y65.4374 
G01 X-41.9030 Y65.5455 
G01 X-41.9879 Y65.6725 
G01 X-42.0464 Y65.8137 
G01 X-42.0762 Y65.9636 
G01 X-42.0762 Y66.1164 
G01 X-42.0464 Y66.2663 
G01 X-41.9879 Y66.4075 
G01 X-41.9030 Y66.5345 
G01 X-41.7949 Y66.6426 
G01 X-41.6679 Y66.7275 
G01 X-41.5267 Y66.7860 
G01 X-41.3768 Y66.8158 
G00 Z2.5400 
G00 X-41.3768 Y64.2758 
G01 Z-0.1500 F254.00 
G01 X-39.9032 Y64.2758 F508.00 
G01 X-39.7533 Y64.2460 
G01 X-39.6121 Y64.1875 
G01 X-39.4851 Y64.1026 
G01 X-39.3770 Y63.9945 
G01 X-39.2921 Y63.8675 
G01 X-39.2336 Y63.7263 
G01 X-39.2038 Y63.5764 
G01 X-39.2038 Y63.4236 
G01 X-39.2336 Y63.2737 
G01 X-39.2921 Y63.1325 
G01 X-39.3770 Y63.0055 
G01 X-39.4851 Y62.8974 
G01 X-39.6121 Y62.8125 
G01 X-39.7533 Y62.7540 
G01 X-39.9032 Y62.7242 
G01 X-41.3768 Y62.7242 
G01 X-41.5267 Y62.7540 
G01 X-41.6679 Y62.8125 
G01 X-41.7949 Y62.8974 
G01 X-41.9030 Y63.0055 
G01 X-41.9879 Y63.1325 
G01 X-42.0464 Y63.2737 
G01 X-42.0762 Y63.4236 
G01 X-42.0762 Y63.5764 
G01 X-42.0464 Y63.7263 
G01 X-41.9879 Y63.8675 
G01 X-41.9030 Y63.9945 
G01 X-41.7949 Y64.1026 
G01 X-41.6679 Y64.1875 
G01 X-41.5267 Y64.2460 
G01 X-41.3768 Y64.2758 
G00 Z2.5400 
G00 X-41.3768 Y59.1958 
G01 Z-0.1500 F254.00 
G01 X-39.9032 Y59.1958 F508.00 
G01 X-39.7533 Y59.1660 
G01 X-39.6121 Y59.1075 
G01 X-39.4851 Y59.0226 
G01 X-39.3770 Y58.9145 
G01 X-39.2921 Y58.7875 
G01 X-39.2336 Y58.6463 
G01 X-39.2038 Y58.4964 
G01 X-39.2038 Y58.3436 
G01 X-39.2336 Y58.1937 
G01 X-39.2921 Y58.0525 
G01 X-39.3770 Y57.9255 
G01 X-39.4851 Y57.8174 
G01 X-39.6121 Y57.7325 
G01 X-39.7533 Y57.6740 
G01 X-39.9032 Y57.6442 
G01 X-41.3768 Y57.6442 
G01 X-41.5267 Y57.6740 
G01 X-41.6679 Y57.7325 
G01 X-41.7949 Y57.8174 
G01 X-41.9030 Y57.9255 
G01 X-41.9879 Y58.0525 
G01 X-42.0464 Y58.1937 
G01 X-42.0762 Y58.3436 
G01 X-42.0762 Y58.4964 
G01 X-42.0464 Y58.6463 
G01 X-41.9879 Y58.7875 
G01 X-41.9030 Y58.9145 
G01 X-41.7949 Y59.0226 
G01 X-41.6679 Y59.1075 
G01 X-41.5267 Y59.1660 
G01 X-41.3768 Y59.1958 
G00 Z2.5400 
G00 X-41.3768 Y54.1158 
G01 Z-0.1500 F254.00 
G01 X-39.9032 Y54.1158 F508.00 
G01 X-39.7533 Y54.0860 
G01 X-39.6121 Y54.0275 
G01 X-39.4851 Y53.9426 
G01 X-39.3770 Y53.8345 
G01 X-39.2921 Y53.7075 
G01 X-39.2336 Y53.5663 
G01 X-39.2038 Y53.4164 
G01 X-39.2038 Y53.2636 
G01 X-39.2336 Y53.1137 
G01 X-39.2921 Y52.9725 
G01 X-39.3770 Y52.8455 
G01 X-39.4851 Y52.7374 
G01 X-39.6121 Y52.6525 
G01 X-39.7533 Y52.5940 
G01 X-39.9032 Y52.5642 
G01 X-41.3768 Y52.5642 
G01 X-41.5267 Y52.5940 
G01 X-41.6679 Y52.6525 
G01 X-41.7949 Y52.7374 
G01 X-41.9030 Y52.8455 
G01 X-41.9879 Y52.9725 
G01 X-42.0464 Y53.1137 
G01 X-42.0762 Y53.2636 
G01 X-42.0762 Y53.4164 
G01 X-42.0464 Y53.5663 
G01 X-41.9879 Y53.7075 
G01 X-41.9030 Y53.8345 
G01 X-41.7949 Y53.9426 
G01 X-41.6679 Y54.0275 
G01 X-41.5267 Y54.0860 
G01 X-41.3768 Y54.1158 
G00 Z2.5400 
G00 X-41.3768 Y51.5758 
G01 Z-0.1500 F254.00 
G01 X-39.9032 Y51.5758 F508.00 
G01 X-39.7533 Y51.5460 
G01 X-39.6121 Y51.4875 
G01 X-39.4851 Y51.4026 
G01 X-39.3770 Y51.2945 
G01 X-39.2921 Y51.1675 
G01 X-39.2336 Y51.0263 
G01 X-39.2038 Y50.8764 
G01 X-39.2038 Y50.7236 
G01 X-39.2336 Y50.5737 
G01 X-39.2921 Y50.4325 
G01 X-39.3770 Y50.3055 
G01 X-39.4851 Y50.1974 
G01 X-39.6121 Y50.1125 
G01 X-39.7533 Y50.0540 
G01 X-39.9032 Y50.0242 
G01 X-41.3768 Y50.0242 
G01 X-41.5267 Y50.0540 
G01 X-41.6679 Y50.1125 
G01 X-41.7949 Y50.1974 
G01 X-41.9030 Y50.3055 
G01 X-41.9879 Y50.4325 
G01 X-42.0464 Y50.5737 
G01 X-42.0762 Y50.7236 
G01 X-42.0762 Y50.8764 
G01 X-42.0464 Y51.0263 
G01 X-41.9879 Y51.1675 
G01 X-41.9030 Y51.2945 
G01 X-41.7949 Y51.4026 
G01 X-41.6679 Y51.4875 
G01 X-41.5267 Y51.5460 
G01 X-41.3768 Y51.5758 
G00 Z2.5400 
G00 X-41.3768 Y49.0358 
G01 Z-0.1500 F254.00 
G01 X-39.9032 Y49.0358 F508.00 
G01 X-39.7533 Y49.0060 
G01 X-39.6121 Y48.9475 
G01 X-39.4851 Y48.8626 
G01 X-39.3770 Y48.7545 
G01 X-39.2921 Y48.6275 
G01 X-39.2336 Y48.4863 
G01 X-39.2038 Y48.3364 
G01 X-39.2038 Y48.1836 
G01 X-39.2336 Y48.0337 
G01 X-39.2921 Y47.8925 
G01 X-39.3770 Y47.7655 
G01 X-39.4851 Y47.6574 
G01 X-39.6121 Y47.5725 
G01 X-39.7533 Y47.5140 
G01 X-39.9032 Y47.4842 
G01 X-41.3768 Y47.4842 
G01 X-41.5267 Y47.5140 
G01 X-41.6679 Y47.5725 
G01 X-41.7949 Y47.6574 
G01 X-41.9030 Y47.7655 
G01 X-41.9879 Y47.8925 
G01 X-42.0464 Y48.0337 
G01 X-42.0762 Y48.1836 
G01 X-42.0762 Y48.3364 
G01 X-42.0464 Y48.4863 
G01 X-41.9879 Y48.6275 
G01 X-41.9030 Y48.7545 
G01 X-41.7949 Y48.8626 
G01 X-41.6679 Y48.9475 
G01 X-41.5267 Y49.0060 
G01 X-41.3768 Y49.0358 
G00 Z2.5400 
G00 X-41.3768 Y46.4958 
G01 Z-0.1500 F254.00 
G01 X-39.9032 Y46.4958 F508.00 
G01 X-39.7533 Y46.4660 
G01 X-39.6121 Y46.4075 
G01 X-39.4851 Y46.3226 
G01 X-39.3770 Y46.2145 
G01 X-39.2921 Y46.0875 
G01 X-39.2336 Y45.9463 
G01 X-39.2038 Y45.7964 
G01 X-39.2038 Y45.6436 
G01 X-39.2336 Y45.4937 
G01 X-39.2921 Y45.3525 
G01 X-39.3770 Y45.2255 
G01 X-39.4851 Y45.1174 
G01 X-39.6121 Y45.0325 
G01 X-39.7533 Y44.9740 
G01 X-39.9032 Y44.9442 
G01 X-41.3768 Y44.9442 
G01 X-41.5267 Y44.9740 
G01 X-41.6679 Y45.0325 
G01 X-41.7949 Y45.1174 
G01 X-41.9030 Y45.2255 
G01 X-41.9879 Y45.3525 
G01 X-42.0464 Y45.4937 
G01 X-42.0762 Y45.6436 
G01 X-42.0762 Y45.7964 
G01 X-42.0464 Y45.9463 
G01 X-41.9879 Y46.0875 
G01 X-41.9030 Y46.2145 
G01 X-41.7949 Y46.3226 
G01 X-41.6679 Y46.4075 
G01 X-41.5267 Y46.4660 
G01 X-41.3768 Y46.4958 
G00 Z2.5400 
G00 X-41.3768 Y43.9558 
G01 Z-0.1500 F254.00 
G01 X-39.9032 Y43.9558 F508.00 
G01 X-39.7533 Y43.9260 
G01 X-39.6121 Y43.8675 
G01 X-39.4851 Y43.7826 
G01 X-39.3770 Y43.6745 
G01 X-39.2921 Y43.5475 
G01 X-39.2336 Y43.4063 
G01 X-39.2038 Y43.2564 
G01 X-39.2038 Y43.1036 
G01 X-39.2336 Y42.9537 
G01 X-39.2921 Y42.8125 
G01 X-39.3770 Y42.6855 
G01 X-39.4851 Y42.5774 
G01 X-39.6121 Y42.4925 
G01 X-39.7533 Y42.4340 
G01 X-39.9032 Y42.4042 
G01 X-41.3768 Y42.4042 
G01 X-41.5267 Y42.4340 
G01 X-41.6679 Y42.4925 
G01 X-41.7949 Y42.5774 
G01 X-41.9030 Y42.6855 
G01 X-41.9879 Y42.8125 
G01 X-42.0464 Y42.9537 
G01 X-42.0762 Y43.1036 
G01 X-42.0762 Y43.2564 
G01 X-42.0464 Y43.4063 
G01 X-41.9879 Y43.5475 
G01 X-41.9030 Y43.6745 
G01 X-41.7949 Y43.7826 
G01 X-41.6679 Y43.8675 
G01 X-41.5267 Y43.9260 
G01 X-41.3768 Y43.9558 
G00 Z2.5400 
G00 X-33.7568 Y43.9558 
G01 Z-0.1500 F254.00 
G01 X-32.2832 Y43.9558 F508.00 
G01 X-32.1333 Y43.9260 
G01 X-31.9921 Y43.8675 
G01 X-31.8651 Y43.7826 
G01 X-31.7570 Y43.6745 
G01 X-31.6721 Y43.5475 
G01 X-31.6136 Y43.4063 
G01 X-31.5838 Y43.2564 
G01 X-31.5838 Y43.1036 
G01 X-31.6136 Y42.9537 
G01 X-31.6721 Y42.8125 
G01 X-31.7570 Y42.6855 
G01 X-31.8651 Y42.5774 
G01 X-31.9921 Y42.4925 
G01 X-32.1333 Y42.4340 
G01 X-32.2832 Y42.4042 
G01 X-33.7568 Y42.4042 
G01 X-33.9067 Y42.4340 
G01 X-34.0479 Y42.4925 
G01 X-34.1749 Y42.5774 
G01 X-34.2830 Y42.6855 
G01 X-34.3679 Y42.8125 
G01 X-34.4264 Y42.9537 
G01 X-34.4562 Y43.1036 
G01 X-34.4562 Y43.2564 
G01 X-34.4264 Y43.4063 
G01 X-34.3679 Y43.5475 
G01 X-34.2830 Y43.6745 
G01 X-34.1749 Y43.7826 
G01 X-34.0479 Y43.8675 
G01 X-33.9067 Y43.9260 
G01 X-33.7568 Y43.9558 
G00 Z2.5400 
G00 X-33.7568 Y46.4958 
G01 Z-0.1500 F254.00 
G01 X-32.2832 Y46.4958 F508.00 
G01 X-32.1333 Y46.4660 
G01 X-31.9921 Y46.4075 
G01 X-31.8651 Y46.3226 
G01 X-31.7570 Y46.2145 
G01 X-31.6721 Y46.0875 
G01 X-31.6136 Y45.9463 
G01 X-31.5838 Y45.7964 
G01 X-31.5838 Y45.6436 
G01 X-31.6136 Y45.4937 
G01 X-31.6721 Y45.3525 
G01 X-31.7570 Y45.2255 
G01 X-31.8651 Y45.1174 
G01 X-31.9921 Y45.0325 
G01 X-32.1333 Y44.9740 
G01 X-32.2832 Y44.9442 
G01 X-33.7568 Y44.9442 
G01 X-33.9067 Y44.9740 
G01 X-34.0479 Y45.0325 
G01 X-34.1749 Y45.1174 
G01 X-34.2830 Y45.2255 
G01 X-34.3679 Y45.3525 
G01 X-34.4264 Y45.4937 
G01 X-34.4562 Y45.6436 
G01 X-34.4562 Y45.7964 
G01 X-34.4264 Y45.9463 
G01 X-34.3679 Y46.0875 
G01 X-34.2830 Y46.2145 
G01 X-34.1749 Y46.3226 
G01 X-34.0479 Y46.4075 
G01 X-33.9067 Y46.4660 
G01 X-33.7568 Y46.4958 
G00 Z2.5400 
G00 X-33.7568 Y49.0358 
G01 Z-0.1500 F254.00 
G01 X-32.2832 Y49.0358 F508.00 
G01 X-32.1333 Y49.0060 
G01 X-31.9921 Y48.9475 
G01 X-31.8651 Y48.8626 
G01 X-31.7570 Y48.7545 
G01 X-31.6721 Y48.6275 
G01 X-31.6136 Y48.4863 
G01 X-31.5838 Y48.3364 
G01 X-31.5838 Y48.1836 
G01 X-31.6136 Y48.0337 
G01 X-31.6721 Y47.8925 
G01 X-31.7570 Y47.7655 
G01 X-31.8651 Y47.6574 
G01 X-31.9921 Y47.5725 
G01 X-32.1333 Y47.5140 
G01 X-32.2832 Y47.4842 
G01 X-33.7568 Y47.4842 
G01 X-33.9067 Y47.5140 
G01 X-34.0479 Y47.5725 
G01 X-34.1749 Y47.6574 
G01 X-34.2830 Y47.7655 
G01 X-34.3679 Y47.8925 
G01 X-34.4264 Y48.0337 
G01 X-34.4562 Y48.1836 
G01 X-34.4562 Y48.3364 
G01 X-34.4264 Y48.4863 
G01 X-34.3679 Y48.6275 
G01 X-34.2830 Y48.7545 
G01 X-34.1749 Y48.8626 
G01 X-34.0479 Y48.9475 
G01 X-33.9067 Y49.0060 
G01 X-33.7568 Y49.0358 
G00 Z2.5400 
G00 X-33.7568 Y51.5758 
G01 Z-0.1500 F254.00 
G01 X-32.2832 Y51.5758 F508.00 
G01 X-32.1333 Y51.5460 
G01 X-31.9921 Y51.4875 
G01 X-31.8651 Y51.4026 
G01 X-31.7570 Y51.2945 
G01 X-31.6721 Y51.1675 
G01 X-31.6136 Y51.0263 
G01 X-31.5838 Y50.8764 
G01 X-31.5838 Y50.7236 
G01 X-31.6136 Y50.5737 
G01 X-31.6721 Y50.4325 
G01 X-31.7570 Y50.3055 
G01 X-31.8651 Y50.1974 
G01 X-31.9921 Y50.1125 
G01 X-32.1333 Y50.0540 
G01 X-32.2832 Y50.0242 
G01 X-33.7568 Y50.0242 
G01 X-33.9067 Y50.0540 
G01 X-34.0479 Y50.1125 
G01 X-34.1749 Y50.1974 
G01 X-34.2830 Y50.3055 
G01 X-34.3679 Y50.4325 
G01 X-34.4264 Y50.5737 
G01 X-34.4562 Y50.7236 
G01 X-34.4562 Y50.8764 
G01 X-34.4264 Y51.0263 
G01 X-34.3679 Y51.1675 
G01 X-34.2830 Y51.2945 
G01 X-34.1749 Y51.4026 
G01 X-34.0479 Y51.4875 
G01 X-33.9067 Y51.5460 
G01 X-33.7568 Y51.5758 
G00 Z2.5400 
G00 X-33.7568 Y54.1158 
G01 Z-0.1500 F254.00 
G01 X-32.2832 Y54.1158 F508.00 
G01 X-32.1333 Y54.0860 
G01 X-31.9921 Y54.0275 
G01 X-31.8651 Y53.9426 
G01 X-31.7570 Y53.8345 
G01 X-31.6721 Y53.7075 
G01 X-31.6136 Y53.5663 
G01 X-31.5838 Y53.4164 
G01 X-31.5838 Y53.2636 
G01 X-31.6136 Y53.1137 
G01 X-31.6721 Y52.9725 
G01 X-31.7570 Y52.8455 
G01 X-31.8651 Y52.7374 
G01 X-31.9921 Y52.6525 
G01 X-32.1333 Y52.5940 
G01 X-32.2832 Y52.5642 
G01 X-33.7568 Y52.5642 
G01 X-33.9067 Y52.5940 
G01 X-34.0479 Y52.6525 
G01 X-34.1749 Y52.7374 
G01 X-34.2830 Y52.8455 
G01 X-34.3679 Y52.9725 
G01 X-34.4264 Y53.1137 
G01 X-34.4562 Y53.2636 
G01 X-34.4562 Y53.4164 
G01 X-34.4264 Y53.5663 
G01 X-34.3679 Y53.7075 
G01 X-34.2830 Y53.8345 
G01 X-34.1749 Y53.9426 
G01 X-34.0479 Y54.0275 
G01 X-33.9067 Y54.0860 
G01 X-33.7568 Y54.1158 
G00 Z2.5400 
G00 X-33.7568 Y56.6558 
G01 Z-0.1500 F254.00 
G01 X-32.2832 Y56.6558 F508.00 
G01 X-32.1333 Y56.6260 
G01 X-31.9921 Y56.5675 
G01 X-31.8651 Y56.4826 
G01 X-31.7570 Y56.3745 
G01 X-31.6721 Y56.2475 
G01 X-31.6136 Y56.1063 
G01 X-31.5838 Y55.9564 
G01 X-31.5838 Y55.8036 
G01 X-31.6136 Y55.6537 
G01 X-31.6721 Y55.5125 
G01 X-31.7570 Y55.3855 
G01 X-31.8651 Y55.2774 
G01 X-31.9921 Y55.1925 
G01 X-32.1333 Y55.1340 
G01 X-32.2832 Y55.1042 
G01 X-33.7568 Y55.1042 
G01 X-33.9067 Y55.1340 
G01 X-34.0479 Y55.1925 
G01 X-34.1749 Y55.2774 
G01 X-34.2830 Y55.3855 
G01 X-34.3679 Y55.5125 
G01 X-34.4264 Y55.6537 
G01 X-34.4562 Y55.8036 
G01 X-34.4562 Y55.9564 
G01 X-34.4264 Y56.1063 
G01 X-34.3679 Y56.2475 
G01 X-34.2830 Y56.3745 
G01 X-34.1749 Y56.4826 
G01 X-34.0479 Y56.5675 
G01 X-33.9067 Y56.6260 
G01 X-33.7568 Y56.6558 
G00 Z2.5400 
G00 X-33.7568 Y61.7358 
G01 Z-0.1500 F254.00 
G01 X-32.2832 Y61.7358 F508.00 
G01 X-32.1333 Y61.7060 
G01 X-31.9921 Y61.6475 
G01 X-31.8651 Y61.5626 
G01 X-31.7570 Y61.4545 
G01 X-31.6721 Y61.3275 
G01 X-31.6136 Y61.1863 
G01 X-31.5838 Y61.0364 
G01 X-31.5838 Y60.8836 
G01 X-31.6136 Y60.7337 
G01 X-31.6721 Y60.5925 
G01 X-31.7570 Y60.4655 
G01 X-31.8651 Y60.3574 
G01 X-31.9907 Y60.2735 
G01 X-30.3427 Y58.6255 
G01 X-30.2745 Y58.5573 
G01 X-30.2376 Y58.4682 
G01 X-30.2376 Y57.1018 
G01 X-30.2745 Y57.0127 
G01 X-30.3427 Y56.9445 
G01 X-30.4318 Y56.9076 
G01 X-39.2696 Y56.9076 
G01 X-39.6107 Y56.5665 
G01 X-39.4851 Y56.4826 
G01 X-39.3770 Y56.3745 
G01 X-39.2921 Y56.2475 
G01 X-39.2336 Y56.1063 
G01 X-39.2038 Y55.9564 
G01 X-39.2038 Y55.8036 
G01 X-39.2336 Y55.6537 
G01 X-39.2921 Y55.5125 
G01 X-39.3770 Y55.3855 
G01 X-39.4851 Y55.2774 
G01 X-39.6121 Y55.1925 
G01 X-39.7533 Y55.1340 
G01 X-39.9032 Y55.1042 
G01 X-41.3768 Y55.1042 
G01 X-41.5267 Y55.1340 
G01 X-41.6679 Y55.1925 
G01 X-41.7949 Y55.2774 
G01 X-41.9030 Y55.3855 
G01 X-41.9879 Y55.5125 
G01 X-42.0464 Y55.6537 
G01 X-42.0762 Y55.8036 
G01 X-42.0762 Y55.9564 
G01 X-42.0464 Y56.1063 
G01 X-41.9879 Y56.2475 
G01 X-41.9030 Y56.3745 
G01 X-41.7949 Y56.4826 
G01 X-41.6679 Y56.5675 
G01 X-41.5267 Y56.6260 
G01 X-41.3768 Y56.6558 
G01 X-40.2070 Y56.6558 
G01 X-39.5073 Y57.3555 
G01 X-39.4182 Y57.3924 
G01 X-30.7224 Y57.3924 
G01 X-30.7224 Y58.3196 
G01 X-32.5870 Y60.1842 
G01 X-33.7568 Y60.1842 
G01 X-33.9067 Y60.2140 
G01 X-34.0479 Y60.2725 
G01 X-34.1749 Y60.3574 
G01 X-34.2830 Y60.4655 
G01 X-34.3679 Y60.5925 
G01 X-34.4264 Y60.7337 
G01 X-34.4562 Y60.8836 
G01 X-34.4562 Y61.0364 
G01 X-34.4264 Y61.1863 
G01 X-34.3679 Y61.3275 
G01 X-34.2830 Y61.4545 
G01 X-34.1749 Y61.5626 
G01 X-34.0479 Y61.6475 
G01 X-33.9067 Y61.7060 
G01 X-33.7568 Y61.7358 
G00 Z2.5400 
G00 X-33.7568 Y64.2758 
G01 Z-0.1500 F254.00 
G01 X-32.2832 Y64.2758 F508.00 
G01 X-32.1333 Y64.2460 
G01 X-31.9921 Y64.1875 
G01 X-31.8651 Y64.1026 
G01 X-31.7570 Y63.9945 
G01 X-31.6721 Y63.8675 
G01 X-31.6136 Y63.7263 
G01 X-31.5838 Y63.5764 
G01 X-31.5838 Y63.4236 
G01 X-31.6136 Y63.2737 
G01 X-31.6721 Y63.1325 
G01 X-31.7570 Y63.0055 
G01 X-31.8651 Y62.8974 
G01 X-31.9921 Y62.8125 
G01 X-32.1333 Y62.7540 
G01 X-32.2832 Y62.7242 
G01 X-33.7568 Y62.7242 
G01 X-33.9067 Y62.7540 
G01 X-34.0479 Y62.8125 
G01 X-34.1749 Y62.8974 
G01 X-34.2830 Y63.0055 
G01 X-34.3679 Y63.1325 
G01 X-34.4264 Y63.2737 
G01 X-34.4562 Y63.4236 
G01 X-34.4562 Y63.5764 
G01 X-34.4264 Y63.7263 
G01 X-34.3679 Y63.8675 
G01 X-34.2830 Y63.9945 
G01 X-34.1749 Y64.1026 
G01 X-34.0479 Y64.1875 
G01 X-33.9067 Y64.2460 
G01 X-33.7568 Y64.2758 
G00 Z2.5400 
G00 X-33.7568 Y66.8158 
G01 Z-0.1500 F254.00 
G01 X-32.2832 Y66.8158 F508.00 
G01 X-32.1333 Y66.7860 
G01 X-31.9921 Y66.7275 
G01 X-31.8651 Y66.6426 
G01 X-31.7570 Y66.5345 
G01 X-31.6721 Y66.4075 
G01 X-31.6136 Y66.2663 
G01 X-31.5838 Y66.1164 
G01 X-31.5838 Y65.9636 
G01 X-31.6136 Y65.8137 
G01 X-31.6721 Y65.6725 
G01 X-31.7570 Y65.5455 
G01 X-31.8651 Y65.4374 
G01 X-31.9921 Y65.3525 
G01 X-32.1333 Y65.2940 
G01 X-32.2832 Y65.2642 
G01 X-33.7568 Y65.2642 
G01 X-33.9067 Y65.2940 
G01 X-34.0479 Y65.3525 
G01 X-34.1749 Y65.4374 
G01 X-34.2830 Y65.5455 
G01 X-34.3679 Y65.6725 
G01 X-34.4264 Y65.8137 
G01 X-34.4562 Y65.9636 
G01 X-34.4562 Y66.1164 
G01 X-34.4264 Y66.2663 
G01 X-34.3679 Y66.4075 
G01 X-34.2830 Y66.5345 
G01 X-34.1749 Y66.6426 
G01 X-34.0479 Y66.7275 
G01 X-33.9067 Y66.7860 
G01 X-33.7568 Y66.8158 
G00 Z2.5400 
G00 X-33.7568 Y69.3558 
G01 Z-0.1500 F254.00 
G01 X-32.2832 Y69.3558 F508.00 
G01 X-32.1333 Y69.3260 
G01 X-31.9921 Y69.2675 
G01 X-31.8651 Y69.1826 
G01 X-31.7570 Y69.0745 
G01 X-31.6721 Y68.9475 
G01 X-31.6136 Y68.8063 
G01 X-31.5838 Y68.6564 
G01 X-31.5838 Y68.5036 
G01 X-31.6136 Y68.3537 
G01 X-31.6721 Y68.2125 
G01 X-31.7570 Y68.0855 
G01 X-31.8651 Y67.9774 
G01 X-31.9921 Y67.8925 
G01 X-32.1333 Y67.8340 
G01 X-32.2832 Y67.8042 
G01 X-33.7568 Y67.8042 
G01 X-33.9067 Y67.8340 
G01 X-34.0479 Y67.8925 
G01 X-34.1749 Y67.9774 
G01 X-34.2830 Y68.0855 
G01 X-34.3679 Y68.2125 
G01 X-34.4264 Y68.3537 
G01 X-34.4562 Y68.5036 
G01 X-34.4562 Y68.6564 
G01 X-34.4264 Y68.8063 
G01 X-34.3679 Y68.9475 
G01 X-34.2830 Y69.0745 
G01 X-34.1749 Y69.1826 
G01 X-34.0479 Y69.2675 
G01 X-33.9067 Y69.3260 
G01 X-33.7568 Y69.3558 
G00 Z2.5400 
G00 X-32.2832 Y74.4358 
G01 Z-0.1500 F254.00 
G01 X-32.1333 Y74.4060 F508.00 
G01 X-31.9921 Y74.3475 
G01 X-31.8651 Y74.2626 
G01 X-31.7570 Y74.1545 
G01 X-31.6721 Y74.0275 
G01 X-31.6136 Y73.8863 
G01 X-31.5838 Y73.7364 
G01 X-31.5838 Y73.5836 
G01 X-31.6136 Y73.4337 
G01 X-31.6721 Y73.2925 
G01 X-31.7570 Y73.1655 
G01 X-31.8651 Y73.0574 
G01 X-31.9921 Y72.9725 
G01 X-32.1333 Y72.9140 
G01 X-32.2832 Y72.8842 
G01 X-33.7568 Y72.8842 
G01 X-33.9067 Y72.9140 
G01 X-34.0479 Y72.9725 
G01 X-34.1749 Y73.0574 
G01 X-34.2830 Y73.1655 
G01 X-34.3679 Y73.2925 
G01 X-34.4264 Y73.4337 
G01 X-34.4562 Y73.5836 
G01 X-34.4562 Y73.7364 
G01 X-34.4264 Y73.8863 
G01 X-34.3679 Y74.0275 
G01 X-34.2830 Y74.1545 
G01 X-34.1749 Y74.2626 
G01 X-34.0493 Y74.3465 
G01 X-40.7404 Y81.0376 
G01 X-43.8756 Y81.0376 
G01 X-43.8976 Y80.9847 
G01 X-43.9658 Y80.8826 
G01 X-44.0526 Y80.7958 
G01 X-44.1547 Y80.7276 
G01 X-44.2682 Y80.6806 
G01 X-44.3886 Y80.6566 
G01 X-44.5114 Y80.6566 
G01 X-44.6318 Y80.6806 
G01 X-44.7453 Y80.7276 
G01 X-44.8474 Y80.7958 
G01 X-44.9342 Y80.8826 
G01 X-45.0024 Y80.9847 
G01 X-45.0494 Y81.0982 
G01 X-45.0734 Y81.2186 
G01 X-45.0734 Y81.3414 
G01 X-45.0494 Y81.4618 
G01 X-45.0024 Y81.5753 
G01 X-44.9342 Y81.6774 
G01 X-44.8474 Y81.7642 
G01 X-44.7453 Y81.8324 
G01 X-44.6318 Y81.8794 
G01 X-44.5114 Y81.9034 
G01 X-44.3886 Y81.9034 
G01 X-44.2682 Y81.8794 
G01 X-44.1547 Y81.8324 
G01 X-44.0526 Y81.7642 
G01 X-43.9658 Y81.6774 
G01 X-43.8976 Y81.5753 
G01 X-43.8756 Y81.5224 
G01 X-40.5918 Y81.5224 
G01 X-40.5027 Y81.4855 
G01 X-40.4345 Y81.4173 
G01 X-33.4530 Y74.4358 
G01 X-32.2832 Y74.4358 
G00 Z2.5400 
G00 X-151.5226 Y93.5584 
G01 Z-0.1500 F254.00 
G01 X-151.5226 Y91.8616 F508.00 
G01 X-151.5563 Y91.6921 
G01 X-151.6225 Y91.5324 
G01 X-151.7185 Y91.3887 
G01 X-151.8407 Y91.2665 
G01 X-151.9844 Y91.1705 
G01 X-152.1441 Y91.1043 
G01 X-152.3136 Y91.0706 
G01 X-152.4864 Y91.0706 
G01 X-152.6559 Y91.1043 
G01 X-152.8156 Y91.1705 
G01 X-152.9593 Y91.2665 
G01 X-153.0815 Y91.3887 
G01 X-153.1775 Y91.5324 
G01 X-153.2437 Y91.6921 
G01 X-153.2774 Y91.8616 
G01 X-153.2774 Y93.5584 
G01 X-153.2437 Y93.7279 
G01 X-153.1775 Y93.8876 
G01 X-153.0815 Y94.0313 
G01 X-152.9593 Y94.1535 
G01 X-152.8156 Y94.2495 
G01 X-152.6559 Y94.3157 
G01 X-152.4864 Y94.3494 
G01 X-152.3136 Y94.3494 
G01 X-152.1441 Y94.3157 
G01 X-151.9844 Y94.2495 
G01 X-151.8407 Y94.1535 
G01 X-151.7185 Y94.0313 
G01 X-151.6225 Y93.8876 
G01 X-151.5563 Y93.7279 
G01 X-151.5226 Y93.5584 
G00 Z2.5400 
G00 X-148.9826 Y93.5584 
G01 Z-0.1500 F254.00 
G01 X-148.9826 Y91.8616 F508.00 
G01 X-149.0163 Y91.6921 
G01 X-149.0825 Y91.5324 
G01 X-149.1785 Y91.3887 
G01 X-149.3007 Y91.2665 
G01 X-149.4444 Y91.1705 
G01 X-149.6041 Y91.1043 
G01 X-149.7736 Y91.0706 
G01 X-149.9464 Y91.0706 
G01 X-150.1159 Y91.1043 
G01 X-150.2756 Y91.1705 
G01 X-150.4193 Y91.2665 
G01 X-150.5415 Y91.3887 
G01 X-150.6375 Y91.5324 
G01 X-150.7037 Y91.6921 
G01 X-150.7374 Y91.8616 
G01 X-150.7374 Y93.5584 
G01 X-150.7037 Y93.7279 
G01 X-150.6375 Y93.8876 
G01 X-150.5415 Y94.0313 
G01 X-150.4193 Y94.1535 
G01 X-150.2756 Y94.2495 
G01 X-150.1159 Y94.3157 
G01 X-149.9464 Y94.3494 
G01 X-149.7736 Y94.3494 
G01 X-149.6041 Y94.3157 
G01 X-149.4444 Y94.2495 
G01 X-149.3007 Y94.1535 
G01 X-149.1785 Y94.0313 
G01 X-149.0825 Y93.8876 
G01 X-149.0163 Y93.7279 
G01 X-148.9826 Y93.5584 
G00 Z2.5400 
G00 X-146.4426 Y93.5584 
G01 Z-0.1500 F254.00 
G01 X-146.4426 Y91.8616 F508.00 
G01 X-146.4763 Y91.6921 
G01 X-146.5425 Y91.5324 
G01 X-146.6385 Y91.3887 
G01 X-146.7607 Y91.2665 
G01 X-146.9044 Y91.1705 
G01 X-147.0641 Y91.1043 
G01 X-147.2336 Y91.0706 
G01 X-147.4064 Y91.0706 
G01 X-147.5759 Y91.1043 
G01 X-147.7356 Y91.1705 
G01 X-147.8793 Y91.2665 
G01 X-148.0015 Y91.3887 
G01 X-148.0975 Y91.5324 
G01 X-148.1637 Y91.6921 
G01 X-148.1974 Y91.8616 
G01 X-148.1974 Y93.5584 
G01 X-148.1637 Y93.7279 
G01 X-148.0975 Y93.8876 
G01 X-148.0015 Y94.0313 
G01 X-147.8793 Y94.1535 
G01 X-147.7356 Y94.2495 
G01 X-147.5759 Y94.3157 
G01 X-147.4064 Y94.3494 
G01 X-147.2336 Y94.3494 
G01 X-147.0641 Y94.3157 
G01 X-146.9044 Y94.2495 
G01 X-146.7607 Y94.1535 
G01 X-146.6385 Y94.0313 
G01 X-146.5425 Y93.8876 
G01 X-146.4763 Y93.7279 
G01 X-146.4426 Y93.5584 
G00 Z2.5400 
G00 X-143.9026 Y93.5584 
G01 Z-0.1500 F254.00 
G01 X-143.9026 Y91.8616 F508.00 
G01 X-143.9363 Y91.6921 
G01 X-144.0025 Y91.5324 
G01 X-144.0985 Y91.3887 
G01 X-144.2207 Y91.2665 
G01 X-144.3644 Y91.1705 
G01 X-144.5241 Y91.1043 
G01 X-144.6936 Y91.0706 
G01 X-144.8664 Y91.0706 
G01 X-145.0359 Y91.1043 
G01 X-145.1956 Y91.1705 
G01 X-145.3393 Y91.2665 
G01 X-145.4615 Y91.3887 
G01 X-145.5575 Y91.5324 
G01 X-145.6237 Y91.6921 
G01 X-145.6574 Y91.8616 
G01 X-145.6574 Y93.5584 
G01 X-145.6237 Y93.7279 
G01 X-145.5575 Y93.8876 
G01 X-145.4615 Y94.0313 
G01 X-145.3393 Y94.1535 
G01 X-145.1956 Y94.2495 
G01 X-145.0359 Y94.3157 
G01 X-144.8664 Y94.3494 
G01 X-144.6936 Y94.3494 
G01 X-144.5241 Y94.3157 
G01 X-144.3644 Y94.2495 
G01 X-144.2207 Y94.1535 
G01 X-144.0985 Y94.0313 
G01 X-144.0025 Y93.8876 
G01 X-143.9363 Y93.7279 
G01 X-143.9026 Y93.5584 
G00 Z2.5400 
G00 X-37.7455 Y87.2508 
G01 Z-0.1500 F254.00 
G01 X-37.7455 Y88.0092 F508.00 
G01 X-37.2092 Y88.5455 
G01 X-36.4508 Y88.5455 
G01 X-35.9145 Y88.0092 
G01 X-35.9145 Y87.2508 
G01 X-36.4508 Y86.7145 
G01 X-37.2092 Y86.7145 
G01 X-37.7455 Y87.2508 
G00 Z2.5400 
G00 X-37.7455 Y92.3308 
G01 Z-0.1500 F254.00 
G01 X-37.7455 Y93.0892 F508.00 
G01 X-37.2092 Y93.6255 
G01 X-36.4508 Y93.6255 
G01 X-35.9145 Y93.0892 
G01 X-35.9145 Y92.9524 
G01 X-35.5118 Y92.9524 
G01 X-35.4227 Y92.9155 
G01 X-35.3545 Y92.8473 
G01 X-30.5580 Y88.0508 
G01 X-30.4871 Y88.1569 
G01 X-30.3719 Y88.2721 
G01 X-30.2365 Y88.3625 
G01 X-30.0861 Y88.4248 
G01 X-29.9264 Y88.4566 
G01 X-29.7636 Y88.4566 
G01 X-29.6039 Y88.4248 
G01 X-29.4535 Y88.3625 
G01 X-29.3181 Y88.2721 
G01 X-29.2029 Y88.1569 
G01 X-29.1125 Y88.0215 
G01 X-29.0502 Y87.8711 
G01 X-29.0184 Y87.7114 
G01 X-29.0184 Y87.5486 
G01 X-29.0502 Y87.3889 
G01 X-29.1125 Y87.2385 
G01 X-29.2029 Y87.1031 
G01 X-29.3181 Y86.9879 
G01 X-29.4535 Y86.8975 
G01 X-29.6039 Y86.8352 
G01 X-29.7636 Y86.8034 
G01 X-29.9264 Y86.8034 
G01 X-30.0861 Y86.8352 
G01 X-30.2365 Y86.8975 
G01 X-30.3719 Y86.9879 
G01 X-30.4871 Y87.1031 
G01 X-30.5775 Y87.2385 
G01 X-30.6398 Y87.3889 
G01 X-30.6543 Y87.4615 
G01 X-30.6855 Y87.4927 
G01 X-35.6604 Y92.4676 
G01 X-35.9145 Y92.4676 
G01 X-35.9145 Y92.3308 
G01 X-36.4508 Y91.7945 
G01 X-37.2092 Y91.7945 
G01 X-37.7455 Y92.3308 
G00 Z2.5400 
G00 X-37.7455 Y94.8708 
G01 Z-0.1500 F254.00 
G01 X-37.7455 Y95.6292 F508.00 
G01 X-37.2092 Y96.1655 
G01 X-36.4508 Y96.1655 
G01 X-35.9145 Y95.6292 
G01 X-35.9145 Y94.8708 
G01 X-36.4508 Y94.3345 
G01 X-37.2092 Y94.3345 
G01 X-37.7455 Y94.8708 
G00 Z2.5400 
G00 X-45.3655 Y94.8708 
G01 Z-0.1500 F254.00 
G01 X-45.3655 Y95.6292 F508.00 
G01 X-44.8292 Y96.1655 
G01 X-44.0708 Y96.1655 
G01 X-43.5345 Y95.6292 
G01 X-43.5345 Y94.8708 
G01 X-44.0708 Y94.3345 
G01 X-44.8292 Y94.3345 
G01 X-44.9260 Y94.4312 
G01 X-46.8527 Y92.5045 
G01 X-46.9418 Y92.4676 
G01 X-70.8776 Y92.4676 
G01 X-70.8776 Y87.7304 
G01 X-58.3196 Y75.1724 
G01 X-36.7818 Y75.1724 
G01 X-36.6927 Y75.1355 
G01 X-36.6245 Y75.0673 
G01 X-33.4530 Y71.8958 
G01 X-32.2832 Y71.8958 
G01 X-32.1333 Y71.8660 
G01 X-31.9921 Y71.8075 
G01 X-31.8651 Y71.7226 
G01 X-31.7570 Y71.6145 
G01 X-31.6721 Y71.4875 
G01 X-31.6136 Y71.3463 
G01 X-31.5838 Y71.1964 
G01 X-31.5838 Y71.0436 
G01 X-31.6136 Y70.8937 
G01 X-31.6721 Y70.7525 
G01 X-31.7570 Y70.6255 
G01 X-31.8651 Y70.5174 
G01 X-31.9921 Y70.4325 
G01 X-32.1333 Y70.3740 
G01 X-32.2832 Y70.3442 
G01 X-33.7568 Y70.3442 
G01 X-33.9067 Y70.3740 
G01 X-34.0479 Y70.4325 
G01 X-34.1749 Y70.5174 
G01 X-34.2830 Y70.6255 
G01 X-34.3679 Y70.7525 
G01 X-34.4264 Y70.8937 
G01 X-34.4562 Y71.0436 
G01 X-34.4562 Y71.1964 
G01 X-34.4264 Y71.3463 
G01 X-34.3679 Y71.4875 
G01 X-34.2830 Y71.6145 
G01 X-34.1749 Y71.7226 
G01 X-34.0493 Y71.8065 
G01 X-36.9304 Y74.6876 
G01 X-58.4682 Y74.6876 
G01 X-58.5573 Y74.7245 
G01 X-71.2573 Y87.4245 
G01 X-71.3255 Y87.4927 
G01 X-71.3624 Y87.5818 
G01 X-71.3624 Y92.7582 
G01 X-71.3255 Y92.8473 
G01 X-71.2573 Y92.9155 
G01 X-71.1682 Y92.9524 
G01 X-47.0904 Y92.9524 
G01 X-45.2688 Y94.7740 
G01 X-45.3655 Y94.8708 
G00 Z2.5400 
G00 X-45.3655 Y92.3308 
G01 Z-0.1500 F254.00 
G01 X-45.3655 Y93.0892 F508.00 
G01 X-44.8292 Y93.6255 
G01 X-44.0708 Y93.6255 
G01 X-43.5345 Y93.0892 
G01 X-43.5345 Y92.3308 
G01 X-44.0708 Y91.7945 
G01 X-44.8292 Y91.7945 
G01 X-45.3655 Y92.3308 
G00 Z2.5400 
G00 X-45.3655 Y89.7908 
G01 Z-0.1500 F254.00 
G01 X-45.3655 Y90.5492 F508.00 
G01 X-44.8292 Y91.0855 
G01 X-44.0708 Y91.0855 
G01 X-43.5345 Y90.5492 
G01 X-43.5345 Y89.7908 
G01 X-44.0708 Y89.2545 
G01 X-44.8292 Y89.2545 
G01 X-45.3655 Y89.7908 
G00 Z2.5400 
G00 X-45.3655 Y87.2508 
G01 Z-0.1500 F254.00 
G01 X-45.3655 Y88.0092 F508.00 
G01 X-44.8292 Y88.5455 
G01 X-44.0708 Y88.5455 
G01 X-43.5345 Y88.0092 
G01 X-43.5345 Y87.2508 
G01 X-44.0708 Y86.7145 
G01 X-44.8292 Y86.7145 
G01 X-45.3655 Y87.2508 
G00 Z2.5400 
G00 X-26.8298 Y85.3311 
G01 Z-0.1500 F254.00 
G01 X-26.7675 Y85.4815 F508.00 
G01 X-26.6771 Y85.6169 
G01 X-26.5619 Y85.7321 
G01 X-26.4265 Y85.8225 
G01 X-26.2761 Y85.8848 
G01 X-26.1164 Y85.9166 
G01 X-25.9536 Y85.9166 
G01 X-25.7939 Y85.8848 
G01 X-25.6435 Y85.8225 
G01 X-25.5081 Y85.7321 
G01 X-25.3929 Y85.6169 
G01 X-25.3025 Y85.4815 
G01 X-25.2402 Y85.3311 
G01 X-25.2084 Y85.1714 
G01 X-25.2084 Y85.0086 
G01 X-25.2402 Y84.8489 
G01 X-25.3025 Y84.6985 
G01 X-25.3929 Y84.5631 
G01 X-25.5081 Y84.4479 
G01 X-25.6435 Y84.3575 
G01 X-25.7939 Y84.2952 
G01 X-25.9536 Y84.2634 
G01 X-26.1164 Y84.2634 
G01 X-26.2761 Y84.2952 
G01 X-26.4265 Y84.3575 
G01 X-26.5619 Y84.4479 
G01 X-26.6771 Y84.5631 
G01 X-26.7480 Y84.6692 
G01 X-27.7345 Y83.6827 
G01 X-27.8027 Y83.6145 
G01 X-27.8918 Y83.5776 
G01 X-63.5482 Y83.5776 
G01 X-63.6373 Y83.6145 
G01 X-68.2036 Y88.1808 
G01 X-68.2091 Y88.1699 
G01 X-68.3239 Y88.0119 
G01 X-68.4619 Y87.8739 
G01 X-68.6199 Y87.7591 
G01 X-68.7939 Y87.6705 
G01 X-68.9795 Y87.6101 
G01 X-69.1724 Y87.5796 
G01 X-69.3676 Y87.5796 
G01 X-69.5605 Y87.6101 
G01 X-69.7461 Y87.6705 
G01 X-69.9201 Y87.7591 
G01 X-70.0781 Y87.8739 
G01 X-70.2161 Y88.0119 
G01 X-70.3309 Y88.1699 
G01 X-70.4195 Y88.3439 
G01 X-70.4799 Y88.5295 
G01 X-70.5104 Y88.7224 
G01 X-70.5104 Y88.9176 
G01 X-70.4799 Y89.1105 
G01 X-70.4195 Y89.2961 
G01 X-70.3309 Y89.4701 
G01 X-70.2161 Y89.6281 
G01 X-70.0781 Y89.7661 
G01 X-69.9201 Y89.8809 
G01 X-69.7461 Y89.9695 
G01 X-69.5605 Y90.0299 
G01 X-69.3676 Y90.0604 
G01 X-69.1724 Y90.0604 
G01 X-68.9795 Y90.0299 
G01 X-68.7939 Y89.9695 
G01 X-68.6199 Y89.8809 
G01 X-68.4619 Y89.7661 
G01 X-68.3239 Y89.6281 
G01 X-68.2091 Y89.4701 
G01 X-68.1205 Y89.2961 
G01 X-68.0601 Y89.1105 
G01 X-68.0296 Y88.9176 
G01 X-68.0296 Y88.7224 
G01 X-68.0337 Y88.6965 
G01 X-63.3996 Y84.0624 
G01 X-28.0404 Y84.0624 
G01 X-26.8755 Y85.2273 
G01 X-26.8443 Y85.2585 
G01 X-26.8298 Y85.3311 
G00 Z2.5400 
G00 X-28.1316 Y87.5486 
G01 Z-0.1500 F254.00 
G01 X-28.1316 Y87.7114 F508.00 
G01 X-28.0998 Y87.8711 
G01 X-28.0375 Y88.0215 
G01 X-27.9471 Y88.1569 
G01 X-27.8319 Y88.2721 
G01 X-27.6965 Y88.3625 
G01 X-27.5461 Y88.4248 
G01 X-27.3864 Y88.4566 
G01 X-27.2236 Y88.4566 
G01 X-27.0639 Y88.4248 
G01 X-26.9135 Y88.3625 
G01 X-26.7781 Y88.2721 
G01 X-26.6629 Y88.1569 
G01 X-26.5725 Y88.0215 
G01 X-26.5107 Y87.8724 
G01 X-11.3818 Y87.8724 
G01 X-11.2927 Y87.8355 
G01 X-11.2245 Y87.7673 
G01 X-11.1876 Y87.6782 
G01 X-11.1876 Y68.0373 
G01 X-11.1183 Y68.0598 
G01 X-10.9542 Y68.0858 
G01 X-10.7881 Y68.0858 
G01 X-10.6241 Y68.0598 
G01 X-10.4661 Y68.0085 
G01 X-10.3182 Y67.9331 
G01 X-10.1838 Y67.8355 
G01 X-10.0663 Y67.7180 
G01 X-9.9687 Y67.5836 
G01 X-9.8933 Y67.4357 
G01 X-9.8420 Y67.2777 
G01 X-9.8160 Y67.1136 
G01 X-9.8160 Y66.9476 
G01 X-9.8420 Y66.7835 
G01 X-9.8933 Y66.6255 
G01 X-9.9687 Y66.4776 
G01 X-10.0663 Y66.3432 
G01 X-10.1838 Y66.2257 
G01 X-10.3182 Y66.1281 
G01 X-10.4661 Y66.0527 
G01 X-10.6241 Y66.0014 
G01 X-10.7881 Y65.9754 
G01 X-10.9542 Y65.9754 
G01 X-11.1183 Y66.0014 
G01 X-11.2763 Y66.0527 
G01 X-11.4242 Y66.1281 
G01 X-11.5586 Y66.2257 
G01 X-11.6761 Y66.3432 
G01 X-11.7737 Y66.4776 
G01 X-11.8491 Y66.6255 
G01 X-11.9004 Y66.7835 
G01 X-11.9264 Y66.9476 
G01 X-11.9264 Y67.1136 
G01 X-11.9004 Y67.2777 
G01 X-11.8491 Y67.4357 
G01 X-11.7737 Y67.5836 
G01 X-11.6761 Y67.7180 
G01 X-11.6724 Y67.7217 
G01 X-11.6724 Y87.3876 
G01 X-26.5107 Y87.3876 
G01 X-26.5725 Y87.2385 
G01 X-26.6629 Y87.1031 
G01 X-26.7781 Y86.9879 
G01 X-26.9135 Y86.8975 
G01 X-27.0639 Y86.8352 
G01 X-27.2236 Y86.8034 
G01 X-27.3864 Y86.8034 
G01 X-27.5461 Y86.8352 
G01 X-27.6965 Y86.8975 
G01 X-27.8319 Y86.9879 
G01 X-27.9471 Y87.1031 
G01 X-28.0375 Y87.2385 
G01 X-28.0998 Y87.3889 
G01 X-28.1316 Y87.5486 
G00 Z2.5400 
G00 X-29.2171 Y85.6169 
G01 Z-0.1500 F254.00 
G01 X-29.1019 Y85.7321 F508.00 
G01 X-28.9665 Y85.8225 
G01 X-28.8161 Y85.8848 
G01 X-28.6564 Y85.9166 
G01 X-28.4936 Y85.9166 
G01 X-28.3339 Y85.8848 
G01 X-28.1835 Y85.8225 
G01 X-28.0481 Y85.7321 
G01 X-27.9329 Y85.6169 
G01 X-27.8425 Y85.4815 
G01 X-27.7802 Y85.3311 
G01 X-27.7484 Y85.1714 
G01 X-27.7484 Y85.0086 
G01 X-27.7802 Y84.8489 
G01 X-27.8425 Y84.6985 
G01 X-27.9329 Y84.5631 
G01 X-28.0481 Y84.4479 
G01 X-28.1835 Y84.3575 
G01 X-28.3339 Y84.2952 
G01 X-28.4936 Y84.2634 
G01 X-28.6564 Y84.2634 
G01 X-28.8161 Y84.2952 
G01 X-28.9665 Y84.3575 
G01 X-29.1019 Y84.4479 
G01 X-29.2171 Y84.5631 
G01 X-29.3075 Y84.6985 
G01 X-29.3698 Y84.8489 
G01 X-29.3843 Y84.9215 
G01 X-29.4155 Y84.9527 
G01 X-34.3904 Y89.9276 
G01 X-35.9145 Y89.9276 
G01 X-35.9145 Y89.7908 
G01 X-36.4508 Y89.2545 
G01 X-37.2092 Y89.2545 
G01 X-37.7455 Y89.7908 
G01 X-37.7455 Y90.5492 
G01 X-37.2092 Y91.0855 
G01 X-36.4508 Y91.0855 
G01 X-35.9145 Y90.5492 
G01 X-35.9145 Y90.4124 
G01 X-34.2418 Y90.4124 
G01 X-34.1527 Y90.3755 
G01 X-34.0845 Y90.3073 
G01 X-29.2880 Y85.5108 
G01 X-29.2171 Y85.6169 
G00 Z2.5400 
G00 X-147.7761 Y52.1653 
G01 Z-0.1500 F254.00 
G01 X-147.7761 Y49.4347 F508.00 
G01 X-147.8099 Y49.2213 
G01 X-147.8767 Y49.0158 
G01 X-147.9748 Y48.8232 
G01 X-148.1018 Y48.6484 
G01 X-148.2545 Y48.4957 
G01 X-148.4293 Y48.3687 
G01 X-148.6219 Y48.2706 
G01 X-148.8274 Y48.2038 
G01 X-149.0408 Y48.1700 
G01 X-149.2568 Y48.1700 
G01 X-149.4702 Y48.2038 
G01 X-149.6757 Y48.2706 
G01 X-149.8683 Y48.3687 
G01 X-150.0431 Y48.4957 
G01 X-150.1958 Y48.6484 
G01 X-150.3228 Y48.8232 
G01 X-150.4209 Y49.0158 
G01 X-150.4877 Y49.2213 
G01 X-150.5215 Y49.4347 
G01 X-150.5215 Y52.1653 
G01 X-150.4877 Y52.3787 
G01 X-150.4209 Y52.5842 
G01 X-150.3228 Y52.7767 
G01 X-150.1958 Y52.9516 
G01 X-150.0431 Y53.1043 
G01 X-149.8683 Y53.2313 
G01 X-149.6757 Y53.3294 
G01 X-149.4702 Y53.3962 
G01 X-149.2568 Y53.4300 
G01 X-149.0408 Y53.4300 
G01 X-148.8274 Y53.3962 
G01 X-148.6219 Y53.3294 
G01 X-148.4293 Y53.2313 
G01 X-148.2545 Y53.1043 
G01 X-148.1018 Y52.9516 
G01 X-147.9748 Y52.7767 
G01 X-147.8767 Y52.5842 
G01 X-147.8099 Y52.3787 
G01 X-147.7761 Y52.1653 
G00 Z2.5400 
G00 X-151.7385 Y52.1653 
G01 Z-0.1500 F254.00 
G01 X-151.7385 Y49.4347 F508.00 
G01 X-151.7723 Y49.2213 
G01 X-151.8391 Y49.0158 
G01 X-151.9372 Y48.8232 
G01 X-152.0642 Y48.6484 
G01 X-152.2169 Y48.4957 
G01 X-152.3917 Y48.3687 
G01 X-152.5843 Y48.2706 
G01 X-152.7898 Y48.2038 
G01 X-153.0032 Y48.1700 
G01 X-153.2192 Y48.1700 
G01 X-153.4326 Y48.2038 
G01 X-153.6381 Y48.2706 
G01 X-153.8307 Y48.3687 
G01 X-154.0055 Y48.4957 
G01 X-154.1582 Y48.6484 
G01 X-154.2852 Y48.8232 
G01 X-154.3833 Y49.0158 
G01 X-154.4501 Y49.2213 
G01 X-154.4839 Y49.4347 
G01 X-154.4839 Y52.1653 
G01 X-154.4501 Y52.3787 
G01 X-154.3833 Y52.5842 
G01 X-154.2852 Y52.7767 
G01 X-154.1582 Y52.9516 
G01 X-154.0055 Y53.1043 
G01 X-153.8307 Y53.2313 
G01 X-153.6381 Y53.3294 
G01 X-153.4326 Y53.3962 
G01 X-153.2192 Y53.4300 
G01 X-153.0032 Y53.4300 
G01 X-152.7898 Y53.3962 
G01 X-152.5843 Y53.3294 
G01 X-152.3917 Y53.2313 
G01 X-152.2169 Y53.1043 
G01 X-152.0642 Y52.9516 
G01 X-151.9372 Y52.7767 
G01 X-151.8391 Y52.5842 
G01 X-151.7723 Y52.3787 
G01 X-151.7385 Y52.1653 
G00 Z2.5400 
G00 X-146.5061 Y67.4053 
G01 Z-0.1500 F254.00 
G01 X-146.5061 Y64.6747 F508.00 
G01 X-146.5399 Y64.4613 
G01 X-146.6067 Y64.2558 
G01 X-146.7048 Y64.0632 
G01 X-146.8318 Y63.8884 
G01 X-146.9845 Y63.7357 
G01 X-147.1593 Y63.6087 
G01 X-147.3519 Y63.5106 
G01 X-147.5574 Y63.4438 
G01 X-147.7708 Y63.4100 
G01 X-147.9868 Y63.4100 
G01 X-148.2002 Y63.4438 
G01 X-148.4057 Y63.5106 
G01 X-148.5983 Y63.6087 
G01 X-148.7731 Y63.7357 
G01 X-148.9258 Y63.8884 
G01 X-149.0528 Y64.0632 
G01 X-149.1509 Y64.2558 
G01 X-149.2177 Y64.4613 
G01 X-149.2515 Y64.6747 
G01 X-149.2515 Y67.4053 
G01 X-149.2177 Y67.6187 
G01 X-149.1509 Y67.8242 
G01 X-149.0528 Y68.0168 
G01 X-148.9258 Y68.1916 
G01 X-148.7731 Y68.3443 
G01 X-148.5983 Y68.4713 
G01 X-148.4057 Y68.5694 
G01 X-148.2002 Y68.6362 
G01 X-147.9868 Y68.6700 
G01 X-147.7708 Y68.6700 
G01 X-147.5574 Y68.6362 
G01 X-147.3519 Y68.5694 
G01 X-147.1593 Y68.4713 
G01 X-146.9845 Y68.3443 
G01 X-146.8318 Y68.1916 
G01 X-146.7048 Y68.0168 
G01 X-146.6067 Y67.8242 
G01 X-146.5399 Y67.6187 
G01 X-146.5061 Y67.4053 
G00 Z2.5400 
G00 X-150.4685 Y67.4053 
G01 Z-0.1500 F254.00 
G01 X-150.4685 Y64.6747 F508.00 
G01 X-150.5023 Y64.4613 
G01 X-150.5691 Y64.2558 
G01 X-150.6672 Y64.0632 
G01 X-150.7942 Y63.8884 
G01 X-150.9469 Y63.7357 
G01 X-151.1217 Y63.6087 
G01 X-151.3143 Y63.5106 
G01 X-151.5198 Y63.4438 
G01 X-151.7332 Y63.4100 
G01 X-151.9492 Y63.4100 
G01 X-152.1626 Y63.4438 
G01 X-152.3681 Y63.5106 
G01 X-152.5607 Y63.6087 
G01 X-152.7355 Y63.7357 
G01 X-152.8882 Y63.8884 
G01 X-153.0152 Y64.0632 
G01 X-153.1133 Y64.2558 
G01 X-153.1801 Y64.4613 
G01 X-153.2139 Y64.6747 
G01 X-153.2139 Y67.4053 
G01 X-153.1801 Y67.6187 
G01 X-153.1133 Y67.8242 
G01 X-153.0152 Y68.0168 
G01 X-152.8882 Y68.1916 
G01 X-152.7355 Y68.3443 
G01 X-152.5607 Y68.4713 
G01 X-152.3681 Y68.5694 
G01 X-152.1626 Y68.6362 
G01 X-151.9492 Y68.6700 
G01 X-151.7332 Y68.6700 
G01 X-151.5198 Y68.6362 
G01 X-151.3143 Y68.5694 
G01 X-151.1217 Y68.4713 
G01 X-150.9469 Y68.3443 
G01 X-150.7942 Y68.1916 
G01 X-150.6672 Y68.0168 
G01 X-150.5691 Y67.8242 
G01 X-150.5023 Y67.6187 
G01 X-150.4685 Y67.4053 
G00 Z2.5400 
G00 X-147.7761 Y82.6453 
G01 Z-0.1500 F254.00 
G01 X-147.7761 Y79.9147 F508.00 
G01 X-147.8099 Y79.7013 
G01 X-147.8767 Y79.4958 
G01 X-147.9748 Y79.3032 
G01 X-148.1018 Y79.1284 
G01 X-148.2545 Y78.9757 
G01 X-148.4293 Y78.8487 
G01 X-148.6219 Y78.7506 
G01 X-148.8274 Y78.6838 
G01 X-149.0408 Y78.6500 
G01 X-149.2568 Y78.6500 
G01 X-149.4702 Y78.6838 
G01 X-149.6757 Y78.7506 
G01 X-149.8683 Y78.8487 
G01 X-150.0431 Y78.9757 
G01 X-150.1958 Y79.1284 
G01 X-150.3228 Y79.3032 
G01 X-150.4209 Y79.4958 
G01 X-150.4877 Y79.7013 
G01 X-150.5215 Y79.9147 
G01 X-150.5215 Y82.6453 
G01 X-150.4877 Y82.8587 
G01 X-150.4209 Y83.0642 
G01 X-150.3228 Y83.2568 
G01 X-150.1958 Y83.4316 
G01 X-150.0431 Y83.5843 
G01 X-149.8683 Y83.7113 
G01 X-149.6757 Y83.8094 
G01 X-149.4702 Y83.8762 
G01 X-149.2568 Y83.9100 
G01 X-149.0408 Y83.9100 
G01 X-148.8274 Y83.8762 
G01 X-148.6219 Y83.8094 
G01 X-148.4293 Y83.7113 
G01 X-148.2545 Y83.5843 
G01 X-148.1018 Y83.4316 
G01 X-147.9748 Y83.2568 
G01 X-147.8767 Y83.0642 
G01 X-147.8099 Y82.8587 
G01 X-147.7761 Y82.6453 
G00 Z2.5400 
G00 X-151.7385 Y82.6453 
G01 Z-0.1500 F254.00 
G01 X-151.7385 Y79.9147 F508.00 
G01 X-151.7723 Y79.7013 
G01 X-151.8391 Y79.4958 
G01 X-151.9372 Y79.3032 
G01 X-152.0642 Y79.1284 
G01 X-152.2169 Y78.9757 
G01 X-152.3917 Y78.8487 
G01 X-152.5843 Y78.7506 
G01 X-152.7898 Y78.6838 
G01 X-153.0032 Y78.6500 
G01 X-153.2192 Y78.6500 
G01 X-153.4326 Y78.6838 
G01 X-153.6381 Y78.7506 
G01 X-153.8307 Y78.8487 
G01 X-154.0055 Y78.9757 
G01 X-154.1582 Y79.1284 
G01 X-154.2852 Y79.3032 
G01 X-154.3833 Y79.4958 
G01 X-154.4501 Y79.7013 
G01 X-154.4839 Y79.9147 
G01 X-154.4839 Y82.6453 
G01 X-154.4501 Y82.8587 
G01 X-154.3833 Y83.0642 
G01 X-154.2852 Y83.2568 
G01 X-154.1582 Y83.4316 
G01 X-154.0055 Y83.5843 
G01 X-153.8307 Y83.7113 
G01 X-153.6381 Y83.8094 
G01 X-153.4326 Y83.8762 
G01 X-153.2192 Y83.9100 
G01 X-153.0032 Y83.9100 
G01 X-152.7898 Y83.8762 
G01 X-152.5843 Y83.8094 
G01 X-152.3917 Y83.7113 
G01 X-152.2169 Y83.5843 
G01 X-152.0642 Y83.4316 
G01 X-151.9372 Y83.2568 
G01 X-151.8391 Y83.0642 
G01 X-151.7723 Y82.8587 
G01 X-151.7385 Y82.6453 
G00 Z2.5400 
G00 X-57.6061 Y97.8853 
G01 Z-0.1500 F254.00 
G01 X-57.6061 Y95.1547 F508.00 
G01 X-57.6399 Y94.9413 
G01 X-57.7067 Y94.7358 
G01 X-57.8048 Y94.5432 
G01 X-57.9318 Y94.3684 
G01 X-58.0845 Y94.2157 
G01 X-58.2593 Y94.0887 
G01 X-58.4519 Y93.9906 
G01 X-58.6574 Y93.9238 
G01 X-58.8708 Y93.8900 
G01 X-59.0868 Y93.8900 
G01 X-59.3002 Y93.9238 
G01 X-59.5057 Y93.9906 
G01 X-59.6983 Y94.0887 
G01 X-59.8731 Y94.2157 
G01 X-60.0258 Y94.3684 
G01 X-60.1528 Y94.5432 
G01 X-60.2509 Y94.7358 
G01 X-60.3177 Y94.9413 
G01 X-60.3515 Y95.1547 
G01 X-60.3515 Y97.8853 
G01 X-60.3177 Y98.0987 
G01 X-60.2509 Y98.3042 
G01 X-60.1528 Y98.4968 
G01 X-60.0258 Y98.6716 
G01 X-59.8731 Y98.8243 
G01 X-59.6983 Y98.9513 
G01 X-59.5057 Y99.0494 
G01 X-59.3002 Y99.1162 
G01 X-59.0868 Y99.1500 
G01 X-58.8708 Y99.1500 
G01 X-58.6574 Y99.1162 
G01 X-58.4519 Y99.0494 
G01 X-58.2593 Y98.9513 
G01 X-58.0845 Y98.8243 
G01 X-57.9318 Y98.6716 
G01 X-57.8048 Y98.4968 
G01 X-57.7067 Y98.3042 
G01 X-57.6399 Y98.0987 
G01 X-57.6061 Y97.8853 
G00 Z2.5400 
G00 X-61.5685 Y97.8853 
G01 Z-0.1500 F254.00 
G01 X-61.5685 Y95.1547 F508.00 
G01 X-61.6023 Y94.9413 
G01 X-61.6691 Y94.7358 
G01 X-61.7672 Y94.5432 
G01 X-61.8942 Y94.3684 
G01 X-62.0469 Y94.2157 
G01 X-62.2217 Y94.0887 
G01 X-62.4143 Y93.9906 
G01 X-62.6198 Y93.9238 
G01 X-62.8332 Y93.8900 
G01 X-63.0492 Y93.8900 
G01 X-63.2626 Y93.9238 
G01 X-63.4681 Y93.9906 
G01 X-63.6607 Y94.0887 
G01 X-63.8355 Y94.2157 
G01 X-63.9882 Y94.3684 
G01 X-64.1152 Y94.5432 
G01 X-64.2133 Y94.7358 
G01 X-64.2801 Y94.9413 
G01 X-64.3139 Y95.1547 
G01 X-64.3139 Y97.8853 
G01 X-64.2801 Y98.0987 
G01 X-64.2133 Y98.3042 
G01 X-64.1152 Y98.4968 
G01 X-63.9882 Y98.6716 
G01 X-63.8355 Y98.8243 
G01 X-63.6607 Y98.9513 
G01 X-63.4681 Y99.0494 
G01 X-63.2626 Y99.1162 
G01 X-63.0492 Y99.1500 
G01 X-62.8332 Y99.1500 
G01 X-62.6198 Y99.1162 
G01 X-62.4143 Y99.0494 
G01 X-62.2217 Y98.9513 
G01 X-62.0469 Y98.8243 
G01 X-61.8942 Y98.6716 
G01 X-61.7672 Y98.4968 
G01 X-61.6691 Y98.3042 
G01 X-61.6023 Y98.0987 
G01 X-61.5685 Y97.8853 
G00 Z2.5400 
G00 X-73.0104 Y83.7224 
G01 Z-0.1500 F254.00 
G01 X-73.0104 Y83.9176 F508.00 
G01 X-72.9799 Y84.1105 
G01 X-72.9195 Y84.2961 
G01 X-72.8309 Y84.4701 
G01 X-72.7161 Y84.6281 
G01 X-72.5781 Y84.7661 
G01 X-72.4201 Y84.8809 
G01 X-72.2461 Y84.9695 
G01 X-72.0605 Y85.0299 
G01 X-71.8676 Y85.0604 
G01 X-71.6724 Y85.0604 
G01 X-71.4795 Y85.0299 
G01 X-71.2939 Y84.9695 
G01 X-71.1199 Y84.8809 
G01 X-70.9619 Y84.7661 
G01 X-70.8239 Y84.6281 
G01 X-70.7091 Y84.4701 
G01 X-70.6205 Y84.2961 
G01 X-70.5601 Y84.1105 
G01 X-70.5296 Y83.9176 
G01 X-70.5296 Y83.7224 
G01 X-70.5501 Y83.5929 
G01 X-48.1596 Y61.2024 
G01 X-42.0397 Y61.2024 
G01 X-41.9879 Y61.3275 
G01 X-41.9030 Y61.4545 
G01 X-41.7949 Y61.5626 
G01 X-41.6679 Y61.6475 
G01 X-41.5267 Y61.7060 
G01 X-41.3768 Y61.7358 
G01 X-39.9032 Y61.7358 
G01 X-39.7533 Y61.7060 
G01 X-39.6121 Y61.6475 
G01 X-39.4851 Y61.5626 
G01 X-39.3770 Y61.4545 
G01 X-39.2921 Y61.3275 
G01 X-39.2403 Y61.2024 
G01 X-35.5118 Y61.2024 
G01 X-35.4227 Y61.1655 
G01 X-35.3545 Y61.0973 
G01 X-33.4530 Y59.1958 
G01 X-32.2832 Y59.1958 
G01 X-32.1333 Y59.1660 
G01 X-31.9921 Y59.1075 
G01 X-31.8651 Y59.0226 
G01 X-31.7570 Y58.9145 
G01 X-31.6721 Y58.7875 
G01 X-31.6136 Y58.6463 
G01 X-31.5838 Y58.4964 
G01 X-31.5838 Y58.3436 
G01 X-31.6136 Y58.1937 
G01 X-31.6721 Y58.0525 
G01 X-31.7570 Y57.9255 
G01 X-31.8651 Y57.8174 
G01 X-31.9921 Y57.7325 
G01 X-32.1333 Y57.6740 
G01 X-32.2832 Y57.6442 
G01 X-33.7568 Y57.6442 
G01 X-33.9067 Y57.6740 
G01 X-34.0479 Y57.7325 
G01 X-34.1749 Y57.8174 
G01 X-34.2830 Y57.9255 
G01 X-34.3679 Y58.0525 
G01 X-34.4264 Y58.1937 
G01 X-34.4562 Y58.3436 
G01 X-34.4562 Y58.4964 
G01 X-34.4264 Y58.6463 
G01 X-34.3679 Y58.7875 
G01 X-34.2830 Y58.9145 
G01 X-34.1749 Y59.0226 
G01 X-34.0493 Y59.1065 
G01 X-35.6604 Y60.7176 
G01 X-39.2403 Y60.7176 
G01 X-39.2921 Y60.5925 
G01 X-39.3770 Y60.4655 
G01 X-39.4851 Y60.3574 
G01 X-39.6121 Y60.2725 
G01 X-39.7533 Y60.2140 
G01 X-39.9032 Y60.1842 
G01 X-41.3768 Y60.1842 
G01 X-41.5267 Y60.2140 
G01 X-41.6679 Y60.2725 
G01 X-41.7949 Y60.3574 
G01 X-41.9030 Y60.4655 
G01 X-41.9879 Y60.5925 
G01 X-42.0397 Y60.7176 
G01 X-48.3082 Y60.7176 
G01 X-48.3973 Y60.7545 
G01 X-48.4655 Y60.8227 
G01 X-70.7527 Y83.1099 
G01 X-70.8239 Y83.0119 
G01 X-70.9619 Y82.8739 
G01 X-71.1199 Y82.7591 
G01 X-71.2939 Y82.6705 
G01 X-71.4795 Y82.6101 
G01 X-71.6724 Y82.5796 
G01 X-71.8676 Y82.5796 
G01 X-72.0605 Y82.6101 
G01 X-72.2461 Y82.6705 
G01 X-72.4201 Y82.7591 
G01 X-72.5781 Y82.8739 
G01 X-72.7161 Y83.0119 
G01 X-72.8309 Y83.1699 
G01 X-72.9195 Y83.3439 
G01 X-72.9799 Y83.5295 
G01 X-73.0104 Y83.7224 
G00 Z2.5400 
G00 X-70.5104 Y78.7224 
G01 Z-0.1500 F254.00 
G01 X-70.5104 Y78.9176 F508.00 
G01 X-70.4799 Y79.1105 
G01 X-70.4195 Y79.2961 
G01 X-70.3309 Y79.4701 
G01 X-70.2161 Y79.6281 
G01 X-70.0781 Y79.7661 
G01 X-69.9201 Y79.8809 
G01 X-69.7461 Y79.9695 
G01 X-69.5605 Y80.0299 
G01 X-69.3676 Y80.0604 
G01 X-69.1724 Y80.0604 
G01 X-68.9795 Y80.0299 
G01 X-68.7939 Y79.9695 
G01 X-68.6199 Y79.8809 
G01 X-68.4619 Y79.7661 
G01 X-68.3239 Y79.6281 
G01 X-68.2091 Y79.4701 
G01 X-68.1205 Y79.2961 
G01 X-68.0601 Y79.1105 
G01 X-68.0296 Y78.9176 
G01 X-68.0296 Y78.7224 
G01 X-68.0601 Y78.5295 
G01 X-68.1205 Y78.3439 
G01 X-68.2091 Y78.1699 
G01 X-68.3239 Y78.0119 
G01 X-68.4619 Y77.8739 
G01 X-68.6199 Y77.7591 
G01 X-68.7939 Y77.6705 
G01 X-68.9795 Y77.6101 
G01 X-69.1724 Y77.5796 
G01 X-69.3676 Y77.5796 
G01 X-69.5605 Y77.6101 
G01 X-69.7461 Y77.6705 
G01 X-69.9201 Y77.7591 
G01 X-70.0781 Y77.8739 
G01 X-70.2161 Y78.0119 
G01 X-70.3309 Y78.1699 
G01 X-70.4195 Y78.3439 
G01 X-70.4799 Y78.5295 
G01 X-70.5104 Y78.7224 
G00 Z2.5400 
G00 X-60.3104 Y78.7224 
G01 Z-0.1500 F254.00 
G01 X-60.3104 Y78.9176 F508.00 
G01 X-60.2799 Y79.1105 
G01 X-60.2195 Y79.2961 
G01 X-60.1309 Y79.4701 
G01 X-60.0161 Y79.6281 
G01 X-59.8781 Y79.7661 
G01 X-59.7201 Y79.8809 
G01 X-59.5461 Y79.9695 
G01 X-59.3605 Y80.0299 
G01 X-59.1676 Y80.0604 
G01 X-58.9724 Y80.0604 
G01 X-58.7795 Y80.0299 
G01 X-58.5939 Y79.9695 
G01 X-58.4199 Y79.8809 
G01 X-58.2619 Y79.7661 
G01 X-58.1239 Y79.6281 
G01 X-58.0091 Y79.4701 
G01 X-57.9205 Y79.2961 
G01 X-57.8601 Y79.1105 
G01 X-57.8296 Y78.9176 
G01 X-57.8296 Y78.7224 
G01 X-57.8601 Y78.5295 
G01 X-57.9205 Y78.3439 
G01 X-58.0091 Y78.1699 
G01 X-58.1239 Y78.0119 
G01 X-58.2619 Y77.8739 
G01 X-58.4199 Y77.7591 
G01 X-58.5939 Y77.6705 
G01 X-58.7795 Y77.6101 
G01 X-58.9724 Y77.5796 
G01 X-59.1676 Y77.5796 
G01 X-59.3605 Y77.6101 
G01 X-59.5461 Y77.6705 
G01 X-59.7201 Y77.7591 
G01 X-59.8781 Y77.8739 
G01 X-60.0161 Y78.0119 
G01 X-60.1309 Y78.1699 
G01 X-60.2195 Y78.3439 
G01 X-60.2799 Y78.5295 
G01 X-60.3104 Y78.7224 
G00 Z2.5400 
G00 X-60.3104 Y88.7224 
G01 Z-0.1500 F254.00 
G01 X-60.3104 Y88.9176 F508.00 
G01 X-60.2799 Y89.1105 
G01 X-60.2195 Y89.2961 
G01 X-60.1309 Y89.4701 
G01 X-60.0161 Y89.6281 
G01 X-59.8781 Y89.7661 
G01 X-59.7201 Y89.8809 
G01 X-59.5461 Y89.9695 
G01 X-59.3605 Y90.0299 
G01 X-59.1676 Y90.0604 
G01 X-58.9724 Y90.0604 
G01 X-58.7795 Y90.0299 
G01 X-58.5939 Y89.9695 
G01 X-58.4199 Y89.8809 
G01 X-58.2619 Y89.7661 
G01 X-58.1239 Y89.6281 
G01 X-58.0091 Y89.4701 
G01 X-57.9205 Y89.2961 
G01 X-57.8601 Y89.1105 
G01 X-57.8296 Y88.9176 
G01 X-57.8296 Y88.7224 
G01 X-57.8601 Y88.5295 
G01 X-57.9205 Y88.3439 
G01 X-58.0091 Y88.1699 
G01 X-58.1239 Y88.0119 
G01 X-58.2619 Y87.8739 
G01 X-58.4199 Y87.7591 
G01 X-58.5939 Y87.6705 
G01 X-58.7795 Y87.6101 
G01 X-58.9724 Y87.5796 
G01 X-59.1676 Y87.5796 
G01 X-59.3605 Y87.6101 
G01 X-59.5461 Y87.6705 
G01 X-59.7201 Y87.7591 
G01 X-59.8781 Y87.8739 
G01 X-60.0161 Y88.0119 
G01 X-60.1309 Y88.1699 
G01 X-60.2195 Y88.3439 
G01 X-60.2799 Y88.5295 
G01 X-60.3104 Y88.7224 
G00 Z2.5400 
G00 X-9.2064 Y73.3221 
G01 Z-0.1500 F254.00 
G01 X-9.2064 Y71.4579 F508.00 
G01 X-9.2430 Y71.2736 
G01 X-9.3149 Y71.1001 
G01 X-9.4193 Y70.9439 
G01 X-9.5521 Y70.8111 
G01 X-9.7083 Y70.7067 
G01 X-9.8818 Y70.6348 
G01 X-10.0661 Y70.5982 
G01 X-10.2539 Y70.5982 
G01 X-10.4382 Y70.6348 
G01 X-10.6117 Y70.7067 
G01 X-10.7679 Y70.8111 
G01 X-10.9007 Y70.9439 
G01 X-11.0051 Y71.1001 
G01 X-11.0770 Y71.2736 
G01 X-11.1136 Y71.4579 
G01 X-11.1136 Y73.3221 
G01 X-11.0770 Y73.5064 
G01 X-11.0051 Y73.6799 
G01 X-10.9007 Y73.8361 
G01 X-10.7679 Y73.9689 
G01 X-10.6117 Y74.0733 
G01 X-10.4382 Y74.1452 
G01 X-10.2539 Y74.1818 
G01 X-10.0661 Y74.1818 
G01 X-9.8818 Y74.1452 
G01 X-9.7083 Y74.0733 
G01 X-9.5521 Y73.9689 
G01 X-9.4193 Y73.8361 
G01 X-9.3149 Y73.6799 
G01 X-9.2430 Y73.5064 
G01 X-9.2064 Y73.3221 
G00 Z2.5400 
G00 X-1.5864 Y73.3221 
G01 Z-0.1500 F254.00 
G01 X-1.5864 Y71.4579 F508.00 
G01 X-1.6230 Y71.2736 
G01 X-1.6949 Y71.1001 
G01 X-1.7993 Y70.9439 
G01 X-1.9321 Y70.8111 
G01 X-2.0883 Y70.7067 
G01 X-2.2618 Y70.6348 
G01 X-2.4461 Y70.5982 
G01 X-2.6339 Y70.5982 
G01 X-2.8182 Y70.6348 
G01 X-2.9917 Y70.7067 
G01 X-3.1479 Y70.8111 
G01 X-3.2807 Y70.9439 
G01 X-3.3851 Y71.1001 
G01 X-3.4569 Y71.2736 
G01 X-3.4936 Y71.4579 
G01 X-3.4936 Y73.3221 
G01 X-3.4569 Y73.5064 
G01 X-3.3851 Y73.6799 
G01 X-3.2807 Y73.8361 
G01 X-3.1479 Y73.9689 
G01 X-2.9917 Y74.0733 
G01 X-2.8182 Y74.1452 
G01 X-2.6339 Y74.1818 
G01 X-2.4461 Y74.1818 
G01 X-2.2618 Y74.1452 
G01 X-2.0883 Y74.0733 
G01 X-1.9321 Y73.9689 
G01 X-1.7993 Y73.8361 
G01 X-1.6949 Y73.6799 
G01 X-1.6230 Y73.5064 
G01 X-1.5864 Y73.3221 
G00 Z2.5400 
G00 X-15.1572 Y90.9176 
G01 Z-0.1500 F254.00 
G01 X-12.7828 Y90.9176 F508.00 
G01 X-12.5950 Y90.8879 
G01 X-12.4142 Y90.8291 
G01 X-12.2449 Y90.7428 
G01 X-12.0911 Y90.6311 
G01 X-11.9567 Y90.4967 
G01 X-11.8450 Y90.3429 
G01 X-11.7587 Y90.1736 
G01 X-11.6999 Y89.9928 
G01 X-11.6702 Y89.8050 
G01 X-11.6702 Y89.6150 
G01 X-11.6999 Y89.4272 
G01 X-11.7587 Y89.2464 
G01 X-11.8117 Y89.1424 
G01 X-6.3018 Y89.1424 
G01 X-6.2127 Y89.1055 
G01 X-6.1445 Y89.0373 
G01 X-6.1076 Y88.9482 
G01 X-6.1076 Y74.1523 
G01 X-6.0718 Y74.1452 
G01 X-5.8983 Y74.0733 
G01 X-5.7421 Y73.9689 
G01 X-5.6093 Y73.8361 
G01 X-5.5049 Y73.6799 
G01 X-5.4330 Y73.5064 
G01 X-5.3964 Y73.3221 
G01 X-5.3964 Y71.4579 
G01 X-5.4330 Y71.2736 
G01 X-5.5049 Y71.1001 
G01 X-5.6093 Y70.9439 
G01 X-5.7421 Y70.8111 
G01 X-5.8983 Y70.7067 
G01 X-6.0718 Y70.6348 
G01 X-6.2561 Y70.5982 
G01 X-6.4439 Y70.5982 
G01 X-6.6282 Y70.6348 
G01 X-6.8017 Y70.7067 
G01 X-6.9579 Y70.8111 
G01 X-7.0907 Y70.9439 
G01 X-7.1951 Y71.1001 
G01 X-7.2670 Y71.2736 
G01 X-7.3036 Y71.4579 
G01 X-7.3036 Y73.3221 
G01 X-7.2670 Y73.5064 
G01 X-7.1951 Y73.6799 
G01 X-7.0907 Y73.8361 
G01 X-6.9579 Y73.9689 
G01 X-6.8017 Y74.0733 
G01 X-6.6282 Y74.1452 
G01 X-6.5924 Y74.1523 
G01 X-6.5924 Y88.6576 
G01 X-12.2833 Y88.6576 
G01 X-12.4142 Y88.5909 
G01 X-12.5950 Y88.5321 
G01 X-12.7828 Y88.5024 
G01 X-15.1572 Y88.5024 
G01 X-15.3450 Y88.5321 
G01 X-15.5258 Y88.5909 
G01 X-15.6951 Y88.6772 
G01 X-15.8489 Y88.7889 
G01 X-15.9833 Y88.9233 
G01 X-16.0950 Y89.0771 
G01 X-16.1813 Y89.2464 
G01 X-16.2401 Y89.4272 
G01 X-16.2698 Y89.6150 
G01 X-16.2698 Y89.8050 
G01 X-16.2401 Y89.9928 
G01 X-16.1813 Y90.1736 
G01 X-16.0950 Y90.3429 
G01 X-15.9833 Y90.4967 
G01 X-15.8489 Y90.6311 
G01 X-15.6951 Y90.7428 
G01 X-15.5258 Y90.8291 
G01 X-15.3450 Y90.8879 
G01 X-15.1572 Y90.9176 
G00 Z2.5400 
G00 X-15.1572 Y96.9176 
G01 Z-0.1500 F254.00 
G01 X-12.7828 Y96.9176 F508.00 
G01 X-12.5950 Y96.8879 
G01 X-12.4142 Y96.8291 
G01 X-12.2449 Y96.7428 
G01 X-12.0911 Y96.6311 
G01 X-11.9567 Y96.4967 
G01 X-11.8450 Y96.3429 
G01 X-11.7587 Y96.1736 
G01 X-11.6999 Y95.9928 
G01 X-11.6702 Y95.8050 
G01 X-11.6702 Y95.6150 
G01 X-11.6999 Y95.4272 
G01 X-11.7587 Y95.2464 
G01 X-11.8450 Y95.0771 
G01 X-11.9567 Y94.9233 
G01 X-12.0911 Y94.7889 
G01 X-12.2449 Y94.6772 
G01 X-12.4142 Y94.5909 
G01 X-12.5950 Y94.5321 
G01 X-12.7828 Y94.5024 
G01 X-15.1572 Y94.5024 
G01 X-15.3450 Y94.5321 
G01 X-15.5258 Y94.5909 
G01 X-15.6951 Y94.6772 
G01 X-15.8489 Y94.7889 
G01 X-15.9833 Y94.9233 
G01 X-16.0950 Y95.0771 
G01 X-16.1813 Y95.2464 
G01 X-16.2401 Y95.4272 
G01 X-16.2698 Y95.6150 
G01 X-16.2698 Y95.8050 
G01 X-16.2401 Y95.9928 
G01 X-16.1813 Y96.1736 
G01 X-16.0950 Y96.3429 
G01 X-15.9833 Y96.4967 
G01 X-15.8489 Y96.6311 
G01 X-15.6951 Y96.7428 
G01 X-15.5258 Y96.8291 
G01 X-15.3450 Y96.8879 
G01 X-15.1572 Y96.9176 
G00 Z2.5400 
G00 X-10.3776 Y91.5228 
G01 Z-0.1500 F254.00 
G01 X-10.3776 Y93.8972 F508.00 
G01 X-10.3479 Y94.0850 
G01 X-10.2891 Y94.2658 
G01 X-10.2028 Y94.4351 
G01 X-10.0911 Y94.5889 
G01 X-9.9567 Y94.7233 
G01 X-9.8029 Y94.8350 
G01 X-9.6336 Y94.9213 
G01 X-9.4528 Y94.9801 
G01 X-9.2650 Y95.0098 
G01 X-9.0750 Y95.0098 
G01 X-8.8872 Y94.9801 
G01 X-8.7064 Y94.9213 
G01 X-8.5371 Y94.8350 
G01 X-8.3833 Y94.7233 
G01 X-8.2489 Y94.5889 
G01 X-8.1372 Y94.4351 
G01 X-8.0509 Y94.2658 
G01 X-7.9921 Y94.0850 
G01 X-7.9624 Y93.8972 
G01 X-7.9624 Y91.5228 
G01 X-7.9921 Y91.3350 
G01 X-8.0509 Y91.1542 
G01 X-8.1372 Y90.9849 
G01 X-8.2489 Y90.8311 
G01 X-8.3833 Y90.6967 
G01 X-8.5371 Y90.5850 
G01 X-8.7064 Y90.4987 
G01 X-8.8872 Y90.4399 
G01 X-9.0750 Y90.4102 
G01 X-9.2650 Y90.4102 
G01 X-9.4528 Y90.4399 
G01 X-9.6336 Y90.4987 
G01 X-9.8029 Y90.5850 
G01 X-9.9567 Y90.6967 
G01 X-10.0911 Y90.8311 
G01 X-10.2028 Y90.9849 
G01 X-10.2891 Y91.1542 
G01 X-10.3479 Y91.3350 
G01 X-10.3776 Y91.5228 
G00 Z2.5400 
G00 X-6.0334 Y96.3743 
G01 Z-0.1500 F254.00 
G01 X-6.0334 Y96.6657 F508.00 
G01 X-5.9954 Y96.9547 
G01 X-5.9199 Y97.2362 
G01 X-5.8084 Y97.5055 
G01 X-5.6627 Y97.7579 
G01 X-5.4852 Y97.9891 
G01 X-5.2791 Y98.1952 
G01 X-5.0479 Y98.3727 
G01 X-4.7955 Y98.5184 
G01 X-4.5262 Y98.6299 
G01 X-4.2447 Y98.7054 
G01 X-3.9557 Y98.7434 
G01 X-3.6643 Y98.7434 
G01 X-3.3753 Y98.7054 
G01 X-3.0938 Y98.6299 
G01 X-2.8245 Y98.5184 
G01 X-2.5721 Y98.3727 
G01 X-2.3409 Y98.1952 
G01 X-2.1348 Y97.9891 
G01 X-1.9573 Y97.7579 
G01 X-1.8116 Y97.5055 
G01 X-1.7001 Y97.2362 
G01 X-1.6246 Y96.9547 
G01 X-1.5866 Y96.6657 
G01 X-1.5866 Y96.3743 
G01 X-1.6246 Y96.0853 
G01 X-1.7001 Y95.8038 
G01 X-1.8116 Y95.5345 
G01 X-1.9573 Y95.2821 
G01 X-2.1348 Y95.0509 
G01 X-2.3409 Y94.8448 
G01 X-2.5721 Y94.6673 
G01 X-2.8245 Y94.5216 
G01 X-3.0938 Y94.4101 
G01 X-3.3753 Y94.3346 
G01 X-3.6643 Y94.2966 
G01 X-3.9557 Y94.2966 
G01 X-4.2447 Y94.3346 
G01 X-4.5262 Y94.4101 
G01 X-4.7955 Y94.5216 
G01 X-5.0479 Y94.6673 
G01 X-5.2791 Y94.8448 
G01 X-5.4852 Y95.0509 
G01 X-5.6627 Y95.2821 
G01 X-5.8084 Y95.5345 
G01 X-5.9199 Y95.8038 
G01 X-5.9954 Y96.0853 
G01 X-6.0334 Y96.3743 
G00 Z2.5400 
G00 X-6.0334 Y3.6643 
G01 Z-0.1500 F254.00 
G01 X-6.0334 Y3.9557 F508.00 
G01 X-5.9954 Y4.2447 
G01 X-5.9199 Y4.5262 
G01 X-5.8084 Y4.7955 
G01 X-5.6627 Y5.0479 
G01 X-5.4852 Y5.2791 
G01 X-5.2791 Y5.4852 
G01 X-5.0479 Y5.6627 
G01 X-4.7955 Y5.8084 
G01 X-4.5262 Y5.9199 
G01 X-4.2447 Y5.9954 
G01 X-3.9557 Y6.0334 
G01 X-3.6643 Y6.0334 
G01 X-3.3753 Y5.9954 
G01 X-3.0938 Y5.9199 
G01 X-2.8245 Y5.8084 
G01 X-2.5721 Y5.6627 
G01 X-2.3409 Y5.4852 
G01 X-2.1348 Y5.2791 
G01 X-1.9573 Y5.0479 
G01 X-1.8116 Y4.7955 
G01 X-1.7001 Y4.5262 
G01 X-1.6246 Y4.2447 
G01 X-1.5866 Y3.9557 
G01 X-1.5866 Y3.6643 
G01 X-1.6246 Y3.3753 
G01 X-1.7001 Y3.0938 
G01 X-1.8116 Y2.8245 
G01 X-1.9573 Y2.5721 
G01 X-2.1348 Y2.3409 
G01 X-2.3409 Y2.1348 
G01 X-2.5721 Y1.9573 
G01 X-2.8245 Y1.8116 
G01 X-3.0938 Y1.7001 
G01 X-3.3753 Y1.6246 
G01 X-3.6643 Y1.5866 
G01 X-3.9557 Y1.5866 
G01 X-4.2447 Y1.6246 
G01 X-4.5262 Y1.7001 
G01 X-4.7955 Y1.8116 
G01 X-5.0479 Y1.9573 
G01 X-5.2791 Y2.1348 
G01 X-5.4852 Y2.3409 
G01 X-5.6627 Y2.5721 
G01 X-5.8084 Y2.8245 
G01 X-5.9199 Y3.0938 
G01 X-5.9954 Y3.3753 
G01 X-6.0334 Y3.6643 
G00 Z2.5400 
G00 X-87.3134 Y96.3743 
G01 Z-0.1500 F254.00 
G01 X-87.3134 Y96.6657 F508.00 
G01 X-87.2754 Y96.9547 
G01 X-87.1999 Y97.2362 
G01 X-87.0884 Y97.5055 
G01 X-86.9427 Y97.7579 
G01 X-86.7652 Y97.9891 
G01 X-86.5591 Y98.1952 
G01 X-86.3279 Y98.3727 
G01 X-86.0755 Y98.5184 
G01 X-85.8062 Y98.6299 
G01 X-85.5247 Y98.7054 
G01 X-85.2357 Y98.7434 
G01 X-84.9443 Y98.7434 
G01 X-84.6553 Y98.7054 
G01 X-84.3738 Y98.6299 
G01 X-84.1045 Y98.5184 
G01 X-83.8521 Y98.3727 
G01 X-83.6209 Y98.1952 
G01 X-83.4148 Y97.9891 
G01 X-83.2373 Y97.7579 
G01 X-83.0916 Y97.5055 
G01 X-82.9801 Y97.2362 
G01 X-82.9046 Y96.9547 
G01 X-82.8666 Y96.6657 
G01 X-82.8666 Y96.3743 
G01 X-82.9046 Y96.0853 
G01 X-82.9801 Y95.8038 
G01 X-83.0916 Y95.5345 
G01 X-83.2373 Y95.2821 
G01 X-83.4148 Y95.0509 
G01 X-83.6209 Y94.8448 
G01 X-83.8521 Y94.6673 
G01 X-84.1045 Y94.5216 
G01 X-84.3738 Y94.4101 
G01 X-84.6553 Y94.3346 
G01 X-84.9443 Y94.2966 
G01 X-85.2357 Y94.2966 
G01 X-85.5247 Y94.3346 
G01 X-85.8062 Y94.4101 
G01 X-86.0755 Y94.5216 
G01 X-86.3279 Y94.6673 
G01 X-86.5591 Y94.8448 
G01 X-86.7652 Y95.0509 
G01 X-86.9427 Y95.2821 
G01 X-87.0884 Y95.5345 
G01 X-87.1999 Y95.8038 
G01 X-87.2754 Y96.0853 
G01 X-87.3134 Y96.3743 
G00 Z2.5400 
G00 X-87.3134 Y3.6643 
G01 Z-0.1500 F254.00 
G01 X-87.3134 Y3.9557 F508.00 
G01 X-87.2754 Y4.2447 
G01 X-87.1999 Y4.5262 
G01 X-87.0884 Y4.7955 
G01 X-86.9427 Y5.0479 
G01 X-86.7652 Y5.2791 
G01 X-86.5591 Y5.4852 
G01 X-86.3279 Y5.6627 
G01 X-86.0755 Y5.8084 
G01 X-85.8062 Y5.9199 
G01 X-85.5247 Y5.9954 
G01 X-85.2357 Y6.0334 
G01 X-84.9443 Y6.0334 
G01 X-84.6553 Y5.9954 
G01 X-84.3738 Y5.9199 
G01 X-84.1045 Y5.8084 
G01 X-83.8521 Y5.6627 
G01 X-83.6209 Y5.4852 
G01 X-83.4148 Y5.2791 
G01 X-83.2373 Y5.0479 
G01 X-83.0916 Y4.7955 
G01 X-82.9801 Y4.5262 
G01 X-82.9046 Y4.2447 
G01 X-82.8666 Y3.9557 
G01 X-82.8666 Y3.6643 
G01 X-82.9046 Y3.3753 
G01 X-82.9801 Y3.0938 
G01 X-83.0916 Y2.8245 
G01 X-83.2373 Y2.5721 
G01 X-83.4148 Y2.3409 
G01 X-83.6209 Y2.1348 
G01 X-83.8521 Y1.9573 
G01 X-84.1045 Y1.8116 
G01 X-84.3738 Y1.7001 
G01 X-84.6553 Y1.6246 
G01 X-84.9443 Y1.5866 
G01 X-85.2357 Y1.5866 
G01 X-85.5247 Y1.6246 
G01 X-85.8062 Y1.7001 
G01 X-86.0755 Y1.8116 
G01 X-86.3279 Y1.9573 
G01 X-86.5591 Y2.1348 
G01 X-86.7652 Y2.3409 
G01 X-86.9427 Y2.5721 
G01 X-87.0884 Y2.8245 
G01 X-87.1999 Y3.0938 
G01 X-87.2754 Y3.3753 
G01 X-87.3134 Y3.6643 
G00 Z2.5400 
G00 X-5.5510 Y66.9376 
G01 Z-0.1500 F254.00 
G01 X-5.5510 Y67.1236 F508.00 
G01 X-5.5219 Y67.3074 
G01 X-5.4644 Y67.4844 
G01 X-5.3799 Y67.6502 
G01 X-5.2705 Y67.8008 
G01 X-5.1390 Y67.9323 
G01 X-4.9884 Y68.0417 
G01 X-4.8226 Y68.1262 
G01 X-4.6456 Y68.1837 
G01 X-4.4618 Y68.2128 
G01 X-4.2758 Y68.2128 
G01 X-4.0920 Y68.1837 
G01 X-3.9150 Y68.1262 
G01 X-3.7492 Y68.0417 
G01 X-3.5986 Y67.9323 
G01 X-3.4671 Y67.8008 
G01 X-3.3577 Y67.6502 
G01 X-3.2732 Y67.4844 
G01 X-3.2157 Y67.3074 
G01 X-3.1866 Y67.1236 
G01 X-3.1866 Y66.9376 
G01 X-3.2157 Y66.7538 
G01 X-3.2732 Y66.5768 
G01 X-3.3577 Y66.4110 
G01 X-3.4671 Y66.2604 
G01 X-3.5986 Y66.1289 
G01 X-3.7492 Y66.0195 
G01 X-3.9150 Y65.9350 
G01 X-4.0920 Y65.8775 
G01 X-4.2758 Y65.8484 
G01 X-4.4618 Y65.8484 
G01 X-4.6456 Y65.8775 
G01 X-4.8226 Y65.9350 
G01 X-4.9884 Y66.0195 
G01 X-5.1390 Y66.1289 
G01 X-5.2705 Y66.2604 
G01 X-5.3799 Y66.4110 
G01 X-5.4644 Y66.5768 
G01 X-5.5219 Y66.7538 
G01 X-5.5510 Y66.9376 
G00 Z2.5400 
G00 X-5.5510 Y62.4164 
G01 Z-0.1500 F254.00 
G01 X-5.5510 Y62.6024 F508.00 
G01 X-5.5219 Y62.7862 
G01 X-5.4644 Y62.9632 
G01 X-5.3799 Y63.1290 
G01 X-5.2705 Y63.2796 
G01 X-5.1390 Y63.4111 
G01 X-4.9884 Y63.5205 
G01 X-4.8226 Y63.6050 
G01 X-4.6456 Y63.6625 
G01 X-4.4618 Y63.6916 
G01 X-4.2758 Y63.6916 
G01 X-4.0920 Y63.6625 
G01 X-3.9150 Y63.6050 
G01 X-3.7492 Y63.5205 
G01 X-3.5986 Y63.4111 
G01 X-3.4671 Y63.2796 
G01 X-3.3577 Y63.1290 
G01 X-3.2732 Y62.9632 
G01 X-3.2157 Y62.7862 
G01 X-3.1866 Y62.6024 
G01 X-3.1866 Y62.4164 
G01 X-3.2157 Y62.2326 
G01 X-3.2732 Y62.0556 
G01 X-3.3577 Y61.8898 
G01 X-3.4671 Y61.7392 
G01 X-3.5986 Y61.6077 
G01 X-3.7492 Y61.4983 
G01 X-3.9150 Y61.4138 
G01 X-4.0920 Y61.3563 
G01 X-4.2758 Y61.3272 
G01 X-4.4618 Y61.3272 
G01 X-4.6456 Y61.3563 
G01 X-4.8226 Y61.4138 
G01 X-4.9884 Y61.4983 
G01 X-5.1390 Y61.6077 
G01 X-5.2705 Y61.7392 
G01 X-5.3799 Y61.8898 
G01 X-5.4644 Y62.0556 
G01 X-5.5219 Y62.2326 
G01 X-5.5510 Y62.4164 
G00 Z2.5400 
G00 X-41.3893 Y77.1028 
G01 Z-0.1500 F254.00 
G01 X-39.8907 Y77.1028 F508.00 
G01 X-39.7163 Y77.0681 
G01 X-39.5520 Y77.0000 
G01 X-39.4041 Y76.9012 
G01 X-39.2784 Y76.7755 
G01 X-39.1795 Y76.6276 
G01 X-39.1115 Y76.4633 
G01 X-39.0768 Y76.2889 
G01 X-39.0768 Y76.1111 
G01 X-39.1115 Y75.9367 
G01 X-39.1795 Y75.7724 
G01 X-39.2784 Y75.6245 
G01 X-39.4041 Y75.4988 
G01 X-39.5520 Y75.4000 
G01 X-39.7163 Y75.3319 
G01 X-39.8796 Y75.2994 
G01 X-36.7814 Y75.2994 
G01 X-36.6874 Y75.2742 
G01 X-36.6032 Y75.2256 
G01 X-36.5344 Y75.1568 
G01 X-33.4004 Y72.0228 
G01 X-32.2707 Y72.0228 
G01 X-32.0963 Y71.9881 
G01 X-31.9320 Y71.9200 
G01 X-31.7841 Y71.8212 
G01 X-31.6584 Y71.6955 
G01 X-31.5596 Y71.5476 
G01 X-31.4915 Y71.3833 
G01 X-31.4568 Y71.2089 
G01 X-31.4568 Y71.0311 
G01 X-31.4915 Y70.8567 
G01 X-31.5596 Y70.6924 
G01 X-31.6584 Y70.5445 
G01 X-31.7841 Y70.4188 
G01 X-31.9320 Y70.3200 
G01 X-32.0963 Y70.2519 
G01 X-32.2707 Y70.2172 
G01 X-33.7693 Y70.2172 
G01 X-33.9437 Y70.2519 
G01 X-34.1080 Y70.3200 
G01 X-34.2559 Y70.4188 
G01 X-34.3816 Y70.5445 
G01 X-34.4804 Y70.6924 
G01 X-34.5485 Y70.8567 
G01 X-34.5832 Y71.0311 
G01 X-34.5832 Y71.2089 
G01 X-34.5485 Y71.3833 
G01 X-34.4804 Y71.5476 
G01 X-34.3816 Y71.6955 
G01 X-34.2559 Y71.8212 
G01 X-34.2486 Y71.8261 
G01 X-36.9830 Y74.5606 
G01 X-39.8796 Y74.5606 
G01 X-39.7163 Y74.5281 
G01 X-39.5520 Y74.4600 
G01 X-39.4041 Y74.3612 
G01 X-39.2784 Y74.2355 
G01 X-39.1795 Y74.0876 
G01 X-39.1115 Y73.9233 
G01 X-39.0768 Y73.7489 
G01 X-39.0768 Y73.5711 
G01 X-39.1115 Y73.3967 
G01 X-39.1795 Y73.2324 
G01 X-39.2784 Y73.0845 
G01 X-39.4041 Y72.9588 
G01 X-39.5520 Y72.8599 
G01 X-39.7163 Y72.7919 
G01 X-39.8907 Y72.7572 
G01 X-41.3893 Y72.7572 
G01 X-41.5637 Y72.7919 
G01 X-41.7280 Y72.8599 
G01 X-41.8759 Y72.9588 
G01 X-42.0016 Y73.0845 
G01 X-42.1004 Y73.2324 
G01 X-42.1685 Y73.3967 
G01 X-42.2032 Y73.5711 
G01 X-42.2032 Y73.7489 
G01 X-42.1685 Y73.9233 
G01 X-42.1004 Y74.0876 
G01 X-42.0016 Y74.2355 
G01 X-41.8759 Y74.3612 
G01 X-41.7280 Y74.4600 
G01 X-41.5637 Y74.5281 
G01 X-41.4004 Y74.5606 
G01 X-58.4686 Y74.5606 
G01 X-58.5626 Y74.5858 
G01 X-58.6468 Y74.6344 
G01 X-71.3468 Y87.3344 
G01 X-71.4156 Y87.4032 
G01 X-71.4642 Y87.4874 
G01 X-71.4894 Y87.5814 
G01 X-71.4894 Y92.7586 
G01 X-71.4642 Y92.8526 
G01 X-71.4156 Y92.9368 
G01 X-71.3468 Y93.0056 
G01 X-71.2626 Y93.0542 
G01 X-71.1686 Y93.0794 
G01 X-47.1430 Y93.0794 
G01 X-45.4484 Y94.7740 
G01 X-45.4925 Y94.8182 
G01 X-45.4925 Y95.6818 
G01 X-44.8818 Y96.2925 
G01 X-44.0182 Y96.2925 
G01 X-43.4075 Y95.6818 
G01 X-43.4075 Y94.8182 
G01 X-44.0182 Y94.2075 
G01 X-44.8818 Y94.2075 
G01 X-44.9260 Y94.2516 
G01 X-46.7632 Y92.4144 
G01 X-46.8474 Y92.3658 
G01 X-46.9414 Y92.3406 
G01 X-70.7506 Y92.3406 
G01 X-70.7506 Y87.7830 
G01 X-58.2670 Y75.2994 
G01 X-41.4004 Y75.2994 
G01 X-41.5637 Y75.3319 
G01 X-41.7280 Y75.4000 
G01 X-41.8759 Y75.4988 
G01 X-42.0016 Y75.6245 
G01 X-42.1004 Y75.7724 
G01 X-42.1685 Y75.9367 
G01 X-42.2032 Y76.1111 
G01 X-42.2032 Y76.2889 
G01 X-42.1685 Y76.4633 
G01 X-42.1004 Y76.6276 
G01 X-42.0016 Y76.7755 
G01 X-41.8759 Y76.9012 
G01 X-41.7280 Y77.0000 
G01 X-41.5637 Y77.0681 
G01 X-41.3893 Y77.1028 
G00 Z2.5400 
G00 X-41.3893 Y72.0228 
G01 Z-0.1500 F254.00 
G01 X-39.8907 Y72.0228 F508.00 
G01 X-39.7163 Y71.9881 
G01 X-39.5520 Y71.9200 
G01 X-39.4041 Y71.8212 
G01 X-39.2784 Y71.6955 
G01 X-39.1795 Y71.5476 
G01 X-39.1115 Y71.3833 
G01 X-39.0768 Y71.2089 
G01 X-39.0768 Y71.0311 
G01 X-39.1115 Y70.8567 
G01 X-39.1795 Y70.6924 
G01 X-39.2784 Y70.5445 
G01 X-39.4041 Y70.4188 
G01 X-39.5520 Y70.3200 
G01 X-39.7163 Y70.2519 
G01 X-39.8907 Y70.2172 
G01 X-41.3893 Y70.2172 
G01 X-41.5637 Y70.2519 
G01 X-41.7280 Y70.3200 
G01 X-41.8759 Y70.4188 
G01 X-42.0016 Y70.5445 
G01 X-42.1004 Y70.6924 
G01 X-42.1685 Y70.8567 
G01 X-42.2032 Y71.0311 
G01 X-42.2032 Y71.2089 
G01 X-42.1685 Y71.3833 
G01 X-42.1004 Y71.5476 
G01 X-42.0016 Y71.6955 
G01 X-41.8759 Y71.8212 
G01 X-41.7280 Y71.9200 
G01 X-41.5637 Y71.9881 
G01 X-41.3893 Y72.0228 
G00 Z2.5400 
G00 X-41.3893 Y69.4828 
G01 Z-0.1500 F254.00 
G01 X-39.8907 Y69.4828 F508.00 
G01 X-39.7163 Y69.4481 
G01 X-39.5520 Y69.3800 
G01 X-39.4041 Y69.2812 
G01 X-39.2784 Y69.1555 
G01 X-39.1795 Y69.0076 
G01 X-39.1115 Y68.8433 
G01 X-39.0768 Y68.6689 
G01 X-39.0768 Y68.4911 
G01 X-39.1115 Y68.3167 
G01 X-39.1795 Y68.1524 
G01 X-39.2784 Y68.0045 
G01 X-39.4041 Y67.8787 
G01 X-39.5520 Y67.7799 
G01 X-39.7163 Y67.7119 
G01 X-39.8907 Y67.6772 
G01 X-41.3893 Y67.6772 
G01 X-41.5637 Y67.7119 
G01 X-41.7280 Y67.7799 
G01 X-41.8759 Y67.8787 
G01 X-42.0016 Y68.0045 
G01 X-42.1004 Y68.1524 
G01 X-42.1685 Y68.3167 
G01 X-42.2032 Y68.4911 
G01 X-42.2032 Y68.6689 
G01 X-42.1685 Y68.8433 
G01 X-42.1004 Y69.0076 
G01 X-42.0016 Y69.1555 
G01 X-41.8759 Y69.2812 
G01 X-41.7280 Y69.3800 
G01 X-41.5637 Y69.4481 
G01 X-41.3893 Y69.4828 
G00 Z2.5400 
G00 X-41.3893 Y66.9428 
G01 Z-0.1500 F254.00 
G01 X-39.8907 Y66.9428 F508.00 
G01 X-39.7163 Y66.9081 
G01 X-39.5520 Y66.8400 
G01 X-39.4041 Y66.7412 
G01 X-39.2784 Y66.6155 
G01 X-39.1795 Y66.4676 
G01 X-39.1115 Y66.3033 
G01 X-39.0768 Y66.1289 
G01 X-39.0768 Y65.9511 
G01 X-39.1115 Y65.7767 
G01 X-39.1795 Y65.6124 
G01 X-39.2784 Y65.4645 
G01 X-39.4041 Y65.3388 
G01 X-39.5520 Y65.2400 
G01 X-39.7163 Y65.1719 
G01 X-39.8907 Y65.1372 
G01 X-41.3893 Y65.1372 
G01 X-41.5637 Y65.1719 
G01 X-41.7280 Y65.2400 
G01 X-41.8759 Y65.3388 
G01 X-42.0016 Y65.4645 
G01 X-42.1004 Y65.6124 
G01 X-42.1685 Y65.7767 
G01 X-42.2032 Y65.9511 
G01 X-42.2032 Y66.1289 
G01 X-42.1685 Y66.3033 
G01 X-42.1004 Y66.4676 
G01 X-42.0016 Y66.6155 
G01 X-41.8759 Y66.7412 
G01 X-41.7280 Y66.8400 
G01 X-41.5637 Y66.9081 
G01 X-41.3893 Y66.9428 
G00 Z2.5400 
G00 X-41.3893 Y64.4028 
G01 Z-0.1500 F254.00 
G01 X-39.8907 Y64.4028 F508.00 
G01 X-39.7163 Y64.3681 
G01 X-39.5520 Y64.3000 
G01 X-39.4041 Y64.2012 
G01 X-39.2784 Y64.0755 
G01 X-39.1795 Y63.9276 
G01 X-39.1115 Y63.7633 
G01 X-39.0768 Y63.5889 
G01 X-39.0768 Y63.4111 
G01 X-39.1115 Y63.2367 
G01 X-39.1795 Y63.0724 
G01 X-39.2784 Y62.9245 
G01 X-39.4041 Y62.7988 
G01 X-39.5520 Y62.7000 
G01 X-39.7163 Y62.6319 
G01 X-39.8907 Y62.5972 
G01 X-41.3893 Y62.5972 
G01 X-41.5637 Y62.6319 
G01 X-41.7280 Y62.7000 
G01 X-41.8759 Y62.7988 
G01 X-42.0016 Y62.9245 
G01 X-42.1004 Y63.0724 
G01 X-42.1685 Y63.2367 
G01 X-42.2032 Y63.4111 
G01 X-42.2032 Y63.5889 
G01 X-42.1685 Y63.7633 
G01 X-42.1004 Y63.9276 
G01 X-42.0016 Y64.0755 
G01 X-41.8759 Y64.2012 
G01 X-41.7280 Y64.3000 
G01 X-41.5637 Y64.3681 
G01 X-41.3893 Y64.4028 
G00 Z2.5400 
G00 X-41.3893 Y59.3228 
G01 Z-0.1500 F254.00 
G01 X-39.8907 Y59.3228 F508.00 
G01 X-39.7163 Y59.2881 
G01 X-39.5520 Y59.2200 
G01 X-39.4041 Y59.1212 
G01 X-39.2784 Y58.9955 
G01 X-39.1795 Y58.8476 
G01 X-39.1115 Y58.6833 
G01 X-39.0768 Y58.5089 
G01 X-39.0768 Y58.3311 
G01 X-39.1115 Y58.1567 
G01 X-39.1795 Y57.9924 
G01 X-39.2784 Y57.8445 
G01 X-39.4041 Y57.7188 
G01 X-39.5520 Y57.6200 
G01 X-39.7163 Y57.5519 
G01 X-39.8907 Y57.5172 
G01 X-41.3893 Y57.5172 
G01 X-41.5637 Y57.5519 
G01 X-41.7280 Y57.6200 
G01 X-41.8759 Y57.7188 
G01 X-42.0016 Y57.8445 
G01 X-42.1004 Y57.9924 
G01 X-42.1685 Y58.1567 
G01 X-42.2032 Y58.3311 
G01 X-42.2032 Y58.5089 
G01 X-42.1685 Y58.6833 
G01 X-42.1004 Y58.8476 
G01 X-42.0016 Y58.9955 
G01 X-41.8759 Y59.1212 
G01 X-41.7280 Y59.2200 
G01 X-41.5637 Y59.2881 
G01 X-41.3893 Y59.3228 
G00 Z2.5400 
G00 X-41.3893 Y54.2428 
G01 Z-0.1500 F254.00 
G01 X-39.8907 Y54.2428 F508.00 
G01 X-39.7163 Y54.2081 
G01 X-39.5520 Y54.1400 
G01 X-39.4041 Y54.0412 
G01 X-39.2784 Y53.9155 
G01 X-39.1795 Y53.7676 
G01 X-39.1115 Y53.6033 
G01 X-39.0768 Y53.4289 
G01 X-39.0768 Y53.2511 
G01 X-39.1115 Y53.0767 
G01 X-39.1795 Y52.9124 
G01 X-39.2784 Y52.7645 
G01 X-39.4041 Y52.6388 
G01 X-39.5520 Y52.5400 
G01 X-39.7163 Y52.4719 
G01 X-39.8907 Y52.4372 
G01 X-41.3893 Y52.4372 
G01 X-41.5637 Y52.4719 
G01 X-41.7280 Y52.5400 
G01 X-41.8759 Y52.6388 
G01 X-42.0016 Y52.7645 
G01 X-42.1004 Y52.9124 
G01 X-42.1685 Y53.0767 
G01 X-42.2032 Y53.2511 
G01 X-42.2032 Y53.4289 
G01 X-42.1685 Y53.6033 
G01 X-42.1004 Y53.7676 
G01 X-42.0016 Y53.9155 
G01 X-41.8759 Y54.0412 
G01 X-41.7280 Y54.1400 
G01 X-41.5637 Y54.2081 
G01 X-41.3893 Y54.2428 
G00 Z2.5400 
G00 X-41.3893 Y51.7028 
G01 Z-0.1500 F254.00 
G01 X-39.8907 Y51.7028 F508.00 
G01 X-39.7163 Y51.6681 
G01 X-39.5520 Y51.6000 
G01 X-39.4041 Y51.5012 
G01 X-39.2784 Y51.3755 
G01 X-39.1795 Y51.2276 
G01 X-39.1115 Y51.0633 
G01 X-39.0768 Y50.8889 
G01 X-39.0768 Y50.7111 
G01 X-39.1115 Y50.5367 
G01 X-39.1795 Y50.3724 
G01 X-39.2784 Y50.2245 
G01 X-39.4041 Y50.0988 
G01 X-39.5520 Y50.0000 
G01 X-39.7163 Y49.9319 
G01 X-39.8907 Y49.8972 
G01 X-41.3893 Y49.8972 
G01 X-41.5637 Y49.9319 
G01 X-41.7280 Y50.0000 
G01 X-41.8759 Y50.0988 
G01 X-42.0016 Y50.2245 
G01 X-42.1004 Y50.3724 
G01 X-42.1685 Y50.5367 
G01 X-42.2032 Y50.7111 
G01 X-42.2032 Y50.8889 
G01 X-42.1685 Y51.0633 
G01 X-42.1004 Y51.2276 
G01 X-42.0016 Y51.3755 
G01 X-41.8759 Y51.5012 
G01 X-41.7280 Y51.6000 
G01 X-41.5637 Y51.6681 
G01 X-41.3893 Y51.7028 
G00 Z2.5400 
G00 X-41.3893 Y49.1628 
G01 Z-0.1500 F254.00 
G01 X-39.8907 Y49.1628 F508.00 
G01 X-39.7163 Y49.1281 
G01 X-39.5520 Y49.0600 
G01 X-39.4041 Y48.9612 
G01 X-39.2784 Y48.8355 
G01 X-39.1795 Y48.6876 
G01 X-39.1115 Y48.5233 
G01 X-39.0768 Y48.3489 
G01 X-39.0768 Y48.1711 
G01 X-39.1115 Y47.9967 
G01 X-39.1795 Y47.8324 
G01 X-39.2784 Y47.6845 
G01 X-39.4041 Y47.5588 
G01 X-39.5520 Y47.4599 
G01 X-39.7163 Y47.3919 
G01 X-39.8907 Y47.3572 
G01 X-41.3893 Y47.3572 
G01 X-41.5637 Y47.3919 
G01 X-41.7280 Y47.4599 
G01 X-41.8759 Y47.5588 
G01 X-42.0016 Y47.6845 
G01 X-42.1004 Y47.8324 
G01 X-42.1685 Y47.9967 
G01 X-42.2032 Y48.1711 
G01 X-42.2032 Y48.3489 
G01 X-42.1685 Y48.5233 
G01 X-42.1004 Y48.6876 
G01 X-42.0016 Y48.8355 
G01 X-41.8759 Y48.9612 
G01 X-41.7280 Y49.0600 
G01 X-41.5637 Y49.1281 
G01 X-41.3893 Y49.1628 
G00 Z2.5400 
G00 X-41.3893 Y46.6228 
G01 Z-0.1500 F254.00 
G01 X-39.8907 Y46.6228 F508.00 
G01 X-39.7163 Y46.5881 
G01 X-39.5520 Y46.5200 
G01 X-39.4041 Y46.4212 
G01 X-39.2784 Y46.2955 
G01 X-39.1795 Y46.1476 
G01 X-39.1115 Y45.9833 
G01 X-39.0768 Y45.8089 
G01 X-39.0768 Y45.6311 
G01 X-39.1115 Y45.4567 
G01 X-39.1795 Y45.2924 
G01 X-39.2784 Y45.1445 
G01 X-39.4041 Y45.0188 
G01 X-39.5520 Y44.9200 
G01 X-39.7163 Y44.8519 
G01 X-39.8907 Y44.8172 
G01 X-41.3893 Y44.8172 
G01 X-41.5637 Y44.8519 
G01 X-41.7280 Y44.9200 
G01 X-41.8759 Y45.0188 
G01 X-42.0016 Y45.1445 
G01 X-42.1004 Y45.2924 
G01 X-42.1685 Y45.4567 
G01 X-42.2032 Y45.6311 
G01 X-42.2032 Y45.8089 
G01 X-42.1685 Y45.9833 
G01 X-42.1004 Y46.1476 
G01 X-42.0016 Y46.2955 
G01 X-41.8759 Y46.4212 
G01 X-41.7280 Y46.5200 
G01 X-41.5637 Y46.5881 
G01 X-41.3893 Y46.6228 
G00 Z2.5400 
G00 X-41.3893 Y44.0828 
G01 Z-0.1500 F254.00 
G01 X-39.8907 Y44.0828 F508.00 
G01 X-39.7163 Y44.0481 
G01 X-39.5520 Y43.9800 
G01 X-39.4041 Y43.8812 
G01 X-39.2784 Y43.7555 
G01 X-39.1795 Y43.6076 
G01 X-39.1115 Y43.4433 
G01 X-39.0768 Y43.2689 
G01 X-39.0768 Y43.0911 
G01 X-39.1115 Y42.9167 
G01 X-39.1795 Y42.7524 
G01 X-39.2784 Y42.6045 
G01 X-39.4041 Y42.4788 
G01 X-39.5520 Y42.3800 
G01 X-39.7163 Y42.3119 
G01 X-39.8907 Y42.2772 
G01 X-41.3893 Y42.2772 
G01 X-41.5637 Y42.3119 
G01 X-41.7280 Y42.3800 
G01 X-41.8759 Y42.4788 
G01 X-42.0016 Y42.6045 
G01 X-42.1004 Y42.7524 
G01 X-42.1685 Y42.9167 
G01 X-42.2032 Y43.0911 
G01 X-42.2032 Y43.2689 
G01 X-42.1685 Y43.4433 
G01 X-42.1004 Y43.6076 
G01 X-42.0016 Y43.7555 
G01 X-41.8759 Y43.8812 
G01 X-41.7280 Y43.9800 
G01 X-41.5637 Y44.0481 
G01 X-41.3893 Y44.0828 
G00 Z2.5400 
G00 X-33.7693 Y44.0828 
G01 Z-0.1500 F254.00 
G01 X-32.2707 Y44.0828 F508.00 
G01 X-32.0963 Y44.0481 
G01 X-31.9320 Y43.9800 
G01 X-31.7841 Y43.8812 
G01 X-31.6584 Y43.7555 
G01 X-31.5596 Y43.6076 
G01 X-31.4915 Y43.4433 
G01 X-31.4568 Y43.2689 
G01 X-31.4568 Y43.0911 
G01 X-31.4915 Y42.9167 
G01 X-31.5596 Y42.7524 
G01 X-31.6584 Y42.6045 
G01 X-31.7841 Y42.4788 
G01 X-31.9320 Y42.3800 
G01 X-32.0963 Y42.3119 
G01 X-32.2707 Y42.2772 
G01 X-33.7693 Y42.2772 
G01 X-33.9437 Y42.3119 
G01 X-34.1080 Y42.3800 
G01 X-34.2559 Y42.4788 
G01 X-34.3816 Y42.6045 
G01 X-34.4804 Y42.7524 
G01 X-34.5485 Y42.9167 
G01 X-34.5832 Y43.0911 
G01 X-34.5832 Y43.2689 
G01 X-34.5485 Y43.4433 
G01 X-34.4804 Y43.6076 
G01 X-34.3816 Y43.7555 
G01 X-34.2559 Y43.8812 
G01 X-34.1080 Y43.9800 
G01 X-33.9437 Y44.0481 
G01 X-33.7693 Y44.0828 
G00 Z2.5400 
G00 X-33.7693 Y46.6228 
G01 Z-0.1500 F254.00 
G01 X-32.2707 Y46.6228 F508.00 
G01 X-32.0963 Y46.5881 
G01 X-31.9320 Y46.5200 
G01 X-31.7841 Y46.4212 
G01 X-31.6584 Y46.2955 
G01 X-31.5596 Y46.1476 
G01 X-31.4915 Y45.9833 
G01 X-31.4568 Y45.8089 
G01 X-31.4568 Y45.6311 
G01 X-31.4915 Y45.4567 
G01 X-31.5596 Y45.2924 
G01 X-31.6584 Y45.1445 
G01 X-31.7841 Y45.0188 
G01 X-31.9320 Y44.9200 
G01 X-32.0963 Y44.8519 
G01 X-32.2707 Y44.8172 
G01 X-33.7693 Y44.8172 
G01 X-33.9437 Y44.8519 
G01 X-34.1080 Y44.9200 
G01 X-34.2559 Y45.0188 
G01 X-34.3816 Y45.1445 
G01 X-34.4804 Y45.2924 
G01 X-34.5485 Y45.4567 
G01 X-34.5832 Y45.6311 
G01 X-34.5832 Y45.8089 
G01 X-34.5485 Y45.9833 
G01 X-34.4804 Y46.1476 
G01 X-34.3816 Y46.2955 
G01 X-34.2559 Y46.4212 
G01 X-34.1080 Y46.5200 
G01 X-33.9437 Y46.5881 
G01 X-33.7693 Y46.6228 
G00 Z2.5400 
G00 X-33.7693 Y49.1628 
G01 Z-0.1500 F254.00 
G01 X-32.2707 Y49.1628 F508.00 
G01 X-32.0963 Y49.1281 
G01 X-31.9320 Y49.0600 
G01 X-31.7841 Y48.9612 
G01 X-31.6584 Y48.8355 
G01 X-31.5596 Y48.6876 
G01 X-31.4915 Y48.5233 
G01 X-31.4568 Y48.3489 
G01 X-31.4568 Y48.1711 
G01 X-31.4915 Y47.9967 
G01 X-31.5596 Y47.8324 
G01 X-31.6584 Y47.6845 
G01 X-31.7841 Y47.5588 
G01 X-31.9320 Y47.4599 
G01 X-32.0963 Y47.3919 
G01 X-32.2707 Y47.3572 
G01 X-33.7693 Y47.3572 
G01 X-33.9437 Y47.3919 
G01 X-34.1080 Y47.4599 
G01 X-34.2559 Y47.5588 
G01 X-34.3816 Y47.6845 
G01 X-34.4804 Y47.8324 
G01 X-34.5485 Y47.9967 
G01 X-34.5832 Y48.1711 
G01 X-34.5832 Y48.3489 
G01 X-34.5485 Y48.5233 
G01 X-34.4804 Y48.6876 
G01 X-34.3816 Y48.8355 
G01 X-34.2559 Y48.9612 
G01 X-34.1080 Y49.0600 
G01 X-33.9437 Y49.1281 
G01 X-33.7693 Y49.1628 
G00 Z2.5400 
G00 X-33.7693 Y51.7028 
G01 Z-0.1500 F254.00 
G01 X-32.2707 Y51.7028 F508.00 
G01 X-32.0963 Y51.6681 
G01 X-31.9320 Y51.6000 
G01 X-31.7841 Y51.5012 
G01 X-31.6584 Y51.3755 
G01 X-31.5596 Y51.2276 
G01 X-31.4915 Y51.0633 
G01 X-31.4568 Y50.8889 
G01 X-31.4568 Y50.7111 
G01 X-31.4915 Y50.5367 
G01 X-31.5596 Y50.3724 
G01 X-31.6584 Y50.2245 
G01 X-31.7841 Y50.0988 
G01 X-31.9320 Y50.0000 
G01 X-32.0963 Y49.9319 
G01 X-32.2707 Y49.8972 
G01 X-33.7693 Y49.8972 
G01 X-33.9437 Y49.9319 
G01 X-34.1080 Y50.0000 
G01 X-34.2559 Y50.0988 
G01 X-34.3816 Y50.2245 
G01 X-34.4804 Y50.3724 
G01 X-34.5485 Y50.5367 
G01 X-34.5832 Y50.7111 
G01 X-34.5832 Y50.8889 
G01 X-34.5485 Y51.0633 
G01 X-34.4804 Y51.2276 
G01 X-34.3816 Y51.3755 
G01 X-34.2559 Y51.5012 
G01 X-34.1080 Y51.6000 
G01 X-33.9437 Y51.6681 
G01 X-33.7693 Y51.7028 
G00 Z2.5400 
G00 X-33.7693 Y54.2428 
G01 Z-0.1500 F254.00 
G01 X-32.2707 Y54.2428 F508.00 
G01 X-32.0963 Y54.2081 
G01 X-31.9320 Y54.1400 
G01 X-31.7841 Y54.0412 
G01 X-31.6584 Y53.9155 
G01 X-31.5596 Y53.7676 
G01 X-31.4915 Y53.6033 
G01 X-31.4568 Y53.4289 
G01 X-31.4568 Y53.2511 
G01 X-31.4915 Y53.0767 
G01 X-31.5596 Y52.9124 
G01 X-31.6584 Y52.7645 
G01 X-31.7841 Y52.6388 
G01 X-31.9320 Y52.5400 
G01 X-32.0963 Y52.4719 
G01 X-32.2707 Y52.4372 
G01 X-33.7693 Y52.4372 
G01 X-33.9437 Y52.4719 
G01 X-34.1080 Y52.5400 
G01 X-34.2559 Y52.6388 
G01 X-34.3816 Y52.7645 
G01 X-34.4804 Y52.9124 
G01 X-34.5485 Y53.0767 
G01 X-34.5832 Y53.2511 
G01 X-34.5832 Y53.4289 
G01 X-34.5485 Y53.6033 
G01 X-34.4804 Y53.7676 
G01 X-34.3816 Y53.9155 
G01 X-34.2559 Y54.0412 
G01 X-34.1080 Y54.1400 
G01 X-33.9437 Y54.2081 
G01 X-33.7693 Y54.2428 
G00 Z2.5400 
G00 X-33.7693 Y64.4028 
G01 Z-0.1500 F254.00 
G01 X-32.2707 Y64.4028 F508.00 
G01 X-32.0963 Y64.3681 
G01 X-31.9320 Y64.3000 
G01 X-31.7841 Y64.2012 
G01 X-31.6584 Y64.0755 
G01 X-31.5596 Y63.9276 
G01 X-31.4915 Y63.7633 
G01 X-31.4568 Y63.5889 
G01 X-31.4568 Y63.4111 
G01 X-31.4915 Y63.2367 
G01 X-31.5596 Y63.0724 
G01 X-31.6584 Y62.9245 
G01 X-31.7841 Y62.7988 
G01 X-31.9320 Y62.7000 
G01 X-32.0963 Y62.6319 
G01 X-32.2707 Y62.5972 
G01 X-33.7693 Y62.5972 
G01 X-33.9437 Y62.6319 
G01 X-34.1080 Y62.7000 
G01 X-34.2559 Y62.7988 
G01 X-34.3816 Y62.9245 
G01 X-34.4804 Y63.0724 
G01 X-34.5485 Y63.2367 
G01 X-34.5832 Y63.4111 
G01 X-34.5832 Y63.5889 
G01 X-34.5485 Y63.7633 
G01 X-34.4804 Y63.9276 
G01 X-34.3816 Y64.0755 
G01 X-34.2559 Y64.2012 
G01 X-34.1080 Y64.3000 
G01 X-33.9437 Y64.3681 
G01 X-33.7693 Y64.4028 
G00 Z2.5400 
G00 X-33.7693 Y66.9428 
G01 Z-0.1500 F254.00 
G01 X-32.2707 Y66.9428 F508.00 
G01 X-32.0963 Y66.9081 
G01 X-31.9320 Y66.8400 
G01 X-31.7841 Y66.7412 
G01 X-31.6584 Y66.6155 
G01 X-31.5596 Y66.4676 
G01 X-31.4915 Y66.3033 
G01 X-31.4568 Y66.1289 
G01 X-31.4568 Y65.9511 
G01 X-31.4915 Y65.7767 
G01 X-31.5596 Y65.6124 
G01 X-31.6584 Y65.4645 
G01 X-31.7841 Y65.3388 
G01 X-31.9320 Y65.2400 
G01 X-32.0963 Y65.1719 
G01 X-32.2707 Y65.1372 
G01 X-33.7693 Y65.1372 
G01 X-33.9437 Y65.1719 
G01 X-34.1080 Y65.2400 
G01 X-34.2559 Y65.3388 
G01 X-34.3816 Y65.4645 
G01 X-34.4804 Y65.6124 
G01 X-34.5485 Y65.7767 
G01 X-34.5832 Y65.9511 
G01 X-34.5832 Y66.1289 
G01 X-34.5485 Y66.3033 
G01 X-34.4804 Y66.4676 
G01 X-34.3816 Y66.6155 
G01 X-34.2559 Y66.7412 
G01 X-34.1080 Y66.8400 
G01 X-33.9437 Y66.9081 
G01 X-33.7693 Y66.9428 
G00 Z2.5400 
G00 X-33.7693 Y69.4828 
G01 Z-0.1500 F254.00 
G01 X-32.2707 Y69.4828 F508.00 
G01 X-32.0963 Y69.4481 
G01 X-31.9320 Y69.3800 
G01 X-31.7841 Y69.2812 
G01 X-31.6584 Y69.1555 
G01 X-31.5596 Y69.0076 
G01 X-31.4915 Y68.8433 
G01 X-31.4568 Y68.6689 
G01 X-31.4568 Y68.4911 
G01 X-31.4915 Y68.3167 
G01 X-31.5596 Y68.1524 
G01 X-31.6584 Y68.0045 
G01 X-31.7841 Y67.8787 
G01 X-31.9320 Y67.7799 
G01 X-32.0963 Y67.7119 
G01 X-32.2707 Y67.6772 
G01 X-33.7693 Y67.6772 
G01 X-33.9437 Y67.7119 
G01 X-34.1080 Y67.7799 
G01 X-34.2559 Y67.8787 
G01 X-34.3816 Y68.0045 
G01 X-34.4804 Y68.1524 
G01 X-34.5485 Y68.3167 
G01 X-34.5832 Y68.4911 
G01 X-34.5832 Y68.6689 
G01 X-34.5485 Y68.8433 
G01 X-34.4804 Y69.0076 
G01 X-34.3816 Y69.1555 
G01 X-34.2559 Y69.2812 
G01 X-34.1080 Y69.3800 
G01 X-33.9437 Y69.4481 
G01 X-33.7693 Y69.4828 
G00 Z2.5400 
G00 X-32.2707 Y74.5628 
G01 Z-0.1500 F254.00 
G01 X-32.0963 Y74.5281 F508.00 
G01 X-31.9320 Y74.4600 
G01 X-31.7841 Y74.3612 
G01 X-31.6584 Y74.2355 
G01 X-31.5596 Y74.0876 
G01 X-31.4915 Y73.9233 
G01 X-31.4568 Y73.7489 
G01 X-31.4568 Y73.5711 
G01 X-31.4915 Y73.3967 
G01 X-31.5596 Y73.2324 
G01 X-31.6584 Y73.0845 
G01 X-31.7841 Y72.9588 
G01 X-31.9320 Y72.8599 
G01 X-32.0963 Y72.7919 
G01 X-32.2707 Y72.7572 
G01 X-33.7693 Y72.7572 
G01 X-33.9437 Y72.7919 
G01 X-34.1080 Y72.8599 
G01 X-34.2559 Y72.9588 
G01 X-34.3816 Y73.0845 
G01 X-34.4804 Y73.2324 
G01 X-34.5485 Y73.3967 
G01 X-34.5832 Y73.5711 
G01 X-34.5832 Y73.7489 
G01 X-34.5485 Y73.9233 
G01 X-34.4804 Y74.0876 
G01 X-34.3816 Y74.2355 
G01 X-34.2559 Y74.3612 
G01 X-34.2486 Y74.3662 
G01 X-40.7930 Y80.9106 
G01 X-43.7943 Y80.9106 
G01 X-43.8671 Y80.8016 
G01 X-43.9716 Y80.6971 
G01 X-44.0946 Y80.6150 
G01 X-44.2311 Y80.5584 
G01 X-44.3761 Y80.5296 
G01 X-44.5239 Y80.5296 
G01 X-44.6689 Y80.5584 
G01 X-44.8054 Y80.6150 
G01 X-44.9284 Y80.6971 
G01 X-45.0329 Y80.8016 
G01 X-45.1150 Y80.9246 
G01 X-45.1716 Y81.0611 
G01 X-45.2004 Y81.2061 
G01 X-45.2004 Y81.3539 
G01 X-45.1716 Y81.4989 
G01 X-45.1150 Y81.6354 
G01 X-45.0329 Y81.7584 
G01 X-44.9284 Y81.8629 
G01 X-44.8054 Y81.9450 
G01 X-44.6689 Y82.0016 
G01 X-44.5239 Y82.0304 
G01 X-44.3761 Y82.0304 
G01 X-44.2311 Y82.0016 
G01 X-44.0946 Y81.9450 
G01 X-43.9716 Y81.8629 
G01 X-43.8671 Y81.7584 
G01 X-43.7943 Y81.6494 
G01 X-40.5914 Y81.6494 
G01 X-40.4974 Y81.6242 
G01 X-40.4132 Y81.5756 
G01 X-40.3444 Y81.5068 
G01 X-33.4004 Y74.5628 
G01 X-32.2707 Y74.5628 
G00 Z2.5400 
G00 X-33.7693 Y77.1028 
G01 Z-0.1500 F254.00 
G01 X-32.2707 Y77.1028 F508.00 
G01 X-32.0963 Y77.0681 
G01 X-31.9320 Y77.0000 
G01 X-31.7841 Y76.9012 
G01 X-31.6584 Y76.7755 
G01 X-31.5596 Y76.6276 
G01 X-31.5354 Y76.5694 
G01 X-25.3514 Y76.5694 
G01 X-25.2574 Y76.5442 
G01 X-25.1732 Y76.4956 
G01 X-25.1044 Y76.4268 
G01 X-11.8504 Y63.1729 
G01 X-11.7729 Y63.2796 
G01 X-11.6414 Y63.4111 
G01 X-11.4908 Y63.5205 
G01 X-11.3250 Y63.6050 
G01 X-11.1480 Y63.6625 
G01 X-10.9642 Y63.6916 
G01 X-10.7782 Y63.6916 
G01 X-10.5944 Y63.6625 
G01 X-10.4174 Y63.6050 
G01 X-10.2516 Y63.5205 
G01 X-10.1010 Y63.4111 
G01 X-9.9695 Y63.2796 
G01 X-9.8601 Y63.1290 
G01 X-9.7756 Y62.9632 
G01 X-9.7181 Y62.7862 
G01 X-9.6890 Y62.6024 
G01 X-9.6890 Y62.4164 
G01 X-9.7181 Y62.2326 
G01 X-9.7756 Y62.0556 
G01 X-9.8601 Y61.8898 
G01 X-9.9695 Y61.7392 
G01 X-10.1010 Y61.6077 
G01 X-10.2516 Y61.4983 
G01 X-10.4174 Y61.4138 
G01 X-10.5944 Y61.3563 
G01 X-10.7782 Y61.3272 
G01 X-10.9642 Y61.3272 
G01 X-11.1480 Y61.3563 
G01 X-11.3250 Y61.4138 
G01 X-11.4908 Y61.4983 
G01 X-11.6414 Y61.6077 
G01 X-11.7729 Y61.7392 
G01 X-11.8823 Y61.8898 
G01 X-11.9668 Y62.0556 
G01 X-12.0243 Y62.2326 
G01 X-12.0373 Y62.3149 
G01 X-25.5530 Y75.8306 
G01 X-31.5354 Y75.8306 
G01 X-31.5596 Y75.7724 
G01 X-31.6584 Y75.6245 
G01 X-31.7841 Y75.4988 
G01 X-31.9320 Y75.4000 
G01 X-32.0963 Y75.3319 
G01 X-32.2707 Y75.2972 
G01 X-33.7693 Y75.2972 
G01 X-33.9437 Y75.3319 
G01 X-34.1080 Y75.4000 
G01 X-34.2559 Y75.4988 
G01 X-34.3816 Y75.6245 
G01 X-34.4804 Y75.7724 
G01 X-34.5485 Y75.9367 
G01 X-34.5832 Y76.1111 
G01 X-34.5832 Y76.2889 
G01 X-34.5485 Y76.4633 
G01 X-34.4804 Y76.6276 
G01 X-34.3816 Y76.7755 
G01 X-34.2559 Y76.9012 
G01 X-34.1080 Y77.0000 
G01 X-33.9437 Y77.0681 
G01 X-33.7693 Y77.1028 
G00 Z2.5400 
G00 X-151.3956 Y93.5709 
G01 Z-0.1500 F254.00 
G01 X-151.3956 Y91.8491 F508.00 
G01 X-151.4342 Y91.6550 
G01 X-151.5099 Y91.4722 
G01 X-151.6198 Y91.3077 
G01 X-151.7597 Y91.1678 
G01 X-151.9242 Y91.0579 
G01 X-152.1070 Y90.9822 
G01 X-152.3011 Y90.9436 
G01 X-152.4989 Y90.9436 
G01 X-152.6930 Y90.9822 
G01 X-152.8758 Y91.0579 
G01 X-153.0403 Y91.1678 
G01 X-153.1802 Y91.3077 
G01 X-153.2901 Y91.4722 
G01 X-153.3658 Y91.6550 
G01 X-153.4044 Y91.8491 
G01 X-153.4044 Y93.5709 
G01 X-153.3658 Y93.7650 
G01 X-153.2901 Y93.9478 
G01 X-153.1802 Y94.1123 
G01 X-153.0403 Y94.2522 
G01 X-152.8758 Y94.3621 
G01 X-152.6930 Y94.4378 
G01 X-152.4989 Y94.4764 
G01 X-152.3011 Y94.4764 
G01 X-152.1070 Y94.4378 
G01 X-151.9242 Y94.3621 
G01 X-151.7597 Y94.2522 
G01 X-151.6198 Y94.1123 
G01 X-151.5099 Y93.9478 
G01 X-151.4342 Y93.7650 
G01 X-151.3956 Y93.5709 
G00 Z2.5400 
G00 X-148.8556 Y93.5709 
G01 Z-0.1500 F254.00 
G01 X-148.8556 Y91.8491 F508.00 
G01 X-148.8942 Y91.6550 
G01 X-148.9699 Y91.4722 
G01 X-149.0798 Y91.3077 
G01 X-149.2197 Y91.1678 
G01 X-149.3842 Y91.0579 
G01 X-149.5670 Y90.9822 
G01 X-149.7611 Y90.9436 
G01 X-149.9589 Y90.9436 
G01 X-150.1530 Y90.9822 
G01 X-150.3358 Y91.0579 
G01 X-150.5003 Y91.1678 
G01 X-150.6402 Y91.3077 
G01 X-150.7501 Y91.4722 
G01 X-150.8258 Y91.6550 
G01 X-150.8644 Y91.8491 
G01 X-150.8644 Y93.5709 
G01 X-150.8258 Y93.7650 
G01 X-150.7501 Y93.9478 
G01 X-150.6402 Y94.1123 
G01 X-150.5003 Y94.2522 
G01 X-150.3358 Y94.3621 
G01 X-150.1530 Y94.4378 
G01 X-149.9589 Y94.4764 
G01 X-149.7611 Y94.4764 
G01 X-149.5670 Y94.4378 
G01 X-149.3842 Y94.3621 
G01 X-149.2197 Y94.2522 
G01 X-149.0798 Y94.1123 
G01 X-148.9699 Y93.9478 
G01 X-148.8942 Y93.7650 
G01 X-148.8556 Y93.5709 
G00 Z2.5400 
G00 X-146.3156 Y93.5709 
G01 Z-0.1500 F254.00 
G01 X-146.3156 Y91.8491 F508.00 
G01 X-146.3542 Y91.6550 
G01 X-146.4299 Y91.4722 
G01 X-146.5398 Y91.3077 
G01 X-146.6797 Y91.1678 
G01 X-146.8442 Y91.0579 
G01 X-147.0270 Y90.9822 
G01 X-147.2211 Y90.9436 
G01 X-147.4189 Y90.9436 
G01 X-147.6130 Y90.9822 
G01 X-147.7958 Y91.0579 
G01 X-147.9603 Y91.1678 
G01 X-148.1002 Y91.3077 
G01 X-148.2101 Y91.4722 
G01 X-148.2858 Y91.6550 
G01 X-148.3244 Y91.8491 
G01 X-148.3244 Y93.5709 
G01 X-148.2858 Y93.7650 
G01 X-148.2101 Y93.9478 
G01 X-148.1002 Y94.1123 
G01 X-147.9603 Y94.2522 
G01 X-147.7958 Y94.3621 
G01 X-147.6130 Y94.4378 
G01 X-147.4189 Y94.4764 
G01 X-147.2211 Y94.4764 
G01 X-147.0270 Y94.4378 
G01 X-146.8442 Y94.3621 
G01 X-146.6797 Y94.2522 
G01 X-146.5398 Y94.1123 
G01 X-146.4299 Y93.9478 
G01 X-146.3542 Y93.7650 
G01 X-146.3156 Y93.5709 
G00 Z2.5400 
G00 X-143.7756 Y93.5709 
G01 Z-0.1500 F254.00 
G01 X-143.7756 Y91.8491 F508.00 
G01 X-143.8142 Y91.6550 
G01 X-143.8899 Y91.4722 
G01 X-143.9998 Y91.3077 
G01 X-144.1397 Y91.1678 
G01 X-144.3042 Y91.0579 
G01 X-144.4870 Y90.9822 
G01 X-144.6811 Y90.9436 
G01 X-144.8789 Y90.9436 
G01 X-145.0730 Y90.9822 
G01 X-145.2558 Y91.0579 
G01 X-145.4203 Y91.1678 
G01 X-145.5602 Y91.3077 
G01 X-145.6701 Y91.4722 
G01 X-145.7458 Y91.6550 
G01 X-145.7844 Y91.8491 
G01 X-145.7844 Y93.5709 
G01 X-145.7458 Y93.7650 
G01 X-145.6701 Y93.9478 
G01 X-145.5602 Y94.1123 
G01 X-145.4203 Y94.2522 
G01 X-145.2558 Y94.3621 
G01 X-145.0730 Y94.4378 
G01 X-144.8789 Y94.4764 
G01 X-144.6811 Y94.4764 
G01 X-144.4870 Y94.4378 
G01 X-144.3042 Y94.3621 
G01 X-144.1397 Y94.2522 
G01 X-143.9998 Y94.1123 
G01 X-143.8899 Y93.9478 
G01 X-143.8142 Y93.7650 
G01 X-143.7756 Y93.5709 
G00 Z2.5400 
G00 X-37.8725 Y87.1982 
G01 Z-0.1500 F254.00 
G01 X-37.8725 Y88.0618 F508.00 
G01 X-37.2618 Y88.6725 
G01 X-36.3982 Y88.6725 
G01 X-35.7875 Y88.0618 
G01 X-35.7875 Y87.1982 
G01 X-36.3982 Y86.5875 
G01 X-37.2618 Y86.5875 
G01 X-37.8725 Y87.1982 
G00 Z2.5400 
G00 X-37.8725 Y89.7382 
G01 Z-0.1500 F254.00 
G01 X-37.8725 Y90.6018 F508.00 
G01 X-37.2618 Y91.2125 
G01 X-36.3982 Y91.2125 
G01 X-35.7875 Y90.6018 
G01 X-35.7875 Y90.5394 
G01 X-34.2414 Y90.5394 
G01 X-34.1474 Y90.5142 
G01 X-34.0632 Y90.4656 
G01 X-33.9944 Y90.3968 
G01 X-29.3056 Y85.7080 
G01 X-29.1829 Y85.8307 
G01 X-29.0267 Y85.9351 
G01 X-28.8532 Y86.0070 
G01 X-28.6689 Y86.0436 
G01 X-28.4811 Y86.0436 
G01 X-28.2968 Y86.0070 
G01 X-28.1233 Y85.9351 
G01 X-27.9671 Y85.8307 
G01 X-27.8343 Y85.6979 
G01 X-27.7299 Y85.5417 
G01 X-27.6580 Y85.3682 
G01 X-27.6214 Y85.1839 
G01 X-27.6214 Y84.9961 
G01 X-27.6580 Y84.8118 
G01 X-27.7299 Y84.6383 
G01 X-27.8343 Y84.4821 
G01 X-27.9671 Y84.3493 
G01 X-28.1233 Y84.2449 
G01 X-28.2574 Y84.1894 
G01 X-28.0930 Y84.1894 
G01 X-26.9656 Y85.3168 
G01 X-26.9613 Y85.3211 
G01 X-26.9520 Y85.3682 
G01 X-26.8801 Y85.5417 
G01 X-26.7757 Y85.6979 
G01 X-26.6429 Y85.8307 
G01 X-26.4867 Y85.9351 
G01 X-26.3132 Y86.0070 
G01 X-26.1289 Y86.0436 
G01 X-25.9411 Y86.0436 
G01 X-25.7568 Y86.0070 
G01 X-25.5833 Y85.9351 
G01 X-25.4271 Y85.8307 
G01 X-25.2943 Y85.6979 
G01 X-25.1899 Y85.5417 
G01 X-25.1180 Y85.3682 
G01 X-25.0814 Y85.1839 
G01 X-25.0814 Y84.9961 
G01 X-25.1180 Y84.8118 
G01 X-25.1899 Y84.6383 
G01 X-25.2943 Y84.4821 
G01 X-25.4271 Y84.3493 
G01 X-25.5833 Y84.2449 
G01 X-25.7568 Y84.1730 
G01 X-25.9411 Y84.1364 
G01 X-26.1289 Y84.1364 
G01 X-26.3132 Y84.1730 
G01 X-26.4867 Y84.2449 
G01 X-26.6429 Y84.3493 
G01 X-26.7656 Y84.4720 
G01 X-27.6444 Y83.5932 
G01 X-27.7132 Y83.5244 
G01 X-27.7974 Y83.4758 
G01 X-27.8914 Y83.4506 
G01 X-63.5486 Y83.4506 
G01 X-63.6426 Y83.4758 
G01 X-63.7268 Y83.5244 
G01 X-68.1869 Y87.9845 
G01 X-68.2270 Y87.9292 
G01 X-68.3792 Y87.7770 
G01 X-68.5533 Y87.6505 
G01 X-68.7451 Y87.5528 
G01 X-68.9498 Y87.4863 
G01 X-69.1624 Y87.4526 
G01 X-69.3776 Y87.4526 
G01 X-69.5902 Y87.4863 
G01 X-69.7949 Y87.5528 
G01 X-69.9867 Y87.6505 
G01 X-70.1608 Y87.7770 
G01 X-70.3130 Y87.9292 
G01 X-70.4395 Y88.1033 
G01 X-70.5372 Y88.2951 
G01 X-70.6037 Y88.4998 
G01 X-70.6374 Y88.7124 
G01 X-70.6374 Y88.9276 
G01 X-70.6037 Y89.1402 
G01 X-70.5372 Y89.3449 
G01 X-70.4395 Y89.5367 
G01 X-70.3130 Y89.7108 
G01 X-70.1608 Y89.8630 
G01 X-69.9867 Y89.9895 
G01 X-69.7949 Y90.0872 
G01 X-69.5902 Y90.1537 
G01 X-69.3776 Y90.1874 
G01 X-69.1624 Y90.1874 
G01 X-68.9498 Y90.1537 
G01 X-68.7451 Y90.0872 
G01 X-68.5533 Y89.9895 
G01 X-68.3792 Y89.8630 
G01 X-68.2270 Y89.7108 
G01 X-68.1005 Y89.5367 
G01 X-68.0028 Y89.3449 
G01 X-67.9363 Y89.1402 
G01 X-67.9026 Y88.9276 
G01 X-67.9026 Y88.7450 
G01 X-63.3470 Y84.1894 
G01 X-28.8926 Y84.1894 
G01 X-29.0267 Y84.2449 
G01 X-29.1829 Y84.3493 
G01 X-29.3157 Y84.4821 
G01 X-29.4201 Y84.6383 
G01 X-29.4920 Y84.8118 
G01 X-29.5013 Y84.8589 
G01 X-29.5056 Y84.8632 
G01 X-34.4430 Y89.8006 
G01 X-35.7875 Y89.8006 
G01 X-35.7875 Y89.7382 
G01 X-36.3982 Y89.1275 
G01 X-37.2618 Y89.1275 
G01 X-37.8725 Y89.7382 
G00 Z2.5400 
G00 X-37.8725 Y92.2782 
G01 Z-0.1500 F254.00 
G01 X-37.8725 Y93.1418 F508.00 
G01 X-37.2618 Y93.7525 
G01 X-36.3982 Y93.7525 
G01 X-35.7875 Y93.1418 
G01 X-35.7875 Y93.0794 
G01 X-35.5114 Y93.0794 
G01 X-35.4174 Y93.0542 
G01 X-35.3332 Y93.0056 
G01 X-35.2644 Y92.9368 
G01 X-30.5756 Y88.2480 
G01 X-30.4529 Y88.3707 
G01 X-30.2967 Y88.4751 
G01 X-30.1232 Y88.5470 
G01 X-29.9389 Y88.5836 
G01 X-29.7511 Y88.5836 
G01 X-29.5668 Y88.5470 
G01 X-29.3933 Y88.4751 
G01 X-29.2371 Y88.3707 
G01 X-29.1043 Y88.2379 
G01 X-28.9999 Y88.0817 
G01 X-28.9280 Y87.9082 
G01 X-28.8914 Y87.7239 
G01 X-28.8914 Y87.5361 
G01 X-28.9280 Y87.3518 
G01 X-28.9999 Y87.1783 
G01 X-29.1043 Y87.0221 
G01 X-29.2371 Y86.8893 
G01 X-29.3933 Y86.7849 
G01 X-29.5668 Y86.7130 
G01 X-29.7511 Y86.6764 
G01 X-29.9389 Y86.6764 
G01 X-30.1232 Y86.7130 
G01 X-30.2967 Y86.7849 
G01 X-30.4529 Y86.8893 
G01 X-30.5857 Y87.0221 
G01 X-30.6901 Y87.1783 
G01 X-30.7620 Y87.3518 
G01 X-30.7713 Y87.3989 
G01 X-30.7756 Y87.4032 
G01 X-35.7130 Y92.3406 
G01 X-35.7875 Y92.3406 
G01 X-35.7875 Y92.2782 
G01 X-36.3982 Y91.6675 
G01 X-37.2618 Y91.6675 
G01 X-37.8725 Y92.2782 
G00 Z2.5400 
G00 X-37.8725 Y94.8182 
G01 Z-0.1500 F254.00 
G01 X-37.8725 Y95.6818 F508.00 
G01 X-37.2618 Y96.2925 
G01 X-36.3982 Y96.2925 
G01 X-35.7875 Y95.6818 
G01 X-35.7875 Y94.8182 
G01 X-36.3982 Y94.2075 
G01 X-37.2618 Y94.2075 
G01 X-37.8725 Y94.8182 
G00 Z2.5400 
G00 X-45.4925 Y92.2782 
G01 Z-0.1500 F254.00 
G01 X-45.4925 Y93.1418 F508.00 
G01 X-44.8818 Y93.7525 
G01 X-44.0182 Y93.7525 
G01 X-43.4075 Y93.1418 
G01 X-43.4075 Y92.2782 
G01 X-44.0182 Y91.6675 
G01 X-44.8818 Y91.6675 
G01 X-45.4925 Y92.2782 
G00 Z2.5400 
G00 X-45.4925 Y89.7382 
G01 Z-0.1500 F254.00 
G01 X-45.4925 Y90.6018 F508.00 
G01 X-44.8818 Y91.2125 
G01 X-44.0182 Y91.2125 
G01 X-43.4075 Y90.6018 
G01 X-43.4075 Y89.7382 
G01 X-44.0182 Y89.1275 
G01 X-44.8818 Y89.1275 
G01 X-45.4925 Y89.7382 
G00 Z2.5400 
G00 X-45.4925 Y87.1982 
G01 Z-0.1500 F254.00 
G01 X-45.4925 Y88.0618 F508.00 
G01 X-44.8818 Y88.6725 
G01 X-44.0182 Y88.6725 
G01 X-43.4075 Y88.0618 
G01 X-43.4075 Y87.1982 
G01 X-44.0182 Y86.5875 
G01 X-44.8818 Y86.5875 
G01 X-45.4925 Y87.1982 
G00 Z2.5400 
G00 X-28.2586 Y87.5361 
G01 Z-0.1500 F254.00 
G01 X-28.2586 Y87.7239 F508.00 
G01 X-28.2219 Y87.9082 
G01 X-28.1501 Y88.0817 
G01 X-28.0457 Y88.2379 
G01 X-27.9129 Y88.3707 
G01 X-27.7567 Y88.4751 
G01 X-27.5832 Y88.5470 
G01 X-27.3989 Y88.5836 
G01 X-27.2111 Y88.5836 
G01 X-27.0268 Y88.5470 
G01 X-26.8533 Y88.4751 
G01 X-26.6971 Y88.3707 
G01 X-26.5643 Y88.2379 
G01 X-26.4599 Y88.0817 
G01 X-26.4258 Y87.9994 
G01 X-11.3814 Y87.9994 
G01 X-11.2874 Y87.9742 
G01 X-11.2032 Y87.9256 
G01 X-11.1344 Y87.8568 
G01 X-11.0858 Y87.7726 
G01 X-11.0606 Y87.6786 
G01 X-11.0606 Y73.8270 
G01 X-10.9842 Y73.9322 
G01 X-10.8640 Y74.0524 
G01 X-10.7264 Y74.1524 
G01 X-10.5748 Y74.2296 
G01 X-10.4130 Y74.2822 
G01 X-10.2450 Y74.3088 
G01 X-10.0750 Y74.3088 
G01 X-9.9070 Y74.2822 
G01 X-9.7452 Y74.2296 
G01 X-9.5936 Y74.1524 
G01 X-9.4560 Y74.0524 
G01 X-9.3358 Y73.9322 
G01 X-9.2358 Y73.7946 
G01 X-9.1586 Y73.6430 
G01 X-9.1060 Y73.4812 
G01 X-9.0794 Y73.3132 
G01 X-9.0794 Y71.4668 
G01 X-9.1060 Y71.2988 
G01 X-9.1586 Y71.1370 
G01 X-9.2358 Y70.9854 
G01 X-9.3358 Y70.8478 
G01 X-9.4560 Y70.7276 
G01 X-9.5936 Y70.6276 
G01 X-9.7452 Y70.5504 
G01 X-9.9070 Y70.4978 
G01 X-10.0750 Y70.4712 
G01 X-10.2450 Y70.4712 
G01 X-10.4130 Y70.4978 
G01 X-10.5748 Y70.5504 
G01 X-10.7264 Y70.6276 
G01 X-10.8640 Y70.7276 
G01 X-10.9842 Y70.8478 
G01 X-11.0606 Y70.9530 
G01 X-11.0606 Y68.1975 
G01 X-10.9642 Y68.2128 
G01 X-10.7782 Y68.2128 
G01 X-10.5944 Y68.1837 
G01 X-10.4174 Y68.1262 
G01 X-10.2516 Y68.0417 
G01 X-10.1010 Y67.9323 
G01 X-9.9695 Y67.8008 
G01 X-9.8601 Y67.6502 
G01 X-9.7756 Y67.4844 
G01 X-9.7181 Y67.3074 
G01 X-9.6890 Y67.1236 
G01 X-9.6890 Y66.9376 
G01 X-9.7181 Y66.7538 
G01 X-9.7756 Y66.5768 
G01 X-9.8601 Y66.4110 
G01 X-9.9695 Y66.2604 
G01 X-10.1010 Y66.1289 
G01 X-10.2516 Y66.0195 
G01 X-10.4174 Y65.9350 
G01 X-10.5944 Y65.8775 
G01 X-10.7782 Y65.8484 
G01 X-10.9642 Y65.8484 
G01 X-11.1480 Y65.8775 
G01 X-11.3250 Y65.9350 
G01 X-11.4908 Y66.0195 
G01 X-11.6414 Y66.1289 
G01 X-11.7729 Y66.2604 
G01 X-11.8823 Y66.4110 
G01 X-11.9668 Y66.5768 
G01 X-12.0243 Y66.7538 
G01 X-12.0534 Y66.9376 
G01 X-12.0534 Y67.1236 
G01 X-12.0243 Y67.3074 
G01 X-11.9668 Y67.4844 
G01 X-11.8823 Y67.6502 
G01 X-11.7994 Y67.7643 
G01 X-11.7994 Y87.2606 
G01 X-26.4258 Y87.2606 
G01 X-26.4599 Y87.1783 
G01 X-26.5643 Y87.0221 
G01 X-26.6971 Y86.8893 
G01 X-26.8533 Y86.7849 
G01 X-27.0268 Y86.7130 
G01 X-27.2111 Y86.6764 
G01 X-27.3989 Y86.6764 
G01 X-27.5832 Y86.7130 
G01 X-27.7567 Y86.7849 
G01 X-27.9129 Y86.8893 
G01 X-28.0457 Y87.0221 
G01 X-28.1501 Y87.1783 
G01 X-28.2219 Y87.3518 
G01 X-28.2586 Y87.5361 
G00 Z2.5400 
G00 X-147.6491 Y52.1753 
G01 Z-0.1500 F254.00 
G01 X-147.6491 Y49.4247 F508.00 
G01 X-147.6860 Y49.1915 
G01 X-147.7590 Y48.9670 
G01 X-147.8661 Y48.7567 
G01 X-148.0049 Y48.5657 
G01 X-148.1718 Y48.3988 
G01 X-148.3628 Y48.2600 
G01 X-148.5731 Y48.1529 
G01 X-148.7976 Y48.0799 
G01 X-149.0308 Y48.0430 
G01 X-149.2668 Y48.0430 
G01 X-149.5000 Y48.0799 
G01 X-149.7245 Y48.1529 
G01 X-149.9348 Y48.2600 
G01 X-150.1258 Y48.3988 
G01 X-150.2927 Y48.5657 
G01 X-150.4315 Y48.7567 
G01 X-150.5386 Y48.9670 
G01 X-150.6116 Y49.1915 
G01 X-150.6485 Y49.4247 
G01 X-150.6485 Y52.1753 
G01 X-150.6116 Y52.4085 
G01 X-150.5386 Y52.6330 
G01 X-150.4315 Y52.8433 
G01 X-150.2927 Y53.0343 
G01 X-150.1258 Y53.2012 
G01 X-149.9348 Y53.3400 
G01 X-149.7245 Y53.4471 
G01 X-149.5000 Y53.5201 
G01 X-149.2668 Y53.5570 
G01 X-149.0308 Y53.5570 
G01 X-148.7976 Y53.5201 
G01 X-148.5731 Y53.4471 
G01 X-148.3628 Y53.3400 
G01 X-148.1718 Y53.2012 
G01 X-148.0049 Y53.0343 
G01 X-147.8661 Y52.8433 
G01 X-147.7590 Y52.6330 
G01 X-147.6860 Y52.4085 
G01 X-147.6491 Y52.1753 
G00 Z2.5400 
G00 X-151.6115 Y52.1753 
G01 Z-0.1500 F254.00 
G01 X-151.6115 Y49.4247 F508.00 
G01 X-151.6484 Y49.1915 
G01 X-151.7214 Y48.9670 
G01 X-151.8285 Y48.7567 
G01 X-151.9673 Y48.5657 
G01 X-152.1342 Y48.3988 
G01 X-152.3252 Y48.2600 
G01 X-152.5355 Y48.1529 
G01 X-152.7600 Y48.0799 
G01 X-152.9932 Y48.0430 
G01 X-153.2292 Y48.0430 
G01 X-153.4624 Y48.0799 
G01 X-153.6869 Y48.1529 
G01 X-153.8972 Y48.2600 
G01 X-154.0882 Y48.3988 
G01 X-154.2551 Y48.5657 
G01 X-154.3939 Y48.7567 
G01 X-154.5010 Y48.9670 
G01 X-154.5740 Y49.1915 
G01 X-154.6109 Y49.4247 
G01 X-154.6109 Y52.1753 
G01 X-154.5740 Y52.4085 
G01 X-154.5010 Y52.6330 
G01 X-154.3939 Y52.8433 
G01 X-154.2551 Y53.0343 
G01 X-154.0882 Y53.2012 
G01 X-153.8972 Y53.3400 
G01 X-153.6869 Y53.4471 
G01 X-153.4624 Y53.5201 
G01 X-153.2292 Y53.5570 
G01 X-152.9932 Y53.5570 
G01 X-152.7600 Y53.5201 
G01 X-152.5355 Y53.4471 
G01 X-152.3252 Y53.3400 
G01 X-152.1342 Y53.2012 
G01 X-151.9673 Y53.0343 
G01 X-151.8285 Y52.8433 
G01 X-151.7214 Y52.6330 
G01 X-151.6484 Y52.4085 
G01 X-151.6115 Y52.1753 
G00 Z2.5400 
G00 X-146.3791 Y67.4153 
G01 Z-0.1500 F254.00 
G01 X-146.3791 Y64.6647 F508.00 
G01 X-146.4160 Y64.4315 
G01 X-146.4890 Y64.2070 
G01 X-146.5961 Y63.9967 
G01 X-146.7349 Y63.8057 
G01 X-146.9018 Y63.6388 
G01 X-147.0928 Y63.5000 
G01 X-147.3031 Y63.3929 
G01 X-147.5276 Y63.3199 
G01 X-147.7608 Y63.2830 
G01 X-147.9968 Y63.2830 
G01 X-148.2300 Y63.3199 
G01 X-148.4545 Y63.3929 
G01 X-148.6648 Y63.5000 
G01 X-148.8558 Y63.6388 
G01 X-149.0227 Y63.8057 
