(.../pcb-gcode-3.6.0.4/pcb-gcode.ulp)
(Copyright 2005 - 2012 by John Johnson)
(See readme.txt for licensing terms.)
(This file generated from the board:)
(.../eagle/ARMEDBASE_V0/MCU/MCU.brd)
(Current profile is .../pcb-gcode-3.6.0.4/profiles/emc.pp  )
(This file generated 7/3/2014 10:28:21 AM)
(Settings from pcb-machine.h)
(  Tool Size)
(0.1000 )
(Z Axis Settings)
(  High     Up        Down     Drill)
(15.0000 	2.0000 	-0.0250 	-1.5000 )
(spindle on time = 1.0000)
(milling depth = -0.0500)
(text depth = -0.0500)
(tool change at 15.0000 15.0000 15.0000 )
(feed rate xy = F508.00 )
(feed rate z  = F254.00 )
(Settings from pcb-defaults.h)
(isolate min = 0.0500)
(isolate max = 0.3000)
(isolate step = 0.1000)
(Generated top outlines, top drill, bottom outlines, bottom drill, )
(Unit of measure: mm)
(Metric Mode)
G21
(Absolute Coordinates)
G90
G00 X0.0000 Y0.0000 
M03
G04 P1.000000
G00 Z2.0000 
G00 X-41.5020 Y4.2331 
G01 Z-0.0250 F254.00 
G01 X-41.5020 Y5.9269 F508.00 
G01 X-41.4689 Y6.0934 
G01 X-41.4039 Y6.2503 
G01 X-41.3096 Y6.3915 
G01 X-41.1895 Y6.5116 
G01 X-41.0483 Y6.6059 
G01 X-40.8914 Y6.6709 
G01 X-40.7249 Y6.7040 
G01 X-40.5551 Y6.7040 
G01 X-40.3886 Y6.6709 
G01 X-40.2317 Y6.6059 
G01 X-40.0905 Y6.5116 
G01 X-39.9704 Y6.3915 
G01 X-39.8761 Y6.2503 
G01 X-39.8111 Y6.0934 
G01 X-39.7780 Y5.9269 
G01 X-39.7780 Y4.2331 
G01 X-39.8111 Y4.0666 
G01 X-39.8761 Y3.9097 
G01 X-39.9704 Y3.7685 
G01 X-40.0905 Y3.6484 
G01 X-40.2317 Y3.5541 
G01 X-40.3886 Y3.4891 
G01 X-40.5551 Y3.4560 
G01 X-40.7249 Y3.4560 
G01 X-40.8914 Y3.4891 
G01 X-41.0483 Y3.5541 
G01 X-41.1895 Y3.6484 
G01 X-41.3096 Y3.7685 
G01 X-41.4039 Y3.9097 
G01 X-41.4689 Y4.0666 
G01 X-41.5020 Y4.2331 
G00 Z2.0000 
G00 X-44.0420 Y4.2331 
G01 Z-0.0250 F254.00 
G01 X-44.0420 Y5.9269 F508.00 
G01 X-44.0089 Y6.0934 
G01 X-43.9439 Y6.2503 
G01 X-43.8496 Y6.3915 
G01 X-43.7295 Y6.5116 
G01 X-43.5883 Y6.6059 
G01 X-43.4314 Y6.6709 
G01 X-43.2649 Y6.7040 
G01 X-43.0951 Y6.7040 
G01 X-42.9286 Y6.6709 
G01 X-42.7717 Y6.6059 
G01 X-42.6305 Y6.5116 
G01 X-42.5104 Y6.3915 
G01 X-42.4161 Y6.2503 
G01 X-42.3977 Y6.2059 
G01 X-41.1416 Y7.4619 
G01 X-41.0497 Y7.5000 
G01 X-10.6036 Y7.5000 
G01 X-10.0017 Y8.1018 
G01 X-10.0603 Y8.1261 
G01 X-10.2015 Y8.2204 
G01 X-10.3216 Y8.3405 
G01 X-10.4159 Y8.4817 
G01 X-10.4809 Y8.6386 
G01 X-10.5140 Y8.8051 
G01 X-10.5140 Y8.9749 
G01 X-10.4809 Y9.1414 
G01 X-10.4159 Y9.2983 
G01 X-10.3216 Y9.4395 
G01 X-10.2015 Y9.5596 
G01 X-10.0603 Y9.6539 
G01 X-9.9034 Y9.7189 
G01 X-9.7369 Y9.7520 
G01 X-8.0431 Y9.7520 
G01 X-7.8766 Y9.7189 
G01 X-7.7197 Y9.6539 
G01 X-7.5785 Y9.5596 
G01 X-7.4584 Y9.4395 
G01 X-7.3641 Y9.2983 
G01 X-7.2991 Y9.1414 
G01 X-7.2660 Y8.9749 
G01 X-7.2660 Y8.8051 
G01 X-7.2991 Y8.6386 
G01 X-7.3641 Y8.4817 
G01 X-7.4584 Y8.3405 
G01 X-7.5785 Y8.2204 
G01 X-7.7197 Y8.1261 
G01 X-7.8766 Y8.0611 
G01 X-8.0431 Y8.0280 
G01 X-9.3684 Y8.0280 
G01 X-10.2881 Y7.1084 
G01 X-10.3584 Y7.0381 
G01 X-10.4503 Y7.0000 
G01 X-40.8964 Y7.0000 
G01 X-42.3180 Y5.5784 
G01 X-42.3180 Y4.2331 
G01 X-42.3511 Y4.0666 
G01 X-42.4161 Y3.9097 
G01 X-42.5104 Y3.7685 
G01 X-42.6305 Y3.6484 
G01 X-42.7717 Y3.5541 
G01 X-42.9286 Y3.4891 
G01 X-43.0951 Y3.4560 
G01 X-43.2649 Y3.4560 
G01 X-43.4314 Y3.4891 
G01 X-43.5883 Y3.5541 
G01 X-43.7295 Y3.6484 
G01 X-43.8496 Y3.7685 
G01 X-43.9439 Y3.9097 
G01 X-44.0089 Y4.0666 
G01 X-44.0420 Y4.2331 
G00 Z2.0000 
G00 X-46.5820 Y4.2331 
G01 Z-0.0250 F254.00 
G01 X-46.5820 Y5.9269 F508.00 
G01 X-46.5489 Y6.0934 
G01 X-46.4839 Y6.2503 
G01 X-46.3896 Y6.3915 
G01 X-46.2695 Y6.5116 
G01 X-46.1283 Y6.6059 
G01 X-45.9714 Y6.6709 
G01 X-45.8049 Y6.7040 
G01 X-45.6351 Y6.7040 
G01 X-45.4686 Y6.6709 
G01 X-45.3117 Y6.6059 
G01 X-45.1705 Y6.5116 
G01 X-45.0504 Y6.3915 
G01 X-44.9561 Y6.2503 
G01 X-44.8911 Y6.0934 
G01 X-44.8580 Y5.9269 
G01 X-44.8580 Y4.2331 
G01 X-44.8911 Y4.0666 
G01 X-44.9561 Y3.9097 
G01 X-45.0504 Y3.7685 
G01 X-45.1705 Y3.6484 
G01 X-45.3117 Y3.5541 
G01 X-45.4686 Y3.4891 
G01 X-45.6351 Y3.4560 
G01 X-45.8049 Y3.4560 
G01 X-45.9714 Y3.4891 
G01 X-46.1283 Y3.5541 
G01 X-46.2695 Y3.6484 
G01 X-46.3896 Y3.7685 
G01 X-46.4839 Y3.9097 
G01 X-46.5489 Y4.0666 
G01 X-46.5820 Y4.2331 
G00 Z2.0000 
G00 X-49.1220 Y4.2331 
G01 Z-0.0250 F254.00 
G01 X-49.1220 Y5.9269 F508.00 
G01 X-49.0889 Y6.0934 
G01 X-49.0239 Y6.2503 
G01 X-48.9296 Y6.3915 
G01 X-48.8095 Y6.5116 
G01 X-48.6683 Y6.6059 
G01 X-48.5114 Y6.6709 
G01 X-48.3449 Y6.7040 
G01 X-48.1751 Y6.7040 
G01 X-48.0086 Y6.6709 
G01 X-47.8517 Y6.6059 
G01 X-47.7105 Y6.5116 
G01 X-47.5904 Y6.3915 
G01 X-47.4961 Y6.2503 
G01 X-47.4311 Y6.0934 
G01 X-47.3980 Y5.9269 
G01 X-47.3980 Y4.2331 
G01 X-47.4311 Y4.0666 
G01 X-47.4961 Y3.9097 
G01 X-47.5904 Y3.7685 
G01 X-47.7105 Y3.6484 
G01 X-47.8517 Y3.5541 
G01 X-48.0086 Y3.4891 
G01 X-48.1751 Y3.4560 
G01 X-48.3449 Y3.4560 
G01 X-48.5114 Y3.4891 
G01 X-48.6683 Y3.5541 
G01 X-48.8095 Y3.6484 
G01 X-48.9296 Y3.7685 
G01 X-49.0239 Y3.9097 
G01 X-49.0889 Y4.0666 
G01 X-49.1220 Y4.2331 
G00 Z2.0000 
G00 X-28.1162 Y59.6101 
G01 Z-0.0250 F254.00 
G01 X-28.1162 Y59.7699 F508.00 
G01 X-28.0850 Y59.9266 
G01 X-28.0690 Y59.9654 
G01 X-28.8536 Y60.7500 
G01 X-39.8964 Y60.7500 
G01 X-40.5626 Y60.0839 
G01 X-40.5561 Y60.0742 
G01 X-40.4950 Y59.9266 
G01 X-40.4638 Y59.7699 
G01 X-40.4638 Y59.6101 
G01 X-40.4950 Y59.4534 
G01 X-40.5561 Y59.3058 
G01 X-40.6449 Y59.1729 
G01 X-40.7579 Y59.0599 
G01 X-40.8908 Y58.9711 
G01 X-41.0384 Y58.9100 
G01 X-41.1951 Y58.8788 
G01 X-41.3549 Y58.8788 
G01 X-41.5116 Y58.9100 
G01 X-41.6592 Y58.9711 
G01 X-41.7921 Y59.0599 
G01 X-41.9051 Y59.1729 
G01 X-41.9939 Y59.3058 
G01 X-42.0550 Y59.4534 
G01 X-42.0862 Y59.6101 
G01 X-42.0862 Y59.7699 
G01 X-42.0550 Y59.9266 
G01 X-41.9939 Y60.0742 
G01 X-41.9051 Y60.2071 
G01 X-41.7921 Y60.3201 
G01 X-41.6592 Y60.4089 
G01 X-41.5116 Y60.4700 
G01 X-41.3549 Y60.5012 
G01 X-41.1951 Y60.5012 
G01 X-41.0384 Y60.4700 
G01 X-40.9289 Y60.4247 
G01 X-40.1416 Y61.2119 
G01 X-40.0497 Y61.2500 
G01 X-28.7003 Y61.2500 
G01 X-28.6084 Y61.2119 
G01 X-28.5381 Y61.1416 
G01 X-27.7588 Y60.3624 
G01 X-27.6892 Y60.4089 
G01 X-27.5416 Y60.4700 
G01 X-27.3849 Y60.5012 
G01 X-27.2251 Y60.5012 
G01 X-27.0684 Y60.4700 
G01 X-26.9208 Y60.4089 
G01 X-26.7879 Y60.3201 
G01 X-26.6749 Y60.2071 
G01 X-26.5861 Y60.0742 
G01 X-26.5250 Y59.9266 
G01 X-26.4938 Y59.7699 
G01 X-26.4938 Y59.6101 
G01 X-26.5250 Y59.4534 
G01 X-26.5861 Y59.3058 
G01 X-26.6749 Y59.1729 
G01 X-26.7879 Y59.0599 
G01 X-26.9208 Y58.9711 
G01 X-27.0684 Y58.9100 
G01 X-27.2251 Y58.8788 
G01 X-27.3849 Y58.8788 
G01 X-27.5416 Y58.9100 
G01 X-27.6892 Y58.9711 
G01 X-27.8221 Y59.0599 
G01 X-27.9351 Y59.1729 
G01 X-28.0239 Y59.3058 
G01 X-28.0850 Y59.4534 
G01 X-28.1162 Y59.6101 
G00 Z2.0000 
G00 X-29.3862 Y57.0701 
G01 Z-0.0250 F254.00 
G01 X-29.3862 Y57.2299 F508.00 
G01 X-29.3550 Y57.3866 
G01 X-29.2939 Y57.5342 
G01 X-29.2051 Y57.6671 
G01 X-29.0921 Y57.7801 
G01 X-28.9592 Y57.8689 
G01 X-28.8116 Y57.9300 
G01 X-28.6549 Y57.9612 
G01 X-28.4951 Y57.9612 
G01 X-28.3384 Y57.9300 
G01 X-28.1908 Y57.8689 
G01 X-28.0579 Y57.7801 
G01 X-27.9449 Y57.6671 
G01 X-27.8561 Y57.5342 
G01 X-27.7950 Y57.3866 
G01 X-27.7638 Y57.2299 
G01 X-27.7638 Y57.0701 
G01 X-27.7950 Y56.9134 
G01 X-27.8561 Y56.7658 
G01 X-27.9449 Y56.6329 
G01 X-28.0579 Y56.5199 
G01 X-28.1908 Y56.4311 
G01 X-28.3384 Y56.3700 
G01 X-28.4951 Y56.3388 
G01 X-28.6549 Y56.3388 
G01 X-28.8116 Y56.3700 
G01 X-28.9592 Y56.4311 
G01 X-28.9629 Y56.4336 
G01 X-29.6084 Y55.7881 
G01 X-29.7003 Y55.7500 
G01 X-41.5497 Y55.7500 
G01 X-41.6416 Y55.7881 
G01 X-41.7119 Y55.8584 
G01 X-42.2484 Y56.3948 
G01 X-42.3084 Y56.3700 
G01 X-42.4651 Y56.3388 
G01 X-42.6249 Y56.3388 
G01 X-42.7816 Y56.3700 
G01 X-42.9292 Y56.4311 
G01 X-43.0621 Y56.5199 
G01 X-43.1751 Y56.6329 
G01 X-43.2533 Y56.7500 
G01 X-46.8964 Y56.7500 
G01 X-56.2668 Y47.3797 
G01 X-56.2499 Y47.3628 
G01 X-56.2499 Y46.6172 
G01 X-56.7772 Y46.0899 
G01 X-57.5228 Y46.0899 
G01 X-58.0501 Y46.6172 
G01 X-58.0501 Y47.3628 
G01 X-57.5228 Y47.8901 
G01 X-56.7772 Y47.8901 
G01 X-56.6203 Y47.7332 
G01 X-47.2119 Y57.1416 
G01 X-47.1416 Y57.2119 
G01 X-47.0497 Y57.2500 
G01 X-43.3522 Y57.2500 
G01 X-43.3250 Y57.3866 
G01 X-43.2639 Y57.5342 
G01 X-43.1751 Y57.6671 
G01 X-43.0621 Y57.7801 
G01 X-42.9292 Y57.8689 
G01 X-42.7816 Y57.9300 
G01 X-42.6249 Y57.9612 
G01 X-42.4651 Y57.9612 
G01 X-42.3084 Y57.9300 
G01 X-42.1608 Y57.8689 
G01 X-42.0279 Y57.7801 
G01 X-41.9149 Y57.6671 
G01 X-41.8261 Y57.5342 
G01 X-41.7650 Y57.3866 
G01 X-41.7338 Y57.2299 
G01 X-41.7338 Y57.0701 
G01 X-41.7650 Y56.9134 
G01 X-41.8261 Y56.7658 
G01 X-41.8606 Y56.7142 
G01 X-41.3964 Y56.2500 
G01 X-29.8536 Y56.2500 
G01 X-29.3067 Y56.7968 
G01 X-29.3550 Y56.9134 
G01 X-29.3862 Y57.0701 
G00 Z2.0000 
G00 X-30.6562 Y59.6101 
G01 Z-0.0250 F254.00 
G01 X-30.6562 Y59.7699 F508.00 
G01 X-30.6250 Y59.9266 
G01 X-30.5639 Y60.0742 
G01 X-30.4751 Y60.2071 
G01 X-30.3621 Y60.3201 
G01 X-30.2292 Y60.4089 
G01 X-30.0816 Y60.4700 
G01 X-29.9249 Y60.5012 
G01 X-29.7651 Y60.5012 
G01 X-29.6084 Y60.4700 
G01 X-29.4608 Y60.4089 
G01 X-29.3279 Y60.3201 
G01 X-29.2149 Y60.2071 
G01 X-29.1261 Y60.0742 
G01 X-29.0650 Y59.9266 
G01 X-29.0338 Y59.7699 
G01 X-29.0338 Y59.6101 
G01 X-29.0650 Y59.4534 
G01 X-29.1261 Y59.3058 
G01 X-29.2149 Y59.1729 
G01 X-29.3279 Y59.0599 
G01 X-29.4608 Y58.9711 
G01 X-29.6084 Y58.9100 
G01 X-29.7651 Y58.8788 
G01 X-29.9249 Y58.8788 
G01 X-30.0816 Y58.9100 
G01 X-30.2292 Y58.9711 
G01 X-30.3621 Y59.0599 
G01 X-30.4751 Y59.1729 
G01 X-30.5639 Y59.3058 
G01 X-30.6250 Y59.4534 
G01 X-30.6562 Y59.6101 
G00 Z2.0000 
G00 X-9.7369 Y12.2920 
G01 Z-0.0250 F254.00 
G01 X-8.0431 Y12.2920 F508.00 
G01 X-7.8766 Y12.2589 
G01 X-7.7197 Y12.1939 
G01 X-7.5785 Y12.0996 
G01 X-7.4584 Y11.9795 
G01 X-7.3641 Y11.8383 
G01 X-7.2991 Y11.6814 
G01 X-7.2660 Y11.5149 
G01 X-7.2660 Y11.3451 
G01 X-7.2991 Y11.1786 
G01 X-7.3641 Y11.0217 
G01 X-7.4584 Y10.8805 
G01 X-7.5785 Y10.7604 
G01 X-7.7197 Y10.6661 
G01 X-7.8766 Y10.6011 
G01 X-8.0431 Y10.5680 
G01 X-9.7369 Y10.5680 
G01 X-9.9034 Y10.6011 
G01 X-10.0603 Y10.6661 
G01 X-10.2015 Y10.7604 
G01 X-10.3216 Y10.8805 
G01 X-10.4159 Y11.0217 
G01 X-10.4809 Y11.1786 
G01 X-10.5140 Y11.3451 
G01 X-10.5140 Y11.5149 
G01 X-10.4809 Y11.6814 
G01 X-10.4159 Y11.8383 
G01 X-10.3216 Y11.9795 
G01 X-10.2015 Y12.0996 
G01 X-10.0603 Y12.1939 
G01 X-9.9034 Y12.2589 
G01 X-9.7369 Y12.2920 
G00 Z2.0000 
G00 X-9.7369 Y14.8320 
G01 Z-0.0250 F254.00 
G01 X-8.0431 Y14.8320 F508.00 
G01 X-7.8766 Y14.7989 
G01 X-7.7197 Y14.7339 
G01 X-7.5785 Y14.6396 
G01 X-7.4584 Y14.5195 
G01 X-7.3641 Y14.3783 
G01 X-7.2991 Y14.2214 
G01 X-7.2660 Y14.0549 
G01 X-7.2660 Y13.8851 
G01 X-7.2991 Y13.7186 
G01 X-7.3641 Y13.5617 
G01 X-7.4584 Y13.4205 
G01 X-7.5785 Y13.3004 
G01 X-7.7197 Y13.2061 
G01 X-7.8766 Y13.1411 
G01 X-8.0431 Y13.1080 
G01 X-9.7369 Y13.1080 
G01 X-9.9034 Y13.1411 
G01 X-10.0603 Y13.2061 
G01 X-10.2015 Y13.3004 
G01 X-10.3216 Y13.4205 
G01 X-10.4159 Y13.5617 
G01 X-10.4809 Y13.7186 
G01 X-10.5140 Y13.8851 
G01 X-10.5140 Y14.0549 
G01 X-10.4809 Y14.2214 
G01 X-10.4159 Y14.3783 
G01 X-10.3216 Y14.5195 
G01 X-10.2015 Y14.6396 
G01 X-10.0603 Y14.7339 
G01 X-9.9034 Y14.7989 
G01 X-9.7369 Y14.8320 
G00 Z2.0000 
G00 X-55.7490 Y62.5193 
G01 Z-0.0250 F254.00 
G01 X-55.7490 Y64.1407 F508.00 
G01 X-55.7171 Y64.3008 
G01 X-55.6546 Y64.4517 
G01 X-55.5639 Y64.5875 
G01 X-55.4485 Y64.7029 
G01 X-55.3127 Y64.7936 
G01 X-55.1618 Y64.8561 
G01 X-55.0017 Y64.8880 
G01 X-54.8383 Y64.8880 
G01 X-54.6782 Y64.8561 
G01 X-54.5273 Y64.7936 
G01 X-54.3915 Y64.7029 
G01 X-54.2761 Y64.5875 
G01 X-54.1853 Y64.4517 
G01 X-54.1229 Y64.3008 
G01 X-54.0910 Y64.1407 
G01 X-54.0910 Y62.5193 
G01 X-54.1229 Y62.3592 
G01 X-54.1853 Y62.2083 
G01 X-54.2761 Y62.0725 
G01 X-54.3915 Y61.9571 
G01 X-54.5273 Y61.8664 
G01 X-54.6782 Y61.8039 
G01 X-54.8383 Y61.7720 
G01 X-55.0017 Y61.7720 
G01 X-55.1618 Y61.8039 
G01 X-55.3127 Y61.8664 
G01 X-55.4485 Y61.9571 
G01 X-55.5639 Y62.0725 
G01 X-55.6546 Y62.2083 
G01 X-55.7171 Y62.3592 
G01 X-55.7490 Y62.5193 
G00 Z2.0000 
G00 X-62.7490 Y62.5193 
G01 Z-0.0250 F254.00 
G01 X-62.7490 Y64.1407 F508.00 
G01 X-62.7171 Y64.3008 
G01 X-62.6546 Y64.4517 
G01 X-62.5639 Y64.5875 
G01 X-62.4485 Y64.7029 
G01 X-62.3127 Y64.7936 
G01 X-62.1618 Y64.8561 
G01 X-62.0017 Y64.8880 
G01 X-61.8383 Y64.8880 
G01 X-61.6782 Y64.8561 
G01 X-61.5273 Y64.7936 
G01 X-61.3915 Y64.7029 
G01 X-61.2761 Y64.5875 
G01 X-61.1853 Y64.4517 
G01 X-61.1229 Y64.3008 
G01 X-61.0910 Y64.1407 
G01 X-61.0910 Y62.5193 
G01 X-61.1229 Y62.3592 
G01 X-61.1853 Y62.2083 
G01 X-61.2761 Y62.0725 
G01 X-61.3915 Y61.9571 
G01 X-61.5273 Y61.8664 
G01 X-61.6782 Y61.8039 
G01 X-61.8383 Y61.7720 
G01 X-62.0017 Y61.7720 
G01 X-62.1618 Y61.8039 
G01 X-62.3127 Y61.8664 
G01 X-62.4485 Y61.9571 
G01 X-62.5639 Y62.0725 
G01 X-62.6546 Y62.2083 
G01 X-62.7171 Y62.3592 
G01 X-62.7490 Y62.5193 
G00 Z2.0000 
G00 X-58.2490 Y62.5193 
G01 Z-0.0250 F254.00 
G01 X-58.2490 Y64.1407 F508.00 
G01 X-58.2171 Y64.3008 
G01 X-58.1546 Y64.4517 
G01 X-58.0639 Y64.5875 
G01 X-57.9485 Y64.7029 
G01 X-57.8127 Y64.7936 
G01 X-57.6618 Y64.8561 
G01 X-57.5017 Y64.8880 
G01 X-57.3383 Y64.8880 
G01 X-57.1782 Y64.8561 
G01 X-57.0273 Y64.7936 
G01 X-56.8915 Y64.7029 
G01 X-56.7761 Y64.5875 
G01 X-56.6853 Y64.4517 
G01 X-56.6229 Y64.3008 
G01 X-56.5910 Y64.1407 
G01 X-56.5910 Y62.5193 
G01 X-56.6229 Y62.3592 
G01 X-56.6853 Y62.2083 
G01 X-56.7761 Y62.0725 
G01 X-56.8915 Y61.9571 
G01 X-57.0273 Y61.8664 
G01 X-57.1782 Y61.8039 
G01 X-57.3383 Y61.7720 
G01 X-57.5017 Y61.7720 
G01 X-57.6618 Y61.8039 
G01 X-57.8127 Y61.8664 
G01 X-57.9485 Y61.9571 
G01 X-58.0639 Y62.0725 
G01 X-58.1546 Y62.2083 
G01 X-58.2171 Y62.3592 
G01 X-58.2490 Y62.5193 
G00 Z2.0000 
G00 X-60.2490 Y62.5193 
G01 Z-0.0250 F254.00 
G01 X-60.2490 Y64.1407 F508.00 
G01 X-60.2171 Y64.3008 
G01 X-60.1546 Y64.4517 
G01 X-60.0639 Y64.5875 
G01 X-59.9485 Y64.7029 
G01 X-59.8127 Y64.7936 
G01 X-59.6618 Y64.8561 
G01 X-59.5017 Y64.8880 
G01 X-59.3383 Y64.8880 
G01 X-59.1782 Y64.8561 
G01 X-59.0273 Y64.7936 
G01 X-58.8915 Y64.7029 
G01 X-58.7761 Y64.5875 
G01 X-58.6853 Y64.4517 
G01 X-58.6229 Y64.3008 
G01 X-58.5910 Y64.1407 
G01 X-58.5910 Y62.5193 
G01 X-58.6229 Y62.3592 
G01 X-58.6853 Y62.2083 
G01 X-58.7761 Y62.0725 
G01 X-58.8915 Y61.9571 
G01 X-59.0273 Y61.8664 
G01 X-59.1782 Y61.8039 
G01 X-59.3383 Y61.7720 
G01 X-59.5017 Y61.7720 
G01 X-59.6618 Y61.8039 
G01 X-59.8127 Y61.8664 
G01 X-59.9485 Y61.9571 
G01 X-60.0639 Y62.0725 
G01 X-60.1546 Y62.2083 
G01 X-60.2171 Y62.3592 
G01 X-60.2490 Y62.5193 
G00 Z2.0000 
G00 X-4.1386 Y37.7388 
G01 Z-0.0250 F254.00 
G01 X-4.1386 Y37.9024 F508.00 
G01 X-4.1130 Y38.0641 
G01 X-4.0624 Y38.2197 
G01 X-3.9881 Y38.3656 
G01 X-3.8919 Y38.4980 
G01 X-3.7762 Y38.6137 
G01 X-3.6438 Y38.7099 
G01 X-3.4979 Y38.7842 
G01 X-3.3423 Y38.8348 
G01 X-3.1806 Y38.8604 
G01 X-3.0170 Y38.8604 
G01 X-2.8553 Y38.8348 
G01 X-2.6997 Y38.7842 
G01 X-2.5538 Y38.7099 
G01 X-2.4214 Y38.6137 
G01 X-2.3057 Y38.4980 
G01 X-2.2095 Y38.3656 
G01 X-2.1352 Y38.2197 
G01 X-2.0846 Y38.0641 
G01 X-2.0590 Y37.9024 
G01 X-2.0590 Y37.7388 
G01 X-2.0846 Y37.5771 
G01 X-2.1352 Y37.4215 
G01 X-2.2095 Y37.2756 
G01 X-2.3057 Y37.1432 
G01 X-2.4214 Y37.0275 
G01 X-2.5538 Y36.9313 
G01 X-2.6997 Y36.8570 
G01 X-2.8553 Y36.8064 
G01 X-3.0170 Y36.7808 
G01 X-3.1806 Y36.7808 
G01 X-3.3423 Y36.8064 
G01 X-3.4979 Y36.8570 
G01 X-3.6438 Y36.9313 
G01 X-3.7762 Y37.0275 
G01 X-3.8919 Y37.1432 
G01 X-3.9881 Y37.2756 
G01 X-4.0624 Y37.4215 
G01 X-4.1130 Y37.5771 
G01 X-4.1386 Y37.7388 
G00 Z2.0000 
G00 X-10.6410 Y37.7388 
G01 Z-0.0250 F254.00 
G01 X-10.6410 Y37.9024 F508.00 
G01 X-10.6154 Y38.0641 
G01 X-10.5648 Y38.2197 
G01 X-10.4905 Y38.3656 
G01 X-10.3943 Y38.4980 
G01 X-10.2786 Y38.6137 
G01 X-10.1462 Y38.7099 
G01 X-10.0003 Y38.7842 
G01 X-9.8447 Y38.8348 
G01 X-9.6830 Y38.8604 
G01 X-9.5194 Y38.8604 
G01 X-9.3577 Y38.8348 
G01 X-9.2021 Y38.7842 
G01 X-9.0562 Y38.7099 
G01 X-8.9238 Y38.6137 
G01 X-8.8081 Y38.4980 
G01 X-8.7119 Y38.3656 
G01 X-8.6376 Y38.2197 
G01 X-8.5870 Y38.0641 
G01 X-8.5614 Y37.9024 
G01 X-8.5614 Y37.7388 
G01 X-8.5870 Y37.5771 
G01 X-8.6376 Y37.4215 
G01 X-8.7119 Y37.2756 
G01 X-8.8081 Y37.1432 
G01 X-8.9238 Y37.0275 
G01 X-9.0562 Y36.9313 
G01 X-9.2021 Y36.8570 
G01 X-9.3577 Y36.8064 
G01 X-9.5194 Y36.7808 
G01 X-9.6830 Y36.7808 
G01 X-9.8447 Y36.8064 
G01 X-10.0003 Y36.8570 
G01 X-10.1462 Y36.9313 
G01 X-10.2786 Y37.0275 
G01 X-10.3943 Y37.1432 
G01 X-10.4905 Y37.2756 
G01 X-10.5648 Y37.4215 
G01 X-10.6154 Y37.5771 
G01 X-10.6410 Y37.7388 
G00 Z2.0000 
G00 X-4.1386 Y33.2176 
G01 Z-0.0250 F254.00 
G01 X-4.1386 Y33.3812 F508.00 
G01 X-4.1130 Y33.5429 
G01 X-4.0624 Y33.6985 
G01 X-3.9881 Y33.8444 
G01 X-3.8919 Y33.9768 
G01 X-3.7762 Y34.0925 
G01 X-3.6438 Y34.1887 
G01 X-3.4979 Y34.2630 
G01 X-3.3423 Y34.3136 
G01 X-3.1806 Y34.3392 
G01 X-3.0170 Y34.3392 
G01 X-2.8553 Y34.3136 
G01 X-2.6997 Y34.2630 
G01 X-2.5538 Y34.1887 
G01 X-2.4214 Y34.0925 
G01 X-2.3057 Y33.9768 
G01 X-2.2095 Y33.8444 
G01 X-2.1352 Y33.6985 
G01 X-2.0846 Y33.5429 
G01 X-2.0590 Y33.3812 
G01 X-2.0590 Y33.2176 
G01 X-2.0846 Y33.0559 
G01 X-2.1352 Y32.9003 
G01 X-2.2095 Y32.7544 
G01 X-2.3057 Y32.6220 
G01 X-2.4214 Y32.5063 
G01 X-2.5538 Y32.4101 
G01 X-2.6997 Y32.3358 
G01 X-2.8553 Y32.2852 
G01 X-3.0170 Y32.2596 
G01 X-3.1806 Y32.2596 
G01 X-3.3423 Y32.2852 
G01 X-3.4979 Y32.3358 
G01 X-3.6438 Y32.4101 
G01 X-3.7762 Y32.5063 
G01 X-3.8919 Y32.6220 
G01 X-3.9881 Y32.7544 
G01 X-4.0624 Y32.9003 
G01 X-4.1130 Y33.0559 
G01 X-4.1386 Y33.2176 
G00 Z2.0000 
G00 X-10.6410 Y33.2176 
G01 Z-0.0250 F254.00 
G01 X-10.6410 Y33.3812 F508.00 
G01 X-10.6154 Y33.5429 
G01 X-10.5648 Y33.6985 
G01 X-10.4905 Y33.8444 
G01 X-10.3943 Y33.9768 
G01 X-10.2786 Y34.0925 
G01 X-10.1462 Y34.1887 
G01 X-10.0003 Y34.2630 
G01 X-9.8447 Y34.3136 
G01 X-9.6830 Y34.3392 
G01 X-9.5194 Y34.3392 
G01 X-9.3577 Y34.3136 
G01 X-9.2021 Y34.2630 
G01 X-9.0562 Y34.1887 
G01 X-8.9238 Y34.0925 
G01 X-8.8081 Y33.9768 
G01 X-8.7119 Y33.8444 
G01 X-8.6376 Y33.6985 
G01 X-8.5870 Y33.5429 
G01 X-8.5614 Y33.3812 
G01 X-8.5614 Y33.2176 
G01 X-8.5870 Y33.0559 
G01 X-8.6376 Y32.9003 
G01 X-8.7119 Y32.7544 
G01 X-8.8081 Y32.6220 
G01 X-8.9238 Y32.5063 
G01 X-9.0562 Y32.4101 
G01 X-9.2021 Y32.3358 
G01 X-9.3577 Y32.2852 
G01 X-9.5194 Y32.2596 
G01 X-9.6830 Y32.2596 
G01 X-9.8447 Y32.2852 
G01 X-10.0003 Y32.3358 
G01 X-10.1462 Y32.4101 
G01 X-10.1984 Y32.4480 
G01 X-11.5381 Y31.1084 
G01 X-11.6084 Y31.0381 
G01 X-11.7003 Y31.0000 
G01 X-61.7997 Y31.0000 
G01 X-61.8916 Y31.0381 
G01 X-62.8369 Y31.9833 
G01 X-62.9094 Y31.8749 
G01 X-63.0153 Y31.7690 
G01 X-63.1398 Y31.6857 
G01 X-63.2782 Y31.6284 
G01 X-63.4251 Y31.5992 
G01 X-63.5749 Y31.5992 
G01 X-63.7218 Y31.6284 
G01 X-63.8602 Y31.6857 
G01 X-63.9847 Y31.7690 
G01 X-64.0906 Y31.8749 
G01 X-64.1739 Y31.9994 
G01 X-64.2312 Y32.1378 
G01 X-64.2604 Y32.2847 
G01 X-64.2604 Y33.7553 
G01 X-64.2312 Y33.9022 
G01 X-64.1739 Y34.0406 
G01 X-64.0906 Y34.1651 
G01 X-63.9847 Y34.2710 
G01 X-63.8602 Y34.3543 
G01 X-63.7218 Y34.4116 
G01 X-63.5749 Y34.4408 
G01 X-63.4251 Y34.4408 
G01 X-63.2782 Y34.4116 
G01 X-63.1398 Y34.3543 
G01 X-63.0153 Y34.2710 
G01 X-62.9094 Y34.1651 
G01 X-62.8261 Y34.0406 
G01 X-62.7688 Y33.9022 
G01 X-62.7396 Y33.7553 
G01 X-62.7396 Y32.5932 
G01 X-61.6464 Y31.5000 
G01 X-11.8536 Y31.5000 
G01 X-10.5272 Y32.8264 
G01 X-10.5648 Y32.9003 
G01 X-10.6154 Y33.0559 
G01 X-10.6410 Y33.2176 
G00 Z2.0000 
G00 X-64.2604 Y24.6647 
G01 Z-0.0250 F254.00 
G01 X-64.2604 Y26.1353 F508.00 
G01 X-64.2312 Y26.2822 
G01 X-64.1739 Y26.4206 
G01 X-64.0906 Y26.5451 
G01 X-63.9847 Y26.6510 
G01 X-63.8602 Y26.7343 
G01 X-63.7218 Y26.7916 
G01 X-63.5749 Y26.8208 
G01 X-63.4251 Y26.8208 
G01 X-63.2782 Y26.7916 
G01 X-63.1398 Y26.7343 
G01 X-63.0153 Y26.6510 
G01 X-62.9094 Y26.5451 
G01 X-62.8261 Y26.4206 
G01 X-62.7688 Y26.2822 
G01 X-62.7396 Y26.1353 
G01 X-62.7396 Y24.6647 
G01 X-62.7688 Y24.5178 
G01 X-62.8261 Y24.3794 
G01 X-62.9094 Y24.2549 
G01 X-63.0153 Y24.1490 
G01 X-63.1398 Y24.0657 
G01 X-63.2782 Y24.0084 
G01 X-63.4251 Y23.9792 
G01 X-63.5749 Y23.9792 
G01 X-63.7218 Y24.0084 
G01 X-63.8602 Y24.0657 
G01 X-63.9847 Y24.1490 
G01 X-64.0906 Y24.2549 
G01 X-64.1739 Y24.3794 
G01 X-64.2312 Y24.5178 
G01 X-64.2604 Y24.6647 
G00 Z2.0000 
G00 X-61.7204 Y24.6647 
G01 Z-0.0250 F254.00 
G01 X-61.7204 Y26.1353 F508.00 
G01 X-61.6912 Y26.2822 
G01 X-61.6339 Y26.4206 
G01 X-61.5506 Y26.5451 
G01 X-61.4447 Y26.6510 
G01 X-61.3202 Y26.7343 
G01 X-61.1818 Y26.7916 
G01 X-61.0349 Y26.8208 
G01 X-60.8851 Y26.8208 
G01 X-60.7382 Y26.7916 
G01 X-60.5998 Y26.7343 
G01 X-60.4753 Y26.6510 
G01 X-60.3694 Y26.5451 
G01 X-60.2861 Y26.4206 
G01 X-60.2288 Y26.2822 
G01 X-60.1996 Y26.1353 
G01 X-60.1996 Y24.6647 
G01 X-60.2288 Y24.5178 
G01 X-60.2861 Y24.3794 
G01 X-60.3694 Y24.2549 
G01 X-60.4753 Y24.1490 
G01 X-60.5998 Y24.0657 
G01 X-60.7382 Y24.0084 
G01 X-60.8851 Y23.9792 
G01 X-61.0349 Y23.9792 
G01 X-61.1818 Y24.0084 
G01 X-61.3202 Y24.0657 
G01 X-61.4447 Y24.1490 
G01 X-61.5506 Y24.2549 
G01 X-61.6339 Y24.3794 
G01 X-61.6912 Y24.5178 
G01 X-61.7204 Y24.6647 
G00 Z2.0000 
G00 X-59.1804 Y24.6647 
G01 Z-0.0250 F254.00 
G01 X-59.1804 Y26.1353 F508.00 
G01 X-59.1512 Y26.2822 
G01 X-59.0939 Y26.4206 
G01 X-59.0106 Y26.5451 
G01 X-58.9047 Y26.6510 
G01 X-58.7802 Y26.7343 
G01 X-58.6418 Y26.7916 
G01 X-58.4949 Y26.8208 
G01 X-58.3451 Y26.8208 
G01 X-58.1982 Y26.7916 
G01 X-58.0598 Y26.7343 
G01 X-57.9353 Y26.6510 
G01 X-57.8294 Y26.5451 
G01 X-57.7461 Y26.4206 
G01 X-57.6888 Y26.2822 
G01 X-57.6596 Y26.1353 
G01 X-57.6596 Y24.6647 
G01 X-57.6888 Y24.5178 
G01 X-57.7461 Y24.3794 
G01 X-57.8294 Y24.2549 
G01 X-57.9353 Y24.1490 
G01 X-58.0598 Y24.0657 
G01 X-58.1982 Y24.0084 
G01 X-58.3451 Y23.9792 
G01 X-58.4949 Y23.9792 
G01 X-58.6418 Y24.0084 
G01 X-58.7802 Y24.0657 
G01 X-58.9047 Y24.1490 
G01 X-59.0106 Y24.2549 
G01 X-59.0939 Y24.3794 
G01 X-59.1512 Y24.5178 
G01 X-59.1804 Y24.6647 
G00 Z2.0000 
G00 X-56.6404 Y24.6647 
G01 Z-0.0250 F254.00 
G01 X-56.6404 Y26.1353 F508.00 
G01 X-56.6112 Y26.2822 
G01 X-56.5539 Y26.4206 
G01 X-56.4706 Y26.5451 
G01 X-56.3647 Y26.6510 
G01 X-56.2402 Y26.7343 
G01 X-56.1018 Y26.7916 
G01 X-55.9549 Y26.8208 
G01 X-55.8051 Y26.8208 
G01 X-55.6582 Y26.7916 
G01 X-55.5198 Y26.7343 
G01 X-55.3953 Y26.6510 
G01 X-55.2894 Y26.5451 
G01 X-55.2061 Y26.4206 
G01 X-55.1488 Y26.2822 
G01 X-55.1196 Y26.1353 
G01 X-55.1196 Y24.6647 
G01 X-55.1488 Y24.5178 
G01 X-55.2061 Y24.3794 
G01 X-55.2894 Y24.2549 
G01 X-55.3953 Y24.1490 
G01 X-55.5198 Y24.0657 
G01 X-55.6582 Y24.0084 
G01 X-55.8051 Y23.9792 
G01 X-55.9549 Y23.9792 
G01 X-56.1018 Y24.0084 
G01 X-56.2402 Y24.0657 
G01 X-56.3647 Y24.1490 
G01 X-56.4706 Y24.2549 
G01 X-56.5539 Y24.3794 
G01 X-56.6112 Y24.5178 
G01 X-56.6404 Y24.6647 
G00 Z2.0000 
G00 X-54.1004 Y24.6647 
G01 Z-0.0250 F254.00 
G01 X-54.1004 Y26.1353 F508.00 
G01 X-54.0712 Y26.2822 
G01 X-54.0139 Y26.4206 
G01 X-53.9306 Y26.5451 
G01 X-53.8247 Y26.6510 
G01 X-53.7002 Y26.7343 
G01 X-53.5618 Y26.7916 
G01 X-53.4149 Y26.8208 
G01 X-53.2651 Y26.8208 
G01 X-53.1182 Y26.7916 
G01 X-52.9798 Y26.7343 
G01 X-52.8553 Y26.6510 
G01 X-52.7494 Y26.5451 
G01 X-52.6661 Y26.4206 
G01 X-52.6088 Y26.2822 
G01 X-52.5796 Y26.1353 
G01 X-52.5796 Y24.6647 
G01 X-52.6088 Y24.5178 
G01 X-52.6661 Y24.3794 
G01 X-52.7494 Y24.2549 
G01 X-52.8553 Y24.1490 
G01 X-52.9798 Y24.0657 
G01 X-53.1182 Y24.0084 
G01 X-53.2651 Y23.9792 
G01 X-53.4149 Y23.9792 
G01 X-53.5618 Y24.0084 
G01 X-53.7002 Y24.0657 
G01 X-53.8247 Y24.1490 
G01 X-53.9306 Y24.2549 
G01 X-54.0139 Y24.3794 
G01 X-54.0712 Y24.5178 
G01 X-54.1004 Y24.6647 
G00 Z2.0000 
G00 X-51.5604 Y24.6647 
G01 Z-0.0250 F254.00 
G01 X-51.5604 Y26.1353 F508.00 
G01 X-51.5312 Y26.2822 
G01 X-51.4739 Y26.4206 
G01 X-51.3906 Y26.5451 
G01 X-51.2847 Y26.6510 
G01 X-51.1602 Y26.7343 
G01 X-51.0218 Y26.7916 
G01 X-50.8749 Y26.8208 
G01 X-50.7251 Y26.8208 
G01 X-50.5782 Y26.7916 
G01 X-50.4398 Y26.7343 
G01 X-50.3153 Y26.6510 
G01 X-50.2094 Y26.5451 
G01 X-50.1261 Y26.4206 
G01 X-50.0688 Y26.2822 
G01 X-50.0396 Y26.1353 
G01 X-50.0396 Y24.6647 
G01 X-50.0688 Y24.5178 
G01 X-50.1261 Y24.3794 
G01 X-50.2094 Y24.2549 
G01 X-50.3153 Y24.1490 
G01 X-50.4398 Y24.0657 
G01 X-50.5782 Y24.0084 
G01 X-50.7251 Y23.9792 
G01 X-50.7500 Y23.9792 
G01 X-50.7500 Y5.2003 
G01 X-50.7881 Y5.1084 
G01 X-50.8584 Y5.0381 
G01 X-50.9503 Y5.0000 
G01 X-56.2880 Y5.0000 
G01 X-56.2880 Y4.2331 
G01 X-56.3211 Y4.0666 
G01 X-56.3861 Y3.9097 
G01 X-56.4804 Y3.7685 
G01 X-56.6005 Y3.6484 
G01 X-56.7417 Y3.5541 
G01 X-56.8986 Y3.4891 
G01 X-57.0651 Y3.4560 
G01 X-57.2349 Y3.4560 
G01 X-57.4014 Y3.4891 
G01 X-57.5583 Y3.5541 
G01 X-57.6995 Y3.6484 
G01 X-57.8196 Y3.7685 
G01 X-57.9139 Y3.9097 
G01 X-57.9789 Y4.0666 
G01 X-58.0120 Y4.2331 
G01 X-58.0120 Y5.9269 
G01 X-57.9789 Y6.0934 
G01 X-57.9139 Y6.2503 
G01 X-57.8196 Y6.3915 
G01 X-57.6995 Y6.5116 
G01 X-57.5583 Y6.6059 
G01 X-57.4014 Y6.6709 
G01 X-57.2349 Y6.7040 
G01 X-57.0651 Y6.7040 
G01 X-56.8986 Y6.6709 
G01 X-56.7417 Y6.6059 
G01 X-56.6005 Y6.5116 
G01 X-56.4804 Y6.3915 
G01 X-56.3861 Y6.2503 
G01 X-56.3211 Y6.0934 
G01 X-56.2880 Y5.9269 
G01 X-56.2880 Y5.5000 
G01 X-51.2500 Y5.5000 
G01 X-51.2500 Y24.1258 
G01 X-51.2847 Y24.1490 
G01 X-51.3906 Y24.2549 
G01 X-51.4739 Y24.3794 
G01 X-51.5312 Y24.5178 
G01 X-51.5604 Y24.6647 
G00 Z2.0000 
G00 X-49.0204 Y24.6647 
G01 Z-0.0250 F254.00 
G01 X-49.0204 Y26.1353 F508.00 
G01 X-48.9912 Y26.2822 
G01 X-48.9339 Y26.4206 
G01 X-48.8506 Y26.5451 
G01 X-48.7447 Y26.6510 
G01 X-48.6202 Y26.7343 
G01 X-48.4818 Y26.7916 
G01 X-48.3349 Y26.8208 
G01 X-48.1851 Y26.8208 
G01 X-48.0382 Y26.7916 
G01 X-47.8998 Y26.7343 
G01 X-47.7753 Y26.6510 
G01 X-47.6694 Y26.5451 
G01 X-47.5861 Y26.4206 
G01 X-47.5288 Y26.2822 
G01 X-47.4996 Y26.1353 
G01 X-47.4996 Y24.6647 
G01 X-47.5288 Y24.5178 
G01 X-47.5861 Y24.3794 
G01 X-47.6694 Y24.2549 
G01 X-47.7753 Y24.1490 
G01 X-47.8998 Y24.0657 
G01 X-48.0382 Y24.0084 
G01 X-48.1851 Y23.9792 
G01 X-48.3349 Y23.9792 
G01 X-48.4818 Y24.0084 
G01 X-48.6202 Y24.0657 
G01 X-48.7447 Y24.1490 
G01 X-48.8506 Y24.2549 
G01 X-48.9339 Y24.3794 
G01 X-48.9912 Y24.5178 
G01 X-49.0204 Y24.6647 
G00 Z2.0000 
G00 X-46.4804 Y24.6647 
G01 Z-0.0250 F254.00 
G01 X-46.4804 Y26.1353 F508.00 
G01 X-46.4512 Y26.2822 
G01 X-46.3939 Y26.4206 
G01 X-46.3106 Y26.5451 
G01 X-46.2047 Y26.6510 
G01 X-46.0802 Y26.7343 
G01 X-45.9418 Y26.7916 
G01 X-45.7949 Y26.8208 
G01 X-45.6451 Y26.8208 
G01 X-45.4982 Y26.7916 
G01 X-45.3598 Y26.7343 
G01 X-45.2353 Y26.6510 
G01 X-45.1294 Y26.5451 
G01 X-45.0461 Y26.4206 
G01 X-44.9888 Y26.2822 
G01 X-44.9596 Y26.1353 
G01 X-44.9596 Y24.6647 
G01 X-44.9888 Y24.5178 
G01 X-45.0461 Y24.3794 
G01 X-45.1294 Y24.2549 
G01 X-45.2353 Y24.1490 
G01 X-45.3598 Y24.0657 
G01 X-45.4982 Y24.0084 
G01 X-45.6451 Y23.9792 
G01 X-45.7949 Y23.9792 
G01 X-45.9418 Y24.0084 
G01 X-46.0802 Y24.0657 
G01 X-46.2047 Y24.1490 
G01 X-46.3106 Y24.2549 
G01 X-46.3939 Y24.3794 
G01 X-46.4512 Y24.5178 
G01 X-46.4804 Y24.6647 
G00 Z2.0000 
G00 X-43.9404 Y24.6647 
G01 Z-0.0250 F254.00 
G01 X-43.9404 Y26.1353 F508.00 
G01 X-43.9112 Y26.2822 
G01 X-43.8539 Y26.4206 
G01 X-43.7706 Y26.5451 
G01 X-43.6647 Y26.6510 
G01 X-43.5402 Y26.7343 
G01 X-43.4018 Y26.7916 
G01 X-43.2549 Y26.8208 
G01 X-43.1051 Y26.8208 
G01 X-42.9582 Y26.7916 
G01 X-42.8198 Y26.7343 
G01 X-42.6953 Y26.6510 
G01 X-42.5894 Y26.5451 
G01 X-42.5061 Y26.4206 
G01 X-42.4488 Y26.2822 
G01 X-42.4196 Y26.1353 
G01 X-42.4196 Y24.6647 
G01 X-42.4488 Y24.5178 
G01 X-42.5061 Y24.3794 
G01 X-42.5894 Y24.2549 
G01 X-42.6953 Y24.1490 
G01 X-42.8198 Y24.0657 
G01 X-42.9582 Y24.0084 
G01 X-43.1051 Y23.9792 
G01 X-43.2549 Y23.9792 
G01 X-43.4018 Y24.0084 
G01 X-43.5402 Y24.0657 
G01 X-43.6647 Y24.1490 
G01 X-43.7706 Y24.2549 
G01 X-43.8539 Y24.3794 
G01 X-43.9112 Y24.5178 
G01 X-43.9404 Y24.6647 
G00 Z2.0000 
G00 X-41.4004 Y24.6647 
G01 Z-0.0250 F254.00 
G01 X-41.4004 Y26.1353 F508.00 
G01 X-41.3712 Y26.2822 
G01 X-41.3139 Y26.4206 
G01 X-41.2306 Y26.5451 
G01 X-41.1247 Y26.6510 
G01 X-41.0002 Y26.7343 
G01 X-40.8618 Y26.7916 
G01 X-40.7149 Y26.8208 
G01 X-40.5651 Y26.8208 
G01 X-40.4182 Y26.7916 
G01 X-40.2798 Y26.7343 
G01 X-40.1553 Y26.6510 
G01 X-40.0494 Y26.5451 
G01 X-39.9661 Y26.4206 
G01 X-39.9088 Y26.2822 
G01 X-39.8796 Y26.1353 
G01 X-39.8796 Y24.6647 
G01 X-39.9088 Y24.5178 
G01 X-39.9661 Y24.3794 
G01 X-40.0494 Y24.2549 
G01 X-40.1553 Y24.1490 
G01 X-40.2798 Y24.0657 
G01 X-40.4182 Y24.0084 
G01 X-40.5651 Y23.9792 
G01 X-40.7149 Y23.9792 
G01 X-40.8618 Y24.0084 
G01 X-41.0002 Y24.0657 
G01 X-41.1247 Y24.1490 
G01 X-41.2306 Y24.2549 
G01 X-41.3139 Y24.3794 
G01 X-41.3712 Y24.5178 
G01 X-41.4004 Y24.6647 
G00 Z2.0000 
G00 X-38.8604 Y24.6647 
G01 Z-0.0250 F254.00 
G01 X-38.8604 Y26.1353 F508.00 
G01 X-38.8312 Y26.2822 
G01 X-38.7739 Y26.4206 
G01 X-38.6906 Y26.5451 
G01 X-38.5847 Y26.6510 
G01 X-38.4602 Y26.7343 
G01 X-38.3218 Y26.7916 
G01 X-38.1749 Y26.8208 
G01 X-38.0251 Y26.8208 
G01 X-37.8782 Y26.7916 
G01 X-37.7398 Y26.7343 
G01 X-37.6153 Y26.6510 
G01 X-37.5094 Y26.5451 
G01 X-37.4261 Y26.4206 
G01 X-37.3688 Y26.2822 
G01 X-37.3396 Y26.1353 
G01 X-37.3396 Y24.6647 
G01 X-37.3688 Y24.5178 
G01 X-37.4261 Y24.3794 
G01 X-37.5094 Y24.2549 
G01 X-37.6153 Y24.1490 
G01 X-37.7398 Y24.0657 
G01 X-37.8782 Y24.0084 
G01 X-38.0251 Y23.9792 
G01 X-38.1749 Y23.9792 
G01 X-38.3218 Y24.0084 
G01 X-38.4602 Y24.0657 
G01 X-38.5847 Y24.1490 
G01 X-38.6906 Y24.2549 
G01 X-38.7739 Y24.3794 
G01 X-38.8312 Y24.5178 
G01 X-38.8604 Y24.6647 
G00 Z2.0000 
G00 X-36.3204 Y24.6647 
G01 Z-0.0250 F254.00 
G01 X-36.3204 Y26.1353 F508.00 
G01 X-36.2912 Y26.2822 
G01 X-36.2339 Y26.4206 
G01 X-36.1506 Y26.5451 
G01 X-36.0447 Y26.6510 
G01 X-35.9202 Y26.7343 
G01 X-35.7818 Y26.7916 
G01 X-35.6349 Y26.8208 
G01 X-35.4851 Y26.8208 
G01 X-35.3382 Y26.7916 
G01 X-35.1998 Y26.7343 
G01 X-35.0753 Y26.6510 
G01 X-34.9694 Y26.5451 
G01 X-34.8861 Y26.4206 
G01 X-34.8288 Y26.2822 
G01 X-34.7996 Y26.1353 
G01 X-34.7996 Y24.6647 
G01 X-34.8288 Y24.5178 
G01 X-34.8861 Y24.3794 
G01 X-34.9694 Y24.2549 
G01 X-35.0753 Y24.1490 
G01 X-35.1998 Y24.0657 
G01 X-35.3382 Y24.0084 
G01 X-35.4851 Y23.9792 
G01 X-35.6349 Y23.9792 
G01 X-35.7818 Y24.0084 
G01 X-35.9202 Y24.0657 
G01 X-36.0447 Y24.1490 
G01 X-36.1506 Y24.2549 
G01 X-36.2339 Y24.3794 
G01 X-36.2912 Y24.5178 
G01 X-36.3204 Y24.6647 
G00 Z2.0000 
G00 X-33.7804 Y24.6647 
G01 Z-0.0250 F254.00 
G01 X-33.7804 Y26.1353 F508.00 
G01 X-33.7512 Y26.2822 
G01 X-33.6939 Y26.4206 
G01 X-33.6106 Y26.5451 
G01 X-33.5047 Y26.6510 
G01 X-33.3802 Y26.7343 
G01 X-33.2418 Y26.7916 
G01 X-33.0949 Y26.8208 
G01 X-32.9451 Y26.8208 
G01 X-32.7982 Y26.7916 
G01 X-32.6598 Y26.7343 
G01 X-32.5353 Y26.6510 
G01 X-32.4294 Y26.5451 
G01 X-32.3461 Y26.4206 
G01 X-32.2888 Y26.2822 
G01 X-32.2596 Y26.1353 
G01 X-32.2596 Y24.6647 
G01 X-32.2888 Y24.5178 
G01 X-32.3461 Y24.3794 
G01 X-32.4294 Y24.2549 
G01 X-32.5353 Y24.1490 
G01 X-32.6598 Y24.0657 
G01 X-32.7982 Y24.0084 
G01 X-32.9451 Y23.9792 
G01 X-33.0949 Y23.9792 
G01 X-33.2418 Y24.0084 
G01 X-33.3802 Y24.0657 
G01 X-33.5047 Y24.1490 
G01 X-33.6106 Y24.2549 
G01 X-33.6939 Y24.3794 
G01 X-33.7512 Y24.5178 
G01 X-33.7804 Y24.6647 
G00 Z2.0000 
G00 X-31.2404 Y24.6647 
G01 Z-0.0250 F254.00 
G01 X-31.2404 Y26.1353 F508.00 
G01 X-31.2112 Y26.2822 
G01 X-31.1539 Y26.4206 
G01 X-31.0706 Y26.5451 
G01 X-30.9647 Y26.6510 
G01 X-30.8402 Y26.7343 
G01 X-30.7018 Y26.7916 
G01 X-30.5549 Y26.8208 
G01 X-30.4051 Y26.8208 
G01 X-30.2582 Y26.7916 
G01 X-30.1198 Y26.7343 
G01 X-29.9953 Y26.6510 
G01 X-29.8894 Y26.5451 
G01 X-29.8061 Y26.4206 
G01 X-29.7488 Y26.2822 
G01 X-29.7196 Y26.1353 
G01 X-29.7196 Y24.6647 
G01 X-29.7488 Y24.5178 
G01 X-29.8061 Y24.3794 
G01 X-29.8894 Y24.2549 
G01 X-29.9953 Y24.1490 
G01 X-30.1198 Y24.0657 
G01 X-30.2582 Y24.0084 
G01 X-30.4051 Y23.9792 
G01 X-30.5549 Y23.9792 
G01 X-30.7018 Y24.0084 
G01 X-30.8402 Y24.0657 
G01 X-30.9647 Y24.1490 
G01 X-31.0706 Y24.2549 
G01 X-31.1539 Y24.3794 
G01 X-31.2112 Y24.5178 
G01 X-31.2404 Y24.6647 
G00 Z2.0000 
G00 X-31.2404 Y32.2847 
G01 Z-0.0250 F254.00 
G01 X-31.2404 Y33.7553 F508.00 
G01 X-31.2112 Y33.9022 
G01 X-31.1539 Y34.0406 
G01 X-31.0706 Y34.1651 
G01 X-30.9647 Y34.2710 
G01 X-30.8402 Y34.3543 
G01 X-30.7018 Y34.4116 
G01 X-30.5549 Y34.4408 
G01 X-30.4051 Y34.4408 
G01 X-30.2582 Y34.4116 
G01 X-30.1198 Y34.3543 
G01 X-29.9953 Y34.2710 
G01 X-29.8894 Y34.1651 
G01 X-29.8061 Y34.0406 
G01 X-29.7488 Y33.9022 
G01 X-29.7196 Y33.7553 
G01 X-29.7196 Y32.2847 
G01 X-29.7488 Y32.1378 
G01 X-29.8061 Y31.9994 
G01 X-29.8894 Y31.8749 
G01 X-29.9953 Y31.7690 
G01 X-30.1198 Y31.6857 
G01 X-30.2582 Y31.6284 
G01 X-30.4051 Y31.5992 
G01 X-30.5549 Y31.5992 
G01 X-30.7018 Y31.6284 
G01 X-30.8402 Y31.6857 
G01 X-30.9647 Y31.7690 
G01 X-31.0706 Y31.8749 
G01 X-31.1539 Y31.9994 
G01 X-31.2112 Y32.1378 
G01 X-31.2404 Y32.2847 
G00 Z2.0000 
G00 X-33.7804 Y32.2847 
G01 Z-0.0250 F254.00 
G01 X-33.7804 Y33.7553 F508.00 
G01 X-33.7512 Y33.9022 
G01 X-33.6939 Y34.0406 
G01 X-33.6106 Y34.1651 
G01 X-33.5047 Y34.2710 
G01 X-33.3802 Y34.3543 
G01 X-33.2418 Y34.4116 
G01 X-33.0949 Y34.4408 
G01 X-32.9451 Y34.4408 
G01 X-32.7982 Y34.4116 
G01 X-32.6598 Y34.3543 
G01 X-32.5353 Y34.2710 
G01 X-32.4294 Y34.1651 
G01 X-32.3461 Y34.0406 
G01 X-32.2888 Y33.9022 
G01 X-32.2596 Y33.7553 
G01 X-32.2596 Y32.2847 
G01 X-32.2888 Y32.1378 
G01 X-32.3461 Y31.9994 
G01 X-32.4294 Y31.8749 
G01 X-32.5353 Y31.7690 
G01 X-32.6598 Y31.6857 
G01 X-32.7982 Y31.6284 
G01 X-32.9451 Y31.5992 
G01 X-33.0949 Y31.5992 
G01 X-33.2418 Y31.6284 
G01 X-33.3802 Y31.6857 
G01 X-33.5047 Y31.7690 
G01 X-33.6106 Y31.8749 
G01 X-33.6939 Y31.9994 
G01 X-33.7512 Y32.1378 
G01 X-33.7804 Y32.2847 
G00 Z2.0000 
G00 X-36.3204 Y32.2847 
G01 Z-0.0250 F254.00 
G01 X-36.3204 Y33.7553 F508.00 
G01 X-36.2912 Y33.9022 
G01 X-36.2339 Y34.0406 
G01 X-36.1506 Y34.1651 
G01 X-36.0447 Y34.2710 
G01 X-35.9202 Y34.3543 
G01 X-35.7818 Y34.4116 
G01 X-35.6349 Y34.4408 
G01 X-35.4851 Y34.4408 
G01 X-35.3382 Y34.4116 
G01 X-35.1998 Y34.3543 
G01 X-35.0753 Y34.2710 
G01 X-34.9694 Y34.1651 
G01 X-34.8861 Y34.0406 
G01 X-34.8288 Y33.9022 
G01 X-34.7996 Y33.7553 
G01 X-34.7996 Y32.2847 
G01 X-34.8288 Y32.1378 
G01 X-34.8861 Y31.9994 
G01 X-34.9694 Y31.8749 
G01 X-35.0753 Y31.7690 
G01 X-35.1998 Y31.6857 
G01 X-35.3382 Y31.6284 
G01 X-35.4851 Y31.5992 
G01 X-35.6349 Y31.5992 
G01 X-35.7818 Y31.6284 
G01 X-35.9202 Y31.6857 
G01 X-36.0447 Y31.7690 
G01 X-36.1506 Y31.8749 
G01 X-36.2339 Y31.9994 
G01 X-36.2912 Y32.1378 
G01 X-36.3204 Y32.2847 
G00 Z2.0000 
G00 X-38.8604 Y32.2847 
G01 Z-0.0250 F254.00 
G01 X-38.8604 Y33.7553 F508.00 
G01 X-38.8312 Y33.9022 
G01 X-38.7739 Y34.0406 
G01 X-38.6906 Y34.1651 
G01 X-38.5847 Y34.2710 
G01 X-38.4602 Y34.3543 
G01 X-38.3218 Y34.4116 
G01 X-38.1749 Y34.4408 
G01 X-38.0251 Y34.4408 
G01 X-37.8782 Y34.4116 
G01 X-37.7398 Y34.3543 
G01 X-37.6153 Y34.2710 
G01 X-37.5094 Y34.1651 
G01 X-37.4261 Y34.0406 
G01 X-37.3688 Y33.9022 
G01 X-37.3396 Y33.7553 
G01 X-37.3396 Y32.2847 
G01 X-37.3688 Y32.1378 
G01 X-37.4261 Y31.9994 
G01 X-37.5094 Y31.8749 
G01 X-37.6153 Y31.7690 
G01 X-37.7398 Y31.6857 
G01 X-37.8782 Y31.6284 
G01 X-38.0251 Y31.5992 
G01 X-38.1749 Y31.5992 
G01 X-38.3218 Y31.6284 
G01 X-38.4602 Y31.6857 
G01 X-38.5847 Y31.7690 
G01 X-38.6906 Y31.8749 
G01 X-38.7739 Y31.9994 
G01 X-38.8312 Y32.1378 
G01 X-38.8604 Y32.2847 
G00 Z2.0000 
G00 X-41.4004 Y32.2847 
G01 Z-0.0250 F254.00 
G01 X-41.4004 Y33.7553 F508.00 
G01 X-41.3712 Y33.9022 
G01 X-41.3139 Y34.0406 
G01 X-41.2306 Y34.1651 
G01 X-41.1247 Y34.2710 
G01 X-41.0002 Y34.3543 
G01 X-40.8618 Y34.4116 
G01 X-40.7149 Y34.4408 
G01 X-40.5651 Y34.4408 
G01 X-40.4182 Y34.4116 
G01 X-40.2798 Y34.3543 
G01 X-40.1553 Y34.2710 
G01 X-40.0494 Y34.1651 
G01 X-39.9661 Y34.0406 
G01 X-39.9088 Y33.9022 
G01 X-39.8796 Y33.7553 
G01 X-39.8796 Y32.2847 
G01 X-39.9088 Y32.1378 
G01 X-39.9661 Y31.9994 
G01 X-40.0494 Y31.8749 
G01 X-40.1553 Y31.7690 
G01 X-40.2798 Y31.6857 
G01 X-40.4182 Y31.6284 
G01 X-40.5651 Y31.5992 
G01 X-40.7149 Y31.5992 
G01 X-40.8618 Y31.6284 
G01 X-41.0002 Y31.6857 
G01 X-41.1247 Y31.7690 
G01 X-41.2306 Y31.8749 
G01 X-41.3139 Y31.9994 
G01 X-41.3712 Y32.1378 
G01 X-41.4004 Y32.2847 
G00 Z2.0000 
G00 X-43.9404 Y32.2847 
G01 Z-0.0250 F254.00 
G01 X-43.9404 Y33.5868 F508.00 
G01 X-46.5347 Y36.1811 
G01 X-46.5727 Y36.1654 
G01 X-46.6901 Y36.1420 
G01 X-46.8099 Y36.1420 
G01 X-46.9273 Y36.1654 
G01 X-47.0380 Y36.2112 
G01 X-47.1376 Y36.2777 
G01 X-47.2223 Y36.3624 
G01 X-47.2888 Y36.4620 
G01 X-47.3346 Y36.5727 
G01 X-47.3580 Y36.6901 
G01 X-47.3580 Y36.8099 
G01 X-47.3346 Y36.9273 
G01 X-47.2888 Y37.0380 
G01 X-47.2223 Y37.1376 
G01 X-47.1376 Y37.2223 
G01 X-47.0380 Y37.2888 
G01 X-46.9273 Y37.3346 
G01 X-46.8099 Y37.3580 
G01 X-46.6901 Y37.3580 
G01 X-46.5727 Y37.3346 
G01 X-46.4620 Y37.2888 
G01 X-46.3624 Y37.2223 
G01 X-46.2777 Y37.1376 
G01 X-46.2112 Y37.0380 
G01 X-46.1654 Y36.9273 
G01 X-46.1420 Y36.8099 
G01 X-46.1420 Y36.6901 
G01 X-46.1654 Y36.5727 
G01 X-46.1811 Y36.5347 
G01 X-43.7870 Y34.1406 
G01 X-43.7706 Y34.1651 
G01 X-43.6647 Y34.2710 
G01 X-43.5402 Y34.3543 
G01 X-43.4018 Y34.4116 
G01 X-43.2549 Y34.4408 
G01 X-43.1051 Y34.4408 
G01 X-42.9582 Y34.4116 
G01 X-42.8198 Y34.3543 
G01 X-42.6953 Y34.2710 
G01 X-42.5894 Y34.1651 
G01 X-42.5061 Y34.0406 
G01 X-42.4488 Y33.9022 
G01 X-42.4196 Y33.7553 
G01 X-42.4196 Y32.2847 
G01 X-42.4488 Y32.1378 
G01 X-42.5061 Y31.9994 
G01 X-42.5894 Y31.8749 
G01 X-42.6953 Y31.7690 
G01 X-42.8198 Y31.6857 
G01 X-42.9582 Y31.6284 
G01 X-43.1051 Y31.5992 
G01 X-43.2549 Y31.5992 
G01 X-43.4018 Y31.6284 
G01 X-43.5402 Y31.6857 
G01 X-43.6647 Y31.7690 
G01 X-43.7706 Y31.8749 
G01 X-43.8539 Y31.9994 
G01 X-43.9112 Y32.1378 
G01 X-43.9404 Y32.2847 
G00 Z2.0000 
G00 X-46.4804 Y32.2847 
G01 Z-0.0250 F254.00 
G01 X-46.4804 Y33.7553 F508.00 
G01 X-46.4512 Y33.9022 
G01 X-46.3939 Y34.0406 
G01 X-46.3106 Y34.1651 
G01 X-46.2047 Y34.2710 
G01 X-46.0802 Y34.3543 
G01 X-45.9418 Y34.4116 
G01 X-45.7949 Y34.4408 
G01 X-45.6451 Y34.4408 
G01 X-45.4982 Y34.4116 
G01 X-45.3598 Y34.3543 
G01 X-45.2353 Y34.2710 
G01 X-45.1294 Y34.1651 
G01 X-45.0461 Y34.0406 
G01 X-44.9888 Y33.9022 
G01 X-44.9596 Y33.7553 
G01 X-44.9596 Y32.2847 
G01 X-44.9888 Y32.1378 
G01 X-45.0461 Y31.9994 
G01 X-45.1294 Y31.8749 
G01 X-45.2353 Y31.7690 
G01 X-45.3598 Y31.6857 
G01 X-45.4982 Y31.6284 
G01 X-45.6451 Y31.5992 
G01 X-45.7949 Y31.5992 
G01 X-45.9418 Y31.6284 
G01 X-46.0802 Y31.6857 
G01 X-46.2047 Y31.7690 
G01 X-46.3106 Y31.8749 
G01 X-46.3939 Y31.9994 
G01 X-46.4512 Y32.1378 
G01 X-46.4804 Y32.2847 
G00 Z2.0000 
G00 X-51.5604 Y32.2847 
G01 Z-0.0250 F254.00 
G01 X-51.5604 Y33.7553 F508.00 
G01 X-51.5312 Y33.9022 
G01 X-51.4739 Y34.0406 
G01 X-51.3906 Y34.1651 
G01 X-51.2847 Y34.2710 
G01 X-51.1602 Y34.3543 
G01 X-51.0218 Y34.4116 
G01 X-50.8749 Y34.4408 
G01 X-50.7251 Y34.4408 
G01 X-50.5782 Y34.4116 
G01 X-50.4398 Y34.3543 
G01 X-50.3153 Y34.2710 
G01 X-50.2094 Y34.1651 
G01 X-50.1261 Y34.0406 
G01 X-50.0688 Y33.9022 
G01 X-50.0396 Y33.7553 
G01 X-50.0396 Y32.2847 
G01 X-50.0688 Y32.1378 
G01 X-50.1261 Y31.9994 
G01 X-50.2094 Y31.8749 
G01 X-50.3153 Y31.7690 
G01 X-50.4398 Y31.6857 
G01 X-50.5782 Y31.6284 
G01 X-50.7251 Y31.5992 
G01 X-50.8749 Y31.5992 
G01 X-51.0218 Y31.6284 
G01 X-51.1602 Y31.6857 
G01 X-51.2847 Y31.7690 
G01 X-51.3906 Y31.8749 
G01 X-51.4739 Y31.9994 
G01 X-51.5312 Y32.1378 
G01 X-51.5604 Y32.2847 
G00 Z2.0000 
G00 X-54.1004 Y32.2847 
G01 Z-0.0250 F254.00 
G01 X-54.1004 Y33.7553 F508.00 
G01 X-54.0712 Y33.9022 
G01 X-54.0139 Y34.0406 
G01 X-53.9306 Y34.1651 
G01 X-53.8247 Y34.2710 
G01 X-53.7002 Y34.3543 
G01 X-53.5618 Y34.4116 
G01 X-53.4149 Y34.4408 
G01 X-53.2651 Y34.4408 
G01 X-53.1182 Y34.4116 
G01 X-52.9798 Y34.3543 
G01 X-52.8553 Y34.2710 
G01 X-52.7494 Y34.1651 
G01 X-52.6661 Y34.0406 
G01 X-52.6088 Y33.9022 
G01 X-52.5796 Y33.7553 
G01 X-52.5796 Y32.2847 
G01 X-52.6088 Y32.1378 
G01 X-52.6661 Y31.9994 
G01 X-52.7494 Y31.8749 
G01 X-52.8553 Y31.7690 
G01 X-52.9798 Y31.6857 
G01 X-53.1182 Y31.6284 
G01 X-53.2651 Y31.5992 
G01 X-53.4149 Y31.5992 
G01 X-53.5618 Y31.6284 
G01 X-53.7002 Y31.6857 
G01 X-53.8247 Y31.7690 
G01 X-53.9306 Y31.8749 
G01 X-54.0139 Y31.9994 
G01 X-54.0712 Y32.1378 
G01 X-54.1004 Y32.2847 
G00 Z2.0000 
G00 X-56.6404 Y32.2847 
G01 Z-0.0250 F254.00 
G01 X-56.6404 Y33.7553 F508.00 
G01 X-56.6112 Y33.9022 
G01 X-56.5539 Y34.0406 
G01 X-56.4706 Y34.1651 
G01 X-56.3647 Y34.2710 
G01 X-56.2402 Y34.3543 
G01 X-56.1018 Y34.4116 
G01 X-55.9549 Y34.4408 
G01 X-55.8051 Y34.4408 
G01 X-55.6582 Y34.4116 
G01 X-55.5198 Y34.3543 
G01 X-55.3953 Y34.2710 
G01 X-55.2894 Y34.1651 
G01 X-55.2061 Y34.0406 
G01 X-55.1488 Y33.9022 
G01 X-55.1196 Y33.7553 
G01 X-55.1196 Y32.2847 
G01 X-55.1488 Y32.1378 
G01 X-55.2061 Y31.9994 
G01 X-55.2894 Y31.8749 
G01 X-55.3953 Y31.7690 
G01 X-55.5198 Y31.6857 
G01 X-55.6582 Y31.6284 
G01 X-55.8051 Y31.5992 
G01 X-55.9549 Y31.5992 
G01 X-56.1018 Y31.6284 
G01 X-56.2402 Y31.6857 
G01 X-56.3647 Y31.7690 
G01 X-56.4706 Y31.8749 
G01 X-56.5539 Y31.9994 
G01 X-56.6112 Y32.1378 
G01 X-56.6404 Y32.2847 
G00 Z2.0000 
G00 X-59.1804 Y32.2847 
G01 Z-0.0250 F254.00 
G01 X-59.1804 Y33.7553 F508.00 
G01 X-59.1512 Y33.9022 
G01 X-59.0939 Y34.0406 
G01 X-59.0106 Y34.1651 
G01 X-58.9047 Y34.2710 
G01 X-58.7802 Y34.3543 
G01 X-58.6418 Y34.4116 
G01 X-58.4949 Y34.4408 
G01 X-58.3451 Y34.4408 
G01 X-58.1982 Y34.4116 
G01 X-58.0598 Y34.3543 
G01 X-57.9353 Y34.2710 
G01 X-57.8294 Y34.1651 
G01 X-57.7461 Y34.0406 
G01 X-57.6888 Y33.9022 
G01 X-57.6596 Y33.7553 
G01 X-57.6596 Y32.2847 
G01 X-57.6888 Y32.1378 
G01 X-57.7461 Y31.9994 
G01 X-57.8294 Y31.8749 
G01 X-57.9353 Y31.7690 
G01 X-58.0598 Y31.6857 
G01 X-58.1982 Y31.6284 
G01 X-58.3451 Y31.5992 
G01 X-58.4949 Y31.5992 
G01 X-58.6418 Y31.6284 
G01 X-58.7802 Y31.6857 
G01 X-58.9047 Y31.7690 
G01 X-59.0106 Y31.8749 
G01 X-59.0939 Y31.9994 
G01 X-59.1512 Y32.1378 
G01 X-59.1804 Y32.2847 
G00 Z2.0000 
G00 X-61.7204 Y32.2847 
G01 Z-0.0250 F254.00 
G01 X-61.7204 Y33.7553 F508.00 
G01 X-61.6912 Y33.9022 
G01 X-61.6339 Y34.0406 
G01 X-61.5506 Y34.1651 
G01 X-61.4447 Y34.2710 
G01 X-61.3202 Y34.3543 
G01 X-61.1818 Y34.4116 
G01 X-61.0349 Y34.4408 
G01 X-60.8851 Y34.4408 
G01 X-60.7382 Y34.4116 
G01 X-60.5998 Y34.3543 
G01 X-60.4753 Y34.2710 
G01 X-60.3694 Y34.1651 
G01 X-60.2861 Y34.0406 
G01 X-60.2288 Y33.9022 
G01 X-60.1996 Y33.7553 
G01 X-60.1996 Y32.2847 
G01 X-60.2288 Y32.1378 
G01 X-60.2861 Y31.9994 
G01 X-60.3694 Y31.8749 
G01 X-60.4753 Y31.7690 
G01 X-60.5998 Y31.6857 
G01 X-60.7382 Y31.6284 
G01 X-60.8851 Y31.5992 
G01 X-61.0349 Y31.5992 
G01 X-61.1818 Y31.6284 
G01 X-61.3202 Y31.6857 
G01 X-61.4447 Y31.7690 
G01 X-61.5506 Y31.8749 
G01 X-61.6339 Y31.9994 
G01 X-61.6912 Y32.1378 
G01 X-61.7204 Y32.2847 
G00 Z2.0000 
G00 X-60.5520 Y4.2331 
G01 Z-0.0250 F254.00 
G01 X-60.5520 Y5.9269 F508.00 
G01 X-60.5189 Y6.0934 
G01 X-60.4539 Y6.2503 
G01 X-60.3596 Y6.3915 
G01 X-60.2395 Y6.5116 
G01 X-60.0983 Y6.6059 
G01 X-59.9414 Y6.6709 
G01 X-59.7749 Y6.7040 
G01 X-59.6051 Y6.7040 
G01 X-59.4386 Y6.6709 
G01 X-59.2817 Y6.6059 
G01 X-59.1405 Y6.5116 
G01 X-59.0204 Y6.3915 
G01 X-58.9261 Y6.2503 
G01 X-58.8611 Y6.0934 
G01 X-58.8280 Y5.9269 
G01 X-58.8280 Y4.2331 
G01 X-58.8611 Y4.0666 
G01 X-58.9261 Y3.9097 
G01 X-59.0204 Y3.7685 
G01 X-59.1405 Y3.6484 
G01 X-59.2817 Y3.5541 
G01 X-59.4386 Y3.4891 
G01 X-59.6051 Y3.4560 
G01 X-59.7749 Y3.4560 
G01 X-59.9414 Y3.4891 
G01 X-60.0983 Y3.5541 
G01 X-60.2395 Y3.6484 
G01 X-60.3596 Y3.7685 
G01 X-60.4539 Y3.9097 
G01 X-60.5189 Y4.0666 
G01 X-60.5520 Y4.2331 
G00 Z2.0000 
G00 X-63.0920 Y4.2331 
G01 Z-0.0250 F254.00 
G01 X-63.0920 Y5.9269 F508.00 
G01 X-63.0589 Y6.0934 
G01 X-62.9939 Y6.2503 
G01 X-62.8996 Y6.3915 
G01 X-62.7795 Y6.5116 
G01 X-62.6383 Y6.6059 
G01 X-62.4814 Y6.6709 
G01 X-62.3149 Y6.7040 
G01 X-62.1451 Y6.7040 
G01 X-61.9786 Y6.6709 
G01 X-61.8217 Y6.6059 
G01 X-61.6805 Y6.5116 
G01 X-61.5604 Y6.3915 
G01 X-61.4661 Y6.2503 
G01 X-61.4011 Y6.0934 
G01 X-61.3680 Y5.9269 
G01 X-61.3680 Y4.2331 
G01 X-61.4011 Y4.0666 
G01 X-61.4661 Y3.9097 
G01 X-61.5604 Y3.7685 
G01 X-61.6805 Y3.6484 
G01 X-61.8217 Y3.5541 
G01 X-61.9786 Y3.4891 
G01 X-62.1451 Y3.4560 
G01 X-62.3149 Y3.4560 
G01 X-62.4814 Y3.4891 
G01 X-62.6383 Y3.5541 
G01 X-62.7795 Y3.6484 
G01 X-62.8996 Y3.7685 
G01 X-62.9939 Y3.9097 
G01 X-63.0589 Y4.0666 
G01 X-63.0920 Y4.2331 
G00 Z2.0000 
G00 X-58.0501 Y44.0772 
G01 Z-0.0250 F254.00 
G01 X-58.0501 Y44.8228 F508.00 
G01 X-57.5228 Y45.3501 
G01 X-56.7772 Y45.3501 
G01 X-56.2499 Y44.8228 
G01 X-56.2499 Y44.0772 
G01 X-56.7500 Y43.5771 
G01 X-56.7500 Y41.8535 
G01 X-52.8964 Y38.0000 
G01 X-37.0545 Y38.0000 
G01 X-37.0388 Y38.0380 
G01 X-36.9723 Y38.1376 
G01 X-36.8876 Y38.2223 
G01 X-36.7880 Y38.2888 
G01 X-36.6773 Y38.3346 
G01 X-36.5599 Y38.3580 
G01 X-36.4401 Y38.3580 
G01 X-36.3227 Y38.3346 
G01 X-36.2120 Y38.2888 
G01 X-36.1124 Y38.2223 
G01 X-36.0277 Y38.1376 
G01 X-35.9612 Y38.0380 
G01 X-35.9455 Y38.0000 
G01 X-27.3536 Y38.0000 
G01 X-20.0689 Y45.2847 
G01 X-20.0846 Y45.3227 
G01 X-20.1080 Y45.4401 
G01 X-20.1080 Y45.5599 
G01 X-20.0846 Y45.6773 
G01 X-20.0388 Y45.7880 
G01 X-19.9723 Y45.8876 
G01 X-19.8876 Y45.9723 
G01 X-19.7880 Y46.0388 
G01 X-19.6773 Y46.0846 
G01 X-19.5599 Y46.1080 
G01 X-19.4401 Y46.1080 
G01 X-19.3226 Y46.0846 
G01 X-19.2120 Y46.0388 
G01 X-19.1124 Y45.9723 
G01 X-19.0277 Y45.8876 
G01 X-18.9612 Y45.7880 
G01 X-18.9154 Y45.6773 
G01 X-18.8920 Y45.5599 
G01 X-18.8920 Y45.4401 
G01 X-18.9154 Y45.3227 
G01 X-18.9612 Y45.2120 
G01 X-19.0277 Y45.1124 
G01 X-19.1124 Y45.0277 
G01 X-19.2120 Y44.9612 
G01 X-19.3226 Y44.9154 
G01 X-19.4401 Y44.8920 
G01 X-19.5599 Y44.8920 
G01 X-19.6773 Y44.9154 
G01 X-19.7153 Y44.9311 
G01 X-27.0381 Y37.6084 
G01 X-27.1084 Y37.5381 
G01 X-27.2003 Y37.5000 
G01 X-35.9455 Y37.5000 
G01 X-35.9612 Y37.4620 
G01 X-36.0277 Y37.3624 
G01 X-36.1124 Y37.2777 
G01 X-36.2120 Y37.2112 
G01 X-36.3227 Y37.1654 
G01 X-36.4401 Y37.1420 
G01 X-36.5599 Y37.1420 
G01 X-36.6773 Y37.1654 
G01 X-36.7880 Y37.2112 
G01 X-36.8876 Y37.2777 
G01 X-36.9723 Y37.3624 
G01 X-37.0388 Y37.4620 
G01 X-37.0545 Y37.5000 
G01 X-52.3965 Y37.5000 
G01 X-48.9348 Y34.0383 
G01 X-48.8506 Y34.1651 
G01 X-48.7447 Y34.2710 
G01 X-48.6202 Y34.3543 
G01 X-48.4818 Y34.4116 
G01 X-48.3349 Y34.4408 
G01 X-48.1851 Y34.4408 
G01 X-48.0382 Y34.4116 
G01 X-47.8998 Y34.3543 
G01 X-47.7753 Y34.2710 
G01 X-47.6694 Y34.1651 
G01 X-47.5861 Y34.0406 
G01 X-47.5288 Y33.9022 
G01 X-47.4996 Y33.7553 
G01 X-47.4996 Y32.2847 
G01 X-47.5288 Y32.1378 
G01 X-47.5861 Y31.9994 
G01 X-47.6694 Y31.8749 
G01 X-47.7753 Y31.7690 
G01 X-47.8998 Y31.6857 
G01 X-48.0382 Y31.6284 
G01 X-48.1851 Y31.5992 
G01 X-48.3349 Y31.5992 
G01 X-48.4818 Y31.6284 
G01 X-48.6202 Y31.6857 
G01 X-48.7447 Y31.7690 
G01 X-48.8506 Y31.8749 
G01 X-48.9339 Y31.9994 
G01 X-48.9912 Y32.1378 
G01 X-49.0204 Y32.2847 
G01 X-49.0204 Y33.4168 
G01 X-53.1416 Y37.5381 
G01 X-53.2119 Y37.6084 
G01 X-57.1416 Y41.5381 
G01 X-57.2119 Y41.6084 
G01 X-57.2500 Y41.7003 
G01 X-57.2500 Y43.5499 
G01 X-57.5228 Y43.5499 
G01 X-58.0501 Y44.0772 
G00 Z2.0000 
G00 X-58.0501 Y49.1572 
G01 Z-0.0250 F254.00 
G01 X-58.0501 Y49.9028 F508.00 
G01 X-57.5228 Y50.4301 
G01 X-56.7772 Y50.4301 
G01 X-56.7253 Y50.3782 
G01 X-47.4619 Y59.6416 
G01 X-47.3916 Y59.7119 
G01 X-47.2997 Y59.7500 
G01 X-44.6262 Y59.7500 
G01 X-44.6262 Y59.7699 
G01 X-44.5950 Y59.9266 
G01 X-44.5339 Y60.0742 
G01 X-44.4451 Y60.2071 
G01 X-44.3321 Y60.3201 
G01 X-44.1992 Y60.4089 
G01 X-44.0516 Y60.4700 
G01 X-43.8949 Y60.5012 
G01 X-43.7351 Y60.5012 
G01 X-43.5784 Y60.4700 
G01 X-43.4308 Y60.4089 
G01 X-43.2979 Y60.3201 
G01 X-43.1849 Y60.2071 
G01 X-43.0961 Y60.0742 
G01 X-43.0350 Y59.9266 
G01 X-43.0038 Y59.7699 
G01 X-43.0038 Y59.6101 
G01 X-43.0350 Y59.4534 
G01 X-43.0961 Y59.3058 
G01 X-43.1849 Y59.1729 
G01 X-43.2979 Y59.0599 
G01 X-43.4308 Y58.9711 
G01 X-43.5784 Y58.9100 
G01 X-43.7351 Y58.8788 
G01 X-43.8949 Y58.8788 
G01 X-44.0516 Y58.9100 
G01 X-44.1992 Y58.9711 
G01 X-44.3321 Y59.0599 
G01 X-44.4451 Y59.1729 
G01 X-44.4966 Y59.2500 
G01 X-47.1464 Y59.2500 
G01 X-56.3718 Y50.0247 
G01 X-56.2499 Y49.9028 
G01 X-56.2499 Y49.1572 
G01 X-56.7772 Y48.6299 
G01 X-57.5228 Y48.6299 
G01 X-58.0501 Y49.1572 
G00 Z2.0000 
G00 X-58.0501 Y51.6972 
G01 Z-0.0250 F254.00 
G01 X-58.0501 Y52.4428 F508.00 
G01 X-57.5228 Y52.9701 
G01 X-56.7772 Y52.9701 
G01 X-56.2499 Y52.4428 
G01 X-56.2499 Y51.6972 
G01 X-56.7772 Y51.1699 
G01 X-57.5228 Y51.1699 
G01 X-57.6247 Y51.2718 
G01 X-58.3584 Y50.5381 
G01 X-58.4503 Y50.5000 
G01 X-73.6464 Y50.5000 
G01 X-74.4311 Y49.7153 
G01 X-74.4154 Y49.6773 
G01 X-74.3920 Y49.5599 
G01 X-74.3920 Y49.4401 
G01 X-74.4154 Y49.3227 
G01 X-74.4612 Y49.2120 
G01 X-74.5277 Y49.1124 
G01 X-74.6124 Y49.0277 
G01 X-74.7120 Y48.9612 
G01 X-74.8227 Y48.9154 
G01 X-74.9401 Y48.8920 
G01 X-75.0599 Y48.8920 
G01 X-75.1773 Y48.9154 
G01 X-75.2880 Y48.9612 
G01 X-75.3876 Y49.0277 
G01 X-75.4723 Y49.1124 
G01 X-75.5388 Y49.2120 
G01 X-75.5846 Y49.3227 
G01 X-75.6080 Y49.4401 
G01 X-75.6080 Y49.5599 
G01 X-75.5846 Y49.6773 
G01 X-75.5388 Y49.7880 
G01 X-75.4723 Y49.8876 
G01 X-75.3876 Y49.9723 
G01 X-75.2880 Y50.0388 
G01 X-75.1773 Y50.0846 
G01 X-75.0599 Y50.1080 
G01 X-74.9401 Y50.1080 
G01 X-74.8227 Y50.0846 
G01 X-74.7847 Y50.0689 
G01 X-73.9619 Y50.8916 
G01 X-73.8916 Y50.9619 
G01 X-73.7997 Y51.0000 
G01 X-58.6036 Y51.0000 
G01 X-57.9782 Y51.6253 
G01 X-58.0501 Y51.6972 
G00 Z2.0000 
G00 X-65.6701 Y51.6972 
G01 Z-0.0250 F254.00 
G01 X-65.6701 Y52.4428 F508.00 
G01 X-65.1428 Y52.9701 
G01 X-64.3972 Y52.9701 
G01 X-63.8699 Y52.4428 
G01 X-63.8699 Y51.6972 
G01 X-64.3972 Y51.1699 
G01 X-65.1428 Y51.1699 
G01 X-65.6701 Y51.6972 
G00 Z2.0000 
G00 X-65.6701 Y49.1572 
G01 Z-0.0250 F254.00 
G01 X-65.6701 Y49.9028 F508.00 
G01 X-65.1428 Y50.4301 
G01 X-64.3972 Y50.4301 
G01 X-63.8699 Y49.9028 
G01 X-63.8699 Y49.1572 
G01 X-64.3972 Y48.6299 
G01 X-65.1428 Y48.6299 
G01 X-65.6701 Y49.1572 
G00 Z2.0000 
G00 X-65.6701 Y46.6172 
G01 Z-0.0250 F254.00 
G01 X-65.6701 Y47.3628 F508.00 
G01 X-65.1428 Y47.8901 
G01 X-64.3972 Y47.8901 
G01 X-63.8699 Y47.3628 
G01 X-63.8699 Y46.6172 
G01 X-64.3972 Y46.0899 
G01 X-65.1428 Y46.0899 
G01 X-65.6701 Y46.6172 
G00 Z2.0000 
G00 X-65.6701 Y44.0772 
G01 Z-0.0250 F254.00 
G01 X-65.6701 Y44.8228 F508.00 
G01 X-65.1428 Y45.3501 
G01 X-64.3972 Y45.3501 
G01 X-63.8699 Y44.8228 
G01 X-63.8699 Y44.0772 
G01 X-64.3972 Y43.5499 
G01 X-65.1428 Y43.5499 
G01 X-65.6701 Y44.0772 
G00 Z2.0000 
G00 X-69.0515 Y66.1341 
G01 Z-0.0250 F254.00 
G01 X-69.0515 Y63.9051 F508.00 
G01 X-66.3964 Y61.2500 
G01 X-43.4503 Y61.2500 
G01 X-43.3584 Y61.2119 
G01 X-42.3584 Y60.2119 
G01 X-42.2881 Y60.1416 
G01 X-42.2500 Y60.0497 
G01 X-42.2500 Y58.7500 
G01 X-27.4503 Y58.7500 
G01 X-27.3584 Y58.7119 
G01 X-26.4768 Y57.8304 
G01 X-26.4192 Y57.8689 
G01 X-26.2716 Y57.9300 
G01 X-26.1149 Y57.9612 
G01 X-25.9551 Y57.9612 
G01 X-25.7984 Y57.9300 
G01 X-25.6508 Y57.8689 
G01 X-25.5179 Y57.7801 
G01 X-25.4049 Y57.6671 
G01 X-25.3161 Y57.5342 
G01 X-25.2550 Y57.3866 
G01 X-25.2238 Y57.2299 
G01 X-25.2238 Y57.0701 
G01 X-25.2550 Y56.9134 
G01 X-25.3161 Y56.7658 
G01 X-25.4049 Y56.6329 
G01 X-25.5179 Y56.5199 
G01 X-25.6508 Y56.4311 
G01 X-25.7984 Y56.3700 
G01 X-25.9551 Y56.3388 
G01 X-26.1149 Y56.3388 
G01 X-26.2716 Y56.3700 
G01 X-26.4192 Y56.4311 
G01 X-26.5521 Y56.5199 
G01 X-26.6651 Y56.6329 
G01 X-26.7539 Y56.7658 
G01 X-26.8150 Y56.9134 
G01 X-26.8462 Y57.0701 
G01 X-26.8462 Y57.2299 
G01 X-26.8150 Y57.3866 
G01 X-26.7931 Y57.4395 
G01 X-27.6036 Y58.2500 
G01 X-38.6464 Y58.2500 
G01 X-39.3166 Y57.5799 
G01 X-39.2861 Y57.5342 
G01 X-39.2250 Y57.3866 
G01 X-39.1938 Y57.2299 
G01 X-39.1938 Y57.0701 
G01 X-39.2250 Y56.9134 
G01 X-39.2861 Y56.7658 
G01 X-39.3749 Y56.6329 
G01 X-39.4879 Y56.5199 
G01 X-39.6208 Y56.4311 
G01 X-39.7684 Y56.3700 
G01 X-39.9251 Y56.3388 
G01 X-40.0849 Y56.3388 
G01 X-40.2416 Y56.3700 
G01 X-40.3892 Y56.4311 
G01 X-40.5221 Y56.5199 
G01 X-40.6351 Y56.6329 
G01 X-40.7239 Y56.7658 
G01 X-40.7850 Y56.9134 
G01 X-40.8162 Y57.0701 
G01 X-40.8162 Y57.2299 
G01 X-40.7850 Y57.3866 
G01 X-40.7239 Y57.5342 
G01 X-40.6351 Y57.6671 
G01 X-40.5221 Y57.7801 
G01 X-40.3892 Y57.8689 
G01 X-40.2416 Y57.9300 
G01 X-40.0849 Y57.9612 
G01 X-39.9251 Y57.9612 
G01 X-39.7684 Y57.9300 
G01 X-39.7013 Y57.9022 
G01 X-39.3535 Y58.2500 
G01 X-42.5497 Y58.2500 
G01 X-42.6416 Y58.2881 
G01 X-42.7119 Y58.3584 
G01 X-42.7500 Y58.4503 
G01 X-42.7500 Y59.8964 
G01 X-43.6036 Y60.7500 
G01 X-66.5497 Y60.7500 
G01 X-66.6416 Y60.7881 
G01 X-66.7119 Y60.8584 
G01 X-69.0799 Y63.2264 
G01 X-69.0849 Y63.1949 
G01 X-69.1509 Y62.9917 
G01 X-69.2479 Y62.8013 
G01 X-69.3735 Y62.6285 
G01 X-69.5246 Y62.4774 
G01 X-69.6974 Y62.3518 
G01 X-69.8878 Y62.2548 
G01 X-70.0910 Y62.1888 
G01 X-70.3020 Y62.1554 
G01 X-70.5156 Y62.1554 
G01 X-70.7266 Y62.1888 
G01 X-70.9298 Y62.2548 
G01 X-71.1202 Y62.3518 
G01 X-71.2930 Y62.4774 
G01 X-71.4441 Y62.6285 
G01 X-71.5697 Y62.8013 
G01 X-71.6667 Y62.9917 
G01 X-71.7327 Y63.1949 
G01 X-71.7661 Y63.4059 
G01 X-71.7661 Y66.1341 
G01 X-71.7327 Y66.3451 
G01 X-71.6667 Y66.5483 
G01 X-71.5697 Y66.7387 
G01 X-71.4441 Y66.9115 
G01 X-71.2930 Y67.0626 
G01 X-71.1202 Y67.1882 
G01 X-70.9298 Y67.2852 
G01 X-70.7266 Y67.3512 
G01 X-70.5156 Y67.3846 
G01 X-70.3020 Y67.3846 
G01 X-70.0910 Y67.3512 
G01 X-69.8878 Y67.2852 
G01 X-69.6974 Y67.1882 
G01 X-69.5246 Y67.0626 
G01 X-69.3735 Y66.9115 
G01 X-69.2479 Y66.7387 
G01 X-69.1509 Y66.5483 
G01 X-69.0849 Y66.3451 
G01 X-69.0515 Y66.1341 
G00 Z2.0000 
G00 X-73.0139 Y66.1341 
G01 Z-0.0250 F254.00 
G01 X-73.0139 Y63.4059 F508.00 
G01 X-73.0473 Y63.1949 
G01 X-73.1133 Y62.9917 
G01 X-73.2103 Y62.8013 
G01 X-73.3359 Y62.6285 
G01 X-73.4870 Y62.4774 
G01 X-73.6598 Y62.3518 
G01 X-73.8502 Y62.2548 
G01 X-74.0534 Y62.1888 
G01 X-74.2644 Y62.1554 
G01 X-74.4780 Y62.1554 
G01 X-74.6890 Y62.1888 
G01 X-74.8922 Y62.2548 
G01 X-75.0826 Y62.3518 
G01 X-75.2554 Y62.4774 
G01 X-75.4065 Y62.6285 
G01 X-75.5321 Y62.8013 
G01 X-75.6291 Y62.9917 
G01 X-75.6951 Y63.1949 
G01 X-75.7285 Y63.4059 
G01 X-75.7285 Y66.1341 
G01 X-75.6951 Y66.3451 
G01 X-75.6291 Y66.5483 
G01 X-75.5321 Y66.7387 
G01 X-75.4065 Y66.9115 
G01 X-75.2554 Y67.0626 
G01 X-75.0826 Y67.1882 
G01 X-74.8922 Y67.2852 
G01 X-74.6890 Y67.3512 
G01 X-74.4780 Y67.3846 
G01 X-74.2644 Y67.3846 
G01 X-74.0534 Y67.3512 
G01 X-73.8502 Y67.2852 
G01 X-73.6598 Y67.1882 
G01 X-73.4870 Y67.0626 
G01 X-73.3359 Y66.9115 
G01 X-73.2103 Y66.7387 
G01 X-73.1133 Y66.5483 
G01 X-73.0473 Y66.3451 
G01 X-73.0139 Y66.1341 
G00 Z2.0000 
G00 X-1.6094 Y58.7518 
G01 Z-0.0250 F254.00 
G01 X-3.4706 Y58.7518 F508.00 
G01 X-3.6519 Y58.7879 
G01 X-3.8226 Y58.8586 
G01 X-3.9763 Y58.9613 
G01 X-4.1069 Y59.0919 
G01 X-4.2096 Y59.2456 
G01 X-4.2803 Y59.4163 
G01 X-4.3164 Y59.5976 
G01 X-4.3164 Y59.7824 
G01 X-4.2803 Y59.9637 
G01 X-4.2096 Y60.1344 
G01 X-4.1069 Y60.2881 
G01 X-3.9763 Y60.4187 
G01 X-3.8226 Y60.5214 
G01 X-3.6519 Y60.5921 
G01 X-3.4706 Y60.6282 
G01 X-1.6094 Y60.6282 
G01 X-1.4281 Y60.5921 
G01 X-1.2574 Y60.5214 
G01 X-1.1037 Y60.4187 
G01 X-0.9731 Y60.2881 
G01 X-0.8704 Y60.1344 
G01 X-0.7997 Y59.9637 
G01 X-0.7636 Y59.7824 
G01 X-0.7636 Y59.5976 
G01 X-0.7997 Y59.4163 
G01 X-0.8704 Y59.2456 
G01 X-0.9731 Y59.0919 
G01 X-1.1037 Y58.9613 
G01 X-1.2574 Y58.8586 
G01 X-1.4281 Y58.7879 
G01 X-1.6094 Y58.7518 
G00 Z2.0000 
G00 X-1.6094 Y51.1318 
G01 Z-0.0250 F254.00 
G01 X-3.4706 Y51.1318 F508.00 
G01 X-3.6519 Y51.1679 
G01 X-3.8226 Y51.2386 
G01 X-3.9763 Y51.3413 
G01 X-4.1069 Y51.4719 
G01 X-4.2096 Y51.6256 
G01 X-4.2803 Y51.7963 
G01 X-4.3164 Y51.9776 
G01 X-4.3164 Y52.1624 
G01 X-4.2803 Y52.3437 
G01 X-4.2096 Y52.5144 
G01 X-4.1069 Y52.6681 
G01 X-3.9763 Y52.7987 
G01 X-3.8226 Y52.9014 
G01 X-3.6519 Y52.9721 
G01 X-3.4706 Y53.0082 
G01 X-1.6094 Y53.0082 
G01 X-1.4281 Y52.9721 
G01 X-1.2574 Y52.9014 
G01 X-1.1037 Y52.7987 
G01 X-0.9731 Y52.6681 
G01 X-0.8704 Y52.5144 
G01 X-0.7997 Y52.3437 
G01 X-0.7636 Y52.1624 
G01 X-0.7636 Y51.9776 
G01 X-0.7997 Y51.7963 
G01 X-0.8704 Y51.6256 
G01 X-0.9731 Y51.4719 
G01 X-1.1037 Y51.3413 
G01 X-1.2574 Y51.2386 
G01 X-1.4281 Y51.1679 
G01 X-1.6094 Y51.1318 
G00 Z2.0000 
G00 X-15.1560 Y60.4222 
G01 Z-0.0250 F254.00 
G01 X-12.7840 Y60.4222 F508.00 
G01 X-12.5986 Y60.3928 
G01 X-12.4202 Y60.3349 
G01 X-12.2530 Y60.2497 
G01 X-12.1011 Y60.1394 
G01 X-11.9684 Y60.0067 
G01 X-11.8581 Y59.8548 
G01 X-11.7729 Y59.6876 
G01 X-11.7150 Y59.5092 
G01 X-11.6856 Y59.3238 
G01 X-11.6856 Y59.2500 
G01 X-5.7003 Y59.2500 
G01 X-5.6084 Y59.2119 
G01 X-5.5381 Y59.1416 
G01 X-3.2146 Y56.8182 
G01 X-1.6094 Y56.8182 
G01 X-1.4281 Y56.7821 
G01 X-1.2574 Y56.7114 
G01 X-1.1037 Y56.6087 
G01 X-0.9731 Y56.4781 
G01 X-0.8704 Y56.3244 
G01 X-0.7997 Y56.1537 
G01 X-0.7636 Y55.9724 
G01 X-0.7636 Y55.7876 
G01 X-0.7997 Y55.6063 
G01 X-0.8704 Y55.4356 
G01 X-0.9731 Y55.2819 
G01 X-1.1037 Y55.1513 
G01 X-1.2574 Y55.0486 
G01 X-1.4281 Y54.9779 
G01 X-1.6094 Y54.9418 
G01 X-3.4706 Y54.9418 
G01 X-3.6519 Y54.9779 
G01 X-3.8226 Y55.0486 
G01 X-3.9763 Y55.1513 
G01 X-4.1069 Y55.2819 
G01 X-4.2096 Y55.4356 
G01 X-4.2803 Y55.6063 
G01 X-4.3164 Y55.7876 
G01 X-4.3164 Y55.9724 
G01 X-4.2803 Y56.1537 
G01 X-4.2096 Y56.3244 
G01 X-4.1069 Y56.4781 
G01 X-3.9763 Y56.6087 
G01 X-3.8226 Y56.7114 
G01 X-3.8172 Y56.7137 
G01 X-5.8536 Y58.7500 
G01 X-11.7843 Y58.7500 
G01 X-11.8581 Y58.6052 
G01 X-11.9684 Y58.4533 
G01 X-12.1011 Y58.3206 
G01 X-12.2530 Y58.2103 
G01 X-12.4202 Y58.1251 
G01 X-12.5986 Y58.0672 
G01 X-12.7840 Y58.0378 
G01 X-15.1560 Y58.0378 
G01 X-15.3414 Y58.0672 
G01 X-15.5198 Y58.1251 
G01 X-15.6870 Y58.2103 
G01 X-15.8389 Y58.3206 
G01 X-15.9716 Y58.4533 
G01 X-16.0819 Y58.6052 
G01 X-16.1671 Y58.7724 
G01 X-16.2250 Y58.9508 
G01 X-16.2544 Y59.1362 
G01 X-16.2544 Y59.3238 
G01 X-16.2250 Y59.5092 
G01 X-16.1671 Y59.6876 
G01 X-16.0819 Y59.8548 
G01 X-15.9716 Y60.0067 
G01 X-15.8389 Y60.1394 
G01 X-15.6870 Y60.2497 
G01 X-15.5198 Y60.3349 
G01 X-15.3414 Y60.3928 
G01 X-15.1560 Y60.4222 
G00 Z2.0000 
G00 X-15.1560 Y66.4222 
G01 Z-0.0250 F254.00 
G01 X-12.7840 Y66.4222 F508.00 
G01 X-12.5986 Y66.3928 
G01 X-12.4202 Y66.3349 
G01 X-12.2530 Y66.2497 
G01 X-12.1011 Y66.1394 
G01 X-11.9684 Y66.0067 
G01 X-11.8581 Y65.8548 
G01 X-11.7729 Y65.6876 
G01 X-11.7150 Y65.5092 
G01 X-11.6856 Y65.3238 
G01 X-11.6856 Y65.1362 
G01 X-11.7150 Y64.9508 
G01 X-11.7729 Y64.7724 
G01 X-11.8581 Y64.6052 
G01 X-11.9684 Y64.4533 
G01 X-12.1011 Y64.3206 
G01 X-12.2530 Y64.2103 
G01 X-12.4202 Y64.1251 
G01 X-12.5986 Y64.0672 
G01 X-12.7840 Y64.0378 
G01 X-15.1560 Y64.0378 
G01 X-15.3414 Y64.0672 
G01 X-15.5198 Y64.1251 
G01 X-15.6870 Y64.2103 
G01 X-15.8389 Y64.3206 
G01 X-15.9716 Y64.4533 
G01 X-16.0819 Y64.6052 
G01 X-16.1671 Y64.7724 
G01 X-16.2250 Y64.9508 
G01 X-16.2544 Y65.1362 
G01 X-16.2544 Y65.3238 
G01 X-16.2250 Y65.5092 
G01 X-16.1671 Y65.6876 
G01 X-16.0819 Y65.8548 
G01 X-15.9716 Y66.0067 
G01 X-15.8389 Y66.1394 
G01 X-15.6870 Y66.2497 
G01 X-15.5198 Y66.3349 
G01 X-15.3414 Y66.3928 
G01 X-15.1560 Y66.4222 
G00 Z2.0000 
G00 X-10.3622 Y61.0440 
G01 Z-0.0250 F254.00 
G01 X-10.3622 Y63.4160 F508.00 
G01 X-10.3328 Y63.6014 
G01 X-10.2749 Y63.7798 
G01 X-10.1897 Y63.9470 
G01 X-10.0794 Y64.0989 
G01 X-9.9467 Y64.2316 
G01 X-9.7948 Y64.3419 
G01 X-9.6276 Y64.4271 
G01 X-9.4492 Y64.4850 
G01 X-9.2638 Y64.5144 
G01 X-9.0762 Y64.5144 
G01 X-8.8908 Y64.4850 
G01 X-8.7124 Y64.4271 
G01 X-8.5451 Y64.3419 
G01 X-8.3933 Y64.2316 
G01 X-8.2606 Y64.0989 
G01 X-8.1503 Y63.9470 
G01 X-8.0651 Y63.7798 
G01 X-8.0072 Y63.6014 
G01 X-7.9778 Y63.4160 
G01 X-7.9778 Y61.0440 
G01 X-8.0072 Y60.8586 
G01 X-8.0651 Y60.6802 
G01 X-8.1503 Y60.5130 
G01 X-8.2606 Y60.3611 
G01 X-8.3933 Y60.2284 
G01 X-8.5451 Y60.1181 
G01 X-8.7124 Y60.0329 
G01 X-8.8908 Y59.9750 
G01 X-9.0762 Y59.9456 
G01 X-9.2638 Y59.9456 
G01 X-9.4492 Y59.9750 
G01 X-9.6276 Y60.0329 
G01 X-9.7948 Y60.1181 
G01 X-9.9467 Y60.2284 
G01 X-10.0794 Y60.3611 
G01 X-10.1897 Y60.5130 
G01 X-10.2749 Y60.6802 
G01 X-10.3328 Y60.8586 
G01 X-10.3622 Y61.0440 
G00 Z2.0000 
G00 X-6.0180 Y65.8953 
G01 Z-0.0250 F254.00 
G01 X-6.0180 Y66.1847 F508.00 
G01 X-5.9802 Y66.4717 
G01 X-5.9053 Y66.7513 
G01 X-5.7945 Y67.0187 
G01 X-5.6498 Y67.2693 
G01 X-5.4736 Y67.4990 
G01 X-5.2690 Y67.7036 
G01 X-5.0393 Y67.8798 
G01 X-4.7887 Y68.0245 
G01 X-4.5213 Y68.1353 
G01 X-4.2417 Y68.2102 
G01 X-3.9547 Y68.2480 
G01 X-3.6653 Y68.2480 
G01 X-3.3783 Y68.2102 
G01 X-3.0987 Y68.1353 
G01 X-2.8313 Y68.0245 
G01 X-2.5807 Y67.8798 
G01 X-2.3510 Y67.7036 
G01 X-2.1464 Y67.4990 
G01 X-1.9702 Y67.2693 
G01 X-1.8255 Y67.0187 
G01 X-1.7147 Y66.7513 
G01 X-1.6398 Y66.4717 
G01 X-1.6020 Y66.1847 
G01 X-1.6020 Y65.8953 
G01 X-1.6398 Y65.6083 
G01 X-1.7147 Y65.3287 
G01 X-1.8255 Y65.0613 
G01 X-1.9702 Y64.8107 
G01 X-2.1464 Y64.5810 
G01 X-2.3510 Y64.3764 
G01 X-2.5807 Y64.2002 
G01 X-2.8313 Y64.0555 
G01 X-3.0987 Y63.9447 
G01 X-3.3783 Y63.8698 
G01 X-3.6653 Y63.8320 
G01 X-3.9547 Y63.8320 
G01 X-4.2417 Y63.8698 
G01 X-4.5213 Y63.9447 
G01 X-4.7887 Y64.0555 
G01 X-5.0393 Y64.2002 
G01 X-5.2690 Y64.3764 
G01 X-5.4736 Y64.5810 
G01 X-5.6498 Y64.8107 
G01 X-5.7945 Y65.0613 
G01 X-5.9053 Y65.3287 
G01 X-5.9802 Y65.6083 
G01 X-6.0180 Y65.8953 
G00 Z2.0000 
G00 X-6.0180 Y3.6653 
G01 Z-0.0250 F254.00 
G01 X-6.0180 Y3.9547 F508.00 
G01 X-5.9802 Y4.2417 
G01 X-5.9053 Y4.5213 
G01 X-5.7945 Y4.7887 
G01 X-5.6498 Y5.0393 
G01 X-5.4736 Y5.2690 
G01 X-5.2690 Y5.4736 
G01 X-5.0393 Y5.6498 
G01 X-4.7887 Y5.7945 
G01 X-4.5213 Y5.9053 
G01 X-4.2417 Y5.9802 
G01 X-3.9547 Y6.0180 
G01 X-3.6653 Y6.0180 
G01 X-3.3783 Y5.9802 
G01 X-3.0987 Y5.9053 
G01 X-2.8313 Y5.7945 
G01 X-2.5807 Y5.6498 
G01 X-2.3510 Y5.4736 
G01 X-2.1464 Y5.2690 
G01 X-1.9702 Y5.0393 
G01 X-1.8255 Y4.7887 
G01 X-1.7147 Y4.5213 
G01 X-1.6398 Y4.2417 
G01 X-1.6020 Y3.9547 
G01 X-1.6020 Y3.6653 
G01 X-1.6398 Y3.3783 
G01 X-1.7147 Y3.0987 
G01 X-1.8255 Y2.8313 
G01 X-1.9702 Y2.5807 
G01 X-2.1464 Y2.3510 
G01 X-2.3510 Y2.1464 
G01 X-2.5807 Y1.9702 
G01 X-2.8313 Y1.8255 
G01 X-3.0987 Y1.7147 
G01 X-3.3783 Y1.6398 
G01 X-3.6653 Y1.6020 
G01 X-3.9547 Y1.6020 
G01 X-4.2417 Y1.6398 
G01 X-4.5213 Y1.7147 
G01 X-4.7887 Y1.8255 
G01 X-5.0393 Y1.9702 
G01 X-5.2690 Y2.1464 
G01 X-5.4736 Y2.3510 
G01 X-5.6498 Y2.5807 
G01 X-5.7945 Y2.8313 
G01 X-5.9053 Y3.0987 
G01 X-5.9802 Y3.3783 
G01 X-6.0180 Y3.6653 
G00 Z2.0000 
G00 X-84.7580 Y65.8953 
G01 Z-0.0250 F254.00 
G01 X-84.7580 Y66.1847 F508.00 
G01 X-84.7202 Y66.4717 
G01 X-84.6453 Y66.7513 
G01 X-84.5345 Y67.0187 
G01 X-84.3898 Y67.2693 
G01 X-84.2136 Y67.4990 
G01 X-84.0090 Y67.7036 
G01 X-83.7793 Y67.8798 
G01 X-83.5287 Y68.0245 
G01 X-83.2613 Y68.1353 
G01 X-82.9817 Y68.2102 
G01 X-82.6947 Y68.2480 
G01 X-82.4053 Y68.2480 
G01 X-82.1183 Y68.2102 
G01 X-81.8387 Y68.1353 
G01 X-81.5713 Y68.0245 
G01 X-81.3207 Y67.8798 
G01 X-81.0910 Y67.7036 
G01 X-80.8864 Y67.4990 
G01 X-80.7102 Y67.2693 
G01 X-80.5655 Y67.0187 
G01 X-80.4547 Y66.7513 
G01 X-80.3798 Y66.4717 
G01 X-80.3420 Y66.1847 
G01 X-80.3420 Y65.8953 
G01 X-80.3798 Y65.6083 
G01 X-80.4547 Y65.3287 
G01 X-80.5655 Y65.0613 
G01 X-80.7102 Y64.8107 
G01 X-80.8864 Y64.5810 
G01 X-81.0910 Y64.3764 
G01 X-81.3207 Y64.2002 
G01 X-81.5713 Y64.0555 
G01 X-81.8387 Y63.9447 
G01 X-82.1183 Y63.8698 
G01 X-82.4053 Y63.8320 
G01 X-82.6947 Y63.8320 
G01 X-82.9817 Y63.8698 
G01 X-83.2613 Y63.9447 
G01 X-83.5287 Y64.0555 
G01 X-83.7793 Y64.2002 
G01 X-84.0090 Y64.3764 
G01 X-84.2136 Y64.5810 
G01 X-84.3898 Y64.8107 
G01 X-84.5345 Y65.0613 
G01 X-84.6453 Y65.3287 
G01 X-84.7202 Y65.6083 
G01 X-84.7580 Y65.8953 
G00 Z2.0000 
G00 X-84.7580 Y3.6653 
G01 Z-0.0250 F254.00 
G01 X-84.7580 Y3.9547 F508.00 
G01 X-84.7202 Y4.2417 
G01 X-84.6453 Y4.5213 
G01 X-84.5345 Y4.7887 
G01 X-84.3898 Y5.0393 
G01 X-84.2136 Y5.2690 
G01 X-84.0090 Y5.4736 
G01 X-83.7793 Y5.6498 
G01 X-83.5287 Y5.7945 
G01 X-83.2613 Y5.9053 
G01 X-82.9817 Y5.9802 
G01 X-82.6947 Y6.0180 
G01 X-82.4053 Y6.0180 
G01 X-82.1183 Y5.9802 
G01 X-81.8387 Y5.9053 
G01 X-81.5713 Y5.7945 
G01 X-81.3207 Y5.6498 
G01 X-81.0910 Y5.4736 
G01 X-80.8864 Y5.2690 
G01 X-80.7102 Y5.0393 
G01 X-80.5655 Y4.7887 
G01 X-80.4547 Y4.5213 
G01 X-80.3798 Y4.2417 
G01 X-80.3420 Y3.9547 
G01 X-80.3420 Y3.6653 
G01 X-80.3798 Y3.3783 
G01 X-80.4547 Y3.0987 
G01 X-80.5655 Y2.8313 
G01 X-80.7102 Y2.5807 
G01 X-80.8864 Y2.3510 
G01 X-81.0910 Y2.1464 
G01 X-81.3207 Y1.9702 
G01 X-81.5713 Y1.8255 
G01 X-81.8387 Y1.7147 
G01 X-82.1183 Y1.6398 
G01 X-82.4053 Y1.6020 
G01 X-82.6947 Y1.6020 
G01 X-82.9817 Y1.6398 
G01 X-83.2613 Y1.7147 
G01 X-83.5287 Y1.8255 
G01 X-83.7793 Y1.9702 
G01 X-84.0090 Y2.1464 
G01 X-84.2136 Y2.3510 
G01 X-84.3898 Y2.5807 
G01 X-84.5345 Y2.8313 
G01 X-84.6453 Y3.0987 
G01 X-84.7202 Y3.3783 
G01 X-84.7580 Y3.6653 
G00 Z2.0000 
G00 X-43.7285 Y31.6913 
G01 Z-0.0250 F254.00 
G01 X-43.8483 Y31.8111 F508.00 
G01 X-43.9425 Y31.9520 
G01 X-44.0073 Y32.1086 
G01 X-44.0404 Y32.2749 
G01 X-44.0404 Y33.5454 
G01 X-46.5607 Y36.0658 
G01 X-46.6803 Y36.0420 
G01 X-46.8197 Y36.0420 
G01 X-46.9565 Y36.0692 
G01 X-47.0854 Y36.1226 
G01 X-47.2013 Y36.2001 
G01 X-47.2999 Y36.2987 
G01 X-47.3774 Y36.4146 
G01 X-47.4308 Y36.5435 
G01 X-47.4580 Y36.6803 
G01 X-47.4580 Y36.8197 
G01 X-47.4308 Y36.9565 
G01 X-47.3774 Y37.0854 
G01 X-47.2999 Y37.2013 
G01 X-47.2013 Y37.2999 
G01 X-47.0854 Y37.3774 
G01 X-47.0308 Y37.4000 
G01 X-52.1550 Y37.4000 
G01 X-48.9506 Y34.1956 
G01 X-48.9283 Y34.2289 
G01 X-48.8085 Y34.3487 
G01 X-48.6676 Y34.4429 
G01 X-48.5110 Y34.5077 
G01 X-48.3447 Y34.5408 
G01 X-48.1753 Y34.5408 
G01 X-48.0090 Y34.5077 
G01 X-47.8524 Y34.4429 
G01 X-47.7115 Y34.3487 
G01 X-47.5917 Y34.2289 
G01 X-47.4975 Y34.0879 
G01 X-47.4327 Y33.9314 
G01 X-47.3996 Y33.7651 
G01 X-47.3996 Y32.2749 
G01 X-47.4327 Y32.1086 
G01 X-47.4975 Y31.9520 
G01 X-47.5917 Y31.8111 
G01 X-47.7115 Y31.6913 
G01 X-47.8481 Y31.6000 
G01 X-46.1319 Y31.6000 
G01 X-46.2685 Y31.6913 
G01 X-46.3883 Y31.8111 
G01 X-46.4825 Y31.9520 
G01 X-46.5473 Y32.1086 
G01 X-46.5804 Y32.2749 
G01 X-46.5804 Y33.7651 
G01 X-46.5473 Y33.9314 
G01 X-46.4825 Y34.0879 
G01 X-46.3883 Y34.2289 
G01 X-46.2685 Y34.3487 
G01 X-46.1275 Y34.4429 
G01 X-45.9710 Y34.5077 
G01 X-45.8047 Y34.5408 
G01 X-45.6353 Y34.5408 
G01 X-45.4690 Y34.5077 
G01 X-45.3124 Y34.4429 
G01 X-45.1715 Y34.3487 
G01 X-45.0517 Y34.2289 
G01 X-44.9575 Y34.0879 
G01 X-44.8927 Y33.9314 
G01 X-44.8596 Y33.7651 
G01 X-44.8596 Y32.2749 
G01 X-44.8927 Y32.1086 
G01 X-44.9575 Y31.9520 
G01 X-45.0517 Y31.8111 
G01 X-45.1715 Y31.6913 
G01 X-45.3081 Y31.6000 
G01 X-43.5919 Y31.6000 
G01 X-43.7285 Y31.6913 
G00 Z2.0000 
G00 X-41.7066 Y58.8825 
G01 Z-0.0250 F254.00 
G01 X-41.8559 Y58.9822 F508.00 
G01 X-41.9828 Y59.1091 
G01 X-42.0825 Y59.2584 
G01 X-42.1500 Y59.4214 
G01 X-42.1500 Y58.8500 
G01 X-41.6281 Y58.8500 
G01 X-41.7066 Y58.8825 
G00 Z2.0000 
G00 X-30.1981 Y58.8500 
G01 Z-0.0250 F254.00 
G01 X-30.2766 Y58.8825 F508.00 
G01 X-30.4259 Y58.9822 
G01 X-30.5528 Y59.1091 
G01 X-30.6525 Y59.2584 
G01 X-30.7212 Y59.4242 
G01 X-30.7562 Y59.6003 
G01 X-30.7562 Y59.7797 
G01 X-30.7212 Y59.9558 
G01 X-30.6525 Y60.1216 
G01 X-30.5528 Y60.2709 
G01 X-30.4259 Y60.3978 
G01 X-30.2766 Y60.4975 
G01 X-30.1108 Y60.5662 
G01 X-29.9347 Y60.6012 
G01 X-29.7553 Y60.6012 
G01 X-29.5792 Y60.5662 
G01 X-29.4134 Y60.4975 
G01 X-29.2641 Y60.3978 
G01 X-29.1372 Y60.2709 
G01 X-29.0375 Y60.1216 
G01 X-28.9688 Y59.9558 
G01 X-28.9338 Y59.7797 
G01 X-28.9338 Y59.6003 
G01 X-28.9688 Y59.4242 
G01 X-29.0375 Y59.2584 
G01 X-29.1372 Y59.1091 
G01 X-29.2641 Y58.9822 
G01 X-29.4134 Y58.8825 
G01 X-29.4919 Y58.8500 
G01 X-27.6581 Y58.8500 
G01 X-27.7366 Y58.8825 
G01 X-27.8859 Y58.9822 
G01 X-28.0128 Y59.1091 
G01 X-28.1125 Y59.2584 
G01 X-28.1812 Y59.4242 
G01 X-28.2162 Y59.6003 
G01 X-28.2162 Y59.7797 
G01 X-28.1844 Y59.9395 
G01 X-28.8950 Y60.6500 
G01 X-39.8550 Y60.6500 
G01 X-40.4429 Y60.0622 
G01 X-40.3988 Y59.9558 
G01 X-40.3638 Y59.7797 
G01 X-40.3638 Y59.6003 
G01 X-40.3988 Y59.4242 
G01 X-40.4675 Y59.2584 
G01 X-40.5672 Y59.1091 
G01 X-40.6941 Y58.9822 
G01 X-40.8434 Y58.8825 
G01 X-40.9219 Y58.8500 
G01 X-38.7039 Y58.8500 
G01 X-30.1981 Y58.8500 
G00 Z2.0000 
G00 X-10.4622 Y61.0361 
G01 Z-0.0250 F254.00 
G01 X-10.4622 Y63.4239 F508.00 
G01 X-10.4304 Y63.6248 
G01 X-10.3675 Y63.8182 
G01 X-10.2752 Y63.9995 
G01 X-10.1556 Y64.1640 
G01 X-10.0118 Y64.3078 
G01 X-9.8473 Y64.4274 
G01 X-9.6660 Y64.5197 
G01 X-9.4726 Y64.5826 
G01 X-9.2717 Y64.6144 
G01 X-9.0683 Y64.6144 
G01 X-8.8674 Y64.5826 
G01 X-8.6740 Y64.5197 
G01 X-8.4927 Y64.4274 
G01 X-8.3282 Y64.3078 
G01 X-8.1844 Y64.1640 
G01 X-8.0648 Y63.9995 
G01 X-7.9725 Y63.8182 
G01 X-7.9096 Y63.6248 
G01 X-7.8778 Y63.4239 
G01 X-7.8778 Y61.0361 
G01 X-7.9096 Y60.8352 
G01 X-7.9725 Y60.6418 
G01 X-8.0648 Y60.4605 
G01 X-8.1844 Y60.2960 
G01 X-8.3282 Y60.1522 
G01 X-8.4927 Y60.0326 
G01 X-8.6740 Y59.9403 
G01 X-8.8674 Y59.8774 
G01 X-9.0683 Y59.8456 
G01 X-9.2717 Y59.8456 
G01 X-9.4726 Y59.8774 
G01 X-9.6660 Y59.9403 
G01 X-9.8473 Y60.0326 
G01 X-10.0118 Y60.1522 
G01 X-10.1556 Y60.2960 
G01 X-10.2752 Y60.4605 
G01 X-10.3675 Y60.6418 
G01 X-10.4304 Y60.8352 
G01 X-10.4622 Y61.0361 
G00 Z2.0000 
G00 X-15.1639 Y66.5222 
G01 Z-0.0250 F254.00 
G01 X-12.7761 Y66.5222 F508.00 
G01 X-12.5752 Y66.4904 
G01 X-12.3818 Y66.4275 
G01 X-12.2005 Y66.3352 
G01 X-12.0360 Y66.2156 
G01 X-11.8922 Y66.0718 
G01 X-11.7726 Y65.9073 
G01 X-11.6803 Y65.7260 
G01 X-11.6174 Y65.5326 
G01 X-11.5856 Y65.3317 
G01 X-11.5856 Y65.1283 
G01 X-11.6174 Y64.9274 
G01 X-11.6803 Y64.7340 
G01 X-11.7726 Y64.5527 
G01 X-11.8922 Y64.3882 
G01 X-12.0360 Y64.2444 
G01 X-12.2005 Y64.1248 
G01 X-12.3818 Y64.0325 
G01 X-12.5752 Y63.9696 
G01 X-12.7761 Y63.9378 
G01 X-15.1639 Y63.9378 
G01 X-15.3648 Y63.9696 
G01 X-15.5582 Y64.0325 
G01 X-15.7395 Y64.1248 
G01 X-15.9040 Y64.2444 
G01 X-16.0478 Y64.3882 
G01 X-16.1674 Y64.5527 
G01 X-16.2597 Y64.7340 
G01 X-16.3226 Y64.9274 
G01 X-16.3544 Y65.1283 
G01 X-16.3544 Y65.3317 
G01 X-16.3226 Y65.5326 
G01 X-16.2597 Y65.7260 
G01 X-16.1674 Y65.9073 
G01 X-16.0478 Y66.0718 
G01 X-15.9040 Y66.2156 
G01 X-15.7395 Y66.3352 
G01 X-15.5582 Y66.4275 
G01 X-15.3648 Y66.4904 
G01 X-15.1639 Y66.5222 
G00 Z2.0000 
G00 X-15.1639 Y60.5222 
G01 Z-0.0250 F254.00 
G01 X-12.7761 Y60.5222 F508.00 
G01 X-12.5752 Y60.4904 
G01 X-12.3818 Y60.4275 
G01 X-12.2005 Y60.3352 
G01 X-12.0360 Y60.2156 
G01 X-11.8922 Y60.0718 
G01 X-11.7726 Y59.9073 
G01 X-11.6803 Y59.7260 
G01 X-11.6174 Y59.5326 
G01 X-11.5885 Y59.3500 
G01 X-5.7039 Y59.3500 
G01 X-5.6149 Y59.3261 
G01 X-5.5351 Y59.2801 
G01 X-5.4699 Y59.2149 
G01 X-3.1732 Y56.9182 
G01 X-1.6201 Y56.9182 
G01 X-1.4587 Y56.8926 
G01 X-1.3033 Y56.8421 
G01 X-1.1577 Y56.7679 
G01 X-1.0255 Y56.6719 
G01 X-0.9099 Y56.5563 
G01 X-0.8139 Y56.4241 
G01 X-0.7397 Y56.2785 
G01 X-0.6892 Y56.1231 
G01 X-0.6636 Y55.9617 
G01 X-0.6636 Y55.7983 
G01 X-0.6892 Y55.6369 
G01 X-0.7397 Y55.4815 
G01 X-0.8139 Y55.3359 
G01 X-0.9099 Y55.2037 
G01 X-1.0255 Y55.0881 
G01 X-1.1577 Y54.9921 
G01 X-1.3033 Y54.9179 
G01 X-1.4587 Y54.8674 
G01 X-1.6201 Y54.8418 
G01 X-3.4599 Y54.8418 
G01 X-3.6213 Y54.8674 
G01 X-3.7767 Y54.9179 
G01 X-3.9223 Y54.9921 
G01 X-4.0545 Y55.0881 
G01 X-4.1701 Y55.2037 
G01 X-4.2661 Y55.3359 
G01 X-4.3403 Y55.4815 
G01 X-4.3908 Y55.6369 
G01 X-4.4164 Y55.7983 
G01 X-4.4164 Y55.9617 
G01 X-4.3908 Y56.1231 
G01 X-4.3403 Y56.2785 
G01 X-4.2661 Y56.4241 
G01 X-4.1701 Y56.5563 
G01 X-4.0545 Y56.6719 
G01 X-3.9748 Y56.7298 
G01 X-5.8950 Y58.6500 
G01 X-11.7231 Y58.6500 
G01 X-11.7726 Y58.5527 
G01 X-11.8922 Y58.3882 
G01 X-12.0360 Y58.2444 
G01 X-12.2005 Y58.1248 
G01 X-12.3818 Y58.0325 
G01 X-12.5752 Y57.9696 
G01 X-12.7761 Y57.9378 
G01 X-15.1639 Y57.9378 
G01 X-15.3648 Y57.9696 
G01 X-15.5582 Y58.0325 
G01 X-15.7395 Y58.1248 
G01 X-15.9040 Y58.2444 
G01 X-16.0478 Y58.3882 
G01 X-16.1674 Y58.5527 
G01 X-16.2597 Y58.7340 
G01 X-16.3226 Y58.9274 
G01 X-16.3544 Y59.1283 
G01 X-16.3544 Y59.3317 
G01 X-16.3226 Y59.5326 
G01 X-16.2597 Y59.7260 
G01 X-16.1674 Y59.9073 
G01 X-16.0478 Y60.0718 
G01 X-15.9040 Y60.2156 
G01 X-15.7395 Y60.3352 
G01 X-15.5582 Y60.4275 
G01 X-15.3648 Y60.4904 
G01 X-15.1639 Y60.5222 
G00 Z2.0000 
G00 X-1.6201 Y51.0318 
G01 Z-0.0250 F254.00 
G01 X-3.4599 Y51.0318 F508.00 
G01 X-3.6213 Y51.0574 
G01 X-3.7767 Y51.1079 
G01 X-3.9223 Y51.1821 
G01 X-4.0545 Y51.2781 
G01 X-4.1701 Y51.3937 
G01 X-4.2661 Y51.5259 
G01 X-4.3403 Y51.6715 
G01 X-4.3908 Y51.8269 
G01 X-4.4164 Y51.9883 
G01 X-4.4164 Y52.1517 
G01 X-4.3908 Y52.3131 
G01 X-4.3403 Y52.4685 
G01 X-4.2661 Y52.6141 
G01 X-4.1701 Y52.7463 
G01 X-4.0545 Y52.8619 
G01 X-3.9223 Y52.9579 
G01 X-3.7767 Y53.0321 
G01 X-3.6213 Y53.0826 
G01 X-3.4599 Y53.1082 
G01 X-1.6201 Y53.1082 
G01 X-1.4587 Y53.0826 
G01 X-1.3033 Y53.0321 
G01 X-1.1577 Y52.9579 
G01 X-1.0255 Y52.8619 
G01 X-0.9099 Y52.7463 
G01 X-0.8139 Y52.6141 
G01 X-0.7397 Y52.4685 
G01 X-0.6892 Y52.3131 
G01 X-0.6636 Y52.1517 
G01 X-0.6636 Y51.9883 
G01 X-0.6892 Y51.8269 
G01 X-0.7397 Y51.6715 
G01 X-0.8139 Y51.5259 
G01 X-0.9099 Y51.3937 
G01 X-1.0255 Y51.2781 
G01 X-1.1577 Y51.1821 
G01 X-1.3033 Y51.1079 
G01 X-1.4587 Y51.0574 
G01 X-1.6201 Y51.0318 
G00 Z2.0000 
G00 X-1.6201 Y58.6518 
G01 Z-0.0250 F254.00 
G01 X-3.4599 Y58.6518 F508.00 
G01 X-3.6213 Y58.6774 
G01 X-3.7767 Y58.7279 
G01 X-3.9223 Y58.8021 
G01 X-4.0545 Y58.8981 
G01 X-4.1701 Y59.0137 
G01 X-4.2661 Y59.1459 
G01 X-4.3403 Y59.2915 
G01 X-4.3908 Y59.4469 
G01 X-4.4164 Y59.6083 
G01 X-4.4164 Y59.7717 
G01 X-4.3908 Y59.9331 
G01 X-4.3403 Y60.0885 
G01 X-4.2661 Y60.2341 
G01 X-4.1701 Y60.3663 
G01 X-4.0545 Y60.4819 
G01 X-3.9223 Y60.5779 
G01 X-3.7767 Y60.6521 
G01 X-3.6213 Y60.7026 
G01 X-3.4599 Y60.7282 
G01 X-1.6201 Y60.7282 
G01 X-1.4587 Y60.7026 
G01 X-1.3033 Y60.6521 
G01 X-1.1577 Y60.5779 
G01 X-1.0255 Y60.4819 
G01 X-0.9099 Y60.3663 
G01 X-0.8139 Y60.2341 
G01 X-0.7397 Y60.0885 
G01 X-0.6892 Y59.9331 
G01 X-0.6636 Y59.7717 
G01 X-0.6636 Y59.6083 
G01 X-0.6892 Y59.4469 
G01 X-0.7397 Y59.2915 
G01 X-0.8139 Y59.1459 
G01 X-0.9099 Y59.0137 
G01 X-1.0255 Y58.8981 
G01 X-1.1577 Y58.8021 
G01 X-1.3033 Y58.7279 
G01 X-1.4587 Y58.6774 
G01 X-1.6201 Y58.6518 
G00 Z2.0000 
G00 X-72.9139 Y66.1420 
G01 Z-0.0250 F254.00 
G01 X-72.9139 Y63.3980 F508.00 
G01 X-72.9498 Y63.1714 
G01 X-73.0207 Y62.9533 
G01 X-73.1248 Y62.7489 
G01 X-73.2596 Y62.5633 
G01 X-73.4218 Y62.4011 
G01 X-73.6074 Y62.2663 
G01 X-73.8118 Y62.1622 
G01 X-74.0299 Y62.0913 
G01 X-74.2565 Y62.0554 
G01 X-74.4859 Y62.0554 
G01 X-74.7125 Y62.0913 
G01 X-74.9306 Y62.1622 
G01 X-75.1350 Y62.2663 
G01 X-75.3206 Y62.4011 
G01 X-75.4828 Y62.5633 
G01 X-75.6176 Y62.7489 
G01 X-75.7217 Y62.9533 
G01 X-75.7926 Y63.1714 
G01 X-75.8285 Y63.3980 
G01 X-75.8285 Y66.1420 
G01 X-75.7926 Y66.3685 
G01 X-75.7217 Y66.5867 
G01 X-75.6176 Y66.7911 
G01 X-75.4828 Y66.9767 
G01 X-75.3206 Y67.1389 
G01 X-75.1350 Y67.2737 
G01 X-74.9306 Y67.3778 
G01 X-74.7125 Y67.4487 
G01 X-74.4859 Y67.4846 
G01 X-74.2565 Y67.4846 
G01 X-74.0299 Y67.4487 
G01 X-73.8118 Y67.3778 
G01 X-73.6074 Y67.2737 
G01 X-73.4218 Y67.1389 
G01 X-73.2596 Y66.9767 
G01 X-73.1248 Y66.7911 
G01 X-73.0207 Y66.5867 
G01 X-72.9498 Y66.3685 
G01 X-72.9139 Y66.1420 
G00 Z2.0000 
G00 X-65.7701 Y44.0357 
G01 Z-0.0250 F254.00 
G01 X-65.7701 Y44.8643 F508.00 
G01 X-65.1843 Y45.4501 
G01 X-64.3557 Y45.4501 
G01 X-63.7699 Y44.8643 
G01 X-63.7699 Y44.0357 
G01 X-64.3557 Y43.4499 
G01 X-65.1843 Y43.4499 
G01 X-65.7701 Y44.0357 
G00 Z2.0000 
G00 X-65.7701 Y46.5757 
G01 Z-0.0250 F254.00 
G01 X-65.7701 Y47.4043 F508.00 
G01 X-65.1843 Y47.9901 
G01 X-64.3557 Y47.9901 
G01 X-63.7699 Y47.4043 
G01 X-63.7699 Y46.5757 
G01 X-64.3557 Y45.9899 
G01 X-65.1843 Y45.9899 
G01 X-65.7701 Y46.5757 
G00 Z2.0000 
G00 X-58.1501 Y51.6557 
G01 Z-0.0250 F254.00 
G01 X-58.1501 Y52.4843 F508.00 
G01 X-57.5643 Y53.0701 
G01 X-56.7357 Y53.0701 
G01 X-56.1499 Y52.4843 
G01 X-56.1499 Y51.6557 
G01 X-56.7357 Y51.0699 
G01 X-57.5643 Y51.0699 
G01 X-57.6247 Y51.1303 
G01 X-58.2851 Y50.4699 
G01 X-58.3649 Y50.4239 
G01 X-58.4539 Y50.4000 
G01 X-64.2257 Y50.4000 
G01 X-63.7699 Y49.9443 
G01 X-63.7699 Y49.1157 
G01 X-64.3557 Y48.5299 
G01 X-65.1843 Y48.5299 
G01 X-65.7701 Y49.1157 
G01 X-65.7701 Y49.9443 
G01 X-65.3143 Y50.4000 
G01 X-73.6050 Y50.4000 
G01 X-74.3158 Y49.6893 
G01 X-74.2920 Y49.5697 
G01 X-74.2920 Y49.4303 
G01 X-74.3192 Y49.2935 
G01 X-74.3726 Y49.1646 
G01 X-74.4501 Y49.0487 
G01 X-74.5487 Y48.9501 
G01 X-74.6646 Y48.8726 
G01 X-74.7935 Y48.8192 
G01 X-74.9303 Y48.7920 
G01 X-75.0697 Y48.7920 
G01 X-75.2065 Y48.8192 
G01 X-75.3354 Y48.8726 
G01 X-75.4513 Y48.9501 
G01 X-75.5499 Y49.0487 
G01 X-75.6274 Y49.1646 
G01 X-75.6808 Y49.2935 
G01 X-75.7080 Y49.4303 
G01 X-75.7080 Y49.5697 
G01 X-75.6808 Y49.7065 
G01 X-75.6274 Y49.8354 
G01 X-75.5499 Y49.9513 
G01 X-75.4513 Y50.0499 
G01 X-75.3354 Y50.1274 
G01 X-75.2065 Y50.1808 
G01 X-75.0697 Y50.2080 
G01 X-74.9303 Y50.2080 
G01 X-74.8107 Y50.1842 
G01 X-74.0301 Y50.9649 
G01 X-73.9649 Y51.0301 
G01 X-73.8851 Y51.0761 
G01 X-73.7961 Y51.1000 
G01 X-65.2143 Y51.1000 
G01 X-65.7701 Y51.6557 
G01 X-65.7701 Y52.4843 
G01 X-65.1843 Y53.0701 
G01 X-64.3557 Y53.0701 
G01 X-63.7699 Y52.4843 
G01 X-63.7699 Y51.6557 
G01 X-64.3256 Y51.1000 
G01 X-58.6450 Y51.1000 
G01 X-58.1197 Y51.6253 
G01 X-58.1501 Y51.6557 
G00 Z2.0000 
G00 X-63.1920 Y4.2233 
G01 Z-0.0250 F254.00 
G01 X-63.1920 Y5.9367 F508.00 
G01 X-63.1550 Y6.1226 
G01 X-63.0825 Y6.2977 
G01 X-62.9772 Y6.4552 
G01 X-62.8432 Y6.5892 
G01 X-62.6857 Y6.6945 
G01 X-62.5106 Y6.7670 
G01 X-62.3247 Y6.8040 
G01 X-62.1353 Y6.8040 
G01 X-61.9494 Y6.7670 
G01 X-61.7743 Y6.6945 
G01 X-61.6168 Y6.5892 
G01 X-61.4828 Y6.4552 
G01 X-61.3775 Y6.2977 
G01 X-61.3050 Y6.1226 
G01 X-61.2680 Y5.9367 
G01 X-61.2680 Y4.2233 
G01 X-61.3050 Y4.0374 
G01 X-61.3775 Y3.8623 
G01 X-61.4828 Y3.7048 
G01 X-61.6168 Y3.5708 
G01 X-61.7743 Y3.4655 
G01 X-61.9494 Y3.3930 
G01 X-62.1353 Y3.3560 
G01 X-62.3247 Y3.3560 
G01 X-62.5106 Y3.3930 
G01 X-62.6857 Y3.4655 
G01 X-62.8432 Y3.5708 
G01 X-62.9772 Y3.7048 
G01 X-63.0825 Y3.8623 
G01 X-63.1550 Y4.0374 
G01 X-63.1920 Y4.2233 
G00 Z2.0000 
G00 X-60.6520 Y4.2233 
G01 Z-0.0250 F254.00 
G01 X-60.6520 Y5.9367 F508.00 
G01 X-60.6150 Y6.1226 
G01 X-60.5425 Y6.2977 
G01 X-60.4372 Y6.4552 
G01 X-60.3032 Y6.5892 
G01 X-60.1457 Y6.6945 
G01 X-59.9706 Y6.7670 
G01 X-59.7847 Y6.8040 
G01 X-59.5953 Y6.8040 
G01 X-59.4094 Y6.7670 
G01 X-59.2343 Y6.6945 
G01 X-59.0768 Y6.5892 
G01 X-58.9428 Y6.4552 
G01 X-58.8375 Y6.2977 
G01 X-58.7650 Y6.1226 
G01 X-58.7280 Y5.9367 
G01 X-58.7280 Y4.2233 
G01 X-58.7650 Y4.0374 
G01 X-58.8375 Y3.8623 
G01 X-58.9428 Y3.7048 
G01 X-59.0768 Y3.5708 
G01 X-59.2343 Y3.4655 
G01 X-59.4094 Y3.3930 
G01 X-59.5953 Y3.3560 
G01 X-59.7847 Y3.3560 
G01 X-59.9706 Y3.3930 
G01 X-60.1457 Y3.4655 
G01 X-60.3032 Y3.5708 
G01 X-60.4372 Y3.7048 
G01 X-60.5425 Y3.8623 
G01 X-60.6150 Y4.0374 
G01 X-60.6520 Y4.2233 
G00 Z2.0000 
G00 X-58.1120 Y4.2233 
G01 Z-0.0250 F254.00 
G01 X-58.1120 Y5.9367 F508.00 
G01 X-58.0750 Y6.1226 
G01 X-58.0025 Y6.2977 
G01 X-57.8972 Y6.4552 
G01 X-57.7632 Y6.5892 
G01 X-57.6057 Y6.6945 
G01 X-57.4306 Y6.7670 
G01 X-57.2447 Y6.8040 
G01 X-57.0553 Y6.8040 
G01 X-56.8694 Y6.7670 
G01 X-56.6943 Y6.6945 
G01 X-56.5368 Y6.5892 
G01 X-56.4028 Y6.4552 
G01 X-56.2975 Y6.2977 
G01 X-56.2250 Y6.1226 
G01 X-56.1880 Y5.9367 
G01 X-56.1880 Y5.6000 
G01 X-51.3500 Y5.6000 
G01 X-51.3500 Y24.0728 
G01 X-51.4683 Y24.1911 
G01 X-51.5625 Y24.3320 
G01 X-51.6273 Y24.4886 
G01 X-51.6604 Y24.6549 
G01 X-51.6604 Y26.1451 
G01 X-51.6273 Y26.3114 
G01 X-51.5625 Y26.4680 
G01 X-51.4683 Y26.6089 
G01 X-51.3485 Y26.7287 
G01 X-51.2076 Y26.8229 
G01 X-51.0510 Y26.8877 
G01 X-50.8847 Y26.9208 
G01 X-50.7153 Y26.9208 
G01 X-50.5490 Y26.8877 
G01 X-50.3924 Y26.8229 
G01 X-50.2515 Y26.7287 
G01 X-50.1317 Y26.6089 
G01 X-50.0375 Y26.4680 
G01 X-49.9727 Y26.3114 
G01 X-49.9396 Y26.1451 
G01 X-49.9396 Y24.6549 
G01 X-49.9727 Y24.4886 
G01 X-50.0375 Y24.3320 
G01 X-50.1317 Y24.1911 
G01 X-50.2515 Y24.0713 
G01 X-50.3924 Y23.9771 
G01 X-50.5490 Y23.9123 
G01 X-50.6500 Y23.8922 
G01 X-50.6500 Y5.2039 
G01 X-50.6739 Y5.1149 
G01 X-50.7199 Y5.0351 
G01 X-50.7851 Y4.9699 
G01 X-50.8649 Y4.9239 
G01 X-50.9539 Y4.9000 
G01 X-56.1880 Y4.9000 
G01 X-56.1880 Y4.2233 
G01 X-56.2250 Y4.0374 
G01 X-56.2975 Y3.8623 
G01 X-56.4028 Y3.7048 
G01 X-56.5368 Y3.5708 
G01 X-56.6943 Y3.4655 
G01 X-56.8694 Y3.3930 
G01 X-57.0553 Y3.3560 
G01 X-57.2447 Y3.3560 
G01 X-57.4306 Y3.3930 
G01 X-57.6057 Y3.4655 
G01 X-57.7632 Y3.5708 
G01 X-57.8972 Y3.7048 
G01 X-58.0025 Y3.8623 
G01 X-58.0750 Y4.0374 
G01 X-58.1120 Y4.2233 
G00 Z2.0000 
G00 X-64.3604 Y32.2749 
G01 Z-0.0250 F254.00 
G01 X-64.3604 Y33.7651 F508.00 
G01 X-64.3273 Y33.9314 
G01 X-64.2625 Y34.0879 
G01 X-64.1683 Y34.2289 
G01 X-64.0485 Y34.3487 
G01 X-63.9076 Y34.4429 
G01 X-63.7510 Y34.5077 
G01 X-63.5847 Y34.5408 
G01 X-63.4153 Y34.5408 
G01 X-63.2490 Y34.5077 
G01 X-63.0924 Y34.4429 
G01 X-62.9515 Y34.3487 
G01 X-62.8317 Y34.2289 
G01 X-62.7375 Y34.0879 
G01 X-62.6727 Y33.9314 
G01 X-62.6396 Y33.7651 
G01 X-62.6396 Y32.6346 
G01 X-61.6050 Y31.6000 
G01 X-61.3719 Y31.6000 
G01 X-61.5085 Y31.6913 
G01 X-61.6283 Y31.8111 
G01 X-61.7225 Y31.9520 
G01 X-61.7873 Y32.1086 
G01 X-61.8204 Y32.2749 
G01 X-61.8204 Y33.7651 
G01 X-61.7873 Y33.9314 
G01 X-61.7225 Y34.0879 
G01 X-61.6283 Y34.2289 
G01 X-61.5085 Y34.3487 
G01 X-61.3676 Y34.4429 
G01 X-61.2110 Y34.5077 
G01 X-61.0447 Y34.5408 
G01 X-60.8753 Y34.5408 
G01 X-60.7090 Y34.5077 
G01 X-60.5524 Y34.4429 
G01 X-60.4115 Y34.3487 
G01 X-60.2917 Y34.2289 
G01 X-60.1975 Y34.0879 
G01 X-60.1327 Y33.9314 
G01 X-60.0996 Y33.7651 
G01 X-60.0996 Y32.2749 
G01 X-60.1327 Y32.1086 
G01 X-60.1975 Y31.9520 
G01 X-60.2917 Y31.8111 
G01 X-60.4115 Y31.6913 
G01 X-60.5481 Y31.6000 
G01 X-58.8319 Y31.6000 
G01 X-58.9685 Y31.6913 
G01 X-59.0883 Y31.8111 
G01 X-59.1825 Y31.9520 
G01 X-59.2473 Y32.1086 
G01 X-59.2804 Y32.2749 
G01 X-59.2804 Y33.7651 
G01 X-59.2473 Y33.9314 
G01 X-59.1825 Y34.0879 
G01 X-59.0883 Y34.2289 
G01 X-58.9685 Y34.3487 
G01 X-58.8276 Y34.4429 
G01 X-58.6710 Y34.5077 
G01 X-58.5047 Y34.5408 
G01 X-58.3353 Y34.5408 
G01 X-58.1690 Y34.5077 
G01 X-58.0124 Y34.4429 
G01 X-57.8715 Y34.3487 
G01 X-57.7517 Y34.2289 
G01 X-57.6575 Y34.0879 
G01 X-57.5927 Y33.9314 
G01 X-57.5596 Y33.7651 
G01 X-57.5596 Y32.2749 
G01 X-57.5927 Y32.1086 
G01 X-57.6575 Y31.9520 
G01 X-57.7517 Y31.8111 
G01 X-57.8715 Y31.6913 
G01 X-58.0081 Y31.6000 
G01 X-56.2919 Y31.6000 
G01 X-56.4285 Y31.6913 
G01 X-56.5483 Y31.8111 
G01 X-56.6425 Y31.9520 
G01 X-56.7073 Y32.1086 
G01 X-56.7404 Y32.2749 
G01 X-56.7404 Y33.7651 
G01 X-56.7073 Y33.9314 
G01 X-56.6425 Y34.0879 
G01 X-56.5483 Y34.2289 
G01 X-56.4285 Y34.3487 
G01 X-56.2876 Y34.4429 
G01 X-56.1310 Y34.5077 
G01 X-55.9647 Y34.5408 
G01 X-55.7953 Y34.5408 
G01 X-55.6290 Y34.5077 
G01 X-55.4724 Y34.4429 
G01 X-55.3315 Y34.3487 
G01 X-55.2117 Y34.2289 
G01 X-55.1175 Y34.0879 
G01 X-55.0527 Y33.9314 
G01 X-55.0196 Y33.7651 
G01 X-55.0196 Y32.2749 
G01 X-55.0527 Y32.1086 
G01 X-55.1175 Y31.9520 
G01 X-55.2117 Y31.8111 
G01 X-55.3315 Y31.6913 
G01 X-55.4681 Y31.6000 
G01 X-53.7519 Y31.6000 
G01 X-53.8885 Y31.6913 
G01 X-54.0083 Y31.8111 
G01 X-54.1025 Y31.9520 
G01 X-54.1673 Y32.1086 
G01 X-54.2004 Y32.2749 
G01 X-54.2004 Y33.7651 
G01 X-54.1673 Y33.9314 
G01 X-54.1025 Y34.0879 
G01 X-54.0083 Y34.2289 
G01 X-53.8885 Y34.3487 
G01 X-53.7476 Y34.4429 
G01 X-53.5910 Y34.5077 
G01 X-53.4247 Y34.5408 
G01 X-53.2553 Y34.5408 
G01 X-53.0890 Y34.5077 
G01 X-52.9324 Y34.4429 
G01 X-52.7915 Y34.3487 
G01 X-52.6717 Y34.2289 
G01 X-52.5775 Y34.0879 
G01 X-52.5127 Y33.9314 
G01 X-52.4796 Y33.7651 
G01 X-52.4796 Y32.2749 
G01 X-52.5127 Y32.1086 
G01 X-52.5775 Y31.9520 
G01 X-52.6717 Y31.8111 
G01 X-52.7915 Y31.6913 
G01 X-52.9281 Y31.6000 
G01 X-51.2119 Y31.6000 
G01 X-51.3485 Y31.6913 
G01 X-51.4683 Y31.8111 
G01 X-51.5625 Y31.9520 
G01 X-51.6273 Y32.1086 
G01 X-51.6604 Y32.2749 
G01 X-51.6604 Y33.7651 
G01 X-51.6273 Y33.9314 
G01 X-51.5625 Y34.0879 
G01 X-51.4683 Y34.2289 
G01 X-51.3485 Y34.3487 
G01 X-51.2076 Y34.4429 
G01 X-51.0510 Y34.5077 
G01 X-50.8847 Y34.5408 
G01 X-50.7153 Y34.5408 
G01 X-50.5490 Y34.5077 
G01 X-50.3924 Y34.4429 
G01 X-50.2515 Y34.3487 
G01 X-50.1317 Y34.2289 
G01 X-50.0375 Y34.0879 
G01 X-49.9727 Y33.9314 
G01 X-49.9396 Y33.7651 
G01 X-49.9396 Y32.2749 
G01 X-49.9727 Y32.1086 
G01 X-50.0375 Y31.9520 
G01 X-50.1317 Y31.8111 
G01 X-50.2515 Y31.6913 
G01 X-50.3881 Y31.6000 
G01 X-48.6718 Y31.6000 
G01 X-48.8085 Y31.6913 
G01 X-48.9283 Y31.8111 
G01 X-49.0225 Y31.9520 
G01 X-49.0873 Y32.1086 
G01 X-49.1204 Y32.2749 
G01 X-49.1204 Y33.3754 
G01 X-53.2149 Y37.4699 
G01 X-53.2801 Y37.5351 
G01 X-57.2149 Y41.4699 
G01 X-57.2801 Y41.5351 
G01 X-57.3261 Y41.6149 
G01 X-57.3500 Y41.7039 
G01 X-57.3500 Y43.4499 
G01 X-57.5643 Y43.4499 
G01 X-58.1501 Y44.0357 
G01 X-58.1501 Y44.8643 
G01 X-57.5643 Y45.4501 
G01 X-56.7357 Y45.4501 
G01 X-56.1499 Y44.8643 
G01 X-56.1499 Y44.0357 
G01 X-56.6500 Y43.5356 
G01 X-56.6500 Y41.8950 
G01 X-52.8550 Y38.1000 
G01 X-37.1176 Y38.1000 
G01 X-37.0499 Y38.2013 
G01 X-36.9513 Y38.2999 
G01 X-36.8354 Y38.3774 
G01 X-36.7065 Y38.4308 
G01 X-36.5697 Y38.4580 
G01 X-36.4303 Y38.4580 
G01 X-36.2935 Y38.4308 
G01 X-36.1646 Y38.3774 
G01 X-36.0487 Y38.2999 
G01 X-35.9501 Y38.2013 
G01 X-35.8824 Y38.1000 
G01 X-27.3950 Y38.1000 
G01 X-20.1842 Y45.3107 
G01 X-20.2080 Y45.4303 
G01 X-20.2080 Y45.5697 
G01 X-20.1808 Y45.7065 
G01 X-20.1274 Y45.8354 
G01 X-20.0499 Y45.9513 
G01 X-19.9513 Y46.0499 
G01 X-19.8354 Y46.1274 
G01 X-19.7065 Y46.1808 
G01 X-19.5697 Y46.2080 
G01 X-19.4303 Y46.2080 
G01 X-19.2935 Y46.1808 
G01 X-19.1646 Y46.1274 
G01 X-19.0487 Y46.0499 
G01 X-18.9501 Y45.9513 
G01 X-18.8726 Y45.8354 
G01 X-18.8192 Y45.7065 
G01 X-18.7920 Y45.5697 
G01 X-18.7920 Y45.4303 
G01 X-18.8192 Y45.2935 
G01 X-18.8726 Y45.1646 
G01 X-18.9501 Y45.0487 
G01 X-19.0487 Y44.9501 
G01 X-19.1646 Y44.8726 
G01 X-19.2935 Y44.8192 
G01 X-19.4303 Y44.7920 
G01 X-19.5697 Y44.7920 
G01 X-19.6893 Y44.8158 
G01 X-26.9699 Y37.5351 
G01 X-27.0351 Y37.4699 
G01 X-27.1149 Y37.4239 
G01 X-27.2039 Y37.4000 
G01 X-35.8824 Y37.4000 
G01 X-35.9501 Y37.2987 
G01 X-36.0487 Y37.2001 
G01 X-36.1646 Y37.1226 
G01 X-36.2935 Y37.0692 
G01 X-36.4303 Y37.0420 
G01 X-36.5697 Y37.0420 
G01 X-36.7065 Y37.0692 
G01 X-36.8354 Y37.1226 
G01 X-36.9513 Y37.2001 
G01 X-37.0499 Y37.2987 
G01 X-37.1176 Y37.4000 
G01 X-46.4692 Y37.4000 
G01 X-46.4146 Y37.3774 
G01 X-46.2987 Y37.2999 
G01 X-46.2001 Y37.2013 
G01 X-46.1226 Y37.0854 
G01 X-46.0692 Y36.9565 
G01 X-46.0420 Y36.8197 
G01 X-46.0420 Y36.6803 
G01 X-46.0658 Y36.5607 
G01 X-43.7911 Y34.2861 
G01 X-43.7285 Y34.3487 
G01 X-43.5876 Y34.4429 
G01 X-43.4310 Y34.5077 
G01 X-43.2647 Y34.5408 
G01 X-43.0953 Y34.5408 
G01 X-42.9290 Y34.5077 
G01 X-42.7724 Y34.4429 
G01 X-42.6315 Y34.3487 
G01 X-42.5117 Y34.2289 
G01 X-42.4175 Y34.0879 
G01 X-42.3527 Y33.9314 
G01 X-42.3196 Y33.7651 
G01 X-42.3196 Y32.2749 
G01 X-42.3527 Y32.1086 
G01 X-42.4175 Y31.9520 
G01 X-42.5117 Y31.8111 
G01 X-42.6315 Y31.6913 
G01 X-42.7681 Y31.6000 
G01 X-41.0519 Y31.6000 
G01 X-41.1885 Y31.6913 
G01 X-41.3083 Y31.8111 
G01 X-41.4025 Y31.9520 
G01 X-41.4673 Y32.1086 
G01 X-41.5004 Y32.2749 
G01 X-41.5004 Y33.7651 
G01 X-41.4673 Y33.9314 
G01 X-41.4025 Y34.0879 
G01 X-41.3083 Y34.2289 
G01 X-41.1885 Y34.3487 
G01 X-41.0476 Y34.4429 
G01 X-40.8910 Y34.5077 
G01 X-40.7247 Y34.5408 
G01 X-40.5553 Y34.5408 
G01 X-40.3890 Y34.5077 
G01 X-40.2324 Y34.4429 
G01 X-40.0915 Y34.3487 
G01 X-39.9717 Y34.2289 
G01 X-39.8775 Y34.0879 
G01 X-39.8127 Y33.9314 
G01 X-39.7796 Y33.7651 
G01 X-39.7796 Y32.2749 
G01 X-39.8127 Y32.1086 
G01 X-39.8775 Y31.9520 
G01 X-39.9717 Y31.8111 
G01 X-40.0915 Y31.6913 
G01 X-40.2281 Y31.6000 
G01 X-38.5119 Y31.6000 
G01 X-38.6485 Y31.6913 
G01 X-38.7683 Y31.8111 
G01 X-38.8625 Y31.9520 
G01 X-38.9273 Y32.1086 
G01 X-38.9604 Y32.2749 
G01 X-38.9604 Y33.7651 
G01 X-38.9273 Y33.9314 
G01 X-38.8625 Y34.0879 
G01 X-38.7683 Y34.2289 
G01 X-38.6485 Y34.3487 
G01 X-38.5076 Y34.4429 
G01 X-38.3510 Y34.5077 
G01 X-38.1847 Y34.5408 
G01 X-38.0153 Y34.5408 
G01 X-37.8490 Y34.5077 
G01 X-37.6924 Y34.4429 
G01 X-37.5515 Y34.3487 
G01 X-37.4317 Y34.2289 
G01 X-37.3375 Y34.0879 
G01 X-37.2727 Y33.9314 
G01 X-37.2396 Y33.7651 
G01 X-37.2396 Y32.2749 
G01 X-37.2727 Y32.1086 
G01 X-37.3375 Y31.9520 
G01 X-37.4317 Y31.8111 
G01 X-37.5515 Y31.6913 
G01 X-37.6881 Y31.6000 
G01 X-35.9719 Y31.6000 
G01 X-36.1085 Y31.6913 
G01 X-36.2283 Y31.8111 
G01 X-36.3225 Y31.9520 
G01 X-36.3873 Y32.1086 
G01 X-36.4204 Y32.2749 
G01 X-36.4204 Y33.7651 
G01 X-36.3873 Y33.9314 
G01 X-36.3225 Y34.0879 
G01 X-36.2283 Y34.2289 
G01 X-36.1085 Y34.3487 
G01 X-35.9676 Y34.4429 
G01 X-35.8110 Y34.5077 
G01 X-35.6447 Y34.5408 
G01 X-35.4753 Y34.5408 
G01 X-35.3090 Y34.5077 
G01 X-35.1524 Y34.4429 
G01 X-35.0115 Y34.3487 
G01 X-34.8917 Y34.2289 
G01 X-34.7975 Y34.0879 
G01 X-34.7327 Y33.9314 
G01 X-34.6996 Y33.7651 
G01 X-34.6996 Y32.2749 
G01 X-34.7327 Y32.1086 
G01 X-34.7975 Y31.9520 
G01 X-34.8917 Y31.8111 
G01 X-35.0115 Y31.6913 
G01 X-35.1481 Y31.6000 
G01 X-33.4319 Y31.6000 
G01 X-33.5685 Y31.6913 
G01 X-33.6883 Y31.8111 
G01 X-33.7825 Y31.9520 
G01 X-33.8473 Y32.1086 
G01 X-33.8804 Y32.2749 
G01 X-33.8804 Y33.7651 
G01 X-33.8473 Y33.9314 
G01 X-33.7825 Y34.0879 
G01 X-33.6883 Y34.2289 
G01 X-33.5685 Y34.3487 
G01 X-33.4276 Y34.4429 
G01 X-33.2710 Y34.5077 
G01 X-33.1047 Y34.5408 
G01 X-32.9353 Y34.5408 
G01 X-32.7690 Y34.5077 
G01 X-32.6124 Y34.4429 
G01 X-32.4715 Y34.3487 
G01 X-32.3517 Y34.2289 
G01 X-32.2575 Y34.0879 
G01 X-32.1927 Y33.9314 
G01 X-32.1596 Y33.7651 
G01 X-32.1596 Y32.2749 
G01 X-32.1927 Y32.1086 
G01 X-32.2575 Y31.9520 
G01 X-32.3517 Y31.8111 
G01 X-32.4715 Y31.6913 
G01 X-32.6081 Y31.6000 
G01 X-30.8919 Y31.6000 
G01 X-31.0285 Y31.6913 
G01 X-31.1483 Y31.8111 
G01 X-31.2425 Y31.9520 
G01 X-31.3073 Y32.1086 
G01 X-31.3404 Y32.2749 
G01 X-31.3404 Y33.7651 
G01 X-31.3073 Y33.9314 
G01 X-31.2425 Y34.0879 
G01 X-31.1483 Y34.2289 
G01 X-31.0285 Y34.3487 
G01 X-30.8876 Y34.4429 
G01 X-30.7310 Y34.5077 
G01 X-30.5647 Y34.5408 
G01 X-30.3953 Y34.5408 
G01 X-30.2290 Y34.5077 
G01 X-30.0724 Y34.4429 
G01 X-29.9315 Y34.3487 
G01 X-29.8117 Y34.2289 
G01 X-29.7175 Y34.0879 
G01 X-29.6527 Y33.9314 
G01 X-29.6196 Y33.7651 
G01 X-29.6196 Y32.2749 
G01 X-29.6527 Y32.1086 
G01 X-29.7175 Y31.9520 
G01 X-29.8117 Y31.8111 
G01 X-29.9315 Y31.6913 
G01 X-30.0681 Y31.6000 
G01 X-11.8950 Y31.6000 
G01 X-10.6493 Y32.8457 
G01 X-10.6575 Y32.8619 
G01 X-10.7129 Y33.0325 
G01 X-10.7410 Y33.2097 
G01 X-10.7410 Y33.3891 
G01 X-10.7129 Y33.5663 
G01 X-10.6575 Y33.7369 
G01 X-10.5760 Y33.8968 
G01 X-10.4706 Y34.0419 
G01 X-10.3437 Y34.1688 
G01 X-10.1986 Y34.2742 
G01 X-10.0387 Y34.3557 
G01 X-9.8681 Y34.4111 
G01 X-9.6909 Y34.4392 
G01 X-9.5115 Y34.4392 
G01 X-9.3343 Y34.4111 
G01 X-9.1637 Y34.3557 
G01 X-9.0038 Y34.2742 
G01 X-8.8587 Y34.1688 
G01 X-8.7318 Y34.0419 
G01 X-8.6264 Y33.8968 
G01 X-8.5449 Y33.7369 
G01 X-8.4895 Y33.5663 
G01 X-8.4614 Y33.3891 
G01 X-8.4614 Y33.2097 
G01 X-8.4895 Y33.0325 
G01 X-8.5449 Y32.8619 
G01 X-8.6264 Y32.7020 
G01 X-8.7318 Y32.5569 
G01 X-8.8587 Y32.4300 
G01 X-9.0038 Y32.3246 
G01 X-9.1637 Y32.2431 
G01 X-9.3343 Y32.1877 
G01 X-9.5115 Y32.1596 
G01 X-9.6909 Y32.1596 
G01 X-9.8681 Y32.1877 
G01 X-10.0387 Y32.2431 
G01 X-10.1866 Y32.3184 
G01 X-11.4699 Y31.0351 
G01 X-11.5351 Y30.9699 
G01 X-11.6149 Y30.9239 
G01 X-11.7039 Y30.9000 
G01 X-61.7961 Y30.9000 
G01 X-61.8851 Y30.9239 
G01 X-61.9649 Y30.9699 
G01 X-62.8214 Y31.8265 
G01 X-62.8317 Y31.8111 
G01 X-62.9515 Y31.6913 
G01 X-63.0924 Y31.5971 
G01 X-63.2490 Y31.5323 
G01 X-63.4153 Y31.4992 
G01 X-63.5847 Y31.4992 
G01 X-63.7510 Y31.5323 
G01 X-63.9076 Y31.5971 
G01 X-64.0485 Y31.6913 
G01 X-64.1683 Y31.8111 
G01 X-64.2625 Y31.9520 
G01 X-64.3273 Y32.1086 
G01 X-64.3604 Y32.2749 
G00 Z2.0000 
G00 X-31.3404 Y24.6549 
G01 Z-0.0250 F254.00 
G01 X-31.3404 Y26.1451 F508.00 
G01 X-31.3073 Y26.3114 
G01 X-31.2425 Y26.4680 
G01 X-31.1483 Y26.6089 
G01 X-31.0285 Y26.7287 
G01 X-30.8876 Y26.8229 
G01 X-30.7310 Y26.8877 
G01 X-30.5647 Y26.9208 
G01 X-30.3953 Y26.9208 
G01 X-30.2290 Y26.8877 
G01 X-30.0724 Y26.8229 
G01 X-29.9315 Y26.7287 
G01 X-29.8117 Y26.6089 
G01 X-29.7175 Y26.4680 
G01 X-29.6527 Y26.3114 
G01 X-29.6196 Y26.1451 
G01 X-29.6196 Y24.6549 
G01 X-29.6527 Y24.4886 
G01 X-29.7175 Y24.3320 
G01 X-29.8117 Y24.1911 
G01 X-29.9315 Y24.0713 
G01 X-30.0724 Y23.9771 
G01 X-30.2290 Y23.9123 
G01 X-30.3953 Y23.8792 
G01 X-30.5647 Y23.8792 
G01 X-30.7310 Y23.9123 
G01 X-30.8876 Y23.9771 
G01 X-31.0285 Y24.0713 
G01 X-31.1483 Y24.1911 
G01 X-31.2425 Y24.3320 
G01 X-31.3073 Y24.4886 
G01 X-31.3404 Y24.6549 
G00 Z2.0000 
G00 X-33.8804 Y24.6549 
G01 Z-0.0250 F254.00 
G01 X-33.8804 Y26.1451 F508.00 
G01 X-33.8473 Y26.3114 
G01 X-33.7825 Y26.4680 
G01 X-33.6883 Y26.6089 
G01 X-33.5685 Y26.7287 
G01 X-33.4276 Y26.8229 
G01 X-33.2710 Y26.8877 
G01 X-33.1047 Y26.9208 
G01 X-32.9353 Y26.9208 
G01 X-32.7690 Y26.8877 
G01 X-32.6124 Y26.8229 
G01 X-32.4715 Y26.7287 
G01 X-32.3517 Y26.6089 
G01 X-32.2575 Y26.4680 
G01 X-32.1927 Y26.3114 
G01 X-32.1596 Y26.1451 
G01 X-32.1596 Y24.6549 
G01 X-32.1927 Y24.4886 
G01 X-32.2575 Y24.3320 
G01 X-32.3517 Y24.1911 
G01 X-32.4715 Y24.0713 
G01 X-32.6124 Y23.9771 
G01 X-32.7690 Y23.9123 
G01 X-32.9353 Y23.8792 
G01 X-33.1047 Y23.8792 
G01 X-33.2710 Y23.9123 
G01 X-33.4276 Y23.9771 
G01 X-33.5685 Y24.0713 
G01 X-33.6883 Y24.1911 
G01 X-33.7825 Y24.3320 
G01 X-33.8473 Y24.4886 
G01 X-33.8804 Y24.6549 
G00 Z2.0000 
G00 X-36.4204 Y24.6549 
G01 Z-0.0250 F254.00 
G01 X-36.4204 Y26.1451 F508.00 
G01 X-36.3873 Y26.3114 
G01 X-36.3225 Y26.4680 
G01 X-36.2283 Y26.6089 
G01 X-36.1085 Y26.7287 
G01 X-35.9676 Y26.8229 
G01 X-35.8110 Y26.8877 
G01 X-35.6447 Y26.9208 
G01 X-35.4753 Y26.9208 
G01 X-35.3090 Y26.8877 
G01 X-35.1524 Y26.8229 
G01 X-35.0115 Y26.7287 
G01 X-34.8917 Y26.6089 
G01 X-34.7975 Y26.4680 
G01 X-34.7327 Y26.3114 
G01 X-34.6996 Y26.1451 
G01 X-34.6996 Y24.6549 
G01 X-34.7327 Y24.4886 
G01 X-34.7975 Y24.3320 
G01 X-34.8917 Y24.1911 
G01 X-35.0115 Y24.0713 
G01 X-35.1524 Y23.9771 
G01 X-35.3090 Y23.9123 
G01 X-35.4753 Y23.8792 
G01 X-35.6447 Y23.8792 
G01 X-35.8110 Y23.9123 
G01 X-35.9676 Y23.9771 
G01 X-36.1085 Y24.0713 
G01 X-36.2283 Y24.1911 
G01 X-36.3225 Y24.3320 
G01 X-36.3873 Y24.4886 
G01 X-36.4204 Y24.6549 
G00 Z2.0000 
G00 X-38.9604 Y24.6549 
G01 Z-0.0250 F254.00 
G01 X-38.9604 Y26.1451 F508.00 
G01 X-38.9273 Y26.3114 
G01 X-38.8625 Y26.4680 
G01 X-38.7683 Y26.6089 
G01 X-38.6485 Y26.7287 
G01 X-38.5076 Y26.8229 
G01 X-38.3510 Y26.8877 
G01 X-38.1847 Y26.9208 
G01 X-38.0153 Y26.9208 
G01 X-37.8490 Y26.8877 
G01 X-37.6924 Y26.8229 
G01 X-37.5515 Y26.7287 
G01 X-37.4317 Y26.6089 
G01 X-37.3375 Y26.4680 
G01 X-37.2727 Y26.3114 
G01 X-37.2396 Y26.1451 
G01 X-37.2396 Y24.6549 
G01 X-37.2727 Y24.4886 
G01 X-37.3375 Y24.3320 
G01 X-37.4317 Y24.1911 
G01 X-37.5515 Y24.0713 
G01 X-37.6924 Y23.9771 
G01 X-37.8490 Y23.9123 
G01 X-38.0153 Y23.8792 
G01 X-38.1847 Y23.8792 
G01 X-38.3510 Y23.9123 
G01 X-38.5076 Y23.9771 
G01 X-38.6485 Y24.0713 
G01 X-38.7683 Y24.1911 
G01 X-38.8625 Y24.3320 
G01 X-38.9273 Y24.4886 
G01 X-38.9604 Y24.6549 
G00 Z2.0000 
G00 X-41.5004 Y24.6549 
G01 Z-0.0250 F254.00 
G01 X-41.5004 Y26.1451 F508.00 
G01 X-41.4673 Y26.3114 
G01 X-41.4025 Y26.4680 
G01 X-41.3083 Y26.6089 
G01 X-41.1885 Y26.7287 
G01 X-41.0476 Y26.8229 
G01 X-40.8910 Y26.8877 
G01 X-40.7247 Y26.9208 
G01 X-40.5553 Y26.9208 
G01 X-40.3890 Y26.8877 
G01 X-40.2324 Y26.8229 
G01 X-40.0915 Y26.7287 
G01 X-39.9717 Y26.6089 
G01 X-39.8775 Y26.4680 
G01 X-39.8127 Y26.3114 
G01 X-39.7796 Y26.1451 
G01 X-39.7796 Y24.6549 
G01 X-39.8127 Y24.4886 
G01 X-39.8775 Y24.3320 
G01 X-39.9717 Y24.1911 
G01 X-40.0915 Y24.0713 
G01 X-40.2324 Y23.9771 
G01 X-40.3890 Y23.9123 
G01 X-40.5553 Y23.8792 
G01 X-40.7247 Y23.8792 
G01 X-40.8910 Y23.9123 
G01 X-41.0476 Y23.9771 
G01 X-41.1885 Y24.0713 
G01 X-41.3083 Y24.1911 
G01 X-41.4025 Y24.3320 
G01 X-41.4673 Y24.4886 
G01 X-41.5004 Y24.6549 
G00 Z2.0000 
G00 X-44.0404 Y24.6549 
G01 Z-0.0250 F254.00 
G01 X-44.0404 Y26.1451 F508.00 
G01 X-44.0073 Y26.3114 
G01 X-43.9425 Y26.4680 
G01 X-43.8483 Y26.6089 
G01 X-43.7285 Y26.7287 
G01 X-43.5876 Y26.8229 
G01 X-43.4310 Y26.8877 
G01 X-43.2647 Y26.9208 
G01 X-43.0953 Y26.9208 
G01 X-42.9290 Y26.8877 
G01 X-42.7724 Y26.8229 
G01 X-42.6315 Y26.7287 
G01 X-42.5117 Y26.6089 
G01 X-42.4175 Y26.4680 
G01 X-42.3527 Y26.3114 
G01 X-42.3196 Y26.1451 
G01 X-42.3196 Y24.6549 
G01 X-42.3527 Y24.4886 
G01 X-42.4175 Y24.3320 
G01 X-42.5117 Y24.1911 
G01 X-42.6315 Y24.0713 
G01 X-42.7724 Y23.9771 
G01 X-42.9290 Y23.9123 
G01 X-43.0953 Y23.8792 
G01 X-43.2647 Y23.8792 
G01 X-43.4310 Y23.9123 
G01 X-43.5876 Y23.9771 
G01 X-43.7285 Y24.0713 
G01 X-43.8483 Y24.1911 
G01 X-43.9425 Y24.3320 
G01 X-44.0073 Y24.4886 
G01 X-44.0404 Y24.6549 
G00 Z2.0000 
G00 X-46.5804 Y24.6549 
G01 Z-0.0250 F254.00 
G01 X-46.5804 Y26.1451 F508.00 
G01 X-46.5473 Y26.3114 
G01 X-46.4825 Y26.4680 
G01 X-46.3883 Y26.6089 
G01 X-46.2685 Y26.7287 
G01 X-46.1275 Y26.8229 
G01 X-45.9710 Y26.8877 
G01 X-45.8047 Y26.9208 
G01 X-45.6353 Y26.9208 
G01 X-45.4690 Y26.8877 
G01 X-45.3124 Y26.8229 
G01 X-45.1715 Y26.7287 
G01 X-45.0517 Y26.6089 
G01 X-44.9575 Y26.4680 
G01 X-44.8927 Y26.3114 
G01 X-44.8596 Y26.1451 
G01 X-44.8596 Y24.6549 
G01 X-44.8927 Y24.4886 
G01 X-44.9575 Y24.3320 
G01 X-45.0517 Y24.1911 
G01 X-45.1715 Y24.0713 
G01 X-45.3124 Y23.9771 
G01 X-45.4690 Y23.9123 
G01 X-45.6353 Y23.8792 
G01 X-45.8047 Y23.8792 
G01 X-45.9710 Y23.9123 
G01 X-46.1275 Y23.9771 
G01 X-46.2685 Y24.0713 
G01 X-46.3883 Y24.1911 
G01 X-46.4825 Y24.3320 
G01 X-46.5473 Y24.4886 
G01 X-46.5804 Y24.6549 
G00 Z2.0000 
G00 X-49.1204 Y24.6549 
G01 Z-0.0250 F254.00 
G01 X-49.1204 Y26.1451 F508.00 
G01 X-49.0873 Y26.3114 
G01 X-49.0225 Y26.4680 
G01 X-48.9283 Y26.6089 
G01 X-48.8085 Y26.7287 
G01 X-48.6676 Y26.8229 
G01 X-48.5110 Y26.8877 
G01 X-48.3447 Y26.9208 
G01 X-48.1753 Y26.9208 
G01 X-48.0090 Y26.8877 
G01 X-47.8524 Y26.8229 
G01 X-47.7115 Y26.7287 
G01 X-47.5917 Y26.6089 
G01 X-47.4975 Y26.4680 
G01 X-47.4327 Y26.3114 
G01 X-47.3996 Y26.1451 
G01 X-47.3996 Y24.6549 
G01 X-47.4327 Y24.4886 
G01 X-47.4975 Y24.3320 
G01 X-47.5917 Y24.1911 
G01 X-47.7115 Y24.0713 
G01 X-47.8524 Y23.9771 
G01 X-48.0090 Y23.9123 
G01 X-48.1753 Y23.8792 
G01 X-48.3447 Y23.8792 
G01 X-48.5110 Y23.9123 
G01 X-48.6676 Y23.9771 
G01 X-48.8085 Y24.0713 
G01 X-48.9283 Y24.1911 
G01 X-49.0225 Y24.3320 
G01 X-49.0873 Y24.4886 
G01 X-49.1204 Y24.6549 
G00 Z2.0000 
G00 X-54.2004 Y24.6549 
G01 Z-0.0250 F254.00 
G01 X-54.2004 Y26.1451 F508.00 
G01 X-54.1673 Y26.3114 
G01 X-54.1025 Y26.4680 
G01 X-54.0083 Y26.6089 
G01 X-53.8885 Y26.7287 
G01 X-53.7476 Y26.8229 
G01 X-53.5910 Y26.8877 
G01 X-53.4247 Y26.9208 
G01 X-53.2553 Y26.9208 
G01 X-53.0890 Y26.8877 
G01 X-52.9324 Y26.8229 
G01 X-52.7915 Y26.7287 
G01 X-52.6717 Y26.6089 
G01 X-52.5775 Y26.4680 
G01 X-52.5127 Y26.3114 
G01 X-52.4796 Y26.1451 
G01 X-52.4796 Y24.6549 
G01 X-52.5127 Y24.4886 
G01 X-52.5775 Y24.3320 
G01 X-52.6717 Y24.1911 
G01 X-52.7915 Y24.0713 
G01 X-52.9324 Y23.9771 
G01 X-53.0890 Y23.9123 
G01 X-53.2553 Y23.8792 
G01 X-53.4247 Y23.8792 
G01 X-53.5910 Y23.9123 
G01 X-53.7476 Y23.9771 
G01 X-53.8885 Y24.0713 
G01 X-54.0083 Y24.1911 
G01 X-54.1025 Y24.3320 
G01 X-54.1673 Y24.4886 
G01 X-54.2004 Y24.6549 
G00 Z2.0000 
G00 X-56.7404 Y24.6549 
G01 Z-0.0250 F254.00 
G01 X-56.7404 Y26.1451 F508.00 
G01 X-56.7073 Y26.3114 
G01 X-56.6425 Y26.4680 
G01 X-56.5483 Y26.6089 
G01 X-56.4285 Y26.7287 
G01 X-56.2876 Y26.8229 
G01 X-56.1310 Y26.8877 
G01 X-55.9647 Y26.9208 
G01 X-55.7953 Y26.9208 
G01 X-55.6290 Y26.8877 
G01 X-55.4724 Y26.8229 
G01 X-55.3315 Y26.7287 
G01 X-55.2117 Y26.6089 
G01 X-55.1175 Y26.4680 
G01 X-55.0527 Y26.3114 
G01 X-55.0196 Y26.1451 
G01 X-55.0196 Y24.6549 
G01 X-55.0527 Y24.4886 
G01 X-55.1175 Y24.3320 
G01 X-55.2117 Y24.1911 
G01 X-55.3315 Y24.0713 
G01 X-55.4724 Y23.9771 
G01 X-55.6290 Y23.9123 
G01 X-55.7953 Y23.8792 
G01 X-55.9647 Y23.8792 
G01 X-56.1310 Y23.9123 
G01 X-56.2876 Y23.9771 
G01 X-56.4285 Y24.0713 
G01 X-56.5483 Y24.1911 
G01 X-56.6425 Y24.3320 
G01 X-56.7073 Y24.4886 
G01 X-56.7404 Y24.6549 
G00 Z2.0000 
G00 X-59.2804 Y24.6549 
G01 Z-0.0250 F254.00 
