(.../pcb-gcode-3.6.0.4/pcb-gcode.ulp)
(Copyright 2005 - 2012 by John Johnson)
(See readme.txt for licensing terms.)
(This file generated from the board:)
(.../eagle/ARMEDBASE_V0/MCU/MCU.brd)
(Current profile is .../pcb-gcode-3.6.0.4/profiles/emc.pp  )
(This file generated 7/3/2014 10:28:26 AM)
(Settings from pcb-machine.h)
(  Tool Size)
(0.1000 )
(Z Axis Settings)
(  High     Up        Down     Drill)
(15.0000 	2.0000 	-0.0250 	-1.5000 )
(spindle on time = 1.0000)
(milling depth = -0.0500)
(text depth = -0.0500)
(tool change at 15.0000 15.0000 15.0000 )
(feed rate xy = F508.00 )
(feed rate z  = F254.00 )
(Settings from pcb-defaults.h)
(isolate min = 0.0500)
(isolate max = 0.3000)
(isolate step = 0.1000)
(Generated top outlines, top drill, bottom outlines, bottom drill, )
(Unit of measure: mm)
( Tool|       Size       |  Min Sub |  Max Sub |   Count )
( T01  3.200mm 0.1260in 0.0000in 0.0000in )
( T02  3.302mm 0.1300in 0.0000in 0.0000in )
( T03  0.610mm 0.0240in 0.0000in 0.0000in )
( T04  0.800mm 0.0315in 0.0000in 0.0000in )
( T05  0.813mm 0.0320in 0.0000in 0.0000in )
( T06  0.900mm 0.0354in 0.0000in 0.0000in )
( T07  0.950mm 0.0374in 0.0000in 0.0000in )
( T08  1.000mm 0.0394in 0.0000in 0.0000in )
( T09  1.016mm 0.0400in 0.0000in 0.0000in )
( T10  1.118mm 0.0440in 0.0000in 0.0000in )
( T11  1.676mm 0.0660in 0.0000in 0.0000in )
( T12  2.300mm 0.0906in 0.0000in 0.0000in )
(Metric Mode)
G21
(Absolute Coordinates)
G90
M05
G00 Z15.0000 
G00 X15.0000 Y15.0000 
M06 T01  ; 3.2000 
G01 Z0.0000 F254.00 
M06 T01  ; 3.2000 
G00 Z2.0000 
M03
G04 P1.000000
G00 Z2.000000
G00 X-31.7500 Y66.0400 
G01 Z-1.5000 F254.00 
G01 Z2.000000
(R2.0000  P1.000000)
(G00 Z2.000000)
G00 X-3.8100 Y3.8100 
G01 Z-1.500000
G01 Z2.000000
(G00 Z2.000000)
G00 X-3.8100 Y66.0400 
G01 Z-1.500000
G01 Z2.000000
(G00 Z2.000000)
G00 X-38.1000 Y66.0400 
G01 Z-1.500000
G01 Z2.000000
(G00 Z2.000000)
G00 X-45.7200 Y66.0400 
G01 Z-1.500000
G01 Z2.000000
(G00 Z2.000000)
G00 X-82.5500 Y3.8100 
G01 Z-1.500000
G01 Z2.000000
(G00 Z2.000000)
G00 X-82.5500 Y66.0400 
G01 Z-1.500000
G01 Z2.000000
(G00 Z2.000000)
G00 X-24.1300 Y66.0400 
G01 Z-1.500000
G01 Z2.000000
M05
G00 Z15.0000 
M06 T02  ; 3.3020 
G01 Z0.0000 F254.00 
M06 T02  ; 3.3020 
G00 Z2.0000 
M03
G04 P1.000000
G00 Z2.000000
G00 X-23.8760 Y11.4300 
G01 Z-1.5000 F254.00 
G01 Z2.000000
(R2.0000  P1.000000)
M05
G00 Z15.0000 
M06 T03  ; 0.6096 
G01 Z0.0000 F254.00 
M06 T03  ; 0.6096 
G00 Z2.0000 
M03
G04 P1.000000
G00 Z2.000000
G00 X-36.5000 Y37.7500 
G01 Z-1.5000 F254.00 
G01 Z2.000000
(R2.0000  P1.000000)
(G00 Z2.000000)
G00 X-46.7500 Y36.7500 
G01 Z-1.500000
G01 Z2.000000
(G00 Z2.000000)
G00 X-75.0000 Y49.5000 
G01 Z-1.500000
G01 Z2.000000
(G00 Z2.000000)
G00 X-19.5000 Y45.5000 
G01 Z-1.500000
G01 Z2.000000
M05
G00 Z15.0000 
M06 T04  ; 0.8000 
G01 Z0.0000 F254.00 
M06 T04  ; 0.8000 
G00 Z2.0000 
M03
G04 P1.000000
G00 Z2.000000
G00 X-9.1700 Y62.2300 
G01 Z-1.5000 F254.00 
G01 Z2.000000
(R2.0000  P1.000000)
(G00 Z2.000000)
G00 X-13.9700 Y65.2300 
G01 Z-1.500000
G01 Z2.000000
M05
G00 Z15.0000 
M06 T05  ; 0.8128 
G01 Z0.0000 F254.00 
M06 T05  ; 0.8128 
G00 Z2.0000 
M03
G04 P1.000000
G00 Z2.000000
G00 X-33.0200 Y33.0200 
G01 Z-1.5000 F254.00 
G01 Z2.000000
(R2.0000  P1.000000)
(G00 Z2.000000)
G00 X-33.0200 Y25.4000 
G01 Z-1.500000
G01 Z2.000000
(G00 Z2.000000)
G00 X-35.5600 Y33.0200 
G01 Z-1.500000
G01 Z2.000000
(G00 Z2.000000)
G00 X-35.5600 Y25.4000 
G01 Z-1.500000
G01 Z2.000000
(G00 Z2.000000)
G00 X-38.1000 Y33.0200 
G01 Z-1.500000
G01 Z2.000000
(G00 Z2.000000)
G00 X-38.1000 Y25.4000 
G01 Z-1.500000
G01 Z2.000000
(G00 Z2.000000)
G00 X-40.6400 Y33.0200 
G01 Z-1.500000
G01 Z2.000000
(G00 Z2.000000)
G00 X-40.6400 Y25.4000 
G01 Z-1.500000
G01 Z2.000000
(G00 Z2.000000)
G00 X-43.1800 Y33.0200 
G01 Z-1.500000
G01 Z2.000000
(G00 Z2.000000)
G00 X-43.1800 Y25.4000 
G01 Z-1.500000
G01 Z2.000000
(G00 Z2.000000)
G00 X-45.7200 Y33.0200 
G01 Z-1.500000
G01 Z2.000000
(G00 Z2.000000)
G00 X-45.7200 Y25.4000 
G01 Z-1.500000
G01 Z2.000000
(G00 Z2.000000)
G00 X-48.2600 Y33.0200 
G01 Z-1.500000
G01 Z2.000000
(G00 Z2.000000)
G00 X-48.2600 Y25.4000 
G01 Z-1.500000
G01 Z2.000000
(G00 Z2.000000)
G00 X-50.8000 Y33.0200 
G01 Z-1.500000
G01 Z2.000000
(G00 Z2.000000)
G00 X-50.8000 Y25.4000 
G01 Z-1.500000
G01 Z2.000000
(G00 Z2.000000)
G00 X-53.3400 Y33.0200 
G01 Z-1.500000
G01 Z2.000000
(G00 Z2.000000)
G00 X-53.3400 Y25.4000 
G01 Z-1.500000
G01 Z2.000000
(G00 Z2.000000)
G00 X-55.8800 Y33.0200 
G01 Z-1.500000
G01 Z2.000000
(G00 Z2.000000)
G00 X-55.8800 Y25.4000 
G01 Z-1.500000
G01 Z2.000000
(G00 Z2.000000)
G00 X-57.1500 Y44.4500 
G01 Z-1.500000
G01 Z2.000000
(G00 Z2.000000)
G00 X-57.1500 Y46.9900 
G01 Z-1.500000
G01 Z2.000000
(G00 Z2.000000)
G00 X-57.1500 Y49.5300 
G01 Z-1.500000
G01 Z2.000000
(G00 Z2.000000)
G00 X-57.1500 Y52.0700 
G01 Z-1.500000
G01 Z2.000000
(G00 Z2.000000)
G00 X-58.4200 Y33.0200 
G01 Z-1.500000
G01 Z2.000000
(G00 Z2.000000)
G00 X-58.4200 Y25.4000 
G01 Z-1.500000
G01 Z2.000000
(G00 Z2.000000)
G00 X-60.9600 Y33.0200 
G01 Z-1.500000
G01 Z2.000000
(G00 Z2.000000)
G00 X-60.9600 Y25.4000 
G01 Z-1.500000
G01 Z2.000000
(G00 Z2.000000)
G00 X-63.5000 Y33.0200 
G01 Z-1.500000
G01 Z2.000000
(G00 Z2.000000)
G00 X-63.5000 Y25.4000 
G01 Z-1.500000
G01 Z2.000000
(G00 Z2.000000)
G00 X-64.7700 Y44.4500 
G01 Z-1.500000
G01 Z2.000000
(G00 Z2.000000)
G00 X-64.7700 Y46.9900 
G01 Z-1.500000
G01 Z2.000000
(G00 Z2.000000)
G00 X-64.7700 Y49.5300 
G01 Z-1.500000
G01 Z2.000000
(G00 Z2.000000)
G00 X-64.7700 Y52.0700 
G01 Z-1.500000
G01 Z2.000000
(G00 Z2.000000)
G00 X-30.4800 Y33.0200 
G01 Z-1.500000
G01 Z2.000000
(G00 Z2.000000)
G00 X-30.4800 Y25.4000 
G01 Z-1.500000
G01 Z2.000000
M05
G00 Z15.0000 
M06 T06  ; 0.9000 
G01 Z0.0000 F254.00 
M06 T06  ; 0.9000 
G00 Z2.0000 
M03
G04 P1.000000
G00 Z2.000000
G00 X-40.0050 Y57.1500 
G01 Z-1.5000 F254.00 
G01 Z2.000000
(R2.0000  P1.000000)
(G00 Z2.000000)
G00 X-41.2750 Y59.6900 
G01 Z-1.500000
G01 Z2.000000
(G00 Z2.000000)
G00 X-42.5450 Y57.1500 
G01 Z-1.500000
G01 Z2.000000
(G00 Z2.000000)
G00 X-43.8150 Y59.6900 
G01 Z-1.500000
G01 Z2.000000
(G00 Z2.000000)
G00 X-26.0350 Y57.1500 
G01 Z-1.500000
G01 Z2.000000
(G00 Z2.000000)
G00 X-27.3050 Y59.6900 
G01 Z-1.500000
G01 Z2.000000
(G00 Z2.000000)
G00 X-28.5750 Y57.1500 
G01 Z-1.500000
G01 Z2.000000
(G00 Z2.000000)
G00 X-29.8450 Y59.6900 
G01 Z-1.500000
G01 Z2.000000
M05
G00 Z15.0000 
M06 T07  ; 0.9500 
G01 Z0.0000 F254.00 
M06 T07  ; 0.9500 
G00 Z2.0000 
M03
G04 P1.000000
G00 Z2.000000
G00 X-54.9200 Y63.3300 
G01 Z-1.5000 F254.00 
G01 Z2.000000
(R2.0000  P1.000000)
(G00 Z2.000000)
G00 X-57.4200 Y63.3300 
G01 Z-1.500000
G01 Z2.000000
(G00 Z2.000000)
G00 X-59.4200 Y63.3300 
G01 Z-1.500000
G01 Z2.000000
(G00 Z2.000000)
G00 X-61.9200 Y63.3300 
G01 Z-1.500000
G01 Z2.000000
M05
G00 Z15.0000 
M06 T08  ; 1.0000 
G01 Z0.0000 F254.00 
M06 T08  ; 1.0000 
G00 Z2.0000 
M03
G04 P1.000000
G00 Z2.000000
G00 X-13.9700 Y59.2300 
G01 Z-1.5000 F254.00 
G01 Z2.000000
(R2.0000  P1.000000)
M05
G00 Z15.0000 
M06 T09  ; 1.0160 
G01 Z0.0000 F254.00 
M06 T09  ; 1.0160 
G00 Z2.0000 
M03
G04 P1.000000
G00 Z2.000000
G00 X-40.6400 Y5.0800 
G01 Z-1.5000 F254.00 
G01 Z2.000000
(R2.0000  P1.000000)
(G00 Z2.000000)
G00 X-43.1800 Y5.0800 
G01 Z-1.500000
G01 Z2.000000
(G00 Z2.000000)
G00 X-45.7200 Y5.0800 
G01 Z-1.500000
G01 Z2.000000
(G00 Z2.000000)
G00 X-48.2600 Y5.0800 
G01 Z-1.500000
G01 Z2.000000
(G00 Z2.000000)
G00 X-57.1500 Y5.0800 
G01 Z-1.500000
G01 Z2.000000
(G00 Z2.000000)
G00 X-59.6900 Y5.0800 
G01 Z-1.500000
G01 Z2.000000
(G00 Z2.000000)
G00 X-62.2300 Y5.0800 
G01 Z-1.500000
G01 Z2.000000
(G00 Z2.000000)
G00 X-8.8900 Y8.8900 
G01 Z-1.500000
G01 Z2.000000
(G00 Z2.000000)
G00 X-8.8900 Y11.4300 
G01 Z-1.500000
G01 Z2.000000
(G00 Z2.000000)
G00 X-8.8900 Y13.9700 
G01 Z-1.500000
G01 Z2.000000
(G00 Z2.000000)
G00 X-9.6012 Y33.2994 
G01 Z-1.500000
G01 Z2.000000
(G00 Z2.000000)
G00 X-9.6012 Y37.8206 
G01 Z-1.500000
G01 Z2.000000
(G00 Z2.000000)
G00 X-3.0988 Y33.2994 
G01 Z-1.500000
G01 Z2.000000
(G00 Z2.000000)
G00 X-3.0988 Y37.8206 
G01 Z-1.500000
G01 Z2.000000
M05
G00 Z15.0000 
M06 T10  ; 1.1176 
G01 Z0.0000 F254.00 
M06 T10  ; 1.1176 
G00 Z2.0000 
M03
G04 P1.000000
G00 Z2.000000
G00 X-2.5400 Y52.0700 
G01 Z-1.5000 F254.00 
G01 Z2.000000
(R2.0000  P1.000000)
(G00 Z2.000000)
G00 X-2.5400 Y55.8800 
G01 Z-1.500000
G01 Z2.000000
(G00 Z2.000000)
G00 X-2.5400 Y59.6900 
G01 Z-1.500000
G01 Z2.000000
M05
G00 Z15.0000 
M06 T11  ; 1.6764 
G01 Z0.0000 F254.00 
M06 T11  ; 1.6764 
G00 Z2.0000 
M03
G04 P1.000000
G00 Z2.000000
G00 X-70.4088 Y64.7700 
G01 Z-1.5000 F254.00 
G01 Z2.000000
(R2.0000  P1.000000)
(G00 Z2.000000)
G00 X-74.3712 Y64.7700 
G01 Z-1.500000
G01 Z2.000000
M05
G00 Z15.0000 
M06 T12  ; 2.3000 
G01 Z0.0000 F254.00 
M06 T12  ; 2.3000 
G00 Z2.0000 
M03
G04 P1.000000
G00 Z2.000000
G00 X-51.8500 Y66.0400 
G01 Z-1.5000 F254.00 
G01 Z2.000000
(R2.0000  P1.000000)
(G00 Z2.000000)
G00 X-64.9900 Y66.0400 
G01 Z-1.500000
G01 Z2.000000
T01 
G00 Z15.0000 
M05
M02
