(.../pcb-gcode-3.6.0.4/pcb-gcode.ulp)
(Copyright 2005 - 2012 by John Johnson)
(See readme.txt for licensing terms.)
(This file generated from the board:)
(.../eagle/ARMEDBASE_V0/MCU/MCU.brd)
(Current profile is .../pcb-gcode-3.6.0.4/profiles/emc.pp  )
(This file generated 7/1/2014 3:12:43 PM)
(Settings from pcb-machine.h)
(  Tool Size)
(0.1000 )
(Z Axis Settings)
(  High     Up        Down     Drill)
(15.0000 	2.0000 	-0.1000 	-1.0000 )
(spindle on time = 1.0000)
(milling depth = -0.1000)
(text depth = -0.1000)
(tool change at 15.0000 15.0000 15.0000 )
(feed rate xy = F508.00 )
(feed rate z  = F254.00 )
(Settings from pcb-defaults.h)
(isolate min = 0.0200)
(isolate max = 0.3000)
(isolate step = 0.1000)
(Generated top outlines, top drill, bottom outlines, bottom drill, )
(Unit of measure: mm)
(Metric Mode)
G21
(Absolute Coordinates)
G90
G00 X0.0000 Y0.0000 
M03
G04 P1.000000
G00 Z2.0000 
G00 X92.4134 Y30.9234 
G01 Z-0.1000 F254.00 
G01 X92.4134 Y30.0274 F508.00 
G01 X92.1358 Y29.7498 
G01 X91.9029 Y29.7498 
G01 X91.6253 Y30.0274 
G01 X91.6253 Y30.9234 
G01 X92.4134 Y30.9234 
G00 Z2.0000 
G00 X90.9791 Y29.7498 
G01 Z-0.1000 F254.00 
G01 X90.7462 Y29.7498 F508.00 
G01 X90.4686 Y30.0274 
G01 X90.4686 Y30.9234 
G01 X91.2567 Y30.9234 
G01 X91.2567 Y30.0274 
G01 X90.9791 Y29.7498 
G00 Z2.0000 
G00 X91.7502 Y44.9562 
G01 Z-0.1000 F254.00 
G01 X92.3370 Y44.3694 F508.00 
G01 X91.7502 Y43.7826 
G01 X91.6253 Y43.7826 
G01 X91.6253 Y44.9562 
G01 X91.7502 Y44.9562 
G00 Z2.0000 
G00 X92.4134 Y42.6174 
G01 Z-0.1000 F254.00 
G01 X92.4134 Y41.7214 F508.00 
G01 X92.1358 Y41.4438 
G01 X91.5173 Y41.4438 
G01 X91.2397 Y41.7214 
G01 X91.2397 Y42.6174 
G01 X92.4134 Y42.6174 
G00 Z2.0000 
G00 X92.1358 Y34.4274 
G01 Z-0.1000 F254.00 
G01 X90.7462 Y34.4274 F508.00 
G01 X90.4686 Y34.7050 
G01 X90.4686 Y35.6010 
G01 X92.4134 Y35.6010 
G01 X92.4134 Y34.7050 
G01 X92.1358 Y34.4274 
G00 Z2.0000 
G00 X91.7502 Y28.5846 
G01 Z-0.1000 F254.00 
G01 X92.3370 Y27.9978 F508.00 
G01 X91.7502 Y27.4110 
G01 X91.6253 Y27.4110 
G01 X91.6253 Y28.5846 
G01 X91.7502 Y28.5846 
G00 Z2.0000 
G00 X64.9700 Y48.6599 
G01 Z-0.1000 F254.00 
G01 X65.0988 Y48.6599 F508.00 
G01 X64.9700 Y48.5311 
G01 X64.9700 Y48.6599 
G00 Z2.0000 
G00 X97.4280 Y3.6672 
G01 Z-0.1000 F254.00 
G01 X97.4280 Y3.9528 F508.00 
G01 X97.3907 Y4.2358 
G01 X97.3168 Y4.5116 
G01 X97.2076 Y4.7754 
G01 X97.0648 Y5.0226 
G01 X96.8910 Y5.2491 
G01 X96.6891 Y5.4510 
G01 X96.4626 Y5.6248 
G01 X96.2154 Y5.7676 
G01 X95.9516 Y5.8768 
G01 X95.6758 Y5.9507 
G01 X95.3928 Y5.9880 
G01 X95.1072 Y5.9880 
G01 X94.8242 Y5.9507 
G01 X94.5484 Y5.8768 
G01 X94.2846 Y5.7676 
G01 X94.0374 Y5.6248 
G01 X93.8109 Y5.4510 
G01 X93.6090 Y5.2491 
G01 X93.4352 Y5.0226 
G01 X93.2924 Y4.7754 
G01 X93.1832 Y4.5116 
G01 X93.1093 Y4.2358 
G01 X93.0720 Y3.9528 
G01 X93.0720 Y3.6672 
G01 X93.1093 Y3.3842 
G01 X93.1832 Y3.1084 
G01 X93.2924 Y2.8446 
G01 X93.4352 Y2.5974 
G01 X93.6090 Y2.3709 
G01 X93.8109 Y2.1690 
G01 X94.0374 Y1.9952 
G01 X94.2846 Y1.8524 
G01 X94.5484 Y1.7432 
G01 X94.8242 Y1.6693 
G01 X95.1072 Y1.6320 
G01 X95.3928 Y1.6320 
G01 X95.6758 Y1.6693 
G01 X95.9516 Y1.7432 
G01 X96.2154 Y1.8524 
G01 X96.4626 Y1.9952 
G01 X96.6891 Y2.1690 
G01 X96.8910 Y2.3709 
G01 X97.0648 Y2.5974 
G01 X97.2076 Y2.8446 
G01 X97.3168 Y3.1084 
G01 X97.3907 Y3.3842 
G01 X97.4280 Y3.6672 
G00 Z2.0000 
G00 X97.4280 Y65.8972 
G01 Z-0.1000 F254.00 
G01 X97.4280 Y66.1828 F508.00 
G01 X97.3907 Y66.4658 
G01 X97.3168 Y66.7416 
G01 X97.2076 Y67.0054 
G01 X97.0648 Y67.2526 
G01 X96.8910 Y67.4791 
G01 X96.6891 Y67.6810 
G01 X96.4626 Y67.8548 
G01 X96.2154 Y67.9976 
G01 X95.9516 Y68.1068 
G01 X95.6758 Y68.1807 
G01 X95.3928 Y68.2180 
G01 X95.1072 Y68.2180 
G01 X94.8242 Y68.1807 
G01 X94.5484 Y68.1068 
G01 X94.2846 Y67.9976 
G01 X94.0374 Y67.8548 
G01 X93.8109 Y67.6810 
G01 X93.6090 Y67.4791 
G01 X93.4352 Y67.2526 
G01 X93.2924 Y67.0054 
G01 X93.1832 Y66.7416 
G01 X93.1093 Y66.4658 
G01 X93.0720 Y66.1828 
G01 X93.0720 Y65.8972 
G01 X93.1093 Y65.6142 
G01 X93.1832 Y65.3384 
G01 X93.2924 Y65.0746 
G01 X93.4352 Y64.8274 
G01 X93.6090 Y64.6009 
G01 X93.8109 Y64.3990 
G01 X94.0374 Y64.2252 
G01 X94.2846 Y64.0824 
G01 X94.5484 Y63.9732 
G01 X94.8242 Y63.8993 
G01 X95.1072 Y63.8620 
G01 X95.3928 Y63.8620 
G01 X95.6758 Y63.8993 
G01 X95.9516 Y63.9732 
G01 X96.2154 Y64.0824 
G01 X96.4626 Y64.2252 
G01 X96.6891 Y64.3990 
G01 X96.8910 Y64.6009 
G01 X97.0648 Y64.8274 
G01 X97.2076 Y65.0746 
G01 X97.3168 Y65.3384 
G01 X97.3907 Y65.6142 
G01 X97.4280 Y65.8972 
G00 Z2.0000 
G00 X5.9880 Y3.6672 
G01 Z-0.1000 F254.00 
G01 X5.9880 Y3.9528 F508.00 
G01 X5.9507 Y4.2358 
G01 X5.8768 Y4.5116 
G01 X5.7676 Y4.7754 
G01 X5.6248 Y5.0226 
G01 X5.4510 Y5.2491 
G01 X5.2491 Y5.4510 
G01 X5.0226 Y5.6248 
G01 X4.7754 Y5.7676 
G01 X4.5116 Y5.8768 
G01 X4.2358 Y5.9507 
G01 X3.9528 Y5.9880 
G01 X3.6672 Y5.9880 
G01 X3.3842 Y5.9507 
G01 X3.1084 Y5.8768 
G01 X2.8446 Y5.7676 
G01 X2.5974 Y5.6248 
G01 X2.3709 Y5.4510 
G01 X2.1690 Y5.2491 
G01 X1.9952 Y5.0226 
G01 X1.8524 Y4.7754 
G01 X1.7432 Y4.5116 
G01 X1.6693 Y4.2358 
G01 X1.6320 Y3.9528 
G01 X1.6320 Y3.6672 
G01 X1.6693 Y3.3842 
G01 X1.7432 Y3.1084 
G01 X1.8524 Y2.8446 
G01 X1.9952 Y2.5974 
G01 X2.1690 Y2.3709 
G01 X2.3709 Y2.1690 
G01 X2.5974 Y1.9952 
G01 X2.8446 Y1.8524 
G01 X3.1084 Y1.7432 
G01 X3.3842 Y1.6693 
G01 X3.6672 Y1.6320 
G01 X3.9528 Y1.6320 
G01 X4.2358 Y1.6693 
G01 X4.5116 Y1.7432 
G01 X4.7754 Y1.8524 
G01 X5.0226 Y1.9952 
G01 X5.2491 Y2.1690 
G01 X5.4510 Y2.3709 
G01 X5.6248 Y2.5974 
G01 X5.7676 Y2.8446 
G01 X5.8768 Y3.1084 
G01 X5.9507 Y3.3842 
G01 X5.9880 Y3.6672 
G00 Z2.0000 
G00 X5.9880 Y65.8972 
G01 Z-0.1000 F254.00 
G01 X5.9880 Y66.1828 F508.00 
G01 X5.9507 Y66.4658 
G01 X5.8768 Y66.7416 
G01 X5.7676 Y67.0054 
G01 X5.6248 Y67.2526 
G01 X5.4510 Y67.4791 
G01 X5.2491 Y67.6810 
G01 X5.0226 Y67.8548 
G01 X4.7754 Y67.9976 
G01 X4.5116 Y68.1068 
G01 X4.2358 Y68.1807 
G01 X3.9528 Y68.2180 
G01 X3.6672 Y68.2180 
G01 X3.3842 Y68.1807 
G01 X3.1084 Y68.1068 
G01 X2.8446 Y67.9976 
G01 X2.5974 Y67.8548 
G01 X2.3709 Y67.6810 
G01 X2.1690 Y67.4791 
G01 X1.9952 Y67.2526 
G01 X1.8524 Y67.0054 
G01 X1.7432 Y66.7416 
G01 X1.6693 Y66.4658 
G01 X1.6320 Y66.1828 
G01 X1.6320 Y65.8972 
G01 X1.6693 Y65.6142 
G01 X1.7432 Y65.3384 
G01 X1.8524 Y65.0746 
G01 X1.9952 Y64.8274 
G01 X2.1690 Y64.6009 
G01 X2.3709 Y64.3990 
G01 X2.5974 Y64.2252 
G01 X2.8446 Y64.0824 
G01 X3.1084 Y63.9732 
G01 X3.3842 Y63.8993 
G01 X3.6672 Y63.8620 
G01 X3.9528 Y63.8620 
G01 X4.2358 Y63.8993 
G01 X4.5116 Y63.9732 
G01 X4.7754 Y64.0824 
G01 X5.0226 Y64.2252 
G01 X5.2491 Y64.3990 
G01 X5.4510 Y64.6009 
G01 X5.6248 Y64.8274 
G01 X5.7676 Y65.0746 
G01 X5.8768 Y65.3384 
G01 X5.9507 Y65.6142 
G01 X5.9880 Y65.8972 
G00 Z2.0000 
G00 X41.4720 Y4.2361 
G01 Z-0.1000 F254.00 
G01 X41.4720 Y5.9239 F508.00 
G01 X41.4400 Y6.0847 
G01 X41.3773 Y6.2361 
G01 X41.2863 Y6.3724 
G01 X41.1704 Y6.4883 
G01 X41.0341 Y6.5793 
G01 X40.8827 Y6.6420 
G01 X40.7219 Y6.6740 
G01 X40.5581 Y6.6740 
G01 X40.3973 Y6.6420 
G01 X40.2459 Y6.5793 
G01 X40.1096 Y6.4883 
G01 X39.9937 Y6.3724 
G01 X39.9027 Y6.2361 
G01 X39.8799 Y6.1812 
G01 X24.4365 Y21.6246 
G01 X24.3746 Y21.6865 
G01 X24.2938 Y21.7200 
G01 X14.9700 Y21.7200 
G01 X14.9700 Y23.2938 
G01 X14.9365 Y23.3746 
G01 X13.9211 Y24.3900 
G01 X14.3139 Y24.3900 
G01 X14.3397 Y24.4007 
G01 X14.3593 Y24.4203 
G01 X14.3700 Y24.4461 
G01 X14.3700 Y26.2539 
G01 X14.3593 Y26.2797 
G01 X14.3397 Y26.2993 
G01 X14.3139 Y26.3100 
G01 X12.7200 Y26.3100 
G01 X12.7200 Y42.2800 
G01 X36.5438 Y42.2800 
G01 X36.6246 Y42.3135 
G01 X36.6865 Y42.3754 
G01 X36.7200 Y42.4562 
G01 X36.7200 Y53.4089 
G01 X39.7296 Y56.4185 
G01 X39.7771 Y56.3988 
G01 X39.9281 Y56.3688 
G01 X40.0819 Y56.3688 
G01 X40.2329 Y56.3988 
G01 X40.3750 Y56.4577 
G01 X40.5030 Y56.5432 
G01 X40.6118 Y56.6520 
G01 X40.6973 Y56.7800 
G01 X40.7562 Y56.9221 
G01 X40.7862 Y57.0731 
G01 X40.7862 Y57.2269 
G01 X40.7562 Y57.3779 
G01 X40.6973 Y57.5200 
G01 X40.6118 Y57.6480 
G01 X40.5030 Y57.7568 
G01 X40.3750 Y57.8423 
G01 X40.2329 Y57.9012 
G01 X40.0819 Y57.9312 
G01 X39.9281 Y57.9312 
G01 X39.7771 Y57.9012 
G01 X39.6350 Y57.8423 
G01 X39.5070 Y57.7568 
G01 X39.3982 Y57.6480 
G01 X39.3127 Y57.5200 
G01 X39.2538 Y57.3779 
G01 X39.2238 Y57.2269 
G01 X39.2238 Y57.0731 
G01 X39.2538 Y56.9221 
G01 X39.3127 Y56.7800 
G01 X39.3752 Y56.6864 
G01 X36.3135 Y53.6246 
G01 X36.2800 Y53.5438 
G01 X36.2800 Y42.7200 
G01 X13.0150 Y42.7200 
G01 X13.0150 Y43.9289 
G01 X13.0043 Y43.9547 
G01 X12.9847 Y43.9743 
G01 X12.9589 Y43.9850 
G01 X11.6611 Y43.9850 
G01 X11.6353 Y43.9743 
G01 X11.6157 Y43.9547 
G01 X11.6050 Y43.9289 
G01 X11.6050 Y42.4311 
G01 X11.6157 Y42.4053 
G01 X11.6353 Y42.3857 
G01 X11.6611 Y42.3750 
G01 X12.2800 Y42.3750 
G01 X12.2800 Y26.3100 
G01 X11.0861 Y26.3100 
G01 X11.0603 Y26.2993 
G01 X11.0407 Y26.2797 
G01 X11.0300 Y26.2539 
G01 X11.0300 Y24.4461 
G01 X11.0407 Y24.4203 
G01 X11.0603 Y24.4007 
G01 X11.0861 Y24.3900 
G01 X13.2989 Y24.3900 
G01 X14.5300 Y23.1589 
G01 X14.5300 Y21.4562 
G01 X14.5635 Y21.3754 
G01 X14.6254 Y21.3135 
G01 X14.7062 Y21.2800 
G01 X24.1589 Y21.2800 
G01 X39.8080 Y5.6309 
G01 X39.8080 Y4.2361 
G01 X39.8400 Y4.0753 
G01 X39.9027 Y3.9239 
G01 X39.9937 Y3.7876 
G01 X40.1096 Y3.6717 
G01 X40.2459 Y3.5807 
G01 X40.3973 Y3.5180 
G01 X40.5581 Y3.4860 
G01 X40.7219 Y3.4860 
G01 X40.8827 Y3.5180 
G01 X41.0341 Y3.5807 
G01 X41.1704 Y3.6717 
G01 X41.2863 Y3.7876 
G01 X41.3773 Y3.9239 
G01 X41.4400 Y4.0753 
G01 X41.4720 Y4.2361 
G00 Z2.0000 
G00 X44.0120 Y4.2361 
G01 Z-0.1000 F254.00 
G01 X44.0120 Y5.9239 F508.00 
G01 X43.9800 Y6.0847 
G01 X43.9173 Y6.2361 
G01 X43.8263 Y6.3724 
G01 X43.7104 Y6.4883 
G01 X43.5741 Y6.5793 
G01 X43.4700 Y6.6224 
G01 X43.4700 Y24.0691 
G01 X43.5260 Y24.0923 
G01 X43.6456 Y24.1723 
G01 X43.7473 Y24.2740 
G01 X43.8273 Y24.3936 
G01 X43.8823 Y24.5265 
G01 X43.9104 Y24.6677 
G01 X43.9104 Y26.1323 
G01 X43.8823 Y26.2735 
G01 X43.8273 Y26.4064 
G01 X43.7473 Y26.5260 
G01 X43.6456 Y26.6277 
G01 X43.5260 Y26.7077 
G01 X43.3931 Y26.7627 
G01 X43.2519 Y26.7908 
G01 X43.1081 Y26.7908 
G01 X42.9669 Y26.7627 
G01 X42.8340 Y26.7077 
G01 X42.7144 Y26.6277 
G01 X42.6127 Y26.5260 
G01 X42.5327 Y26.4064 
G01 X42.4777 Y26.2735 
G01 X42.4496 Y26.1323 
G01 X42.4496 Y24.6677 
G01 X42.4777 Y24.5265 
G01 X42.5327 Y24.3936 
G01 X42.6127 Y24.2740 
G01 X42.7144 Y24.1723 
G01 X42.8340 Y24.0923 
G01 X42.9669 Y24.0373 
G01 X43.0300 Y24.0247 
G01 X43.0300 Y6.6605 
G01 X42.9373 Y6.6420 
G01 X42.7859 Y6.5793 
G01 X42.6496 Y6.4883 
G01 X42.5337 Y6.3724 
G01 X42.4427 Y6.2361 
G01 X42.3800 Y6.0847 
G01 X42.3480 Y5.9239 
G01 X42.3480 Y4.2361 
G01 X42.3800 Y4.0753 
G01 X42.4427 Y3.9239 
G01 X42.5337 Y3.7876 
G01 X42.6496 Y3.6717 
G01 X42.7859 Y3.5807 
G01 X42.9373 Y3.5180 
G01 X43.0981 Y3.4860 
G01 X43.2619 Y3.4860 
G01 X43.4227 Y3.5180 
G01 X43.5741 Y3.5807 
G01 X43.7104 Y3.6717 
G01 X43.8263 Y3.7876 
G01 X43.9173 Y3.9239 
G01 X43.9800 Y4.0753 
G01 X44.0120 Y4.2361 
G00 Z2.0000 
G00 X49.0920 Y4.2361 
G01 Z-0.1000 F254.00 
G01 X49.0920 Y5.9239 F508.00 
G01 X49.0600 Y6.0847 
G01 X48.9973 Y6.2361 
G01 X48.9063 Y6.3724 
G01 X48.7904 Y6.4883 
G01 X48.6541 Y6.5793 
G01 X48.5027 Y6.6420 
G01 X48.4700 Y6.6485 
G01 X48.4700 Y24.0367 
G01 X48.4731 Y24.0373 
G01 X48.6060 Y24.0923 
G01 X48.7256 Y24.1723 
G01 X48.8273 Y24.2740 
G01 X48.9073 Y24.3936 
G01 X48.9623 Y24.5265 
G01 X48.9904 Y24.6677 
G01 X48.9904 Y26.1323 
G01 X48.9623 Y26.2735 
G01 X48.9073 Y26.4064 
G01 X48.8273 Y26.5260 
G01 X48.7256 Y26.6277 
G01 X48.6060 Y26.7077 
G01 X48.4731 Y26.7627 
G01 X48.4700 Y26.7633 
G01 X48.4700 Y30.5438 
G01 X48.4365 Y30.6246 
G01 X48.3746 Y30.6865 
G01 X46.4504 Y32.6107 
G01 X46.4504 Y33.7523 
G01 X46.4223 Y33.8935 
G01 X46.3673 Y34.0264 
G01 X46.2873 Y34.1460 
G01 X46.1856 Y34.2477 
G01 X46.0660 Y34.3277 
G01 X45.9700 Y34.3674 
G01 X45.9700 Y50.2800 
G01 X47.5900 Y50.2800 
G01 X47.5900 Y50.0161 
G01 X47.6007 Y49.9903 
G01 X47.6203 Y49.9707 
G01 X47.6461 Y49.9600 
G01 X48.8739 Y49.9600 
G01 X48.8997 Y49.9707 
G01 X48.9193 Y49.9903 
G01 X48.9300 Y50.0161 
G01 X48.9300 Y50.6189 
G01 X55.7800 Y57.4689 
G01 X55.7800 Y57.2062 
G01 X55.8135 Y57.1254 
G01 X56.4800 Y56.4589 
G01 X56.4800 Y55.8361 
G01 X56.4907 Y55.8103 
G01 X56.5103 Y55.7907 
G01 X56.5361 Y55.7800 
G01 X57.0300 Y55.7800 
G01 X57.0300 Y52.9401 
G01 X56.7896 Y52.9401 
G01 X56.2799 Y52.4304 
G01 X56.2799 Y51.7096 
G01 X56.7896 Y51.1999 
G01 X57.5104 Y51.1999 
G01 X58.0201 Y51.7096 
G01 X58.0201 Y52.4304 
G01 X57.5104 Y52.9401 
G01 X57.4700 Y52.9401 
G01 X57.4700 Y55.7800 
G01 X57.7639 Y55.7800 
G01 X57.7897 Y55.7907 
G01 X57.8093 Y55.8103 
G01 X57.8200 Y55.8361 
G01 X57.8200 Y56.6639 
G01 X57.8093 Y56.6897 
G01 X57.7897 Y56.7093 
G01 X57.7639 Y56.7200 
G01 X57.4700 Y56.7200 
G01 X57.4700 Y57.0300 
G01 X62.9089 Y57.0300 
G01 X63.0300 Y56.9089 
G01 X63.0300 Y56.2062 
G01 X63.0635 Y56.1254 
G01 X63.1254 Y56.0635 
G01 X63.2062 Y56.0300 
G01 X66.7100 Y56.0300 
G01 X66.7100 Y55.6861 
G01 X66.7207 Y55.6603 
G01 X66.7403 Y55.6407 
G01 X66.7661 Y55.6300 
G01 X68.1939 Y55.6300 
G01 X68.2197 Y55.6407 
G01 X68.2393 Y55.6603 
G01 X68.2500 Y55.6861 
G01 X68.2500 Y56.7139 
G01 X68.2393 Y56.7397 
G01 X68.2197 Y56.7593 
G01 X68.1939 Y56.7700 
G01 X66.7661 Y56.7700 
G01 X66.7403 Y56.7593 
G01 X66.7207 Y56.7397 
G01 X66.7100 Y56.7139 
G01 X66.7100 Y56.4700 
G01 X63.4700 Y56.4700 
G01 X63.4700 Y57.0438 
G01 X63.4365 Y57.1246 
G01 X63.1865 Y57.3746 
G01 X63.1246 Y57.4365 
G01 X63.0438 Y57.4700 
G01 X57.2062 Y57.4700 
G01 X57.1254 Y57.4365 
G01 X57.0635 Y57.3746 
G01 X57.0300 Y57.2938 
G01 X57.0300 Y56.7200 
G01 X56.8411 Y56.7200 
G01 X56.2200 Y57.3411 
G01 X56.2200 Y62.2938 
G01 X56.1865 Y62.3746 
G01 X56.1246 Y62.4365 
G01 X55.7190 Y62.8421 
G01 X55.7190 Y64.1377 
G01 X55.6883 Y64.2921 
G01 X55.6281 Y64.4375 
G01 X55.5406 Y64.5683 
G01 X55.4293 Y64.6796 
G01 X55.2985 Y64.7671 
G01 X55.1531 Y64.8273 
G01 X54.9987 Y64.8580 
G01 X54.8413 Y64.8580 
G01 X54.6869 Y64.8273 
G01 X54.5415 Y64.7671 
G01 X54.4107 Y64.6796 
G01 X54.2994 Y64.5683 
G01 X54.2119 Y64.4375 
G01 X54.1517 Y64.2921 
G01 X54.1210 Y64.1377 
G01 X54.1210 Y62.5223 
G01 X54.1517 Y62.3679 
G01 X54.2119 Y62.2225 
G01 X54.2994 Y62.0917 
G01 X54.4107 Y61.9804 
G01 X54.5415 Y61.8929 
G01 X54.6869 Y61.8327 
G01 X54.8413 Y61.8020 
G01 X54.9987 Y61.8020 
G01 X55.1531 Y61.8327 
G01 X55.2985 Y61.8929 
G01 X55.4293 Y61.9804 
G01 X55.5406 Y62.0917 
G01 X55.6281 Y62.2225 
G01 X55.6539 Y62.2850 
G01 X55.7800 Y62.1589 
G01 X55.7800 Y58.0911 
G01 X48.5889 Y50.9000 
G01 X47.6461 Y50.9000 
G01 X47.6203 Y50.8893 
G01 X47.6007 Y50.8697 
G01 X47.5900 Y50.8439 
G01 X47.5900 Y50.7200 
G01 X45.1200 Y50.7200 
G01 X45.1200 Y50.8439 
G01 X45.1093 Y50.8697 
G01 X45.0896 Y50.8893 
G01 X45.0639 Y50.9000 
G01 X43.8361 Y50.9000 
G01 X43.8103 Y50.8893 
G01 X43.7907 Y50.8697 
G01 X43.7800 Y50.8439 
G01 X43.7800 Y50.7200 
G01 X41.4700 Y50.7200 
G01 X41.4700 Y58.9323 
G01 X41.5029 Y58.9388 
G01 X41.6450 Y58.9977 
G01 X41.7730 Y59.0832 
G01 X41.8818 Y59.1920 
G01 X41.9673 Y59.3200 
G01 X42.0262 Y59.4621 
G01 X42.0562 Y59.6131 
G01 X42.0562 Y59.7669 
G01 X42.0262 Y59.9179 
G01 X41.9673 Y60.0600 
G01 X41.8818 Y60.1880 
G01 X41.7730 Y60.2968 
G01 X41.6450 Y60.3823 
G01 X41.5029 Y60.4412 
G01 X41.3519 Y60.4712 
G01 X41.1981 Y60.4712 
G01 X41.0471 Y60.4412 
G01 X40.9050 Y60.3823 
G01 X40.7770 Y60.2968 
G01 X40.6682 Y60.1880 
G01 X40.5827 Y60.0600 
G01 X40.5238 Y59.9179 
G01 X40.4938 Y59.7669 
G01 X40.4938 Y59.6131 
G01 X40.5238 Y59.4621 
G01 X40.5827 Y59.3200 
G01 X40.6682 Y59.1920 
G01 X40.7770 Y59.0832 
G01 X40.9050 Y58.9977 
G01 X41.0300 Y58.9459 
G01 X41.0300 Y50.9000 
G01 X40.0261 Y50.9000 
G01 X40.0003 Y50.8893 
G01 X39.9807 Y50.8697 
G01 X39.9700 Y50.8439 
G01 X39.9700 Y50.0161 
G01 X39.9807 Y49.9903 
G01 X40.0003 Y49.9707 
G01 X40.0261 Y49.9600 
G01 X41.2539 Y49.9600 
G01 X41.2797 Y49.9707 
G01 X41.2993 Y49.9903 
G01 X41.3100 Y50.0161 
G01 X41.3100 Y50.2800 
G01 X43.7800 Y50.2800 
G01 X43.7800 Y50.0161 
G01 X43.7907 Y49.9903 
G01 X43.8103 Y49.9707 
G01 X43.8361 Y49.9600 
G01 X45.0639 Y49.9600 
G01 X45.0896 Y49.9707 
G01 X45.1093 Y49.9903 
G01 X45.1200 Y50.0161 
G01 X45.1200 Y50.2800 
G01 X45.5300 Y50.2800 
G01 X45.5300 Y34.3873 
G01 X45.5069 Y34.3827 
G01 X45.3740 Y34.3277 
G01 X45.2544 Y34.2477 
G01 X45.1527 Y34.1460 
G01 X45.0727 Y34.0264 
G01 X45.0177 Y33.8935 
G01 X44.9896 Y33.7523 
G01 X44.9896 Y32.2877 
G01 X45.0177 Y32.1465 
G01 X45.0727 Y32.0136 
G01 X45.1527 Y31.8940 
G01 X45.2544 Y31.7923 
G01 X45.3740 Y31.7123 
G01 X45.5069 Y31.6573 
G01 X45.6481 Y31.6292 
G01 X45.7919 Y31.6292 
G01 X45.9331 Y31.6573 
G01 X46.0660 Y31.7123 
G01 X46.1856 Y31.7923 
G01 X46.2873 Y31.8940 
G01 X46.3673 Y32.0136 
G01 X46.3843 Y32.0546 
G01 X48.0300 Y30.4089 
G01 X48.0300 Y26.7557 
G01 X47.9140 Y26.7077 
G01 X47.7944 Y26.6277 
G01 X47.6927 Y26.5260 
G01 X47.6127 Y26.4064 
G01 X47.5577 Y26.2735 
G01 X47.5296 Y26.1323 
G01 X47.5296 Y24.6677 
G01 X47.5577 Y24.5265 
G01 X47.6127 Y24.3936 
G01 X47.6927 Y24.2740 
G01 X47.7944 Y24.1723 
G01 X47.9140 Y24.0923 
G01 X48.0300 Y24.0443 
G01 X48.0300 Y6.6445 
G01 X48.0173 Y6.6420 
G01 X47.8659 Y6.5793 
G01 X47.7296 Y6.4883 
G01 X47.6137 Y6.3724 
G01 X47.5227 Y6.2361 
G01 X47.4600 Y6.0847 
G01 X47.4280 Y5.9239 
G01 X47.4280 Y5.4700 
G01 X46.5520 Y5.4700 
G01 X46.5520 Y5.9239 
G01 X46.5200 Y6.0847 
G01 X46.4573 Y6.2361 
G01 X46.3663 Y6.3724 
G01 X46.2504 Y6.4883 
G01 X46.1141 Y6.5793 
G01 X45.9627 Y6.6420 
G01 X45.8019 Y6.6740 
G01 X45.6381 Y6.6740 
G01 X45.4773 Y6.6420 
G01 X45.3259 Y6.5793 
G01 X45.1896 Y6.4883 
G01 X45.0737 Y6.3724 
G01 X44.9827 Y6.2361 
G01 X44.9200 Y6.0847 
G01 X44.8880 Y5.9239 
G01 X44.8880 Y4.2361 
G01 X44.9200 Y4.0753 
G01 X44.9827 Y3.9239 
G01 X45.0737 Y3.7876 
G01 X45.1896 Y3.6717 
G01 X45.3259 Y3.5807 
G01 X45.4773 Y3.5180 
G01 X45.6381 Y3.4860 
G01 X45.8019 Y3.4860 
G01 X45.9627 Y3.5180 
G01 X46.1141 Y3.5807 
G01 X46.2504 Y3.6717 
G01 X46.3663 Y3.7876 
G01 X46.4573 Y3.9239 
G01 X46.5200 Y4.0753 
G01 X46.5520 Y4.2361 
G01 X46.5520 Y5.0300 
G01 X47.4280 Y5.0300 
G01 X47.4280 Y4.2361 
G01 X47.4600 Y4.0753 
G01 X47.5227 Y3.9239 
G01 X47.6137 Y3.7876 
G01 X47.7296 Y3.6717 
G01 X47.8659 Y3.5807 
G01 X48.0173 Y3.5180 
G01 X48.1781 Y3.4860 
G01 X48.3419 Y3.4860 
G01 X48.5027 Y3.5180 
G01 X48.6541 Y3.5807 
G01 X48.7904 Y3.6717 
G01 X48.9063 Y3.7876 
G01 X48.9973 Y3.9239 
G01 X49.0600 Y4.0753 
G01 X49.0920 Y4.2361 
G00 Z2.0000 
G00 X19.4761 Y37.2680 
G01 Z-0.1000 F254.00 
G01 X21.1639 Y37.2680 F508.00 
G01 X21.3247 Y37.3000 
G01 X21.4761 Y37.3627 
G01 X21.6124 Y37.4537 
G01 X21.7283 Y37.5696 
G01 X21.8193 Y37.7059 
G01 X21.8820 Y37.8573 
G01 X21.9140 Y38.0181 
G01 X21.9140 Y38.1819 
G01 X21.8820 Y38.3427 
G01 X21.8193 Y38.4941 
G01 X21.7283 Y38.6304 
G01 X21.6124 Y38.7463 
G01 X21.4761 Y38.8373 
G01 X21.3247 Y38.9000 
G01 X21.1639 Y38.9320 
G01 X19.4761 Y38.9320 
G01 X19.3153 Y38.9000 
G01 X19.1639 Y38.8373 
G01 X19.0276 Y38.7463 
G01 X18.9117 Y38.6304 
G01 X18.8207 Y38.4941 
G01 X18.7580 Y38.3427 
G01 X18.7260 Y38.1819 
G01 X18.7260 Y38.0181 
G01 X18.7580 Y37.8573 
G01 X18.8207 Y37.7059 
G01 X18.9117 Y37.5696 
G01 X19.0276 Y37.4537 
G01 X19.1639 Y37.3627 
G01 X19.3153 Y37.3000 
G01 X19.4761 Y37.2680 
G00 Z2.0000 
G00 X19.4761 Y34.7280 
G01 Z-0.1000 F254.00 
G01 X21.1639 Y34.7280 F508.00 
G01 X21.3247 Y34.7600 
G01 X21.4761 Y34.8227 
G01 X21.6124 Y34.9137 
G01 X21.7283 Y35.0296 
G01 X21.8193 Y35.1659 
G01 X21.8820 Y35.3173 
G01 X21.9140 Y35.4781 
G01 X21.9140 Y35.6419 
G01 X21.8820 Y35.8027 
G01 X21.8193 Y35.9541 
G01 X21.7283 Y36.0904 
G01 X21.6124 Y36.2063 
G01 X21.4761 Y36.2973 
G01 X21.3247 Y36.3600 
G01 X21.1639 Y36.3920 
G01 X19.4761 Y36.3920 
G01 X19.3153 Y36.3600 
G01 X19.1639 Y36.2973 
G01 X19.0276 Y36.2063 
G01 X18.9117 Y36.0904 
G01 X18.8207 Y35.9541 
G01 X18.7580 Y35.8027 
G01 X18.7260 Y35.6419 
G01 X18.7260 Y35.4781 
G01 X18.7580 Y35.3173 
G01 X18.8207 Y35.1659 
G01 X18.9117 Y35.0296 
G01 X19.0276 Y34.9137 
G01 X19.1639 Y34.8227 
G01 X19.3153 Y34.7600 
G01 X19.4761 Y34.7280 
G00 Z2.0000 
G00 X19.4761 Y32.1880 
G01 Z-0.1000 F254.00 
G01 X21.1639 Y32.1880 F508.00 
G01 X21.3247 Y32.2200 
G01 X21.4761 Y32.2827 
G01 X21.6124 Y32.3737 
G01 X21.7283 Y32.4896 
G01 X21.8193 Y32.6259 
G01 X21.8820 Y32.7773 
G01 X21.8826 Y32.7800 
G01 X29.7496 Y32.7800 
G01 X29.7496 Y32.2877 
G01 X29.7777 Y32.1465 
G01 X29.8327 Y32.0136 
G01 X29.9127 Y31.8940 
G01 X30.0144 Y31.7923 
G01 X30.1340 Y31.7123 
G01 X30.2669 Y31.6573 
G01 X30.4081 Y31.6292 
G01 X30.5519 Y31.6292 
G01 X30.6931 Y31.6573 
G01 X30.8260 Y31.7123 
G01 X30.9456 Y31.7923 
G01 X31.0473 Y31.8940 
G01 X31.1273 Y32.0136 
G01 X31.1823 Y32.1465 
G01 X31.2104 Y32.2877 
G01 X31.2104 Y33.7523 
G01 X31.1823 Y33.8935 
G01 X31.1273 Y34.0264 
G01 X31.0473 Y34.1460 
G01 X30.9456 Y34.2477 
G01 X30.8260 Y34.3277 
G01 X30.6931 Y34.3827 
G01 X30.5519 Y34.4108 
G01 X30.4081 Y34.4108 
G01 X30.2669 Y34.3827 
G01 X30.1340 Y34.3277 
G01 X30.0144 Y34.2477 
G01 X29.9127 Y34.1460 
G01 X29.8327 Y34.0264 
G01 X29.7777 Y33.8935 
G01 X29.7496 Y33.7523 
G01 X29.7496 Y33.2200 
G01 X21.8905 Y33.2200 
G01 X21.8820 Y33.2627 
G01 X21.8193 Y33.4141 
G01 X21.7283 Y33.5504 
G01 X21.6124 Y33.6663 
G01 X21.4761 Y33.7573 
G01 X21.3247 Y33.8200 
G01 X21.1639 Y33.8520 
G01 X19.4761 Y33.8520 
G01 X19.3153 Y33.8200 
G01 X19.1639 Y33.7573 
G01 X19.0276 Y33.6663 
G01 X18.9117 Y33.5504 
G01 X18.8207 Y33.4141 
G01 X18.7580 Y33.2627 
G01 X18.7260 Y33.1019 
G01 X18.7260 Y32.9381 
G01 X18.7580 Y32.7773 
G01 X18.8207 Y32.6259 
G01 X18.9117 Y32.4896 
G01 X19.0276 Y32.3737 
G01 X19.1639 Y32.2827 
G01 X19.3153 Y32.2200 
G01 X19.4761 Y32.1880 
G00 Z2.0000 
G00 X19.4761 Y27.1080 
G01 Z-0.1000 F254.00 
G01 X21.1639 Y27.1080 F508.00 
G01 X21.3247 Y27.1400 
G01 X21.4761 Y27.2027 
G01 X21.6124 Y27.2937 
G01 X21.7283 Y27.4096 
G01 X21.8193 Y27.5459 
G01 X21.8820 Y27.6973 
G01 X21.9140 Y27.8581 
G01 X21.9140 Y28.0219 
G01 X21.8820 Y28.1827 
G01 X21.8193 Y28.3341 
G01 X21.7283 Y28.4704 
G01 X21.6124 Y28.5863 
G01 X21.4761 Y28.6773 
G01 X21.3247 Y28.7400 
G01 X21.1639 Y28.7720 
G01 X19.4761 Y28.7720 
G01 X19.3153 Y28.7400 
G01 X19.1639 Y28.6773 
G01 X19.0276 Y28.5863 
G01 X18.9117 Y28.4704 
G01 X18.8207 Y28.3341 
G01 X18.7580 Y28.1827 
G01 X18.7260 Y28.0219 
G01 X18.7260 Y27.8581 
G01 X18.7580 Y27.6973 
G01 X18.8207 Y27.5459 
G01 X18.9117 Y27.4096 
G01 X19.0276 Y27.2937 
G01 X19.1639 Y27.2027 
G01 X19.3153 Y27.1400 
G01 X19.4761 Y27.1080 
G00 Z2.0000 
G00 X19.4761 Y24.5680 
G01 Z-0.1000 F254.00 
G01 X21.1639 Y24.5680 F508.00 
G01 X21.3247 Y24.6000 
G01 X21.4761 Y24.6627 
G01 X21.6124 Y24.7537 
G01 X21.7283 Y24.8696 
G01 X21.8193 Y25.0059 
G01 X21.8820 Y25.1573 
G01 X21.9140 Y25.3181 
G01 X21.9140 Y25.4819 
G01 X21.8820 Y25.6427 
G01 X21.8193 Y25.7941 
G01 X21.7283 Y25.9304 
G01 X21.6124 Y26.0463 
G01 X21.4761 Y26.1373 
G01 X21.3247 Y26.2000 
G01 X21.1639 Y26.2320 
G01 X19.4761 Y26.2320 
G01 X19.3153 Y26.2000 
G01 X19.1639 Y26.1373 
G01 X19.0276 Y26.0463 
G01 X18.9117 Y25.9304 
G01 X18.8207 Y25.7941 
G01 X18.7580 Y25.6427 
G01 X18.7260 Y25.4819 
G01 X18.7260 Y25.3181 
G01 X18.7580 Y25.1573 
G01 X18.8207 Y25.0059 
G01 X18.9117 Y24.8696 
G01 X19.0276 Y24.7537 
G01 X19.1639 Y24.6627 
G01 X19.3153 Y24.6000 
G01 X19.4761 Y24.5680 
G00 Z2.0000 
G00 X19.4761 Y22.0280 
G01 Z-0.1000 F254.00 
G01 X21.1639 Y22.0280 F508.00 
G01 X21.3247 Y22.0600 
G01 X21.4761 Y22.1227 
G01 X21.6124 Y22.2137 
G01 X21.7283 Y22.3296 
G01 X21.8193 Y22.4659 
G01 X21.8820 Y22.6173 
G01 X21.9140 Y22.7781 
G01 X21.9140 Y22.9419 
G01 X21.8820 Y23.1027 
G01 X21.8193 Y23.2541 
G01 X21.7283 Y23.3904 
G01 X21.6124 Y23.5063 
G01 X21.4761 Y23.5973 
G01 X21.3247 Y23.6600 
G01 X21.1639 Y23.6920 
G01 X19.4761 Y23.6920 
G01 X19.3153 Y23.6600 
G01 X19.1639 Y23.5973 
G01 X19.0276 Y23.5063 
G01 X18.9117 Y23.3904 
G01 X18.8207 Y23.2541 
G01 X18.7580 Y23.1027 
G01 X18.7260 Y22.9419 
G01 X18.7260 Y22.7781 
G01 X18.7580 Y22.6173 
G01 X18.8207 Y22.4659 
G01 X18.9117 Y22.3296 
G01 X19.0276 Y22.2137 
G01 X19.1639 Y22.1227 
G01 X19.3153 Y22.0600 
G01 X19.4761 Y22.0280 
G00 Z2.0000 
G00 X19.4761 Y19.4880 
G01 Z-0.1000 F254.00 
G01 X21.1639 Y19.4880 F508.00 
G01 X21.3247 Y19.5200 
G01 X21.4761 Y19.5827 
G01 X21.6124 Y19.6737 
G01 X21.7283 Y19.7896 
G01 X21.8193 Y19.9259 
G01 X21.8820 Y20.0773 
G01 X21.9140 Y20.2381 
G01 X21.9140 Y20.4019 
G01 X21.8820 Y20.5627 
G01 X21.8193 Y20.7141 
G01 X21.7283 Y20.8504 
G01 X21.6124 Y20.9663 
G01 X21.4761 Y21.0573 
G01 X21.3247 Y21.1200 
G01 X21.1639 Y21.1520 
G01 X19.4761 Y21.1520 
G01 X19.3153 Y21.1200 
G01 X19.1639 Y21.0573 
G01 X19.0276 Y20.9663 
G01 X18.9117 Y20.8504 
G01 X18.8207 Y20.7141 
G01 X18.7580 Y20.5627 
G01 X18.7260 Y20.4019 
G01 X18.7260 Y20.2381 
G01 X18.7580 Y20.0773 
G01 X18.8207 Y19.9259 
G01 X18.9117 Y19.7896 
G01 X19.0276 Y19.6737 
G01 X19.1639 Y19.5827 
G01 X19.3153 Y19.5200 
G01 X19.4761 Y19.4880 
G00 Z2.0000 
G00 X73.2339 Y36.3920 
G01 Z-0.1000 F254.00 
G01 X71.5461 Y36.3920 F508.00 
G01 X71.3853 Y36.3600 
G01 X71.2339 Y36.2973 
G01 X71.0976 Y36.2063 
G01 X70.9817 Y36.0904 
G01 X70.8907 Y35.9541 
G01 X70.8280 Y35.8027 
G01 X70.7960 Y35.6419 
G01 X70.7960 Y35.4781 
G01 X70.8280 Y35.3173 
G01 X70.8907 Y35.1659 
G01 X70.9817 Y35.0296 
G01 X71.0976 Y34.9137 
G01 X71.2339 Y34.8227 
G01 X71.3853 Y34.7600 
G01 X71.5461 Y34.7280 
G01 X73.2339 Y34.7280 
G01 X73.3947 Y34.7600 
G01 X73.5461 Y34.8227 
G01 X73.6824 Y34.9137 
G01 X73.7983 Y35.0296 
G01 X73.8893 Y35.1659 
G01 X73.9520 Y35.3173 
G01 X73.9840 Y35.4781 
G01 X73.9840 Y35.6419 
G01 X73.9520 Y35.8027 
G01 X73.8893 Y35.9541 
G01 X73.7983 Y36.0904 
G01 X73.6824 Y36.2063 
G01 X73.5461 Y36.2973 
G01 X73.3947 Y36.3600 
G01 X73.2339 Y36.3920 
G00 Z2.0000 
G00 X73.2339 Y38.9320 
G01 Z-0.1000 F254.00 
G01 X71.5461 Y38.9320 F508.00 
G01 X71.3853 Y38.9000 
G01 X71.2339 Y38.8373 
G01 X71.0976 Y38.7463 
G01 X70.9817 Y38.6304 
G01 X70.8907 Y38.4941 
G01 X70.8280 Y38.3427 
G01 X70.7960 Y38.1819 
G01 X70.7960 Y38.0181 
G01 X70.8280 Y37.8573 
G01 X70.8907 Y37.7059 
G01 X70.9817 Y37.5696 
G01 X71.0976 Y37.4537 
G01 X71.2339 Y37.3627 
G01 X71.3853 Y37.3000 
G01 X71.5461 Y37.2680 
G01 X73.2339 Y37.2680 
G01 X73.3947 Y37.3000 
G01 X73.5461 Y37.3627 
G01 X73.6824 Y37.4537 
G01 X73.7983 Y37.5696 
G01 X73.8893 Y37.7059 
G01 X73.9520 Y37.8573 
G01 X73.9840 Y38.0181 
G01 X73.9840 Y38.1819 
G01 X73.9520 Y38.3427 
G01 X73.8893 Y38.4941 
G01 X73.7983 Y38.6304 
G01 X73.6824 Y38.7463 
G01 X73.5461 Y38.8373 
G01 X73.3947 Y38.9000 
G01 X73.2339 Y38.9320 
G00 Z2.0000 
G00 X73.2339 Y41.4720 
G01 Z-0.1000 F254.00 
G01 X71.5461 Y41.4720 F508.00 
G01 X71.3853 Y41.4400 
G01 X71.2339 Y41.3773 
G01 X71.0976 Y41.2863 
G01 X70.9817 Y41.1704 
G01 X70.8907 Y41.0341 
G01 X70.8280 Y40.8827 
G01 X70.7960 Y40.7219 
G01 X70.7960 Y40.5581 
G01 X70.8280 Y40.3973 
G01 X70.8907 Y40.2459 
G01 X70.9817 Y40.1096 
G01 X71.0976 Y39.9937 
G01 X71.2339 Y39.9027 
G01 X71.3853 Y39.8400 
G01 X71.5461 Y39.8080 
G01 X73.2339 Y39.8080 
G01 X73.3947 Y39.8400 
G01 X73.5461 Y39.9027 
G01 X73.6824 Y39.9937 
G01 X73.7983 Y40.1096 
G01 X73.8893 Y40.2459 
G01 X73.9520 Y40.3973 
G01 X73.9840 Y40.5581 
G01 X73.9840 Y40.7219 
G01 X73.9520 Y40.8827 
G01 X73.8893 Y41.0341 
G01 X73.7983 Y41.1704 
G01 X73.6824 Y41.2863 
G01 X73.5461 Y41.3773 
G01 X73.3947 Y41.4400 
G01 X73.2339 Y41.4720 
G00 Z2.0000 
G00 X73.2339 Y44.0120 
G01 Z-0.1000 F254.00 
G01 X71.5461 Y44.0120 F508.00 
G01 X71.3853 Y43.9800 
G01 X71.2339 Y43.9173 
G01 X71.0976 Y43.8263 
G01 X70.9817 Y43.7104 
G01 X70.8907 Y43.5741 
G01 X70.8280 Y43.4227 
G01 X70.7960 Y43.2619 
G01 X70.7960 Y43.0981 
G01 X70.8280 Y42.9373 
G01 X70.8907 Y42.7859 
G01 X70.9817 Y42.6496 
G01 X71.0976 Y42.5337 
G01 X71.2339 Y42.4427 
G01 X71.3853 Y42.3800 
G01 X71.5461 Y42.3480 
G01 X73.2339 Y42.3480 
G01 X73.3947 Y42.3800 
G01 X73.5461 Y42.4427 
G01 X73.6824 Y42.5337 
G01 X73.7983 Y42.6496 
G01 X73.8893 Y42.7859 
G01 X73.9520 Y42.9373 
G01 X73.9840 Y43.0981 
G01 X73.9840 Y43.2619 
G01 X73.9520 Y43.4227 
G01 X73.8893 Y43.5741 
G01 X73.7983 Y43.7104 
G01 X73.6824 Y43.8263 
G01 X73.5461 Y43.9173 
G01 X73.3947 Y43.9800 
G01 X73.2339 Y44.0120 
G00 Z2.0000 
G00 X73.2339 Y5.9120 
G01 Z-0.1000 F254.00 
G01 X71.5461 Y5.9120 F508.00 
G01 X71.3853 Y5.8800 
G01 X71.2339 Y5.8173 
G01 X71.0976 Y5.7263 
G01 X70.9817 Y5.6104 
G01 X70.8907 Y5.4741 
G01 X70.8280 Y5.3227 
G01 X70.7960 Y5.1619 
G01 X70.7960 Y4.9981 
G01 X70.8280 Y4.8373 
G01 X70.8907 Y4.6859 
G01 X70.9817 Y4.5496 
G01 X71.0976 Y4.4337 
G01 X71.2339 Y4.3427 
G01 X71.3853 Y4.2800 
G01 X71.5461 Y4.2480 
G01 X73.2339 Y4.2480 
G01 X73.3947 Y4.2800 
G01 X73.5461 Y4.3427 
G01 X73.6824 Y4.4337 
G01 X73.7983 Y4.5496 
G01 X73.8893 Y4.6859 
G01 X73.9520 Y4.8373 
G01 X73.9840 Y4.9981 
G01 X73.9840 Y5.1619 
G01 X73.9520 Y5.3227 
G01 X73.8893 Y5.4741 
G01 X73.7983 Y5.6104 
G01 X73.6824 Y5.7263 
G01 X73.5461 Y5.8173 
G01 X73.3947 Y5.8800 
G01 X73.2339 Y5.9120 
G00 Z2.0000 
G00 X73.2339 Y8.4520 
G01 Z-0.1000 F254.00 
G01 X71.5461 Y8.4520 F508.00 
G01 X71.3853 Y8.4200 
G01 X71.2339 Y8.3573 
G01 X71.0976 Y8.2663 
G01 X70.9817 Y8.1504 
G01 X70.8907 Y8.0141 
G01 X70.8280 Y7.8627 
G01 X70.7960 Y7.7019 
G01 X70.7960 Y7.5381 
G01 X70.8280 Y7.3773 
G01 X70.8907 Y7.2259 
G01 X70.9817 Y7.0896 
G01 X71.0976 Y6.9737 
G01 X71.2339 Y6.8827 
G01 X71.3853 Y6.8200 
G01 X71.5461 Y6.7880 
G01 X73.2339 Y6.7880 
G01 X73.3947 Y6.8200 
G01 X73.5461 Y6.8827 
G01 X73.6824 Y6.9737 
G01 X73.7983 Y7.0896 
G01 X73.8893 Y7.2259 
G01 X73.9520 Y7.3773 
G01 X73.9840 Y7.5381 
G01 X73.9840 Y7.7019 
G01 X73.9520 Y7.8627 
G01 X73.8893 Y8.0141 
G01 X73.7983 Y8.1504 
G01 X73.6824 Y8.2663 
G01 X73.5461 Y8.3573 
G01 X73.3947 Y8.4200 
G01 X73.2339 Y8.4520 
G00 Z2.0000 
G00 X71.5461 Y10.9920 
G01 Z-0.1000 F254.00 
G01 X71.3853 Y10.9600 F508.00 
G01 X71.2339 Y10.8973 
G01 X71.0976 Y10.8063 
G01 X70.9817 Y10.6904 
G01 X70.8907 Y10.5541 
G01 X70.8280 Y10.4027 
G01 X70.7960 Y10.2419 
G01 X70.7960 Y10.0781 
G01 X70.8280 Y9.9173 
G01 X70.8907 Y9.7659 
G01 X70.9817 Y9.6296 
G01 X71.0976 Y9.5137 
G01 X71.2339 Y9.4227 
G01 X71.3853 Y9.3600 
G01 X71.5461 Y9.3280 
G01 X73.2339 Y9.3280 
G01 X73.3947 Y9.3600 
G01 X73.5461 Y9.4227 
G01 X73.6824 Y9.5137 
G01 X73.7983 Y9.6296 
G01 X73.8893 Y9.7659 
G01 X73.9520 Y9.9173 
G01 X73.9840 Y10.0781 
G01 X73.9840 Y10.2419 
G01 X73.9520 Y10.4027 
G01 X73.8893 Y10.5541 
G01 X73.7983 Y10.6904 
G01 X73.6824 Y10.8063 
G01 X73.5461 Y10.8973 
G01 X73.4841 Y10.9230 
G01 X74.6246 Y12.0635 
G01 X74.6865 Y12.1254 
G01 X74.7200 Y12.2062 
G01 X74.7200 Y13.0438 
G01 X74.6865 Y13.1246 
G01 X73.3751 Y14.4361 
G01 X73.3947 Y14.4400 
G01 X73.5461 Y14.5027 
G01 X73.6824 Y14.5937 
G01 X73.7983 Y14.7096 
G01 X73.8893 Y14.8459 
G01 X73.9520 Y14.9973 
G01 X73.9840 Y15.1581 
G01 X73.9840 Y15.3219 
G01 X73.9520 Y15.4827 
G01 X73.8893 Y15.6341 
G01 X73.7983 Y15.7704 
G01 X73.6824 Y15.8863 
G01 X73.5461 Y15.9773 
G01 X73.5407 Y15.9796 
G01 X74.6246 Y17.0635 
G01 X74.6865 Y17.1254 
G01 X74.7200 Y17.2062 
G01 X74.7200 Y22.4089 
G01 X79.4365 Y27.1254 
G01 X79.4700 Y27.2062 
G01 X79.4700 Y50.0438 
G01 X79.4365 Y50.1246 
G01 X79.3746 Y50.1865 
G01 X78.9900 Y50.5711 
G01 X78.9900 Y51.6839 
G01 X78.9793 Y51.7097 
G01 X78.9597 Y51.7293 
G01 X78.9339 Y51.7400 
G01 X77.9061 Y51.7400 
G01 X77.8803 Y51.7293 
G01 X77.8607 Y51.7097 
G01 X77.8500 Y51.6839 
G01 X77.8500 Y50.2561 
G01 X77.8607 Y50.2303 
G01 X77.8803 Y50.2107 
G01 X77.9061 Y50.2000 
G01 X78.7389 Y50.2000 
G01 X79.0300 Y49.9089 
G01 X79.0300 Y27.3411 
G01 X74.3754 Y22.6865 
G01 X74.3135 Y22.6246 
G01 X72.8409 Y21.1520 
G01 X71.5461 Y21.1520 
G01 X71.3853 Y21.1200 
G01 X71.2339 Y21.0573 
G01 X71.0976 Y20.9663 
G01 X70.9817 Y20.8504 
G01 X70.8907 Y20.7141 
G01 X70.8280 Y20.5627 
G01 X70.7960 Y20.4019 
G01 X70.7960 Y20.2381 
G01 X70.8280 Y20.0773 
G01 X70.8907 Y19.9259 
G01 X70.9817 Y19.7896 
G01 X71.0976 Y19.6737 
G01 X71.2339 Y19.5827 
G01 X71.3853 Y19.5200 
G01 X71.5461 Y19.4880 
G01 X73.2339 Y19.4880 
G01 X73.3947 Y19.5200 
G01 X73.5461 Y19.5827 
G01 X73.6824 Y19.6737 
G01 X73.7983 Y19.7896 
G01 X73.8893 Y19.9259 
G01 X73.9520 Y20.0773 
G01 X73.9840 Y20.2381 
G01 X73.9840 Y20.4019 
G01 X73.9520 Y20.5627 
G01 X73.8893 Y20.7141 
G01 X73.7983 Y20.8504 
G01 X73.6824 Y20.9663 
G01 X73.5461 Y21.0573 
G01 X73.4205 Y21.1093 
G01 X74.2800 Y21.9689 
G01 X74.2800 Y17.3411 
G01 X73.0109 Y16.0720 
G01 X71.5461 Y16.0720 
G01 X71.3853 Y16.0400 
G01 X71.2339 Y15.9773 
G01 X71.0976 Y15.8863 
G01 X70.9817 Y15.7704 
G01 X70.8907 Y15.6341 
G01 X70.8280 Y15.4827 
G01 X70.7960 Y15.3219 
G01 X70.7960 Y15.1581 
G01 X70.8280 Y14.9973 
G01 X70.8907 Y14.8459 
G01 X70.9817 Y14.7096 
G01 X71.0976 Y14.5937 
G01 X71.2339 Y14.5027 
G01 X71.3853 Y14.4400 
G01 X71.5461 Y14.4080 
G01 X72.7809 Y14.4080 
G01 X74.2800 Y12.9089 
G01 X74.2800 Y12.3411 
G01 X72.9309 Y10.9920 
G01 X71.5461 Y10.9920 
G00 Z2.0000 
G00 X73.2339 Y18.6120 
G01 Z-0.1000 F254.00 
G01 X71.5461 Y18.6120 F508.00 
G01 X71.3853 Y18.5800 
G01 X71.2339 Y18.5173 
G01 X71.0976 Y18.4263 
G01 X70.9817 Y18.3104 
G01 X70.8907 Y18.1741 
G01 X70.8280 Y18.0227 
G01 X70.7960 Y17.8619 
G01 X70.7960 Y17.6981 
G01 X70.8280 Y17.5373 
G01 X70.8907 Y17.3859 
G01 X70.9817 Y17.2496 
G01 X71.0976 Y17.1337 
G01 X71.2339 Y17.0427 
G01 X71.3853 Y16.9800 
G01 X71.5461 Y16.9480 
G01 X73.2339 Y16.9480 
G01 X73.3947 Y16.9800 
G01 X73.5461 Y17.0427 
G01 X73.6824 Y17.1337 
G01 X73.7983 Y17.2496 
G01 X73.8893 Y17.3859 
G01 X73.9520 Y17.5373 
G01 X73.9840 Y17.6981 
G01 X73.9840 Y17.8619 
G01 X73.9520 Y18.0227 
G01 X73.8893 Y18.1741 
G01 X73.7983 Y18.3104 
G01 X73.6824 Y18.4263 
G01 X73.5461 Y18.5173 
G01 X73.3947 Y18.5800 
G01 X73.2339 Y18.6120 
G00 Z2.0000 
G00 X73.2339 Y23.6920 
G01 Z-0.1000 F254.00 
G01 X71.5461 Y23.6920 F508.00 
G01 X71.3853 Y23.6600 
G01 X71.2339 Y23.5973 
G01 X71.0976 Y23.5063 
G01 X70.9817 Y23.3904 
G01 X70.8907 Y23.2541 
G01 X70.8280 Y23.1027 
G01 X70.7960 Y22.9419 
G01 X70.7960 Y22.7781 
G01 X70.8280 Y22.6173 
G01 X70.8907 Y22.4659 
G01 X70.9817 Y22.3296 
G01 X71.0976 Y22.2137 
G01 X71.2339 Y22.1227 
G01 X71.3853 Y22.0600 
G01 X71.5461 Y22.0280 
G01 X73.2339 Y22.0280 
G01 X73.3947 Y22.0600 
G01 X73.5461 Y22.1227 
G01 X73.6824 Y22.2137 
G01 X73.7983 Y22.3296 
G01 X73.8893 Y22.4659 
G01 X73.9520 Y22.6173 
G01 X73.9840 Y22.7781 
G01 X73.9840 Y22.9419 
G01 X73.9520 Y23.1027 
G01 X73.8893 Y23.2541 
G01 X73.7983 Y23.3904 
G01 X73.6824 Y23.5063 
G01 X73.5461 Y23.5973 
G01 X73.3947 Y23.6600 
G01 X73.2339 Y23.6920 
G00 Z2.0000 
G00 X9.7339 Y9.7220 
G01 Z-0.1000 F254.00 
G01 X8.0461 Y9.7220 F508.00 
G01 X7.8853 Y9.6900 
G01 X7.7339 Y9.6273 
G01 X7.5976 Y9.5363 
G01 X7.4817 Y9.4204 
G01 X7.3907 Y9.2841 
G01 X7.3280 Y9.1327 
G01 X7.2960 Y8.9719 
G01 X7.2960 Y8.8081 
G01 X7.3280 Y8.6473 
G01 X7.3907 Y8.4959 
G01 X7.4817 Y8.3596 
G01 X7.5976 Y8.2437 
G01 X7.7339 Y8.1527 
G01 X7.8853 Y8.0900 
G01 X8.0461 Y8.0580 
G01 X9.7339 Y8.0580 
G01 X9.8947 Y8.0900 
G01 X10.0461 Y8.1527 
G01 X10.1824 Y8.2437 
G01 X10.2983 Y8.3596 
G01 X10.3893 Y8.4959 
G01 X10.4520 Y8.6473 
G01 X10.4840 Y8.8081 
G01 X10.4840 Y8.9719 
G01 X10.4520 Y9.1327 
G01 X10.3893 Y9.2841 
G01 X10.2983 Y9.4204 
G01 X10.1824 Y9.5363 
G01 X10.0461 Y9.6273 
G01 X9.8947 Y9.6900 
G01 X9.7339 Y9.7220 
G00 Z2.0000 
G00 X9.7339 Y12.2620 
G01 Z-0.1000 F254.00 
G01 X8.2991 Y12.2620 F508.00 
G01 X6.9700 Y13.5911 
G01 X6.9700 Y34.9089 
G01 X9.0413 Y36.9802 
G01 X9.1229 Y36.9257 
G01 X9.3067 Y36.8496 
G01 X9.5017 Y36.8108 
G01 X9.7007 Y36.8108 
G01 X9.8957 Y36.8496 
G01 X10.0795 Y36.9257 
G01 X10.2449 Y37.0362 
G01 X10.3856 Y37.1769 
G01 X10.4961 Y37.3423 
G01 X10.5722 Y37.5261 
G01 X10.6110 Y37.7211 
G01 X10.6110 Y37.9201 
G01 X10.5722 Y38.1151 
G01 X10.4961 Y38.2989 
G01 X10.4397 Y38.3832 
G01 X10.4700 Y38.4562 
G01 X10.4700 Y51.1589 
G01 X19.0000 Y59.6889 
G01 X20.3135 Y58.3754 
G01 X20.3754 Y58.3135 
G01 X21.0300 Y57.6589 
G01 X21.0300 Y55.2800 
G01 X20.7561 Y55.2800 
G01 X20.7303 Y55.2693 
G01 X20.7107 Y55.2497 
G01 X20.7000 Y55.2239 
G01 X20.7000 Y53.9961 
G01 X20.7107 Y53.9703 
G01 X20.7303 Y53.9507 
G01 X20.7561 Y53.9400 
G01 X21.0300 Y53.9400 
G01 X21.0300 Y50.3411 
G01 X20.8889 Y50.2000 
G01 X20.2761 Y50.2000 
G01 X20.2503 Y50.1893 
G01 X20.2307 Y50.1697 
G01 X20.2200 Y50.1439 
G01 X20.2200 Y48.9161 
G01 X20.2307 Y48.8903 
G01 X20.2503 Y48.8707 
G01 X20.2761 Y48.8600 
G01 X20.5300 Y48.8600 
G01 X20.5300 Y45.9562 
G01 X20.5635 Y45.8754 
G01 X20.6254 Y45.8135 
G01 X22.0200 Y44.4189 
G01 X22.0200 Y43.8361 
G01 X22.0307 Y43.8103 
G01 X22.0503 Y43.7907 
G01 X22.0761 Y43.7800 
G01 X22.9039 Y43.7800 
G01 X22.9297 Y43.7907 
G01 X22.9493 Y43.8103 
G01 X22.9600 Y43.8361 
G01 X22.9600 Y45.0639 
G01 X22.9493 Y45.0896 
G01 X22.9297 Y45.1093 
G01 X22.9039 Y45.1200 
G01 X22.0761 Y45.1200 
G01 X22.0503 Y45.1093 
G01 X22.0307 Y45.0896 
G01 X22.0200 Y45.0639 
G01 X22.0200 Y45.0411 
G01 X20.9700 Y46.0911 
G01 X20.9700 Y48.8600 
G01 X21.1039 Y48.8600 
G01 X21.1297 Y48.8707 
G01 X21.1493 Y48.8903 
G01 X21.1600 Y48.9161 
G01 X21.1600 Y49.8489 
G01 X21.3746 Y50.0635 
G01 X21.4365 Y50.1254 
G01 X21.4700 Y50.2062 
G01 X21.4700 Y53.9400 
G01 X21.9839 Y53.9400 
G01 X22.0097 Y53.9507 
G01 X22.0293 Y53.9703 
G01 X22.0400 Y53.9961 
G01 X22.0400 Y55.2239 
G01 X22.0293 Y55.2497 
G01 X22.0097 Y55.2693 
G01 X21.9839 Y55.2800 
G01 X21.4700 Y55.2800 
G01 X21.4700 Y57.7938 
G01 X21.4365 Y57.8746 
G01 X21.3746 Y57.9365 
G01 X21.0311 Y58.2800 
G01 X27.0300 Y58.2800 
G01 X27.0300 Y52.7400 
G01 X26.6261 Y52.7400 
G01 X26.6003 Y52.7293 
G01 X26.5807 Y52.7097 
G01 X26.5700 Y52.6839 
G01 X26.5700 Y51.4561 
G01 X26.5807 Y51.4303 
G01 X26.6003 Y51.4107 
G01 X26.6261 Y51.4000 
G01 X27.4539 Y51.4000 
G01 X27.4797 Y51.4107 
G01 X27.4993 Y51.4303 
G01 X27.5100 Y51.4561 
G01 X27.5100 Y52.6839 
G01 X27.4993 Y52.7097 
G01 X27.4797 Y52.7293 
G01 X27.4700 Y52.7333 
G01 X27.4700 Y58.9263 
G01 X27.5329 Y58.9388 
G01 X27.6750 Y58.9977 
G01 X27.8030 Y59.0832 
G01 X27.9118 Y59.1920 
G01 X27.9973 Y59.3200 
G01 X28.0562 Y59.4621 
G01 X28.0862 Y59.6131 
G01 X28.0862 Y59.7669 
G01 X28.0562 Y59.9179 
G01 X27.9973 Y60.0600 
G01 X27.9118 Y60.1880 
G01 X27.8030 Y60.2968 
G01 X27.6750 Y60.3823 
G01 X27.5329 Y60.4412 
G01 X27.3819 Y60.4712 
G01 X27.2281 Y60.4712 
G01 X27.0771 Y60.4412 
G01 X26.9350 Y60.3823 
G01 X26.8070 Y60.2968 
G01 X26.6982 Y60.1880 
G01 X26.6127 Y60.0600 
G01 X26.5538 Y59.9179 
G01 X26.5238 Y59.7669 
G01 X26.5238 Y59.6131 
G01 X26.5538 Y59.4621 
G01 X26.6127 Y59.3200 
G01 X26.6982 Y59.1920 
G01 X26.8070 Y59.0832 
G01 X26.9350 Y58.9977 
G01 X27.0300 Y58.9583 
G01 X27.0300 Y58.7200 
G01 X20.5911 Y58.7200 
G01 X19.1865 Y60.1246 
G01 X15.2311 Y64.0801 
G01 X15.3343 Y64.0964 
G01 X15.5083 Y64.1529 
G01 X15.6713 Y64.2360 
G01 X15.8193 Y64.3435 
G01 X15.9487 Y64.4729 
G01 X16.0562 Y64.6209 
G01 X16.1393 Y64.7839 
G01 X16.1958 Y64.9579 
G01 X16.2244 Y65.1385 
G01 X16.2244 Y65.3215 
G01 X16.1958 Y65.5021 
G01 X16.1393 Y65.6761 
G01 X16.0562 Y65.8391 
G01 X15.9487 Y65.9871 
G01 X15.8193 Y66.1165 
G01 X15.6713 Y66.2240 
G01 X15.5083 Y66.3071 
G01 X15.3343 Y66.3636 
G01 X15.1537 Y66.3922 
G01 X12.7863 Y66.3922 
G01 X12.6057 Y66.3636 
G01 X12.4317 Y66.3071 
G01 X12.2687 Y66.2240 
G01 X12.1207 Y66.1165 
G01 X11.9913 Y65.9871 
G01 X11.8838 Y65.8391 
G01 X11.8007 Y65.6761 
G01 X11.7442 Y65.5021 
G01 X11.7156 Y65.3215 
G01 X11.7156 Y65.1385 
G01 X11.7442 Y64.9579 
G01 X11.8007 Y64.7839 
G01 X11.8838 Y64.6209 
G01 X11.9913 Y64.4729 
G01 X12.1207 Y64.3435 
G01 X12.2687 Y64.2360 
G01 X12.4317 Y64.1529 
G01 X12.6057 Y64.0964 
G01 X12.7863 Y64.0678 
G01 X14.6211 Y64.0678 
G01 X18.6889 Y60.0000 
G01 X10.1254 Y51.4365 
G01 X10.0635 Y51.3746 
G01 X10.0300 Y51.2938 
G01 X10.0300 Y38.7360 
G01 X9.8957 Y38.7916 
G01 X9.7007 Y38.8304 
G01 X9.5017 Y38.8304 
G01 X9.3067 Y38.7916 
G01 X9.1229 Y38.7155 
G01 X8.9575 Y38.6050 
G01 X8.8168 Y38.4643 
G01 X8.7063 Y38.2989 
G01 X8.6302 Y38.1151 
G01 X8.5914 Y37.9201 
G01 X8.5914 Y37.7211 
G01 X8.6302 Y37.5261 
G01 X8.7063 Y37.3423 
G01 X8.7363 Y37.2974 
G01 X6.5635 Y35.1246 
G01 X6.5300 Y35.0438 
G01 X6.5300 Y13.4562 
G01 X6.5635 Y13.3754 
G01 X6.6254 Y13.3135 
G01 X7.7605 Y12.1783 
G01 X7.7339 Y12.1673 
G01 X7.5976 Y12.0763 
G01 X7.4817 Y11.9604 
G01 X7.3907 Y11.8241 
G01 X7.3280 Y11.6727 
G01 X7.2960 Y11.5119 
G01 X7.2960 Y11.3481 
G01 X7.3280 Y11.1873 
G01 X7.3907 Y11.0359 
G01 X7.4817 Y10.8996 
G01 X7.5976 Y10.7837 
G01 X7.7339 Y10.6927 
G01 X7.8853 Y10.6300 
G01 X8.0461 Y10.5980 
G01 X9.7339 Y10.5980 
G01 X9.8947 Y10.6300 
G01 X10.0461 Y10.6927 
G01 X10.1824 Y10.7837 
G01 X10.2983 Y10.8996 
G01 X10.3893 Y11.0359 
G01 X10.4520 Y11.1873 
G01 X10.4840 Y11.3481 
G01 X10.4840 Y11.5119 
G01 X10.4520 Y11.6727 
G01 X10.3893 Y11.8241 
G01 X10.2983 Y11.9604 
G01 X10.1824 Y12.0763 
G01 X10.0461 Y12.1673 
G01 X9.8947 Y12.2300 
G01 X9.7339 Y12.2620 
G00 Z2.0000 
G00 X8.0461 Y14.8020 
G01 Z-0.1000 F254.00 
G01 X7.8853 Y14.7700 F508.00 
G01 X7.7339 Y14.7073 
G01 X7.5976 Y14.6163 
G01 X7.4817 Y14.5004 
G01 X7.3907 Y14.3641 
G01 X7.3280 Y14.2127 
G01 X7.2960 Y14.0519 
G01 X7.2960 Y13.8881 
G01 X7.3280 Y13.7273 
G01 X7.3907 Y13.5759 
G01 X7.4817 Y13.4396 
G01 X7.5976 Y13.3237 
G01 X7.7339 Y13.2327 
G01 X7.8853 Y13.1700 
G01 X8.0461 Y13.1380 
G01 X9.7339 Y13.1380 
G01 X9.8947 Y13.1700 
G01 X10.0461 Y13.2327 
G01 X10.1824 Y13.3237 
G01 X10.2983 Y13.4396 
G01 X10.3893 Y13.5759 
G01 X10.4520 Y13.7273 
G01 X10.4840 Y13.8881 
G01 X10.4840 Y14.0519 
G01 X10.4520 Y14.2127 
G01 X10.3893 Y14.3641 
G01 X10.2983 Y14.5004 
G01 X10.1824 Y14.6163 
G01 X10.0461 Y14.7073 
G01 X10.0265 Y14.7154 
G01 X12.6246 Y17.3135 
G01 X12.6865 Y17.3754 
G01 X12.7200 Y17.4562 
G01 X12.7200 Y19.4100 
G01 X14.3139 Y19.4100 
G01 X14.3397 Y19.4207 
G01 X14.3593 Y19.4403 
G01 X14.3700 Y19.4661 
G01 X14.3700 Y21.2739 
G01 X14.3593 Y21.2996 
G01 X14.3397 Y21.3193 
G01 X14.3139 Y21.3300 
G01 X11.0861 Y21.3300 
G01 X11.0603 Y21.3193 
G01 X11.0407 Y21.2996 
G01 X11.0300 Y21.2739 
G01 X11.0300 Y19.4661 
G01 X11.0407 Y19.4403 
G01 X11.0603 Y19.4207 
G01 X11.0861 Y19.4100 
G01 X12.2800 Y19.4100 
G01 X12.2800 Y17.5911 
G01 X9.4909 Y14.8020 
G01 X8.0461 Y14.8020 
G00 Z2.0000 
G00 X58.2190 Y62.5223 
G01 Z-0.1000 F254.00 
G01 X58.2190 Y64.1377 F508.00 
G01 X58.1883 Y64.2921 
G01 X58.1281 Y64.4375 
G01 X58.0406 Y64.5683 
G01 X57.9293 Y64.6796 
G01 X57.7985 Y64.7671 
G01 X57.6531 Y64.8273 
G01 X57.4987 Y64.8580 
G01 X57.3413 Y64.8580 
G01 X57.1869 Y64.8273 
G01 X57.0415 Y64.7671 
G01 X56.9107 Y64.6796 
G01 X56.7994 Y64.5683 
G01 X56.7119 Y64.4375 
G01 X56.6517 Y64.2921 
G01 X56.6210 Y64.1377 
G01 X56.6210 Y62.5223 
G01 X56.6517 Y62.3679 
G01 X56.7119 Y62.2225 
G01 X56.7994 Y62.0917 
G01 X56.9107 Y61.9804 
G01 X57.0415 Y61.8929 
G01 X57.1869 Y61.8327 
G01 X57.3413 Y61.8020 
G01 X57.4987 Y61.8020 
G01 X57.6531 Y61.8327 
G01 X57.7985 Y61.8929 
G01 X57.9293 Y61.9804 
G01 X58.0406 Y62.0917 
G01 X58.1281 Y62.2225 
G01 X58.1883 Y62.3679 
G01 X58.2190 Y62.5223 
G00 Z2.0000 
G00 X60.2190 Y62.5223 
G01 Z-0.1000 F254.00 
G01 X60.2190 Y64.1377 F508.00 
G01 X60.1883 Y64.2921 
G01 X60.1281 Y64.4375 
G01 X60.0406 Y64.5683 
G01 X59.9293 Y64.6796 
G01 X59.7985 Y64.7671 
G01 X59.6531 Y64.8273 
G01 X59.4987 Y64.8580 
G01 X59.3413 Y64.8580 
G01 X59.1869 Y64.8273 
G01 X59.0415 Y64.7671 
G01 X58.9107 Y64.6796 
G01 X58.7994 Y64.5683 
G01 X58.7119 Y64.4375 
G01 X58.6517 Y64.2921 
G01 X58.6210 Y64.1377 
G01 X58.6210 Y62.5223 
G01 X58.6517 Y62.3679 
G01 X58.7119 Y62.2225 
G01 X58.7994 Y62.0917 
G01 X58.9107 Y61.9804 
G01 X59.0415 Y61.8929 
G01 X59.1869 Y61.8327 
G01 X59.3413 Y61.8020 
G01 X59.4987 Y61.8020 
G01 X59.6531 Y61.8327 
G01 X59.7985 Y61.8929 
G01 X59.9293 Y61.9804 
G01 X60.0406 Y62.0917 
G01 X60.1281 Y62.2225 
G01 X60.1883 Y62.3679 
G01 X60.2190 Y62.5223 
G00 Z2.0000 
G00 X77.0900 Y50.2561 
G01 Z-0.1000 F254.00 
G01 X77.0900 Y51.6839 F508.00 
G01 X77.0793 Y51.7097 
G01 X77.0597 Y51.7293 
G01 X77.0339 Y51.7400 
G01 X76.0061 Y51.7400 
G01 X75.9803 Y51.7293 
G01 X75.9607 Y51.7097 
G01 X75.9500 Y51.6839 
G01 X75.9500 Y50.2561 
G01 X75.9607 Y50.2303 
G01 X75.9803 Y50.2107 
G01 X76.0061 Y50.2000 
G01 X76.2800 Y50.2000 
G01 X76.2800 Y47.6600 
G01 X76.1561 Y47.6600 
G01 X76.1303 Y47.6493 
G01 X76.1107 Y47.6297 
G01 X76.1000 Y47.6039 
G01 X76.1000 Y46.3761 
G01 X76.1107 Y46.3503 
G01 X76.1303 Y46.3307 
G01 X76.1561 Y46.3200 
G01 X76.9839 Y46.3200 
G01 X77.0097 Y46.3307 
G01 X77.0293 Y46.3503 
G01 X77.0400 Y46.3761 
G01 X77.0400 Y47.6039 
G01 X77.0293 Y47.6297 
G01 X77.0097 Y47.6493 
G01 X76.9839 Y47.6600 
G01 X76.7200 Y47.6600 
G01 X76.7200 Y50.2000 
G01 X77.0339 Y50.2000 
G01 X77.0597 Y50.2107 
G01 X77.0793 Y50.2303 
G01 X77.0900 Y50.2561 
G00 Z2.0000 
G00 X78.0400 Y52.4561 
G01 Z-0.1000 F254.00 
G01 X78.0400 Y53.4789 F508.00 
G01 X80.8746 Y56.3135 
G01 X80.9365 Y56.3754 
G01 X80.9700 Y56.4562 
G01 X80.9700 Y57.6150 
G01 X81.5389 Y57.6150 
G01 X81.5647 Y57.6257 
G01 X81.5843 Y57.6453 
G01 X81.5950 Y57.6711 
G01 X81.5950 Y59.1689 
G01 X81.5843 Y59.1947 
G01 X81.5647 Y59.2143 
G01 X81.5389 Y59.2250 
G01 X80.9700 Y59.2250 
G01 X80.9700 Y62.2083 
G01 X81.0320 Y62.2181 
G01 X81.2307 Y62.2826 
G01 X81.4169 Y62.3775 
G01 X81.5859 Y62.5003 
G01 X81.7336 Y62.6480 
G01 X81.8564 Y62.8170 
G01 X81.9513 Y63.0032 
G01 X82.0158 Y63.2019 
G01 X82.0485 Y63.4082 
G01 X82.0485 Y66.1318 
G01 X82.0158 Y66.3381 
G01 X81.9513 Y66.5368 
G01 X81.8564 Y66.7230 
G01 X81.7336 Y66.8920 
G01 X81.5859 Y67.0397 
G01 X81.4169 Y67.1625 
G01 X81.2307 Y67.2574 
G01 X81.0320 Y67.3219 
G01 X80.8257 Y67.3546 
G01 X80.6167 Y67.3546 
G01 X80.4104 Y67.3219 
G01 X80.2117 Y67.2574 
G01 X80.0255 Y67.1625 
G01 X79.8565 Y67.0397 
G01 X79.7088 Y66.8920 
G01 X79.5860 Y66.7230 
G01 X79.4911 Y66.5368 
G01 X79.4266 Y66.3381 
G01 X79.3939 Y66.1318 
G01 X79.3939 Y63.4082 
G01 X79.4266 Y63.2019 
G01 X79.4911 Y63.0032 
G01 X79.5860 Y62.8170 
G01 X79.7088 Y62.6480 
G01 X79.8565 Y62.5003 
G01 X80.0255 Y62.3775 
G01 X80.2117 Y62.2826 
G01 X80.4104 Y62.2181 
G01 X80.5300 Y62.1991 
G01 X80.5300 Y59.2250 
G01 X80.2411 Y59.2250 
G01 X80.2153 Y59.2143 
G01 X80.1957 Y59.1947 
G01 X80.1850 Y59.1689 
G01 X80.1850 Y57.6711 
G01 X80.1957 Y57.6453 
G01 X80.2153 Y57.6257 
G01 X80.2411 Y57.6150 
G01 X80.5300 Y57.6150 
G01 X80.5300 Y56.5911 
G01 X77.8789 Y53.9400 
G01 X76.9561 Y53.9400 
G01 X76.9303 Y53.9293 
G01 X76.9107 Y53.9096 
G01 X76.9000 Y53.8839 
G01 X76.9000 Y52.4561 
G01 X76.9107 Y52.4303 
G01 X76.9303 Y52.4107 
G01 X76.9561 Y52.4000 
G01 X77.9839 Y52.4000 
G01 X78.0097 Y52.4107 
G01 X78.0293 Y52.4303 
G01 X78.0400 Y52.4561 
G00 Z2.0000 
G00 X4.1086 Y37.7211 
G01 Z-0.1000 F254.00 
G01 X4.1086 Y37.9201 F508.00 
G01 X4.0698 Y38.1151 
G01 X3.9937 Y38.2989 
G01 X3.8832 Y38.4643 
G01 X3.7425 Y38.6050 
G01 X3.5771 Y38.7155 
G01 X3.3933 Y38.7916 
G01 X3.1983 Y38.8304 
G01 X2.9993 Y38.8304 
G01 X2.8043 Y38.7916 
G01 X2.6205 Y38.7155 
G01 X2.4551 Y38.6050 
G01 X2.3144 Y38.4643 
G01 X2.2039 Y38.2989 
G01 X2.1278 Y38.1151 
G01 X2.0890 Y37.9201 
G01 X2.0890 Y37.7211 
G01 X2.1278 Y37.5261 
G01 X2.2039 Y37.3423 
G01 X2.3144 Y37.1769 
G01 X2.4551 Y37.0362 
G01 X2.6205 Y36.9257 
G01 X2.8043 Y36.8496 
G01 X2.9993 Y36.8108 
G01 X3.1983 Y36.8108 
G01 X3.3933 Y36.8496 
G01 X3.5771 Y36.9257 
G01 X3.7425 Y37.0362 
G01 X3.8832 Y37.1769 
G01 X3.9937 Y37.3423 
G01 X4.0698 Y37.5261 
G01 X4.1086 Y37.7211 
G00 Z2.0000 
G00 X4.1086 Y33.1999 
G01 Z-0.1000 F254.00 
G01 X4.1086 Y33.3989 F508.00 
G01 X4.0698 Y33.5939 
G01 X3.9937 Y33.7777 
G01 X3.8832 Y33.9431 
G01 X3.7425 Y34.0838 
G01 X3.5771 Y34.1943 
G01 X3.3933 Y34.2704 
G01 X3.1983 Y34.3092 
G01 X2.9993 Y34.3092 
G01 X2.8043 Y34.2704 
G01 X2.6205 Y34.1943 
G01 X2.4551 Y34.0838 
G01 X2.3144 Y33.9431 
G01 X2.2039 Y33.7777 
G01 X2.1278 Y33.5939 
G01 X2.0890 Y33.3989 
G01 X2.0890 Y33.1999 
G01 X2.1278 Y33.0049 
G01 X2.2039 Y32.8211 
G01 X2.3144 Y32.6557 
G01 X2.4551 Y32.5150 
G01 X2.6205 Y32.4045 
G01 X2.8043 Y32.3284 
G01 X2.9993 Y32.2896 
G01 X3.1983 Y32.2896 
G01 X3.3933 Y32.3284 
G01 X3.5771 Y32.4045 
G01 X3.7425 Y32.5150 
G01 X3.8832 Y32.6557 
G01 X3.9937 Y32.8211 
G01 X4.0698 Y33.0049 
G01 X4.1086 Y33.1999 
G00 Z2.0000 
G00 X10.6110 Y33.1999 
G01 Z-0.1000 F254.00 
G01 X10.6110 Y33.3989 F508.00 
G01 X10.5722 Y33.5939 
G01 X10.4961 Y33.7777 
G01 X10.4331 Y33.8720 
G01 X11.1865 Y34.6254 
G01 X11.2200 Y34.7062 
G01 X11.2200 Y48.6589 
G01 X11.4211 Y48.8600 
G01 X12.2139 Y48.8600 
G01 X12.2397 Y48.8707 
G01 X12.2593 Y48.8903 
G01 X12.2700 Y48.9161 
G01 X12.2700 Y50.1439 
G01 X12.2593 Y50.1697 
G01 X12.2397 Y50.1893 
G01 X12.2139 Y50.2000 
G01 X11.3861 Y50.2000 
G01 X11.3603 Y50.1893 
G01 X11.3407 Y50.1697 
G01 X11.3300 Y50.1439 
G01 X11.3300 Y49.3911 
G01 X10.8754 Y48.9365 
G01 X10.8135 Y48.8746 
G01 X10.7800 Y48.7938 
G01 X10.7800 Y34.8411 
G01 X10.1117 Y34.1728 
G01 X10.0795 Y34.1943 
G01 X9.8957 Y34.2704 
G01 X9.7007 Y34.3092 
G01 X9.5017 Y34.3092 
G01 X9.3067 Y34.2704 
G01 X9.1229 Y34.1943 
G01 X8.9575 Y34.0838 
G01 X8.8168 Y33.9431 
G01 X8.7063 Y33.7777 
G01 X8.6302 Y33.5939 
G01 X8.5914 Y33.3989 
G01 X8.5914 Y33.1999 
G01 X8.6302 Y33.0049 
G01 X8.7063 Y32.8211 
G01 X8.8168 Y32.6557 
G01 X8.9575 Y32.5150 
G01 X9.1229 Y32.4045 
G01 X9.3067 Y32.3284 
G01 X9.5017 Y32.2896 
G01 X9.7007 Y32.2896 
G01 X9.8957 Y32.3284 
G01 X10.0795 Y32.4045 
G01 X10.2449 Y32.5150 
G01 X10.3856 Y32.6557 
G01 X10.4961 Y32.8211 
G01 X10.5722 Y33.0049 
G01 X10.6110 Y33.1999 
G00 Z2.0000 
G00 X13.1300 Y50.1439 
G01 Z-0.1000 F254.00 
G01 X13.1300 Y48.9161 F508.00 
G01 X13.1407 Y48.8903 
G01 X13.1603 Y48.8707 
G01 X13.1861 Y48.8600 
G01 X14.0139 Y48.8600 
G01 X14.0396 Y48.8707 
G01 X14.0593 Y48.8903 
G01 X14.0700 Y48.9161 
G01 X14.0700 Y49.5300 
G01 X15.1589 Y49.5300 
G01 X20.2200 Y44.4689 
G01 X20.2200 Y43.8361 
G01 X20.2307 Y43.8103 
G01 X20.2503 Y43.7907 
G01 X20.2761 Y43.7800 
G01 X20.5300 Y43.7800 
G01 X20.5300 Y43.2062 
G01 X20.5635 Y43.1254 
G01 X20.6254 Y43.0635 
G01 X20.7062 Y43.0300 
G01 X23.0438 Y43.0300 
G01 X23.1246 Y43.0635 
G01 X23.1865 Y43.1254 
G01 X23.6865 Y43.6254 
G01 X23.7200 Y43.7062 
G01 X23.7200 Y48.0300 
G01 X31.6500 Y48.0300 
G01 X31.6500 Y47.6461 
G01 X31.6607 Y47.6203 
G01 X31.6803 Y47.6007 
G01 X31.7061 Y47.5900 
G01 X32.5339 Y47.5900 
G01 X32.5597 Y47.6007 
G01 X32.5739 Y47.6149 
G01 X34.9630 Y45.2259 
G01 X34.9614 Y45.2231 
G01 X34.9220 Y45.0761 
G01 X34.9220 Y44.9239 
G01 X34.9614 Y44.7769 
G01 X35.0375 Y44.6451 
G01 X35.1451 Y44.5375 
G01 X35.2769 Y44.4614 
G01 X35.4239 Y44.4220 
G01 X35.5761 Y44.4220 
G01 X35.7231 Y44.4614 
G01 X35.8549 Y44.5375 
G01 X35.9625 Y44.6451 
G01 X36.0386 Y44.7769 
G01 X36.0780 Y44.9239 
G01 X36.0780 Y45.0761 
G01 X36.0386 Y45.2231 
G01 X35.9625 Y45.3549 
G01 X35.8549 Y45.4625 
G01 X35.7231 Y45.5386 
G01 X35.5761 Y45.5780 
G01 X35.4239 Y45.5780 
G01 X35.2769 Y45.5386 
G01 X35.2741 Y45.5370 
G01 X32.5900 Y48.2211 
G01 X32.5900 Y48.8739 
G01 X32.5793 Y48.8997 
G01 X32.5597 Y48.9193 
G01 X32.5339 Y48.9300 
G01 X31.7061 Y48.9300 
G01 X31.6803 Y48.9193 
G01 X31.6607 Y48.8997 
G01 X31.6500 Y48.8739 
G01 X31.6500 Y48.4700 
G01 X23.4562 Y48.4700 
G01 X23.3754 Y48.4365 
G01 X23.3135 Y48.3746 
G01 X23.2800 Y48.2938 
G01 X23.2800 Y43.8411 
G01 X22.9089 Y43.4700 
G01 X20.9700 Y43.4700 
G01 X20.9700 Y43.7800 
G01 X21.1039 Y43.7800 
G01 X21.1297 Y43.7907 
G01 X21.1493 Y43.8103 
G01 X21.1600 Y43.8361 
G01 X21.1600 Y45.0639 
G01 X21.1493 Y45.0896 
G01 X21.1297 Y45.1093 
G01 X21.1039 Y45.1200 
G01 X20.2761 Y45.1200 
G01 X20.2503 Y45.1093 
G01 X20.2307 Y45.0896 
G01 X20.2280 Y45.0832 
G01 X15.4700 Y49.8411 
G01 X15.4700 Y51.9700 
G01 X15.8539 Y51.9700 
G01 X15.8797 Y51.9807 
G01 X15.8993 Y52.0003 
G01 X15.9100 Y52.0261 
G01 X15.9100 Y52.8539 
G01 X15.8993 Y52.8797 
G01 X15.8797 Y52.8993 
G01 X15.8539 Y52.9100 
G01 X14.6261 Y52.9100 
G01 X14.6003 Y52.8993 
G01 X14.5807 Y52.8797 
G01 X14.5700 Y52.8539 
G01 X14.5700 Y52.0261 
G01 X14.5807 Y52.0003 
G01 X14.6003 Y51.9807 
G01 X14.6261 Y51.9700 
G01 X15.0300 Y51.9700 
G01 X15.0300 Y49.9700 
G01 X14.0700 Y49.9700 
G01 X14.0700 Y50.1439 
G01 X14.0593 Y50.1697 
G01 X14.0396 Y50.1893 
G01 X14.0139 Y50.2000 
G01 X13.1861 Y50.2000 
G01 X13.1603 Y50.1893 
G01 X13.1407 Y50.1697 
G01 X13.1300 Y50.1439 
G00 Z2.0000 
G00 X45.0639 Y48.1600 
G01 Z-0.1000 F254.00 
G01 X45.0896 Y48.1707 F508.00 
G01 X45.1093 Y48.1903 
G01 X45.1200 Y48.2161 
G01 X45.1200 Y49.0439 
G01 X45.1093 Y49.0697 
G01 X45.0896 Y49.0893 
G01 X45.0639 Y49.1000 
G01 X43.8361 Y49.1000 
G01 X43.8103 Y49.0893 
G01 X43.7907 Y49.0697 
G01 X43.7800 Y49.0439 
G01 X43.7800 Y48.3411 
G01 X43.1254 Y47.6865 
G01 X43.0635 Y47.6246 
G01 X43.0300 Y47.5438 
G01 X43.0300 Y34.3953 
G01 X42.9669 Y34.3827 
G01 X42.8340 Y34.3277 
G01 X42.7144 Y34.2477 
G01 X42.6127 Y34.1460 
G01 X42.5327 Y34.0264 
G01 X42.4777 Y33.8935 
G01 X42.4496 Y33.7523 
G01 X42.4496 Y32.2877 
G01 X42.4777 Y32.1465 
G01 X42.5327 Y32.0136 
G01 X42.6127 Y31.8940 
G01 X42.7144 Y31.7923 
G01 X42.8340 Y31.7123 
G01 X42.9669 Y31.6573 
G01 X43.1081 Y31.6292 
G01 X43.2519 Y31.6292 
G01 X43.3931 Y31.6573 
G01 X43.5260 Y31.7123 
G01 X43.6456 Y31.7923 
G01 X43.7473 Y31.8940 
G01 X43.8273 Y32.0136 
G01 X43.8823 Y32.1465 
G01 X43.9104 Y32.2877 
G01 X43.9104 Y33.7523 
G01 X43.8823 Y33.8935 
G01 X43.8273 Y34.0264 
G01 X43.7473 Y34.1460 
G01 X43.6456 Y34.2477 
G01 X43.5260 Y34.3277 
G01 X43.4700 Y34.3509 
G01 X43.4700 Y47.4089 
G01 X44.2211 Y48.1600 
G01 X45.0639 Y48.1600 
G00 Z2.0000 
G00 X51.8860 Y41.0071 
G01 Z-0.1000 F254.00 
G01 X51.8860 Y42.8129 F508.00 
G01 X51.8753 Y42.8387 
G01 X51.8557 Y42.8583 
G01 X51.8299 Y42.8690 
G01 X46.7221 Y42.8690 
G01 X46.6963 Y42.8583 
G01 X46.6767 Y42.8387 
G01 X46.6660 Y42.8129 
G01 X46.6660 Y41.0071 
G01 X46.6767 Y40.9813 
G01 X46.6963 Y40.9617 
G01 X46.7221 Y40.9510 
G01 X48.1399 Y40.9510 
G01 X46.6254 Y39.4365 
G01 X46.5635 Y39.3746 
G01 X46.5300 Y39.2938 
G01 X46.5300 Y37.2894 
G01 X46.5269 Y37.2886 
G01 X46.3951 Y37.2125 
G01 X46.2875 Y37.1049 
G01 X46.2114 Y36.9731 
G01 X46.1720 Y36.8261 
G01 X46.1720 Y36.6739 
G01 X46.2114 Y36.5269 
G01 X46.2875 Y36.3951 
G01 X46.3951 Y36.2875 
G01 X46.5269 Y36.2114 
G01 X46.6739 Y36.1720 
G01 X46.8261 Y36.1720 
G01 X46.9731 Y36.2114 
G01 X47.1049 Y36.2875 
G01 X47.2125 Y36.3951 
G01 X47.2886 Y36.5269 
G01 X47.3280 Y36.6739 
G01 X47.3280 Y36.8261 
G01 X47.2886 Y36.9731 
G01 X47.2125 Y37.1049 
G01 X47.1049 Y37.2125 
G01 X46.9731 Y37.2886 
G01 X46.9700 Y37.2894 
G01 X46.9700 Y39.1589 
G01 X48.7621 Y40.9510 
G01 X51.8299 Y40.9510 
G01 X51.8557 Y40.9617 
G01 X51.8753 Y40.9813 
G01 X51.8860 Y41.0071 
G00 Z2.0000 
G00 X64.2304 Y24.6677 
G01 Z-0.1000 F254.00 
G01 X64.2304 Y25.2800 F508.00 
G01 X64.7938 Y25.2800 
G01 X64.8746 Y25.3135 
G01 X64.9365 Y25.3754 
G01 X74.6865 Y35.1254 
G01 X74.7200 Y35.2062 
G01 X74.7200 Y42.9089 
G01 X78.1311 Y46.3200 
G01 X78.7839 Y46.3200 
G01 X78.8097 Y46.3307 
G01 X78.8293 Y46.3503 
G01 X78.8400 Y46.3761 
G01 X78.8400 Y47.6039 
G01 X78.8293 Y47.6297 
G01 X78.8097 Y47.6493 
G01 X78.7839 Y47.6600 
G01 X77.9561 Y47.6600 
G01 X77.9303 Y47.6493 
G01 X77.9107 Y47.6297 
G01 X77.9000 Y47.6039 
G01 X77.9000 Y46.7111 
G01 X74.3754 Y43.1865 
G01 X74.3135 Y43.1246 
G01 X74.2800 Y43.0438 
G01 X74.2800 Y35.3411 
G01 X64.6589 Y25.7200 
G01 X64.2304 Y25.7200 
G01 X64.2304 Y26.1323 
G01 X64.2023 Y26.2735 
G01 X64.1473 Y26.4064 
G01 X64.0673 Y26.5260 
G01 X63.9656 Y26.6277 
G01 X63.8460 Y26.7077 
G01 X63.7131 Y26.7627 
G01 X63.5719 Y26.7908 
G01 X63.4281 Y26.7908 
G01 X63.2869 Y26.7627 
G01 X63.1540 Y26.7077 
G01 X63.0344 Y26.6277 
G01 X62.9327 Y26.5260 
G01 X62.8527 Y26.4064 
G01 X62.7977 Y26.2735 
G01 X62.7696 Y26.1323 
G01 X62.7696 Y24.6677 
G01 X62.7977 Y24.5265 
G01 X62.8527 Y24.3936 
G01 X62.9327 Y24.2740 
G01 X63.0344 Y24.1723 
G01 X63.1540 Y24.0923 
G01 X63.2869 Y24.0373 
G01 X63.4281 Y24.0092 
G01 X63.5719 Y24.0092 
G01 X63.7131 Y24.0373 
G01 X63.8460 Y24.0923 
G01 X63.9656 Y24.1723 
G01 X64.0673 Y24.2740 
G01 X64.1473 Y24.3936 
G01 X64.2023 Y24.5265 
G01 X64.2304 Y24.6677 
G00 Z2.0000 
G00 X61.6904 Y24.6677 
G01 Z-0.1000 F254.00 
G01 X61.6904 Y26.1323 F508.00 
G01 X61.6623 Y26.2735 
G01 X61.6073 Y26.4064 
G01 X61.5273 Y26.5260 
G01 X61.4256 Y26.6277 
G01 X61.3060 Y26.7077 
G01 X61.1731 Y26.7627 
G01 X61.0319 Y26.7908 
G01 X60.8881 Y26.7908 
G01 X60.7469 Y26.7627 
G01 X60.6140 Y26.7077 
G01 X60.4944 Y26.6277 
G01 X60.3927 Y26.5260 
G01 X60.3127 Y26.4064 
G01 X60.2577 Y26.2735 
G01 X60.2296 Y26.1323 
G01 X60.2296 Y24.6677 
G01 X60.2577 Y24.5265 
G01 X60.3127 Y24.3936 
G01 X60.3927 Y24.2740 
G01 X60.4944 Y24.1723 
G01 X60.6140 Y24.0923 
G01 X60.7469 Y24.0373 
G01 X60.8881 Y24.0092 
G01 X61.0319 Y24.0092 
G01 X61.1731 Y24.0373 
G01 X61.3060 Y24.0923 
G01 X61.4256 Y24.1723 
G01 X61.5273 Y24.2740 
G01 X61.6073 Y24.3936 
G01 X61.6623 Y24.5265 
G01 X61.6904 Y24.6677 
G00 Z2.0000 
G00 X59.1504 Y24.6677 
G01 Z-0.1000 F254.00 
G01 X59.1504 Y26.1323 F508.00 
G01 X59.1223 Y26.2735 
G01 X59.0673 Y26.4064 
G01 X58.9873 Y26.5260 
G01 X58.8856 Y26.6277 
G01 X58.7660 Y26.7077 
G01 X58.6331 Y26.7627 
G01 X58.4919 Y26.7908 
G01 X58.3481 Y26.7908 
G01 X58.2069 Y26.7627 
G01 X58.0740 Y26.7077 
G01 X57.9544 Y26.6277 
G01 X57.8527 Y26.5260 
G01 X57.7727 Y26.4064 
G01 X57.7177 Y26.2735 
G01 X57.6896 Y26.1323 
G01 X57.6896 Y24.6677 
G01 X57.7177 Y24.5265 
G01 X57.7727 Y24.3936 
G01 X57.8527 Y24.2740 
G01 X57.9544 Y24.1723 
G01 X58.0740 Y24.0923 
G01 X58.2069 Y24.0373 
G01 X58.3481 Y24.0092 
G01 X58.4919 Y24.0092 
G01 X58.6331 Y24.0373 
G01 X58.7660 Y24.0923 
G01 X58.8856 Y24.1723 
G01 X58.9873 Y24.2740 
G01 X59.0673 Y24.3936 
G01 X59.1223 Y24.5265 
G01 X59.1504 Y24.6677 
G00 Z2.0000 
G00 X51.5304 Y26.1323 
G01 Z-0.1000 F254.00 
G01 X51.5023 Y26.2735 F508.00 
G01 X51.4473 Y26.4064 
G01 X51.3673 Y26.5260 
G01 X51.2656 Y26.6277 
G01 X51.1460 Y26.7077 
G01 X51.0130 Y26.7627 
G01 X50.8719 Y26.7908 
G01 X50.7281 Y26.7908 
G01 X50.5869 Y26.7627 
G01 X50.4540 Y26.7077 
G01 X50.3344 Y26.6277 
G01 X50.2327 Y26.5260 
G01 X50.1527 Y26.4064 
G01 X50.0977 Y26.2735 
G01 X50.0696 Y26.1323 
G01 X50.0696 Y24.6677 
G01 X50.0977 Y24.5265 
G01 X50.1527 Y24.3936 
G01 X50.2327 Y24.2740 
G01 X50.3344 Y24.1723 
G01 X50.4540 Y24.0923 
G01 X50.5869 Y24.0373 
G01 X50.7281 Y24.0092 
G01 X50.8719 Y24.0092 
G01 X51.0130 Y24.0373 
G01 X51.1460 Y24.0923 
G01 X51.2656 Y24.1723 
G01 X51.3673 Y24.2740 
G01 X51.4473 Y24.3936 
G01 X51.4760 Y24.4629 
G01 X54.2800 Y21.6589 
G01 X54.2800 Y7.7062 
G01 X54.3135 Y7.6254 
G01 X56.3180 Y5.6209 
G01 X56.3180 Y4.2361 
G01 X56.3500 Y4.0753 
G01 X56.4127 Y3.9239 
G01 X56.5037 Y3.7876 
G01 X56.6196 Y3.6717 
G01 X56.7559 Y3.5807 
G01 X56.9073 Y3.5180 
G01 X57.0681 Y3.4860 
G01 X57.2319 Y3.4860 
G01 X57.3927 Y3.5180 
G01 X57.5441 Y3.5807 
G01 X57.6804 Y3.6717 
G01 X57.7963 Y3.7876 
G01 X57.8873 Y3.9239 
G01 X57.9500 Y4.0753 
G01 X57.9820 Y4.2361 
G01 X57.9820 Y5.9239 
G01 X57.9500 Y6.0847 
G01 X57.8873 Y6.2361 
G01 X57.7963 Y6.3724 
G01 X57.6804 Y6.4883 
G01 X57.5441 Y6.5793 
G01 X57.3927 Y6.6420 
G01 X57.2319 Y6.6740 
G01 X57.0681 Y6.6740 
G01 X56.9073 Y6.6420 
G01 X56.7559 Y6.5793 
G01 X56.6196 Y6.4883 
G01 X56.5037 Y6.3724 
G01 X56.4127 Y6.2361 
G01 X56.3870 Y6.1741 
G01 X54.7200 Y7.8411 
G01 X54.7200 Y21.7938 
G01 X54.6865 Y21.8746 
G01 X54.6246 Y21.9365 
G01 X51.5304 Y25.0307 
G01 X51.5304 Y26.1323 
G00 Z2.0000 
G00 X46.4504 Y24.6677 
G01 Z-0.1000 F254.00 
G01 X46.4504 Y26.1323 F508.00 
G01 X46.4223 Y26.2735 
G01 X46.3673 Y26.4064 
G01 X46.2873 Y26.5260 
G01 X46.1856 Y26.6277 
G01 X46.0660 Y26.7077 
G01 X45.9331 Y26.7627 
G01 X45.7919 Y26.7908 
G01 X45.6481 Y26.7908 
G01 X45.5069 Y26.7627 
G01 X45.3740 Y26.7077 
G01 X45.2544 Y26.6277 
G01 X45.1527 Y26.5260 
G01 X45.0727 Y26.4064 
G01 X45.0177 Y26.2735 
G01 X44.9896 Y26.1323 
G01 X44.9896 Y24.6677 
G01 X45.0177 Y24.5265 
G01 X45.0727 Y24.3936 
G01 X45.1527 Y24.2740 
G01 X45.2544 Y24.1723 
G01 X45.3740 Y24.0923 
G01 X45.5069 Y24.0373 
G01 X45.6481 Y24.0092 
G01 X45.7919 Y24.0092 
G01 X45.9331 Y24.0373 
G01 X46.0660 Y24.0923 
G01 X46.1856 Y24.1723 
G01 X46.2873 Y24.2740 
G01 X46.3673 Y24.3936 
G01 X46.4223 Y24.5265 
G01 X46.4504 Y24.6677 
G00 Z2.0000 
G00 X41.3704 Y24.6677 
G01 Z-0.1000 F254.00 
G01 X41.3704 Y26.1323 F508.00 
G01 X41.3423 Y26.2735 
G01 X41.2873 Y26.4064 
G01 X41.2073 Y26.5260 
G01 X41.1056 Y26.6277 
G01 X40.9860 Y26.7077 
G01 X40.8531 Y26.7627 
G01 X40.7119 Y26.7908 
G01 X40.5681 Y26.7908 
G01 X40.4269 Y26.7627 
G01 X40.2940 Y26.7077 
G01 X40.1744 Y26.6277 
G01 X40.0727 Y26.5260 
G01 X39.9927 Y26.4064 
G01 X39.9377 Y26.2735 
G01 X39.9096 Y26.1323 
G01 X39.9096 Y24.6677 
G01 X39.9377 Y24.5265 
G01 X39.9927 Y24.3936 
G01 X40.0727 Y24.2740 
G01 X40.1744 Y24.1723 
G01 X40.2940 Y24.0923 
G01 X40.4269 Y24.0373 
G01 X40.5681 Y24.0092 
G01 X40.7119 Y24.0092 
G01 X40.8531 Y24.0373 
G01 X40.9860 Y24.0923 
G01 X41.1056 Y24.1723 
G01 X41.2073 Y24.2740 
G01 X41.2873 Y24.3936 
G01 X41.3423 Y24.5265 
G01 X41.3704 Y24.6677 
G00 Z2.0000 
G00 X38.8304 Y24.6677 
G01 Z-0.1000 F254.00 
G01 X38.8304 Y26.1323 F508.00 
G01 X38.8023 Y26.2735 
G01 X38.7473 Y26.4064 
G01 X38.6673 Y26.5260 
G01 X38.5656 Y26.6277 
G01 X38.4460 Y26.7077 
G01 X38.3131 Y26.7627 
G01 X38.1719 Y26.7908 
G01 X38.0281 Y26.7908 
G01 X37.8869 Y26.7627 
G01 X37.7540 Y26.7077 
G01 X37.6344 Y26.6277 
G01 X37.5327 Y26.5260 
G01 X37.4527 Y26.4064 
G01 X37.3977 Y26.2735 
G01 X37.3696 Y26.1323 
G01 X37.3696 Y24.6677 
G01 X37.3977 Y24.5265 
G01 X37.4527 Y24.3936 
G01 X37.5327 Y24.2740 
G01 X37.6344 Y24.1723 
G01 X37.7540 Y24.0923 
G01 X37.8869 Y24.0373 
G01 X38.0281 Y24.0092 
G01 X38.1719 Y24.0092 
G01 X38.3131 Y24.0373 
G01 X38.4460 Y24.0923 
G01 X38.5656 Y24.1723 
G01 X38.6673 Y24.2740 
G01 X38.7473 Y24.3936 
G01 X38.8023 Y24.5265 
G01 X38.8304 Y24.6677 
G00 Z2.0000 
G00 X36.2904 Y24.6677 
G01 Z-0.1000 F254.00 
G01 X36.2904 Y26.1323 F508.00 
G01 X36.2623 Y26.2735 
G01 X36.2073 Y26.4064 
G01 X36.1273 Y26.5260 
G01 X36.0256 Y26.6277 
G01 X35.9060 Y26.7077 
G01 X35.7731 Y26.7627 
G01 X35.6319 Y26.7908 
G01 X35.4881 Y26.7908 
G01 X35.3469 Y26.7627 
G01 X35.2140 Y26.7077 
G01 X35.0944 Y26.6277 
G01 X34.9927 Y26.5260 
G01 X34.9127 Y26.4064 
G01 X34.8577 Y26.2735 
G01 X34.8296 Y26.1323 
G01 X34.8296 Y24.6677 
G01 X34.8577 Y24.5265 
G01 X34.9127 Y24.3936 
G01 X34.9927 Y24.2740 
G01 X35.0944 Y24.1723 
G01 X35.2140 Y24.0923 
G01 X35.3469 Y24.0373 
G01 X35.4881 Y24.0092 
G01 X35.6319 Y24.0092 
G01 X35.7731 Y24.0373 
G01 X35.9060 Y24.0923 
G01 X36.0256 Y24.1723 
G01 X36.1273 Y24.2740 
G01 X36.2073 Y24.3936 
G01 X36.2623 Y24.5265 
G01 X36.2904 Y24.6677 
G00 Z2.0000 
G00 X33.7504 Y24.6677 
G01 Z-0.1000 F254.00 
G01 X33.7504 Y26.1323 F508.00 
G01 X33.7223 Y26.2735 
G01 X33.6673 Y26.4064 
G01 X33.5873 Y26.5260 
G01 X33.4856 Y26.6277 
G01 X33.3660 Y26.7077 
G01 X33.2330 Y26.7627 
G01 X33.0919 Y26.7908 
G01 X32.9481 Y26.7908 
G01 X32.8069 Y26.7627 
G01 X32.6740 Y26.7077 
G01 X32.5544 Y26.6277 
G01 X32.4527 Y26.5260 
G01 X32.3727 Y26.4064 
G01 X32.3177 Y26.2735 
G01 X32.2896 Y26.1323 
G01 X32.2896 Y24.6677 
G01 X32.3177 Y24.5265 
G01 X32.3727 Y24.3936 
G01 X32.4527 Y24.2740 
G01 X32.5544 Y24.1723 
G01 X32.6740 Y24.0923 
G01 X32.8069 Y24.0373 
G01 X32.9481 Y24.0092 
G01 X33.0919 Y24.0092 
G01 X33.2330 Y24.0373 
G01 X33.3660 Y24.0923 
G01 X33.4856 Y24.1723 
G01 X33.5873 Y24.2740 
G01 X33.6673 Y24.3936 
G01 X33.7223 Y24.5265 
G01 X33.7504 Y24.6677 
G00 Z2.0000 
G00 X31.2104 Y24.6677 
G01 Z-0.1000 F254.00 
G01 X31.2104 Y26.1323 F508.00 
G01 X31.1823 Y26.2735 
G01 X31.1273 Y26.4064 
G01 X31.0473 Y26.5260 
G01 X30.9456 Y26.6277 
G01 X30.8260 Y26.7077 
G01 X30.6931 Y26.7627 
G01 X30.5519 Y26.7908 
G01 X30.4081 Y26.7908 
G01 X30.2669 Y26.7627 
G01 X30.1340 Y26.7077 
G01 X30.0144 Y26.6277 
G01 X29.9127 Y26.5260 
G01 X29.8327 Y26.4064 
G01 X29.7777 Y26.2735 
G01 X29.7496 Y26.1323 
G01 X29.7496 Y25.7200 
G01 X22.4700 Y25.7200 
G01 X22.4700 Y28.5438 
G01 X22.4365 Y28.6246 
G01 X21.3646 Y29.6965 
G01 X21.4761 Y29.7427 
G01 X21.6124 Y29.8337 
G01 X21.7283 Y29.9496 
G01 X21.8193 Y30.0859 
G01 X21.8820 Y30.2373 
G01 X21.9140 Y30.3981 
G01 X21.9140 Y30.5619 
G01 X21.8820 Y30.7227 
G01 X21.8193 Y30.8741 
G01 X21.7283 Y31.0104 
G01 X21.6124 Y31.1263 
G01 X21.4761 Y31.2173 
G01 X21.3247 Y31.2800 
G01 X21.1639 Y31.3120 
G01 X19.4761 Y31.3120 
G01 X19.3153 Y31.2800 
G01 X19.1639 Y31.2173 
G01 X19.0276 Y31.1263 
G01 X18.9117 Y31.0104 
G01 X18.8207 Y30.8741 
G01 X18.7580 Y30.7227 
G01 X18.7260 Y30.5619 
G01 X18.7260 Y30.3981 
G01 X18.7580 Y30.2373 
G01 X18.8207 Y30.0859 
G01 X18.9117 Y29.9496 
G01 X19.0276 Y29.8337 
G01 X19.1639 Y29.7427 
G01 X19.3153 Y29.6800 
G01 X19.4761 Y29.6480 
G01 X20.7909 Y29.6480 
G01 X22.0300 Y28.4089 
G01 X22.0300 Y25.4562 
G01 X22.0635 Y25.3754 
G01 X22.1254 Y25.3135 
G01 X22.2062 Y25.2800 
G01 X29.7496 Y25.2800 
G01 X29.7496 Y24.6677 
G01 X29.7777 Y24.5265 
G01 X29.8327 Y24.3936 
G01 X29.9127 Y24.2740 
G01 X30.0144 Y24.1723 
G01 X30.1340 Y24.0923 
G01 X30.2669 Y24.0373 
G01 X30.4081 Y24.0092 
G01 X30.5519 Y24.0092 
G01 X30.6931 Y24.0373 
G01 X30.8260 Y24.0923 
G01 X30.9456 Y24.1723 
G01 X31.0473 Y24.2740 
G01 X31.1273 Y24.3936 
G01 X31.1823 Y24.5265 
G01 X31.2104 Y24.6677 
G00 Z2.0000 
G00 X33.7504 Y32.2877 
G01 Z-0.1000 F254.00 
G01 X33.7504 Y33.7523 F508.00 
G01 X33.7223 Y33.8935 
G01 X33.6673 Y34.0264 
G01 X33.5873 Y34.1460 
G01 X33.4856 Y34.2477 
G01 X33.3660 Y34.3277 
G01 X33.2330 Y34.3827 
G01 X33.0919 Y34.4108 
G01 X32.9481 Y34.4108 
G01 X32.8069 Y34.3827 
G01 X32.6740 Y34.3277 
G01 X32.5544 Y34.2477 
G01 X32.4527 Y34.1460 
G01 X32.3727 Y34.0264 
G01 X32.3177 Y33.8935 
G01 X32.2896 Y33.7523 
G01 X32.2896 Y32.2877 
G01 X32.3177 Y32.1465 
G01 X32.3727 Y32.0136 
G01 X32.4527 Y31.8940 
G01 X32.5544 Y31.7923 
G01 X32.6740 Y31.7123 
G01 X32.8069 Y31.6573 
G01 X32.9481 Y31.6292 
G01 X33.0919 Y31.6292 
G01 X33.2330 Y31.6573 
G01 X33.3660 Y31.7123 
G01 X33.4856 Y31.7923 
G01 X33.5873 Y31.8940 
G01 X33.6673 Y32.0136 
G01 X33.7223 Y32.1465 
G01 X33.7504 Y32.2877 
G00 Z2.0000 
G00 X36.2904 Y32.2877 
G01 Z-0.1000 F254.00 
G01 X36.2904 Y33.7523 F508.00 
G01 X36.2623 Y33.8935 
G01 X36.2073 Y34.0264 
G01 X36.1273 Y34.1460 
G01 X36.0256 Y34.2477 
G01 X35.9060 Y34.3277 
G01 X35.7731 Y34.3827 
G01 X35.6319 Y34.4108 
G01 X35.4881 Y34.4108 
G01 X35.3469 Y34.3827 
G01 X35.2140 Y34.3277 
G01 X35.0944 Y34.2477 
G01 X34.9927 Y34.1460 
G01 X34.9127 Y34.0264 
G01 X34.8577 Y33.8935 
G01 X34.8296 Y33.7523 
G01 X34.8296 Y32.2877 
G01 X34.8577 Y32.1465 
G01 X34.9127 Y32.0136 
G01 X34.9927 Y31.8940 
G01 X35.0944 Y31.7923 
G01 X35.2140 Y31.7123 
G01 X35.3469 Y31.6573 
G01 X35.4881 Y31.6292 
G01 X35.6319 Y31.6292 
G01 X35.7731 Y31.6573 
G01 X35.9060 Y31.7123 
G01 X36.0256 Y31.7923 
G01 X36.1273 Y31.8940 
G01 X36.2073 Y32.0136 
G01 X36.2623 Y32.1465 
G01 X36.2904 Y32.2877 
G00 Z2.0000 
G00 X38.8304 Y32.2877 
G01 Z-0.1000 F254.00 
G01 X38.8304 Y33.7523 F508.00 
G01 X38.8023 Y33.8935 
G01 X38.7473 Y34.0264 
G01 X38.6673 Y34.1460 
G01 X38.5656 Y34.2477 
G01 X38.4460 Y34.3277 
G01 X38.3131 Y34.3827 
G01 X38.1719 Y34.4108 
G01 X38.0281 Y34.4108 
G01 X37.8869 Y34.3827 
G01 X37.7540 Y34.3277 
G01 X37.6344 Y34.2477 
G01 X37.5327 Y34.1460 
G01 X37.4527 Y34.0264 
G01 X37.3977 Y33.8935 
G01 X37.3696 Y33.7523 
G01 X37.3696 Y32.2877 
G01 X37.3977 Y32.1465 
G01 X37.4527 Y32.0136 
G01 X37.5327 Y31.8940 
G01 X37.6344 Y31.7923 
G01 X37.7540 Y31.7123 
G01 X37.8869 Y31.6573 
G01 X38.0281 Y31.6292 
G01 X38.1719 Y31.6292 
G01 X38.3131 Y31.6573 
G01 X38.4460 Y31.7123 
G01 X38.5656 Y31.7923 
G01 X38.6673 Y31.8940 
G01 X38.7473 Y32.0136 
G01 X38.8023 Y32.1465 
G01 X38.8304 Y32.2877 
G00 Z2.0000 
G00 X41.3704 Y32.2877 
G01 Z-0.1000 F254.00 
G01 X41.3704 Y33.7523 F508.00 
G01 X41.3423 Y33.8935 
G01 X41.2873 Y34.0264 
G01 X41.2073 Y34.1460 
G01 X41.1056 Y34.2477 
G01 X40.9860 Y34.3277 
G01 X40.8531 Y34.3827 
G01 X40.7119 Y34.4108 
G01 X40.5681 Y34.4108 
G01 X40.4269 Y34.3827 
G01 X40.2940 Y34.3277 
G01 X40.1744 Y34.2477 
G01 X40.0727 Y34.1460 
G01 X40.0096 Y34.0516 
G01 X39.9700 Y34.0911 
G01 X39.9700 Y40.9510 
G01 X42.1779 Y40.9510 
G01 X42.2037 Y40.9617 
G01 X42.2233 Y40.9813 
G01 X42.2340 Y41.0071 
G01 X42.2340 Y42.8129 
G01 X42.2233 Y42.8387 
G01 X42.2037 Y42.8583 
G01 X42.1779 Y42.8690 
G01 X39.9700 Y42.8690 
G01 X39.9700 Y47.6589 
G01 X40.4711 Y48.1600 
G01 X41.2539 Y48.1600 
G01 X41.2797 Y48.1707 
G01 X41.2993 Y48.1903 
G01 X41.3100 Y48.2161 
G01 X41.3100 Y49.0439 
G01 X41.2993 Y49.0697 
G01 X41.2797 Y49.0893 
G01 X41.2539 Y49.1000 
G01 X40.0261 Y49.1000 
G01 X40.0003 Y49.0893 
G01 X39.9807 Y49.0697 
G01 X39.9700 Y49.0439 
G01 X39.9700 Y48.2811 
G01 X39.6254 Y47.9365 
G01 X39.5635 Y47.8746 
G01 X39.5300 Y47.7938 
G01 X39.5300 Y42.8690 
G01 X37.0701 Y42.8690 
G01 X37.0443 Y42.8583 
G01 X37.0247 Y42.8387 
G01 X37.0140 Y42.8129 
G01 X37.0140 Y41.0071 
G01 X37.0247 Y40.9813 
G01 X37.0443 Y40.9617 
G01 X37.0701 Y40.9510 
G01 X39.5300 Y40.9510 
G01 X39.5300 Y33.9562 
G01 X39.5635 Y33.8754 
G01 X39.6254 Y33.8135 
G01 X39.9096 Y33.5293 
G01 X39.9096 Y32.2877 
G01 X39.9377 Y32.1465 
G01 X39.9927 Y32.0136 
G01 X40.0727 Y31.8940 
G01 X40.1744 Y31.7923 
G01 X40.2940 Y31.7123 
G01 X40.4269 Y31.6573 
G01 X40.5681 Y31.6292 
G01 X40.7119 Y31.6292 
G01 X40.8531 Y31.6573 
G01 X40.9860 Y31.7123 
G01 X41.1056 Y31.7923 
G01 X41.2073 Y31.8940 
G01 X41.2873 Y32.0136 
G01 X41.3423 Y32.1465 
G01 X41.3704 Y32.2877 
G00 Z2.0000 
G00 X51.5304 Y32.2877 
G01 Z-0.1000 F254.00 
G01 X51.5304 Y33.7523 F508.00 
G01 X51.5023 Y33.8935 
G01 X51.4473 Y34.0264 
G01 X51.3673 Y34.1460 
G01 X51.2656 Y34.2477 
G01 X51.1460 Y34.3277 
G01 X51.0130 Y34.3827 
G01 X50.8719 Y34.4108 
G01 X50.7281 Y34.4108 
G01 X50.5869 Y34.3827 
G01 X50.4540 Y34.3277 
G01 X50.3344 Y34.2477 
G01 X50.2327 Y34.1460 
G01 X50.1527 Y34.0264 
G01 X50.0977 Y33.8935 
G01 X50.0696 Y33.7523 
G01 X50.0696 Y32.2877 
G01 X50.0977 Y32.1465 
G01 X50.1527 Y32.0136 
G01 X50.2327 Y31.8940 
G01 X50.3344 Y31.7923 
G01 X50.4540 Y31.7123 
G01 X50.5869 Y31.6573 
G01 X50.7281 Y31.6292 
G01 X50.8719 Y31.6292 
G01 X51.0130 Y31.6573 
G01 X51.1460 Y31.7123 
G01 X51.2656 Y31.7923 
G01 X51.3673 Y31.8940 
G01 X51.4473 Y32.0136 
G01 X51.5023 Y32.1465 
G01 X51.5304 Y32.2877 
G00 Z2.0000 
G00 X54.0704 Y32.2877 
G01 Z-0.1000 F254.00 
G01 X54.0704 Y33.7523 F508.00 
G01 X54.0423 Y33.8935 
G01 X53.9873 Y34.0264 
G01 X53.9073 Y34.1460 
G01 X53.8056 Y34.2477 
G01 X53.6860 Y34.3277 
G01 X53.5531 Y34.3827 
G01 X53.4119 Y34.4108 
G01 X53.2681 Y34.4108 
G01 X53.1269 Y34.3827 
G01 X52.9940 Y34.3277 
G01 X52.8744 Y34.2477 
G01 X52.7727 Y34.1460 
G01 X52.6927 Y34.0264 
G01 X52.6377 Y33.8935 
G01 X52.6096 Y33.7523 
G01 X52.6096 Y32.2877 
G01 X52.6377 Y32.1465 
G01 X52.6927 Y32.0136 
G01 X52.7727 Y31.8940 
G01 X52.8744 Y31.7923 
G01 X52.9940 Y31.7123 
G01 X53.1269 Y31.6573 
G01 X53.2681 Y31.6292 
G01 X53.4119 Y31.6292 
G01 X53.5531 Y31.6573 
G01 X53.6860 Y31.7123 
G01 X53.8056 Y31.7923 
G01 X53.9073 Y31.8940 
G01 X53.9873 Y32.0136 
G01 X54.0423 Y32.1465 
G01 X54.0704 Y32.2877 
G00 Z2.0000 
G00 X56.6104 Y32.2877 
G01 Z-0.1000 F254.00 
G01 X56.6104 Y33.7523 F508.00 
G01 X56.5823 Y33.8935 
G01 X56.5273 Y34.0264 
G01 X56.4473 Y34.1460 
G01 X56.3456 Y34.2477 
G01 X56.2260 Y34.3277 
G01 X56.0931 Y34.3827 
G01 X55.9519 Y34.4108 
G01 X55.8081 Y34.4108 
G01 X55.6669 Y34.3827 
G01 X55.5340 Y34.3277 
G01 X55.4144 Y34.2477 
G01 X55.3127 Y34.1460 
G01 X55.2327 Y34.0264 
G01 X55.1777 Y33.8935 
G01 X55.1496 Y33.7523 
G01 X55.1496 Y32.2877 
G01 X55.1777 Y32.1465 
G01 X55.2327 Y32.0136 
G01 X55.3127 Y31.8940 
G01 X55.4144 Y31.7923 
G01 X55.5340 Y31.7123 
G01 X55.6669 Y31.6573 
G01 X55.8081 Y31.6292 
G01 X55.9519 Y31.6292 
G01 X56.0931 Y31.6573 
G01 X56.2260 Y31.7123 
G01 X56.3456 Y31.7923 
G01 X56.4473 Y31.8940 
G01 X56.5273 Y32.0136 
G01 X56.5823 Y32.1465 
G01 X56.6104 Y32.2877 
G00 Z2.0000 
G00 X61.6904 Y32.2877 
G01 Z-0.1000 F254.00 
G01 X61.6904 Y33.6293 F508.00 
G01 X64.8746 Y36.8135 
G01 X64.9365 Y36.8754 
G01 X64.9700 Y36.9562 
G01 X64.9700 Y43.5799 
G01 X65.1304 Y43.5799 
G01 X65.6401 Y44.0896 
G01 X65.6401 Y44.8104 
G01 X65.6308 Y44.8197 
G01 X68.4800 Y47.6689 
G01 X68.4800 Y47.6461 
G01 X68.4907 Y47.6203 
G01 X68.5103 Y47.6007 
G01 X68.5361 Y47.5900 
G01 X69.3639 Y47.5900 
G01 X69.3897 Y47.6007 
G01 X69.4093 Y47.6203 
G01 X69.4200 Y47.6461 
G01 X69.4200 Y48.8739 
G01 X69.4093 Y48.8997 
G01 X69.3897 Y48.9193 
G01 X69.3639 Y48.9300 
G01 X68.5361 Y48.9300 
G01 X68.5103 Y48.9193 
G01 X68.4907 Y48.8997 
G01 X68.4800 Y48.8739 
G01 X68.4800 Y48.2911 
G01 X65.3197 Y45.1308 
G01 X65.1304 Y45.3201 
G01 X64.4096 Y45.3201 
G01 X63.8999 Y44.8104 
G01 X63.8999 Y44.0896 
G01 X64.4096 Y43.5799 
G01 X64.5300 Y43.5799 
G01 X64.5300 Y37.0911 
G01 X61.5504 Y34.1115 
G01 X61.5273 Y34.1460 
G01 X61.4256 Y34.2477 
G01 X61.3060 Y34.3277 
G01 X61.1731 Y34.3827 
G01 X61.0319 Y34.4108 
G01 X60.8881 Y34.4108 
G01 X60.7469 Y34.3827 
G01 X60.6140 Y34.3277 
G01 X60.4944 Y34.2477 
G01 X60.3927 Y34.1460 
G01 X60.3127 Y34.0264 
G01 X60.2577 Y33.8935 
G01 X60.2296 Y33.7523 
G01 X60.2296 Y32.2877 
G01 X60.2577 Y32.1465 
G01 X60.3127 Y32.0136 
G01 X60.3927 Y31.8940 
G01 X60.4944 Y31.7923 
G01 X60.6140 Y31.7123 
G01 X60.7469 Y31.6573 
G01 X60.8881 Y31.6292 
G01 X61.0319 Y31.6292 
G01 X61.1731 Y31.6573 
G01 X61.3060 Y31.7123 
G01 X61.4256 Y31.7923 
G01 X61.5273 Y31.8940 
G01 X61.6073 Y32.0136 
G01 X61.6623 Y32.1465 
G01 X61.6904 Y32.2877 
G00 Z2.0000 
G00 X64.2304 Y32.2877 
G01 Z-0.1000 F254.00 
G01 X64.2304 Y33.7523 F508.00 
G01 X64.2023 Y33.8935 
G01 X64.1473 Y34.0264 
G01 X64.0673 Y34.1460 
G01 X63.9656 Y34.2477 
G01 X63.8460 Y34.3277 
G01 X63.7131 Y34.3827 
G01 X63.5719 Y34.4108 
G01 X63.4281 Y34.4108 
G01 X63.2869 Y34.3827 
G01 X63.1540 Y34.3277 
G01 X63.0344 Y34.2477 
G01 X62.9327 Y34.1460 
G01 X62.8527 Y34.0264 
G01 X62.7977 Y33.8935 
G01 X62.7696 Y33.7523 
G01 X62.7696 Y32.2877 
G01 X62.7977 Y32.1465 
G01 X62.8527 Y32.0136 
G01 X62.9327 Y31.8940 
G01 X63.0344 Y31.7923 
G01 X63.1540 Y31.7123 
G01 X63.2800 Y31.6601 
G01 X63.2800 Y31.4700 
G01 X58.0911 Y31.4700 
G01 X57.4700 Y32.0911 
G01 X57.4700 Y39.7938 
G01 X57.4365 Y39.8746 
G01 X57.3746 Y39.9365 
G01 X48.9300 Y48.3811 
G01 X48.9300 Y49.0439 
G01 X48.9193 Y49.0697 
G01 X48.8997 Y49.0893 
G01 X48.8739 Y49.1000 
G01 X47.6461 Y49.1000 
G01 X47.6203 Y49.0893 
G01 X47.6007 Y49.0697 
G01 X47.5900 Y49.0439 
G01 X47.5900 Y48.2161 
G01 X47.6007 Y48.1903 
G01 X47.6203 Y48.1707 
G01 X47.6461 Y48.1600 
G01 X48.5289 Y48.1600 
G01 X57.0300 Y39.6589 
G01 X57.0300 Y31.9562 
G01 X57.0635 Y31.8754 
G01 X57.8135 Y31.1254 
G01 X57.8754 Y31.0635 
G01 X57.9562 Y31.0300 
G01 X63.5438 Y31.0300 
G01 X63.6246 Y31.0635 
G01 X63.6865 Y31.1254 
G01 X63.7200 Y31.2062 
G01 X63.7200 Y31.6601 
G01 X63.8460 Y31.7123 
G01 X63.9656 Y31.7923 
G01 X64.0673 Y31.8940 
G01 X64.1473 Y32.0136 
G01 X64.2023 Y32.1465 
G01 X64.2304 Y32.2877 
G00 Z2.0000 
G00 X60.5220 Y4.2361 
G01 Z-0.1000 F254.00 
G01 X60.5220 Y5.9239 F508.00 
G01 X60.4900 Y6.0847 
G01 X60.4273 Y6.2361 
G01 X60.3363 Y6.3724 
G01 X60.2204 Y6.4883 
G01 X60.0841 Y6.5793 
G01 X59.9327 Y6.6420 
G01 X59.7719 Y6.6740 
G01 X59.7200 Y6.6740 
G01 X59.7200 Y19.2938 
G01 X59.6865 Y19.3746 
G01 X59.6246 Y19.4365 
G01 X54.0704 Y24.9907 
G01 X54.0704 Y26.1323 
G01 X54.0423 Y26.2735 
G01 X53.9873 Y26.4064 
G01 X53.9073 Y26.5260 
G01 X53.8056 Y26.6277 
G01 X53.6860 Y26.7077 
G01 X53.5531 Y26.7627 
G01 X53.4119 Y26.7908 
G01 X53.2681 Y26.7908 
G01 X53.1269 Y26.7627 
G01 X52.9940 Y26.7077 
G01 X52.8744 Y26.6277 
G01 X52.7727 Y26.5260 
G01 X52.6927 Y26.4064 
G01 X52.6377 Y26.2735 
G01 X52.6096 Y26.1323 
G01 X52.6096 Y24.6677 
G01 X52.6377 Y24.5265 
G01 X52.6927 Y24.3936 
G01 X52.7727 Y24.2740 
G01 X52.8744 Y24.1723 
G01 X52.9940 Y24.0923 
G01 X53.1269 Y24.0373 
G01 X53.2681 Y24.0092 
G01 X53.4119 Y24.0092 
G01 X53.5531 Y24.0373 
G01 X53.6860 Y24.0923 
G01 X53.8056 Y24.1723 
G01 X53.9073 Y24.2740 
G01 X53.9873 Y24.3936 
G01 X54.0043 Y24.4346 
G01 X59.2800 Y19.1589 
G01 X59.2800 Y6.5687 
G01 X59.1596 Y6.4883 
G01 X59.0437 Y6.3724 
G01 X58.9527 Y6.2361 
G01 X58.8900 Y6.0847 
G01 X58.8580 Y5.9239 
G01 X58.8580 Y4.2361 
G01 X58.8900 Y4.0753 
G01 X58.9527 Y3.9239 
G01 X59.0437 Y3.7876 
G01 X59.1596 Y3.6717 
G01 X59.2959 Y3.5807 
G01 X59.4473 Y3.5180 
G01 X59.6081 Y3.4860 
G01 X59.7719 Y3.4860 
G01 X59.9327 Y3.5180 
G01 X60.0841 Y3.5807 
G01 X60.2204 Y3.6717 
G01 X60.3363 Y3.7876 
G01 X60.4273 Y3.9239 
G01 X60.4900 Y4.0753 
G01 X60.5220 Y4.2361 
G00 Z2.0000 
G00 X63.0620 Y4.2361 
G01 Z-0.1000 F254.00 
G01 X63.0620 Y5.9239 F508.00 
G01 X63.0300 Y6.0847 
G01 X62.9673 Y6.2361 
G01 X62.8763 Y6.3724 
G01 X62.7604 Y6.4883 
G01 X62.6241 Y6.5793 
G01 X62.4727 Y6.6420 
G01 X62.3119 Y6.6740 
G01 X62.2200 Y6.6740 
G01 X62.2200 Y19.2938 
G01 X62.1865 Y19.3746 
G01 X62.1246 Y19.4365 
G01 X56.6104 Y24.9507 
G01 X56.6104 Y26.1323 
G01 X56.5823 Y26.2735 
G01 X56.5273 Y26.4064 
G01 X56.4473 Y26.5260 
G01 X56.3456 Y26.6277 
G01 X56.2260 Y26.7077 
G01 X56.0931 Y26.7627 
G01 X55.9519 Y26.7908 
G01 X55.8081 Y26.7908 
G01 X55.6669 Y26.7627 
G01 X55.5340 Y26.7077 
G01 X55.4144 Y26.6277 
G01 X55.3127 Y26.5260 
G01 X55.2327 Y26.4064 
G01 X55.1777 Y26.2735 
G01 X55.1496 Y26.1323 
G01 X55.1496 Y24.6677 
G01 X55.1777 Y24.5265 
G01 X55.2327 Y24.3936 
G01 X55.3127 Y24.2740 
G01 X55.4144 Y24.1723 
G01 X55.5340 Y24.0923 
G01 X55.6669 Y24.0373 
G01 X55.8081 Y24.0092 
G01 X55.9519 Y24.0092 
G01 X56.0931 Y24.0373 
G01 X56.2260 Y24.0923 
G01 X56.3456 Y24.1723 
G01 X56.4473 Y24.2740 
G01 X56.5273 Y24.3936 
G01 X56.5325 Y24.4063 
G01 X61.7800 Y19.1589 
G01 X61.7800 Y6.5420 
G01 X61.6996 Y6.4883 
G01 X61.5837 Y6.3724 
G01 X61.4927 Y6.2361 
G01 X61.4300 Y6.0847 
G01 X61.3980 Y5.9239 
G01 X61.3980 Y4.2361 
G01 X61.4300 Y4.0753 
G01 X61.4927 Y3.9239 
G01 X61.5837 Y3.7876 
G01 X61.6996 Y3.6717 
G01 X61.8359 Y3.5807 
G01 X61.9873 Y3.5180 
G01 X62.1481 Y3.4860 
G01 X62.3119 Y3.4860 
G01 X62.4727 Y3.5180 
G01 X62.6241 Y3.5807 
G01 X62.7604 Y3.6717 
G01 X62.8763 Y3.7876 
G01 X62.9673 Y3.9239 
G01 X63.0300 Y4.0753 
G01 X63.0620 Y4.2361 
G00 Z2.0000 
G00 X61.6161 Y57.5800 
G01 Z-0.1000 F254.00 
G01 X62.8439 Y57.5800 F508.00 
G01 X62.8697 Y57.5907 
G01 X62.8893 Y57.6103 
G01 X62.9000 Y57.6361 
G01 X62.9000 Y58.0300 
G01 X66.7100 Y58.0300 
G01 X66.7100 Y57.5861 
G01 X66.7207 Y57.5603 
G01 X66.7403 Y57.5407 
G01 X66.7661 Y57.5300 
G01 X68.1939 Y57.5300 
G01 X68.2197 Y57.5407 
G01 X68.2393 Y57.5603 
G01 X68.2500 Y57.5861 
G01 X68.2500 Y58.6139 
G01 X68.2393 Y58.6397 
G01 X68.2197 Y58.6593 
G01 X68.1939 Y58.6700 
G01 X66.7661 Y58.6700 
G01 X66.7403 Y58.6593 
G01 X66.7207 Y58.6397 
G01 X66.7100 Y58.6139 
G01 X66.7100 Y58.4700 
G01 X62.8975 Y58.4700 
G01 X62.8893 Y58.4897 
G01 X62.8697 Y58.5093 
G01 X62.8439 Y58.5200 
G01 X61.6161 Y58.5200 
G01 X61.5903 Y58.5093 
G01 X61.5707 Y58.4897 
G01 X61.5600 Y58.4639 
G01 X61.5600 Y58.2200 
G01 X57.8200 Y58.2200 
G01 X57.8200 Y58.4639 
G01 X57.8093 Y58.4897 
G01 X57.7897 Y58.5093 
G01 X57.7639 Y58.5200 
G01 X56.5361 Y58.5200 
G01 X56.5103 Y58.5093 
G01 X56.4907 Y58.4897 
G01 X56.4800 Y58.4639 
G01 X56.4800 Y57.6361 
G01 X56.4907 Y57.6103 
G01 X56.5103 Y57.5907 
G01 X56.5361 Y57.5800 
G01 X57.7639 Y57.5800 
G01 X57.7897 Y57.5907 
G01 X57.8093 Y57.6103 
G01 X57.8200 Y57.6361 
G01 X57.8200 Y57.7800 
G01 X61.5600 Y57.7800 
G01 X61.5600 Y57.6361 
G01 X61.5707 Y57.6103 
G01 X61.5903 Y57.5907 
G01 X61.6161 Y57.5800 
G00 Z2.0000 
G00 X34.3900 Y51.4561 
G01 Z-0.1000 F254.00 
G01 X34.3900 Y52.6839 F508.00 
G01 X34.3793 Y52.7097 
G01 X34.3597 Y52.7293 
G01 X34.3339 Y52.7400 
G01 X33.5711 Y52.7400 
G01 X30.2200 Y56.0911 
G01 X30.2200 Y59.0010 
G01 X30.3430 Y59.0832 
G01 X30.4518 Y59.1920 
G01 X30.5373 Y59.3200 
G01 X30.5962 Y59.4621 
G01 X30.6262 Y59.6131 
G01 X30.6262 Y59.7669 
G01 X30.5962 Y59.9179 
G01 X30.5373 Y60.0600 
G01 X30.4518 Y60.1880 
G01 X30.3430 Y60.2968 
G01 X30.2200 Y60.3790 
G01 X30.2200 Y60.7800 
G01 X42.4089 Y60.7800 
G01 X43.1252 Y60.0637 
G01 X43.1227 Y60.0600 
G01 X43.0638 Y59.9179 
G01 X43.0338 Y59.7669 
G01 X43.0338 Y59.6131 
G01 X43.0638 Y59.4621 
G01 X43.1227 Y59.3200 
G01 X43.2082 Y59.1920 
G01 X43.3170 Y59.0832 
G01 X43.4450 Y58.9977 
G01 X43.5871 Y58.9388 
G01 X43.7381 Y58.9088 
G01 X43.8919 Y58.9088 
G01 X44.0429 Y58.9388 
G01 X44.1850 Y58.9977 
G01 X44.3130 Y59.0832 
G01 X44.4218 Y59.1920 
G01 X44.5073 Y59.3200 
G01 X44.5662 Y59.4621 
G01 X44.5962 Y59.6131 
G01 X44.5962 Y59.7669 
G01 X44.5662 Y59.9179 
G01 X44.5073 Y60.0600 
G01 X44.4218 Y60.1880 
G01 X44.3130 Y60.2968 
G01 X44.1850 Y60.3823 
G01 X44.0429 Y60.4412 
G01 X43.8919 Y60.4712 
G01 X43.7381 Y60.4712 
G01 X43.5871 Y60.4412 
G01 X43.4450 Y60.3823 
G01 X43.4353 Y60.3758 
G01 X42.6865 Y61.1246 
G01 X42.6246 Y61.1865 
G01 X42.5438 Y61.2200 
G01 X29.9562 Y61.2200 
G01 X29.8754 Y61.1865 
G01 X29.8135 Y61.1246 
G01 X29.7800 Y61.0438 
G01 X29.7800 Y60.4712 
G01 X29.7681 Y60.4712 
G01 X29.6171 Y60.4412 
G01 X29.4750 Y60.3823 
G01 X29.3470 Y60.2968 
G01 X29.2382 Y60.1880 
G01 X29.1527 Y60.0600 
G01 X29.0938 Y59.9179 
G01 X29.0638 Y59.7669 
G01 X29.0638 Y59.6131 
G01 X29.0938 Y59.4621 
G01 X29.1527 Y59.3200 
G01 X29.2382 Y59.1920 
G01 X29.3470 Y59.0832 
G01 X29.4750 Y58.9977 
G01 X29.6171 Y58.9388 
G01 X29.7681 Y58.9088 
G01 X29.7800 Y58.9088 
G01 X29.7800 Y55.9562 
G01 X29.8135 Y55.8754 
G01 X29.8754 Y55.8135 
G01 X33.4500 Y52.2389 
G01 X33.4500 Y51.4561 
G01 X33.4607 Y51.4303 
G01 X33.4803 Y51.4107 
G01 X33.5061 Y51.4000 
G01 X33.7800 Y51.4000 
G01 X33.7800 Y48.9300 
G01 X33.5061 Y48.9300 
G01 X33.4803 Y48.9193 
G01 X33.4607 Y48.8997 
G01 X33.4500 Y48.8739 
G01 X33.4500 Y47.6461 
G01 X33.4607 Y47.6203 
G01 X33.4803 Y47.6007 
G01 X33.5061 Y47.5900 
G01 X34.3339 Y47.5900 
G01 X34.3597 Y47.6007 
G01 X34.3793 Y47.6203 
G01 X34.3900 Y47.6461 
G01 X34.3900 Y48.8739 
G01 X34.3793 Y48.8997 
G01 X34.3597 Y48.9193 
G01 X34.3339 Y48.9300 
G01 X34.2200 Y48.9300 
G01 X34.2200 Y51.4000 
G01 X34.3339 Y51.4000 
G01 X34.3597 Y51.4107 
G01 X34.3793 Y51.4303 
G01 X34.3900 Y51.4561 
G00 Z2.0000 
G00 X32.5900 Y51.4561 
G01 Z-0.1000 F254.00 
G01 X32.5900 Y52.6839 F508.00 
G01 X32.5793 Y52.7097 
G01 X32.5597 Y52.7293 
G01 X32.5339 Y52.7400 
G01 X31.7061 Y52.7400 
G01 X31.6803 Y52.7293 
G01 X31.6607 Y52.7097 
G01 X31.6500 Y52.6839 
G01 X31.6500 Y52.2200 
G01 X29.3100 Y52.2200 
G01 X29.3100 Y52.6839 
G01 X29.2993 Y52.7097 
G01 X29.2797 Y52.7293 
G01 X29.2539 Y52.7400 
G01 X28.9700 Y52.7400 
G01 X28.9700 Y56.4744 
G01 X29.0730 Y56.5432 
G01 X29.1818 Y56.6520 
G01 X29.2673 Y56.7800 
G01 X29.3262 Y56.9221 
G01 X29.3562 Y57.0731 
G01 X29.3562 Y57.2269 
G01 X29.3262 Y57.3779 
G01 X29.2673 Y57.5200 
G01 X29.1818 Y57.6480 
G01 X29.0730 Y57.7568 
G01 X28.9450 Y57.8423 
G01 X28.8029 Y57.9012 
G01 X28.6519 Y57.9312 
G01 X28.4981 Y57.9312 
G01 X28.3471 Y57.9012 
G01 X28.2050 Y57.8423 
G01 X28.0770 Y57.7568 
G01 X27.9682 Y57.6480 
G01 X27.8827 Y57.5200 
G01 X27.8238 Y57.3779 
G01 X27.7938 Y57.2269 
G01 X27.7938 Y57.0731 
G01 X27.8238 Y56.9221 
G01 X27.8827 Y56.7800 
G01 X27.9682 Y56.6520 
G01 X28.0770 Y56.5432 
G01 X28.2050 Y56.4577 
G01 X28.3471 Y56.3988 
G01 X28.4981 Y56.3688 
G01 X28.5300 Y56.3688 
G01 X28.5300 Y52.7400 
G01 X28.4261 Y52.7400 
G01 X28.4003 Y52.7293 
G01 X28.3807 Y52.7097 
G01 X28.3700 Y52.6839 
G01 X28.3700 Y51.4561 
G01 X28.3807 Y51.4303 
G01 X28.4003 Y51.4107 
G01 X28.4261 Y51.4000 
G01 X29.2539 Y51.4000 
G01 X29.2797 Y51.4107 
G01 X29.2993 Y51.4303 
G01 X29.3100 Y51.4561 
G01 X29.3100 Y51.7800 
G01 X31.6500 Y51.7800 
G01 X31.6500 Y51.4561 
G01 X31.6607 Y51.4303 
G01 X31.6803 Y51.4107 
G01 X31.7061 Y51.4000 
G01 X32.5339 Y51.4000 
G01 X32.5597 Y51.4107 
G01 X32.5793 Y51.4303 
G01 X32.5900 Y51.4561 
G00 Z2.0000 
G00 X58.0201 Y46.6296 
G01 Z-0.1000 F254.00 
G01 X58.0201 Y47.3504 F508.00 
G01 X57.5104 Y47.8601 
G01 X56.7896 Y47.8601 
G01 X56.2799 Y47.3504 
G01 X56.2799 Y46.6296 
G01 X56.7896 Y46.1199 
G01 X57.5104 Y46.1199 
G01 X58.0201 Y46.6296 
G00 Z2.0000 
G00 X58.0201 Y49.1696 
G01 Z-0.1000 F254.00 
G01 X58.0201 Y49.8904 F508.00 
G01 X57.5104 Y50.4001 
G01 X56.7896 Y50.4001 
G01 X56.2799 Y49.8904 
G01 X56.2799 Y49.1696 
G01 X56.7896 Y48.6599 
G01 X57.5104 Y48.6599 
G01 X58.0201 Y49.1696 
G00 Z2.0000 
G00 X65.6401 Y51.7096 
G01 Z-0.1000 F254.00 
G01 X65.6401 Y52.4304 F508.00 
G01 X65.1304 Y52.9401 
G01 X64.9700 Y52.9401 
G01 X64.9700 Y53.7938 
G01 X64.9365 Y53.8746 
G01 X64.8746 Y53.9365 
G01 X63.6865 Y55.1246 
G01 X63.6246 Y55.1865 
G01 X62.9000 Y55.9111 
G01 X62.9000 Y56.6639 
G01 X62.8893 Y56.6897 
G01 X62.8697 Y56.7093 
G01 X62.8439 Y56.7200 
G01 X61.6161 Y56.7200 
G01 X61.5903 Y56.7093 
G01 X61.5707 Y56.6897 
G01 X61.5600 Y56.6639 
G01 X61.5600 Y55.8361 
G01 X61.5707 Y55.8103 
G01 X61.5903 Y55.7907 
G01 X61.6161 Y55.7800 
G01 X62.4089 Y55.7800 
G01 X63.2800 Y54.9089 
G01 X63.2800 Y38.3411 
G01 X59.0264 Y34.0875 
G01 X58.9873 Y34.1460 
G01 X58.8856 Y34.2477 
G01 X58.7660 Y34.3277 
G01 X58.6331 Y34.3827 
G01 X58.4919 Y34.4108 
G01 X58.3481 Y34.4108 
G01 X58.2069 Y34.3827 
G01 X58.0740 Y34.3277 
G01 X57.9544 Y34.2477 
G01 X57.8527 Y34.1460 
G01 X57.7727 Y34.0264 
G01 X57.7177 Y33.8935 
G01 X57.6896 Y33.7523 
G01 X57.6896 Y32.2877 
G01 X57.7177 Y32.1465 
G01 X57.7727 Y32.0136 
G01 X57.8527 Y31.8940 
G01 X57.9544 Y31.7923 
G01 X58.0740 Y31.7123 
G01 X58.2069 Y31.6573 
G01 X58.3481 Y31.6292 
G01 X58.4919 Y31.6292 
G01 X58.6331 Y31.6573 
G01 X58.7660 Y31.7123 
G01 X58.8856 Y31.7923 
G01 X58.9873 Y31.8940 
G01 X59.0673 Y32.0136 
G01 X59.1223 Y32.1465 
G01 X59.1504 Y32.2877 
G01 X59.1504 Y33.5893 
G01 X63.6246 Y38.0635 
G01 X63.6865 Y38.1254 
G01 X63.7200 Y38.2062 
G01 X63.7200 Y54.4689 
G01 X64.5300 Y53.6589 
G01 X64.5300 Y52.9401 
G01 X64.4096 Y52.9401 
G01 X63.8999 Y52.4304 
G01 X63.8999 Y51.7096 
G01 X64.4096 Y51.1999 
G01 X65.1304 Y51.1999 
G01 X65.6401 Y51.7096 
G00 Z2.0000 
G00 X65.6401 Y49.8904 
G01 Z-0.1000 F254.00 
G01 X65.1304 Y50.4001 F508.00 
G01 X64.4096 Y50.4001 
G01 X63.8999 Y49.8904 
G01 X63.8999 Y49.1696 
G01 X64.4096 Y48.6599 
G01 X64.5300 Y48.6599 
G01 X64.5300 Y47.8601 
G01 X64.4096 Y47.8601 
G01 X63.8999 Y47.3504 
G01 X63.8999 Y46.6296 
G01 X64.4096 Y46.1199 
G01 X65.1304 Y46.1199 
G01 X65.6401 Y46.6296 
G01 X65.6401 Y47.3504 
G01 X65.1304 Y47.8601 
G01 X64.9700 Y47.8601 
G01 X64.9700 Y47.9089 
G01 X68.4911 Y51.4299 
G01 X68.5103 Y51.4107 
G01 X68.5361 Y51.4000 
G01 X69.3639 Y51.4000 
G01 X69.3897 Y51.4107 
G01 X69.4093 Y51.4303 
G01 X69.4200 Y51.4561 
G01 X69.4200 Y52.3589 
G01 X69.6246 Y52.5635 
G01 X69.6865 Y52.6254 
G01 X69.7200 Y52.7062 
G01 X69.7200 Y56.5800 
G01 X70.3939 Y56.5800 
G01 X70.4197 Y56.5907 
G01 X70.4393 Y56.6103 
G01 X70.4500 Y56.6361 
G01 X70.4500 Y57.6639 
G01 X70.4393 Y57.6897 
G01 X70.4197 Y57.7093 
G01 X70.3939 Y57.7200 
G01 X68.9661 Y57.7200 
G01 X68.9403 Y57.7093 
G01 X68.9207 Y57.6897 
G01 X68.9100 Y57.6639 
G01 X68.9100 Y56.6361 
G01 X68.9207 Y56.6103 
G01 X68.9403 Y56.5907 
G01 X68.9661 Y56.5800 
G01 X69.2800 Y56.5800 
G01 X69.2800 Y52.8411 
G01 X69.1789 Y52.7400 
G01 X68.5361 Y52.7400 
G01 X68.5103 Y52.7293 
G01 X68.4907 Y52.7097 
G01 X68.4800 Y52.6839 
G01 X68.4800 Y52.0411 
G01 X65.6401 Y49.2012 
G01 X65.6401 Y49.8904 
G00 Z2.0000 
G00 X43.3262 Y57.0731 
G01 Z-0.1000 F254.00 
G01 X43.3262 Y57.2269 F508.00 
G01 X43.2962 Y57.3779 
G01 X43.2373 Y57.5200 
G01 X43.1518 Y57.6480 
G01 X43.0430 Y57.7568 
G01 X42.9150 Y57.8423 
G01 X42.7729 Y57.9012 
G01 X42.6219 Y57.9312 
G01 X42.4681 Y57.9312 
G01 X42.3171 Y57.9012 
G01 X42.1750 Y57.8423 
G01 X42.0470 Y57.7568 
G01 X41.9382 Y57.6480 
G01 X41.8527 Y57.5200 
G01 X41.7938 Y57.3779 
G01 X41.7638 Y57.2269 
G01 X41.7638 Y57.0731 
G01 X41.7938 Y56.9221 
G01 X41.8527 Y56.7800 
G01 X41.9382 Y56.6520 
G01 X42.0470 Y56.5432 
G01 X42.1750 Y56.4577 
G01 X42.3171 Y56.3988 
G01 X42.4681 Y56.3688 
G01 X42.6219 Y56.3688 
G01 X42.7729 Y56.3988 
G01 X42.9150 Y56.4577 
G01 X43.0430 Y56.5432 
G01 X43.1518 Y56.6520 
G01 X43.2373 Y56.7800 
G01 X43.2962 Y56.9221 
G01 X43.3262 Y57.0731 
G00 Z2.0000 
G00 X71.2200 Y51.4561 
G01 Z-0.1000 F254.00 
G01 X71.2200 Y57.7938 F508.00 
G01 X71.1865 Y57.8746 
G01 X65.6865 Y63.3746 
G01 X65.6246 Y63.4365 
G01 X65.5438 Y63.4700 
G01 X62.7190 Y63.4700 
G01 X62.7190 Y64.1377 
G01 X62.6883 Y64.2921 
G01 X62.6281 Y64.4375 
G01 X62.5406 Y64.5683 
G01 X62.4293 Y64.6796 
G01 X62.2985 Y64.7671 
G01 X62.1531 Y64.8273 
G01 X61.9987 Y64.8580 
G01 X61.8413 Y64.8580 
G01 X61.6869 Y64.8273 
G01 X61.5415 Y64.7671 
G01 X61.4107 Y64.6796 
G01 X61.2994 Y64.5683 
G01 X61.2119 Y64.4375 
G01 X61.1517 Y64.2921 
G01 X61.1210 Y64.1377 
G01 X61.1210 Y62.5223 
G01 X61.1517 Y62.3679 
G01 X61.2119 Y62.2225 
G01 X61.2994 Y62.0917 
G01 X61.4107 Y61.9804 
G01 X61.5415 Y61.8929 
G01 X61.6869 Y61.8327 
G01 X61.8413 Y61.8020 
G01 X61.9987 Y61.8020 
G01 X62.1531 Y61.8327 
G01 X62.2985 Y61.8929 
G01 X62.4293 Y61.9804 
G01 X62.5406 Y62.0917 
G01 X62.6281 Y62.2225 
G01 X62.6883 Y62.3679 
G01 X62.7190 Y62.5223 
G01 X62.7190 Y63.0300 
G01 X65.4089 Y63.0300 
G01 X70.7800 Y57.6589 
G01 X70.7800 Y52.7400 
G01 X70.3361 Y52.7400 
G01 X70.3103 Y52.7293 
G01 X70.2907 Y52.7097 
G01 X70.2800 Y52.6839 
G01 X70.2800 Y51.4561 
G01 X70.2907 Y51.4303 
G01 X70.3103 Y51.4107 
G01 X70.3361 Y51.4000 
G01 X70.5300 Y51.4000 
G01 X70.5300 Y48.9300 
G01 X70.3361 Y48.9300 
G01 X70.3103 Y48.9193 
G01 X70.2907 Y48.8997 
G01 X70.2800 Y48.8739 
G01 X70.2800 Y48.0911 
G01 X65.3754 Y43.1865 
G01 X65.3135 Y43.1246 
G01 X65.2800 Y43.0438 
G01 X65.2800 Y30.5911 
G01 X62.1589 Y27.4700 
G01 X54.3411 Y27.4700 
G01 X52.4700 Y29.3411 
G01 X52.4700 Y43.0438 
G01 X52.4365 Y43.1246 
G01 X52.3746 Y43.1865 
G01 X47.4700 Y48.0911 
G01 X47.4700 Y49.2800 
G01 X51.9089 Y49.2800 
G01 X56.3292 Y44.8597 
G01 X56.2799 Y44.8104 
G01 X56.2799 Y44.0896 
G01 X56.7896 Y43.5799 
G01 X57.5104 Y43.5799 
G01 X58.0201 Y44.0896 
G01 X58.0201 Y44.8104 
G01 X57.5104 Y45.3201 
G01 X56.7896 Y45.3201 
G01 X56.6403 Y45.1708 
G01 X52.1865 Y49.6246 
G01 X52.1246 Y49.6865 
G01 X52.0438 Y49.7200 
G01 X47.2062 Y49.7200 
G01 X47.1254 Y49.6865 
G01 X47.0635 Y49.6246 
G01 X47.0300 Y49.5438 
G01 X47.0300 Y47.9562 
G01 X47.0635 Y47.8754 
G01 X47.1254 Y47.8135 
G01 X52.0300 Y42.9089 
G01 X52.0300 Y29.7811 
G01 X48.9904 Y32.8207 
G01 X48.9904 Y33.7523 
G01 X48.9623 Y33.8935 
G01 X48.9073 Y34.0264 
G01 X48.8273 Y34.1460 
G01 X48.7256 Y34.2477 
G01 X48.6060 Y34.3277 
G01 X48.4731 Y34.3827 
G01 X48.3319 Y34.4108 
G01 X48.1881 Y34.4108 
G01 X48.0469 Y34.3827 
G01 X47.9140 Y34.3277 
G01 X47.7944 Y34.2477 
G01 X47.6927 Y34.1460 
G01 X47.6127 Y34.0264 
G01 X47.5577 Y33.8935 
G01 X47.5296 Y33.7523 
G01 X47.5296 Y32.2877 
G01 X47.5577 Y32.1465 
G01 X47.6127 Y32.0136 
G01 X47.6927 Y31.8940 
G01 X47.7944 Y31.7923 
G01 X47.9140 Y31.7123 
G01 X48.0469 Y31.6573 
G01 X48.1881 Y31.6292 
G01 X48.3319 Y31.6292 
G01 X48.4731 Y31.6573 
G01 X48.6060 Y31.7123 
G01 X48.7256 Y31.7923 
G01 X48.8273 Y31.8940 
G01 X48.9073 Y32.0136 
G01 X48.9623 Y32.1465 
G01 X48.9756 Y32.2133 
G01 X52.1254 Y29.0635 
G01 X54.0635 Y27.1254 
G01 X54.1254 Y27.0635 
G01 X54.2062 Y27.0300 
G01 X62.0300 Y27.0300 
G01 X62.0300 Y22.7062 
G01 X62.0635 Y22.6254 
G01 X71.2464 Y13.4425 
G01 X71.2339 Y13.4373 
G01 X71.0976 Y13.3463 
G01 X70.9817 Y13.2304 
G01 X70.8907 Y13.0941 
G01 X70.8280 Y12.9427 
G01 X70.7960 Y12.7819 
G01 X70.7960 Y12.6181 
G01 X70.8280 Y12.4573 
G01 X70.8907 Y12.3059 
G01 X70.9817 Y12.1696 
G01 X71.0976 Y12.0537 
G01 X71.2339 Y11.9627 
G01 X71.3853 Y11.9000 
G01 X71.5461 Y11.8680 
G01 X73.2339 Y11.8680 
G01 X73.3947 Y11.9000 
G01 X73.5461 Y11.9627 
G01 X73.6824 Y12.0537 
G01 X73.7983 Y12.1696 
G01 X73.8893 Y12.3059 
G01 X73.9520 Y12.4573 
G01 X73.9840 Y12.6181 
G01 X73.9840 Y12.7819 
G01 X73.9520 Y12.9427 
G01 X73.8893 Y13.0941 
G01 X73.7983 Y13.2304 
G01 X73.6824 Y13.3463 
G01 X73.5461 Y13.4373 
G01 X73.3947 Y13.5000 
G01 X73.2339 Y13.5320 
G01 X71.7791 Y13.5320 
G01 X62.4700 Y22.8411 
G01 X62.4700 Y27.1589 
G01 X65.6865 Y30.3754 
G01 X65.7200 Y30.4562 
G01 X65.7200 Y42.9089 
G01 X70.4011 Y47.5900 
G01 X71.1639 Y47.5900 
G01 X71.1897 Y47.6007 
G01 X71.2093 Y47.6203 
G01 X71.2200 Y47.6461 
G01 X71.2200 Y48.8739 
G01 X71.2093 Y48.8997 
G01 X71.1897 Y48.9193 
G01 X71.1639 Y48.9300 
G01 X70.9700 Y48.9300 
G01 X70.9700 Y51.4000 
G01 X71.1639 Y51.4000 
G01 X71.1897 Y51.4107 
G01 X71.2093 Y51.4303 
G01 X71.2200 Y51.4561 
G00 Z2.0000 
G00 X75.4315 Y66.1318 
G01 Z-0.1000 F254.00 
G01 X75.4315 Y63.4082 F508.00 
G01 X75.4642 Y63.2019 
G01 X75.5287 Y63.0032 
G01 X75.6236 Y62.8170 
G01 X75.7464 Y62.6480 
G01 X75.8941 Y62.5003 
G01 X76.0631 Y62.3775 
G01 X76.2493 Y62.2826 
G01 X76.4480 Y62.2181 
G01 X76.5300 Y62.2051 
G01 X76.5300 Y59.2250 
G01 X75.9411 Y59.2250 
G01 X75.9153 Y59.2143 
G01 X75.8957 Y59.1947 
G01 X75.8850 Y59.1689 
G01 X75.8850 Y57.6711 
G01 X75.8957 Y57.6453 
G01 X75.9153 Y57.6257 
G01 X75.9411 Y57.6150 
G01 X77.2389 Y57.6150 
G01 X77.2647 Y57.6257 
G01 X77.2843 Y57.6453 
G01 X77.2950 Y57.6711 
G01 X77.2950 Y59.1689 
G01 X77.2843 Y59.1947 
G01 X77.2647 Y59.2143 
G01 X77.2389 Y59.2250 
G01 X76.9700 Y59.2250 
G01 X76.9700 Y62.2023 
G01 X77.0696 Y62.2181 
G01 X77.2683 Y62.2826 
G01 X77.4545 Y62.3775 
G01 X77.6235 Y62.5003 
G01 X77.7712 Y62.6480 
G01 X77.8940 Y62.8170 
G01 X77.9889 Y63.0032 
G01 X78.0534 Y63.2019 
G01 X78.0861 Y63.4082 
G01 X78.0861 Y66.1318 
G01 X78.0534 Y66.3381 
G01 X77.9889 Y66.5368 
G01 X77.8940 Y66.7230 
G01 X77.7712 Y66.8920 
G01 X77.6235 Y67.0397 
G01 X77.4545 Y67.1625 
G01 X77.2683 Y67.2574 
G01 X77.0696 Y67.3219 
G01 X76.8633 Y67.3546 
G01 X76.6543 Y67.3546 
G01 X76.4480 Y67.3219 
G01 X76.2493 Y67.2574 
G01 X76.0631 Y67.1625 
G01 X75.8941 Y67.0397 
G01 X75.7464 Y66.8920 
G01 X75.6236 Y66.7230 
G01 X75.5287 Y66.5368 
G01 X75.4642 Y66.3381 
G01 X75.4315 Y66.1318 
G00 Z2.0000 
G00 X22.9600 Y48.9161 
G01 Z-0.1000 F254.00 
G01 X22.9600 Y49.8989 F508.00 
G01 X26.1246 Y53.0635 
G01 X26.1865 Y53.1254 
G01 X26.2200 Y53.2062 
G01 X26.2200 Y56.3903 
G01 X26.2629 Y56.3988 
G01 X26.4050 Y56.4577 
G01 X26.5330 Y56.5432 
G01 X26.6418 Y56.6520 
G01 X26.7273 Y56.7800 
G01 X26.7862 Y56.9221 
G01 X26.8162 Y57.0731 
G01 X26.8162 Y57.2269 
G01 X26.7862 Y57.3779 
G01 X26.7273 Y57.5200 
G01 X26.6418 Y57.6480 
G01 X26.5330 Y57.7568 
G01 X26.4050 Y57.8423 
G01 X26.2629 Y57.9012 
G01 X26.1119 Y57.9312 
G01 X25.9581 Y57.9312 
G01 X25.8071 Y57.9012 
G01 X25.6650 Y57.8423 
G01 X25.5370 Y57.7568 
G01 X25.4282 Y57.6480 
G01 X25.3427 Y57.5200 
G01 X25.2838 Y57.3779 
G01 X25.2538 Y57.2269 
G01 X25.2538 Y57.0731 
G01 X25.2838 Y56.9221 
G01 X25.3427 Y56.7800 
G01 X25.4282 Y56.6520 
G01 X25.5370 Y56.5432 
G01 X25.6650 Y56.4577 
G01 X25.7800 Y56.4101 
G01 X25.7800 Y53.3411 
G01 X22.6389 Y50.2000 
G01 X22.0761 Y50.2000 
G01 X22.0503 Y50.1893 
G01 X22.0307 Y50.1697 
G01 X22.0200 Y50.1439 
G01 X22.0200 Y48.9161 
G01 X22.0307 Y48.8903 
G01 X22.0503 Y48.8707 
G01 X22.0761 Y48.8600 
G01 X22.9039 Y48.8600 
G01 X22.9297 Y48.8707 
G01 X22.9493 Y48.8903 
G01 X22.9600 Y48.9161 
G00 Z2.0000 
G00 X1.6123 Y58.7818 
G01 Z-0.1000 F254.00 
G01 X3.4677 Y58.7818 F508.00 
G01 X3.6431 Y58.8167 
G01 X3.8084 Y58.8852 
G01 X3.9571 Y58.9846 
G01 X4.0836 Y59.1111 
G01 X4.1830 Y59.2598 
G01 X4.2515 Y59.4251 
G01 X4.2864 Y59.6005 
G01 X4.2864 Y59.7795 
G01 X4.2515 Y59.9549 
G01 X4.1830 Y60.1202 
G01 X4.0836 Y60.2689 
G01 X3.9571 Y60.3954 
G01 X3.8084 Y60.4948 
G01 X3.6431 Y60.5633 
G01 X3.4677 Y60.5982 
G01 X1.6123 Y60.5982 
G01 X1.4369 Y60.5633 
G01 X1.2716 Y60.4948 
G01 X1.1229 Y60.3954 
G01 X0.9964 Y60.2689 
G01 X0.8970 Y60.1202 
G01 X0.8285 Y59.9549 
G01 X0.7936 Y59.7795 
G01 X0.7936 Y59.6005 
G01 X0.8285 Y59.4251 
G01 X0.8970 Y59.2598 
G01 X0.9964 Y59.1111 
G01 X1.1229 Y58.9846 
G01 X1.2716 Y58.8852 
G01 X1.4369 Y58.8167 
G01 X1.6123 Y58.7818 
G00 Z2.0000 
G00 X1.6123 Y54.9718 
G01 Z-0.1000 F254.00 
G01 X3.4677 Y54.9718 F508.00 
G01 X3.6431 Y55.0067 
G01 X3.8084 Y55.0752 
G01 X3.9571 Y55.1746 
G01 X4.0836 Y55.3011 
G01 X4.1830 Y55.4498 
G01 X4.2515 Y55.6151 
G01 X4.2864 Y55.7905 
G01 X4.2864 Y55.9695 
G01 X4.2515 Y56.1449 
G01 X4.1830 Y56.3102 
G01 X4.0836 Y56.4589 
G01 X3.9571 Y56.5854 
G01 X3.8084 Y56.6848 
G01 X3.6431 Y56.7533 
G01 X3.4677 Y56.7882 
G01 X1.6123 Y56.7882 
G01 X1.4369 Y56.7533 
G01 X1.2716 Y56.6848 
G01 X1.1229 Y56.5854 
G01 X0.9964 Y56.4589 
G01 X0.8970 Y56.3102 
G01 X0.8285 Y56.1449 
G01 X0.7936 Y55.9695 
G01 X0.7936 Y55.7905 
G01 X0.8285 Y55.6151 
G01 X0.8970 Y55.4498 
G01 X0.9964 Y55.3011 
G01 X1.1229 Y55.1746 
G01 X1.2716 Y55.0752 
G01 X1.4369 Y55.0067 
G01 X1.6123 Y54.9718 
G00 Z2.0000 
G00 X1.6123 Y51.1618 
G01 Z-0.1000 F254.00 
G01 X2.5300 Y51.1618 F508.00 
G01 X2.5300 Y48.4562 
G01 X2.5635 Y48.3754 
G01 X2.6254 Y48.3135 
G01 X7.3050 Y43.6339 
G01 X7.3050 Y42.4311 
G01 X7.3157 Y42.4053 
G01 X7.3353 Y42.3857 
G01 X7.3611 Y42.3750 
G01 X8.6589 Y42.3750 
G01 X8.6846 Y42.3857 
G01 X8.7043 Y42.4053 
G01 X8.7150 Y42.4311 
G01 X8.7150 Y43.9289 
G01 X8.7043 Y43.9547 
G01 X8.6846 Y43.9743 
G01 X8.6589 Y43.9850 
G01 X7.5761 Y43.9850 
G01 X2.9700 Y48.5911 
G01 X2.9700 Y51.1618 
G01 X3.4677 Y51.1618 
G01 X3.6431 Y51.1967 
G01 X3.8084 Y51.2652 
G01 X3.9571 Y51.3646 
G01 X4.0836 Y51.4911 
G01 X4.1830 Y51.6398 
G01 X4.2515 Y51.8051 
G01 X4.2864 Y51.9805 
G01 X4.2864 Y52.1594 
G01 X4.2515 Y52.3349 
G01 X4.1830 Y52.5002 
G01 X4.0836 Y52.6489 
G01 X3.9571 Y52.7754 
G01 X3.8084 Y52.8748 
G01 X3.6431 Y52.9433 
G01 X3.4677 Y52.9782 
G01 X1.6123 Y52.9782 
G01 X1.4369 Y52.9433 
G01 X1.2716 Y52.8748 
G01 X1.1229 Y52.7754 
G01 X0.9964 Y52.6489 
G01 X0.8970 Y52.5002 
G01 X0.8285 Y52.3349 
G01 X0.7936 Y52.1594 
G01 X0.7936 Y51.9805 
G01 X0.8285 Y51.8051 
G01 X0.8970 Y51.6398 
G01 X0.9964 Y51.4911 
G01 X1.1229 Y51.3646 
G01 X1.2716 Y51.2652 
G01 X1.4369 Y51.1967 
G01 X1.6123 Y51.1618 
G00 Z2.0000 
G00 X18.6561 Y53.9400 
G01 Z-0.1000 F254.00 
G01 X19.8839 Y53.9400 F508.00 
G01 X19.9096 Y53.9507 
G01 X19.9293 Y53.9703 
G01 X19.9400 Y53.9961 
G01 X19.9400 Y55.2239 
G01 X19.9293 Y55.2497 
G01 X19.9096 Y55.2693 
G01 X19.8839 Y55.2800 
G01 X18.6561 Y55.2800 
G01 X18.6303 Y55.2693 
G01 X18.6107 Y55.2497 
G01 X18.6000 Y55.2239 
G01 X18.6000 Y54.4700 
G01 X15.9100 Y54.4700 
G01 X15.9100 Y54.6539 
G01 X15.8993 Y54.6797 
G01 X15.8797 Y54.6993 
G01 X15.8539 Y54.7100 
G01 X14.6261 Y54.7100 
G01 X14.6003 Y54.6993 
G01 X14.5807 Y54.6797 
G01 X14.5700 Y54.6539 
G01 X14.5700 Y53.8261 
G01 X14.5807 Y53.8003 
G01 X14.6003 Y53.7807 
G01 X14.6261 Y53.7700 
G01 X15.8539 Y53.7700 
G01 X15.8797 Y53.7807 
G01 X15.8993 Y53.8003 
G01 X15.9100 Y53.8261 
G01 X15.9100 Y54.0300 
G01 X18.6000 Y54.0300 
G01 X18.6000 Y53.9961 
G01 X18.6107 Y53.9703 
G01 X18.6303 Y53.9507 
G01 X18.6561 Y53.9400 
G00 Z2.0000 
G00 X15.1537 Y60.3922 
G01 Z-0.1000 F254.00 
G01 X12.7863 Y60.3922 F508.00 
G01 X12.6057 Y60.3636 
G01 X12.4317 Y60.3071 
G01 X12.2687 Y60.2240 
G01 X12.1207 Y60.1165 
G01 X11.9913 Y59.9871 
G01 X11.8838 Y59.8391 
G01 X11.8007 Y59.6761 
G01 X11.7442 Y59.5021 
G01 X11.7156 Y59.3215 
G01 X11.7156 Y59.1385 
G01 X11.7442 Y58.9579 
G01 X11.8007 Y58.7839 
G01 X11.8838 Y58.6209 
G01 X11.9913 Y58.4729 
G01 X12.1207 Y58.3435 
G01 X12.2687 Y58.2360 
G01 X12.4317 Y58.1529 
G01 X12.6057 Y58.0964 
G01 X12.7863 Y58.0678 
G01 X15.1537 Y58.0678 
G01 X15.3343 Y58.0964 
G01 X15.5083 Y58.1529 
G01 X15.6713 Y58.2360 
G01 X15.8193 Y58.3435 
G01 X15.9487 Y58.4729 
G01 X16.0562 Y58.6209 
G01 X16.1393 Y58.7839 
G01 X16.1958 Y58.9579 
G01 X16.2244 Y59.1385 
G01 X16.2244 Y59.3215 
G01 X16.1958 Y59.5021 
G01 X16.1393 Y59.6761 
G01 X16.0562 Y59.8391 
G01 X15.9487 Y59.9871 
G01 X15.8193 Y60.1165 
G01 X15.6713 Y60.2240 
G01 X15.5083 Y60.3071 
G01 X15.3343 Y60.3636 
G01 X15.1537 Y60.3922 
G00 Z2.0000 
G00 X10.3322 Y61.0463 
G01 Z-0.1000 F254.00 
G01 X10.3322 Y63.4137 F508.00 
G01 X10.3036 Y63.5943 
G01 X10.2470 Y63.7683 
G01 X10.1640 Y63.9313 
G01 X10.0565 Y64.0793 
G01 X9.9271 Y64.2087 
G01 X9.7791 Y64.3162 
G01 X9.6161 Y64.3993 
G01 X9.4421 Y64.4558 
G01 X9.2615 Y64.4844 
G01 X9.0785 Y64.4844 
G01 X8.8979 Y64.4558 
G01 X8.7239 Y64.3993 
G01 X8.5609 Y64.3162 
G01 X8.4129 Y64.2087 
G01 X8.2835 Y64.0793 
G01 X8.1760 Y63.9313 
G01 X8.0929 Y63.7683 
G01 X8.0364 Y63.5943 
G01 X8.0078 Y63.4137 
G01 X8.0078 Y61.0463 
G01 X8.0364 Y60.8657 
G01 X8.0929 Y60.6917 
G01 X8.1760 Y60.5287 
G01 X8.2835 Y60.3807 
G01 X8.4129 Y60.2513 
G01 X8.5609 Y60.1438 
G01 X8.7239 Y60.0607 
G01 X8.8979 Y60.0042 
G01 X9.0785 Y59.9756 
G01 X9.2615 Y59.9756 
G01 X9.4421 Y60.0042 
G01 X9.6161 Y60.0607 
G01 X9.7791 Y60.1438 
G01 X9.9271 Y60.2513 
G01 X10.0565 Y60.3807 
G01 X10.1640 Y60.5287 
G01 X10.2470 Y60.6917 
G01 X10.3036 Y60.8657 
G01 X10.3322 Y61.0463 
G00 Z2.0000 
G00 X92.6343 Y14.5519 
G01 Z-0.1000 F254.00 
G01 X92.7021 Y14.5799 F508.00 
G01 X92.7539 Y14.6318 
G01 X92.7820 Y14.6995 
G01 X92.7820 Y14.7728 
G01 X92.7539 Y14.8406 
G01 X92.7021 Y14.8924 
G01 X92.6343 Y14.9205 
G01 X90.6332 Y14.9205 
G01 X90.5655 Y14.8924 
G01 X90.1799 Y14.5068 
G01 X90.1281 Y14.4550 
G01 X90.1000 Y14.3872 
G01 X90.1000 Y13.5428 
G01 X90.1281 Y13.4751 
G01 X90.5136 Y13.0895 
G01 X90.5655 Y13.0377 
G01 X90.6332 Y13.0096 
G01 X92.6343 Y13.0096 
G01 X92.7021 Y13.0377 
G01 X92.7539 Y13.0895 
G01 X92.7820 Y13.1572 
G01 X92.7820 Y13.2306 
G01 X92.7539 Y13.2983 
G01 X92.7021 Y13.3501 
