(.../pcb-gcode-3.6.0.4/pcb-gcode.ulp)
(Copyright 2005 - 2012 by John Johnson)
(See readme.txt for licensing terms.)
(This file generated from the board:)
(.../eagle/ARMEDBASE_V0/MCU/MCU.brd)
(Current profile is .../pcb-gcode-3.6.0.4/profiles/emc.pp  )
(This file generated 6/26/2014 4:20:37 PM)
(Settings from pcb-machine.h)
(  Tool Size)
(0.2000 )
(Z Axis Settings)
(  High     Up        Down     Drill)
(12.7000 	2.5400 	-0.1500 	-0.8128 )
(spindle on time = 3.0000)
(milling depth = -0.1500)
(text depth = -0.1270)
(tool change at 12.7000 15.2400 25.4000 )
(feed rate xy = F508.00 )
(feed rate z  = F254.00 )
(Settings from pcb-defaults.h)
(isolate min = 0.0154)
(isolate max = 0.5080)
(isolate step = 0.1270)
(Generated top outlines, top drill, bottom outlines, bottom drill, )
(Unit of measure: mm)
( Tool|       Size       |  Min Sub |  Max Sub |   Count )
( T01  3.200mm 0.1260in 0.0000in 0.0000in )
( T02  3.302mm 0.1300in 0.0000in 0.0000in )
( T03  0.610mm 0.0240in 0.0000in 0.0000in )
( T04  0.800mm 0.0315in 0.0000in 0.0000in )
( T05  0.813mm 0.0320in 0.0000in 0.0000in )
( T06  0.900mm 0.0354in 0.0000in 0.0000in )
( T07  0.950mm 0.0374in 0.0000in 0.0000in )
( T08  1.000mm 0.0394in 0.0000in 0.0000in )
( T09  1.016mm 0.0400in 0.0000in 0.0000in )
( T10  1.118mm 0.0440in 0.0000in 0.0000in )
( T11  1.321mm 0.0520in 0.0000in 0.0000in )
( T12  1.676mm 0.0660in 0.0000in 0.0000in )
( T13  2.300mm 0.0906in 0.0000in 0.0000in )
(Metric Mode)
G21
(Absolute Coordinates)
G90
M05
G00 Z25.4000 
G00 X12.7000 Y15.2400 
M06 T01  ; 3.2000 
G01 Z0.0000 F254.00 
M06 T01  ; 3.2000 
G00 Z2.5400 
M03
G04 P3.000000
G00 Z2.540000
G00 X31.7500 Y66.0400 
G01 Z-0.8128 F254.00 
G01 Z2.540000
(R2.5400  P1.000000)
(G00 Z2.540000)
G00 X3.8100 Y3.8100 
G01 Z-0.812800
G01 Z2.540000
(G00 Z2.540000)
G00 X3.8100 Y66.0400 
G01 Z-0.812800
G01 Z2.540000
(G00 Z2.540000)
G00 X38.1000 Y66.0400 
G01 Z-0.812800
G01 Z2.540000
(G00 Z2.540000)
G00 X45.7200 Y66.0400 
G01 Z-0.812800
G01 Z2.540000
(G00 Z2.540000)
G00 X95.2500 Y3.8100 
G01 Z-0.812800
G01 Z2.540000
(G00 Z2.540000)
G00 X95.2500 Y66.0400 
G01 Z-0.812800
G01 Z2.540000
(G00 Z2.540000)
G00 X24.1300 Y66.0400 
G01 Z-0.812800
G01 Z2.540000
M05
G00 Z25.4000 
M06 T02  ; 3.3020 
G01 Z0.0000 F254.00 
M06 T02  ; 3.3020 
G00 Z2.5400 
M03
G04 P3.000000
G00 Z2.540000
G00 X7.6200 Y23.1140 
G01 Z-0.8128 F254.00 
G01 Z2.540000
(R2.5400  P1.000000)
M05
G00 Z25.4000 
M06 T03  ; 0.6096 
G01 Z0.0000 F254.00 
M06 T03  ; 0.6096 
G00 Z2.5400 
M03
G04 P3.000000
G00 Z2.540000
G00 X36.0000 Y44.5000 
G01 Z-0.8128 F254.00 
G01 Z2.540000
(R2.5400  P1.000000)
(G00 Z2.540000)
G00 X37.7500 Y28.2500 
G01 Z-0.812800
G01 Z2.540000
(G00 Z2.540000)
G00 X39.0000 Y22.0000 
G01 Z-0.812800
G01 Z2.540000
(G00 Z2.540000)
G00 X42.2500 Y21.2500 
G01 Z-0.812800
G01 Z2.540000
(G00 Z2.540000)
G00 X46.7500 Y34.7500 
G01 Z-0.812800
G01 Z2.540000
(G00 Z2.540000)
G00 X52.5000 Y43.5000 
G01 Z-0.812800
G01 Z2.540000
(G00 Z2.540000)
G00 X62.5000 Y39.7500 
G01 Z-0.812800
G01 Z2.540000
(G00 Z2.540000)
G00 X65.5000 Y42.7500 
G01 Z-0.812800
G01 Z2.540000
(G00 Z2.540000)
G00 X76.2500 Y35.0000 
G01 Z-0.812800
G01 Z2.540000
(G00 Z2.540000)
G00 X24.7500 Y26.2500 
G01 Z-0.812800
G01 Z2.540000
(G00 Z2.540000)
G00 X28.2500 Y30.2500 
G01 Z-0.812800
G01 Z2.540000
M05
G00 Z25.4000 
M06 T04  ; 0.8000 
G01 Z0.0000 F254.00 
M06 T04  ; 0.8000 
G00 Z2.5400 
M03
G04 P3.000000
G00 Z2.540000
G00 X9.1700 Y62.2300 
G01 Z-0.8128 F254.00 
G01 Z2.540000
(R2.5400  P1.000000)
(G00 Z2.540000)
G00 X13.9700 Y65.2300 
G01 Z-0.812800
G01 Z2.540000
M05
G00 Z25.4000 
M06 T05  ; 0.8128 
G01 Z0.0000 F254.00 
M06 T05  ; 0.8128 
G00 Z2.5400 
M03
G04 P3.000000
G00 Z2.540000
G00 X33.0200 Y33.0200 
G01 Z-0.8128 F254.00 
G01 Z2.540000
(R2.5400  P1.000000)
(G00 Z2.540000)
G00 X33.0200 Y25.4000 
G01 Z-0.812800
G01 Z2.540000
(G00 Z2.540000)
G00 X35.5600 Y33.0200 
G01 Z-0.812800
G01 Z2.540000
(G00 Z2.540000)
G00 X35.5600 Y25.4000 
G01 Z-0.812800
G01 Z2.540000
(G00 Z2.540000)
G00 X38.1000 Y33.0200 
G01 Z-0.812800
G01 Z2.540000
(G00 Z2.540000)
G00 X38.1000 Y25.4000 
G01 Z-0.812800
G01 Z2.540000
(G00 Z2.540000)
G00 X40.6400 Y33.0200 
G01 Z-0.812800
G01 Z2.540000
(G00 Z2.540000)
G00 X40.6400 Y25.4000 
G01 Z-0.812800
G01 Z2.540000
(G00 Z2.540000)
G00 X43.1800 Y33.0200 
G01 Z-0.812800
G01 Z2.540000
(G00 Z2.540000)
G00 X43.1800 Y25.4000 
G01 Z-0.812800
G01 Z2.540000
(G00 Z2.540000)
G00 X45.7200 Y33.0200 
G01 Z-0.812800
G01 Z2.540000
(G00 Z2.540000)
G00 X45.7200 Y25.4000 
G01 Z-0.812800
G01 Z2.540000
(G00 Z2.540000)
G00 X48.2600 Y33.0200 
G01 Z-0.812800
G01 Z2.540000
(G00 Z2.540000)
G00 X48.2600 Y25.4000 
G01 Z-0.812800
G01 Z2.540000
(G00 Z2.540000)
G00 X50.8000 Y33.0200 
G01 Z-0.812800
G01 Z2.540000
(G00 Z2.540000)
G00 X50.8000 Y25.4000 
G01 Z-0.812800
G01 Z2.540000
(G00 Z2.540000)
G00 X53.3400 Y33.0200 
G01 Z-0.812800
G01 Z2.540000
(G00 Z2.540000)
G00 X53.3400 Y25.4000 
G01 Z-0.812800
G01 Z2.540000
(G00 Z2.540000)
G00 X55.8800 Y33.0200 
G01 Z-0.812800
G01 Z2.540000
(G00 Z2.540000)
G00 X55.8800 Y25.4000 
G01 Z-0.812800
G01 Z2.540000
(G00 Z2.540000)
G00 X57.1500 Y44.4500 
G01 Z-0.812800
G01 Z2.540000
(G00 Z2.540000)
G00 X57.1500 Y46.9900 
G01 Z-0.812800
G01 Z2.540000
(G00 Z2.540000)
G00 X57.1500 Y49.5300 
G01 Z-0.812800
G01 Z2.540000
(G00 Z2.540000)
G00 X57.1500 Y52.0700 
G01 Z-0.812800
G01 Z2.540000
(G00 Z2.540000)
G00 X58.4200 Y33.0200 
G01 Z-0.812800
G01 Z2.540000
(G00 Z2.540000)
G00 X58.4200 Y25.4000 
G01 Z-0.812800
G01 Z2.540000
(G00 Z2.540000)
G00 X60.9600 Y33.0200 
G01 Z-0.812800
G01 Z2.540000
(G00 Z2.540000)
G00 X60.9600 Y25.4000 
G01 Z-0.812800
G01 Z2.540000
(G00 Z2.540000)
G00 X63.5000 Y33.0200 
G01 Z-0.812800
G01 Z2.540000
(G00 Z2.540000)
G00 X63.5000 Y25.4000 
G01 Z-0.812800
G01 Z2.540000
(G00 Z2.540000)
G00 X64.7700 Y44.4500 
G01 Z-0.812800
G01 Z2.540000
(G00 Z2.540000)
G00 X64.7700 Y46.9900 
G01 Z-0.812800
G01 Z2.540000
(G00 Z2.540000)
G00 X64.7700 Y49.5300 
G01 Z-0.812800
G01 Z2.540000
(G00 Z2.540000)
G00 X64.7700 Y52.0700 
G01 Z-0.812800
G01 Z2.540000
(G00 Z2.540000)
G00 X30.4800 Y33.0200 
G01 Z-0.812800
G01 Z2.540000
(G00 Z2.540000)
G00 X30.4800 Y25.4000 
G01 Z-0.812800
G01 Z2.540000
M05
G00 Z25.4000 
M06 T06  ; 0.9000 
G01 Z0.0000 F254.00 
M06 T06  ; 0.9000 
G00 Z2.5400 
M03
G04 P3.000000
G00 Z2.540000
G00 X40.0050 Y57.1500 
G01 Z-0.8128 F254.00 
G01 Z2.540000
(R2.5400  P1.000000)
(G00 Z2.540000)
G00 X41.2750 Y59.6900 
G01 Z-0.812800
G01 Z2.540000
(G00 Z2.540000)
G00 X42.5450 Y57.1500 
G01 Z-0.812800
G01 Z2.540000
(G00 Z2.540000)
G00 X43.8150 Y59.6900 
G01 Z-0.812800
G01 Z2.540000
(G00 Z2.540000)
G00 X26.0350 Y57.1500 
G01 Z-0.812800
G01 Z2.540000
(G00 Z2.540000)
G00 X27.3050 Y59.6900 
G01 Z-0.812800
G01 Z2.540000
(G00 Z2.540000)
G00 X28.5750 Y57.1500 
G01 Z-0.812800
G01 Z2.540000
(G00 Z2.540000)
G00 X29.8450 Y59.6900 
G01 Z-0.812800
G01 Z2.540000
M05
G00 Z25.4000 
M06 T07  ; 0.9500 
G01 Z0.0000 F254.00 
M06 T07  ; 0.9500 
G00 Z2.5400 
M03
G04 P3.000000
G00 Z2.540000
G00 X54.9200 Y63.3300 
G01 Z-0.8128 F254.00 
G01 Z2.540000
(R2.5400  P1.000000)
(G00 Z2.540000)
G00 X57.4200 Y63.3300 
G01 Z-0.812800
G01 Z2.540000
(G00 Z2.540000)
G00 X59.4200 Y63.3300 
G01 Z-0.812800
G01 Z2.540000
(G00 Z2.540000)
G00 X61.9200 Y63.3300 
G01 Z-0.812800
G01 Z2.540000
M05
G00 Z25.4000 
M06 T08  ; 1.0000 
G01 Z0.0000 F254.00 
M06 T08  ; 1.0000 
G00 Z2.5400 
M03
G04 P3.000000
G00 Z2.540000
G00 X13.9700 Y59.2300 
G01 Z-0.8128 F254.00 
G01 Z2.540000
(R2.5400  P1.000000)
M05
G00 Z25.4000 
M06 T09  ; 1.0160 
G01 Z0.0000 F254.00 
M06 T09  ; 1.0160 
G00 Z2.5400 
M03
G04 P3.000000
G00 Z2.540000
G00 X40.6400 Y5.0800 
G01 Z-0.8128 F254.00 
G01 Z2.540000
(R2.5400  P1.000000)
(G00 Z2.540000)
G00 X43.1800 Y5.0800 
G01 Z-0.812800
G01 Z2.540000
(G00 Z2.540000)
G00 X45.7200 Y5.0800 
G01 Z-0.812800
G01 Z2.540000
(G00 Z2.540000)
G00 X48.2600 Y5.0800 
G01 Z-0.812800
G01 Z2.540000
(G00 Z2.540000)
G00 X5.0800 Y38.1000 
G01 Z-0.812800
G01 Z2.540000
(G00 Z2.540000)
G00 X55.8800 Y5.0800 
G01 Z-0.812800
G01 Z2.540000
(G00 Z2.540000)
G00 X58.4200 Y5.0800 
G01 Z-0.812800
G01 Z2.540000
(G00 Z2.540000)
G00 X60.9600 Y5.0800 
G01 Z-0.812800
G01 Z2.540000
(G00 Z2.540000)
G00 X63.5000 Y5.0800 
G01 Z-0.812800
G01 Z2.540000
(G00 Z2.540000)
G00 X72.3900 Y35.5600 
G01 Z-0.812800
G01 Z2.540000
(G00 Z2.540000)
G00 X72.3900 Y38.1000 
G01 Z-0.812800
G01 Z2.540000
(G00 Z2.540000)
G00 X72.3900 Y40.6400 
G01 Z-0.812800
G01 Z2.540000
(G00 Z2.540000)
G00 X72.3900 Y43.1800 
G01 Z-0.812800
G01 Z2.540000
(G00 Z2.540000)
G00 X72.3900 Y5.0800 
G01 Z-0.812800
G01 Z2.540000
(G00 Z2.540000)
G00 X72.3900 Y7.6200 
G01 Z-0.812800
G01 Z2.540000
(G00 Z2.540000)
G00 X72.3900 Y10.1600 
G01 Z-0.812800
G01 Z2.540000
(G00 Z2.540000)
G00 X72.3900 Y12.7000 
G01 Z-0.812800
G01 Z2.540000
(G00 Z2.540000)
G00 X72.3900 Y15.2400 
G01 Z-0.812800
G01 Z2.540000
(G00 Z2.540000)
G00 X72.3900 Y17.7800 
G01 Z-0.812800
G01 Z2.540000
(G00 Z2.540000)
G00 X72.3900 Y20.3200 
G01 Z-0.812800
G01 Z2.540000
(G00 Z2.540000)
G00 X72.3900 Y22.8600 
G01 Z-0.812800
G01 Z2.540000
(G00 Z2.540000)
G00 X7.6200 Y38.1000 
G01 Z-0.812800
G01 Z2.540000
(G00 Z2.540000)
G00 X9.6012 Y42.1894 
G01 Z-0.812800
G01 Z2.540000
(G00 Z2.540000)
G00 X9.6012 Y46.7106 
G01 Z-0.812800
G01 Z2.540000
(G00 Z2.540000)
G00 X10.1600 Y38.1000 
G01 Z-0.812800
G01 Z2.540000
(G00 Z2.540000)
G00 X17.7800 Y33.0200 
G01 Z-0.812800
G01 Z2.540000
(G00 Z2.540000)
G00 X17.7800 Y35.5600 
G01 Z-0.812800
G01 Z2.540000
(G00 Z2.540000)
G00 X17.7800 Y38.1000 
G01 Z-0.812800
G01 Z2.540000
(G00 Z2.540000)
G00 X17.7800 Y22.8600 
G01 Z-0.812800
G01 Z2.540000
(G00 Z2.540000)
G00 X17.7800 Y25.4000 
G01 Z-0.812800
G01 Z2.540000
(G00 Z2.540000)
G00 X17.7800 Y27.9400 
G01 Z-0.812800
G01 Z2.540000
(G00 Z2.540000)
G00 X17.7800 Y30.4800 
G01 Z-0.812800
G01 Z2.540000
(G00 Z2.540000)
G00 X3.0988 Y42.1894 
G01 Z-0.812800
G01 Z2.540000
(G00 Z2.540000)
G00 X3.0988 Y46.7106 
G01 Z-0.812800
G01 Z2.540000
M05
G00 Z25.4000 
M06 T10  ; 1.1176 
G01 Z0.0000 F254.00 
M06 T10  ; 1.1176 
G00 Z2.5400 
M03
G04 P3.000000
G00 Z2.540000
G00 X2.5400 Y52.0700 
G01 Z-0.8128 F254.00 
G01 Z2.540000
(R2.5400  P1.000000)
(G00 Z2.540000)
G00 X2.5400 Y55.8800 
G01 Z-0.812800
G01 Z2.540000
(G00 Z2.540000)
G00 X2.5400 Y59.6900 
G01 Z-0.812800
G01 Z2.540000
M05
G00 Z25.4000 
M06 T11  ; 1.3208 
G01 Z0.0000 F254.00 
M06 T11  ; 1.3208 
G00 Z2.5400 
M03
G04 P3.000000
G00 Z2.540000
G00 X5.0800 Y11.4300 
G01 Z-0.8128 F254.00 
G01 Z2.540000
(R2.5400  P1.000000)
(G00 Z2.540000)
G00 X27.9400 Y11.4300 
G01 Z-0.812800
G01 Z2.540000
M05
G00 Z25.4000 
M06 T12  ; 1.6764 
G01 Z0.0000 F254.00 
M06 T12  ; 1.6764 
G00 Z2.5400 
M03
G04 P3.000000
G00 Z2.540000
G00 X76.7588 Y64.7700 
G01 Z-0.8128 F254.00 
G01 Z2.540000
(R2.5400  P1.000000)
(G00 Z2.540000)
G00 X80.7212 Y64.7700 
G01 Z-0.812800
G01 Z2.540000
M05
G00 Z25.4000 
M06 T13  ; 2.3000 
G01 Z0.0000 F254.00 
M06 T13  ; 2.3000 
G00 Z2.5400 
M03
G04 P3.000000
G00 Z2.540000
G00 X51.8500 Y66.0400 
G01 Z-0.8128 F254.00 
G01 Z2.540000
(R2.5400  P1.000000)
(G00 Z2.540000)
G00 X64.9900 Y66.0400 
G01 Z-0.812800
G01 Z2.540000
T01 
G00 Z12.7000 
M05
M02
