(.../pcb-gcode-3.6.0.4/pcb-gcode.ulp)
(Copyright 2005 - 2012 by John Johnson)
(See readme.txt for licensing terms.)
(This file generated from the board:)
(.../eagle/ARMEDBASE_V0/MCU/MCU.brd)
(Current profile is .../pcb-gcode-3.6.0.4/profiles/emc.pp  )
(This file generated 7/2/2014 12:31:30 PM)
(Settings from pcb-machine.h)
(  Tool Size)
(0.1000 )
(Z Axis Settings)
(  High     Up        Down     Drill)
(15.0000 	2.0000 	-0.1000 	-1.0000 )
(spindle on time = 1.0000)
(milling depth = -0.1000)
(text depth = -0.1000)
(tool change at 15.0000 15.0000 15.0000 )
(feed rate xy = F508.00 )
(feed rate z  = F254.00 )
(Settings from pcb-defaults.h)
(isolate min = 0.0200)
(isolate max = 0.3000)
(isolate step = 0.1000)
(Generated top outlines, top drill, bottom outlines, bottom drill, )
(Unit of measure: mm)
(Metric Mode)
G21
(Absolute Coordinates)
G90
G00 X0.0000 Y0.0000 
M03
G04 P1.000000
G00 Z2.0000 
G00 X-84.7280 Y3.6672 
G01 Z-0.1000 F254.00 
G01 X-84.7280 Y3.9528 F508.00 
G01 X-84.6907 Y4.2358 
G01 X-84.6168 Y4.5116 
G01 X-84.5076 Y4.7754 
G01 X-84.3648 Y5.0226 
G01 X-84.1910 Y5.2491 
G01 X-83.9891 Y5.4510 
G01 X-83.7626 Y5.6248 
G01 X-83.5154 Y5.7676 
G01 X-83.2516 Y5.8768 
G01 X-82.9758 Y5.9507 
G01 X-82.6928 Y5.9880 
G01 X-82.4072 Y5.9880 
G01 X-82.1242 Y5.9507 
G01 X-81.8484 Y5.8768 
G01 X-81.5846 Y5.7676 
G01 X-81.3374 Y5.6248 
G01 X-81.1109 Y5.4510 
G01 X-80.9090 Y5.2491 
G01 X-80.7352 Y5.0226 
G01 X-80.5924 Y4.7754 
G01 X-80.4832 Y4.5116 
G01 X-80.4093 Y4.2358 
G01 X-80.3720 Y3.9528 
G01 X-80.3720 Y3.6672 
G01 X-80.4093 Y3.3842 
G01 X-80.4832 Y3.1084 
G01 X-80.5924 Y2.8446 
G01 X-80.7352 Y2.5974 
G01 X-80.9090 Y2.3709 
G01 X-81.1109 Y2.1690 
G01 X-81.3374 Y1.9952 
G01 X-81.5846 Y1.8524 
G01 X-81.8484 Y1.7432 
G01 X-82.1242 Y1.6693 
G01 X-82.4072 Y1.6320 
G01 X-82.6928 Y1.6320 
G01 X-82.9758 Y1.6693 
G01 X-83.2516 Y1.7432 
G01 X-83.5154 Y1.8524 
G01 X-83.7626 Y1.9952 
G01 X-83.9891 Y2.1690 
G01 X-84.1910 Y2.3709 
G01 X-84.3648 Y2.5974 
G01 X-84.5076 Y2.8446 
G01 X-84.6168 Y3.1084 
G01 X-84.6907 Y3.3842 
G01 X-84.7280 Y3.6672 
G00 Z2.0000 
G00 X-84.7280 Y65.8972 
G01 Z-0.1000 F254.00 
G01 X-84.7280 Y66.1828 F508.00 
G01 X-84.6907 Y66.4658 
G01 X-84.6168 Y66.7416 
G01 X-84.5076 Y67.0054 
G01 X-84.3648 Y67.2526 
G01 X-84.1910 Y67.4791 
G01 X-83.9891 Y67.6810 
G01 X-83.7626 Y67.8548 
G01 X-83.5154 Y67.9976 
G01 X-83.2516 Y68.1068 
G01 X-82.9758 Y68.1807 
G01 X-82.6928 Y68.2180 
G01 X-82.4072 Y68.2180 
G01 X-82.1242 Y68.1807 
G01 X-81.8484 Y68.1068 
G01 X-81.5846 Y67.9976 
G01 X-81.3374 Y67.8548 
G01 X-81.1109 Y67.6810 
G01 X-80.9090 Y67.4791 
G01 X-80.7352 Y67.2526 
G01 X-80.5924 Y67.0054 
G01 X-80.4832 Y66.7416 
G01 X-80.4093 Y66.4658 
G01 X-80.3720 Y66.1828 
G01 X-80.3720 Y65.8972 
G01 X-80.4093 Y65.6142 
G01 X-80.4832 Y65.3384 
G01 X-80.5924 Y65.0746 
G01 X-80.7352 Y64.8274 
G01 X-80.9090 Y64.6009 
G01 X-81.1109 Y64.3990 
G01 X-81.3374 Y64.2252 
G01 X-81.5846 Y64.0824 
G01 X-81.8484 Y63.9732 
G01 X-82.1242 Y63.8993 
G01 X-82.4072 Y63.8620 
G01 X-82.6928 Y63.8620 
G01 X-82.9758 Y63.8993 
G01 X-83.2516 Y63.9732 
G01 X-83.5154 Y64.0824 
G01 X-83.7626 Y64.2252 
G01 X-83.9891 Y64.3990 
G01 X-84.1910 Y64.6009 
G01 X-84.3648 Y64.8274 
G01 X-84.5076 Y65.0746 
G01 X-84.6168 Y65.3384 
G01 X-84.6907 Y65.6142 
G01 X-84.7280 Y65.8972 
G00 Z2.0000 
G00 X-5.9880 Y3.6672 
G01 Z-0.1000 F254.00 
G01 X-5.9880 Y3.9528 F508.00 
G01 X-5.9507 Y4.2358 
G01 X-5.8768 Y4.5116 
G01 X-5.7676 Y4.7754 
G01 X-5.6248 Y5.0226 
G01 X-5.4510 Y5.2491 
G01 X-5.2491 Y5.4510 
G01 X-5.0226 Y5.6248 
G01 X-4.7754 Y5.7676 
G01 X-4.5116 Y5.8768 
G01 X-4.2358 Y5.9507 
G01 X-3.9528 Y5.9880 
G01 X-3.6672 Y5.9880 
G01 X-3.3842 Y5.9507 
G01 X-3.1084 Y5.8768 
G01 X-2.8446 Y5.7676 
G01 X-2.5974 Y5.6248 
G01 X-2.3709 Y5.4510 
G01 X-2.1690 Y5.2491 
G01 X-1.9952 Y5.0226 
G01 X-1.8524 Y4.7754 
G01 X-1.7432 Y4.5116 
G01 X-1.6693 Y4.2358 
G01 X-1.6320 Y3.9528 
G01 X-1.6320 Y3.6672 
G01 X-1.6693 Y3.3842 
G01 X-1.7432 Y3.1084 
G01 X-1.8524 Y2.8446 
G01 X-1.9952 Y2.5974 
G01 X-2.1690 Y2.3709 
G01 X-2.3709 Y2.1690 
G01 X-2.5974 Y1.9952 
G01 X-2.8446 Y1.8524 
G01 X-3.1084 Y1.7432 
G01 X-3.3842 Y1.6693 
G01 X-3.6672 Y1.6320 
G01 X-3.9528 Y1.6320 
G01 X-4.2358 Y1.6693 
G01 X-4.5116 Y1.7432 
G01 X-4.7754 Y1.8524 
G01 X-5.0226 Y1.9952 
G01 X-5.2491 Y2.1690 
G01 X-5.4510 Y2.3709 
G01 X-5.6248 Y2.5974 
G01 X-5.7676 Y2.8446 
G01 X-5.8768 Y3.1084 
G01 X-5.9507 Y3.3842 
G01 X-5.9880 Y3.6672 
G00 Z2.0000 
G00 X-5.9880 Y65.8972 
G01 Z-0.1000 F254.00 
G01 X-5.9880 Y66.1828 F508.00 
G01 X-5.9507 Y66.4658 
G01 X-5.8768 Y66.7416 
G01 X-5.7676 Y67.0054 
G01 X-5.6248 Y67.2526 
G01 X-5.4510 Y67.4791 
G01 X-5.2491 Y67.6810 
G01 X-5.0226 Y67.8548 
G01 X-4.7754 Y67.9976 
G01 X-4.5116 Y68.1068 
G01 X-4.2358 Y68.1807 
G01 X-3.9528 Y68.2180 
G01 X-3.6672 Y68.2180 
G01 X-3.3842 Y68.1807 
G01 X-3.1084 Y68.1068 
G01 X-2.8446 Y67.9976 
G01 X-2.5974 Y67.8548 
G01 X-2.3709 Y67.6810 
G01 X-2.1690 Y67.4791 
G01 X-1.9952 Y67.2526 
G01 X-1.8524 Y67.0054 
G01 X-1.7432 Y66.7416 
G01 X-1.6693 Y66.4658 
G01 X-1.6320 Y66.1828 
G01 X-1.6320 Y65.8972 
G01 X-1.6693 Y65.6142 
G01 X-1.7432 Y65.3384 
G01 X-1.8524 Y65.0746 
G01 X-1.9952 Y64.8274 
G01 X-2.1690 Y64.6009 
G01 X-2.3709 Y64.3990 
G01 X-2.5974 Y64.2252 
G01 X-2.8446 Y64.0824 
G01 X-3.1084 Y63.9732 
G01 X-3.3842 Y63.8993 
G01 X-3.6672 Y63.8620 
G01 X-3.9528 Y63.8620 
G01 X-4.2358 Y63.8993 
G01 X-4.5116 Y63.9732 
G01 X-4.7754 Y64.0824 
G01 X-5.0226 Y64.2252 
G01 X-5.2491 Y64.3990 
G01 X-5.4510 Y64.6009 
G01 X-5.6248 Y64.8274 
G01 X-5.7676 Y65.0746 
G01 X-5.8768 Y65.3384 
G01 X-5.9507 Y65.6142 
G01 X-5.9880 Y65.8972 
G00 Z2.0000 
G00 X-34.5635 Y44.3754 
G01 Z-0.1000 F254.00 
G01 X-34.6254 Y44.3135 F508.00 
G01 X-34.7062 Y44.2800 
G01 X-56.2799 Y44.2800 
G01 X-56.2799 Y44.0896 
G01 X-56.7896 Y43.5799 
G01 X-57.5104 Y43.5799 
G01 X-58.0201 Y44.0896 
G01 X-58.0201 Y44.8104 
G01 X-57.5104 Y45.3201 
G01 X-56.7896 Y45.3201 
G01 X-56.2799 Y44.8104 
G01 X-56.2799 Y44.7200 
G01 X-34.8411 Y44.7200 
G01 X-33.0370 Y46.5241 
G01 X-33.0386 Y46.5269 
G01 X-33.0780 Y46.6739 
G01 X-33.0780 Y46.8261 
G01 X-33.0386 Y46.9731 
G01 X-32.9625 Y47.1049 
G01 X-32.8549 Y47.2125 
G01 X-32.7231 Y47.2886 
G01 X-32.5761 Y47.3280 
G01 X-32.4239 Y47.3280 
G01 X-32.2769 Y47.2886 
G01 X-32.1451 Y47.2125 
G01 X-32.0375 Y47.1049 
G01 X-31.9614 Y46.9731 
G01 X-31.9220 Y46.8261 
G01 X-31.9220 Y46.6739 
G01 X-31.9614 Y46.5269 
G01 X-32.0375 Y46.3951 
G01 X-32.1451 Y46.2875 
G01 X-32.2769 Y46.2114 
G01 X-32.4239 Y46.1720 
G01 X-32.5761 Y46.1720 
G01 X-32.7231 Y46.2114 
G01 X-32.7259 Y46.2130 
G01 X-34.5635 Y44.3754 
G00 Z2.0000 
G00 X-10.3322 Y61.0463 
G01 Z-0.1000 F254.00 
G01 X-10.3322 Y63.4137 F508.00 
G01 X-10.3036 Y63.5943 
G01 X-10.2470 Y63.7683 
G01 X-10.1640 Y63.9313 
G01 X-10.0565 Y64.0793 
G01 X-9.9271 Y64.2087 
G01 X-9.7791 Y64.3162 
G01 X-9.6161 Y64.3993 
G01 X-9.4421 Y64.4558 
G01 X-9.2615 Y64.4844 
G01 X-9.0785 Y64.4844 
G01 X-8.8979 Y64.4558 
G01 X-8.7239 Y64.3993 
G01 X-8.5609 Y64.3162 
G01 X-8.4129 Y64.2087 
G01 X-8.2835 Y64.0793 
G01 X-8.1760 Y63.9313 
G01 X-8.0929 Y63.7683 
G01 X-8.0364 Y63.5943 
G01 X-8.0078 Y63.4137 
G01 X-8.0078 Y61.0463 
G01 X-8.0364 Y60.8657 
G01 X-8.0929 Y60.6917 
G01 X-8.1760 Y60.5287 
G01 X-8.2835 Y60.3807 
G01 X-8.4129 Y60.2513 
G01 X-8.5609 Y60.1438 
G01 X-8.7239 Y60.0607 
G01 X-8.8979 Y60.0042 
G01 X-9.0785 Y59.9756 
G01 X-9.2615 Y59.9756 
G01 X-9.4421 Y60.0042 
G01 X-9.6161 Y60.0607 
G01 X-9.7791 Y60.1438 
G01 X-9.9271 Y60.2513 
G01 X-10.0565 Y60.3807 
G01 X-10.1640 Y60.5287 
G01 X-10.2470 Y60.6917 
G01 X-10.3036 Y60.8657 
G01 X-10.3322 Y61.0463 
G00 Z2.0000 
G00 X-15.1537 Y66.3922 
G01 Z-0.1000 F254.00 
G01 X-12.7863 Y66.3922 F508.00 
G01 X-12.6057 Y66.3636 
G01 X-12.4317 Y66.3071 
G01 X-12.2687 Y66.2240 
G01 X-12.1207 Y66.1165 
G01 X-11.9913 Y65.9871 
G01 X-11.8838 Y65.8391 
G01 X-11.8007 Y65.6761 
G01 X-11.7442 Y65.5021 
G01 X-11.7156 Y65.3215 
G01 X-11.7156 Y65.1385 
G01 X-11.7442 Y64.9579 
G01 X-11.8007 Y64.7839 
G01 X-11.8838 Y64.6209 
G01 X-11.9913 Y64.4729 
G01 X-12.1207 Y64.3435 
G01 X-12.2687 Y64.2360 
G01 X-12.4317 Y64.1529 
G01 X-12.6057 Y64.0964 
G01 X-12.7863 Y64.0678 
G01 X-15.1537 Y64.0678 
G01 X-15.3343 Y64.0964 
G01 X-15.5083 Y64.1529 
G01 X-15.6713 Y64.2360 
G01 X-15.8193 Y64.3435 
G01 X-15.9487 Y64.4729 
G01 X-16.0562 Y64.6209 
G01 X-16.1393 Y64.7839 
G01 X-16.1958 Y64.9579 
G01 X-16.2244 Y65.1385 
G01 X-16.2244 Y65.3215 
G01 X-16.1958 Y65.5021 
G01 X-16.1393 Y65.6761 
G01 X-16.0562 Y65.8391 
G01 X-15.9487 Y65.9871 
G01 X-15.8193 Y66.1165 
G01 X-15.6713 Y66.2240 
G01 X-15.5083 Y66.3071 
G01 X-15.3343 Y66.3636 
G01 X-15.1537 Y66.3922 
G00 Z2.0000 
G00 X-1.6123 Y51.1618 
G01 Z-0.1000 F254.00 
G01 X-3.4677 Y51.1618 F508.00 
G01 X-3.6431 Y51.1967 
G01 X-3.8084 Y51.2652 
G01 X-3.9571 Y51.3646 
G01 X-4.0836 Y51.4911 
G01 X-4.1830 Y51.6398 
G01 X-4.2515 Y51.8051 
G01 X-4.2864 Y51.9805 
G01 X-4.2864 Y52.1594 
G01 X-4.2515 Y52.3349 
G01 X-4.1830 Y52.5002 
G01 X-4.0836 Y52.6489 
G01 X-3.9571 Y52.7754 
G01 X-3.8084 Y52.8748 
G01 X-3.6431 Y52.9433 
G01 X-3.4677 Y52.9782 
G01 X-1.6123 Y52.9782 
G01 X-1.4369 Y52.9433 
G01 X-1.2716 Y52.8748 
G01 X-1.1229 Y52.7754 
G01 X-0.9964 Y52.6489 
G01 X-0.8970 Y52.5002 
G01 X-0.8285 Y52.3349 
G01 X-0.7936 Y52.1594 
G01 X-0.7936 Y51.9805 
G01 X-0.8285 Y51.8051 
G01 X-0.8970 Y51.6398 
G01 X-0.9964 Y51.4911 
G01 X-1.1229 Y51.3646 
G01 X-1.2716 Y51.2652 
G01 X-1.4369 Y51.1967 
G01 X-1.6123 Y51.1618 
G00 Z2.0000 
G00 X-1.6123 Y54.9718 
G01 Z-0.1000 F254.00 
G01 X-3.4677 Y54.9718 F508.00 
G01 X-3.6431 Y55.0067 
G01 X-3.8084 Y55.0752 
G01 X-3.9571 Y55.1746 
G01 X-4.0836 Y55.3011 
G01 X-4.1830 Y55.4498 
G01 X-4.2515 Y55.6151 
G01 X-4.2864 Y55.7905 
G01 X-4.2864 Y55.9695 
G01 X-4.2515 Y56.1449 
G01 X-4.1830 Y56.3102 
G01 X-4.0836 Y56.4589 
G01 X-3.9571 Y56.5854 
G01 X-3.8084 Y56.6848 
G01 X-3.7642 Y56.7031 
G01 X-5.8411 Y58.7800 
G01 X-11.8027 Y58.7800 
G01 X-11.8838 Y58.6209 
G01 X-11.9913 Y58.4729 
G01 X-12.1207 Y58.3435 
G01 X-12.2687 Y58.2360 
G01 X-12.4317 Y58.1529 
G01 X-12.6057 Y58.0964 
G01 X-12.7863 Y58.0678 
G01 X-15.1537 Y58.0678 
G01 X-15.3343 Y58.0964 
G01 X-15.5083 Y58.1529 
G01 X-15.6713 Y58.2360 
G01 X-15.8193 Y58.3435 
G01 X-15.9487 Y58.4729 
G01 X-16.0562 Y58.6209 
G01 X-16.1393 Y58.7839 
G01 X-16.1958 Y58.9579 
G01 X-16.2244 Y59.1385 
G01 X-16.2244 Y59.3215 
G01 X-16.1958 Y59.5021 
G01 X-16.1393 Y59.6761 
G01 X-16.0562 Y59.8391 
G01 X-15.9487 Y59.9871 
G01 X-15.8193 Y60.1165 
G01 X-15.6713 Y60.2240 
G01 X-15.5083 Y60.3071 
G01 X-15.3343 Y60.3636 
G01 X-15.1537 Y60.3922 
G01 X-12.7863 Y60.3922 
G01 X-12.6057 Y60.3636 
G01 X-12.4317 Y60.3071 
G01 X-12.2687 Y60.2240 
G01 X-12.1207 Y60.1165 
G01 X-11.9913 Y59.9871 
G01 X-11.8838 Y59.8391 
G01 X-11.8007 Y59.6761 
G01 X-11.7442 Y59.5021 
G01 X-11.7156 Y59.3215 
G01 X-11.7156 Y59.2200 
G01 X-5.7062 Y59.2200 
G01 X-5.6254 Y59.1865 
G01 X-5.5635 Y59.1246 
G01 X-3.2271 Y56.7882 
G01 X-1.6123 Y56.7882 
G01 X-1.4369 Y56.7533 
G01 X-1.2716 Y56.6848 
G01 X-1.1229 Y56.5854 
G01 X-0.9964 Y56.4589 
G01 X-0.8970 Y56.3102 
G01 X-0.8285 Y56.1449 
G01 X-0.7936 Y55.9695 
G01 X-0.7936 Y55.7905 
G01 X-0.8285 Y55.6151 
G01 X-0.8970 Y55.4498 
G01 X-0.9964 Y55.3011 
G01 X-1.1229 Y55.1746 
G01 X-1.2716 Y55.0752 
G01 X-1.4369 Y55.0067 
G01 X-1.6123 Y54.9718 
G00 Z2.0000 
G00 X-1.6123 Y58.7818 
G01 Z-0.1000 F254.00 
G01 X-3.4677 Y58.7818 F508.00 
G01 X-3.6431 Y58.8167 
G01 X-3.8084 Y58.8852 
G01 X-3.9571 Y58.9846 
G01 X-4.0836 Y59.1111 
G01 X-4.1830 Y59.2598 
G01 X-4.2515 Y59.4251 
G01 X-4.2864 Y59.6005 
G01 X-4.2864 Y59.7795 
G01 X-4.2515 Y59.9549 
G01 X-4.1830 Y60.1202 
G01 X-4.0836 Y60.2689 
G01 X-3.9571 Y60.3954 
G01 X-3.8084 Y60.4948 
G01 X-3.6431 Y60.5633 
G01 X-3.4677 Y60.5982 
G01 X-1.6123 Y60.5982 
G01 X-1.4369 Y60.5633 
G01 X-1.2716 Y60.4948 
G01 X-1.1229 Y60.3954 
G01 X-0.9964 Y60.2689 
G01 X-0.8970 Y60.1202 
G01 X-0.8285 Y59.9549 
G01 X-0.7936 Y59.7795 
G01 X-0.7936 Y59.6005 
G01 X-0.8285 Y59.4251 
G01 X-0.8970 Y59.2598 
G01 X-0.9964 Y59.1111 
G01 X-1.1229 Y58.9846 
G01 X-1.2716 Y58.8852 
G01 X-1.4369 Y58.8167 
G01 X-1.6123 Y58.7818 
G00 Z2.0000 
G00 X-73.0439 Y66.1318 
G01 Z-0.1000 F254.00 
G01 X-73.0439 Y63.4082 F508.00 
G01 X-73.0766 Y63.2019 
G01 X-73.1411 Y63.0032 
G01 X-73.2360 Y62.8170 
G01 X-73.3588 Y62.6480 
G01 X-73.5065 Y62.5003 
G01 X-73.6755 Y62.3775 
G01 X-73.8617 Y62.2826 
G01 X-74.0604 Y62.2181 
G01 X-74.2667 Y62.1854 
G01 X-74.4757 Y62.1854 
G01 X-74.6820 Y62.2181 
G01 X-74.8807 Y62.2826 
G01 X-75.0669 Y62.3775 
G01 X-75.2359 Y62.5003 
G01 X-75.3836 Y62.6480 
G01 X-75.5064 Y62.8170 
G01 X-75.6013 Y63.0032 
G01 X-75.6658 Y63.2019 
G01 X-75.6985 Y63.4082 
G01 X-75.6985 Y66.1318 
G01 X-75.6658 Y66.3381 
G01 X-75.6013 Y66.5368 
G01 X-75.5064 Y66.7230 
G01 X-75.3836 Y66.8920 
G01 X-75.2359 Y67.0397 
G01 X-75.0669 Y67.1625 
G01 X-74.8807 Y67.2574 
G01 X-74.6820 Y67.3219 
G01 X-74.4757 Y67.3546 
G01 X-74.2667 Y67.3546 
G01 X-74.0604 Y67.3219 
G01 X-73.8617 Y67.2574 
G01 X-73.6755 Y67.1625 
G01 X-73.5065 Y67.0397 
G01 X-73.3588 Y66.8920 
G01 X-73.2360 Y66.7230 
G01 X-73.1411 Y66.5368 
G01 X-73.0766 Y66.3381 
G01 X-73.0439 Y66.1318 
G00 Z2.0000 
G00 X-44.5962 Y59.7669 
G01 Z-0.1000 F254.00 
G01 X-44.5662 Y59.9179 F508.00 
G01 X-44.5073 Y60.0600 
G01 X-44.4218 Y60.1880 
G01 X-44.3130 Y60.2968 
G01 X-44.1850 Y60.3823 
G01 X-44.0429 Y60.4412 
G01 X-43.8919 Y60.4712 
G01 X-43.7381 Y60.4712 
G01 X-43.5871 Y60.4412 
G01 X-43.4450 Y60.3823 
G01 X-43.3170 Y60.2968 
G01 X-43.2082 Y60.1880 
G01 X-43.1227 Y60.0600 
G01 X-43.0638 Y59.9179 
G01 X-43.0338 Y59.7669 
G01 X-43.0338 Y59.6131 
G01 X-43.0638 Y59.4621 
G01 X-43.1227 Y59.3200 
G01 X-43.2082 Y59.1920 
G01 X-43.3170 Y59.0832 
G01 X-43.4450 Y58.9977 
G01 X-43.5871 Y58.9388 
G01 X-43.7381 Y58.9088 
G01 X-43.8919 Y58.9088 
G01 X-44.0429 Y58.9388 
G01 X-44.1850 Y58.9977 
G01 X-44.3130 Y59.0832 
G01 X-44.4218 Y59.1920 
G01 X-44.4806 Y59.2800 
G01 X-47.1589 Y59.2800 
G01 X-56.4142 Y50.0247 
G01 X-56.2799 Y49.8904 
G01 X-56.2799 Y49.1696 
G01 X-56.7896 Y48.6599 
G01 X-57.5104 Y48.6599 
G01 X-58.0201 Y49.1696 
G01 X-58.0201 Y49.8904 
G01 X-57.5104 Y50.4001 
G01 X-56.7896 Y50.4001 
G01 X-56.7253 Y50.3358 
G01 X-47.4365 Y59.6246 
G01 X-47.3746 Y59.6865 
G01 X-47.2938 Y59.7200 
G01 X-44.5962 Y59.7200 
G01 X-44.5962 Y59.7669 
G00 Z2.0000 
G00 X-43.3262 Y57.2269 
G01 Z-0.1000 F254.00 
G01 X-43.2962 Y57.3779 F508.00 
G01 X-43.2373 Y57.5200 
G01 X-43.1518 Y57.6480 
G01 X-43.0430 Y57.7568 
G01 X-42.9150 Y57.8423 
G01 X-42.7729 Y57.9012 
G01 X-42.6219 Y57.9312 
G01 X-42.4681 Y57.9312 
G01 X-42.3171 Y57.9012 
G01 X-42.1750 Y57.8423 
G01 X-42.0470 Y57.7568 
G01 X-41.9382 Y57.6480 
G01 X-41.8527 Y57.5200 
G01 X-41.7938 Y57.3779 
G01 X-41.7638 Y57.2269 
G01 X-41.7638 Y57.0731 
G01 X-41.7938 Y56.9221 
G01 X-41.8527 Y56.7800 
G01 X-41.8992 Y56.7104 
G01 X-41.4089 Y56.2200 
G01 X-29.8411 Y56.2200 
G01 X-29.2714 Y56.7898 
G01 X-29.3262 Y56.9221 
G01 X-29.3562 Y57.0731 
G01 X-29.3562 Y57.2269 
G01 X-29.3262 Y57.3779 
G01 X-29.2673 Y57.5200 
G01 X-29.1818 Y57.6480 
G01 X-29.0730 Y57.7568 
G01 X-28.9450 Y57.8423 
G01 X-28.8029 Y57.9012 
G01 X-28.6519 Y57.9312 
G01 X-28.4981 Y57.9312 
G01 X-28.3471 Y57.9012 
G01 X-28.2050 Y57.8423 
G01 X-28.0770 Y57.7568 
G01 X-27.9682 Y57.6480 
G01 X-27.8827 Y57.5200 
G01 X-27.8238 Y57.3779 
G01 X-27.7938 Y57.2269 
G01 X-27.7938 Y57.0731 
G01 X-27.8238 Y56.9221 
G01 X-27.8827 Y56.7800 
G01 X-27.9682 Y56.6520 
G01 X-28.0770 Y56.5432 
G01 X-28.2050 Y56.4577 
G01 X-28.3471 Y56.3988 
G01 X-28.4981 Y56.3688 
G01 X-28.6519 Y56.3688 
G01 X-28.8029 Y56.3988 
G01 X-28.9450 Y56.4577 
G01 X-28.9667 Y56.4722 
G01 X-29.6254 Y55.8135 
G01 X-29.7062 Y55.7800 
G01 X-41.5438 Y55.7800 
G01 X-41.6246 Y55.8135 
G01 X-41.6865 Y55.8754 
G01 X-42.2413 Y56.4302 
G01 X-42.3171 Y56.3988 
G01 X-42.4681 Y56.3688 
G01 X-42.6219 Y56.3688 
G01 X-42.7729 Y56.3988 
G01 X-42.9150 Y56.4577 
G01 X-43.0430 Y56.5432 
G01 X-43.1518 Y56.6520 
G01 X-43.2373 Y56.7800 
G01 X-46.9089 Y56.7800 
G01 X-56.3092 Y47.3797 
G01 X-56.2799 Y47.3504 
G01 X-56.2799 Y46.6296 
G01 X-56.7896 Y46.1199 
G01 X-57.5104 Y46.1199 
G01 X-58.0201 Y46.6296 
G01 X-58.0201 Y47.3504 
G01 X-57.5104 Y47.8601 
G01 X-56.7896 Y47.8601 
G01 X-56.6203 Y47.6908 
G01 X-47.1865 Y57.1246 
G01 X-47.1246 Y57.1865 
G01 X-47.0438 Y57.2200 
G01 X-43.3262 Y57.2200 
G01 X-43.3262 Y57.2269 
G00 Z2.0000 
G00 X-40.7862 Y57.0731 
G01 Z-0.1000 F254.00 
G01 X-40.7862 Y57.2269 F508.00 
G01 X-40.7562 Y57.3779 
G01 X-40.6973 Y57.5200 
G01 X-40.6118 Y57.6480 
G01 X-40.5030 Y57.7568 
G01 X-40.3750 Y57.8423 
G01 X-40.2329 Y57.9012 
G01 X-40.0819 Y57.9312 
G01 X-39.9281 Y57.9312 
G01 X-39.7771 Y57.9012 
G01 X-39.6943 Y57.8668 
G01 X-39.2811 Y58.2800 
G01 X-42.5438 Y58.2800 
G01 X-42.6246 Y58.3135 
G01 X-42.6865 Y58.3754 
G01 X-42.7200 Y58.4562 
G01 X-42.7200 Y59.9089 
G01 X-43.5911 Y60.7800 
G01 X-66.5438 Y60.7800 
G01 X-66.6246 Y60.8135 
G01 X-66.6865 Y60.8754 
G01 X-69.1004 Y63.2892 
G01 X-69.1142 Y63.2019 
G01 X-69.1787 Y63.0032 
G01 X-69.2736 Y62.8170 
G01 X-69.3964 Y62.6480 
G01 X-69.5441 Y62.5003 
G01 X-69.7131 Y62.3775 
G01 X-69.8993 Y62.2826 
G01 X-70.0980 Y62.2181 
G01 X-70.3043 Y62.1854 
G01 X-70.5133 Y62.1854 
G01 X-70.7196 Y62.2181 
G01 X-70.9183 Y62.2826 
G01 X-71.1045 Y62.3775 
G01 X-71.2735 Y62.5003 
G01 X-71.4212 Y62.6480 
G01 X-71.5440 Y62.8170 
G01 X-71.6389 Y63.0032 
G01 X-71.7034 Y63.2019 
G01 X-71.7361 Y63.4082 
G01 X-71.7361 Y66.1318 
G01 X-71.7034 Y66.3381 
G01 X-71.6389 Y66.5368 
G01 X-71.5440 Y66.7230 
G01 X-71.4212 Y66.8920 
G01 X-71.2735 Y67.0397 
G01 X-71.1045 Y67.1625 
G01 X-70.9183 Y67.2574 
G01 X-70.7196 Y67.3219 
G01 X-70.5133 Y67.3546 
G01 X-70.3043 Y67.3546 
G01 X-70.0980 Y67.3219 
G01 X-69.8993 Y67.2574 
G01 X-69.7131 Y67.1625 
G01 X-69.5441 Y67.0397 
G01 X-69.3964 Y66.8920 
G01 X-69.2736 Y66.7230 
G01 X-69.1787 Y66.5368 
G01 X-69.1142 Y66.3381 
G01 X-69.0815 Y66.1318 
G01 X-69.0815 Y63.8926 
G01 X-66.4089 Y61.2200 
G01 X-43.4562 Y61.2200 
G01 X-43.3754 Y61.1865 
G01 X-42.3754 Y60.1865 
G01 X-42.3135 Y60.1246 
G01 X-42.2800 Y60.0438 
G01 X-42.2800 Y58.7200 
G01 X-27.4562 Y58.7200 
G01 X-27.3754 Y58.6865 
G01 X-26.4806 Y57.7918 
G01 X-26.4050 Y57.8423 
G01 X-26.2629 Y57.9012 
G01 X-26.1119 Y57.9312 
G01 X-25.9581 Y57.9312 
G01 X-25.8071 Y57.9012 
G01 X-25.6650 Y57.8423 
G01 X-25.5370 Y57.7568 
G01 X-25.4282 Y57.6480 
G01 X-25.3427 Y57.5200 
G01 X-25.2838 Y57.3779 
G01 X-25.2538 Y57.2269 
G01 X-25.2538 Y57.0731 
G01 X-25.2838 Y56.9221 
G01 X-25.3427 Y56.7800 
G01 X-25.4282 Y56.6520 
G01 X-25.5370 Y56.5432 
G01 X-25.6650 Y56.4577 
G01 X-25.8071 Y56.3988 
G01 X-25.9581 Y56.3688 
G01 X-26.1119 Y56.3688 
G01 X-26.2629 Y56.3988 
G01 X-26.4050 Y56.4577 
G01 X-26.5330 Y56.5432 
G01 X-26.6418 Y56.6520 
G01 X-26.7273 Y56.7800 
G01 X-26.7862 Y56.9221 
G01 X-26.8162 Y57.0731 
G01 X-26.8162 Y57.2269 
G01 X-26.7862 Y57.3779 
G01 X-26.7577 Y57.4466 
G01 X-27.5911 Y58.2800 
G01 X-38.6589 Y58.2800 
G01 X-39.3552 Y57.5837 
G01 X-39.3127 Y57.5200 
G01 X-39.2538 Y57.3779 
G01 X-39.2238 Y57.2269 
G01 X-39.2238 Y57.0731 
G01 X-39.2538 Y56.9221 
G01 X-39.3127 Y56.7800 
G01 X-39.3982 Y56.6520 
G01 X-39.5070 Y56.5432 
G01 X-39.6350 Y56.4577 
G01 X-39.7771 Y56.3988 
G01 X-39.9281 Y56.3688 
G01 X-40.0819 Y56.3688 
G01 X-40.2329 Y56.3988 
G01 X-40.3750 Y56.4577 
G01 X-40.5030 Y56.5432 
G01 X-40.6118 Y56.6520 
G01 X-40.6973 Y56.7800 
G01 X-40.7562 Y56.9221 
G01 X-40.7862 Y57.0731 
G00 Z2.0000 
G00 X-65.6401 Y44.0896 
G01 Z-0.1000 F254.00 
G01 X-65.6401 Y44.8104 F508.00 
G01 X-65.1304 Y45.3201 
G01 X-64.4096 Y45.3201 
G01 X-63.8999 Y44.8104 
G01 X-63.8999 Y44.0896 
G01 X-64.4096 Y43.5799 
G01 X-65.1304 Y43.5799 
G01 X-65.6401 Y44.0896 
G00 Z2.0000 
G00 X-65.6401 Y46.6296 
G01 Z-0.1000 F254.00 
G01 X-65.6401 Y47.3504 F508.00 
G01 X-65.1304 Y47.8601 
G01 X-64.4096 Y47.8601 
G01 X-63.8999 Y47.3504 
G01 X-63.8999 Y46.6296 
G01 X-64.4096 Y46.1199 
G01 X-65.1304 Y46.1199 
G01 X-65.6401 Y46.6296 
G00 Z2.0000 
G00 X-65.6401 Y49.1696 
G01 Z-0.1000 F254.00 
G01 X-65.6401 Y49.8904 F508.00 
G01 X-65.1304 Y50.4001 
G01 X-64.4096 Y50.4001 
G01 X-63.8999 Y49.8904 
G01 X-63.8999 Y49.1696 
G01 X-64.4096 Y48.6599 
G01 X-65.1304 Y48.6599 
G01 X-65.6401 Y49.1696 
G00 Z2.0000 
G00 X-65.6401 Y51.7096 
G01 Z-0.1000 F254.00 
G01 X-65.6401 Y52.4304 F508.00 
G01 X-65.1304 Y52.9401 
G01 X-64.4096 Y52.9401 
G01 X-63.8999 Y52.4304 
G01 X-63.8999 Y51.7096 
G01 X-64.4096 Y51.1999 
G01 X-65.1304 Y51.1999 
G01 X-65.6401 Y51.7096 
G00 Z2.0000 
G00 X-58.0201 Y51.7096 
G01 Z-0.1000 F254.00 
G01 X-58.0201 Y52.4304 F508.00 
G01 X-57.5104 Y52.9401 
G01 X-56.7896 Y52.9401 
G01 X-56.2799 Y52.4304 
G01 X-56.2799 Y51.7096 
G01 X-56.7896 Y51.1999 
G01 X-57.5104 Y51.1999 
G01 X-58.0201 Y51.7096 
G00 Z2.0000 
G00 X-63.0620 Y4.2361 
G01 Z-0.1000 F254.00 
G01 X-63.0620 Y5.9239 F508.00 
G01 X-63.0300 Y6.0847 
G01 X-62.9673 Y6.2361 
G01 X-62.8763 Y6.3724 
G01 X-62.7604 Y6.4883 
G01 X-62.6241 Y6.5793 
G01 X-62.4727 Y6.6420 
G01 X-62.3119 Y6.6740 
G01 X-62.1481 Y6.6740 
G01 X-61.9873 Y6.6420 
G01 X-61.8359 Y6.5793 
G01 X-61.6996 Y6.4883 
G01 X-61.5837 Y6.3724 
G01 X-61.4927 Y6.2361 
G01 X-61.4300 Y6.0847 
G01 X-61.3980 Y5.9239 
G01 X-61.3980 Y4.2361 
G01 X-61.4300 Y4.0753 
G01 X-61.4927 Y3.9239 
G01 X-61.5837 Y3.7876 
G01 X-61.6996 Y3.6717 
G01 X-61.8359 Y3.5807 
G01 X-61.9873 Y3.5180 
G01 X-62.1481 Y3.4860 
G01 X-62.3119 Y3.4860 
G01 X-62.4727 Y3.5180 
G01 X-62.6241 Y3.5807 
G01 X-62.7604 Y3.6717 
G01 X-62.8763 Y3.7876 
G01 X-62.9673 Y3.9239 
G01 X-63.0300 Y4.0753 
G01 X-63.0620 Y4.2361 
G00 Z2.0000 
G00 X-60.5220 Y4.2361 
G01 Z-0.1000 F254.00 
G01 X-60.5220 Y5.9239 F508.00 
G01 X-60.4900 Y6.0847 
G01 X-60.4273 Y6.2361 
G01 X-60.3363 Y6.3724 
G01 X-60.2204 Y6.4883 
G01 X-60.0841 Y6.5793 
G01 X-59.9327 Y6.6420 
G01 X-59.7719 Y6.6740 
G01 X-59.6081 Y6.6740 
G01 X-59.4473 Y6.6420 
G01 X-59.2959 Y6.5793 
G01 X-59.1596 Y6.4883 
G01 X-59.0437 Y6.3724 
G01 X-58.9527 Y6.2361 
G01 X-58.8900 Y6.0847 
G01 X-58.8580 Y5.9239 
G01 X-58.8580 Y4.2361 
G01 X-58.8900 Y4.0753 
G01 X-58.9527 Y3.9239 
G01 X-59.0437 Y3.7876 
G01 X-59.1596 Y3.6717 
G01 X-59.2959 Y3.5807 
G01 X-59.4473 Y3.5180 
G01 X-59.6081 Y3.4860 
G01 X-59.7719 Y3.4860 
G01 X-59.9327 Y3.5180 
G01 X-60.0841 Y3.5807 
G01 X-60.2204 Y3.6717 
G01 X-60.3363 Y3.7876 
G01 X-60.4273 Y3.9239 
G01 X-60.4900 Y4.0753 
G01 X-60.5220 Y4.2361 
G00 Z2.0000 
G00 X-57.9820 Y4.2361 
G01 Z-0.1000 F254.00 
G01 X-57.9820 Y5.9239 F508.00 
G01 X-57.9500 Y6.0847 
G01 X-57.8873 Y6.2361 
G01 X-57.7963 Y6.3724 
G01 X-57.6804 Y6.4883 
G01 X-57.5441 Y6.5793 
G01 X-57.3927 Y6.6420 
G01 X-57.2319 Y6.6740 
G01 X-57.0681 Y6.6740 
G01 X-56.9073 Y6.6420 
G01 X-56.7559 Y6.5793 
G01 X-56.6196 Y6.4883 
G01 X-56.5037 Y6.3724 
G01 X-56.4127 Y6.2361 
G01 X-56.3500 Y6.0847 
G01 X-56.3180 Y5.9239 
G01 X-56.3180 Y4.2361 
G01 X-56.3500 Y4.0753 
G01 X-56.4127 Y3.9239 
G01 X-56.5037 Y3.7876 
G01 X-56.6196 Y3.6717 
G01 X-56.7559 Y3.5807 
G01 X-56.9073 Y3.5180 
G01 X-57.0681 Y3.4860 
G01 X-57.2319 Y3.4860 
G01 X-57.3927 Y3.5180 
G01 X-57.5441 Y3.5807 
G01 X-57.6804 Y3.6717 
G01 X-57.7963 Y3.7876 
G01 X-57.8873 Y3.9239 
G01 X-57.9500 Y4.0753 
G01 X-57.9820 Y4.2361 
G00 Z2.0000 
G00 X-61.6904 Y32.2877 
G01 Z-0.1000 F254.00 
G01 X-61.6904 Y33.7523 F508.00 
G01 X-61.6623 Y33.8935 
G01 X-61.6073 Y34.0264 
G01 X-61.5273 Y34.1460 
G01 X-61.4256 Y34.2477 
G01 X-61.3060 Y34.3277 
G01 X-61.1731 Y34.3827 
G01 X-61.0319 Y34.4108 
G01 X-60.8881 Y34.4108 
G01 X-60.7469 Y34.3827 
G01 X-60.6140 Y34.3277 
G01 X-60.4944 Y34.2477 
G01 X-60.3927 Y34.1460 
G01 X-60.3127 Y34.0264 
G01 X-60.2577 Y33.8935 
G01 X-60.2296 Y33.7523 
G01 X-60.2296 Y32.2877 
G01 X-60.2577 Y32.1465 
G01 X-60.3127 Y32.0136 
G01 X-60.3927 Y31.8940 
G01 X-60.4944 Y31.7923 
G01 X-60.6140 Y31.7123 
G01 X-60.7469 Y31.6573 
G01 X-60.8881 Y31.6292 
G01 X-61.0319 Y31.6292 
G01 X-61.1731 Y31.6573 
G01 X-61.3060 Y31.7123 
G01 X-61.4256 Y31.7923 
G01 X-61.5273 Y31.8940 
G01 X-61.6073 Y32.0136 
G01 X-61.6623 Y32.1465 
G01 X-61.6904 Y32.2877 
G00 Z2.0000 
G00 X-59.1504 Y32.2877 
G01 Z-0.1000 F254.00 
G01 X-59.1504 Y33.7523 F508.00 
G01 X-59.1223 Y33.8935 
G01 X-59.0673 Y34.0264 
G01 X-58.9873 Y34.1460 
G01 X-58.8856 Y34.2477 
G01 X-58.7660 Y34.3277 
G01 X-58.6331 Y34.3827 
G01 X-58.4919 Y34.4108 
G01 X-58.3481 Y34.4108 
G01 X-58.2069 Y34.3827 
G01 X-58.0740 Y34.3277 
G01 X-57.9544 Y34.2477 
G01 X-57.8527 Y34.1460 
G01 X-57.7727 Y34.0264 
G01 X-57.7177 Y33.8935 
G01 X-57.6896 Y33.7523 
G01 X-57.6896 Y32.2877 
G01 X-57.7177 Y32.1465 
G01 X-57.7727 Y32.0136 
G01 X-57.8527 Y31.8940 
G01 X-57.9544 Y31.7923 
G01 X-58.0740 Y31.7123 
G01 X-58.2069 Y31.6573 
G01 X-58.3481 Y31.6292 
G01 X-58.4919 Y31.6292 
G01 X-58.6331 Y31.6573 
G01 X-58.7660 Y31.7123 
G01 X-58.8856 Y31.7923 
G01 X-58.9873 Y31.8940 
G01 X-59.0673 Y32.0136 
G01 X-59.1223 Y32.1465 
G01 X-59.1504 Y32.2877 
G00 Z2.0000 
G00 X-56.6104 Y32.2877 
G01 Z-0.1000 F254.00 
G01 X-56.6104 Y33.5493 F508.00 
G01 X-58.3411 Y35.2800 
G01 X-70.8434 Y35.2800 
G01 X-70.8907 Y35.1659 
G01 X-70.9817 Y35.0296 
G01 X-71.0976 Y34.9137 
G01 X-71.2339 Y34.8227 
G01 X-71.3853 Y34.7600 
G01 X-71.5461 Y34.7280 
G01 X-73.2339 Y34.7280 
G01 X-73.3947 Y34.7600 
G01 X-73.5461 Y34.8227 
G01 X-73.6824 Y34.9137 
G01 X-73.7983 Y35.0296 
G01 X-73.8893 Y35.1659 
G01 X-73.9520 Y35.3173 
G01 X-73.9840 Y35.4781 
G01 X-73.9840 Y35.6419 
G01 X-73.9520 Y35.8027 
G01 X-73.8893 Y35.9541 
G01 X-73.7983 Y36.0904 
G01 X-73.6824 Y36.2063 
G01 X-73.5461 Y36.2973 
G01 X-73.3947 Y36.3600 
G01 X-73.2339 Y36.3920 
G01 X-71.5461 Y36.3920 
G01 X-71.3853 Y36.3600 
G01 X-71.2339 Y36.2973 
G01 X-71.0976 Y36.2063 
G01 X-70.9817 Y36.0904 
G01 X-70.8907 Y35.9541 
G01 X-70.8280 Y35.8027 
G01 X-70.8115 Y35.7200 
G01 X-58.2062 Y35.7200 
G01 X-58.1254 Y35.6865 
G01 X-58.0635 Y35.6246 
G01 X-56.5024 Y34.0635 
G01 X-56.4473 Y34.1460 
G01 X-56.3456 Y34.2477 
G01 X-56.2260 Y34.3277 
G01 X-56.0931 Y34.3827 
G01 X-55.9519 Y34.4108 
G01 X-55.8081 Y34.4108 
G01 X-55.6669 Y34.3827 
G01 X-55.5340 Y34.3277 
G01 X-55.4144 Y34.2477 
G01 X-55.3127 Y34.1460 
G01 X-55.2327 Y34.0264 
G01 X-55.1777 Y33.8935 
G01 X-55.1496 Y33.7523 
G01 X-55.1496 Y32.2877 
G01 X-55.1777 Y32.1465 
G01 X-55.2327 Y32.0136 
G01 X-55.3127 Y31.8940 
G01 X-55.4144 Y31.7923 
G01 X-55.5340 Y31.7123 
G01 X-55.6669 Y31.6573 
G01 X-55.8081 Y31.6292 
G01 X-55.9519 Y31.6292 
G01 X-56.0931 Y31.6573 
G01 X-56.2260 Y31.7123 
G01 X-56.3456 Y31.7923 
G01 X-56.4473 Y31.8940 
G01 X-56.5273 Y32.0136 
G01 X-56.5823 Y32.1465 
G01 X-56.6104 Y32.2877 
G00 Z2.0000 
G00 X-48.9904 Y32.2877 
G01 Z-0.1000 F254.00 
G01 X-48.9904 Y33.7523 F508.00 
G01 X-48.9623 Y33.8935 
G01 X-48.9073 Y34.0264 
G01 X-48.8273 Y34.1460 
G01 X-48.7256 Y34.2477 
G01 X-48.6060 Y34.3277 
G01 X-48.4731 Y34.3827 
G01 X-48.3319 Y34.4108 
G01 X-48.1881 Y34.4108 
G01 X-48.0469 Y34.3827 
G01 X-47.9140 Y34.3277 
G01 X-47.7944 Y34.2477 
G01 X-47.6927 Y34.1460 
G01 X-47.6127 Y34.0264 
G01 X-47.5577 Y33.8935 
G01 X-47.5296 Y33.7523 
G01 X-47.5296 Y32.2877 
G01 X-47.5577 Y32.1465 
G01 X-47.6127 Y32.0136 
G01 X-47.6927 Y31.8940 
G01 X-47.7944 Y31.7923 
G01 X-47.9140 Y31.7123 
G01 X-48.0469 Y31.6573 
G01 X-48.1881 Y31.6292 
G01 X-48.3319 Y31.6292 
G01 X-48.4731 Y31.6573 
G01 X-48.6060 Y31.7123 
G01 X-48.7256 Y31.7923 
G01 X-48.8273 Y31.8940 
G01 X-48.9073 Y32.0136 
G01 X-48.9623 Y32.1465 
G01 X-48.9904 Y32.2877 
G00 Z2.0000 
G00 X-46.4504 Y32.2877 
G01 Z-0.1000 F254.00 
G01 X-46.4504 Y33.7523 F508.00 
G01 X-46.4223 Y33.8935 
G01 X-46.3673 Y34.0264 
G01 X-46.2873 Y34.1460 
G01 X-46.1856 Y34.2477 
G01 X-46.0660 Y34.3277 
G01 X-45.9331 Y34.3827 
G01 X-45.7919 Y34.4108 
G01 X-45.6481 Y34.4108 
G01 X-45.5069 Y34.3827 
G01 X-45.3740 Y34.3277 
G01 X-45.2544 Y34.2477 
G01 X-45.1527 Y34.1460 
G01 X-45.0727 Y34.0264 
G01 X-45.0177 Y33.8935 
G01 X-44.9896 Y33.7523 
G01 X-44.9896 Y32.2877 
G01 X-45.0177 Y32.1465 
G01 X-45.0727 Y32.0136 
G01 X-45.1527 Y31.8940 
G01 X-45.2544 Y31.7923 
G01 X-45.3740 Y31.7123 
G01 X-45.5069 Y31.6573 
G01 X-45.6481 Y31.6292 
G01 X-45.7919 Y31.6292 
G01 X-45.9331 Y31.6573 
G01 X-46.0660 Y31.7123 
G01 X-46.1856 Y31.7923 
G01 X-46.2873 Y31.8940 
G01 X-46.3673 Y32.0136 
G01 X-46.4223 Y32.1465 
G01 X-46.4504 Y32.2877 
G00 Z2.0000 
G00 X-43.9104 Y32.2877 
G01 Z-0.1000 F254.00 
G01 X-43.9104 Y33.5993 F508.00 
G01 X-46.5241 Y36.2130 
G01 X-46.5269 Y36.2114 
G01 X-46.6739 Y36.1720 
G01 X-46.8261 Y36.1720 
G01 X-46.9731 Y36.2114 
G01 X-47.1049 Y36.2875 
G01 X-47.2125 Y36.3951 
G01 X-47.2886 Y36.5269 
G01 X-47.3280 Y36.6739 
G01 X-47.3280 Y36.8261 
G01 X-47.2886 Y36.9731 
G01 X-47.2125 Y37.1049 
G01 X-47.1049 Y37.2125 
G01 X-46.9731 Y37.2886 
G01 X-46.8261 Y37.3280 
G01 X-46.6739 Y37.3280 
G01 X-46.5269 Y37.2886 
G01 X-46.3951 Y37.2125 
G01 X-46.2875 Y37.1049 
G01 X-46.2114 Y36.9731 
G01 X-46.1720 Y36.8261 
G01 X-46.1720 Y36.6739 
G01 X-46.2114 Y36.5269 
G01 X-46.2130 Y36.5241 
G01 X-43.7824 Y34.0935 
G01 X-43.7473 Y34.1460 
G01 X-43.6456 Y34.2477 
G01 X-43.5260 Y34.3277 
G01 X-43.3931 Y34.3827 
G01 X-43.2519 Y34.4108 
G01 X-43.1081 Y34.4108 
G01 X-42.9669 Y34.3827 
G01 X-42.8340 Y34.3277 
G01 X-42.7144 Y34.2477 
G01 X-42.6127 Y34.1460 
G01 X-42.5327 Y34.0264 
G01 X-42.4777 Y33.8935 
G01 X-42.4496 Y33.7523 
G01 X-42.4496 Y32.2877 
G01 X-42.4777 Y32.1465 
G01 X-42.5327 Y32.0136 
G01 X-42.6127 Y31.8940 
G01 X-42.7144 Y31.7923 
G01 X-42.8340 Y31.7123 
G01 X-42.9669 Y31.6573 
G01 X-43.1081 Y31.6292 
G01 X-43.2519 Y31.6292 
G01 X-43.3931 Y31.6573 
G01 X-43.5260 Y31.7123 
G01 X-43.6456 Y31.7923 
G01 X-43.7473 Y31.8940 
G01 X-43.8273 Y32.0136 
G01 X-43.8823 Y32.1465 
G01 X-43.9104 Y32.2877 
G00 Z2.0000 
G00 X-41.3704 Y32.2877 
G01 Z-0.1000 F254.00 
G01 X-41.3704 Y33.7523 F508.00 
G01 X-41.3423 Y33.8935 
G01 X-41.2873 Y34.0264 
G01 X-41.2073 Y34.1460 
G01 X-41.1056 Y34.2477 
G01 X-40.9860 Y34.3277 
G01 X-40.8531 Y34.3827 
G01 X-40.7119 Y34.4108 
G01 X-40.5681 Y34.4108 
G01 X-40.4269 Y34.3827 
G01 X-40.2940 Y34.3277 
G01 X-40.1744 Y34.2477 
G01 X-40.0727 Y34.1460 
G01 X-39.9927 Y34.0264 
G01 X-39.9377 Y33.8935 
G01 X-39.9096 Y33.7523 
G01 X-39.9096 Y32.2877 
G01 X-39.9377 Y32.1465 
G01 X-39.9927 Y32.0136 
G01 X-40.0727 Y31.8940 
G01 X-40.1744 Y31.7923 
G01 X-40.2940 Y31.7123 
G01 X-40.4269 Y31.6573 
G01 X-40.5681 Y31.6292 
G01 X-40.7119 Y31.6292 
G01 X-40.8531 Y31.6573 
G01 X-40.9860 Y31.7123 
G01 X-41.1056 Y31.7923 
G01 X-41.2073 Y31.8940 
G01 X-41.2873 Y32.0136 
G01 X-41.3423 Y32.1465 
G01 X-41.3704 Y32.2877 
G00 Z2.0000 
G00 X-36.2904 Y32.2877 
G01 Z-0.1000 F254.00 
G01 X-36.2904 Y33.7523 F508.00 
G01 X-36.2623 Y33.8935 
G01 X-36.2073 Y34.0264 
G01 X-36.1273 Y34.1460 
G01 X-36.0256 Y34.2477 
G01 X-35.9060 Y34.3277 
G01 X-35.7731 Y34.3827 
G01 X-35.6319 Y34.4108 
G01 X-35.4881 Y34.4108 
G01 X-35.3469 Y34.3827 
G01 X-35.2140 Y34.3277 
G01 X-35.0944 Y34.2477 
G01 X-34.9927 Y34.1460 
G01 X-34.9616 Y34.0995 
G01 X-30.9365 Y38.1246 
G01 X-30.8746 Y38.1865 
G01 X-30.7938 Y38.2200 
G01 X-21.9064 Y38.2200 
G01 X-21.8820 Y38.3427 
G01 X-21.8193 Y38.4941 
G01 X-21.7283 Y38.6304 
G01 X-21.6124 Y38.7463 
G01 X-21.4761 Y38.8373 
G01 X-21.3247 Y38.9000 
G01 X-21.1639 Y38.9320 
G01 X-19.4761 Y38.9320 
G01 X-19.3153 Y38.9000 
G01 X-19.1639 Y38.8373 
G01 X-19.0276 Y38.7463 
G01 X-18.9117 Y38.6304 
G01 X-18.8207 Y38.4941 
G01 X-18.7580 Y38.3427 
G01 X-18.7260 Y38.1819 
G01 X-18.7260 Y38.0181 
G01 X-18.7580 Y37.8573 
G01 X-18.8207 Y37.7059 
G01 X-18.9117 Y37.5696 
G01 X-19.0276 Y37.4537 
G01 X-19.1639 Y37.3627 
G01 X-19.3153 Y37.3000 
G01 X-19.4761 Y37.2680 
G01 X-21.1639 Y37.2680 
G01 X-21.3247 Y37.3000 
G01 X-21.4761 Y37.3627 
G01 X-21.6124 Y37.4537 
G01 X-21.7283 Y37.5696 
G01 X-21.8193 Y37.7059 
G01 X-21.8500 Y37.7800 
G01 X-30.6589 Y37.7800 
G01 X-34.8296 Y33.6093 
G01 X-34.8296 Y32.2877 
G01 X-34.8577 Y32.1465 
G01 X-34.9127 Y32.0136 
G01 X-34.9927 Y31.8940 
G01 X-35.0944 Y31.7923 
G01 X-35.2140 Y31.7123 
G01 X-35.3469 Y31.6573 
G01 X-35.4881 Y31.6292 
G01 X-35.6319 Y31.6292 
G01 X-35.7731 Y31.6573 
G01 X-35.9060 Y31.7123 
G01 X-36.0256 Y31.7923 
G01 X-36.1273 Y31.8940 
G01 X-36.2073 Y32.0136 
G01 X-36.2623 Y32.1465 
G01 X-36.2904 Y32.2877 
G00 Z2.0000 
G00 X-31.2104 Y32.2877 
G01 Z-0.1000 F254.00 
G01 X-31.2104 Y33.7523 F508.00 
G01 X-31.1823 Y33.8935 
G01 X-31.1273 Y34.0264 
G01 X-31.0473 Y34.1460 
G01 X-30.9456 Y34.2477 
G01 X-30.8260 Y34.3277 
G01 X-30.6931 Y34.3827 
G01 X-30.5519 Y34.4108 
G01 X-30.4081 Y34.4108 
G01 X-30.2669 Y34.3827 
G01 X-30.1340 Y34.3277 
G01 X-30.0144 Y34.2477 
G01 X-29.9127 Y34.1460 
G01 X-29.8327 Y34.0264 
G01 X-29.7777 Y33.8935 
G01 X-29.7496 Y33.7523 
G01 X-29.7496 Y32.2877 
G01 X-29.7777 Y32.1465 
G01 X-29.8327 Y32.0136 
G01 X-29.9127 Y31.8940 
G01 X-30.0144 Y31.7923 
G01 X-30.1340 Y31.7123 
G01 X-30.2669 Y31.6573 
G01 X-30.4081 Y31.6292 
G01 X-30.5519 Y31.6292 
G01 X-30.6931 Y31.6573 
G01 X-30.8260 Y31.7123 
G01 X-30.9456 Y31.7923 
G01 X-31.0473 Y31.8940 
G01 X-31.1273 Y32.0136 
G01 X-31.1823 Y32.1465 
G01 X-31.2104 Y32.2877 
G00 Z2.0000 
G00 X-31.2104 Y24.6677 
G01 Z-0.1000 F254.00 
G01 X-31.2104 Y26.1323 F508.00 
G01 X-31.1823 Y26.2735 
G01 X-31.1273 Y26.4064 
G01 X-31.0473 Y26.5260 
G01 X-30.9456 Y26.6277 
G01 X-30.8260 Y26.7077 
G01 X-30.6931 Y26.7627 
G01 X-30.5519 Y26.7908 
G01 X-30.4081 Y26.7908 
G01 X-30.2669 Y26.7627 
G01 X-30.1340 Y26.7077 
G01 X-30.0144 Y26.6277 
G01 X-29.9127 Y26.5260 
G01 X-29.8327 Y26.4064 
G01 X-29.7777 Y26.2735 
G01 X-29.7496 Y26.1323 
G01 X-29.7496 Y24.6677 
G01 X-29.7777 Y24.5265 
G01 X-29.8327 Y24.3936 
G01 X-29.9127 Y24.2740 
G01 X-30.0144 Y24.1723 
G01 X-30.1340 Y24.0923 
G01 X-30.2669 Y24.0373 
G01 X-30.4081 Y24.0092 
G01 X-30.5519 Y24.0092 
G01 X-30.6931 Y24.0373 
G01 X-30.8260 Y24.0923 
G01 X-30.9456 Y24.1723 
G01 X-31.0473 Y24.2740 
G01 X-31.1273 Y24.3936 
G01 X-31.1823 Y24.5265 
G01 X-31.2104 Y24.6677 
G00 Z2.0000 
G00 X-36.2904 Y24.6677 
G01 Z-0.1000 F254.00 
G01 X-36.2904 Y26.1323 F508.00 
G01 X-36.2623 Y26.2735 
G01 X-36.2073 Y26.4064 
G01 X-36.1273 Y26.5260 
G01 X-36.0256 Y26.6277 
G01 X-35.9060 Y26.7077 
G01 X-35.7731 Y26.7627 
G01 X-35.6319 Y26.7908 
G01 X-35.4881 Y26.7908 
G01 X-35.3469 Y26.7627 
G01 X-35.2140 Y26.7077 
G01 X-35.0944 Y26.6277 
G01 X-34.9927 Y26.5260 
G01 X-34.9127 Y26.4064 
G01 X-34.8577 Y26.2735 
G01 X-34.8296 Y26.1323 
G01 X-34.8296 Y24.8907 
G01 X-33.6589 Y23.7200 
G01 X-22.3411 Y23.7200 
G01 X-21.4212 Y24.6399 
G01 X-21.4761 Y24.6627 
G01 X-21.6124 Y24.7537 
G01 X-21.7283 Y24.8696 
G01 X-21.8193 Y25.0059 
G01 X-21.8820 Y25.1573 
G01 X-21.9140 Y25.3181 
G01 X-21.9140 Y25.4819 
G01 X-21.8820 Y25.6427 
G01 X-21.8193 Y25.7941 
G01 X-21.7283 Y25.9304 
G01 X-21.6124 Y26.0463 
G01 X-21.4761 Y26.1373 
G01 X-21.3247 Y26.2000 
G01 X-21.1639 Y26.2320 
G01 X-19.4761 Y26.2320 
G01 X-19.3153 Y26.2000 
G01 X-19.1639 Y26.1373 
G01 X-19.0276 Y26.0463 
G01 X-18.9117 Y25.9304 
G01 X-18.8207 Y25.7941 
G01 X-18.7580 Y25.6427 
G01 X-18.7260 Y25.4819 
G01 X-18.7260 Y25.3181 
G01 X-18.7580 Y25.1573 
G01 X-18.8207 Y25.0059 
G01 X-18.9117 Y24.8696 
G01 X-19.0276 Y24.7537 
G01 X-19.1639 Y24.6627 
G01 X-19.3153 Y24.6000 
G01 X-19.4761 Y24.5680 
G01 X-20.8709 Y24.5680 
G01 X-22.1254 Y23.3135 
G01 X-22.2062 Y23.2800 
G01 X-33.7938 Y23.2800 
G01 X-33.8746 Y23.3135 
G01 X-33.9365 Y23.3754 
G01 X-34.9296 Y24.3684 
G01 X-34.9927 Y24.2740 
G01 X-35.0944 Y24.1723 
G01 X-35.2140 Y24.0923 
G01 X-35.3469 Y24.0373 
G01 X-35.4881 Y24.0092 
G01 X-35.6319 Y24.0092 
G01 X-35.7731 Y24.0373 
G01 X-35.9060 Y24.0923 
G01 X-36.0256 Y24.1723 
G01 X-36.1273 Y24.2740 
G01 X-36.2073 Y24.3936 
G01 X-36.2623 Y24.5265 
G01 X-36.2904 Y24.6677 
G00 Z2.0000 
G00 X-38.8304 Y24.6677 
G01 Z-0.1000 F254.00 
G01 X-38.8304 Y26.1323 F508.00 
G01 X-38.8023 Y26.2735 
G01 X-38.7473 Y26.4064 
G01 X-38.6673 Y26.5260 
G01 X-38.5656 Y26.6277 
G01 X-38.4460 Y26.7077 
G01 X-38.3131 Y26.7627 
G01 X-38.1719 Y26.7908 
G01 X-38.0281 Y26.7908 
G01 X-37.8869 Y26.7627 
G01 X-37.7540 Y26.7077 
G01 X-37.6344 Y26.6277 
G01 X-37.5327 Y26.5260 
G01 X-37.4527 Y26.4064 
G01 X-37.3977 Y26.2735 
G01 X-37.3696 Y26.1323 
G01 X-37.3696 Y24.9307 
G01 X-35.4089 Y22.9700 
G01 X-21.9084 Y22.9700 
G01 X-21.8820 Y23.1027 
G01 X-21.8193 Y23.2541 
G01 X-21.7283 Y23.3904 
G01 X-21.6124 Y23.5063 
G01 X-21.4761 Y23.5973 
G01 X-21.3247 Y23.6600 
G01 X-21.1639 Y23.6920 
G01 X-19.4761 Y23.6920 
G01 X-19.3153 Y23.6600 
G01 X-19.1639 Y23.5973 
G01 X-19.0276 Y23.5063 
G01 X-18.9117 Y23.3904 
G01 X-18.8207 Y23.2541 
G01 X-18.7580 Y23.1027 
G01 X-18.7260 Y22.9419 
G01 X-18.7260 Y22.7781 
G01 X-18.7580 Y22.6173 
G01 X-18.8207 Y22.4659 
G01 X-18.9117 Y22.3296 
G01 X-19.0276 Y22.2137 
G01 X-19.1639 Y22.1227 
G01 X-19.3153 Y22.0600 
G01 X-19.4761 Y22.0280 
G01 X-21.1639 Y22.0280 
G01 X-21.3247 Y22.0600 
G01 X-21.4761 Y22.1227 
G01 X-21.6124 Y22.2137 
G01 X-21.7283 Y22.3296 
G01 X-21.8193 Y22.4659 
G01 X-21.8459 Y22.5300 
G01 X-35.5438 Y22.5300 
G01 X-35.6246 Y22.5635 
G01 X-35.6865 Y22.6254 
G01 X-37.4535 Y24.3924 
G01 X-37.5327 Y24.2740 
G01 X-37.6344 Y24.1723 
G01 X-37.7540 Y24.0923 
G01 X-37.8869 Y24.0373 
G01 X-38.0281 Y24.0092 
G01 X-38.1719 Y24.0092 
G01 X-38.3131 Y24.0373 
G01 X-38.4460 Y24.0923 
G01 X-38.5656 Y24.1723 
G01 X-38.6673 Y24.2740 
G01 X-38.7473 Y24.3936 
G01 X-38.8023 Y24.5265 
G01 X-38.8304 Y24.6677 
G00 Z2.0000 
G00 X-41.3704 Y24.6677 
G01 Z-0.1000 F254.00 
G01 X-41.3704 Y26.1323 F508.00 
G01 X-41.3423 Y26.2735 
G01 X-41.2873 Y26.4064 
G01 X-41.2073 Y26.5260 
G01 X-41.1056 Y26.6277 
G01 X-40.9860 Y26.7077 
G01 X-40.8531 Y26.7627 
G01 X-40.7119 Y26.7908 
G01 X-40.5681 Y26.7908 
G01 X-40.4269 Y26.7627 
G01 X-40.2940 Y26.7077 
G01 X-40.1744 Y26.6277 
G01 X-40.0727 Y26.5260 
G01 X-39.9927 Y26.4064 
G01 X-39.9377 Y26.2735 
G01 X-39.9096 Y26.1323 
G01 X-39.9096 Y24.9707 
G01 X-35.6589 Y20.7200 
G01 X-21.8154 Y20.7200 
G01 X-21.7283 Y20.8504 
G01 X-21.6124 Y20.9663 
G01 X-21.4761 Y21.0573 
G01 X-21.3247 Y21.1200 
G01 X-21.1639 Y21.1520 
G01 X-19.4761 Y21.1520 
G01 X-19.3153 Y21.1200 
G01 X-19.1639 Y21.0573 
G01 X-19.0276 Y20.9663 
G01 X-18.9117 Y20.8504 
G01 X-18.8207 Y20.7141 
G01 X-18.7580 Y20.5627 
G01 X-18.7260 Y20.4019 
G01 X-18.7260 Y20.2381 
G01 X-18.7580 Y20.0773 
G01 X-18.8207 Y19.9259 
G01 X-18.9117 Y19.7896 
G01 X-19.0276 Y19.6737 
G01 X-19.1639 Y19.5827 
G01 X-19.3153 Y19.5200 
G01 X-19.4761 Y19.4880 
G01 X-21.1639 Y19.4880 
G01 X-21.3247 Y19.5200 
G01 X-21.4761 Y19.5827 
G01 X-21.6124 Y19.6737 
G01 X-21.7283 Y19.7896 
G01 X-21.8193 Y19.9259 
G01 X-21.8820 Y20.0773 
G01 X-21.9140 Y20.2381 
G01 X-21.9140 Y20.2800 
G01 X-35.7938 Y20.2800 
G01 X-35.8746 Y20.3135 
G01 X-35.9365 Y20.3754 
G01 X-39.9816 Y24.4205 
G01 X-39.9927 Y24.3936 
G01 X-40.0727 Y24.2740 
G01 X-40.1744 Y24.1723 
G01 X-40.2940 Y24.0923 
G01 X-40.4269 Y24.0373 
G01 X-40.5681 Y24.0092 
G01 X-40.7119 Y24.0092 
G01 X-40.8531 Y24.0373 
G01 X-40.9860 Y24.0923 
G01 X-41.1056 Y24.1723 
G01 X-41.2073 Y24.2740 
G01 X-41.2873 Y24.3936 
G01 X-41.3423 Y24.5265 
G01 X-41.3704 Y24.6677 
G00 Z2.0000 
G00 X-43.9104 Y24.6677 
G01 Z-0.1000 F254.00 
G01 X-43.9104 Y26.1323 F508.00 
G01 X-43.8823 Y26.2735 
G01 X-43.8273 Y26.4064 
G01 X-43.7473 Y26.5260 
G01 X-43.6456 Y26.6277 
G01 X-43.5260 Y26.7077 
G01 X-43.3931 Y26.7627 
G01 X-43.2519 Y26.7908 
G01 X-43.1081 Y26.7908 
G01 X-42.9669 Y26.7627 
G01 X-42.8340 Y26.7077 
G01 X-42.7144 Y26.6277 
G01 X-42.6127 Y26.5260 
G01 X-42.5327 Y26.4064 
G01 X-42.4777 Y26.2735 
G01 X-42.4496 Y26.1323 
G01 X-42.4496 Y24.6677 
G01 X-42.4777 Y24.5265 
G01 X-42.5327 Y24.3936 
G01 X-42.6127 Y24.2740 
G01 X-42.7144 Y24.1723 
G01 X-42.8340 Y24.0923 
G01 X-42.9669 Y24.0373 
G01 X-43.1081 Y24.0092 
G01 X-43.2519 Y24.0092 
G01 X-43.3931 Y24.0373 
G01 X-43.5260 Y24.0923 
G01 X-43.6456 Y24.1723 
G01 X-43.7473 Y24.2740 
G01 X-43.8273 Y24.3936 
G01 X-43.8823 Y24.5265 
G01 X-43.9104 Y24.6677 
G00 Z2.0000 
G00 X-46.4504 Y24.6677 
G01 Z-0.1000 F254.00 
G01 X-46.4504 Y26.1323 F508.00 
G01 X-46.4223 Y26.2735 
G01 X-46.3673 Y26.4064 
G01 X-46.2873 Y26.5260 
G01 X-46.1856 Y26.6277 
G01 X-46.0660 Y26.7077 
G01 X-45.9331 Y26.7627 
G01 X-45.7919 Y26.7908 
G01 X-45.6481 Y26.7908 
G01 X-45.5069 Y26.7627 
G01 X-45.3740 Y26.7077 
G01 X-45.2544 Y26.6277 
G01 X-45.1527 Y26.5260 
G01 X-45.0727 Y26.4064 
G01 X-45.0177 Y26.2735 
G01 X-44.9896 Y26.1323 
G01 X-44.9896 Y24.6677 
G01 X-45.0177 Y24.5265 
G01 X-45.0727 Y24.3936 
G01 X-45.1527 Y24.2740 
G01 X-45.2544 Y24.1723 
G01 X-45.3740 Y24.0923 
G01 X-45.5069 Y24.0373 
G01 X-45.6481 Y24.0092 
G01 X-45.7919 Y24.0092 
G01 X-45.9331 Y24.0373 
G01 X-46.0660 Y24.0923 
G01 X-46.1856 Y24.1723 
G01 X-46.2873 Y24.2740 
G01 X-46.3673 Y24.3936 
G01 X-46.4223 Y24.5265 
G01 X-46.4504 Y24.6677 
G00 Z2.0000 
G00 X-48.9904 Y24.6677 
G01 Z-0.1000 F254.00 
G01 X-48.9904 Y26.1323 F508.00 
G01 X-48.9623 Y26.2735 
G01 X-48.9073 Y26.4064 
G01 X-48.8273 Y26.5260 
G01 X-48.7256 Y26.6277 
G01 X-48.6060 Y26.7077 
G01 X-48.4731 Y26.7627 
G01 X-48.3319 Y26.7908 
G01 X-48.1881 Y26.7908 
G01 X-48.0469 Y26.7627 
G01 X-47.9140 Y26.7077 
G01 X-47.7944 Y26.6277 
G01 X-47.6927 Y26.5260 
G01 X-47.6127 Y26.4064 
G01 X-47.5577 Y26.2735 
G01 X-47.5296 Y26.1323 
G01 X-47.5296 Y24.6677 
G01 X-47.5577 Y24.5265 
G01 X-47.6127 Y24.3936 
G01 X-47.6927 Y24.2740 
G01 X-47.7944 Y24.1723 
G01 X-47.9140 Y24.0923 
G01 X-48.0469 Y24.0373 
G01 X-48.1881 Y24.0092 
G01 X-48.3319 Y24.0092 
G01 X-48.4731 Y24.0373 
G01 X-48.6060 Y24.0923 
G01 X-48.7256 Y24.1723 
G01 X-48.8273 Y24.2740 
G01 X-48.9073 Y24.3936 
G01 X-48.9623 Y24.5265 
G01 X-48.9904 Y24.6677 
G00 Z2.0000 
G00 X-51.5304 Y24.6677 
G01 Z-0.1000 F254.00 
G01 X-51.5304 Y26.1323 F508.00 
G01 X-51.5023 Y26.2735 
G01 X-51.4473 Y26.4064 
G01 X-51.3673 Y26.5260 
G01 X-51.2656 Y26.6277 
G01 X-51.1460 Y26.7077 
G01 X-51.0130 Y26.7627 
G01 X-50.8719 Y26.7908 
G01 X-50.7281 Y26.7908 
G01 X-50.5869 Y26.7627 
G01 X-50.4540 Y26.7077 
G01 X-50.3344 Y26.6277 
G01 X-50.2327 Y26.5260 
G01 X-50.1527 Y26.4064 
G01 X-50.0977 Y26.2735 
G01 X-50.0696 Y26.1323 
G01 X-50.0696 Y24.6677 
G01 X-50.0977 Y24.5265 
G01 X-50.1527 Y24.3936 
G01 X-50.2327 Y24.2740 
G01 X-50.3344 Y24.1723 
G01 X-50.4540 Y24.0923 
G01 X-50.5869 Y24.0373 
G01 X-50.7281 Y24.0092 
G01 X-50.8719 Y24.0092 
G01 X-51.0130 Y24.0373 
G01 X-51.1460 Y24.0923 
G01 X-51.2656 Y24.1723 
G01 X-51.3673 Y24.2740 
G01 X-51.4473 Y24.3936 
G01 X-51.5023 Y24.5265 
G01 X-51.5304 Y24.6677 
G00 Z2.0000 
G00 X-54.0704 Y24.6677 
G01 Z-0.1000 F254.00 
G01 X-54.0704 Y26.1323 F508.00 
G01 X-54.0423 Y26.2735 
G01 X-53.9873 Y26.4064 
G01 X-53.9073 Y26.5260 
G01 X-53.8056 Y26.6277 
G01 X-53.6860 Y26.7077 
G01 X-53.5531 Y26.7627 
G01 X-53.4119 Y26.7908 
G01 X-53.2681 Y26.7908 
G01 X-53.1269 Y26.7627 
G01 X-52.9940 Y26.7077 
G01 X-52.8744 Y26.6277 
G01 X-52.7727 Y26.5260 
G01 X-52.6927 Y26.4064 
G01 X-52.6377 Y26.2735 
G01 X-52.6096 Y26.1323 
G01 X-52.6096 Y24.6677 
G01 X-52.6377 Y24.5265 
G01 X-52.6927 Y24.3936 
G01 X-52.7727 Y24.2740 
G01 X-52.8744 Y24.1723 
G01 X-52.9940 Y24.0923 
G01 X-53.1269 Y24.0373 
G01 X-53.2681 Y24.0092 
G01 X-53.4119 Y24.0092 
G01 X-53.5531 Y24.0373 
G01 X-53.6860 Y24.0923 
G01 X-53.8056 Y24.1723 
G01 X-53.9073 Y24.2740 
G01 X-53.9873 Y24.3936 
G01 X-54.0423 Y24.5265 
G01 X-54.0704 Y24.6677 
G00 Z2.0000 
G00 X-56.6104 Y24.6677 
G01 Z-0.1000 F254.00 
G01 X-56.6104 Y26.1323 F508.00 
G01 X-56.5823 Y26.2735 
G01 X-56.5273 Y26.4064 
G01 X-56.4473 Y26.5260 
G01 X-56.3456 Y26.6277 
G01 X-56.2260 Y26.7077 
G01 X-56.0931 Y26.7627 
G01 X-55.9519 Y26.7908 
G01 X-55.8081 Y26.7908 
G01 X-55.6669 Y26.7627 
G01 X-55.5340 Y26.7077 
G01 X-55.4144 Y26.6277 
G01 X-55.3127 Y26.5260 
G01 X-55.2327 Y26.4064 
G01 X-55.1777 Y26.2735 
G01 X-55.1496 Y26.1323 
G01 X-55.1496 Y24.6677 
G01 X-55.1777 Y24.5265 
G01 X-55.2327 Y24.3936 
G01 X-55.3127 Y24.2740 
G01 X-55.4144 Y24.1723 
G01 X-55.5340 Y24.0923 
G01 X-55.6669 Y24.0373 
G01 X-55.8081 Y24.0092 
G01 X-55.9519 Y24.0092 
G01 X-56.0931 Y24.0373 
G01 X-56.2260 Y24.0923 
G01 X-56.3456 Y24.1723 
G01 X-56.4473 Y24.2740 
G01 X-56.5273 Y24.3936 
G01 X-56.5823 Y24.5265 
G01 X-56.6104 Y24.6677 
G00 Z2.0000 
G00 X-59.1504 Y26.1323 
G01 Z-0.1000 F254.00 
G01 X-59.1223 Y26.2735 F508.00 
G01 X-59.0673 Y26.4064 
G01 X-58.9873 Y26.5260 
G01 X-58.8856 Y26.6277 
G01 X-58.7660 Y26.7077 
G01 X-58.6331 Y26.7627 
G01 X-58.4919 Y26.7908 
G01 X-58.3481 Y26.7908 
G01 X-58.2069 Y26.7627 
G01 X-58.0740 Y26.7077 
G01 X-57.9544 Y26.6277 
G01 X-57.8527 Y26.5260 
G01 X-57.7727 Y26.4064 
G01 X-57.7177 Y26.2735 
G01 X-57.6896 Y26.1323 
G01 X-57.6896 Y24.6677 
G01 X-57.7177 Y24.5265 
G01 X-57.7727 Y24.3936 
G01 X-57.8527 Y24.2740 
G01 X-57.9544 Y24.1723 
G01 X-58.0740 Y24.0923 
G01 X-58.2069 Y24.0373 
G01 X-58.3481 Y24.0092 
G01 X-58.4919 Y24.0092 
G01 X-58.6331 Y24.0373 
G01 X-58.7660 Y24.0923 
G01 X-58.8856 Y24.1723 
G01 X-58.9873 Y24.2740 
G01 X-59.0584 Y24.3804 
G01 X-65.5635 Y17.8754 
G01 X-65.6254 Y17.8135 
G01 X-65.7062 Y17.7800 
G01 X-70.7960 Y17.7800 
G01 X-70.7960 Y17.6981 
G01 X-70.8280 Y17.5373 
G01 X-70.8907 Y17.3859 
G01 X-70.9817 Y17.2496 
G01 X-71.0976 Y17.1337 
G01 X-71.2339 Y17.0427 
G01 X-71.3853 Y16.9800 
G01 X-71.5461 Y16.9480 
G01 X-73.2339 Y16.9480 
G01 X-73.3947 Y16.9800 
G01 X-73.5461 Y17.0427 
G01 X-73.6824 Y17.1337 
G01 X-73.7983 Y17.2496 
G01 X-73.8893 Y17.3859 
G01 X-73.9520 Y17.5373 
G01 X-73.9840 Y17.6981 
G01 X-73.9840 Y17.8619 
G01 X-73.9520 Y18.0227 
G01 X-73.8893 Y18.1741 
G01 X-73.7983 Y18.3104 
G01 X-73.6824 Y18.4263 
G01 X-73.5461 Y18.5173 
G01 X-73.3947 Y18.5800 
G01 X-73.2339 Y18.6120 
G01 X-71.5461 Y18.6120 
G01 X-71.3853 Y18.5800 
G01 X-71.2339 Y18.5173 
G01 X-71.0976 Y18.4263 
G01 X-70.9817 Y18.3104 
G01 X-70.9214 Y18.2200 
G01 X-65.8411 Y18.2200 
G01 X-59.1504 Y24.9107 
G01 X-59.1504 Y26.1323 
G00 Z2.0000 
G00 X-61.6904 Y26.1323 
G01 Z-0.1000 F254.00 
G01 X-61.6623 Y26.2735 F508.00 
G01 X-61.6073 Y26.4064 
G01 X-61.5273 Y26.5260 
G01 X-61.4256 Y26.6277 
G01 X-61.3060 Y26.7077 
G01 X-61.1731 Y26.7627 
G01 X-61.0319 Y26.7908 
G01 X-60.8881 Y26.7908 
G01 X-60.7469 Y26.7627 
G01 X-60.6140 Y26.7077 
G01 X-60.4944 Y26.6277 
G01 X-60.3927 Y26.5260 
G01 X-60.3127 Y26.4064 
G01 X-60.2577 Y26.2735 
G01 X-60.2296 Y26.1323 
G01 X-60.2296 Y24.6677 
G01 X-60.2577 Y24.5265 
G01 X-60.3127 Y24.3936 
G01 X-60.3927 Y24.2740 
G01 X-60.4944 Y24.1723 
G01 X-60.6140 Y24.0923 
G01 X-60.7469 Y24.0373 
G01 X-60.8881 Y24.0092 
G01 X-61.0319 Y24.0092 
G01 X-61.1731 Y24.0373 
G01 X-61.3060 Y24.0923 
G01 X-61.4256 Y24.1723 
G01 X-61.5273 Y24.2740 
G01 X-61.5824 Y24.3564 
G01 X-63.0635 Y22.8754 
G01 X-63.1254 Y22.8135 
G01 X-63.2062 Y22.7800 
G01 X-70.7960 Y22.7800 
G01 X-70.8280 Y22.6173 
G01 X-70.8907 Y22.4659 
G01 X-70.9817 Y22.3296 
G01 X-71.0976 Y22.2137 
G01 X-71.2339 Y22.1227 
G01 X-71.3853 Y22.0600 
G01 X-71.5461 Y22.0280 
G01 X-73.2339 Y22.0280 
G01 X-73.3947 Y22.0600 
G01 X-73.5461 Y22.1227 
G01 X-73.6824 Y22.2137 
G01 X-73.7983 Y22.3296 
G01 X-73.8893 Y22.4659 
G01 X-73.9520 Y22.6173 
G01 X-73.9840 Y22.7781 
G01 X-73.9840 Y22.9419 
G01 X-73.9520 Y23.1027 
G01 X-73.8893 Y23.2541 
G01 X-73.7983 Y23.3904 
G01 X-73.6824 Y23.5063 
G01 X-73.5461 Y23.5973 
G01 X-73.3947 Y23.6600 
G01 X-73.2339 Y23.6920 
G01 X-71.5461 Y23.6920 
G01 X-71.3853 Y23.6600 
G01 X-71.2339 Y23.5973 
G01 X-71.0976 Y23.5063 
G01 X-70.9817 Y23.3904 
G01 X-70.8907 Y23.2541 
G01 X-70.8766 Y23.2200 
G01 X-63.3411 Y23.2200 
G01 X-61.6904 Y24.8707 
G01 X-61.6904 Y26.1323 
G00 Z2.0000 
G00 X-64.2304 Y24.6677 
G01 Z-0.1000 F254.00 
G01 X-64.2304 Y26.1323 F508.00 
G01 X-64.2023 Y26.2735 
G01 X-64.1473 Y26.4064 
G01 X-64.0673 Y26.5260 
G01 X-63.9656 Y26.6277 
G01 X-63.8460 Y26.7077 
G01 X-63.7131 Y26.7627 
G01 X-63.5719 Y26.7908 
G01 X-63.4281 Y26.7908 
G01 X-63.2869 Y26.7627 
G01 X-63.1540 Y26.7077 
G01 X-63.0344 Y26.6277 
G01 X-62.9327 Y26.5260 
G01 X-62.8527 Y26.4064 
G01 X-62.7977 Y26.2735 
G01 X-62.7696 Y26.1323 
G01 X-62.7696 Y24.6677 
G01 X-62.7977 Y24.5265 
G01 X-62.8527 Y24.3936 
G01 X-62.9327 Y24.2740 
G01 X-63.0344 Y24.1723 
G01 X-63.1540 Y24.0923 
G01 X-63.2869 Y24.0373 
G01 X-63.4281 Y24.0092 
G01 X-63.5719 Y24.0092 
G01 X-63.7131 Y24.0373 
G01 X-63.8460 Y24.0923 
G01 X-63.9656 Y24.1723 
G01 X-64.0673 Y24.2740 
G01 X-64.1473 Y24.3936 
G01 X-64.2023 Y24.5265 
G01 X-64.2304 Y24.6677 
G00 Z2.0000 
G00 X-10.6110 Y33.1999 
G01 Z-0.1000 F254.00 
G01 X-10.6110 Y33.3989 F508.00 
G01 X-10.5722 Y33.5939 
G01 X-10.4961 Y33.7777 
G01 X-10.3856 Y33.9431 
G01 X-10.2449 Y34.0838 
G01 X-10.0795 Y34.1943 
G01 X-9.8957 Y34.2704 
G01 X-9.7007 Y34.3092 
G01 X-9.5017 Y34.3092 
G01 X-9.3067 Y34.2704 
G01 X-9.1229 Y34.1943 
G01 X-8.9575 Y34.0838 
G01 X-8.8168 Y33.9431 
G01 X-8.7063 Y33.7777 
G01 X-8.6302 Y33.5939 
G01 X-8.5914 Y33.3989 
G01 X-8.5914 Y33.1999 
G01 X-8.6302 Y33.0049 
G01 X-8.7063 Y32.8211 
G01 X-8.8168 Y32.6557 
G01 X-8.9575 Y32.5150 
G01 X-9.1229 Y32.4045 
G01 X-9.3067 Y32.3284 
G01 X-9.5017 Y32.2896 
G01 X-9.7007 Y32.2896 
G01 X-9.8957 Y32.3284 
G01 X-10.0795 Y32.4045 
G01 X-10.2023 Y32.4866 
G01 X-11.1254 Y31.5635 
G01 X-11.2062 Y31.5300 
G01 X-29.4089 Y31.5300 
G01 X-29.8135 Y31.1254 
G01 X-29.8754 Y31.0635 
G01 X-29.9562 Y31.0300 
G01 X-61.7938 Y31.0300 
G01 X-61.8746 Y31.0635 
G01 X-62.8445 Y32.0334 
G01 X-62.8527 Y32.0136 
G01 X-62.9327 Y31.8940 
G01 X-63.0344 Y31.7923 
G01 X-63.1540 Y31.7123 
G01 X-63.2869 Y31.6573 
G01 X-63.4281 Y31.6292 
G01 X-63.5719 Y31.6292 
G01 X-63.7131 Y31.6573 
G01 X-63.8460 Y31.7123 
G01 X-63.9656 Y31.7923 
G01 X-64.0673 Y31.8940 
G01 X-64.1473 Y32.0136 
G01 X-64.2023 Y32.1465 
G01 X-64.2304 Y32.2877 
G01 X-64.2304 Y33.7523 
G01 X-64.2023 Y33.8935 
G01 X-64.1473 Y34.0264 
G01 X-64.0673 Y34.1460 
G01 X-63.9656 Y34.2477 
G01 X-63.8460 Y34.3277 
G01 X-63.7131 Y34.3827 
G01 X-63.5719 Y34.4108 
G01 X-63.4281 Y34.4108 
G01 X-63.2869 Y34.3827 
G01 X-63.1540 Y34.3277 
G01 X-63.0344 Y34.2477 
G01 X-62.9327 Y34.1460 
G01 X-62.8527 Y34.0264 
G01 X-62.7977 Y33.8935 
G01 X-62.7696 Y33.7523 
G01 X-62.7696 Y32.5807 
G01 X-61.6589 Y31.4700 
G01 X-30.0911 Y31.4700 
G01 X-29.6246 Y31.9365 
G01 X-29.5438 Y31.9700 
G01 X-11.3411 Y31.9700 
G01 X-10.4937 Y32.8175 
G01 X-10.4961 Y32.8211 
G01 X-10.5722 Y33.0049 
G01 X-10.6110 Y33.1999 
G00 Z2.0000 
G00 X-4.1086 Y33.1999 
G01 Z-0.1000 F254.00 
G01 X-4.1086 Y33.3989 F508.00 
G01 X-4.0698 Y33.5939 
G01 X-3.9937 Y33.7777 
G01 X-3.8832 Y33.9431 
G01 X-3.7425 Y34.0838 
G01 X-3.5771 Y34.1943 
G01 X-3.3933 Y34.2704 
G01 X-3.1983 Y34.3092 
G01 X-2.9993 Y34.3092 
G01 X-2.8043 Y34.2704 
G01 X-2.6205 Y34.1943 
G01 X-2.4551 Y34.0838 
G01 X-2.3144 Y33.9431 
G01 X-2.2039 Y33.7777 
G01 X-2.1278 Y33.5939 
G01 X-2.0890 Y33.3989 
G01 X-2.0890 Y33.1999 
G01 X-2.1278 Y33.0049 
G01 X-2.2039 Y32.8211 
G01 X-2.3144 Y32.6557 
G01 X-2.4551 Y32.5150 
G01 X-2.6205 Y32.4045 
G01 X-2.8043 Y32.3284 
G01 X-2.9993 Y32.2896 
G01 X-3.1983 Y32.2896 
G01 X-3.3933 Y32.3284 
G01 X-3.5771 Y32.4045 
G01 X-3.7425 Y32.5150 
G01 X-3.8832 Y32.6557 
G01 X-3.9937 Y32.8211 
G01 X-4.0698 Y33.0049 
G01 X-4.1086 Y33.1999 
G00 Z2.0000 
G00 X-10.6110 Y37.7211 
G01 Z-0.1000 F254.00 
G01 X-10.6110 Y37.9201 F508.00 
G01 X-10.5722 Y38.1151 
G01 X-10.4961 Y38.2989 
G01 X-10.3856 Y38.4643 
G01 X-10.2449 Y38.6050 
G01 X-10.0795 Y38.7155 
G01 X-9.8957 Y38.7916 
G01 X-9.7007 Y38.8304 
G01 X-9.5017 Y38.8304 
G01 X-9.3067 Y38.7916 
G01 X-9.1229 Y38.7155 
G01 X-8.9575 Y38.6050 
G01 X-8.8168 Y38.4643 
G01 X-8.7063 Y38.2989 
G01 X-8.6302 Y38.1151 
G01 X-8.5914 Y37.9201 
G01 X-8.5914 Y37.7211 
G01 X-8.6302 Y37.5261 
G01 X-8.7063 Y37.3423 
G01 X-8.8168 Y37.1769 
G01 X-8.9575 Y37.0362 
G01 X-9.1229 Y36.9257 
G01 X-9.3067 Y36.8496 
G01 X-9.5017 Y36.8108 
G01 X-9.7007 Y36.8108 
G01 X-9.8957 Y36.8496 
G01 X-10.0795 Y36.9257 
G01 X-10.2449 Y37.0362 
G01 X-10.3856 Y37.1769 
G01 X-10.4961 Y37.3423 
G01 X-10.5722 Y37.5261 
G01 X-10.6110 Y37.7211 
G00 Z2.0000 
G00 X-4.1086 Y37.7211 
G01 Z-0.1000 F254.00 
G01 X-4.1086 Y37.9201 F508.00 
G01 X-4.0698 Y38.1151 
G01 X-3.9937 Y38.2989 
G01 X-3.8832 Y38.4643 
G01 X-3.7425 Y38.6050 
G01 X-3.5771 Y38.7155 
G01 X-3.3933 Y38.7916 
G01 X-3.1983 Y38.8304 
G01 X-2.9993 Y38.8304 
G01 X-2.8043 Y38.7916 
G01 X-2.6205 Y38.7155 
G01 X-2.4551 Y38.6050 
G01 X-2.3144 Y38.4643 
G01 X-2.2039 Y38.2989 
G01 X-2.1278 Y38.1151 
G01 X-2.0890 Y37.9201 
G01 X-2.0890 Y37.7211 
G01 X-2.1278 Y37.5261 
G01 X-2.2039 Y37.3423 
G01 X-2.3144 Y37.1769 
G01 X-2.4551 Y37.0362 
G01 X-2.6205 Y36.9257 
G01 X-2.8043 Y36.8496 
G01 X-2.9993 Y36.8108 
G01 X-3.1983 Y36.8108 
G01 X-3.3933 Y36.8496 
G01 X-3.5771 Y36.9257 
G01 X-3.7425 Y37.0362 
G01 X-3.8832 Y37.1769 
G01 X-3.9937 Y37.3423 
G01 X-4.0698 Y37.5261 
G01 X-4.1086 Y37.7211 
G00 Z2.0000 
G00 X-60.2190 Y62.5223 
G01 Z-0.1000 F254.00 
G01 X-60.2190 Y64.1377 F508.00 
G01 X-60.1883 Y64.2921 
G01 X-60.1281 Y64.4375 
G01 X-60.0406 Y64.5683 
G01 X-59.9293 Y64.6796 
G01 X-59.7985 Y64.7671 
G01 X-59.6531 Y64.8273 
G01 X-59.4987 Y64.8580 
G01 X-59.3413 Y64.8580 
G01 X-59.1869 Y64.8273 
G01 X-59.0415 Y64.7671 
G01 X-58.9107 Y64.6796 
G01 X-58.7994 Y64.5683 
G01 X-58.7119 Y64.4375 
G01 X-58.6517 Y64.2921 
G01 X-58.6210 Y64.1377 
G01 X-58.6210 Y62.5223 
G01 X-58.6517 Y62.3679 
G01 X-58.7119 Y62.2225 
G01 X-58.7994 Y62.0917 
G01 X-58.9107 Y61.9804 
G01 X-59.0415 Y61.8929 
G01 X-59.1869 Y61.8327 
G01 X-59.3413 Y61.8020 
G01 X-59.4987 Y61.8020 
G01 X-59.6531 Y61.8327 
G01 X-59.7985 Y61.8929 
G01 X-59.9293 Y61.9804 
G01 X-60.0406 Y62.0917 
G01 X-60.1281 Y62.2225 
G01 X-60.1883 Y62.3679 
G01 X-60.2190 Y62.5223 
G00 Z2.0000 
G00 X-58.2190 Y62.5223 
G01 Z-0.1000 F254.00 
G01 X-58.2190 Y64.1377 F508.00 
G01 X-58.1883 Y64.2921 
G01 X-58.1281 Y64.4375 
G01 X-58.0406 Y64.5683 
G01 X-57.9293 Y64.6796 
G01 X-57.7985 Y64.7671 
G01 X-57.6531 Y64.8273 
G01 X-57.4987 Y64.8580 
G01 X-57.3413 Y64.8580 
G01 X-57.1869 Y64.8273 
G01 X-57.0415 Y64.7671 
G01 X-56.9107 Y64.6796 
G01 X-56.7994 Y64.5683 
G01 X-56.7119 Y64.4375 
G01 X-56.6517 Y64.2921 
G01 X-56.6210 Y64.1377 
G01 X-56.6210 Y62.5223 
G01 X-56.6517 Y62.3679 
G01 X-56.7119 Y62.2225 
G01 X-56.7994 Y62.0917 
G01 X-56.9107 Y61.9804 
G01 X-57.0415 Y61.8929 
G01 X-57.1869 Y61.8327 
G01 X-57.3413 Y61.8020 
G01 X-57.4987 Y61.8020 
G01 X-57.6531 Y61.8327 
G01 X-57.7985 Y61.8929 
G01 X-57.9293 Y61.9804 
G01 X-58.0406 Y62.0917 
G01 X-58.1281 Y62.2225 
G01 X-58.1883 Y62.3679 
G01 X-58.2190 Y62.5223 
G00 Z2.0000 
G00 X-62.7190 Y62.5223 
G01 Z-0.1000 F254.00 
G01 X-62.7190 Y64.1377 F508.00 
G01 X-62.6883 Y64.2921 
G01 X-62.6281 Y64.4375 
G01 X-62.5406 Y64.5683 
G01 X-62.4293 Y64.6796 
G01 X-62.2985 Y64.7671 
G01 X-62.1531 Y64.8273 
G01 X-61.9987 Y64.8580 
G01 X-61.8413 Y64.8580 
G01 X-61.6869 Y64.8273 
G01 X-61.5415 Y64.7671 
G01 X-61.4107 Y64.6796 
G01 X-61.2994 Y64.5683 
G01 X-61.2119 Y64.4375 
G01 X-61.1517 Y64.2921 
G01 X-61.1210 Y64.1377 
G01 X-61.1210 Y62.5223 
G01 X-61.1517 Y62.3679 
G01 X-61.2119 Y62.2225 
G01 X-61.2994 Y62.0917 
G01 X-61.4107 Y61.9804 
G01 X-61.5415 Y61.8929 
G01 X-61.6869 Y61.8327 
G01 X-61.8413 Y61.8020 
G01 X-61.9987 Y61.8020 
G01 X-62.1531 Y61.8327 
G01 X-62.2985 Y61.8929 
G01 X-62.4293 Y61.9804 
G01 X-62.5406 Y62.0917 
G01 X-62.6281 Y62.2225 
G01 X-62.6883 Y62.3679 
G01 X-62.7190 Y62.5223 
G00 Z2.0000 
G00 X-55.7190 Y62.5223 
G01 Z-0.1000 F254.00 
G01 X-55.7190 Y64.1377 F508.00 
G01 X-55.6883 Y64.2921 
G01 X-55.6281 Y64.4375 
G01 X-55.5406 Y64.5683 
G01 X-55.4293 Y64.6796 
G01 X-55.2985 Y64.7671 
G01 X-55.1531 Y64.8273 
G01 X-54.9987 Y64.8580 
G01 X-54.8413 Y64.8580 
G01 X-54.6869 Y64.8273 
G01 X-54.5415 Y64.7671 
G01 X-54.4107 Y64.6796 
G01 X-54.2994 Y64.5683 
G01 X-54.2119 Y64.4375 
G01 X-54.1517 Y64.2921 
G01 X-54.1210 Y64.1377 
G01 X-54.1210 Y62.5223 
G01 X-54.1517 Y62.3679 
G01 X-54.2119 Y62.2225 
G01 X-54.2994 Y62.0917 
G01 X-54.4107 Y61.9804 
G01 X-54.5415 Y61.8929 
G01 X-54.6869 Y61.8327 
G01 X-54.8413 Y61.8020 
G01 X-54.9987 Y61.8020 
G01 X-55.1531 Y61.8327 
G01 X-55.2985 Y61.8929 
G01 X-55.4293 Y61.9804 
G01 X-55.5406 Y62.0917 
G01 X-55.6281 Y62.2225 
G01 X-55.6883 Y62.3679 
G01 X-55.7190 Y62.5223 
G00 Z2.0000 
G00 X-9.7339 Y14.8020 
G01 Z-0.1000 F254.00 
G01 X-8.0461 Y14.8020 F508.00 
G01 X-7.8853 Y14.7700 
G01 X-7.7339 Y14.7073 
G01 X-7.5976 Y14.6163 
G01 X-7.4817 Y14.5004 
G01 X-7.3907 Y14.3641 
G01 X-7.3280 Y14.2127 
G01 X-7.2960 Y14.0519 
G01 X-7.2960 Y13.8881 
G01 X-7.3280 Y13.7273 
G01 X-7.3907 Y13.5759 
G01 X-7.4817 Y13.4396 
G01 X-7.5976 Y13.3237 
G01 X-7.7339 Y13.2327 
G01 X-7.8853 Y13.1700 
G01 X-8.0461 Y13.1380 
G01 X-9.7339 Y13.1380 
G01 X-9.8947 Y13.1700 
G01 X-10.0461 Y13.2327 
G01 X-10.1824 Y13.3237 
G01 X-10.2983 Y13.4396 
G01 X-10.3893 Y13.5759 
G01 X-10.4520 Y13.7273 
G01 X-10.4840 Y13.8881 
G01 X-10.4840 Y14.0519 
G01 X-10.4520 Y14.2127 
G01 X-10.3893 Y14.3641 
G01 X-10.2983 Y14.5004 
G01 X-10.1824 Y14.6163 
G01 X-10.0461 Y14.7073 
G01 X-9.8947 Y14.7700 
G01 X-9.7339 Y14.8020 
G00 Z2.0000 
G00 X-9.7339 Y12.2620 
G01 Z-0.1000 F254.00 
G01 X-8.0461 Y12.2620 F508.00 
G01 X-7.8853 Y12.2300 
G01 X-7.7339 Y12.1673 
G01 X-7.5976 Y12.0763 
G01 X-7.4817 Y11.9604 
G01 X-7.3907 Y11.8241 
G01 X-7.3280 Y11.6727 
G01 X-7.2960 Y11.5119 
G01 X-7.2960 Y11.3481 
G01 X-7.3280 Y11.1873 
G01 X-7.3907 Y11.0359 
G01 X-7.4817 Y10.8996 
G01 X-7.5976 Y10.7837 
G01 X-7.7339 Y10.6927 
G01 X-7.8853 Y10.6300 
G01 X-8.0461 Y10.5980 
G01 X-9.7339 Y10.5980 
G01 X-9.8947 Y10.6300 
G01 X-10.0461 Y10.6927 
G01 X-10.1824 Y10.7837 
G01 X-10.2983 Y10.8996 
G01 X-10.3893 Y11.0359 
G01 X-10.4520 Y11.1873 
G01 X-10.4840 Y11.3481 
G01 X-10.4840 Y11.5119 
G01 X-10.4520 Y11.6727 
G01 X-10.3893 Y11.8241 
G01 X-10.2983 Y11.9604 
G01 X-10.1824 Y12.0763 
G01 X-10.0461 Y12.1673 
G01 X-9.8947 Y12.2300 
G01 X-9.7339 Y12.2620 
G00 Z2.0000 
G00 X-30.6262 Y59.6131 
G01 Z-0.1000 F254.00 
G01 X-30.6262 Y59.7669 F508.00 
G01 X-30.5962 Y59.9179 
G01 X-30.5373 Y60.0600 
G01 X-30.4518 Y60.1880 
G01 X-30.3430 Y60.2968 
G01 X-30.2150 Y60.3823 
G01 X-30.0729 Y60.4412 
G01 X-29.9219 Y60.4712 
G01 X-29.7681 Y60.4712 
G01 X-29.6171 Y60.4412 
G01 X-29.4750 Y60.3823 
G01 X-29.3470 Y60.2968 
G01 X-29.2382 Y60.1880 
G01 X-29.1527 Y60.0600 
G01 X-29.0938 Y59.9179 
G01 X-29.0638 Y59.7669 
G01 X-29.0638 Y59.6131 
G01 X-29.0938 Y59.4621 
G01 X-29.1527 Y59.3200 
G01 X-29.2382 Y59.1920 
G01 X-29.3470 Y59.0832 
G01 X-29.4750 Y58.9977 
G01 X-29.6171 Y58.9388 
G01 X-29.7681 Y58.9088 
G01 X-29.9219 Y58.9088 
G01 X-30.0729 Y58.9388 
G01 X-30.2150 Y58.9977 
G01 X-30.3430 Y59.0832 
G01 X-30.4518 Y59.1920 
G01 X-30.5373 Y59.3200 
G01 X-30.5962 Y59.4621 
G01 X-30.6262 Y59.6131 
G00 Z2.0000 
G00 X-28.0862 Y59.6131 
G01 Z-0.1000 F254.00 
G01 X-28.0862 Y59.7669 F508.00 
G01 X-28.0562 Y59.9179 
G01 X-28.0336 Y59.9724 
G01 X-28.8411 Y60.7800 
G01 X-39.9089 Y60.7800 
G01 X-40.6012 Y60.0877 
G01 X-40.5827 Y60.0600 
G01 X-40.5238 Y59.9179 
G01 X-40.4938 Y59.7669 
G01 X-40.4938 Y59.6131 
G01 X-40.5238 Y59.4621 
G01 X-40.5827 Y59.3200 
G01 X-40.6682 Y59.1920 
G01 X-40.7770 Y59.0832 
G01 X-40.9050 Y58.9977 
G01 X-41.0471 Y58.9388 
G01 X-41.1981 Y58.9088 
G01 X-41.3519 Y58.9088 
G01 X-41.5029 Y58.9388 
G01 X-41.6450 Y58.9977 
G01 X-41.7730 Y59.0832 
G01 X-41.8818 Y59.1920 
G01 X-41.9673 Y59.3200 
G01 X-42.0262 Y59.4621 
G01 X-42.0562 Y59.6131 
G01 X-42.0562 Y59.7669 
G01 X-42.0262 Y59.9179 
G01 X-41.9673 Y60.0600 
G01 X-41.8818 Y60.1880 
G01 X-41.7730 Y60.2968 
G01 X-41.6450 Y60.3823 
G01 X-41.5029 Y60.4412 
G01 X-41.3519 Y60.4712 
G01 X-41.1981 Y60.4712 
G01 X-41.0471 Y60.4412 
G01 X-40.9218 Y60.3893 
G01 X-40.1246 Y61.1865 
G01 X-40.0438 Y61.2200 
G01 X-28.7062 Y61.2200 
G01 X-28.6254 Y61.1865 
G01 X-27.7626 Y60.3238 
G01 X-27.6750 Y60.3823 
G01 X-27.5329 Y60.4412 
G01 X-27.3819 Y60.4712 
G01 X-27.2281 Y60.4712 
G01 X-27.0771 Y60.4412 
G01 X-26.9350 Y60.3823 
G01 X-26.8070 Y60.2968 
G01 X-26.6982 Y60.1880 
G01 X-26.6127 Y60.0600 
G01 X-26.5538 Y59.9179 
G01 X-26.5238 Y59.7669 
G01 X-26.5238 Y59.6131 
G01 X-26.5538 Y59.4621 
G01 X-26.6127 Y59.3200 
G01 X-26.6982 Y59.1920 
G01 X-26.8070 Y59.0832 
G01 X-26.9350 Y58.9977 
G01 X-27.0771 Y58.9388 
G01 X-27.2281 Y58.9088 
G01 X-27.3819 Y58.9088 
G01 X-27.5329 Y58.9388 
G01 X-27.6750 Y58.9977 
G01 X-27.8030 Y59.0832 
G01 X-27.9118 Y59.1920 
G01 X-27.9973 Y59.3200 
G01 X-28.0562 Y59.4621 
G01 X-28.0862 Y59.6131 
G00 Z2.0000 
G00 X-73.2339 Y21.1520 
G01 Z-0.1000 F254.00 
G01 X-71.5461 Y21.1520 F508.00 
G01 X-71.3853 Y21.1200 
G01 X-71.2339 Y21.0573 
G01 X-71.0976 Y20.9663 
G01 X-70.9817 Y20.8504 
G01 X-70.8907 Y20.7141 
G01 X-70.8280 Y20.5627 
G01 X-70.7960 Y20.4019 
G01 X-70.7960 Y20.2381 
G01 X-70.8280 Y20.0773 
G01 X-70.8907 Y19.9259 
G01 X-70.9817 Y19.7896 
G01 X-71.0976 Y19.6737 
G01 X-71.2339 Y19.5827 
G01 X-71.3853 Y19.5200 
G01 X-71.5461 Y19.4880 
G01 X-73.2339 Y19.4880 
G01 X-73.3947 Y19.5200 
G01 X-73.5461 Y19.5827 
G01 X-73.6824 Y19.6737 
G01 X-73.7983 Y19.7896 
G01 X-73.8893 Y19.9259 
G01 X-73.9520 Y20.0773 
G01 X-73.9840 Y20.2381 
G01 X-73.9840 Y20.4019 
G01 X-73.9520 Y20.5627 
G01 X-73.8893 Y20.7141 
G01 X-73.7983 Y20.8504 
G01 X-73.6824 Y20.9663 
G01 X-73.5461 Y21.0573 
G01 X-73.3947 Y21.1200 
G01 X-73.2339 Y21.1520 
G00 Z2.0000 
G00 X-73.2339 Y16.0720 
G01 Z-0.1000 F254.00 
G01 X-71.5461 Y16.0720 F508.00 
G01 X-71.3853 Y16.0400 
G01 X-71.2339 Y15.9773 
G01 X-71.0976 Y15.8863 
G01 X-70.9817 Y15.7704 
G01 X-70.8907 Y15.6341 
G01 X-70.8280 Y15.4827 
G01 X-70.7960 Y15.3219 
G01 X-70.7960 Y15.1581 
G01 X-70.8280 Y14.9973 
G01 X-70.8907 Y14.8459 
G01 X-70.9817 Y14.7096 
G01 X-71.0976 Y14.5937 
G01 X-71.2339 Y14.5027 
G01 X-71.3853 Y14.4400 
G01 X-71.5461 Y14.4080 
G01 X-73.2339 Y14.4080 
G01 X-73.3947 Y14.4400 
G01 X-73.5461 Y14.5027 
G01 X-73.6824 Y14.5937 
G01 X-73.7983 Y14.7096 
G01 X-73.8893 Y14.8459 
G01 X-73.9520 Y14.9973 
G01 X-73.9840 Y15.1581 
G01 X-73.9840 Y15.3219 
G01 X-73.9520 Y15.4827 
G01 X-73.8893 Y15.6341 
G01 X-73.7983 Y15.7704 
G01 X-73.6824 Y15.8863 
G01 X-73.5461 Y15.9773 
G01 X-73.3947 Y16.0400 
G01 X-73.2339 Y16.0720 
G00 Z2.0000 
G00 X-73.2339 Y13.5320 
G01 Z-0.1000 F254.00 
G01 X-71.5461 Y13.5320 F508.00 
G01 X-71.3853 Y13.5000 
G01 X-71.2339 Y13.4373 
G01 X-71.0976 Y13.3463 
G01 X-70.9817 Y13.2304 
G01 X-70.8907 Y13.0941 
G01 X-70.8280 Y12.9427 
G01 X-70.7960 Y12.7819 
G01 X-70.7960 Y12.7200 
G01 X-50.4562 Y12.7200 
G01 X-50.3754 Y12.6865 
G01 X-50.3135 Y12.6246 
G01 X-43.9196 Y6.2307 
G01 X-43.9173 Y6.2361 
G01 X-43.8263 Y6.3724 
G01 X-43.7104 Y6.4883 
G01 X-43.5741 Y6.5793 
G01 X-43.4227 Y6.6420 
G01 X-43.2619 Y6.6740 
G01 X-43.0981 Y6.6740 
G01 X-42.9373 Y6.6420 
G01 X-42.7859 Y6.5793 
G01 X-42.6496 Y6.4883 
G01 X-42.5337 Y6.3724 
G01 X-42.4427 Y6.2361 
G01 X-42.4082 Y6.1529 
G01 X-41.1246 Y7.4365 
G01 X-41.0438 Y7.4700 
G01 X-10.5911 Y7.4700 
G01 X-9.9488 Y8.1124 
G01 X-10.0461 Y8.1527 
G01 X-10.1824 Y8.2437 
G01 X-10.2983 Y8.3596 
G01 X-10.3893 Y8.4959 
G01 X-10.4520 Y8.6473 
G01 X-10.4840 Y8.8081 
G01 X-10.4840 Y8.9719 
G01 X-10.4520 Y9.1327 
G01 X-10.3893 Y9.2841 
G01 X-10.2983 Y9.4204 
G01 X-10.1824 Y9.5363 
G01 X-10.0461 Y9.6273 
G01 X-9.8947 Y9.6900 
G01 X-9.7339 Y9.7220 
G01 X-8.0461 Y9.7220 
G01 X-7.8853 Y9.6900 
G01 X-7.7339 Y9.6273 
G01 X-7.5976 Y9.5363 
G01 X-7.4817 Y9.4204 
G01 X-7.3907 Y9.2841 
G01 X-7.3280 Y9.1327 
G01 X-7.2960 Y8.9719 
G01 X-7.2960 Y8.8081 
G01 X-7.3280 Y8.6473 
G01 X-7.3907 Y8.4959 
G01 X-7.4817 Y8.3596 
G01 X-7.5976 Y8.2437 
G01 X-7.7339 Y8.1527 
G01 X-7.8853 Y8.0900 
G01 X-8.0461 Y8.0580 
G01 X-9.3809 Y8.0580 
G01 X-10.3135 Y7.1254 
G01 X-10.3754 Y7.0635 
G01 X-10.4562 Y7.0300 
G01 X-40.9089 Y7.0300 
G01 X-42.3480 Y5.5909 
G01 X-42.3480 Y4.2361 
G01 X-42.3800 Y4.0753 
G01 X-42.4427 Y3.9239 
G01 X-42.5337 Y3.7876 
G01 X-42.6496 Y3.6717 
G01 X-42.7859 Y3.5807 
G01 X-42.9373 Y3.5180 
G01 X-43.0981 Y3.4860 
G01 X-43.2619 Y3.4860 
G01 X-43.4227 Y3.5180 
G01 X-43.5741 Y3.5807 
G01 X-43.7104 Y3.6717 
G01 X-43.8263 Y3.7876 
G01 X-43.9173 Y3.9239 
G01 X-43.9800 Y4.0753 
G01 X-44.0120 Y4.2361 
G01 X-44.0120 Y5.7009 
G01 X-50.5911 Y12.2800 
G01 X-70.9080 Y12.2800 
G01 X-70.9817 Y12.1696 
G01 X-71.0976 Y12.0537 
G01 X-71.2339 Y11.9627 
G01 X-71.3853 Y11.9000 
G01 X-71.5461 Y11.8680 
G01 X-73.2339 Y11.8680 
G01 X-73.3947 Y11.9000 
G01 X-73.5461 Y11.9627 
G01 X-73.6824 Y12.0537 
G01 X-73.7983 Y12.1696 
G01 X-73.8893 Y12.3059 
G01 X-73.9520 Y12.4573 
G01 X-73.9840 Y12.6181 
G01 X-73.9840 Y12.7819 
G01 X-73.9520 Y12.9427 
G01 X-73.8893 Y13.0941 
G01 X-73.7983 Y13.2304 
G01 X-73.6824 Y13.3463 
G01 X-73.5461 Y13.4373 
G01 X-73.3947 Y13.5000 
G01 X-73.2339 Y13.5320 
G00 Z2.0000 
G00 X-73.2339 Y10.9920 
G01 Z-0.1000 F254.00 
G01 X-71.5461 Y10.9920 F508.00 
G01 X-71.3853 Y10.9600 
G01 X-71.2339 Y10.8973 
G01 X-71.0976 Y10.8063 
G01 X-70.9817 Y10.6904 
G01 X-70.8907 Y10.5541 
G01 X-70.8280 Y10.4027 
G01 X-70.7960 Y10.2419 
G01 X-70.7960 Y10.0781 
G01 X-70.8280 Y9.9173 
G01 X-70.8907 Y9.7659 
G01 X-70.9817 Y9.6296 
G01 X-71.0976 Y9.5137 
G01 X-71.2339 Y9.4227 
G01 X-71.3242 Y9.3853 
G01 X-69.4089 Y7.4700 
G01 X-50.4562 Y7.4700 
G01 X-50.3754 Y7.4365 
G01 X-49.0493 Y6.1105 
G01 X-48.9973 Y6.2361 
G01 X-48.9063 Y6.3724 
G01 X-48.7904 Y6.4883 
G01 X-48.6541 Y6.5793 
G01 X-48.5027 Y6.6420 
G01 X-48.3419 Y6.6740 
G01 X-48.1781 Y6.6740 
G01 X-48.0173 Y6.6420 
G01 X-47.8659 Y6.5793 
G01 X-47.7296 Y6.4883 
G01 X-47.6137 Y6.3724 
G01 X-47.5227 Y6.2361 
G01 X-47.4600 Y6.0847 
G01 X-47.4280 Y5.9239 
G01 X-47.4280 Y4.2361 
G01 X-47.4600 Y4.0753 
G01 X-47.5227 Y3.9239 
G01 X-47.6137 Y3.7876 
G01 X-47.7296 Y3.6717 
G01 X-47.8659 Y3.5807 
G01 X-48.0173 Y3.5180 
G01 X-48.1781 Y3.4860 
G01 X-48.3419 Y3.4860 
G01 X-48.5027 Y3.5180 
G01 X-48.6541 Y3.5807 
G01 X-48.7904 Y3.6717 
G01 X-48.9063 Y3.7876 
G01 X-48.9973 Y3.9239 
G01 X-49.0600 Y4.0753 
G01 X-49.0920 Y4.2361 
G01 X-49.0920 Y5.5309 
G01 X-50.5911 Y7.0300 
G01 X-69.5438 Y7.0300 
G01 X-69.6246 Y7.0635 
G01 X-69.6865 Y7.1254 
G01 X-71.8891 Y9.3280 
G01 X-73.2339 Y9.3280 
G01 X-73.3947 Y9.3600 
G01 X-73.5461 Y9.4227 
G01 X-73.6824 Y9.5137 
G01 X-73.7983 Y9.6296 
G01 X-73.8893 Y9.7659 
G01 X-73.9520 Y9.9173 
G01 X-73.9840 Y10.0781 
G01 X-73.9840 Y10.2419 
G01 X-73.9520 Y10.4027 
G01 X-73.8893 Y10.5541 
G01 X-73.7983 Y10.6904 
G01 X-73.6824 Y10.8063 
G01 X-73.5461 Y10.8973 
G01 X-73.3947 Y10.9600 
G01 X-73.2339 Y10.9920 
G00 Z2.0000 
G00 X-73.2339 Y8.4520 
G01 Z-0.1000 F254.00 
G01 X-71.5461 Y8.4520 F508.00 
G01 X-71.3853 Y8.4200 
G01 X-71.2339 Y8.3573 
G01 X-71.0976 Y8.2663 
G01 X-70.9817 Y8.1504 
G01 X-70.8907 Y8.0141 
G01 X-70.8280 Y7.8627 
G01 X-70.7960 Y7.7019 
G01 X-70.7960 Y7.5381 
G01 X-70.8280 Y7.3773 
G01 X-70.8907 Y7.2259 
G01 X-70.9817 Y7.0896 
G01 X-71.0976 Y6.9737 
G01 X-71.2339 Y6.8827 
G01 X-71.3853 Y6.8200 
G01 X-71.5461 Y6.7880 
G01 X-73.2339 Y6.7880 
G01 X-73.3947 Y6.8200 
G01 X-73.5461 Y6.8827 
G01 X-73.6824 Y6.9737 
G01 X-73.7983 Y7.0896 
G01 X-73.8893 Y7.2259 
G01 X-73.9520 Y7.3773 
G01 X-73.9840 Y7.5381 
G01 X-73.9840 Y7.7019 
G01 X-73.9520 Y7.8627 
G01 X-73.8893 Y8.0141 
G01 X-73.7983 Y8.1504 
G01 X-73.6824 Y8.2663 
G01 X-73.5461 Y8.3573 
G01 X-73.3947 Y8.4200 
G01 X-73.2339 Y8.4520 
G00 Z2.0000 
G00 X-73.2339 Y5.9120 
G01 Z-0.1000 F254.00 
G01 X-71.5461 Y5.9120 F508.00 
G01 X-71.3853 Y5.8800 
G01 X-71.2339 Y5.8173 
G01 X-71.0976 Y5.7263 
G01 X-70.9817 Y5.6104 
G01 X-70.8907 Y5.4741 
G01 X-70.8280 Y5.3227 
G01 X-70.7960 Y5.1619 
G01 X-70.7960 Y4.9981 
G01 X-70.8280 Y4.8373 
G01 X-70.8907 Y4.6859 
G01 X-70.9817 Y4.5496 
G01 X-71.0976 Y4.4337 
G01 X-71.2339 Y4.3427 
G01 X-71.3853 Y4.2800 
G01 X-71.5461 Y4.2480 
G01 X-73.2339 Y4.2480 
G01 X-73.3947 Y4.2800 
G01 X-73.5461 Y4.3427 
G01 X-73.6824 Y4.4337 
G01 X-73.7983 Y4.5496 
G01 X-73.8893 Y4.6859 
G01 X-73.9520 Y4.8373 
G01 X-73.9840 Y4.9981 
G01 X-73.9840 Y5.1619 
G01 X-73.9520 Y5.3227 
G01 X-73.8893 Y5.4741 
G01 X-73.7983 Y5.6104 
G01 X-73.6824 Y5.7263 
G01 X-73.5461 Y5.8173 
G01 X-73.3947 Y5.8800 
G01 X-73.2339 Y5.9120 
G00 Z2.0000 
G00 X-73.2339 Y44.0120 
G01 Z-0.1000 F254.00 
G01 X-71.5461 Y44.0120 F508.00 
G01 X-71.3853 Y43.9800 
G01 X-71.2339 Y43.9173 
G01 X-71.0976 Y43.8263 
G01 X-70.9817 Y43.7104 
G01 X-70.8907 Y43.5741 
G01 X-70.8280 Y43.4227 
G01 X-70.7960 Y43.2619 
G01 X-70.7960 Y43.2200 
G01 X-47.9562 Y43.2200 
G01 X-47.8754 Y43.1865 
G01 X-47.8135 Y43.1246 
G01 X-38.7344 Y34.0456 
G01 X-38.6673 Y34.1460 
G01 X-38.5656 Y34.2477 
G01 X-38.4460 Y34.3277 
G01 X-38.3131 Y34.3827 
G01 X-38.1719 Y34.4108 
G01 X-38.0281 Y34.4108 
G01 X-37.8869 Y34.3827 
G01 X-37.7540 Y34.3277 
G01 X-37.6344 Y34.2477 
G01 X-37.5327 Y34.1460 
G01 X-37.4527 Y34.0264 
G01 X-37.3977 Y33.8935 
G01 X-37.3696 Y33.7523 
G01 X-37.3696 Y32.2877 
G01 X-37.3977 Y32.1465 
G01 X-37.4527 Y32.0136 
G01 X-37.5327 Y31.8940 
G01 X-37.6344 Y31.7923 
G01 X-37.7540 Y31.7123 
G01 X-37.8869 Y31.6573 
G01 X-38.0281 Y31.6292 
G01 X-38.1719 Y31.6292 
G01 X-38.3131 Y31.6573 
G01 X-38.4460 Y31.7123 
G01 X-38.5656 Y31.7923 
G01 X-38.6673 Y31.8940 
G01 X-38.7473 Y32.0136 
G01 X-38.8023 Y32.1465 
G01 X-38.8304 Y32.2877 
G01 X-38.8304 Y33.5193 
G01 X-48.0911 Y42.7800 
G01 X-70.8946 Y42.7800 
G01 X-70.9817 Y42.6496 
G01 X-71.0976 Y42.5337 
G01 X-71.2339 Y42.4427 
G01 X-71.3853 Y42.3800 
G01 X-71.5461 Y42.3480 
G01 X-73.2339 Y42.3480 
G01 X-73.3947 Y42.3800 
G01 X-73.5461 Y42.4427 
G01 X-73.6824 Y42.5337 
G01 X-73.7983 Y42.6496 
G01 X-73.8893 Y42.7859 
G01 X-73.9520 Y42.9373 
G01 X-73.9840 Y43.0981 
G01 X-73.9840 Y43.2619 
G01 X-73.9520 Y43.4227 
G01 X-73.8893 Y43.5741 
G01 X-73.7983 Y43.7104 
G01 X-73.6824 Y43.8263 
G01 X-73.5461 Y43.9173 
G01 X-73.3947 Y43.9800 
G01 X-73.2339 Y44.0120 
G00 Z2.0000 
G00 X-73.2339 Y41.4720 
G01 Z-0.1000 F254.00 
G01 X-71.5461 Y41.4720 F508.00 
G01 X-71.3853 Y41.4400 
G01 X-71.2339 Y41.3773 
G01 X-71.0976 Y41.2863 
G01 X-70.9817 Y41.1704 
G01 X-70.8907 Y41.0341 
G01 X-70.8280 Y40.8827 
G01 X-70.7960 Y40.7219 
G01 X-58.2062 Y40.7200 
G01 X-58.1254 Y40.6865 
G01 X-58.0635 Y40.6246 
G01 X-51.4525 Y34.0137 
G01 X-51.4473 Y34.0264 
G01 X-51.3673 Y34.1460 
G01 X-51.2656 Y34.2477 
G01 X-51.1460 Y34.3277 
G01 X-51.0130 Y34.3827 
G01 X-50.8719 Y34.4108 
G01 X-50.7281 Y34.4108 
G01 X-50.5869 Y34.3827 
G01 X-50.4540 Y34.3277 
G01 X-50.3344 Y34.2477 
G01 X-50.2327 Y34.1460 
G01 X-50.1527 Y34.0264 
G01 X-50.0977 Y33.8935 
G01 X-50.0696 Y33.7523 
G01 X-50.0696 Y32.2877 
G01 X-50.0977 Y32.1465 
G01 X-50.1527 Y32.0136 
G01 X-50.2327 Y31.8940 
G01 X-50.3344 Y31.7923 
G01 X-50.4540 Y31.7123 
G01 X-50.5869 Y31.6573 
G01 X-50.7281 Y31.6292 
G01 X-50.8719 Y31.6292 
G01 X-51.0130 Y31.6573 
G01 X-51.1460 Y31.7123 
G01 X-51.2656 Y31.7923 
G01 X-51.3673 Y31.8940 
G01 X-51.4473 Y32.0136 
G01 X-51.5023 Y32.1465 
G01 X-51.5304 Y32.2877 
G01 X-51.5304 Y33.4693 
G01 X-58.3411 Y40.2800 
G01 X-70.8766 Y40.2800 
G01 X-70.8907 Y40.2459 
G01 X-70.9817 Y40.1096 
G01 X-71.0976 Y39.9937 
G01 X-71.2339 Y39.9027 
G01 X-71.3853 Y39.8400 
G01 X-71.5461 Y39.8080 
G01 X-73.2339 Y39.8080 
G01 X-73.3947 Y39.8400 
G01 X-73.5461 Y39.9027 
G01 X-73.6824 Y39.9937 
G01 X-73.7983 Y40.1096 
G01 X-73.8893 Y40.2459 
G01 X-73.9520 Y40.3973 
G01 X-73.9840 Y40.5581 
G01 X-73.9840 Y40.7219 
G01 X-73.9520 Y40.8827 
G01 X-73.8893 Y41.0341 
G01 X-73.7983 Y41.1704 
G01 X-73.6824 Y41.2863 
G01 X-73.5461 Y41.3773 
G01 X-73.3947 Y41.4400 
G01 X-73.2339 Y41.4720 
G00 Z2.0000 
G00 X-73.2339 Y38.9320 
G01 Z-0.1000 F254.00 
G01 X-71.5461 Y38.9320 F508.00 
G01 X-71.3853 Y38.9000 
G01 X-71.2339 Y38.8373 
G01 X-71.0976 Y38.7463 
G01 X-70.9817 Y38.6304 
G01 X-70.8907 Y38.4941 
G01 X-70.8280 Y38.3427 
G01 X-70.8036 Y38.2200 
G01 X-58.2062 Y38.2200 
G01 X-58.1254 Y38.1865 
G01 X-58.0635 Y38.1246 
G01 X-53.9784 Y34.0396 
G01 X-53.9073 Y34.1460 
G01 X-53.8056 Y34.2477 
G01 X-53.6860 Y34.3277 
G01 X-53.5531 Y34.3827 
G01 X-53.4119 Y34.4108 
G01 X-53.2681 Y34.4108 
G01 X-53.1269 Y34.3827 
G01 X-52.9940 Y34.3277 
G01 X-52.8744 Y34.2477 
G01 X-52.7727 Y34.1460 
G01 X-52.6927 Y34.0264 
G01 X-52.6377 Y33.8935 
G01 X-52.6096 Y33.7523 
G01 X-52.6096 Y32.2877 
G01 X-52.6377 Y32.1465 
G01 X-52.6927 Y32.0136 
G01 X-52.7727 Y31.8940 
G01 X-52.8744 Y31.7923 
G01 X-52.9940 Y31.7123 
G01 X-53.1269 Y31.6573 
G01 X-53.2681 Y31.6292 
G01 X-53.4119 Y31.6292 
G01 X-53.5531 Y31.6573 
G01 X-53.6860 Y31.7123 
G01 X-53.8056 Y31.7923 
G01 X-53.9073 Y31.8940 
G01 X-53.9873 Y32.0136 
G01 X-54.0423 Y32.1465 
G01 X-54.0704 Y32.2877 
G01 X-54.0704 Y33.5093 
G01 X-58.3411 Y37.7800 
G01 X-70.8600 Y37.7800 
G01 X-70.8907 Y37.7059 
G01 X-70.9817 Y37.5696 
G01 X-71.0976 Y37.4537 
G01 X-71.2339 Y37.3627 
G01 X-71.3853 Y37.3000 
G01 X-71.5461 Y37.2680 
G01 X-73.2339 Y37.2680 
G01 X-73.3947 Y37.3000 
G01 X-73.5461 Y37.3627 
G01 X-73.6824 Y37.4537 
G01 X-73.7983 Y37.5696 
G01 X-73.8893 Y37.7059 
G01 X-73.9520 Y37.8573 
G01 X-73.9840 Y38.0181 
G01 X-73.9840 Y38.1819 
G01 X-73.9520 Y38.3427 
G01 X-73.8893 Y38.4941 
G01 X-73.7983 Y38.6304 
G01 X-73.6824 Y38.7463 
G01 X-73.5461 Y38.8373 
G01 X-73.3947 Y38.9000 
G01 X-73.2339 Y38.9320 
G00 Z2.0000 
G00 X-19.4761 Y27.1080 
G01 Z-0.1000 F254.00 
G01 X-21.1639 Y27.1080 F508.00 
G01 X-21.3247 Y27.1400 
G01 X-21.4761 Y27.2027 
G01 X-21.6124 Y27.2937 
G01 X-21.7283 Y27.4096 
G01 X-21.8087 Y27.5300 
G01 X-30.6589 Y27.5300 
G01 X-32.2896 Y25.8993 
G01 X-32.2896 Y24.6677 
G01 X-32.3177 Y24.5265 
G01 X-32.3727 Y24.3936 
G01 X-32.4527 Y24.2740 
G01 X-32.5544 Y24.1723 
G01 X-32.6740 Y24.0923 
G01 X-32.8069 Y24.0373 
G01 X-32.9481 Y24.0092 
G01 X-33.0919 Y24.0092 
G01 X-33.2330 Y24.0373 
G01 X-33.3660 Y24.0923 
G01 X-33.4856 Y24.1723 
G01 X-33.5873 Y24.2740 
G01 X-33.6673 Y24.3936 
G01 X-33.7223 Y24.5265 
G01 X-33.7504 Y24.6677 
G01 X-33.7504 Y26.1323 
G01 X-33.7223 Y26.2735 
G01 X-33.6673 Y26.4064 
G01 X-33.5873 Y26.5260 
G01 X-33.4856 Y26.6277 
G01 X-33.3660 Y26.7077 
G01 X-33.2330 Y26.7627 
G01 X-33.0919 Y26.7908 
G01 X-32.9481 Y26.7908 
G01 X-32.8069 Y26.7627 
G01 X-32.6740 Y26.7077 
G01 X-32.5544 Y26.6277 
G01 X-32.4527 Y26.5260 
G01 X-32.3856 Y26.4256 
G01 X-30.9365 Y27.8746 
G01 X-30.8746 Y27.9365 
G01 X-30.7938 Y27.9700 
G01 X-21.9140 Y27.9700 
G01 X-21.9140 Y28.0219 
G01 X-21.8820 Y28.1827 
G01 X-21.8193 Y28.3341 
G01 X-21.7283 Y28.4704 
G01 X-21.6124 Y28.5863 
G01 X-21.4761 Y28.6773 
G01 X-21.3247 Y28.7400 
G01 X-21.1639 Y28.7720 
G01 X-19.4761 Y28.7720 
G01 X-19.3153 Y28.7400 
G01 X-19.1639 Y28.6773 
G01 X-19.0276 Y28.5863 
G01 X-18.9117 Y28.4704 
G01 X-18.8207 Y28.3341 
G01 X-18.7580 Y28.1827 
G01 X-18.7260 Y28.0219 
G01 X-18.7260 Y27.8581 
G01 X-18.7580 Y27.6973 
G01 X-18.8207 Y27.5459 
G01 X-18.9117 Y27.4096 
G01 X-19.0276 Y27.2937 
G01 X-19.1639 Y27.2027 
G01 X-19.3153 Y27.1400 
G01 X-19.4761 Y27.1080 
G00 Z2.0000 
G00 X-19.4761 Y29.6480 
G01 Z-0.1000 F254.00 
G01 X-21.1639 Y29.6480 F508.00 
G01 X-21.3247 Y29.6800 
G01 X-21.4761 Y29.7427 
G01 X-21.6124 Y29.8337 
G01 X-21.7283 Y29.9496 
G01 X-21.8193 Y30.0859 
G01 X-21.8820 Y30.2373 
G01 X-21.9140 Y30.3981 
G01 X-21.9140 Y30.5619 
G01 X-21.8820 Y30.7227 
G01 X-21.8193 Y30.8741 
G01 X-21.7283 Y31.0104 
G01 X-21.6124 Y31.1263 
G01 X-21.4761 Y31.2173 
G01 X-21.3247 Y31.2800 
G01 X-21.1639 Y31.3120 
G01 X-19.4761 Y31.3120 
G01 X-19.3153 Y31.2800 
G01 X-19.1639 Y31.2173 
G01 X-19.0276 Y31.1263 
G01 X-18.9117 Y31.0104 
G01 X-18.8207 Y30.8741 
G01 X-18.7580 Y30.7227 
G01 X-18.7260 Y30.5619 
G01 X-18.7260 Y30.3981 
G01 X-18.7580 Y30.2373 
G01 X-18.8207 Y30.0859 
G01 X-18.9117 Y29.9496 
G01 X-19.0276 Y29.8337 
G01 X-19.1639 Y29.7427 
G01 X-19.3153 Y29.6800 
G01 X-19.4761 Y29.6480 
G00 Z2.0000 
G00 X-19.4761 Y32.1880 
G01 Z-0.1000 F254.00 
G01 X-21.1639 Y32.1880 F508.00 
G01 X-21.3247 Y32.2200 
G01 X-21.4761 Y32.2827 
G01 X-21.6124 Y32.3737 
G01 X-21.7283 Y32.4896 
G01 X-21.8193 Y32.6259 
G01 X-21.8820 Y32.7773 
G01 X-21.9140 Y32.9381 
G01 X-21.9140 Y33.1019 
G01 X-21.8820 Y33.2627 
G01 X-21.8193 Y33.4141 
G01 X-21.7283 Y33.5504 
G01 X-21.6124 Y33.6663 
G01 X-21.4761 Y33.7573 
G01 X-21.3247 Y33.8200 
G01 X-21.1639 Y33.8520 
G01 X-19.4761 Y33.8520 
G01 X-19.3153 Y33.8200 
G01 X-19.1639 Y33.7573 
G01 X-19.0276 Y33.6663 
G01 X-18.9117 Y33.5504 
G01 X-18.8207 Y33.4141 
G01 X-18.7580 Y33.2627 
G01 X-18.7260 Y33.1019 
G01 X-18.7260 Y32.9381 
G01 X-18.7580 Y32.7773 
G01 X-18.8207 Y32.6259 
G01 X-18.9117 Y32.4896 
G01 X-19.0276 Y32.3737 
G01 X-19.1639 Y32.2827 
G01 X-19.3153 Y32.2200 
G01 X-19.4761 Y32.1880 
G00 Z2.0000 
G00 X-19.4761 Y34.7280 
G01 Z-0.1000 F254.00 
G01 X-21.1639 Y34.7280 F508.00 
G01 X-21.3247 Y34.7600 
G01 X-21.4761 Y34.8227 
G01 X-21.6124 Y34.9137 
G01 X-21.7283 Y35.0296 
G01 X-21.8193 Y35.1659 
G01 X-21.8666 Y35.2800 
G01 X-30.6589 Y35.2800 
G01 X-32.2896 Y33.6493 
G01 X-32.2896 Y32.2877 
G01 X-32.3177 Y32.1465 
G01 X-32.3727 Y32.0136 
G01 X-32.4527 Y31.8940 
G01 X-32.5544 Y31.7923 
G01 X-32.6740 Y31.7123 
G01 X-32.8069 Y31.6573 
G01 X-32.9481 Y31.6292 
G01 X-33.0919 Y31.6292 
G01 X-33.2330 Y31.6573 
G01 X-33.3660 Y31.7123 
G01 X-33.4856 Y31.7923 
G01 X-33.5873 Y31.8940 
G01 X-33.6673 Y32.0136 
G01 X-33.7223 Y32.1465 
G01 X-33.7504 Y32.2877 
G01 X-33.7504 Y33.7523 
G01 X-33.7223 Y33.8935 
G01 X-33.6673 Y34.0264 
G01 X-33.5873 Y34.1460 
G01 X-33.4856 Y34.2477 
G01 X-33.3660 Y34.3277 
G01 X-33.2330 Y34.3827 
G01 X-33.0919 Y34.4108 
G01 X-32.9481 Y34.4108 
G01 X-32.8069 Y34.3827 
G01 X-32.6740 Y34.3277 
G01 X-32.5544 Y34.2477 
G01 X-32.4527 Y34.1460 
G01 X-32.4376 Y34.1235 
G01 X-30.9365 Y35.6246 
G01 X-30.8746 Y35.6865 
G01 X-30.7938 Y35.7200 
G01 X-21.8985 Y35.7200 
G01 X-21.8820 Y35.8027 
G01 X-21.8193 Y35.9541 
G01 X-21.7283 Y36.0904 
G01 X-21.6124 Y36.2063 
G01 X-21.4761 Y36.2973 
G01 X-21.3247 Y36.3600 
G01 X-21.1639 Y36.3920 
G01 X-19.4761 Y36.3920 
G01 X-19.3153 Y36.3600 
G01 X-19.1639 Y36.2973 
G01 X-19.0276 Y36.2063 
G01 X-18.9117 Y36.0904 
G01 X-18.8207 Y35.9541 
G01 X-18.7580 Y35.8027 
G01 X-18.7260 Y35.6419 
G01 X-18.7260 Y35.4781 
G01 X-18.7580 Y35.3173 
G01 X-18.8207 Y35.1659 
G01 X-18.9117 Y35.0296 
G01 X-19.0276 Y34.9137 
G01 X-19.1639 Y34.8227 
G01 X-19.3153 Y34.7600 
G01 X-19.4761 Y34.7280 
G00 Z2.0000 
G00 X-46.5520 Y4.2361 
G01 Z-0.1000 F254.00 
G01 X-46.5520 Y5.9239 F508.00 
G01 X-46.5200 Y6.0847 
G01 X-46.4573 Y6.2361 
G01 X-46.3663 Y6.3724 
G01 X-46.2504 Y6.4883 
G01 X-46.1141 Y6.5793 
G01 X-45.9627 Y6.6420 
G01 X-45.8019 Y6.6740 
G01 X-45.6381 Y6.6740 
G01 X-45.4773 Y6.6420 
G01 X-45.3259 Y6.5793 
G01 X-45.1896 Y6.4883 
G01 X-45.0737 Y6.3724 
G01 X-44.9827 Y6.2361 
G01 X-44.9200 Y6.0847 
G01 X-44.8880 Y5.9239 
G01 X-44.8880 Y4.2361 
G01 X-44.9200 Y4.0753 
G01 X-44.9827 Y3.9239 
G01 X-45.0737 Y3.7876 
G01 X-45.1896 Y3.6717 
G01 X-45.3259 Y3.5807 
G01 X-45.4773 Y3.5180 
G01 X-45.6381 Y3.4860 
G01 X-45.8019 Y3.4860 
G01 X-45.9627 Y3.5180 
G01 X-46.1141 Y3.5807 
G01 X-46.2504 Y3.6717 
G01 X-46.3663 Y3.7876 
G01 X-46.4573 Y3.9239 
G01 X-46.5200 Y4.0753 
G01 X-46.5520 Y4.2361 
G00 Z2.0000 
G00 X-41.4720 Y4.2361 
G01 Z-0.1000 F254.00 
G01 X-41.4720 Y5.9239 F508.00 
G01 X-41.4400 Y6.0847 
G01 X-41.3773 Y6.2361 
G01 X-41.2863 Y6.3724 
G01 X-41.1704 Y6.4883 
G01 X-41.0341 Y6.5793 
G01 X-40.8827 Y6.6420 
G01 X-40.7219 Y6.6740 
G01 X-40.5581 Y6.6740 
G01 X-40.3973 Y6.6420 
G01 X-40.2459 Y6.5793 
G01 X-40.1096 Y6.4883 
G01 X-39.9937 Y6.3724 
G01 X-39.9027 Y6.2361 
G01 X-39.8400 Y6.0847 
G01 X-39.8080 Y5.9239 
G01 X-39.8080 Y4.2361 
G01 X-39.8400 Y4.0753 
G01 X-39.9027 Y3.9239 
G01 X-39.9937 Y3.7876 
G01 X-40.1096 Y3.6717 
G01 X-40.2459 Y3.5807 
G01 X-40.3973 Y3.5180 
G01 X-40.5581 Y3.4860 
G01 X-40.7219 Y3.4860 
G01 X-40.8827 Y3.5180 
G01 X-41.0341 Y3.5807 
G01 X-41.1704 Y3.6717 
G01 X-41.2863 Y3.7876 
G01 X-41.3773 Y3.9239 
G01 X-41.4400 Y4.0753 
G01 X-41.4720 Y4.2361 
G00 Z2.0000 
G00 X-30.0631 Y31.6395 
G01 Z-0.1000 F254.00 
G01 X-30.0867 Y31.6237 F508.00 
G01 X-30.2163 Y31.5700 
G01 X-30.1325 Y31.5700 
G01 X-30.0631 Y31.6395 
G00 Z2.0000 
G00 X-46.6520 Y4.2262 
G01 Z-0.1000 F254.00 
G01 X-46.6520 Y5.9338 F508.00 
G01 X-46.6162 Y6.1139 
G01 X-46.5459 Y6.2835 
G01 X-46.4439 Y6.4361 
G01 X-46.3141 Y6.5659 
G01 X-46.1615 Y6.6679 
G01 X-45.9919 Y6.7382 
G01 X-45.8118 Y6.7740 
G01 X-45.6282 Y6.7740 
G01 X-45.4481 Y6.7382 
G01 X-45.2785 Y6.6679 
G01 X-45.1259 Y6.5659 
G01 X-44.9961 Y6.4361 
G01 X-44.8941 Y6.2835 
G01 X-44.8238 Y6.1139 
G01 X-44.7880 Y5.9338 
G01 X-44.7880 Y4.2262 
G01 X-44.8238 Y4.0461 
G01 X-44.8941 Y3.8765 
G01 X-44.9961 Y3.7239 
G01 X-45.1259 Y3.5941 
G01 X-45.2785 Y3.4921 
G01 X-45.4481 Y3.4218 
G01 X-45.6282 Y3.3860 
G01 X-45.8118 Y3.3860 
G01 X-45.9919 Y3.4218 
G01 X-46.1615 Y3.4921 
G01 X-46.3141 Y3.5941 
G01 X-46.4439 Y3.7239 
G01 X-46.5459 Y3.8765 
G01 X-46.6162 Y4.0461 
G01 X-46.6520 Y4.2262 
G00 Z2.0000 
G00 X-19.4662 Y37.1680 
G01 Z-0.1000 F254.00 
G01 X-21.1738 Y37.1680 F508.00 
G01 X-21.3539 Y37.2038 
G01 X-21.5235 Y37.2741 
G01 X-21.6761 Y37.3761 
G01 X-21.8059 Y37.5059 
G01 X-21.9079 Y37.6585 
G01 X-21.9168 Y37.6800 
G01 X-30.6175 Y37.6800 
G01 X-34.7296 Y33.5679 
G01 X-34.7296 Y32.2778 
G01 X-34.7615 Y32.1174 
G01 X-34.8241 Y31.9663 
G01 X-34.9150 Y31.8303 
G01 X-35.0307 Y31.7146 
G01 X-35.1667 Y31.6237 
G01 X-35.2963 Y31.5700 
G01 X-33.2837 Y31.5700 
G01 X-33.4133 Y31.6237 
G01 X-33.5493 Y31.7146 
G01 X-33.6650 Y31.8303 
G01 X-33.7559 Y31.9663 
G01 X-33.8185 Y32.1174 
G01 X-33.8504 Y32.2778 
G01 X-33.8504 Y33.7622 
G01 X-33.8185 Y33.9226 
G01 X-33.7559 Y34.0737 
G01 X-33.6650 Y34.2097 
G01 X-33.5493 Y34.3254 
G01 X-33.4133 Y34.4163 
G01 X-33.2622 Y34.4789 
G01 X-33.1018 Y34.5108 
G01 X-32.9382 Y34.5108 
G01 X-32.7778 Y34.4789 
G01 X-32.6267 Y34.4163 
G01 X-32.4907 Y34.3254 
G01 X-32.4339 Y34.2687 
G01 X-31.0061 Y35.6965 
G01 X-30.9465 Y35.7561 
G01 X-30.8735 Y35.7982 
G01 X-30.7921 Y35.8200 
G01 X-21.9805 Y35.8200 
G01 X-21.9782 Y35.8319 
G01 X-21.9079 Y36.0015 
G01 X-21.8059 Y36.1541 
G01 X-21.6761 Y36.2839 
G01 X-21.5235 Y36.3859 
G01 X-21.3539 Y36.4562 
G01 X-21.1738 Y36.4920 
G01 X-19.4662 Y36.4920 
G01 X-19.2861 Y36.4562 
G01 X-19.1165 Y36.3859 
G01 X-18.9639 Y36.2839 
G01 X-18.8341 Y36.1541 
G01 X-18.7321 Y36.0015 
G01 X-18.6618 Y35.8319 
G01 X-18.6260 Y35.6518 
G01 X-18.6260 Y35.4682 
G01 X-18.6618 Y35.2881 
G01 X-18.7321 Y35.1185 
G01 X-18.8341 Y34.9659 
G01 X-18.9639 Y34.8361 
G01 X-19.1165 Y34.7341 
G01 X-19.2861 Y34.6638 
G01 X-19.4662 Y34.6280 
G01 X-21.1738 Y34.6280 
G01 X-21.3539 Y34.6638 
G01 X-21.5235 Y34.7341 
G01 X-21.6761 Y34.8361 
G01 X-21.8059 Y34.9659 
G01 X-21.9079 Y35.1185 
G01 X-21.9334 Y35.1800 
G01 X-30.6175 Y35.1800 
G01 X-32.1896 Y33.6078 
G01 X-32.1896 Y32.2778 
G01 X-32.2215 Y32.1174 
G01 X-32.2841 Y31.9663 
G01 X-32.3750 Y31.8303 
G01 X-32.4907 Y31.7146 
G01 X-32.6267 Y31.6237 
G01 X-32.7563 Y31.5700 
G01 X-30.7437 Y31.5700 
G01 X-30.8733 Y31.6237 
G01 X-31.0093 Y31.7146 
G01 X-31.1250 Y31.8303 
G01 X-31.2159 Y31.9663 
G01 X-31.2785 Y32.1174 
G01 X-31.3104 Y32.2778 
G01 X-31.3104 Y33.7622 
G01 X-31.2785 Y33.9226 
G01 X-31.2159 Y34.0737 
G01 X-31.1250 Y34.2097 
G01 X-31.0093 Y34.3254 
G01 X-30.8733 Y34.4163 
G01 X-30.7222 Y34.4789 
G01 X-30.5618 Y34.5108 
G01 X-30.3982 Y34.5108 
G01 X-30.2378 Y34.4789 
G01 X-30.0867 Y34.4163 
G01 X-29.9507 Y34.3254 
G01 X-29.8350 Y34.2097 
G01 X-29.7441 Y34.0737 
G01 X-29.6815 Y33.9226 
G01 X-29.6496 Y33.7622 
G01 X-29.6496 Y32.2778 
G01 X-29.6815 Y32.1174 
G01 X-29.7441 Y31.9663 
G01 X-29.7599 Y31.9427 
G01 X-29.6965 Y32.0061 
G01 X-29.6235 Y32.0482 
G01 X-29.5421 Y32.0700 
G01 X-11.3825 Y32.0700 
G01 X-10.6126 Y32.8399 
G01 X-10.6297 Y32.8734 
G01 X-10.6837 Y33.0395 
G01 X-10.7110 Y33.2121 
G01 X-10.7110 Y33.3867 
G01 X-10.6837 Y33.5593 
G01 X-10.6297 Y33.7254 
G01 X-10.5504 Y33.8811 
G01 X-10.4477 Y34.0224 
G01 X-10.3242 Y34.1459 
G01 X-10.1829 Y34.2486 
G01 X-10.0272 Y34.3279 
G01 X-9.8611 Y34.3819 
G01 X-9.6885 Y34.4092 
G01 X-9.5139 Y34.4092 
G01 X-9.3413 Y34.3819 
G01 X-9.1752 Y34.3279 
G01 X-9.0195 Y34.2486 
G01 X-8.8782 Y34.1459 
G01 X-8.7547 Y34.0224 
G01 X-8.6520 Y33.8811 
G01 X-8.5727 Y33.7254 
G01 X-8.5187 Y33.5593 
G01 X-8.4914 Y33.3867 
G01 X-8.4914 Y33.2121 
G01 X-8.5187 Y33.0395 
G01 X-8.5727 Y32.8734 
G01 X-8.6520 Y32.7177 
G01 X-8.7547 Y32.5764 
G01 X-8.8782 Y32.4529 
G01 X-9.0195 Y32.3502 
G01 X-9.1752 Y32.2709 
G01 X-9.3413 Y32.2169 
G01 X-9.5139 Y32.1896 
G01 X-9.6885 Y32.1896 
G01 X-9.8611 Y32.2169 
G01 X-10.0272 Y32.2709 
G01 X-10.1829 Y32.3502 
G01 X-10.1912 Y32.3563 
G01 X-11.0535 Y31.4939 
G01 X-11.1265 Y31.4518 
G01 X-11.2079 Y31.4300 
G01 X-29.3675 Y31.4300 
G01 X-29.7439 Y31.0535 
G01 X-29.8035 Y30.9939 
G01 X-29.8765 Y30.9518 
G01 X-29.9579 Y30.9300 
G01 X-61.7921 Y30.9300 
G01 X-61.8735 Y30.9518 
G01 X-61.9465 Y30.9939 
G01 X-62.8261 Y31.8735 
G01 X-62.8550 Y31.8303 
G01 X-62.9707 Y31.7146 
G01 X-63.1067 Y31.6237 
G01 X-63.2578 Y31.5611 
G01 X-63.4182 Y31.5292 
G01 X-63.5818 Y31.5292 
G01 X-63.7422 Y31.5611 
G01 X-63.8933 Y31.6237 
G01 X-64.0293 Y31.7146 
G01 X-64.1450 Y31.8303 
G01 X-64.2359 Y31.9663 
G01 X-64.2985 Y32.1174 
G01 X-64.3304 Y32.2778 
G01 X-64.3304 Y33.7622 
G01 X-64.2985 Y33.9226 
G01 X-64.2359 Y34.0737 
G01 X-64.1450 Y34.2097 
G01 X-64.0293 Y34.3254 
G01 X-63.8933 Y34.4163 
G01 X-63.7422 Y34.4789 
G01 X-63.5818 Y34.5108 
G01 X-63.4182 Y34.5108 
G01 X-63.2578 Y34.4789 
G01 X-63.1067 Y34.4163 
G01 X-62.9707 Y34.3254 
G01 X-62.8550 Y34.2097 
G01 X-62.7641 Y34.0737 
G01 X-62.7015 Y33.9226 
G01 X-62.6696 Y33.7622 
G01 X-62.6696 Y32.6221 
G01 X-61.6175 Y31.5700 
G01 X-61.2237 Y31.5700 
G01 X-61.3533 Y31.6237 
G01 X-61.4893 Y31.7146 
G01 X-61.6050 Y31.8303 
G01 X-61.6959 Y31.9663 
G01 X-61.7585 Y32.1174 
G01 X-61.7904 Y32.2778 
G01 X-61.7904 Y33.7622 
G01 X-61.7585 Y33.9226 
G01 X-61.6959 Y34.0737 
G01 X-61.6050 Y34.2097 
G01 X-61.4893 Y34.3254 
G01 X-61.3533 Y34.4163 
G01 X-61.2022 Y34.4789 
G01 X-61.0418 Y34.5108 
G01 X-60.8782 Y34.5108 
G01 X-60.7178 Y34.4789 
G01 X-60.5667 Y34.4163 
G01 X-60.4306 Y34.3254 
G01 X-60.3150 Y34.2097 
G01 X-60.2241 Y34.0737 
G01 X-60.1615 Y33.9226 
G01 X-60.1296 Y33.7622 
G01 X-60.1296 Y32.2778 
G01 X-60.1615 Y32.1174 
G01 X-60.2241 Y31.9663 
G01 X-60.3150 Y31.8303 
G01 X-60.4306 Y31.7146 
G01 X-60.5667 Y31.6237 
G01 X-60.6963 Y31.5700 
G01 X-58.6837 Y31.5700 
G01 X-58.8133 Y31.6237 
G01 X-58.9493 Y31.7146 
G01 X-59.0650 Y31.8303 
G01 X-59.1559 Y31.9663 
G01 X-59.2185 Y32.1174 
G01 X-59.2504 Y32.2778 
G01 X-59.2504 Y33.7622 
G01 X-59.2185 Y33.9226 
G01 X-59.1559 Y34.0737 
G01 X-59.0650 Y34.2097 
G01 X-58.9493 Y34.3254 
G01 X-58.8133 Y34.4163 
G01 X-58.6622 Y34.4789 
G01 X-58.5018 Y34.5108 
G01 X-58.3382 Y34.5108 
G01 X-58.1778 Y34.4789 
G01 X-58.0267 Y34.4163 
G01 X-57.8907 Y34.3254 
G01 X-57.7750 Y34.2097 
G01 X-57.6841 Y34.0737 
G01 X-57.6215 Y33.9226 
G01 X-57.5896 Y33.7622 
G01 X-57.5896 Y32.2778 
G01 X-57.6215 Y32.1174 
G01 X-57.6841 Y31.9663 
G01 X-57.7750 Y31.8303 
G01 X-57.8907 Y31.7146 
G01 X-58.0267 Y31.6237 
G01 X-58.1563 Y31.5700 
G01 X-56.1437 Y31.5700 
G01 X-56.2733 Y31.6237 
G01 X-56.4093 Y31.7146 
G01 X-56.5250 Y31.8303 
G01 X-56.6159 Y31.9663 
G01 X-56.6785 Y32.1174 
G01 X-56.7104 Y32.2778 
G01 X-56.7104 Y33.5079 
G01 X-58.3825 Y35.1800 
G01 X-70.7766 Y35.1800 
G01 X-70.8021 Y35.1185 
G01 X-70.9041 Y34.9659 
G01 X-71.0339 Y34.8361 
G01 X-71.1865 Y34.7341 
G01 X-71.3561 Y34.6638 
G01 X-71.5362 Y34.6280 
G01 X-73.2438 Y34.6280 
G01 X-73.4239 Y34.6638 
G01 X-73.5935 Y34.7341 
G01 X-73.7461 Y34.8361 
G01 X-73.8759 Y34.9659 
G01 X-73.9779 Y35.1185 
G01 X-74.0482 Y35.2881 
G01 X-74.0840 Y35.4682 
G01 X-74.0840 Y35.6518 
G01 X-74.0482 Y35.8319 
G01 X-73.9779 Y36.0015 
G01 X-73.8759 Y36.1541 
G01 X-73.7461 Y36.2839 
G01 X-73.5935 Y36.3859 
G01 X-73.4239 Y36.4562 
G01 X-73.2438 Y36.4920 
G01 X-71.5362 Y36.4920 
G01 X-71.3561 Y36.4562 
G01 X-71.1865 Y36.3859 
G01 X-71.0339 Y36.2839 
G01 X-70.9041 Y36.1541 
G01 X-70.8021 Y36.0015 
G01 X-70.7318 Y35.8319 
G01 X-70.7295 Y35.8200 
G01 X-58.2079 Y35.8200 
G01 X-58.1265 Y35.7982 
G01 X-58.0535 Y35.7561 
G01 X-57.9939 Y35.6965 
G01 X-56.5161 Y34.2187 
G01 X-56.4093 Y34.3254 
G01 X-56.2733 Y34.4163 
G01 X-56.1222 Y34.4789 
G01 X-55.9618 Y34.5108 
G01 X-55.7982 Y34.5108 
G01 X-55.6378 Y34.4789 
G01 X-55.4867 Y34.4163 
G01 X-55.3507 Y34.3254 
G01 X-55.2350 Y34.2097 
G01 X-55.1441 Y34.0737 
G01 X-55.0815 Y33.9226 
G01 X-55.0496 Y33.7622 
G01 X-55.0496 Y32.2778 
G01 X-55.0815 Y32.1174 
G01 X-55.1441 Y31.9663 
G01 X-55.2350 Y31.8303 
G01 X-55.3507 Y31.7146 
G01 X-55.4867 Y31.6237 
G01 X-55.6163 Y31.5700 
G01 X-53.6037 Y31.5700 
G01 X-53.7333 Y31.6237 
G01 X-53.8693 Y31.7146 
G01 X-53.9850 Y31.8303 
G01 X-54.0759 Y31.9663 
G01 X-54.1385 Y32.1174 
G01 X-54.1704 Y32.2778 
G01 X-54.1704 Y33.4679 
G01 X-58.3825 Y37.6800 
G01 X-70.7932 Y37.6800 
G01 X-70.8021 Y37.6585 
G01 X-70.9041 Y37.5059 
G01 X-71.0339 Y37.3761 
G01 X-71.1865 Y37.2741 
G01 X-71.3561 Y37.2038 
G01 X-71.5362 Y37.1680 
G01 X-73.2438 Y37.1680 
G01 X-73.4239 Y37.2038 
G01 X-73.5935 Y37.2741 
G01 X-73.7461 Y37.3761 
G01 X-73.8759 Y37.5059 
G01 X-73.9779 Y37.6585 
G01 X-74.0482 Y37.8281 
G01 X-74.0840 Y38.0082 
G01 X-74.0840 Y38.1918 
G01 X-74.0482 Y38.3719 
G01 X-73.9779 Y38.5415 
G01 X-73.8759 Y38.6941 
G01 X-73.7461 Y38.8239 
G01 X-73.5935 Y38.9259 
G01 X-73.4239 Y38.9962 
G01 X-73.2438 Y39.0320 
G01 X-71.5362 Y39.0320 
G01 X-71.3561 Y38.9962 
G01 X-71.1865 Y38.9259 
G01 X-71.0339 Y38.8239 
G01 X-70.9041 Y38.6941 
G01 X-70.8021 Y38.5415 
G01 X-70.7318 Y38.3719 
G01 X-70.7215 Y38.3200 
G01 X-58.2079 Y38.3200 
G01 X-58.1265 Y38.2982 
G01 X-58.0535 Y38.2561 
G01 X-57.9939 Y38.1965 
G01 X-53.9939 Y34.1964 
G01 X-53.9850 Y34.2097 
G01 X-53.8693 Y34.3254 
G01 X-53.7333 Y34.4163 
G01 X-53.5822 Y34.4789 
G01 X-53.4218 Y34.5108 
G01 X-53.2582 Y34.5108 
G01 X-53.0978 Y34.4789 
G01 X-52.9467 Y34.4163 
G01 X-52.8107 Y34.3254 
G01 X-52.6950 Y34.2097 
G01 X-52.6041 Y34.0737 
G01 X-52.5415 Y33.9226 
G01 X-52.5096 Y33.7622 
G01 X-52.5096 Y32.2778 
G01 X-52.5415 Y32.1174 
G01 X-52.6041 Y31.9663 
G01 X-52.6950 Y31.8303 
G01 X-52.8107 Y31.7146 
G01 X-52.9467 Y31.6237 
G01 X-53.0763 Y31.5700 
G01 X-51.0637 Y31.5700 
G01 X-51.1933 Y31.6237 
G01 X-51.3293 Y31.7146 
G01 X-51.4450 Y31.8303 
G01 X-51.5359 Y31.9663 
G01 X-51.5985 Y32.1174 
G01 X-51.6304 Y32.2778 
G01 X-51.6304 Y33.4279 
G01 X-58.3825 Y40.1800 
G01 X-70.8145 Y40.1800 
G01 X-70.9041 Y40.0459 
G01 X-71.0339 Y39.9161 
G01 X-71.1865 Y39.8141 
G01 X-71.3561 Y39.7438 
G01 X-71.5362 Y39.7080 
G01 X-73.2438 Y39.7080 
G01 X-73.4239 Y39.7438 
G01 X-73.5935 Y39.8141 
G01 X-73.7461 Y39.9161 
G01 X-73.8759 Y40.0459 
G01 X-73.9779 Y40.1985 
G01 X-74.0482 Y40.3681 
G01 X-74.0840 Y40.5482 
G01 X-74.0840 Y40.7318 
G01 X-74.0482 Y40.9119 
G01 X-73.9779 Y41.0815 
G01 X-73.8759 Y41.2341 
G01 X-73.7461 Y41.3639 
G01 X-73.5935 Y41.4659 
G01 X-73.4239 Y41.5362 
G01 X-73.2438 Y41.5720 
G01 X-71.5362 Y41.5720 
G01 X-71.3561 Y41.5362 
G01 X-71.1865 Y41.4659 
G01 X-71.0339 Y41.3639 
G01 X-70.9041 Y41.2341 
G01 X-70.8021 Y41.0815 
G01 X-70.7318 Y40.9119 
G01 X-70.7135 Y40.8200 
G01 X-58.2079 Y40.8200 
G01 X-58.1265 Y40.7982 
G01 X-58.0535 Y40.7561 
G01 X-57.9939 Y40.6965 
G01 X-51.4699 Y34.1725 
G01 X-51.4450 Y34.2097 
G01 X-51.3293 Y34.3254 
G01 X-51.1933 Y34.4163 
G01 X-51.0422 Y34.4789 
G01 X-50.8818 Y34.5108 
G01 X-50.7182 Y34.5108 
G01 X-50.5578 Y34.4789 
G01 X-50.4067 Y34.4163 
G01 X-50.2707 Y34.3254 
G01 X-50.1550 Y34.2097 
G01 X-50.0641 Y34.0737 
G01 X-50.0015 Y33.9226 
G01 X-49.9696 Y33.7622 
G01 X-49.9696 Y32.2778 
G01 X-50.0015 Y32.1174 
G01 X-50.0641 Y31.9663 
G01 X-50.1550 Y31.8303 
G01 X-50.2707 Y31.7146 
G01 X-50.4067 Y31.6237 
G01 X-50.5363 Y31.5700 
G01 X-48.5237 Y31.5700 
G01 X-48.6533 Y31.6237 
G01 X-48.7893 Y31.7146 
G01 X-48.9050 Y31.8303 
G01 X-48.9959 Y31.9663 
G01 X-49.0585 Y32.1174 
G01 X-49.0904 Y32.2778 
G01 X-49.0904 Y33.7622 
G01 X-49.0585 Y33.9226 
G01 X-48.9959 Y34.0737 
G01 X-48.9050 Y34.2097 
G01 X-48.7893 Y34.3254 
G01 X-48.6533 Y34.4163 
G01 X-48.5022 Y34.4789 
G01 X-48.3418 Y34.5108 
G01 X-48.1782 Y34.5108 
G01 X-48.0178 Y34.4789 
G01 X-47.8667 Y34.4163 
G01 X-47.7307 Y34.3254 
G01 X-47.6150 Y34.2097 
G01 X-47.5241 Y34.0737 
G01 X-47.4615 Y33.9226 
G01 X-47.4296 Y33.7622 
G01 X-47.4296 Y32.2778 
G01 X-47.4615 Y32.1174 
G01 X-47.5241 Y31.9663 
G01 X-47.6150 Y31.8303 
G01 X-47.7307 Y31.7146 
G01 X-47.8667 Y31.6237 
G01 X-47.9963 Y31.5700 
G01 X-45.9837 Y31.5700 
G01 X-46.1133 Y31.6237 
G01 X-46.2493 Y31.7146 
G01 X-46.3650 Y31.8303 
G01 X-46.4559 Y31.9663 
G01 X-46.5185 Y32.1174 
G01 X-46.5504 Y32.2778 
G01 X-46.5504 Y33.7622 
G01 X-46.5185 Y33.9226 
G01 X-46.4559 Y34.0737 
G01 X-46.3650 Y34.2097 
G01 X-46.2493 Y34.3254 
G01 X-46.1133 Y34.4163 
G01 X-45.9622 Y34.4789 
G01 X-45.8018 Y34.5108 
G01 X-45.6382 Y34.5108 
G01 X-45.4778 Y34.4789 
G01 X-45.3267 Y34.4163 
G01 X-45.1907 Y34.3254 
G01 X-45.0750 Y34.2097 
G01 X-44.9841 Y34.0737 
G01 X-44.9215 Y33.9226 
G01 X-44.8896 Y33.7622 
G01 X-44.8896 Y32.2778 
G01 X-44.9215 Y32.1174 
G01 X-44.9841 Y31.9663 
G01 X-45.0750 Y31.8303 
G01 X-45.1907 Y31.7146 
G01 X-45.3267 Y31.6237 
G01 X-45.4563 Y31.5700 
G01 X-43.4437 Y31.5700 
G01 X-43.5733 Y31.6237 
G01 X-43.7093 Y31.7146 
G01 X-43.8250 Y31.8303 
G01 X-43.9159 Y31.9663 
G01 X-43.9785 Y32.1174 
G01 X-44.0104 Y32.2778 
G01 X-44.0104 Y33.5579 
G01 X-46.5511 Y36.0985 
G01 X-46.6832 Y36.0720 
G01 X-46.8168 Y36.0720 
G01 X-46.9478 Y36.0981 
G01 X-47.0712 Y36.1492 
G01 X-47.1822 Y36.2234 
G01 X-47.2766 Y36.3178 
G01 X-47.3508 Y36.4288 
G01 X-47.4019 Y36.5522 
G01 X-47.4280 Y36.6832 
G01 X-47.4280 Y36.8168 
G01 X-47.4019 Y36.9478 
G01 X-47.3508 Y37.0712 
G01 X-47.2766 Y37.1822 
G01 X-47.1822 Y37.2766 
G01 X-47.0712 Y37.3508 
G01 X-46.9478 Y37.4019 
G01 X-46.8168 Y37.4280 
G01 X-46.6832 Y37.4280 
G01 X-46.5522 Y37.4019 
G01 X-46.4288 Y37.3508 
G01 X-46.3178 Y37.2766 
G01 X-46.2234 Y37.1822 
G01 X-46.1492 Y37.0712 
G01 X-46.0981 Y36.9478 
G01 X-46.0720 Y36.8168 
G01 X-46.0720 Y36.6832 
G01 X-46.0981 Y36.5522 
G01 X-43.7911 Y34.2437 
G01 X-43.7093 Y34.3254 
G01 X-43.5733 Y34.4163 
G01 X-43.4222 Y34.4789 
G01 X-43.2618 Y34.5108 
G01 X-43.0982 Y34.5108 
G01 X-42.9378 Y34.4789 
G01 X-42.7867 Y34.4163 
G01 X-42.6506 Y34.3254 
G01 X-42.5350 Y34.2097 
G01 X-42.4441 Y34.0737 
G01 X-42.3815 Y33.9226 
G01 X-42.3496 Y33.7622 
G01 X-42.3496 Y32.2778 
G01 X-42.3815 Y32.1174 
G01 X-42.4441 Y31.9663 
G01 X-42.5350 Y31.8303 
G01 X-42.6506 Y31.7146 
G01 X-42.7867 Y31.6237 
G01 X-42.9163 Y31.5700 
G01 X-40.9037 Y31.5700 
G01 X-41.0333 Y31.6237 
G01 X-41.1693 Y31.7146 
G01 X-41.2850 Y31.8303 
G01 X-41.3759 Y31.9663 
G01 X-41.4385 Y32.1174 
G01 X-41.4704 Y32.2778 
G01 X-41.4704 Y33.7622 
G01 X-41.4385 Y33.9226 
G01 X-41.3759 Y34.0737 
G01 X-41.2850 Y34.2097 
G01 X-41.1693 Y34.3254 
G01 X-41.0333 Y34.4163 
G01 X-40.8822 Y34.4789 
G01 X-40.7218 Y34.5108 
G01 X-40.5582 Y34.5108 
G01 X-40.3978 Y34.4789 
G01 X-40.2467 Y34.4163 
G01 X-40.1106 Y34.3254 
G01 X-39.9950 Y34.2097 
G01 X-39.9041 Y34.0737 
G01 X-39.8415 Y33.9226 
G01 X-39.8096 Y33.7622 
G01 X-39.8096 Y32.2778 
G01 X-39.8415 Y32.1174 
G01 X-39.9041 Y31.9663 
G01 X-39.9950 Y31.8303 
G01 X-40.1106 Y31.7146 
G01 X-40.2467 Y31.6237 
G01 X-40.3763 Y31.5700 
G01 X-38.3637 Y31.5700 
G01 X-38.4933 Y31.6237 
G01 X-38.6293 Y31.7146 
G01 X-38.7450 Y31.8303 
G01 X-38.8359 Y31.9663 
G01 X-38.8985 Y32.1174 
G01 X-38.9304 Y32.2778 
G01 X-38.9304 Y33.4779 
G01 X-48.1325 Y42.6800 
G01 X-70.8412 Y42.6800 
G01 X-70.9041 Y42.5859 
G01 X-71.0339 Y42.4561 
G01 X-71.1865 Y42.3541 
G01 X-71.3561 Y42.2838 
G01 X-71.5362 Y42.2480 
G01 X-73.2438 Y42.2480 
G01 X-73.4239 Y42.2838 
G01 X-73.5935 Y42.3541 
G01 X-73.7461 Y42.4561 
G01 X-73.8759 Y42.5859 
G01 X-73.9779 Y42.7385 
G01 X-74.0482 Y42.9081 
G01 X-74.0840 Y43.0882 
G01 X-74.0840 Y43.2718 
G01 X-74.0482 Y43.4519 
G01 X-73.9779 Y43.6215 
G01 X-73.8759 Y43.7741 
G01 X-73.7461 Y43.9039 
G01 X-73.5935 Y44.0059 
G01 X-73.4239 Y44.0762 
G01 X-73.2438 Y44.1120 
G01 X-71.5362 Y44.1120 
G01 X-71.3561 Y44.0762 
G01 X-71.1865 Y44.0059 
G01 X-71.0339 Y43.9039 
G01 X-70.9041 Y43.7741 
G01 X-70.8021 Y43.6215 
G01 X-70.7318 Y43.4519 
G01 X-70.7056 Y43.3200 
G01 X-47.9579 Y43.3200 
G01 X-47.8765 Y43.2982 
G01 X-47.8035 Y43.2561 
G01 X-47.7439 Y43.1965 
G01 X-38.7499 Y34.2024 
G01 X-38.7450 Y34.2097 
G01 X-38.6293 Y34.3254 
G01 X-38.4933 Y34.4163 
G01 X-38.3422 Y34.4789 
G01 X-38.1818 Y34.5108 
G01 X-38.0182 Y34.5108 
G01 X-37.8578 Y34.4789 
G01 X-37.7067 Y34.4163 
G01 X-37.5707 Y34.3254 
G01 X-37.4550 Y34.2097 
G01 X-37.3641 Y34.0737 
G01 X-37.3015 Y33.9226 
G01 X-37.2696 Y33.7622 
G01 X-37.2696 Y32.2778 
G01 X-37.3015 Y32.1174 
G01 X-37.3641 Y31.9663 
G01 X-37.4550 Y31.8303 
G01 X-37.5707 Y31.7146 
G01 X-37.7067 Y31.6237 
G01 X-37.8363 Y31.5700 
G01 X-35.8237 Y31.5700 
G01 X-35.9533 Y31.6237 
G01 X-36.0893 Y31.7146 
G01 X-36.2050 Y31.8303 
G01 X-36.2959 Y31.9663 
G01 X-36.3585 Y32.1174 
G01 X-36.3904 Y32.2778 
G01 X-36.3904 Y33.7622 
G01 X-36.3585 Y33.9226 
G01 X-36.2959 Y34.0737 
G01 X-36.2050 Y34.2097 
G01 X-36.0893 Y34.3254 
G01 X-35.9533 Y34.4163 
G01 X-35.8022 Y34.4789 
G01 X-35.6418 Y34.5108 
G01 X-35.4782 Y34.5108 
G01 X-35.3178 Y34.4789 
G01 X-35.1667 Y34.4163 
G01 X-35.0307 Y34.3254 
G01 X-34.9539 Y34.2487 
G01 X-31.0061 Y38.1965 
G01 X-30.9465 Y38.2561 
G01 X-30.8735 Y38.2982 
G01 X-30.7921 Y38.3200 
G01 X-21.9885 Y38.3200 
G01 X-21.9782 Y38.3719 
G01 X-21.9079 Y38.5415 
G01 X-21.8059 Y38.6941 
G01 X-21.6761 Y38.8239 
G01 X-21.5235 Y38.9259 
G01 X-21.3539 Y38.9962 
G01 X-21.1738 Y39.0320 
G01 X-19.4662 Y39.0320 
G01 X-19.2861 Y38.9962 
G01 X-19.1165 Y38.9259 
G01 X-18.9639 Y38.8239 
G01 X-18.8341 Y38.6941 
G01 X-18.7321 Y38.5415 
G01 X-18.6618 Y38.3719 
G01 X-18.6260 Y38.1918 
G01 X-18.6260 Y38.0082 
G01 X-18.6618 Y37.8281 
G01 X-18.7321 Y37.6585 
G01 X-18.8341 Y37.5059 
G01 X-18.9639 Y37.3761 
G01 X-19.1165 Y37.2741 
G01 X-19.2861 Y37.2038 
G01 X-19.4662 Y37.1680 
G00 Z2.0000 
G00 X-19.4662 Y32.0880 
G01 Z-0.1000 F254.00 
G01 X-21.1738 Y32.0880 F508.00 
G01 X-21.3539 Y32.1238 
G01 X-21.5235 Y32.1941 
G01 X-21.6761 Y32.2961 
G01 X-21.8059 Y32.4259 
G01 X-21.9079 Y32.5785 
G01 X-21.9782 Y32.7481 
G01 X-22.0140 Y32.9282 
G01 X-22.0140 Y33.1118 
G01 X-21.9782 Y33.2919 
G01 X-21.9079 Y33.4615 
G01 X-21.8059 Y33.6141 
G01 X-21.6761 Y33.7439 
G01 X-21.5235 Y33.8459 
G01 X-21.3539 Y33.9162 
G01 X-21.1738 Y33.9520 
G01 X-19.4662 Y33.9520 
G01 X-19.2861 Y33.9162 
G01 X-19.1165 Y33.8459 
G01 X-18.9639 Y33.7439 
G01 X-18.8341 Y33.6141 
G01 X-18.7321 Y33.4615 
G01 X-18.6618 Y33.2919 
G01 X-18.6260 Y33.1118 
G01 X-18.6260 Y32.9282 
G01 X-18.6618 Y32.7481 
G01 X-18.7321 Y32.5785 
G01 X-18.8341 Y32.4259 
G01 X-18.9639 Y32.2961 
G01 X-19.1165 Y32.1941 
G01 X-19.2861 Y32.1238 
G01 X-19.4662 Y32.0880 
G00 Z2.0000 
G00 X-19.4662 Y29.5480 
G01 Z-0.1000 F254.00 
G01 X-21.1738 Y29.5480 F508.00 
G01 X-21.3539 Y29.5838 
G01 X-21.5235 Y29.6541 
G01 X-21.6761 Y29.7561 
G01 X-21.8059 Y29.8859 
G01 X-21.9079 Y30.0385 
G01 X-21.9782 Y30.2081 
G01 X-22.0140 Y30.3882 
G01 X-22.0140 Y30.5718 
G01 X-21.9782 Y30.7519 
G01 X-21.9079 Y30.9215 
G01 X-21.8059 Y31.0741 
G01 X-21.6761 Y31.2039 
G01 X-21.5235 Y31.3059 
G01 X-21.3539 Y31.3762 
G01 X-21.1738 Y31.4120 
G01 X-19.4662 Y31.4120 
G01 X-19.2861 Y31.3762 
G01 X-19.1165 Y31.3059 
G01 X-18.9639 Y31.2039 
G01 X-18.8341 Y31.0741 
G01 X-18.7321 Y30.9215 
G01 X-18.6618 Y30.7519 
G01 X-18.6260 Y30.5718 
G01 X-18.6260 Y30.3882 
G01 X-18.6618 Y30.2081 
G01 X-18.7321 Y30.0385 
G01 X-18.8341 Y29.8859 
G01 X-18.9639 Y29.7561 
G01 X-19.1165 Y29.6541 
G01 X-19.2861 Y29.5838 
G01 X-19.4662 Y29.5480 
G00 Z2.0000 
G00 X-19.4662 Y24.4680 
G01 Z-0.1000 F254.00 
G01 X-20.8295 Y24.4680 F508.00 
G01 X-22.0535 Y23.2439 
G01 X-22.1265 Y23.2018 
G01 X-22.2079 Y23.1800 
G01 X-33.7921 Y23.1800 
G01 X-33.8735 Y23.2018 
G01 X-33.9465 Y23.2439 
G01 X-34.0061 Y23.3035 
G01 X-34.9141 Y24.2116 
G01 X-35.0307 Y24.0946 
G01 X-35.1667 Y24.0037 
G01 X-35.3178 Y23.9411 
G01 X-35.4782 Y23.9092 
G01 X-35.6418 Y23.9092 
G01 X-35.8022 Y23.9411 
G01 X-35.9533 Y24.0037 
G01 X-36.0893 Y24.0946 
G01 X-36.2050 Y24.2103 
G01 X-36.2959 Y24.3463 
G01 X-36.3585 Y24.4974 
G01 X-36.3904 Y24.6578 
G01 X-36.3904 Y26.1422 
G01 X-36.3585 Y26.3026 
G01 X-36.2959 Y26.4537 
G01 X-36.2050 Y26.5897 
G01 X-36.0893 Y26.7054 
G01 X-35.9533 Y26.7963 
G01 X-35.8022 Y26.8589 
G01 X-35.6418 Y26.8908 
G01 X-35.4782 Y26.8908 
G01 X-35.3178 Y26.8589 
G01 X-35.1667 Y26.7963 
G01 X-35.0307 Y26.7054 
G01 X-34.9150 Y26.5897 
G01 X-34.8241 Y26.4537 
G01 X-34.7615 Y26.3026 
G01 X-34.7296 Y26.1422 
G01 X-34.7296 Y24.9321 
G01 X-33.6175 Y23.8200 
G01 X-22.3825 Y23.8200 
G01 X-21.5864 Y24.6161 
G01 X-21.6761 Y24.6761 
G01 X-21.8059 Y24.8059 
G01 X-21.9079 Y24.9585 
G01 X-21.9782 Y25.1281 
G01 X-22.0140 Y25.3082 
G01 X-22.0140 Y25.4918 
G01 X-21.9782 Y25.6719 
G01 X-21.9079 Y25.8415 
G01 X-21.8059 Y25.9941 
G01 X-21.6761 Y26.1239 
G01 X-21.5235 Y26.2259 
G01 X-21.3539 Y26.2962 
G01 X-21.1738 Y26.3320 
G01 X-19.4662 Y26.3320 
G01 X-19.2861 Y26.2962 
G01 X-19.1165 Y26.2259 
G01 X-18.9639 Y26.1239 
G01 X-18.8341 Y25.9941 
G01 X-18.7321 Y25.8415 
G01 X-18.6618 Y25.6719 
G01 X-18.6260 Y25.4918 
G01 X-18.6260 Y25.3082 
G01 X-18.6618 Y25.1281 
G01 X-18.7321 Y24.9585 
G01 X-18.8341 Y24.8059 
G01 X-18.9639 Y24.6761 
G01 X-19.1165 Y24.5741 
G01 X-19.2861 Y24.5038 
G01 X-19.4662 Y24.4680 
G00 Z2.0000 
G00 X-19.4662 Y21.9280 
G01 Z-0.1000 F254.00 
