(.../pcb-gcode-3.6.0.4/pcb-gcode.ulp)
(Copyright 2005 - 2012 by John Johnson)
(See readme.txt for licensing terms.)
(This file generated from the board:)
(.../Documents/eagle/carm2/carm2.brd)
(Current profile is .../pcb-gcode-3.6.0.4/profiles/emc.pp  )
(This file generated 1/20/2014 1:52:46 PM)
(Settings from pcb-machine.h)
(  Tool Size)
(0.2000 )
(Z Axis Settings)
(  High     Up        Down     Drill)
(12.7000 	2.5400 	-0.1500 	-0.8128 )
(spindle on time = 3.0000)
(milling depth = -0.1500)
(text depth = -0.1270)
(tool change at 12.7000 15.2400 25.4000 )
(feed rate xy = F508.00 )
(feed rate z  = F254.00 )
(Settings from pcb-defaults.h)
(isolate min = 0.0154)
(isolate max = 0.5080)
(isolate step = 0.1270)
(Generated top outlines, top drill, bottom outlines, bottom drill, )
(Unit of measure: mm)
(Metric Mode)
G21
(Absolute Coordinates)
G90
G00 X0.0000 Y0.0000 
M03
G04 P3.000000
G00 Z2.5400 
G00 X-40.1966 Y8.8086 
G01 Z-0.1500 F254.00 
G01 X-40.1966 Y8.9714 F508.00 
G01 X-40.1648 Y9.1311 
G01 X-40.1025 Y9.2815 
G01 X-40.0121 Y9.4169 
G01 X-39.8969 Y9.5321 
G01 X-39.7615 Y9.6225 
G01 X-39.6111 Y9.6848 
G01 X-39.4514 Y9.7166 
G01 X-39.2886 Y9.7166 
G01 X-39.1289 Y9.6848 
G01 X-38.9785 Y9.6225 
G01 X-38.8431 Y9.5321 
G01 X-38.7279 Y9.4169 
G01 X-38.6375 Y9.2815 
G01 X-38.5752 Y9.1311 
G01 X-38.5434 Y8.9714 
G01 X-38.5434 Y8.8086 
G01 X-38.5752 Y8.6489 
G01 X-38.6375 Y8.4985 
G01 X-38.7279 Y8.3631 
G01 X-38.8431 Y8.2479 
G01 X-38.9785 Y8.1575 
G01 X-39.1289 Y8.0952 
G01 X-39.2886 Y8.0634 
G01 X-39.4514 Y8.0634 
G01 X-39.6111 Y8.0952 
G01 X-39.7615 Y8.1575 
G01 X-39.8969 Y8.2479 
G01 X-40.0121 Y8.3631 
G01 X-40.1025 Y8.4985 
G01 X-40.1648 Y8.6489 
G01 X-40.1966 Y8.8086 
G00 Z2.5400 
G00 X-40.1966 Y68.4986 
G01 Z-0.1500 F254.00 
G01 X-40.1966 Y68.6614 F508.00 
G01 X-40.1648 Y68.8211 
G01 X-40.1025 Y68.9715 
G01 X-40.0121 Y69.1069 
G01 X-39.8969 Y69.2221 
G01 X-39.7615 Y69.3125 
G01 X-39.6111 Y69.3748 
G01 X-39.4514 Y69.4066 
G01 X-39.2886 Y69.4066 
G01 X-39.1289 Y69.3748 
G01 X-38.9785 Y69.3125 
G01 X-38.8431 Y69.2221 
G01 X-38.7279 Y69.1069 
G01 X-38.6375 Y68.9715 
G01 X-38.5752 Y68.8211 
G01 X-38.5434 Y68.6614 
G01 X-38.5434 Y68.4986 
G01 X-38.5752 Y68.3389 
G01 X-38.6375 Y68.1885 
G01 X-38.7279 Y68.0531 
G01 X-38.8431 Y67.9379 
G01 X-38.9785 Y67.8475 
G01 X-39.1289 Y67.7852 
G01 X-39.2886 Y67.7534 
G01 X-39.4514 Y67.7534 
G01 X-39.6111 Y67.7852 
G01 X-39.7615 Y67.8475 
G01 X-39.8969 Y67.9379 
G01 X-40.0121 Y68.0531 
G01 X-40.1025 Y68.1885 
G01 X-40.1648 Y68.3389 
G01 X-40.1966 Y68.4986 
G00 Z2.5400 
G00 X-2.0966 Y68.4986 
G01 Z-0.1500 F254.00 
G01 X-2.0966 Y68.6614 F508.00 
G01 X-2.0648 Y68.8211 
G01 X-2.0025 Y68.9715 
G01 X-1.9121 Y69.1069 
G01 X-1.7969 Y69.2221 
G01 X-1.6615 Y69.3125 
G01 X-1.5111 Y69.3748 
G01 X-1.3514 Y69.4066 
G01 X-1.1886 Y69.4066 
G01 X-1.0289 Y69.3748 
G01 X-0.8785 Y69.3125 
G01 X-0.7431 Y69.2221 
G01 X-0.6279 Y69.1069 
G01 X-0.5375 Y68.9715 
G01 X-0.4752 Y68.8211 
G01 X-0.4434 Y68.6614 
G01 X-0.4434 Y68.4986 
G01 X-0.4752 Y68.3389 
G01 X-0.5375 Y68.1885 
G01 X-0.6279 Y68.0531 
G01 X-0.7431 Y67.9379 
G01 X-0.8785 Y67.8475 
G01 X-1.0289 Y67.7852 
G01 X-1.1886 Y67.7534 
G01 X-1.3514 Y67.7534 
G01 X-1.5111 Y67.7852 
G01 X-1.6615 Y67.8475 
G01 X-1.7969 Y67.9379 
G01 X-1.9121 Y68.0531 
G01 X-2.0025 Y68.1885 
G01 X-2.0648 Y68.3389 
G01 X-2.0966 Y68.4986 
G00 Z2.5400 
G00 X-4.0024 Y22.9732 
G01 Z-0.1500 F254.00 
G01 X-6.1576 Y22.9732 F508.00 
G01 X-6.3296 Y23.0004 
G01 X-6.4952 Y23.0542 
G01 X-6.6503 Y23.1333 
G01 X-6.7911 Y23.2356 
G01 X-6.9142 Y23.3587 
G01 X-7.0165 Y23.4995 
G01 X-7.0956 Y23.6546 
G01 X-7.1313 Y23.7646 
G01 X-7.6681 Y23.7646 
G01 X-7.7610 Y23.7895 
G01 X-7.8444 Y23.8376 
G01 X-7.9124 Y23.9056 
G01 X-13.6055 Y29.5988 
G01 X-13.6918 Y29.5630 
G01 X-13.8761 Y29.5264 
G01 X-14.0639 Y29.5264 
G01 X-14.2482 Y29.5630 
G01 X-14.4217 Y29.6349 
G01 X-14.5779 Y29.7393 
G01 X-14.7107 Y29.8721 
G01 X-14.8151 Y30.0283 
G01 X-14.8870 Y30.2018 
G01 X-14.9236 Y30.3861 
G01 X-14.9236 Y30.5739 
G01 X-14.8870 Y30.7582 
G01 X-14.8151 Y30.9317 
G01 X-14.7107 Y31.0879 
G01 X-14.5779 Y31.2207 
G01 X-14.4217 Y31.3251 
G01 X-14.2482 Y31.3970 
G01 X-14.0639 Y31.4336 
G01 X-13.8761 Y31.4336 
G01 X-13.6918 Y31.3970 
G01 X-13.5183 Y31.3251 
G01 X-13.3621 Y31.2207 
G01 X-13.2293 Y31.0879 
G01 X-13.1249 Y30.9317 
G01 X-13.0530 Y30.7582 
G01 X-13.0164 Y30.5739 
G01 X-13.0164 Y30.3861 
G01 X-13.0530 Y30.2018 
G01 X-13.0888 Y30.1155 
G01 X-7.4686 Y24.4954 
G01 X-7.0983 Y24.4954 
G01 X-7.0956 Y24.5038 
G01 X-7.0165 Y24.6589 
G01 X-6.9142 Y24.7997 
G01 X-6.7911 Y24.9228 
G01 X-6.6503 Y25.0251 
G01 X-6.4952 Y25.1042 
G01 X-6.3296 Y25.1580 
G01 X-6.1576 Y25.1852 
G01 X-4.0024 Y25.1852 
G01 X-3.8304 Y25.1580 
G01 X-3.6648 Y25.1042 
G01 X-3.5097 Y25.0251 
G01 X-3.3689 Y24.9228 
G01 X-3.2458 Y24.7997 
G01 X-3.1435 Y24.6589 
G01 X-3.0644 Y24.5038 
G01 X-3.0106 Y24.3382 
G01 X-2.9834 Y24.1662 
G01 X-2.9834 Y23.9922 
G01 X-3.0106 Y23.8202 
G01 X-3.0644 Y23.6546 
G01 X-3.1435 Y23.4995 
G01 X-3.2458 Y23.3587 
G01 X-3.3689 Y23.2356 
G01 X-3.5097 Y23.1333 
G01 X-3.6648 Y23.0542 
G01 X-3.8304 Y23.0004 
G01 X-4.0024 Y22.9732 
G00 Z2.5400 
G00 X-2.8564 Y42.8421 
G01 Z-0.1500 F254.00 
G01 X-2.8564 Y40.9779 F508.00 
G01 X-2.8930 Y40.7936 
G01 X-2.9649 Y40.6201 
G01 X-3.0693 Y40.4639 
G01 X-3.2021 Y40.3311 
G01 X-3.3583 Y40.2267 
G01 X-3.4446 Y40.1910 
G01 X-3.4446 Y36.7549 
G01 X-3.3151 Y36.7549 
G01 X-2.6151 Y36.0549 
G01 X-2.6151 Y35.0651 
G01 X-3.3151 Y34.3651 
G01 X-3.4446 Y34.3651 
G01 X-3.4446 Y31.3608 
G01 X-3.3583 Y31.3251 
G01 X-3.2021 Y31.2207 
G01 X-3.0693 Y31.0879 
G01 X-2.9649 Y30.9317 
G01 X-2.8930 Y30.7582 
G01 X-2.8564 Y30.5739 
G01 X-2.8564 Y30.3861 
G01 X-2.8930 Y30.2018 
G01 X-2.9649 Y30.0283 
G01 X-3.0693 Y29.8721 
G01 X-3.2021 Y29.7393 
G01 X-3.3583 Y29.6349 
G01 X-3.5318 Y29.5630 
G01 X-3.7161 Y29.5264 
G01 X-3.9039 Y29.5264 
G01 X-4.0882 Y29.5630 
G01 X-4.2617 Y29.6349 
G01 X-4.4179 Y29.7393 
G01 X-4.5507 Y29.8721 
G01 X-4.6551 Y30.0283 
G01 X-4.7270 Y30.2018 
G01 X-4.7636 Y30.3861 
G01 X-4.7636 Y30.5739 
G01 X-4.7270 Y30.7582 
G01 X-4.6551 Y30.9317 
G01 X-4.5507 Y31.0879 
G01 X-4.4179 Y31.2207 
G01 X-4.2617 Y31.3251 
G01 X-4.1754 Y31.3608 
G01 X-4.1754 Y34.3651 
G01 X-4.3049 Y34.3651 
G01 X-5.0049 Y35.0651 
G01 X-5.0049 Y36.0549 
G01 X-4.3049 Y36.7549 
G01 X-4.1754 Y36.7549 
G01 X-4.1754 Y40.1910 
G01 X-4.2617 Y40.2267 
G01 X-4.4179 Y40.3311 
G01 X-4.5507 Y40.4639 
G01 X-4.6551 Y40.6201 
G01 X-4.7270 Y40.7936 
G01 X-4.7636 Y40.9779 
G01 X-4.7636 Y42.8421 
G01 X-4.7270 Y43.0264 
G01 X-4.6551 Y43.1999 
G01 X-4.5507 Y43.3561 
G01 X-4.4179 Y43.4889 
G01 X-4.2617 Y43.5933 
G01 X-4.0882 Y43.6652 
G01 X-3.9039 Y43.7018 
G01 X-3.7161 Y43.7018 
G01 X-3.5318 Y43.6652 
G01 X-3.3583 Y43.5933 
G01 X-3.2021 Y43.4889 
G01 X-3.0693 Y43.3561 
G01 X-2.9649 Y43.1999 
G01 X-2.8930 Y43.0264 
G01 X-2.8564 Y42.8421 
G00 Z2.5400 
G00 X-32.9449 Y12.2051 
G01 Z-0.1500 F254.00 
G01 X-32.9449 Y13.1949 F508.00 
G01 X-32.2449 Y13.8949 
G01 X-31.2551 Y13.8949 
G01 X-31.1635 Y13.8033 
G01 X-28.2324 Y16.7344 
G01 X-28.1644 Y16.8024 
G01 X-22.6933 Y22.2735 
G01 X-22.7849 Y22.3651 
G01 X-22.7849 Y23.3549 
G01 X-22.0849 Y24.0549 
G01 X-21.0951 Y24.0549 
G01 X-20.3951 Y23.3549 
G01 X-20.3951 Y22.3651 
G01 X-21.0951 Y21.6651 
G01 X-22.0849 Y21.6651 
G01 X-22.1765 Y21.7567 
G01 X-27.4232 Y16.5100 
G01 X-21.4386 Y10.5254 
G01 X-7.7714 Y10.5254 
G01 X-6.1833 Y12.1135 
G01 X-6.2749 Y12.2051 
G01 X-6.2749 Y13.1949 
G01 X-5.5749 Y13.8949 
G01 X-5.4454 Y13.8949 
G01 X-5.4454 Y17.9694 
G01 X-6.1576 Y17.9694 
G01 X-6.3296 Y17.9966 
G01 X-6.4952 Y18.0504 
G01 X-6.6503 Y18.1295 
G01 X-6.7911 Y18.2318 
G01 X-6.9142 Y18.3549 
G01 X-7.0165 Y18.4957 
G01 X-7.0956 Y18.6508 
G01 X-7.1494 Y18.8164 
G01 X-7.1766 Y18.9884 
G01 X-7.1766 Y19.1624 
G01 X-7.1494 Y19.3344 
G01 X-7.0956 Y19.5000 
G01 X-7.0165 Y19.6551 
G01 X-6.9142 Y19.7959 
G01 X-6.7911 Y19.9190 
G01 X-6.6503 Y20.0213 
G01 X-6.4952 Y20.1004 
G01 X-6.3296 Y20.1542 
G01 X-6.1576 Y20.1814 
G01 X-4.0024 Y20.1814 
G01 X-3.8304 Y20.1542 
G01 X-3.6648 Y20.1004 
G01 X-3.5097 Y20.0213 
G01 X-3.3689 Y19.9190 
G01 X-3.2458 Y19.7959 
G01 X-3.1435 Y19.6551 
G01 X-3.0644 Y19.5000 
G01 X-3.0370 Y19.4154 
G01 X-2.9054 Y19.4154 
G01 X-2.9054 Y25.2486 
G01 X-3.9614 Y26.3046 
G01 X-5.1281 Y26.3046 
G01 X-5.2210 Y26.3295 
G01 X-5.3044 Y26.3776 
G01 X-5.3724 Y26.4456 
G01 X-13.3835 Y34.4567 
G01 X-13.4751 Y34.3651 
G01 X-14.4649 Y34.3651 
G01 X-15.1649 Y35.0651 
G01 X-15.1649 Y36.0549 
G01 X-15.0733 Y36.1465 
G01 X-21.2255 Y42.2988 
G01 X-21.3118 Y42.2630 
G01 X-21.4961 Y42.2264 
G01 X-21.6839 Y42.2264 
G01 X-21.8682 Y42.2630 
G01 X-22.0417 Y42.3349 
G01 X-22.1979 Y42.4393 
G01 X-22.3307 Y42.5721 
G01 X-22.4351 Y42.7283 
G01 X-22.5069 Y42.9018 
G01 X-22.5436 Y43.0861 
G01 X-22.5436 Y43.2739 
G01 X-22.5069 Y43.4582 
G01 X-22.4712 Y43.5445 
G01 X-24.2814 Y45.3546 
G01 X-28.3292 Y45.3546 
G01 X-28.3649 Y45.2683 
G01 X-28.4693 Y45.1121 
G01 X-28.6021 Y44.9793 
G01 X-28.7583 Y44.8749 
G01 X-28.9318 Y44.8030 
G01 X-29.1161 Y44.7664 
G01 X-29.3039 Y44.7664 
G01 X-29.4882 Y44.8030 
G01 X-29.6617 Y44.8749 
G01 X-29.8179 Y44.9793 
G01 X-29.9507 Y45.1121 
G01 X-30.0551 Y45.2683 
G01 X-30.1270 Y45.4418 
G01 X-30.1636 Y45.6261 
G01 X-30.1636 Y45.8139 
G01 X-30.1270 Y45.9982 
G01 X-30.0551 Y46.1717 
G01 X-29.9507 Y46.3279 
G01 X-29.8179 Y46.4607 
G01 X-29.6617 Y46.5651 
G01 X-29.4882 Y46.6369 
G01 X-29.3039 Y46.6736 
G01 X-29.1161 Y46.6736 
G01 X-28.9318 Y46.6369 
G01 X-28.7583 Y46.5651 
G01 X-28.6021 Y46.4607 
G01 X-28.4693 Y46.3279 
G01 X-28.3649 Y46.1717 
G01 X-28.3292 Y46.0854 
G01 X-24.0819 Y46.0854 
G01 X-23.9890 Y46.0605 
G01 X-23.9056 Y46.0124 
G01 X-23.8376 Y45.9444 
G01 X-21.9545 Y44.0612 
G01 X-21.8682 Y44.0969 
G01 X-21.6839 Y44.1336 
G01 X-21.4961 Y44.1336 
G01 X-21.3118 Y44.0969 
G01 X-21.1383 Y44.0251 
G01 X-20.9821 Y43.9207 
G01 X-20.8493 Y43.7879 
G01 X-20.7449 Y43.6317 
G01 X-20.6730 Y43.4582 
G01 X-20.6364 Y43.2739 
G01 X-20.6364 Y43.0861 
G01 X-20.6730 Y42.9018 
G01 X-20.7088 Y42.8155 
G01 X-14.5565 Y36.6633 
G01 X-14.4649 Y36.7549 
G01 X-13.4751 Y36.7549 
G01 X-12.7751 Y36.0549 
G01 X-12.7751 Y35.9254 
G01 X-6.7154 Y35.9254 
G01 X-6.7154 Y40.1910 
G01 X-6.8017 Y40.2267 
G01 X-6.9579 Y40.3311 
G01 X-7.0907 Y40.4639 
G01 X-7.1951 Y40.6201 
G01 X-7.2670 Y40.7936 
G01 X-7.3036 Y40.9779 
G01 X-7.3036 Y42.8421 
G01 X-7.2670 Y43.0264 
G01 X-7.1951 Y43.1999 
G01 X-7.0907 Y43.3561 
G01 X-6.9579 Y43.4889 
G01 X-6.8017 Y43.5933 
G01 X-6.6282 Y43.6652 
G01 X-6.4439 Y43.7018 
G01 X-6.2561 Y43.7018 
G01 X-6.0718 Y43.6652 
G01 X-5.8983 Y43.5933 
G01 X-5.7421 Y43.4889 
G01 X-5.6093 Y43.3561 
G01 X-5.5049 Y43.1999 
G01 X-5.4330 Y43.0264 
G01 X-5.3964 Y42.8421 
G01 X-5.3964 Y40.9779 
G01 X-5.4330 Y40.7936 
G01 X-5.5049 Y40.6201 
G01 X-5.6093 Y40.4639 
G01 X-5.7421 Y40.3311 
G01 X-5.8983 Y40.2267 
G01 X-5.9846 Y40.1910 
G01 X-5.9846 Y35.5119 
G01 X-6.0095 Y35.4190 
G01 X-6.0576 Y35.3356 
G01 X-6.1256 Y35.2676 
G01 X-6.2090 Y35.2195 
G01 X-6.3019 Y35.1946 
G01 X-12.7751 Y35.1946 
G01 X-12.7751 Y35.0651 
G01 X-12.8667 Y34.9735 
G01 X-4.9286 Y27.0354 
G01 X-3.7619 Y27.0354 
G01 X-3.6690 Y27.0105 
G01 X-3.5856 Y26.9624 
G01 X-2.3156 Y25.6924 
G01 X-2.2476 Y25.6244 
G01 X-2.1995 Y25.5410 
G01 X-2.1746 Y25.4481 
G01 X-2.1746 Y19.0019 
G01 X-2.1995 Y18.9090 
G01 X-2.2476 Y18.8256 
G01 X-2.3156 Y18.7576 
G01 X-2.3990 Y18.7095 
G01 X-2.4919 Y18.6846 
G01 X-3.0535 Y18.6846 
G01 X-3.0644 Y18.6508 
G01 X-3.1435 Y18.4957 
G01 X-3.2458 Y18.3549 
G01 X-3.3689 Y18.2318 
G01 X-3.5097 Y18.1295 
G01 X-3.6648 Y18.0504 
G01 X-3.8304 Y17.9966 
G01 X-4.0024 Y17.9694 
G01 X-4.7146 Y17.9694 
G01 X-4.7146 Y13.8949 
G01 X-4.5851 Y13.8949 
G01 X-3.8851 Y13.1949 
G01 X-3.8851 Y12.2051 
G01 X-4.5851 Y11.5051 
G01 X-5.5749 Y11.5051 
G01 X-5.6665 Y11.5967 
G01 X-7.3276 Y9.9356 
G01 X-7.3956 Y9.8676 
G01 X-7.4790 Y9.8195 
G01 X-7.5719 Y9.7946 
G01 X-21.6381 Y9.7946 
G01 X-21.7310 Y9.8195 
G01 X-21.8144 Y9.8676 
G01 X-27.9400 Y15.9932 
G01 X-30.6467 Y13.2865 
G01 X-30.5551 Y13.1949 
G01 X-30.5551 Y12.2051 
G01 X-31.2551 Y11.5051 
G01 X-32.2449 Y11.5051 
G01 X-32.9449 Y12.2051 
G00 Z2.5400 
G00 X-16.0158 Y49.2087 
G01 Z-0.1500 F254.00 
G01 X-16.0158 Y49.8513 F508.00 
G01 X-15.5613 Y50.3058 
G01 X-14.9187 Y50.3058 
G01 X-14.4642 Y49.8513 
G01 X-14.4642 Y49.2087 
G01 X-14.9187 Y48.7542 
G01 X-15.5613 Y48.7542 
G01 X-16.0158 Y49.2087 
G00 Z2.5400 
G00 X-22.5436 Y60.0988 
G01 Z-0.1500 F254.00 
G01 X-22.5436 Y61.8212 F508.00 
G01 X-22.5260 Y61.8636 
G01 X-22.4936 Y61.8960 
G01 X-22.4512 Y61.9136 
G01 X-20.7288 Y61.9136 
G01 X-20.6864 Y61.8960 
G01 X-20.6540 Y61.8636 
G01 X-20.6364 Y61.8212 
G01 X-20.6364 Y61.3254 
G01 X-16.4619 Y61.3254 
G01 X-16.3690 Y61.3005 
G01 X-16.2856 Y61.2524 
G01 X-16.2176 Y61.1844 
G01 X-15.4990 Y60.4658 
G01 X-14.9187 Y60.4658 
G01 X-14.4642 Y60.0113 
G01 X-14.4642 Y59.3687 
G01 X-14.9187 Y58.9142 
G01 X-15.5613 Y58.9142 
G01 X-16.0158 Y59.3687 
G01 X-16.0158 Y59.9490 
G01 X-16.6614 Y60.5946 
G01 X-20.6364 Y60.5946 
G01 X-20.6364 Y60.0988 
G01 X-20.6540 Y60.0564 
G01 X-20.6864 Y60.0240 
G01 X-20.7288 Y60.0064 
G01 X-22.4512 Y60.0064 
G01 X-22.4936 Y60.0240 
G01 X-22.5260 Y60.0564 
G01 X-22.5436 Y60.0988 
G00 Z2.5400 
G00 X-22.4351 Y58.8717 
G01 Z-0.1500 F254.00 
G01 X-22.3307 Y59.0279 F508.00 
G01 X-22.1979 Y59.1607 
G01 X-22.0417 Y59.2651 
G01 X-21.8682 Y59.3370 
G01 X-21.6839 Y59.3736 
G01 X-21.4961 Y59.3736 
G01 X-21.3118 Y59.3370 
G01 X-21.1383 Y59.2651 
G01 X-20.9821 Y59.1607 
G01 X-20.8493 Y59.0279 
G01 X-20.7449 Y58.8717 
G01 X-20.6730 Y58.6982 
G01 X-20.6364 Y58.5139 
G01 X-20.6364 Y58.3261 
G01 X-20.6730 Y58.1418 
G01 X-20.7449 Y57.9683 
G01 X-20.8493 Y57.8121 
G01 X-20.9821 Y57.6793 
G01 X-21.1383 Y57.5749 
G01 X-21.3118 Y57.5030 
G01 X-21.4961 Y57.4664 
G01 X-21.6839 Y57.4664 
G01 X-21.8682 Y57.5030 
G01 X-22.0417 Y57.5749 
G01 X-22.1979 Y57.6793 
G01 X-22.3307 Y57.8121 
G01 X-22.4351 Y57.9683 
G01 X-22.4708 Y58.0546 
G01 X-24.1781 Y58.0546 
G01 X-24.2710 Y58.0795 
G01 X-24.3544 Y58.1276 
G01 X-24.4224 Y58.1956 
G01 X-24.4705 Y58.2790 
G01 X-24.4954 Y58.3719 
G01 X-24.4954 Y62.2781 
G01 X-24.4705 Y62.3710 
G01 X-24.4224 Y62.4544 
G01 X-24.3544 Y62.5224 
G01 X-21.0958 Y65.7810 
G01 X-21.0958 Y66.7768 
G01 X-21.0660 Y66.9267 
G01 X-21.0075 Y67.0679 
G01 X-20.9226 Y67.1949 
G01 X-20.8145 Y67.3030 
G01 X-20.6875 Y67.3879 
G01 X-20.5463 Y67.4464 
G01 X-20.3964 Y67.4762 
G01 X-20.2436 Y67.4762 
G01 X-20.0937 Y67.4464 
G01 X-19.9525 Y67.3879 
G01 X-19.8255 Y67.3030 
G01 X-19.7174 Y67.1949 
G01 X-19.6325 Y67.0679 
G01 X-19.5740 Y66.9267 
G01 X-19.5442 Y66.7768 
G01 X-19.5442 Y65.3032 
G01 X-19.5740 Y65.1533 
G01 X-19.6325 Y65.0121 
G01 X-19.7174 Y64.8851 
G01 X-19.8255 Y64.7770 
G01 X-19.9525 Y64.6921 
G01 X-20.0937 Y64.6336 
G01 X-20.2436 Y64.6038 
G01 X-20.3964 Y64.6038 
G01 X-20.5463 Y64.6336 
G01 X-20.6875 Y64.6921 
G01 X-20.8145 Y64.7770 
G01 X-20.9226 Y64.8851 
G01 X-20.9369 Y64.9064 
G01 X-23.7646 Y62.0786 
G01 X-23.7646 Y58.7854 
G01 X-22.4708 Y58.7854 
G01 X-22.4351 Y58.8717 
G00 Z2.5400 
G00 X-22.5436 Y55.7861 
G01 Z-0.1500 F254.00 
G01 X-22.5436 Y55.9739 F508.00 
G01 X-22.5069 Y56.1582 
G01 X-22.4351 Y56.3317 
G01 X-22.3307 Y56.4879 
G01 X-22.1979 Y56.6207 
G01 X-22.0417 Y56.7251 
G01 X-21.8682 Y56.7970 
G01 X-21.6839 Y56.8336 
G01 X-21.4961 Y56.8336 
G01 X-21.3118 Y56.7970 
G01 X-21.1383 Y56.7251 
G01 X-20.9821 Y56.6207 
G01 X-20.8493 Y56.4879 
G01 X-20.7449 Y56.3317 
G01 X-20.7092 Y56.2454 
G01 X-14.3354 Y56.2454 
G01 X-14.3354 Y60.5946 
G01 X-15.2881 Y60.5946 
G01 X-15.3810 Y60.6195 
G01 X-15.4644 Y60.6676 
G01 X-15.5324 Y60.7356 
G01 X-16.6614 Y61.8646 
G01 X-17.8281 Y61.8646 
G01 X-17.9210 Y61.8895 
G01 X-18.0044 Y61.9376 
G01 X-18.0724 Y62.0056 
G01 X-18.1205 Y62.0890 
G01 X-18.1454 Y62.1819 
G01 X-18.1454 Y64.6912 
G01 X-18.2745 Y64.7770 
G01 X-18.3826 Y64.8851 
G01 X-18.4675 Y65.0121 
G01 X-18.5260 Y65.1533 
G01 X-18.5558 Y65.3032 
G01 X-18.5558 Y66.7768 
G01 X-18.5260 Y66.9267 
G01 X-18.4675 Y67.0679 
G01 X-18.3826 Y67.1949 
G01 X-18.2745 Y67.3030 
G01 X-18.1475 Y67.3879 
G01 X-18.0063 Y67.4464 
G01 X-17.8564 Y67.4762 
G01 X-17.7036 Y67.4762 
G01 X-17.5537 Y67.4464 
G01 X-17.4125 Y67.3879 
G01 X-17.2855 Y67.3030 
G01 X-17.1774 Y67.1949 
G01 X-17.0925 Y67.0679 
G01 X-17.0340 Y66.9267 
G01 X-17.0042 Y66.7768 
G01 X-17.0042 Y65.3032 
G01 X-17.0340 Y65.1533 
G01 X-17.0925 Y65.0121 
G01 X-17.1774 Y64.8851 
G01 X-17.2855 Y64.7770 
G01 X-17.4125 Y64.6921 
G01 X-17.4146 Y62.5954 
G01 X-16.4619 Y62.5954 
G01 X-16.3690 Y62.5705 
G01 X-16.2856 Y62.5224 
G01 X-15.0886 Y61.3254 
G01 X-13.9219 Y61.3254 
G01 X-13.8290 Y61.3005 
G01 X-13.7456 Y61.2524 
G01 X-13.6776 Y61.1844 
G01 X-13.6295 Y61.1010 
G01 X-13.6046 Y61.0081 
G01 X-13.6046 Y55.8319 
G01 X-13.6295 Y55.7390 
G01 X-13.6776 Y55.6556 
G01 X-13.7456 Y55.5876 
G01 X-13.8290 Y55.5395 
G01 X-13.9219 Y55.5146 
G01 X-20.7092 Y55.5146 
G01 X-20.7449 Y55.4283 
G01 X-20.8493 Y55.2721 
G01 X-20.9821 Y55.1393 
G01 X-21.1383 Y55.0349 
G01 X-21.3118 Y54.9630 
G01 X-21.4961 Y54.9264 
G01 X-21.6839 Y54.9264 
G01 X-21.8682 Y54.9630 
G01 X-22.0417 Y55.0349 
G01 X-22.1979 Y55.1393 
G01 X-22.3307 Y55.2721 
G01 X-22.4351 Y55.4283 
G01 X-22.5069 Y55.6018 
G01 X-22.5436 Y55.7861 
G00 Z2.5400 
G00 X-22.5436 Y50.7061 
G01 Z-0.1500 F254.00 
G01 X-22.5436 Y50.8939 F508.00 
G01 X-22.5069 Y51.0782 
G01 X-22.4351 Y51.2517 
G01 X-22.3307 Y51.4079 
G01 X-22.1979 Y51.5407 
G01 X-22.0417 Y51.6451 
G01 X-21.8682 Y51.7170 
G01 X-21.6839 Y51.7536 
G01 X-21.4961 Y51.7536 
G01 X-21.3118 Y51.7170 
G01 X-21.2255 Y51.6812 
G01 X-20.5444 Y52.3624 
G01 X-20.4610 Y52.4105 
G01 X-20.3681 Y52.4354 
G01 X-11.7954 Y52.4354 
G01 X-11.7954 Y60.8086 
G01 X-12.9924 Y62.0056 
G01 X-13.0405 Y62.0890 
G01 X-13.0654 Y62.1819 
G01 X-13.0654 Y64.6912 
G01 X-13.1945 Y64.7770 
G01 X-13.3026 Y64.8851 
G01 X-13.3875 Y65.0121 
G01 X-13.4460 Y65.1533 
G01 X-13.4758 Y65.3032 
G01 X-13.4758 Y66.7768 
G01 X-13.4460 Y66.9267 
G01 X-13.3875 Y67.0679 
G01 X-13.3026 Y67.1949 
G01 X-13.1945 Y67.3030 
G01 X-13.0675 Y67.3879 
G01 X-12.9263 Y67.4464 
G01 X-12.7764 Y67.4762 
G01 X-12.6236 Y67.4762 
G01 X-12.4737 Y67.4464 
G01 X-12.3325 Y67.3879 
G01 X-12.2055 Y67.3030 
G01 X-12.0974 Y67.1949 
G01 X-12.0125 Y67.0679 
G01 X-11.9540 Y66.9267 
G01 X-11.9242 Y66.7768 
G01 X-11.9242 Y65.3032 
G01 X-11.9540 Y65.1533 
G01 X-12.0125 Y65.0121 
G01 X-12.0974 Y64.8851 
G01 X-12.2055 Y64.7770 
G01 X-12.3325 Y64.6921 
G01 X-12.3346 Y62.3814 
G01 X-11.2056 Y61.2524 
G01 X-11.1376 Y61.1844 
G01 X-11.0895 Y61.1010 
G01 X-11.0646 Y61.0081 
G01 X-11.0646 Y52.0219 
G01 X-11.0895 Y51.9290 
G01 X-11.1376 Y51.8456 
G01 X-11.2056 Y51.7776 
G01 X-11.2890 Y51.7295 
G01 X-11.3819 Y51.7046 
G01 X-20.1686 Y51.7046 
G01 X-20.7088 Y51.1645 
G01 X-20.6730 Y51.0782 
G01 X-20.6364 Y50.8939 
G01 X-20.6364 Y50.7061 
G01 X-20.6730 Y50.5218 
G01 X-20.7449 Y50.3483 
G01 X-20.8493 Y50.1921 
G01 X-20.9821 Y50.0593 
G01 X-21.1383 Y49.9549 
G01 X-21.3118 Y49.8830 
G01 X-21.4961 Y49.8464 
G01 X-21.6839 Y49.8464 
G01 X-21.8682 Y49.8830 
G01 X-22.0417 Y49.9549 
G01 X-22.1979 Y50.0593 
G01 X-22.3307 Y50.1921 
G01 X-22.4351 Y50.3483 
G01 X-22.5069 Y50.5218 
G01 X-22.5436 Y50.7061 
G00 Z2.5400 
G00 X-22.5436 Y40.5461 
G01 Z-0.1500 F254.00 
G01 X-22.5436 Y40.7339 F508.00 
G01 X-22.5069 Y40.9182 
G01 X-22.4351 Y41.0917 
G01 X-22.3307 Y41.2479 
G01 X-22.1979 Y41.3807 
G01 X-22.0417 Y41.4851 
G01 X-21.8682 Y41.5570 
G01 X-21.6839 Y41.5936 
G01 X-21.4961 Y41.5936 
G01 X-21.3118 Y41.5570 
G01 X-21.1383 Y41.4851 
G01 X-20.9821 Y41.3807 
G01 X-20.8493 Y41.2479 
G01 X-20.7449 Y41.0917 
G01 X-20.6730 Y40.9182 
G01 X-20.6364 Y40.7339 
G01 X-20.6364 Y40.5461 
G01 X-20.6730 Y40.3618 
G01 X-20.7088 Y40.2755 
G01 X-16.2856 Y35.8524 
G01 X-16.2176 Y35.7844 
G01 X-16.1695 Y35.7010 
G01 X-16.1446 Y35.6081 
G01 X-16.1446 Y24.4954 
G01 X-15.8440 Y24.4954 
G01 X-15.7345 Y24.6056 
G01 X-15.6075 Y24.6905 
G01 X-15.4663 Y24.7490 
G01 X-15.3164 Y24.7788 
G01 X-15.1636 Y24.7788 
G01 X-15.0137 Y24.7490 
G01 X-14.8725 Y24.6905 
G01 X-14.7455 Y24.6056 
G01 X-14.6374 Y24.4975 
G01 X-14.5525 Y24.3705 
G01 X-14.4940 Y24.2293 
G01 X-14.4642 Y24.0794 
G01 X-14.4642 Y23.9266 
G01 X-14.4734 Y23.8802 
G01 X-11.2056 Y20.6124 
G01 X-11.1376 Y20.5444 
G01 X-11.0895 Y20.4610 
G01 X-11.0646 Y20.3681 
G01 X-11.0646 Y12.6519 
G01 X-11.0895 Y12.5590 
G01 X-11.1376 Y12.4756 
G01 X-11.2056 Y12.4076 
G01 X-11.2890 Y12.3595 
G01 X-11.3819 Y12.3346 
G01 X-14.0451 Y12.3346 
G01 X-14.0451 Y12.2051 
G01 X-14.7451 Y11.5051 
G01 X-15.7349 Y11.5051 
G01 X-16.4349 Y12.2051 
G01 X-16.4349 Y13.1949 
G01 X-15.7349 Y13.8949 
G01 X-14.7451 Y13.8949 
G01 X-14.0451 Y13.1949 
G01 X-14.0451 Y13.0654 
G01 X-11.7954 Y13.0654 
G01 X-11.7954 Y20.1686 
G01 X-14.9218 Y23.2951 
G01 X-15.0137 Y23.2570 
G01 X-15.1636 Y23.2272 
G01 X-15.3164 Y23.2272 
G01 X-15.4663 Y23.2570 
G01 X-15.6075 Y23.3155 
G01 X-15.7345 Y23.4004 
G01 X-15.8426 Y23.5085 
G01 X-15.9275 Y23.6355 
G01 X-15.9810 Y23.7646 
G01 X-16.5581 Y23.7646 
G01 X-16.6510 Y23.7895 
G01 X-16.7344 Y23.8376 
G01 X-16.8024 Y23.9056 
G01 X-16.8505 Y23.9890 
G01 X-16.8754 Y24.0819 
G01 X-16.8754 Y35.4086 
G01 X-21.2255 Y39.7588 
G01 X-21.3118 Y39.7230 
G01 X-21.4961 Y39.6864 
G01 X-21.6839 Y39.6864 
G01 X-21.8682 Y39.7230 
G01 X-22.0417 Y39.7949 
G01 X-22.1979 Y39.8993 
G01 X-22.3307 Y40.0321 
G01 X-22.4351 Y40.1883 
G01 X-22.5069 Y40.3618 
G01 X-22.5436 Y40.5461 
G00 Z2.5400 
G00 X-22.5436 Y38.0061 
G01 Z-0.1500 F254.00 
G01 X-22.5436 Y38.1939 F508.00 
G01 X-22.5069 Y38.3782 
G01 X-22.4351 Y38.5517 
G01 X-22.3307 Y38.7079 
G01 X-22.1979 Y38.8407 
G01 X-22.0417 Y38.9451 
G01 X-21.8682 Y39.0170 
G01 X-21.6839 Y39.0536 
G01 X-21.4961 Y39.0536 
G01 X-21.3118 Y39.0170 
G01 X-21.1383 Y38.9451 
G01 X-20.9821 Y38.8407 
G01 X-20.8493 Y38.7079 
G01 X-20.7449 Y38.5517 
G01 X-20.6730 Y38.3782 
G01 X-20.6364 Y38.1939 
G01 X-20.6364 Y38.0061 
G01 X-20.6730 Y37.8218 
G01 X-20.7088 Y37.7355 
G01 X-17.5556 Y34.5824 
G01 X-17.4876 Y34.5144 
G01 X-17.4395 Y34.4310 
G01 X-17.4146 Y34.3381 
G01 X-17.4146 Y19.4154 
G01 X-15.9810 Y19.4154 
G01 X-15.9275 Y19.5445 
G01 X-15.8426 Y19.6715 
G01 X-15.7345 Y19.7796 
G01 X-15.6075 Y19.8645 
G01 X-15.4663 Y19.9230 
G01 X-15.3164 Y19.9528 
G01 X-15.1636 Y19.9528 
G01 X-15.0137 Y19.9230 
G01 X-14.8725 Y19.8645 
G01 X-14.7455 Y19.7796 
G01 X-14.6374 Y19.6715 
G01 X-14.5525 Y19.5445 
G01 X-14.4940 Y19.4033 
G01 X-14.4642 Y19.2534 
G01 X-14.4642 Y19.1006 
G01 X-14.4940 Y18.9507 
G01 X-14.5525 Y18.8095 
G01 X-14.6374 Y18.6825 
G01 X-14.7455 Y18.5744 
G01 X-14.8725 Y18.4895 
G01 X-15.0137 Y18.4310 
G01 X-15.1636 Y18.4012 
G01 X-15.3164 Y18.4012 
G01 X-15.3628 Y18.4104 
G01 X-20.4867 Y13.2865 
G01 X-20.3951 Y13.1949 
G01 X-20.3951 Y12.2051 
G01 X-21.0951 Y11.5051 
G01 X-22.0849 Y11.5051 
G01 X-22.7849 Y12.2051 
G01 X-22.7849 Y13.1949 
G01 X-22.0849 Y13.8949 
G01 X-21.0951 Y13.8949 
G01 X-21.0035 Y13.8033 
G01 X-16.1221 Y18.6846 
G01 X-17.8281 Y18.6846 
G01 X-17.9210 Y18.7095 
G01 X-18.0044 Y18.7576 
G01 X-18.0724 Y18.8256 
G01 X-18.1205 Y18.9090 
G01 X-18.1454 Y19.0019 
G01 X-18.1454 Y34.1386 
G01 X-21.2255 Y37.2188 
G01 X-21.3118 Y37.1830 
G01 X-21.4961 Y37.1464 
G01 X-21.6839 Y37.1464 
G01 X-21.8682 Y37.1830 
G01 X-22.0417 Y37.2549 
G01 X-22.1979 Y37.3593 
G01 X-22.3307 Y37.4921 
G01 X-22.4351 Y37.6483 
G01 X-22.5069 Y37.8218 
G01 X-22.5436 Y38.0061 
G00 Z2.5400 
G00 X-22.5436 Y35.4661 
G01 Z-0.1500 F254.00 
G01 X-22.5436 Y35.6539 F508.00 
G01 X-22.5069 Y35.8382 
G01 X-22.4351 Y36.0117 
G01 X-22.3307 Y36.1679 
G01 X-22.1979 Y36.3007 
G01 X-22.0417 Y36.4051 
G01 X-21.8682 Y36.4770 
G01 X-21.6839 Y36.5136 
G01 X-21.4961 Y36.5136 
G01 X-21.3118 Y36.4770 
G01 X-21.1383 Y36.4051 
G01 X-20.9821 Y36.3007 
G01 X-20.8493 Y36.1679 
G01 X-20.7449 Y36.0117 
G01 X-20.6730 Y35.8382 
G01 X-20.6364 Y35.6539 
G01 X-20.6364 Y35.4661 
G01 X-20.6730 Y35.2818 
G01 X-20.7088 Y35.1955 
G01 X-20.1686 Y34.6554 
G01 X-19.0019 Y34.6554 
G01 X-18.9090 Y34.6305 
G01 X-18.8256 Y34.5824 
G01 X-18.7576 Y34.5144 
G01 X-18.7095 Y34.4310 
G01 X-18.6846 Y34.3381 
G01 X-18.6846 Y27.8919 
G01 X-18.7095 Y27.7990 
G01 X-18.7576 Y27.7156 
G01 X-18.8256 Y27.6476 
G01 X-26.4456 Y20.0276 
G01 X-26.5290 Y19.9795 
G01 X-26.6219 Y19.9546 
G01 X-38.1481 Y19.9546 
G01 X-38.2410 Y19.9795 
G01 X-38.3244 Y20.0276 
G01 X-38.3924 Y20.0956 
G01 X-38.4405 Y20.1790 
G01 X-38.4654 Y20.2719 
G01 X-38.4654 Y61.0081 
G01 X-38.4405 Y61.1010 
G01 X-38.3924 Y61.1844 
G01 X-38.3244 Y61.2524 
G01 X-30.7044 Y68.8724 
G01 X-30.6210 Y68.9205 
G01 X-30.5281 Y68.9454 
G01 X-10.1119 Y68.9454 
G01 X-10.0190 Y68.9205 
G01 X-9.9356 Y68.8724 
G01 X-9.8676 Y68.8044 
G01 X-8.2369 Y67.1736 
G01 X-8.2226 Y67.1949 
G01 X-8.1145 Y67.3030 
G01 X-7.9875 Y67.3879 
G01 X-7.8463 Y67.4464 
G01 X-7.6964 Y67.4762 
G01 X-7.5436 Y67.4762 
G01 X-7.3937 Y67.4464 
G01 X-7.2525 Y67.3879 
G01 X-7.1255 Y67.3030 
G01 X-7.0174 Y67.1949 
G01 X-6.9325 Y67.0679 
G01 X-6.8740 Y66.9267 
G01 X-6.8442 Y66.7768 
G01 X-6.8442 Y65.3032 
G01 X-6.8740 Y65.1533 
G01 X-6.9325 Y65.0121 
G01 X-7.0174 Y64.8851 
G01 X-7.1255 Y64.7770 
G01 X-7.2525 Y64.6921 
G01 X-7.3937 Y64.6336 
G01 X-7.5436 Y64.6038 
G01 X-7.6964 Y64.6038 
G01 X-7.8463 Y64.6336 
G01 X-7.9875 Y64.6921 
G01 X-8.1145 Y64.7770 
G01 X-8.2226 Y64.8851 
G01 X-8.3075 Y65.0121 
G01 X-8.3660 Y65.1533 
G01 X-8.3958 Y65.3032 
G01 X-8.3958 Y66.2990 
G01 X-10.3114 Y68.2146 
G01 X-30.3286 Y68.2146 
G01 X-37.7346 Y60.8086 
G01 X-37.7346 Y20.6854 
G01 X-26.8214 Y20.6854 
G01 X-19.4154 Y28.0914 
G01 X-19.4154 Y33.9246 
G01 X-20.3681 Y33.9246 
G01 X-20.4610 Y33.9495 
G01 X-20.5444 Y33.9976 
G01 X-21.2255 Y34.6788 
G01 X-21.3118 Y34.6430 
G01 X-21.4961 Y34.6064 
G01 X-21.6839 Y34.6064 
G01 X-21.8682 Y34.6430 
G01 X-22.0417 Y34.7149 
G01 X-22.1979 Y34.8193 
G01 X-22.3307 Y34.9521 
G01 X-22.4351 Y35.1083 
G01 X-22.5069 Y35.2818 
G01 X-22.5436 Y35.4661 
G00 Z2.5400 
G00 X-22.5436 Y32.9261 
G01 Z-0.1500 F254.00 
G01 X-22.5436 Y33.1139 F508.00 
G01 X-22.5069 Y33.2982 
G01 X-22.4351 Y33.4717 
G01 X-22.3307 Y33.6279 
G01 X-22.1979 Y33.7607 
G01 X-22.0417 Y33.8651 
G01 X-21.8682 Y33.9370 
G01 X-21.6839 Y33.9736 
G01 X-21.4961 Y33.9736 
G01 X-21.3118 Y33.9370 
G01 X-21.1383 Y33.8651 
G01 X-20.9821 Y33.7607 
G01 X-20.8493 Y33.6279 
G01 X-20.7449 Y33.4717 
G01 X-20.6730 Y33.2982 
G01 X-20.6364 Y33.1139 
G01 X-20.6364 Y32.9261 
G01 X-20.6730 Y32.7418 
G01 X-20.7449 Y32.5683 
G01 X-20.8493 Y32.4121 
G01 X-20.9821 Y32.2793 
G01 X-21.1383 Y32.1749 
G01 X-21.3118 Y32.1030 
G01 X-21.4961 Y32.0664 
G01 X-21.6839 Y32.0664 
G01 X-21.8682 Y32.1030 
G01 X-22.0417 Y32.1749 
G01 X-22.1979 Y32.2793 
G01 X-22.3307 Y32.4121 
G01 X-22.4351 Y32.5683 
G01 X-22.5069 Y32.7418 
G01 X-22.5436 Y32.9261 
G00 Z2.5400 
G00 X-22.5436 Y30.3861 
G01 Z-0.1500 F254.00 
G01 X-22.5436 Y30.5739 F508.00 
G01 X-22.5069 Y30.7582 
G01 X-22.4351 Y30.9317 
G01 X-22.3307 Y31.0879 
G01 X-22.1979 Y31.2207 
G01 X-22.0417 Y31.3251 
G01 X-21.8682 Y31.3970 
G01 X-21.6839 Y31.4336 
G01 X-21.4961 Y31.4336 
G01 X-21.3118 Y31.3970 
G01 X-21.1383 Y31.3251 
G01 X-20.9821 Y31.2207 
G01 X-20.8493 Y31.0879 
G01 X-20.7449 Y30.9317 
G01 X-20.6730 Y30.7582 
G01 X-20.6364 Y30.5739 
G01 X-20.6364 Y30.3861 
G01 X-20.6730 Y30.2018 
G01 X-20.7449 Y30.0283 
G01 X-20.8493 Y29.8721 
G01 X-20.9821 Y29.7393 
G01 X-21.1383 Y29.6349 
G01 X-21.3118 Y29.5630 
G01 X-21.4961 Y29.5264 
G01 X-21.6839 Y29.5264 
G01 X-21.8682 Y29.5630 
G01 X-22.0417 Y29.6349 
G01 X-22.1979 Y29.7393 
G01 X-22.3307 Y29.8721 
G01 X-22.4351 Y30.0283 
G01 X-22.5069 Y30.2018 
G01 X-22.5436 Y30.3861 
G00 Z2.5400 
G00 X-30.1636 Y43.0861 
G01 Z-0.1500 F254.00 
G01 X-30.1636 Y43.2739 F508.00 
G01 X-30.1270 Y43.4582 
G01 X-30.0551 Y43.6317 
G01 X-29.9507 Y43.7879 
G01 X-29.8179 Y43.9207 
G01 X-29.6617 Y44.0251 
G01 X-29.4882 Y44.0969 
G01 X-29.3039 Y44.1336 
G01 X-29.1161 Y44.1336 
G01 X-28.9318 Y44.0969 
G01 X-28.7583 Y44.0251 
G01 X-28.6021 Y43.9207 
G01 X-28.4693 Y43.7879 
G01 X-28.3649 Y43.6317 
G01 X-28.2930 Y43.4582 
G01 X-28.2564 Y43.2739 
G01 X-28.2564 Y43.0861 
G01 X-28.2930 Y42.9018 
G01 X-28.3649 Y42.7283 
G01 X-28.4693 Y42.5721 
G01 X-28.6021 Y42.4393 
G01 X-28.7583 Y42.3349 
G01 X-28.9318 Y42.2630 
G01 X-29.1161 Y42.2264 
G01 X-29.3039 Y42.2264 
G01 X-29.4882 Y42.2630 
G01 X-29.6617 Y42.3349 
G01 X-29.8179 Y42.4393 
G01 X-29.9507 Y42.5721 
G01 X-30.0551 Y42.7283 
G01 X-30.1270 Y42.9018 
G01 X-30.1636 Y43.0861 
G00 Z2.5400 
G00 X-30.0551 Y51.2517 
G01 Z-0.1500 F254.00 
G01 X-29.9507 Y51.4079 F508.00 
G01 X-29.8179 Y51.5407 
G01 X-29.6617 Y51.6451 
G01 X-29.4882 Y51.7170 
G01 X-29.3039 Y51.7536 
G01 X-29.1161 Y51.7536 
G01 X-28.9318 Y51.7170 
G01 X-28.7583 Y51.6451 
G01 X-28.6021 Y51.5407 
G01 X-28.4693 Y51.4079 
G01 X-28.3649 Y51.2517 
G01 X-28.2930 Y51.0782 
G01 X-28.2564 Y50.8939 
G01 X-28.2564 Y50.7061 
G01 X-28.2930 Y50.5218 
G01 X-28.3649 Y50.3483 
G01 X-28.4693 Y50.1921 
G01 X-28.6021 Y50.0593 
G01 X-28.7583 Y49.9549 
G01 X-28.9318 Y49.8830 
G01 X-29.1161 Y49.8464 
G01 X-29.3039 Y49.8464 
G01 X-29.4882 Y49.8830 
G01 X-29.6617 Y49.9549 
G01 X-29.8179 Y50.0593 
G01 X-29.9507 Y50.1921 
G01 X-30.0551 Y50.3483 
G01 X-30.0908 Y50.4346 
G01 X-32.9412 Y50.4346 
G01 X-33.0270 Y50.3055 
G01 X-33.1351 Y50.1974 
G01 X-33.2621 Y50.1125 
G01 X-33.4033 Y50.0540 
G01 X-33.5532 Y50.0242 
G01 X-35.0268 Y50.0242 
G01 X-35.1767 Y50.0540 
G01 X-35.3179 Y50.1125 
G01 X-35.4449 Y50.1974 
G01 X-35.5530 Y50.3055 
G01 X-35.6379 Y50.4325 
G01 X-35.6964 Y50.5737 
G01 X-35.7262 Y50.7236 
G01 X-35.7262 Y50.8764 
G01 X-35.6964 Y51.0263 
G01 X-35.6379 Y51.1675 
G01 X-35.5530 Y51.2945 
G01 X-35.4449 Y51.4026 
G01 X-35.3179 Y51.4875 
G01 X-35.1767 Y51.5460 
G01 X-35.0268 Y51.5758 
G01 X-33.5532 Y51.5758 
G01 X-33.4033 Y51.5460 
G01 X-33.2621 Y51.4875 
G01 X-33.1351 Y51.4026 
G01 X-33.0270 Y51.2945 
G01 X-32.9421 Y51.1675 
G01 X-30.0908 Y51.1654 
G01 X-30.0551 Y51.2517 
G00 Z2.5400 
G00 X-30.0551 Y56.3317 
G01 Z-0.1500 F254.00 
G01 X-29.9507 Y56.4879 F508.00 
G01 X-29.8179 Y56.6207 
G01 X-29.6617 Y56.7251 
G01 X-29.4882 Y56.7970 
G01 X-29.3039 Y56.8336 
G01 X-29.1161 Y56.8336 
G01 X-28.9318 Y56.7970 
G01 X-28.7583 Y56.7251 
G01 X-28.6021 Y56.6207 
G01 X-28.4693 Y56.4879 
G01 X-28.3649 Y56.3317 
G01 X-28.2930 Y56.1582 
G01 X-28.2564 Y55.9739 
G01 X-28.2564 Y55.7861 
G01 X-28.2930 Y55.6018 
G01 X-28.3649 Y55.4283 
G01 X-28.4693 Y55.2721 
G01 X-28.6021 Y55.1393 
G01 X-28.7583 Y55.0349 
G01 X-28.9318 Y54.9630 
G01 X-29.1161 Y54.9264 
G01 X-29.3039 Y54.9264 
G01 X-29.4882 Y54.9630 
G01 X-29.6617 Y55.0349 
G01 X-29.8179 Y55.1393 
G01 X-29.9507 Y55.2721 
G01 X-30.0551 Y55.4283 
G01 X-30.0908 Y55.5146 
G01 X-32.9412 Y55.5146 
G01 X-33.0270 Y55.3855 
G01 X-33.1351 Y55.2774 
G01 X-33.2621 Y55.1925 
G01 X-33.4033 Y55.1340 
G01 X-33.5532 Y55.1042 
G01 X-35.0268 Y55.1042 
G01 X-35.1767 Y55.1340 
G01 X-35.3179 Y55.1925 
G01 X-35.4449 Y55.2774 
G01 X-35.5530 Y55.3855 
G01 X-35.6379 Y55.5125 
G01 X-35.6964 Y55.6537 
G01 X-35.7262 Y55.8036 
G01 X-35.7262 Y55.9564 
G01 X-35.6964 Y56.1063 
G01 X-35.6379 Y56.2475 
G01 X-35.5530 Y56.3745 
G01 X-35.4449 Y56.4826 
G01 X-35.3179 Y56.5675 
G01 X-35.1767 Y56.6260 
G01 X-35.0268 Y56.6558 
G01 X-33.5532 Y56.6558 
G01 X-33.4033 Y56.6260 
G01 X-33.2621 Y56.5675 
G01 X-33.1351 Y56.4826 
G01 X-33.0270 Y56.3745 
G01 X-32.9421 Y56.2475 
G01 X-30.0908 Y56.2454 
G01 X-30.0551 Y56.3317 
G00 Z2.5400 
G00 X-30.0551 Y61.4117 
G01 Z-0.1500 F254.00 
G01 X-29.9507 Y61.5679 F508.00 
G01 X-29.8179 Y61.7007 
G01 X-29.6617 Y61.8051 
G01 X-29.4882 Y61.8770 
G01 X-29.3039 Y61.9136 
G01 X-29.1161 Y61.9136 
G01 X-28.9318 Y61.8770 
G01 X-28.7583 Y61.8051 
G01 X-28.6021 Y61.7007 
G01 X-28.4693 Y61.5679 
G01 X-28.3649 Y61.4117 
G01 X-28.2930 Y61.2382 
G01 X-28.2564 Y61.0539 
G01 X-28.2564 Y60.8661 
G01 X-28.2930 Y60.6818 
G01 X-28.3649 Y60.5083 
G01 X-28.4693 Y60.3521 
G01 X-28.6021 Y60.2193 
G01 X-28.7583 Y60.1149 
G01 X-28.9318 Y60.0430 
G01 X-29.1161 Y60.0064 
G01 X-29.3039 Y60.0064 
G01 X-29.4882 Y60.0430 
G01 X-29.6617 Y60.1149 
G01 X-29.8179 Y60.2193 
G01 X-29.9507 Y60.3521 
G01 X-30.0551 Y60.5083 
G01 X-30.0908 Y60.5946 
G01 X-32.9412 Y60.5946 
G01 X-33.0270 Y60.4655 
G01 X-33.1351 Y60.3574 
G01 X-33.2621 Y60.2725 
G01 X-33.4033 Y60.2140 
G01 X-33.5532 Y60.1842 
G01 X-35.0268 Y60.1842 
G01 X-35.1767 Y60.2140 
G01 X-35.3179 Y60.2725 
G01 X-35.4449 Y60.3574 
G01 X-35.5530 Y60.4655 
G01 X-35.6379 Y60.5925 
G01 X-35.6964 Y60.7337 
G01 X-35.7262 Y60.8836 
G01 X-35.7262 Y61.0364 
G01 X-35.6964 Y61.1863 
G01 X-35.6379 Y61.3275 
G01 X-35.5530 Y61.4545 
G01 X-35.4449 Y61.5626 
G01 X-35.3179 Y61.6475 
G01 X-35.1767 Y61.7060 
G01 X-35.0268 Y61.7358 
G01 X-33.5532 Y61.7358 
G01 X-33.4033 Y61.7060 
G01 X-33.2621 Y61.6475 
G01 X-33.1351 Y61.5626 
G01 X-33.0270 Y61.4545 
G01 X-32.9421 Y61.3275 
G01 X-30.0908 Y61.3254 
G01 X-30.0551 Y61.4117 
G00 Z2.5400 
G00 X-33.5532 Y47.4842 
G01 Z-0.1500 F254.00 
G01 X-35.0268 Y47.4842 F508.00 
G01 X-35.1767 Y47.5140 
G01 X-35.3179 Y47.5725 
G01 X-35.4449 Y47.6574 
G01 X-35.5530 Y47.7655 
G01 X-35.6379 Y47.8925 
G01 X-35.6964 Y48.0337 
G01 X-35.7262 Y48.1836 
G01 X-35.7262 Y48.3364 
G01 X-35.6964 Y48.4863 
G01 X-35.6379 Y48.6275 
G01 X-35.5530 Y48.7545 
G01 X-35.4449 Y48.8626 
G01 X-35.3179 Y48.9475 
G01 X-35.1767 Y49.0060 
G01 X-35.0268 Y49.0358 
G01 X-33.5532 Y49.0358 
G01 X-33.4033 Y49.0060 
G01 X-33.2621 Y48.9475 
G01 X-33.1351 Y48.8626 
G01 X-33.0270 Y48.7545 
G01 X-32.9421 Y48.6275 
G01 X-30.0908 Y48.6254 
G01 X-30.0551 Y48.7117 
G01 X-29.9507 Y48.8679 
G01 X-29.8179 Y49.0007 
G01 X-29.6617 Y49.1051 
G01 X-29.4882 Y49.1770 
G01 X-29.3039 Y49.2136 
G01 X-29.1161 Y49.2136 
G01 X-28.9318 Y49.1770 
G01 X-28.7583 Y49.1051 
G01 X-28.6021 Y49.0007 
G01 X-28.4693 Y48.8679 
G01 X-28.3649 Y48.7117 
G01 X-28.2930 Y48.5382 
G01 X-28.2564 Y48.3539 
G01 X-28.2564 Y48.1661 
G01 X-28.2930 Y47.9818 
G01 X-28.3649 Y47.8083 
G01 X-28.4693 Y47.6521 
G01 X-28.6021 Y47.5193 
G01 X-28.7583 Y47.4149 
G01 X-28.9318 Y47.3430 
G01 X-29.1161 Y47.3064 
G01 X-29.3039 Y47.3064 
G01 X-29.4882 Y47.3430 
G01 X-29.6617 Y47.4149 
G01 X-29.8179 Y47.5193 
G01 X-29.9507 Y47.6521 
G01 X-30.0551 Y47.8083 
G01 X-30.0908 Y47.8946 
G01 X-32.9412 Y47.8946 
G01 X-33.0270 Y47.7655 
G01 X-33.1351 Y47.6574 
G01 X-33.2621 Y47.5725 
G01 X-33.4033 Y47.5140 
G01 X-33.5532 Y47.4842 
G00 Z2.5400 
G00 X-33.5532 Y52.5642 
G01 Z-0.1500 F254.00 
G01 X-35.0268 Y52.5642 F508.00 
G01 X-35.1767 Y52.5940 
G01 X-35.3179 Y52.6525 
G01 X-35.4449 Y52.7374 
G01 X-35.5530 Y52.8455 
G01 X-35.6379 Y52.9725 
G01 X-35.6964 Y53.1137 
G01 X-35.7262 Y53.2636 
G01 X-35.7262 Y53.4164 
G01 X-35.6964 Y53.5663 
G01 X-35.6379 Y53.7075 
G01 X-35.5530 Y53.8345 
G01 X-35.4449 Y53.9426 
G01 X-35.3179 Y54.0275 
G01 X-35.1767 Y54.0860 
G01 X-35.0268 Y54.1158 
G01 X-33.5532 Y54.1158 
G01 X-33.4033 Y54.0860 
G01 X-33.2621 Y54.0275 
G01 X-33.1351 Y53.9426 
G01 X-33.0270 Y53.8345 
G01 X-32.9421 Y53.7075 
G01 X-30.0908 Y53.7054 
G01 X-30.0551 Y53.7917 
G01 X-29.9507 Y53.9479 
G01 X-29.8179 Y54.0807 
G01 X-29.6617 Y54.1851 
G01 X-29.4882 Y54.2570 
G01 X-29.3039 Y54.2936 
G01 X-29.1161 Y54.2936 
G01 X-28.9318 Y54.2570 
G01 X-28.7583 Y54.1851 
G01 X-28.6021 Y54.0807 
G01 X-28.4693 Y53.9479 
G01 X-28.3649 Y53.7917 
G01 X-28.2930 Y53.6182 
G01 X-28.2564 Y53.4339 
G01 X-28.2564 Y53.2461 
G01 X-28.2930 Y53.0618 
G01 X-28.3649 Y52.8883 
G01 X-28.4693 Y52.7321 
G01 X-28.6021 Y52.5993 
G01 X-28.7583 Y52.4949 
G01 X-28.9318 Y52.4230 
G01 X-29.1161 Y52.3864 
G01 X-29.3039 Y52.3864 
G01 X-29.4882 Y52.4230 
G01 X-29.6617 Y52.4949 
G01 X-29.8179 Y52.5993 
G01 X-29.9507 Y52.7321 
G01 X-30.0551 Y52.8883 
G01 X-30.0908 Y52.9746 
G01 X-32.9412 Y52.9746 
G01 X-33.0270 Y52.8455 
G01 X-33.1351 Y52.7374 
G01 X-33.2621 Y52.6525 
G01 X-33.4033 Y52.5940 
G01 X-33.5532 Y52.5642 
G00 Z2.5400 
G00 X-33.5532 Y57.6442 
G01 Z-0.1500 F254.00 
G01 X-35.0268 Y57.6442 F508.00 
G01 X-35.1767 Y57.6740 
G01 X-35.3179 Y57.7325 
G01 X-35.4449 Y57.8174 
G01 X-35.5530 Y57.9255 
G01 X-35.6379 Y58.0525 
G01 X-35.6964 Y58.1937 
G01 X-35.7262 Y58.3436 
G01 X-35.7262 Y58.4964 
G01 X-35.6964 Y58.6463 
G01 X-35.6379 Y58.7875 
G01 X-35.5530 Y58.9145 
G01 X-35.4449 Y59.0226 
G01 X-35.3179 Y59.1075 
G01 X-35.1767 Y59.1660 
G01 X-35.0268 Y59.1958 
G01 X-33.5532 Y59.1958 
G01 X-33.4033 Y59.1660 
G01 X-33.2621 Y59.1075 
G01 X-33.1351 Y59.0226 
G01 X-33.0270 Y58.9145 
G01 X-32.9421 Y58.7875 
G01 X-30.0908 Y58.7854 
G01 X-30.0551 Y58.8717 
G01 X-29.9507 Y59.0279 
G01 X-29.8179 Y59.1607 
G01 X-29.6617 Y59.2651 
G01 X-29.4882 Y59.3370 
G01 X-29.3039 Y59.3736 
G01 X-29.1161 Y59.3736 
G01 X-28.9318 Y59.3370 
G01 X-28.7583 Y59.2651 
G01 X-28.6021 Y59.1607 
G01 X-28.4693 Y59.0279 
G01 X-28.3649 Y58.8717 
G01 X-28.2930 Y58.6982 
G01 X-28.2564 Y58.5139 
G01 X-28.2564 Y58.3261 
G01 X-28.2930 Y58.1418 
G01 X-28.3649 Y57.9683 
G01 X-28.4693 Y57.8121 
G01 X-28.6021 Y57.6793 
G01 X-28.7583 Y57.5749 
G01 X-28.9318 Y57.5030 
G01 X-29.1161 Y57.4664 
G01 X-29.3039 Y57.4664 
G01 X-29.4882 Y57.5030 
G01 X-29.6617 Y57.5749 
G01 X-29.8179 Y57.6793 
G01 X-29.9507 Y57.8121 
G01 X-30.0551 Y57.9683 
G01 X-30.0908 Y58.0546 
G01 X-32.9412 Y58.0546 
G01 X-33.0270 Y57.9255 
G01 X-33.1351 Y57.8174 
G01 X-33.2621 Y57.7325 
G01 X-33.4033 Y57.6740 
G01 X-33.5532 Y57.6442 
G00 Z2.5400 
G00 X-35.0268 Y41.4158 
G01 Z-0.1500 F254.00 
G01 X-33.5532 Y41.4158 F508.00 
G01 X-33.4033 Y41.3860 
G01 X-33.2621 Y41.3275 
G01 X-33.1351 Y41.2426 
G01 X-33.0270 Y41.1345 
G01 X-32.9421 Y41.0075 
G01 X-32.8836 Y40.8663 
G01 X-32.8538 Y40.7164 
G01 X-32.8538 Y40.5636 
G01 X-32.8836 Y40.4137 
G01 X-32.9421 Y40.2725 
G01 X-33.0270 Y40.1455 
G01 X-33.1351 Y40.0374 
G01 X-33.1564 Y40.0231 
G01 X-31.5986 Y38.4654 
G01 X-30.0908 Y38.4654 
G01 X-30.0551 Y38.5517 
G01 X-29.9507 Y38.7079 
G01 X-29.8179 Y38.8407 
G01 X-29.6617 Y38.9451 
G01 X-29.4882 Y39.0170 
G01 X-29.3039 Y39.0536 
G01 X-29.1161 Y39.0536 
G01 X-28.9318 Y39.0170 
G01 X-28.7583 Y38.9451 
G01 X-28.6021 Y38.8407 
G01 X-28.4693 Y38.7079 
G01 X-28.3649 Y38.5517 
G01 X-28.2930 Y38.3782 
G01 X-28.2564 Y38.1939 
G01 X-28.2564 Y38.0061 
G01 X-28.2930 Y37.8218 
G01 X-28.3649 Y37.6483 
G01 X-28.4693 Y37.4921 
G01 X-28.6021 Y37.3593 
G01 X-28.7583 Y37.2549 
G01 X-28.9318 Y37.1830 
G01 X-29.1161 Y37.1464 
G01 X-29.3039 Y37.1464 
G01 X-29.4882 Y37.1830 
G01 X-29.6617 Y37.2549 
G01 X-29.8179 Y37.3593 
G01 X-29.9507 Y37.4921 
G01 X-30.0551 Y37.6483 
G01 X-30.0908 Y37.7346 
G01 X-31.7981 Y37.7346 
G01 X-31.8910 Y37.7595 
G01 X-31.9744 Y37.8076 
G01 X-32.0424 Y37.8756 
G01 X-34.0310 Y39.8642 
G01 X-35.0268 Y39.8642 
G01 X-35.1767 Y39.8940 
G01 X-35.3179 Y39.9525 
G01 X-35.4449 Y40.0374 
G01 X-35.5530 Y40.1455 
G01 X-35.6379 Y40.2725 
G01 X-35.6964 Y40.4137 
G01 X-35.7262 Y40.5636 
G01 X-35.7262 Y40.7164 
G01 X-35.6964 Y40.8663 
G01 X-35.6379 Y41.0075 
G01 X-35.5530 Y41.1345 
G01 X-35.4449 Y41.2426 
G01 X-35.3179 Y41.3275 
G01 X-35.1767 Y41.3860 
G01 X-35.0268 Y41.4158 
G00 Z2.5400 
G00 X-35.0268 Y38.8758 
G01 Z-0.1500 F254.00 
G01 X-33.5532 Y38.8758 F508.00 
G01 X-33.4033 Y38.8460 
G01 X-33.2621 Y38.7875 
G01 X-33.1351 Y38.7026 
G01 X-33.0270 Y38.5945 
G01 X-32.9421 Y38.4675 
G01 X-32.8836 Y38.3263 
G01 X-32.8538 Y38.1764 
G01 X-32.8538 Y38.0236 
G01 X-32.8836 Y37.8737 
G01 X-32.9421 Y37.7325 
G01 X-33.0270 Y37.6055 
G01 X-33.1351 Y37.4974 
G01 X-33.1564 Y37.4831 
G01 X-31.5986 Y35.9254 
G01 X-30.0908 Y35.9254 
G01 X-30.0551 Y36.0117 
G01 X-29.9507 Y36.1679 
G01 X-29.8179 Y36.3007 
G01 X-29.6617 Y36.4051 
G01 X-29.4882 Y36.4770 
G01 X-29.3039 Y36.5136 
G01 X-29.1161 Y36.5136 
G01 X-28.9318 Y36.4770 
G01 X-28.7583 Y36.4051 
G01 X-28.6021 Y36.3007 
G01 X-28.4693 Y36.1679 
G01 X-28.3649 Y36.0117 
G01 X-28.2930 Y35.8382 
G01 X-28.2564 Y35.6539 
G01 X-28.2564 Y35.4661 
G01 X-28.2930 Y35.2818 
G01 X-28.3649 Y35.1083 
G01 X-28.4693 Y34.9521 
G01 X-28.6021 Y34.8193 
G01 X-28.7583 Y34.7149 
G01 X-28.9318 Y34.6430 
G01 X-29.1161 Y34.6064 
G01 X-29.3039 Y34.6064 
G01 X-29.4882 Y34.6430 
G01 X-29.6617 Y34.7149 
G01 X-29.8179 Y34.8193 
G01 X-29.9507 Y34.9521 
G01 X-30.0551 Y35.1083 
G01 X-30.0908 Y35.1946 
G01 X-31.7981 Y35.1946 
G01 X-31.8910 Y35.2195 
G01 X-31.9744 Y35.2676 
G01 X-32.0424 Y35.3356 
G01 X-34.0310 Y37.3242 
G01 X-35.0268 Y37.3242 
G01 X-35.1767 Y37.3540 
G01 X-35.3179 Y37.4125 
G01 X-35.4449 Y37.4974 
G01 X-35.5530 Y37.6055 
G01 X-35.6379 Y37.7325 
G01 X-35.6964 Y37.8737 
G01 X-35.7262 Y38.0236 
G01 X-35.7262 Y38.1764 
G01 X-35.6964 Y38.3263 
G01 X-35.6379 Y38.4675 
G01 X-35.5530 Y38.5945 
G01 X-35.4449 Y38.7026 
G01 X-35.3179 Y38.7875 
G01 X-35.1767 Y38.8460 
G01 X-35.0268 Y38.8758 
G00 Z2.5400 
G00 X-35.0268 Y36.3358 
G01 Z-0.1500 F254.00 
G01 X-33.5532 Y36.3358 F508.00 
G01 X-33.4033 Y36.3060 
G01 X-33.2621 Y36.2475 
G01 X-33.1351 Y36.1626 
G01 X-33.0270 Y36.0545 
G01 X-32.9421 Y35.9275 
G01 X-32.8836 Y35.7863 
G01 X-32.8538 Y35.6364 
G01 X-32.8538 Y35.4836 
G01 X-32.8836 Y35.3337 
G01 X-32.9421 Y35.1925 
G01 X-33.0270 Y35.0655 
G01 X-33.1351 Y34.9574 
G01 X-33.1564 Y34.9431 
G01 X-31.5986 Y33.3854 
G01 X-30.0908 Y33.3854 
G01 X-30.0551 Y33.4717 
G01 X-29.9507 Y33.6279 
G01 X-29.8179 Y33.7607 
G01 X-29.6617 Y33.8651 
G01 X-29.4882 Y33.9370 
G01 X-29.3039 Y33.9736 
G01 X-29.1161 Y33.9736 
G01 X-28.9318 Y33.9370 
G01 X-28.7583 Y33.8651 
G01 X-28.6021 Y33.7607 
G01 X-28.4693 Y33.6279 
G01 X-28.3649 Y33.4717 
G01 X-28.2930 Y33.2982 
G01 X-28.2564 Y33.1139 
G01 X-28.2564 Y32.9261 
G01 X-28.2930 Y32.7418 
G01 X-28.3649 Y32.5683 
G01 X-28.4693 Y32.4121 
G01 X-28.6021 Y32.2793 
G01 X-28.7583 Y32.1749 
G01 X-28.9318 Y32.1030 
G01 X-29.1161 Y32.0664 
G01 X-29.3039 Y32.0664 
G01 X-29.4882 Y32.1030 
G01 X-29.6617 Y32.1749 
G01 X-29.8179 Y32.2793 
G01 X-29.9507 Y32.4121 
G01 X-30.0551 Y32.5683 
G01 X-30.0908 Y32.6546 
G01 X-31.7981 Y32.6546 
G01 X-31.8910 Y32.6795 
G01 X-31.9744 Y32.7276 
G01 X-32.0424 Y32.7956 
G01 X-34.0310 Y34.7842 
G01 X-35.0268 Y34.7842 
G01 X-35.1767 Y34.8140 
G01 X-35.3179 Y34.8725 
G01 X-35.4449 Y34.9574 
G01 X-35.5530 Y35.0655 
G01 X-35.6379 Y35.1925 
G01 X-35.6964 Y35.3337 
G01 X-35.7262 Y35.4836 
G01 X-35.7262 Y35.6364 
G01 X-35.6964 Y35.7863 
G01 X-35.6379 Y35.9275 
G01 X-35.5530 Y36.0545 
G01 X-35.4449 Y36.1626 
G01 X-35.3179 Y36.2475 
G01 X-35.1767 Y36.3060 
G01 X-35.0268 Y36.3358 
G00 Z2.5400 
G00 X-35.0268 Y33.7958 
G01 Z-0.1500 F254.00 
G01 X-33.5532 Y33.7958 F508.00 
G01 X-33.4033 Y33.7660 
G01 X-33.2621 Y33.7075 
G01 X-33.1351 Y33.6226 
G01 X-33.0270 Y33.5145 
G01 X-32.9421 Y33.3875 
G01 X-32.8836 Y33.2463 
G01 X-32.8538 Y33.0964 
G01 X-32.8538 Y32.9436 
G01 X-32.8836 Y32.7937 
G01 X-32.9421 Y32.6525 
G01 X-33.0270 Y32.5255 
G01 X-33.1351 Y32.4174 
G01 X-33.1564 Y32.4031 
G01 X-31.5986 Y30.8454 
G01 X-30.0908 Y30.8454 
G01 X-30.0551 Y30.9317 
G01 X-29.9507 Y31.0879 
G01 X-29.8179 Y31.2207 
G01 X-29.6617 Y31.3251 
G01 X-29.4882 Y31.3970 
G01 X-29.3039 Y31.4336 
G01 X-29.1161 Y31.4336 
G01 X-28.9318 Y31.3970 
G01 X-28.7583 Y31.3251 
G01 X-28.6021 Y31.2207 
G01 X-28.4693 Y31.0879 
G01 X-28.3649 Y30.9317 
G01 X-28.2930 Y30.7582 
G01 X-28.2564 Y30.5739 
G01 X-28.2564 Y30.3861 
G01 X-28.2930 Y30.2018 
G01 X-28.3649 Y30.0283 
G01 X-28.4693 Y29.8721 
G01 X-28.6021 Y29.7393 
G01 X-28.7583 Y29.6349 
G01 X-28.9318 Y29.5630 
G01 X-29.1161 Y29.5264 
G01 X-29.3039 Y29.5264 
G01 X-29.4882 Y29.5630 
G01 X-29.6617 Y29.6349 
G01 X-29.8179 Y29.7393 
G01 X-29.9507 Y29.8721 
G01 X-30.0551 Y30.0283 
G01 X-30.0908 Y30.1146 
G01 X-31.7981 Y30.1146 
G01 X-31.8910 Y30.1395 
G01 X-31.9744 Y30.1876 
G01 X-32.0424 Y30.2556 
G01 X-34.0310 Y32.2442 
G01 X-35.0268 Y32.2442 
G01 X-35.1767 Y32.2740 
G01 X-35.3179 Y32.3325 
G01 X-35.4449 Y32.4174 
G01 X-35.5530 Y32.5255 
G01 X-35.6379 Y32.6525 
G01 X-35.6964 Y32.7937 
G01 X-35.7262 Y32.9436 
G01 X-35.7262 Y33.0964 
G01 X-35.6964 Y33.2463 
G01 X-35.6379 Y33.3875 
G01 X-35.5530 Y33.5145 
G01 X-35.4449 Y33.6226 
G01 X-35.3179 Y33.7075 
G01 X-35.1767 Y33.7660 
G01 X-35.0268 Y33.7958 
G00 Z2.5400 
G00 X-35.0268 Y31.2558 
G01 Z-0.1500 F254.00 
G01 X-33.5532 Y31.2558 F508.00 
G01 X-33.4033 Y31.2260 
G01 X-33.2621 Y31.1675 
G01 X-33.1351 Y31.0826 
G01 X-33.0270 Y30.9745 
G01 X-32.9421 Y30.8475 
G01 X-32.8836 Y30.7063 
G01 X-32.8538 Y30.5564 
G01 X-32.8538 Y30.4036 
G01 X-32.8836 Y30.2537 
G01 X-32.9421 Y30.1125 
G01 X-33.0270 Y29.9855 
G01 X-33.1351 Y29.8774 
G01 X-33.1564 Y29.8631 
G01 X-31.5986 Y28.3054 
G01 X-30.0908 Y28.3054 
G01 X-30.0551 Y28.3917 
G01 X-29.9507 Y28.5479 
G01 X-29.8179 Y28.6807 
G01 X-29.6617 Y28.7851 
G01 X-29.4882 Y28.8570 
G01 X-29.3039 Y28.8936 
G01 X-29.1161 Y28.8936 
G01 X-28.9318 Y28.8570 
G01 X-28.7583 Y28.7851 
G01 X-28.6021 Y28.6807 
G01 X-28.4693 Y28.5479 
G01 X-28.3649 Y28.3917 
G01 X-28.2930 Y28.2182 
G01 X-28.2564 Y28.0339 
G01 X-28.2564 Y27.8461 
G01 X-28.2930 Y27.6618 
G01 X-28.3649 Y27.4883 
G01 X-28.4693 Y27.3321 
G01 X-28.6021 Y27.1993 
G01 X-28.7583 Y27.0949 
G01 X-28.9318 Y27.0230 
G01 X-29.1161 Y26.9864 
G01 X-29.3039 Y26.9864 
G01 X-29.4882 Y27.0230 
G01 X-29.6617 Y27.0949 
G01 X-29.8179 Y27.1993 
G01 X-29.9507 Y27.3321 
G01 X-30.0551 Y27.4883 
G01 X-30.0908 Y27.5746 
G01 X-31.7981 Y27.5746 
G01 X-31.8910 Y27.5995 
G01 X-31.9744 Y27.6476 
G01 X-32.0424 Y27.7156 
G01 X-34.0310 Y29.7042 
G01 X-35.0268 Y29.7042 
G01 X-35.1767 Y29.7340 
G01 X-35.3179 Y29.7925 
G01 X-35.4449 Y29.8774 
G01 X-35.5530 Y29.9855 
G01 X-35.6379 Y30.1125 
G01 X-35.6964 Y30.2537 
G01 X-35.7262 Y30.4036 
G01 X-35.7262 Y30.5564 
G01 X-35.6964 Y30.7063 
G01 X-35.6379 Y30.8475 
G01 X-35.5530 Y30.9745 
G01 X-35.4449 Y31.0826 
G01 X-35.3179 Y31.1675 
G01 X-35.1767 Y31.2260 
G01 X-35.0268 Y31.2558 
G00 Z2.5400 
G00 X-35.0268 Y28.7158 
G01 Z-0.1500 F254.00 
G01 X-33.5532 Y28.7158 F508.00 
G01 X-33.4033 Y28.6860 
G01 X-33.2621 Y28.6275 
G01 X-33.1351 Y28.5426 
G01 X-33.0270 Y28.4345 
G01 X-32.9421 Y28.3075 
G01 X-32.8836 Y28.1663 
G01 X-32.8538 Y28.0164 
G01 X-32.8538 Y27.8636 
G01 X-32.8836 Y27.7137 
G01 X-32.9421 Y27.5725 
G01 X-33.0270 Y27.4455 
G01 X-33.1351 Y27.3374 
G01 X-33.1564 Y27.3231 
G01 X-31.5986 Y25.7654 
G01 X-24.2814 Y25.7654 
G01 X-22.4712 Y27.5755 
G01 X-22.5069 Y27.6618 
G01 X-22.5436 Y27.8461 
G01 X-22.5436 Y28.0339 
G01 X-22.5069 Y28.2182 
G01 X-22.4351 Y28.3917 
G01 X-22.3307 Y28.5479 
G01 X-22.1979 Y28.6807 
G01 X-22.0417 Y28.7851 
G01 X-21.8682 Y28.8570 
G01 X-21.6839 Y28.8936 
G01 X-21.4961 Y28.8936 
G01 X-21.3118 Y28.8570 
G01 X-21.1383 Y28.7851 
G01 X-20.9821 Y28.6807 
G01 X-20.8493 Y28.5479 
G01 X-20.7449 Y28.3917 
G01 X-20.6730 Y28.2182 
G01 X-20.6364 Y28.0339 
G01 X-20.6364 Y27.8461 
G01 X-20.6730 Y27.6618 
G01 X-20.7449 Y27.4883 
G01 X-20.8493 Y27.3321 
G01 X-20.9821 Y27.1993 
G01 X-21.1383 Y27.0949 
G01 X-21.3118 Y27.0230 
G01 X-21.4961 Y26.9864 
G01 X-21.6839 Y26.9864 
G01 X-21.8682 Y27.0230 
G01 X-21.9545 Y27.0588 
G01 X-23.9056 Y25.1076 
G01 X-23.9890 Y25.0595 
G01 X-24.0819 Y25.0346 
G01 X-31.7981 Y25.0346 
G01 X-31.8910 Y25.0595 
G01 X-31.9744 Y25.1076 
G01 X-32.0424 Y25.1756 
G01 X-34.0310 Y27.1642 
G01 X-35.0268 Y27.1642 
G01 X-35.1767 Y27.1940 
G01 X-35.3179 Y27.2525 
G01 X-35.4449 Y27.3374 
G01 X-35.5530 Y27.4455 
G01 X-35.6379 Y27.5725 
G01 X-35.6964 Y27.7137 
G01 X-35.7262 Y27.8636 
G01 X-35.7262 Y28.0164 
G01 X-35.6964 Y28.1663 
G01 X-35.6379 Y28.3075 
G01 X-35.5530 Y28.4345 
G01 X-35.4449 Y28.5426 
G01 X-35.3179 Y28.6275 
G01 X-35.1767 Y28.6860 
G01 X-35.0268 Y28.7158 
G00 Z2.5400 
G00 X-16.0158 Y65.3032 
G01 Z-0.1500 F254.00 
G01 X-16.0158 Y66.7768 F508.00 
G01 X-15.9860 Y66.9267 
G01 X-15.9275 Y67.0679 
G01 X-15.8426 Y67.1949 
G01 X-15.7345 Y67.3030 
G01 X-15.6075 Y67.3879 
G01 X-15.4663 Y67.4464 
G01 X-15.3164 Y67.4762 
G01 X-15.1636 Y67.4762 
G01 X-15.0137 Y67.4464 
G01 X-14.8725 Y67.3879 
G01 X-14.7455 Y67.3030 
G01 X-14.6374 Y67.1949 
G01 X-14.5525 Y67.0679 
G01 X-14.4940 Y66.9267 
G01 X-14.4642 Y66.7768 
G01 X-14.4642 Y65.3032 
G01 X-14.4940 Y65.1533 
G01 X-14.5525 Y65.0121 
G01 X-14.6374 Y64.8851 
G01 X-14.7455 Y64.7770 
G01 X-14.8725 Y64.6921 
G01 X-14.8746 Y62.5954 
G01 X-13.9219 Y62.5954 
G01 X-13.8290 Y62.5705 
G01 X-13.7456 Y62.5224 
G01 X-12.4756 Y61.2524 
G01 X-12.4076 Y61.1844 
G01 X-12.3595 Y61.1010 
G01 X-12.3346 Y61.0081 
G01 X-12.3346 Y53.2919 
G01 X-12.3595 Y53.1990 
G01 X-12.4076 Y53.1156 
G01 X-12.4756 Y53.0476 
G01 X-12.5590 Y52.9995 
G01 X-12.6519 Y52.9746 
G01 X-20.7092 Y52.9746 
G01 X-20.7449 Y52.8883 
G01 X-20.8493 Y52.7321 
G01 X-20.9821 Y52.5993 
G01 X-21.1383 Y52.4949 
G01 X-21.3118 Y52.4230 
G01 X-21.4961 Y52.3864 
G01 X-21.6839 Y52.3864 
G01 X-21.8682 Y52.4230 
G01 X-22.0417 Y52.4949 
G01 X-22.1979 Y52.5993 
G01 X-22.3307 Y52.7321 
G01 X-22.4351 Y52.8883 
G01 X-22.5069 Y53.0618 
G01 X-22.5436 Y53.2461 
G01 X-22.5436 Y53.4339 
G01 X-22.5069 Y53.6182 
G01 X-22.4351 Y53.7917 
G01 X-22.3307 Y53.9479 
G01 X-22.1979 Y54.0807 
G01 X-22.0417 Y54.1851 
G01 X-21.8682 Y54.2570 
G01 X-21.6839 Y54.2936 
G01 X-21.4961 Y54.2936 
G01 X-21.3118 Y54.2570 
G01 X-21.1383 Y54.1851 
G01 X-20.9821 Y54.0807 
G01 X-20.8493 Y53.9479 
G01 X-20.7449 Y53.7917 
G01 X-20.7092 Y53.7054 
G01 X-13.0654 Y53.7054 
G01 X-13.0654 Y60.8086 
G01 X-14.1214 Y61.8646 
G01 X-15.2881 Y61.8646 
G01 X-15.3810 Y61.8895 
G01 X-15.4644 Y61.9376 
G01 X-15.5324 Y62.0056 
G01 X-15.5805 Y62.0890 
G01 X-15.6054 Y62.1819 
G01 X-15.6054 Y64.6912 
G01 X-15.7345 Y64.7770 
G01 X-15.8426 Y64.8851 
G01 X-15.9275 Y65.0121 
G01 X-15.9860 Y65.1533 
G01 X-16.0158 Y65.3032 
G00 Z2.5400 
G00 X-10.9358 Y65.3032 
G01 Z-0.1500 F254.00 
G01 X-10.9358 Y66.7768 F508.00 
G01 X-10.9060 Y66.9267 
G01 X-10.8475 Y67.0679 
G01 X-10.7626 Y67.1949 
G01 X-10.6545 Y67.3030 
G01 X-10.5275 Y67.3879 
G01 X-10.3863 Y67.4464 
G01 X-10.2364 Y67.4762 
G01 X-10.0836 Y67.4762 
G01 X-9.9337 Y67.4464 
G01 X-9.7925 Y67.3879 
G01 X-9.6655 Y67.3030 
G01 X-9.5574 Y67.1949 
G01 X-9.4725 Y67.0679 
G01 X-9.4140 Y66.9267 
G01 X-9.3842 Y66.7768 
G01 X-9.3842 Y65.3032 
G01 X-9.4140 Y65.1533 
G01 X-9.4725 Y65.0121 
G01 X-9.5574 Y64.8851 
G01 X-9.6655 Y64.7770 
G01 X-9.7925 Y64.6921 
G01 X-9.7946 Y50.7519 
G01 X-9.8195 Y50.6590 
G01 X-9.8676 Y50.5756 
G01 X-9.9356 Y50.5076 
G01 X-10.0190 Y50.4595 
G01 X-10.1119 Y50.4346 
G01 X-18.8986 Y50.4346 
G01 X-20.7088 Y48.6245 
G01 X-20.6730 Y48.5382 
G01 X-20.6364 Y48.3539 
G01 X-20.6364 Y48.1661 
G01 X-20.6730 Y47.9818 
G01 X-20.7449 Y47.8083 
G01 X-20.8493 Y47.6521 
G01 X-20.9821 Y47.5193 
G01 X-21.1383 Y47.4149 
G01 X-21.3118 Y47.3430 
G01 X-21.4961 Y47.3064 
G01 X-21.6839 Y47.3064 
G01 X-21.8682 Y47.3430 
G01 X-22.0417 Y47.4149 
G01 X-22.1979 Y47.5193 
G01 X-22.3307 Y47.6521 
G01 X-22.4351 Y47.8083 
G01 X-22.5069 Y47.9818 
G01 X-22.5436 Y48.1661 
G01 X-22.5436 Y48.3539 
G01 X-22.5069 Y48.5382 
G01 X-22.4351 Y48.7117 
G01 X-22.3307 Y48.8679 
G01 X-22.1979 Y49.0007 
G01 X-22.0417 Y49.1051 
G01 X-21.8682 Y49.1770 
G01 X-21.6839 Y49.2136 
G01 X-21.4961 Y49.2136 
G01 X-21.3118 Y49.1770 
G01 X-21.2255 Y49.1412 
G01 X-19.2744 Y51.0924 
G01 X-19.1910 Y51.1405 
G01 X-19.0981 Y51.1654 
G01 X-10.5254 Y51.1654 
G01 X-10.5254 Y64.6912 
G01 X-10.6545 Y64.7770 
G01 X-10.7626 Y64.8851 
G01 X-10.8475 Y65.0121 
G01 X-10.9060 Y65.1533 
G01 X-10.9358 Y65.3032 
G00 Z2.5400 
G00 X-5.8558 Y65.3032 
G01 Z-0.1500 F254.00 
G01 X-5.8558 Y66.7768 F508.00 
G01 X-5.8260 Y66.9267 
G01 X-5.7675 Y67.0679 
G01 X-5.6826 Y67.1949 
G01 X-5.5745 Y67.3030 
G01 X-5.4475 Y67.3879 
G01 X-5.3063 Y67.4464 
G01 X-5.1564 Y67.4762 
G01 X-5.0036 Y67.4762 
G01 X-4.8537 Y67.4464 
G01 X-4.7125 Y67.3879 
G01 X-4.5855 Y67.3030 
G01 X-4.4774 Y67.1949 
G01 X-4.3925 Y67.0679 
G01 X-4.3340 Y66.9267 
G01 X-4.3042 Y66.7768 
G01 X-4.3042 Y65.3032 
G01 X-4.3340 Y65.1533 
G01 X-4.3925 Y65.0121 
G01 X-4.4774 Y64.8851 
G01 X-4.5855 Y64.7770 
G01 X-4.7125 Y64.6921 
G01 X-4.8537 Y64.6336 
G01 X-5.0036 Y64.6038 
G01 X-5.1564 Y64.6038 
G01 X-5.3063 Y64.6336 
G01 X-5.4475 Y64.6921 
G01 X-5.5745 Y64.7770 
G01 X-5.6826 Y64.8851 
G01 X-5.7675 Y65.0121 
G01 X-5.8260 Y65.1533 
G01 X-5.8558 Y65.3032 
G00 Z2.5400 
G00 X-3.3158 Y65.3032 
G01 Z-0.1500 F254.00 
G01 X-3.3158 Y66.7768 F508.00 
G01 X-3.2860 Y66.9267 
G01 X-3.2275 Y67.0679 
G01 X-3.1426 Y67.1949 
G01 X-3.0345 Y67.3030 
G01 X-2.9075 Y67.3879 
G01 X-2.7663 Y67.4464 
G01 X-2.6164 Y67.4762 
G01 X-2.4636 Y67.4762 
G01 X-2.3137 Y67.4464 
G01 X-2.1725 Y67.3879 
G01 X-2.0455 Y67.3030 
G01 X-1.9374 Y67.1949 
G01 X-1.8525 Y67.0679 
G01 X-1.7940 Y66.9267 
G01 X-1.7642 Y66.7768 
G01 X-1.7642 Y65.3032 
G01 X-1.7940 Y65.1533 
G01 X-1.8525 Y65.0121 
G01 X-1.9374 Y64.8851 
G01 X-2.0455 Y64.7770 
G01 X-2.1725 Y64.6921 
G01 X-2.3137 Y64.6336 
G01 X-2.4636 Y64.6038 
G01 X-2.6164 Y64.6038 
G01 X-2.7663 Y64.6336 
G01 X-2.9075 Y64.6921 
G01 X-3.0345 Y64.7770 
G01 X-3.1426 Y64.8851 
G01 X-3.2275 Y65.0121 
G01 X-3.2860 Y65.1533 
G01 X-3.3158 Y65.3032 
G00 Z2.5400 
G00 X-37.6058 Y17.0432 
G01 Z-0.1500 F254.00 
G01 X-37.6058 Y18.5168 F508.00 
G01 X-37.5760 Y18.6667 
G01 X-37.5175 Y18.8079 
G01 X-37.4326 Y18.9349 
G01 X-37.3245 Y19.0430 
G01 X-37.1975 Y19.1279 
G01 X-37.0563 Y19.1864 
G01 X-36.9064 Y19.2162 
G01 X-36.7536 Y19.2162 
G01 X-36.6037 Y19.1864 
G01 X-36.4625 Y19.1279 
G01 X-36.3355 Y19.0430 
G01 X-36.2274 Y18.9349 
G01 X-36.1425 Y18.8079 
G01 X-36.0840 Y18.6667 
G01 X-36.0542 Y18.5168 
G01 X-36.0542 Y17.0432 
G01 X-36.0840 Y16.8933 
G01 X-36.1425 Y16.7521 
G01 X-36.2274 Y16.6251 
G01 X-36.3355 Y16.5170 
G01 X-36.4625 Y16.4321 
G01 X-36.6037 Y16.3736 
G01 X-36.7536 Y16.3438 
G01 X-36.9064 Y16.3438 
G01 X-37.0563 Y16.3736 
G01 X-37.1975 Y16.4321 
G01 X-37.3245 Y16.5170 
G01 X-37.4326 Y16.6251 
G01 X-37.5175 Y16.7521 
G01 X-37.5760 Y16.8933 
G01 X-37.6058 Y17.0432 
G00 Z2.5400 
G00 X-37.6058 Y9.4232 
G01 Z-0.1500 F254.00 
G01 X-37.6058 Y10.8968 F508.00 
G01 X-37.5760 Y11.0467 
G01 X-37.5175 Y11.1879 
G01 X-37.4326 Y11.3149 
G01 X-37.3245 Y11.4230 
G01 X-37.1975 Y11.5079 
G01 X-37.0563 Y11.5664 
G01 X-36.9064 Y11.5962 
G01 X-36.7536 Y11.5962 
G01 X-36.6037 Y11.5664 
G01 X-36.4625 Y11.5079 
G01 X-36.3355 Y11.4230 
G01 X-36.2274 Y11.3149 
G01 X-36.1425 Y11.1879 
G01 X-36.0840 Y11.0467 
G01 X-36.0542 Y10.8968 
G01 X-36.0542 Y9.9010 
G01 X-35.4086 Y9.2554 
G01 X-6.5014 Y9.2554 
G01 X-1.6354 Y14.1214 
G01 X-1.6354 Y44.0846 
G01 X-10.5479 Y44.0846 
G01 X-9.7063 Y43.2430 
G01 X-9.6307 Y43.3561 
G01 X-9.4979 Y43.4889 
G01 X-9.3417 Y43.5933 
G01 X-9.1682 Y43.6652 
G01 X-8.9839 Y43.7018 
G01 X-8.7961 Y43.7018 
G01 X-8.6118 Y43.6652 
G01 X-8.4383 Y43.5933 
G01 X-8.2821 Y43.4889 
G01 X-8.1493 Y43.3561 
G01 X-8.0449 Y43.1999 
G01 X-7.9730 Y43.0264 
G01 X-7.9364 Y42.8421 
G01 X-7.9364 Y40.9779 
G01 X-7.9730 Y40.7936 
G01 X-8.0449 Y40.6201 
G01 X-8.1493 Y40.4639 
G01 X-8.2821 Y40.3311 
G01 X-8.4383 Y40.2267 
G01 X-8.6118 Y40.1548 
G01 X-8.7961 Y40.1182 
G01 X-8.9839 Y40.1182 
G01 X-9.1682 Y40.1548 
G01 X-9.3417 Y40.2267 
G01 X-9.4979 Y40.3311 
G01 X-9.6307 Y40.4639 
G01 X-9.7351 Y40.6201 
G01 X-9.8070 Y40.7936 
G01 X-9.8436 Y40.9779 
G01 X-9.8436 Y42.3468 
G01 X-11.7224 Y44.2256 
G01 X-15.3914 Y47.8946 
G01 X-16.3586 Y47.8946 
G01 X-18.7576 Y45.4956 
G01 X-18.8256 Y45.4276 
G01 X-18.9090 Y45.3795 
G01 X-19.0019 Y45.3546 
G01 X-20.7092 Y45.3546 
G01 X-20.7449 Y45.2683 
G01 X-20.8493 Y45.1121 
G01 X-20.9821 Y44.9793 
G01 X-21.1383 Y44.8749 
G01 X-21.3118 Y44.8030 
G01 X-21.4961 Y44.7664 
G01 X-21.6839 Y44.7664 
G01 X-21.8682 Y44.8030 
G01 X-22.0417 Y44.8749 
G01 X-22.1979 Y44.9793 
G01 X-22.3307 Y45.1121 
G01 X-22.4351 Y45.2683 
G01 X-22.5069 Y45.4418 
G01 X-22.5436 Y45.6261 
G01 X-22.5436 Y45.8139 
G01 X-22.5069 Y45.9982 
G01 X-22.4712 Y46.0845 
G01 X-26.8944 Y50.5076 
G01 X-26.9624 Y50.5756 
G01 X-27.0105 Y50.6590 
G01 X-27.0354 Y50.7519 
G01 X-27.0354 Y63.1346 
G01 X-34.1386 Y63.1346 
G01 X-36.4646 Y60.8086 
G01 X-36.4646 Y42.2754 
G01 X-30.4319 Y42.2754 
G01 X-30.3390 Y42.2505 
G01 X-30.2556 Y42.2024 
G01 X-30.1876 Y42.1344 
G01 X-29.5745 Y41.5212 
G01 X-29.4882 Y41.5570 
G01 X-29.3039 Y41.5936 
G01 X-29.1161 Y41.5936 
G01 X-28.9318 Y41.5570 
G01 X-28.7583 Y41.4851 
G01 X-28.6021 Y41.3807 
G01 X-28.4693 Y41.2479 
G01 X-28.3649 Y41.0917 
G01 X-28.2930 Y40.9182 
G01 X-28.2564 Y40.7339 
G01 X-28.2564 Y40.5461 
G01 X-28.2930 Y40.3618 
G01 X-28.3649 Y40.1883 
G01 X-28.4693 Y40.0321 
G01 X-28.6021 Y39.8993 
G01 X-28.7583 Y39.7949 
G01 X-28.9318 Y39.7230 
G01 X-29.1161 Y39.6864 
G01 X-29.3039 Y39.6864 
G01 X-29.4882 Y39.7230 
G01 X-29.6617 Y39.7949 
G01 X-29.8179 Y39.8993 
G01 X-29.9507 Y40.0321 
G01 X-30.0551 Y40.1883 
G01 X-30.1270 Y40.3618 
G01 X-30.1636 Y40.5461 
G01 X-30.1636 Y40.7339 
G01 X-30.1270 Y40.9182 
G01 X-30.0912 Y41.0044 
G01 X-30.6314 Y41.5446 
G01 X-35.4086 Y41.5446 
G01 X-36.4646 Y40.4886 
G01 X-36.4646 Y23.2254 
G01 X-32.9449 Y23.2254 
G01 X-32.9449 Y23.3549 
G01 X-32.2449 Y24.0549 
G01 X-31.2551 Y24.0549 
G01 X-30.5551 Y23.3549 
G01 X-30.5551 Y22.3651 
G01 X-31.2551 Y21.6651 
G01 X-32.2449 Y21.6651 
G01 X-32.9449 Y22.3651 
G01 X-32.9449 Y22.4946 
G01 X-36.8781 Y22.4946 
G01 X-36.9710 Y22.5195 
G01 X-37.0544 Y22.5676 
G01 X-37.1224 Y22.6356 
G01 X-37.1705 Y22.7190 
G01 X-37.1954 Y22.8119 
G01 X-37.1954 Y40.6881 
G01 X-37.1705 Y40.7810 
G01 X-37.1224 Y40.8644 
G01 X-37.0544 Y40.9324 
G01 X-36.4421 Y41.5446 
G01 X-36.8781 Y41.5446 
G01 X-36.9710 Y41.5695 
G01 X-37.0544 Y41.6176 
G01 X-37.1224 Y41.6856 
G01 X-37.1705 Y41.7690 
G01 X-37.1954 Y41.8619 
G01 X-37.1954 Y61.0081 
G01 X-37.1705 Y61.1010 
G01 X-37.1224 Y61.1844 
G01 X-37.0544 Y61.2524 
G01 X-34.5144 Y63.7924 
G01 X-34.4310 Y63.8405 
G01 X-34.3381 Y63.8654 
G01 X-26.6219 Y63.8654 
G01 X-26.5290 Y63.8405 
G01 X-26.4456 Y63.7924 
G01 X-26.3776 Y63.7244 
G01 X-26.3295 Y63.6410 
G01 X-26.3046 Y63.5481 
G01 X-26.3046 Y50.9514 
G01 X-21.9545 Y46.6012 
G01 X-21.8682 Y46.6369 
G01 X-21.6839 Y46.6736 
G01 X-21.4961 Y46.6736 
G01 X-21.3118 Y46.6369 
G01 X-21.1383 Y46.5651 
G01 X-20.9821 Y46.4607 
G01 X-20.8493 Y46.3279 
G01 X-20.7449 Y46.1717 
G01 X-20.7092 Y46.0854 
G01 X-19.2014 Y46.0854 
G01 X-16.8024 Y48.4844 
G01 X-16.7344 Y48.5524 
G01 X-16.6510 Y48.6005 
G01 X-16.5581 Y48.6254 
G01 X-15.1919 Y48.6254 
G01 X-15.0990 Y48.6005 
G01 X-15.0156 Y48.5524 
G01 X-14.9476 Y48.4844 
G01 X-11.2786 Y44.8154 
G01 X-1.2219 Y44.8154 
G01 X-1.1290 Y44.7905 
G01 X-1.0456 Y44.7424 
G01 X-0.9776 Y44.6744 
G01 X-0.9295 Y44.5910 
G01 X-0.9046 Y44.4981 
G01 X-0.9046 Y13.9219 
G01 X-0.9295 Y13.8290 
G01 X-0.9776 Y13.7456 
G01 X-1.0456 Y13.6776 
G01 X-6.0576 Y8.6656 
G01 X-6.1256 Y8.5976 
G01 X-6.2090 Y8.5495 
G01 X-6.3019 Y8.5246 
G01 X-35.6081 Y8.5246 
G01 X-35.7010 Y8.5495 
G01 X-35.7844 Y8.5976 
G01 X-35.8524 Y8.6656 
G01 X-36.2131 Y9.0264 
G01 X-36.2274 Y9.0051 
G01 X-36.3355 Y8.8970 
G01 X-36.4625 Y8.8121 
G01 X-36.6037 Y8.7536 
G01 X-36.7536 Y8.7238 
G01 X-36.9064 Y8.7238 
G01 X-37.0563 Y8.7536 
G01 X-37.1975 Y8.8121 
G01 X-37.3245 Y8.8970 
G01 X-37.4326 Y9.0051 
G01 X-37.5175 Y9.1321 
G01 X-37.5760 Y9.2733 
G01 X-37.6058 Y9.4232 
G00 Z2.5400 
G00 X-2.0966 Y8.8086 
G01 Z-0.1500 F254.00 
G01 X-2.0966 Y8.9714 F508.00 
G01 X-2.0648 Y9.1311 
G01 X-2.0025 Y9.2815 
G01 X-1.9121 Y9.4169 
G01 X-1.7969 Y9.5321 
G01 X-1.6615 Y9.6225 
G01 X-1.5111 Y9.6848 
G01 X-1.3514 Y9.7166 
G01 X-1.1886 Y9.7166 
G01 X-1.0289 Y9.6848 
G01 X-0.8785 Y9.6225 
G01 X-0.7431 Y9.5321 
G01 X-0.6279 Y9.4169 
G01 X-0.5375 Y9.2815 
G01 X-0.4752 Y9.1311 
G01 X-0.4434 Y8.9714 
G01 X-0.4434 Y8.8086 
G01 X-0.4752 Y8.6489 
G01 X-0.5375 Y8.4985 
G01 X-0.6279 Y8.3631 
G01 X-0.7431 Y8.2479 
G01 X-0.8785 Y8.1575 
G01 X-1.0289 Y8.0952 
G01 X-1.1886 Y8.0634 
G01 X-1.3514 Y8.0634 
G01 X-1.5111 Y8.0952 
G01 X-1.6615 Y8.1575 
G01 X-1.7969 Y8.2479 
G01 X-1.9121 Y8.3631 
G01 X-2.0025 Y8.4985 
G01 X-2.0648 Y8.6489 
G01 X-2.0966 Y8.8086 
G00 Z2.5400 
G00 X-15.3048 Y61.7376 
G01 Z-0.1500 F254.00 
G01 X-15.3273 Y61.7436 F508.00 
G01 X-15.0360 Y61.4524 
G01 X-13.9052 Y61.4524 
G01 X-13.8827 Y61.4464 
G01 X-14.1740 Y61.7376 
G01 X-15.3048 Y61.7376 
G00 Z2.5400 
G00 X-14.7409 Y60.4676 
G01 Z-0.1500 F254.00 
G01 X-14.4624 Y60.1891 F508.00 
G01 X-14.4624 Y60.4676 
G01 X-14.7409 Y60.4676 
G00 Z2.5400 
G00 X-30.1342 Y38.6664 
G01 Z-0.1500 F254.00 
G01 X-30.0342 Y38.8040 F508.00 
G01 X-29.9140 Y38.9242 
G01 X-29.7764 Y39.0242 
G01 X-29.6248 Y39.1014 
G01 X-29.4630 Y39.1540 
G01 X-29.2950 Y39.1806 
G01 X-29.1250 Y39.1806 
G01 X-28.9570 Y39.1540 
G01 X-28.7952 Y39.1014 
G01 X-28.6436 Y39.0242 
G01 X-28.5060 Y38.9242 
G01 X-28.3858 Y38.8040 
G01 X-28.2858 Y38.6664 
G01 X-28.2086 Y38.5148 
G01 X-28.1560 Y38.3530 
G01 X-28.1294 Y38.1850 
G01 X-28.1294 Y38.0150 
G01 X-28.1560 Y37.8470 
G01 X-28.2086 Y37.6852 
G01 X-28.2858 Y37.5336 
G01 X-28.3858 Y37.3960 
G01 X-28.5060 Y37.2758 
G01 X-28.6436 Y37.1758 
G01 X-28.7952 Y37.0986 
G01 X-28.9570 Y37.0460 
G01 X-29.1250 Y37.0194 
G01 X-29.2950 Y37.0194 
G01 X-29.4630 Y37.0460 
G01 X-29.6248 Y37.0986 
G01 X-29.7764 Y37.1758 
G01 X-29.9140 Y37.2758 
G01 X-30.0342 Y37.3960 
G01 X-30.1342 Y37.5336 
G01 X-30.1719 Y37.6076 
G01 X-31.8148 Y37.6076 
G01 X-31.9401 Y37.6412 
G01 X-32.0523 Y37.7060 
G01 X-32.1440 Y37.7977 
G01 X-32.7981 Y38.4518 
G01 X-32.7615 Y38.3633 
G01 X-32.7268 Y38.1889 
G01 X-32.7268 Y38.0111 
G01 X-32.7615 Y37.8367 
G01 X-32.8296 Y37.6724 
G01 X-32.9284 Y37.5245 
G01 X-32.9732 Y37.4796 
G01 X-31.5460 Y36.0524 
G01 X-30.1719 Y36.0524 
G01 X-30.1342 Y36.1264 
G01 X-30.0342 Y36.2640 
G01 X-29.9140 Y36.3842 
G01 X-29.7764 Y36.4842 
G01 X-29.6248 Y36.5614 
G01 X-29.4630 Y36.6140 
G01 X-29.2950 Y36.6406 
G01 X-29.1250 Y36.6406 
G01 X-28.9570 Y36.6140 
G01 X-28.7952 Y36.5614 
G01 X-28.6436 Y36.4842 
G01 X-28.5060 Y36.3842 
G01 X-28.3858 Y36.2640 
G01 X-28.2858 Y36.1264 
G01 X-28.2086 Y35.9748 
G01 X-28.1560 Y35.8130 
G01 X-28.1294 Y35.6450 
G01 X-28.1294 Y35.4750 
G01 X-28.1560 Y35.3070 
G01 X-28.2086 Y35.1452 
G01 X-28.2858 Y34.9936 
G01 X-28.3858 Y34.8560 
G01 X-28.5060 Y34.7358 
G01 X-28.6436 Y34.6358 
G01 X-28.7952 Y34.5586 
G01 X-28.9570 Y34.5060 
G01 X-29.1250 Y34.4794 
G01 X-29.2950 Y34.4794 
G01 X-29.4630 Y34.5060 
G01 X-29.6248 Y34.5586 
G01 X-29.7764 Y34.6358 
G01 X-29.9140 Y34.7358 
G01 X-30.0342 Y34.8560 
G01 X-30.1342 Y34.9936 
G01 X-30.1719 Y35.0676 
G01 X-31.8148 Y35.0676 
G01 X-31.9401 Y35.1012 
G01 X-32.0523 Y35.1660 
G01 X-32.1440 Y35.2577 
G01 X-32.7981 Y35.9118 
G01 X-32.7615 Y35.8233 
G01 X-32.7268 Y35.6489 
G01 X-32.7268 Y35.4711 
G01 X-32.7615 Y35.2967 
G01 X-32.8296 Y35.1324 
G01 X-32.9284 Y34.9845 
G01 X-32.9732 Y34.9396 
G01 X-31.5460 Y33.5124 
G01 X-30.1719 Y33.5124 
G01 X-30.1342 Y33.5864 
G01 X-30.0342 Y33.7240 
G01 X-29.9140 Y33.8442 
G01 X-29.7764 Y33.9442 
G01 X-29.6248 Y34.0214 
G01 X-29.4630 Y34.0740 
G01 X-29.2950 Y34.1006 
G01 X-29.1250 Y34.1006 
G01 X-28.9570 Y34.0740 
G01 X-28.7952 Y34.0214 
G01 X-28.6436 Y33.9442 
G01 X-28.5060 Y33.8442 
G01 X-28.3858 Y33.7240 
G01 X-28.2858 Y33.5864 
G01 X-28.2086 Y33.4348 
G01 X-28.1560 Y33.2730 
G01 X-28.1294 Y33.1050 
G01 X-28.1294 Y32.9350 
G01 X-28.1560 Y32.7670 
G01 X-28.2086 Y32.6052 
G01 X-28.2858 Y32.4536 
G01 X-28.3858 Y32.3160 
G01 X-28.5060 Y32.1958 
G01 X-28.6436 Y32.0958 
G01 X-28.7952 Y32.0186 
G01 X-28.9570 Y31.9660 
G01 X-29.1250 Y31.9394 
G01 X-29.2950 Y31.9394 
G01 X-29.4630 Y31.9660 
G01 X-29.6248 Y32.0186 
G01 X-29.7764 Y32.0958 
G01 X-29.9140 Y32.1958 
G01 X-30.0342 Y32.3160 
G01 X-30.1342 Y32.4536 
G01 X-30.1719 Y32.5276 
G01 X-31.8148 Y32.5276 
G01 X-31.9401 Y32.5612 
G01 X-32.0523 Y32.6260 
G01 X-32.1440 Y32.7177 
G01 X-32.7981 Y33.3718 
G01 X-32.7615 Y33.2833 
G01 X-32.7268 Y33.1089 
G01 X-32.7268 Y32.9311 
G01 X-32.7615 Y32.7567 
G01 X-32.8296 Y32.5924 
G01 X-32.9284 Y32.4445 
G01 X-32.9732 Y32.3996 
G01 X-31.5460 Y30.9724 
G01 X-30.1719 Y30.9724 
G01 X-30.1342 Y31.0464 
G01 X-30.0342 Y31.1840 
G01 X-29.9140 Y31.3042 
G01 X-29.7764 Y31.4042 
G01 X-29.6248 Y31.4814 
G01 X-29.4630 Y31.5340 
G01 X-29.2950 Y31.5606 
G01 X-29.1250 Y31.5606 
G01 X-28.9570 Y31.5340 
G01 X-28.7952 Y31.4814 
G01 X-28.6436 Y31.4042 
G01 X-28.5060 Y31.3042 
G01 X-28.3858 Y31.1840 
G01 X-28.2858 Y31.0464 
G01 X-28.2086 Y30.8948 
G01 X-28.1560 Y30.7330 
G01 X-28.1294 Y30.5650 
G01 X-28.1294 Y30.3950 
G01 X-28.1560 Y30.2270 
G01 X-28.2086 Y30.0652 
G01 X-28.2858 Y29.9136 
G01 X-28.3858 Y29.7760 
G01 X-28.5060 Y29.6558 
G01 X-28.6436 Y29.5558 
G01 X-28.7952 Y29.4786 
G01 X-28.9570 Y29.4260 
G01 X-29.1250 Y29.3994 
G01 X-29.2950 Y29.3994 
G01 X-29.4630 Y29.4260 
G01 X-29.6248 Y29.4786 
G01 X-29.7764 Y29.5558 
G01 X-29.9140 Y29.6558 
G01 X-30.0342 Y29.7760 
G01 X-30.1342 Y29.9136 
G01 X-30.1719 Y29.9876 
G01 X-31.8148 Y29.9876 
G01 X-31.9401 Y30.0212 
G01 X-32.0523 Y30.0860 
G01 X-32.1440 Y30.1777 
G01 X-32.7981 Y30.8318 
G01 X-32.7615 Y30.7433 
G01 X-32.7268 Y30.5689 
G01 X-32.7268 Y30.3911 
G01 X-32.7615 Y30.2167 
G01 X-32.8296 Y30.0524 
G01 X-32.9284 Y29.9045 
G01 X-32.9732 Y29.8596 
G01 X-31.5460 Y28.4324 
G01 X-30.1719 Y28.4324 
G01 X-30.1342 Y28.5064 
G01 X-30.0342 Y28.6440 
G01 X-29.9140 Y28.7642 
G01 X-29.7764 Y28.8642 
G01 X-29.6248 Y28.9414 
G01 X-29.4630 Y28.9940 
G01 X-29.2950 Y29.0206 
G01 X-29.1250 Y29.0206 
G01 X-28.9570 Y28.9940 
G01 X-28.7952 Y28.9414 
G01 X-28.6436 Y28.8642 
G01 X-28.5060 Y28.7642 
G01 X-28.3858 Y28.6440 
G01 X-28.2858 Y28.5064 
G01 X-28.2086 Y28.3548 
G01 X-28.1560 Y28.1930 
G01 X-28.1294 Y28.0250 
G01 X-28.1294 Y27.8550 
G01 X-28.1560 Y27.6870 
G01 X-28.2086 Y27.5252 
G01 X-28.2858 Y27.3736 
G01 X-28.3858 Y27.2360 
G01 X-28.5060 Y27.1158 
G01 X-28.6436 Y27.0158 
G01 X-28.7952 Y26.9386 
G01 X-28.9570 Y26.8860 
G01 X-29.1250 Y26.8594 
G01 X-29.2950 Y26.8594 
G01 X-29.4630 Y26.8860 
G01 X-29.6248 Y26.9386 
G01 X-29.7764 Y27.0158 
G01 X-29.9140 Y27.1158 
G01 X-30.0342 Y27.2360 
G01 X-30.1342 Y27.3736 
G01 X-30.1719 Y27.4476 
G01 X-31.8148 Y27.4476 
G01 X-31.9401 Y27.4812 
G01 X-32.0523 Y27.5460 
G01 X-32.1440 Y27.6377 
G01 X-32.7981 Y28.2918 
G01 X-32.7615 Y28.2033 
G01 X-32.7268 Y28.0289 
G01 X-32.7268 Y27.8511 
G01 X-32.7615 Y27.6767 
G01 X-32.8296 Y27.5124 
G01 X-32.9284 Y27.3645 
G01 X-32.9732 Y27.3196 
G01 X-31.5460 Y25.8924 
G01 X-24.3340 Y25.8924 
G01 X-22.6183 Y27.6080 
G01 X-22.6440 Y27.6870 
G01 X-22.6706 Y27.8550 
G01 X-22.6706 Y28.0250 
G01 X-22.6440 Y28.1930 
G01 X-22.5914 Y28.3548 
G01 X-22.5142 Y28.5064 
G01 X-22.4142 Y28.6440 
G01 X-22.2940 Y28.7642 
G01 X-22.1564 Y28.8642 
G01 X-22.0048 Y28.9414 
G01 X-21.8430 Y28.9940 
G01 X-21.6750 Y29.0206 
G01 X-21.5050 Y29.0206 
G01 X-21.3370 Y28.9940 
G01 X-21.1752 Y28.9414 
G01 X-21.0236 Y28.8642 
G01 X-20.8860 Y28.7642 
G01 X-20.7658 Y28.6440 
G01 X-20.6658 Y28.5064 
G01 X-20.5886 Y28.3548 
G01 X-20.5360 Y28.1930 
G01 X-20.5094 Y28.0250 
G01 X-20.5094 Y27.8550 
G01 X-20.5360 Y27.6870 
G01 X-20.5886 Y27.5252 
G01 X-20.6658 Y27.3736 
G01 X-20.7658 Y27.2360 
G01 X-20.8860 Y27.1158 
G01 X-21.0236 Y27.0158 
G01 X-21.1752 Y26.9386 
G01 X-21.3370 Y26.8860 
G01 X-21.5050 Y26.8594 
G01 X-21.6750 Y26.8594 
G01 X-21.8430 Y26.8860 
G01 X-21.9220 Y26.9117 
G01 X-23.8277 Y25.0060 
G01 X-23.9399 Y24.9412 
G01 X-24.0652 Y24.9076 
G01 X-31.8148 Y24.9076 
G01 X-31.9401 Y24.9412 
G01 X-32.0523 Y25.0060 
G01 X-32.1440 Y25.0977 
G01 X-34.0836 Y27.0372 
G01 X-35.0393 Y27.0372 
G01 X-35.2137 Y27.0719 
G01 X-35.3780 Y27.1400 
G01 X-35.5259 Y27.2387 
G01 X-35.6516 Y27.3645 
G01 X-35.7504 Y27.5124 
G01 X-35.8185 Y27.6767 
G01 X-35.8532 Y27.8511 
G01 X-35.8532 Y28.0289 
G01 X-35.8185 Y28.2033 
G01 X-35.7504 Y28.3676 
G01 X-35.6516 Y28.5155 
G01 X-35.5259 Y28.6412 
G01 X-35.3780 Y28.7400 
G01 X-35.2137 Y28.8081 
G01 X-35.0393 Y28.8428 
G01 X-33.5407 Y28.8428 
G01 X-33.3663 Y28.8081 
G01 X-33.2778 Y28.7715 
G01 X-34.0836 Y29.5772 
G01 X-35.0393 Y29.5772 
G01 X-35.2137 Y29.6119 
G01 X-35.3780 Y29.6800 
G01 X-35.5259 Y29.7788 
G01 X-35.6516 Y29.9045 
G01 X-35.7504 Y30.0524 
G01 X-35.8185 Y30.2167 
G01 X-35.8532 Y30.3911 
G01 X-35.8532 Y30.5689 
G01 X-35.8185 Y30.7433 
G01 X-35.7504 Y30.9076 
G01 X-35.6516 Y31.0555 
G01 X-35.5259 Y31.1812 
G01 X-35.3780 Y31.2800 
G01 X-35.2137 Y31.3481 
G01 X-35.0393 Y31.3828 
G01 X-33.5407 Y31.3828 
G01 X-33.3663 Y31.3481 
G01 X-33.2778 Y31.3115 
G01 X-34.0836 Y32.1172 
G01 X-35.0393 Y32.1172 
G01 X-35.2137 Y32.1519 
G01 X-35.3780 Y32.2200 
G01 X-35.5259 Y32.3188 
G01 X-35.6516 Y32.4445 
G01 X-35.7504 Y32.5924 
G01 X-35.8185 Y32.7567 
G01 X-35.8532 Y32.9311 
G01 X-35.8532 Y33.1089 
G01 X-35.8185 Y33.2833 
G01 X-35.7504 Y33.4476 
G01 X-35.6516 Y33.5955 
G01 X-35.5259 Y33.7212 
G01 X-35.3780 Y33.8200 
G01 X-35.2137 Y33.8881 
G01 X-35.0393 Y33.9228 
G01 X-33.5407 Y33.9228 
G01 X-33.3663 Y33.8881 
G01 X-33.2778 Y33.8515 
G01 X-34.0836 Y34.6572 
G01 X-35.0393 Y34.6572 
G01 X-35.2137 Y34.6919 
G01 X-35.3780 Y34.7600 
G01 X-35.5259 Y34.8588 
G01 X-35.6516 Y34.9845 
G01 X-35.7504 Y35.1324 
G01 X-35.8185 Y35.2967 
G01 X-35.8532 Y35.4711 
G01 X-35.8532 Y35.6489 
G01 X-35.8185 Y35.8233 
G01 X-35.7504 Y35.9876 
G01 X-35.6516 Y36.1355 
G01 X-35.5259 Y36.2612 
G01 X-35.3780 Y36.3600 
G01 X-35.2137 Y36.4281 
G01 X-35.0393 Y36.4628 
G01 X-33.5407 Y36.4628 
G01 X-33.3663 Y36.4281 
G01 X-33.2778 Y36.3915 
G01 X-34.0836 Y37.1972 
G01 X-35.0393 Y37.1972 
G01 X-35.2137 Y37.2319 
G01 X-35.3780 Y37.3000 
G01 X-35.5259 Y37.3987 
G01 X-35.6516 Y37.5245 
G01 X-35.7504 Y37.6724 
G01 X-35.8185 Y37.8367 
G01 X-35.8532 Y38.0111 
G01 X-35.8532 Y38.1889 
G01 X-35.8185 Y38.3633 
G01 X-35.7504 Y38.5276 
G01 X-35.6516 Y38.6755 
G01 X-35.5259 Y38.8012 
G01 X-35.3780 Y38.9000 
G01 X-35.2137 Y38.9681 
G01 X-35.0393 Y39.0028 
G01 X-33.5407 Y39.0028 
G01 X-33.3663 Y38.9681 
G01 X-33.2778 Y38.9315 
G01 X-34.0836 Y39.7372 
G01 X-35.0393 Y39.7372 
G01 X-35.2137 Y39.7719 
G01 X-35.3780 Y39.8400 
G01 X-35.5259 Y39.9387 
G01 X-35.6516 Y40.0645 
G01 X-35.7504 Y40.2124 
G01 X-35.8185 Y40.3767 
G01 X-35.8532 Y40.5511 
G01 X-35.8532 Y40.7289 
G01 X-35.8185 Y40.9033 
G01 X-35.7819 Y40.9918 
G01 X-36.3376 Y40.4360 
G01 X-36.3376 Y23.3524 
G01 X-33.0719 Y23.3524 
G01 X-33.0719 Y23.4075 
G01 X-32.2975 Y24.1819 
G01 X-31.2025 Y24.1819 
G01 X-30.4281 Y23.4075 
G01 X-30.4281 Y22.3125 
G01 X-31.2025 Y21.5381 
G01 X-32.2975 Y21.5381 
G01 X-33.0719 Y22.3125 
G01 X-33.0719 Y22.3676 
G01 X-36.8948 Y22.3676 
G01 X-37.0201 Y22.4012 
G01 X-37.1323 Y22.4660 
G01 X-37.2240 Y22.5577 
G01 X-37.2888 Y22.6699 
G01 X-37.3224 Y22.7952 
G01 X-37.3224 Y40.7048 
G01 X-37.2888 Y40.8301 
G01 X-37.2240 Y40.9423 
G01 X-37.1323 Y41.0340 
G01 X-36.7488 Y41.4176 
G01 X-36.8948 Y41.4176 
G01 X-37.0201 Y41.4512 
G01 X-37.1323 Y41.5160 
G01 X-37.2240 Y41.6077 
G01 X-37.2888 Y41.7199 
G01 X-37.3224 Y41.8452 
G01 X-37.3224 Y61.0248 
G01 X-37.3164 Y61.0473 
G01 X-37.6076 Y60.7560 
G01 X-37.6076 Y20.8124 
G01 X-26.8740 Y20.8124 
G01 X-19.5424 Y28.1440 
G01 X-19.5424 Y33.7976 
G01 X-20.3848 Y33.7976 
G01 X-20.5101 Y33.8312 
G01 X-20.6223 Y33.8960 
G01 X-21.2580 Y34.5317 
G01 X-21.3370 Y34.5060 
G01 X-21.5050 Y34.4794 
G01 X-21.6750 Y34.4794 
G01 X-21.8430 Y34.5060 
G01 X-22.0048 Y34.5586 
G01 X-22.1564 Y34.6358 
G01 X-22.2940 Y34.7358 
G01 X-22.4142 Y34.8560 
G01 X-22.5142 Y34.9936 
G01 X-22.5914 Y35.1452 
G01 X-22.6440 Y35.3070 
G01 X-22.6706 Y35.4750 
G01 X-22.6706 Y35.6450 
G01 X-22.6440 Y35.8130 
G01 X-22.5914 Y35.9748 
G01 X-22.5142 Y36.1264 
G01 X-22.4142 Y36.2640 
G01 X-22.2940 Y36.3842 
G01 X-22.1564 Y36.4842 
G01 X-22.0048 Y36.5614 
G01 X-21.8430 Y36.6140 
G01 X-21.6750 Y36.6406 
G01 X-21.5050 Y36.6406 
G01 X-21.3370 Y36.6140 
G01 X-21.1752 Y36.5614 
G01 X-21.0236 Y36.4842 
G01 X-20.8860 Y36.3842 
G01 X-20.7658 Y36.2640 
G01 X-20.6658 Y36.1264 
G01 X-20.5886 Y35.9748 
G01 X-20.5360 Y35.8130 
G01 X-20.5094 Y35.6450 
G01 X-20.5094 Y35.4750 
G01 X-20.5360 Y35.3070 
G01 X-20.5617 Y35.2280 
G01 X-20.1160 Y34.7824 
G01 X-18.9852 Y34.7824 
G01 X-18.9627 Y34.7764 
G01 X-21.2580 Y37.0717 
G01 X-21.3370 Y37.0460 
G01 X-21.5050 Y37.0194 
G01 X-21.6750 Y37.0194 
G01 X-21.8430 Y37.0460 
G01 X-22.0048 Y37.0986 
G01 X-22.1564 Y37.1758 
G01 X-22.2940 Y37.2758 
G01 X-22.4142 Y37.3960 
G01 X-22.5142 Y37.5336 
G01 X-22.5914 Y37.6852 
G01 X-22.6440 Y37.8470 
G01 X-22.6706 Y38.0150 
G01 X-22.6706 Y38.1850 
G01 X-22.6440 Y38.3530 
G01 X-22.5914 Y38.5148 
G01 X-22.5142 Y38.6664 
G01 X-22.4142 Y38.8040 
G01 X-22.2940 Y38.9242 
G01 X-22.1564 Y39.0242 
G01 X-22.0048 Y39.1014 
G01 X-21.8430 Y39.1540 
G01 X-21.6750 Y39.1806 
G01 X-21.5050 Y39.1806 
G01 X-21.3370 Y39.1540 
G01 X-21.1752 Y39.1014 
G01 X-21.0236 Y39.0242 
G01 X-20.8860 Y38.9242 
G01 X-20.7658 Y38.8040 
G01 X-20.6658 Y38.6664 
G01 X-20.5886 Y38.5148 
G01 X-20.5360 Y38.3530 
G01 X-20.5094 Y38.1850 
G01 X-20.5094 Y38.0150 
G01 X-20.5360 Y37.8470 
G01 X-20.5617 Y37.7680 
G01 X-17.4777 Y34.6840 
G01 X-17.3860 Y34.5923 
G01 X-17.3212 Y34.4801 
G01 X-17.2876 Y34.3548 
G01 X-17.2876 Y19.5424 
G01 X-16.0658 Y19.5424 
G01 X-16.0400 Y19.6046 
G01 X-15.9412 Y19.7525 
G01 X-15.8155 Y19.8782 
G01 X-15.6676 Y19.9770 
G01 X-15.5033 Y20.0451 
G01 X-15.3289 Y20.0798 
G01 X-15.1511 Y20.0798 
G01 X-14.9767 Y20.0451 
G01 X-14.8124 Y19.9770 
G01 X-14.6645 Y19.8782 
G01 X-14.5388 Y19.7525 
G01 X-14.4400 Y19.6046 
G01 X-14.3719 Y19.4403 
G01 X-14.3372 Y19.2659 
G01 X-14.3372 Y19.0881 
G01 X-14.3719 Y18.9137 
G01 X-14.4400 Y18.7494 
G01 X-14.5388 Y18.6015 
G01 X-14.6645 Y18.4758 
G01 X-14.8124 Y18.3770 
G01 X-14.9767 Y18.3089 
G01 X-15.1511 Y18.2742 
G01 X-15.3194 Y18.2742 
G01 X-20.3071 Y13.2865 
G01 X-20.2681 Y13.2475 
G01 X-20.2681 Y12.1524 
G01 X-21.0425 Y11.3781 
G01 X-22.1117 Y11.3781 
G01 X-21.3860 Y10.6524 
G01 X-7.8240 Y10.6524 
G01 X-6.3629 Y12.1135 
G01 X-6.4019 Y12.1524 
G01 X-6.4019 Y13.2475 
G01 X-5.6275 Y14.0219 
G01 X-5.5724 Y14.0219 
G01 X-5.5724 Y17.8424 
G01 X-6.1676 Y17.8424 
G01 X-6.3593 Y17.8728 
G01 X-6.5439 Y17.9327 
G01 X-6.7168 Y18.0208 
G01 X-6.8738 Y18.1349 
G01 X-7.0111 Y18.2722 
G01 X-7.1252 Y18.4292 
G01 X-7.2133 Y18.6021 
G01 X-7.2732 Y18.7867 
G01 X-7.3036 Y18.9784 
G01 X-7.3036 Y19.1724 
G01 X-7.2732 Y19.3641 
G01 X-7.2133 Y19.5487 
G01 X-7.1252 Y19.7216 
G01 X-7.0111 Y19.8786 
G01 X-6.8738 Y20.0159 
G01 X-6.7168 Y20.1300 
G01 X-6.5439 Y20.2181 
G01 X-6.3593 Y20.2780 
G01 X-6.1676 Y20.3084 
G01 X-3.9924 Y20.3084 
G01 X-3.8007 Y20.2780 
G01 X-3.6161 Y20.2181 
G01 X-3.4432 Y20.1300 
G01 X-3.2862 Y20.0159 
G01 X-3.1489 Y19.8786 
G01 X-3.0348 Y19.7216 
G01 X-3.0324 Y19.7168 
G01 X-3.0324 Y23.4378 
G01 X-3.0348 Y23.4330 
G01 X-3.1489 Y23.2760 
G01 X-3.2862 Y23.1387 
G01 X-3.4432 Y23.0246 
G01 X-3.6161 Y22.9365 
G01 X-3.8007 Y22.8766 
G01 X-3.9924 Y22.8462 
G01 X-6.1676 Y22.8462 
G01 X-6.3593 Y22.8766 
G01 X-6.5439 Y22.9365 
G01 X-6.7168 Y23.0246 
G01 X-6.8738 Y23.1387 
G01 X-7.0111 Y23.2760 
G01 X-7.1252 Y23.4330 
G01 X-7.2133 Y23.6059 
G01 X-7.2236 Y23.6376 
G01 X-7.6848 Y23.6376 
G01 X-7.8101 Y23.6712 
G01 X-7.9223 Y23.7360 
G01 X-8.0140 Y23.8277 
G01 X-13.6380 Y29.4517 
G01 X-13.7170 Y29.4260 
G01 X-13.8850 Y29.3994 
G01 X-14.0550 Y29.3994 
G01 X-14.2230 Y29.4260 
G01 X-14.3848 Y29.4786 
G01 X-14.5364 Y29.5558 
G01 X-14.6740 Y29.6558 
G01 X-14.7942 Y29.7760 
G01 X-14.8942 Y29.9136 
G01 X-14.9714 Y30.0652 
G01 X-15.0240 Y30.2270 
G01 X-15.0506 Y30.3950 
G01 X-15.0506 Y30.5650 
G01 X-15.0240 Y30.7330 
G01 X-14.9714 Y30.8948 
G01 X-14.8942 Y31.0464 
G01 X-14.7942 Y31.1840 
G01 X-14.6740 Y31.3042 
G01 X-14.5364 Y31.4042 
G01 X-14.3848 Y31.4814 
G01 X-14.2230 Y31.5340 
G01 X-14.0550 Y31.5606 
G01 X-13.8850 Y31.5606 
G01 X-13.7170 Y31.5340 
G01 X-13.5552 Y31.4814 
G01 X-13.4036 Y31.4042 
G01 X-13.2660 Y31.3042 
G01 X-13.1458 Y31.1840 
G01 X-13.0458 Y31.0464 
G01 X-12.9686 Y30.8948 
G01 X-12.9160 Y30.7330 
G01 X-12.8894 Y30.5650 
G01 X-12.8894 Y30.3950 
G01 X-12.9160 Y30.2270 
G01 X-12.9417 Y30.1480 
G01 X-7.4160 Y24.6224 
G01 X-7.1777 Y24.6224 
G01 X-7.1252 Y24.7254 
G01 X-7.0111 Y24.8824 
G01 X-6.8738 Y25.0197 
G01 X-6.7168 Y25.1338 
G01 X-6.5439 Y25.2219 
G01 X-6.3593 Y25.2818 
G01 X-6.1676 Y25.3122 
G01 X-3.9924 Y25.3122 
G01 X-3.8007 Y25.2818 
G01 X-3.6161 Y25.2219 
G01 X-3.4432 Y25.1338 
G01 X-3.2862 Y25.0197 
G01 X-3.1489 Y24.8824 
G01 X-3.0348 Y24.7254 
G01 X-3.0324 Y24.7206 
G01 X-3.0324 Y25.1960 
G01 X-4.0140 Y26.1776 
G01 X-5.1448 Y26.1776 
G01 X-5.2701 Y26.2112 
G01 X-5.3823 Y26.2760 
G01 X-5.4740 Y26.3677 
G01 X-13.3835 Y34.2771 
G01 X-13.4225 Y34.2381 
G01 X-14.5175 Y34.2381 
G01 X-15.2919 Y35.0125 
G01 X-15.2919 Y36.1075 
G01 X-15.2529 Y36.1465 
G01 X-21.2580 Y42.1517 
G01 X-21.3370 Y42.1260 
G01 X-21.5050 Y42.0994 
G01 X-21.6750 Y42.0994 
G01 X-21.8430 Y42.1260 
G01 X-22.0048 Y42.1786 
G01 X-22.1564 Y42.2558 
G01 X-22.2940 Y42.3558 
G01 X-22.4142 Y42.4760 
G01 X-22.5142 Y42.6136 
G01 X-22.5914 Y42.7652 
G01 X-22.6440 Y42.9270 
G01 X-22.6706 Y43.0950 
G01 X-22.6706 Y43.2650 
G01 X-22.6440 Y43.4330 
G01 X-22.6183 Y43.5120 
G01 X-24.3340 Y45.2276 
G01 X-28.2481 Y45.2276 
G01 X-28.2858 Y45.1536 
G01 X-28.3858 Y45.0160 
G01 X-28.5060 Y44.8958 
G01 X-28.6436 Y44.7958 
G01 X-28.7952 Y44.7186 
G01 X-28.9570 Y44.6660 
G01 X-29.1250 Y44.6394 
G01 X-29.2950 Y44.6394 
G01 X-29.4630 Y44.6660 
G01 X-29.6248 Y44.7186 
G01 X-29.7764 Y44.7958 
G01 X-29.9140 Y44.8958 
G01 X-30.0342 Y45.0160 
G01 X-30.1342 Y45.1536 
G01 X-30.2114 Y45.3052 
G01 X-30.2640 Y45.4670 
G01 X-30.2906 Y45.6350 
G01 X-30.2906 Y45.8050 
G01 X-30.2640 Y45.9730 
G01 X-30.2114 Y46.1348 
G01 X-30.1342 Y46.2864 
G01 X-30.0342 Y46.4240 
G01 X-29.9140 Y46.5442 
G01 X-29.7764 Y46.6442 
G01 X-29.6248 Y46.7214 
G01 X-29.4630 Y46.7740 
G01 X-29.2950 Y46.8006 
G01 X-29.1250 Y46.8006 
G01 X-28.9570 Y46.7740 
G01 X-28.7952 Y46.7214 
G01 X-28.6436 Y46.6442 
G01 X-28.5060 Y46.5442 
G01 X-28.3858 Y46.4240 
G01 X-28.2858 Y46.2864 
G01 X-28.2481 Y46.2124 
G01 X-24.0652 Y46.2124 
G01 X-23.9399 Y46.1788 
G01 X-23.8277 Y46.1140 
G01 X-23.7360 Y46.0223 
G01 X-21.9220 Y44.2083 
G01 X-21.8430 Y44.2340 
G01 X-21.6750 Y44.2606 
G01 X-21.5050 Y44.2606 
G01 X-21.3370 Y44.2340 
G01 X-21.1752 Y44.1814 
G01 X-21.0236 Y44.1042 
G01 X-20.8860 Y44.0042 
G01 X-20.7658 Y43.8840 
G01 X-20.6658 Y43.7464 
G01 X-20.5886 Y43.5948 
G01 X-20.5360 Y43.4330 
G01 X-20.5094 Y43.2650 
G01 X-20.5094 Y43.0950 
G01 X-20.5360 Y42.9270 
G01 X-20.5617 Y42.8480 
G01 X-14.5565 Y36.8429 
G01 X-14.5175 Y36.8819 
G01 X-13.4225 Y36.8819 
G01 X-12.6481 Y36.1075 
G01 X-12.6481 Y36.0524 
G01 X-6.8424 Y36.0524 
G01 X-6.8424 Y40.1099 
G01 X-6.9164 Y40.1476 
G01 X-7.0540 Y40.2476 
G01 X-7.1742 Y40.3678 
G01 X-7.2742 Y40.5054 
G01 X-7.3514 Y40.6570 
G01 X-7.4040 Y40.8188 
G01 X-7.4306 Y40.9868 
G01 X-7.4306 Y42.8332 
G01 X-7.4040 Y43.0012 
G01 X-7.3514 Y43.1630 
G01 X-7.2742 Y43.3146 
G01 X-7.1742 Y43.4522 
G01 X-7.0540 Y43.5724 
G01 X-6.9164 Y43.6724 
G01 X-6.7648 Y43.7496 
G01 X-6.6030 Y43.8022 
G01 X-6.4350 Y43.8288 
G01 X-6.2650 Y43.8288 
G01 X-6.0970 Y43.8022 
G01 X-5.9352 Y43.7496 
G01 X-5.7836 Y43.6724 
G01 X-5.6460 Y43.5724 
G01 X-5.5258 Y43.4522 
G01 X-5.4258 Y43.3146 
G01 X-5.3486 Y43.1630 
G01 X-5.2960 Y43.0012 
G01 X-5.2694 Y42.8332 
G01 X-5.2694 Y40.9868 
G01 X-5.2960 Y40.8188 
G01 X-5.3486 Y40.6570 
G01 X-5.4258 Y40.5054 
G01 X-5.5258 Y40.3678 
G01 X-5.6460 Y40.2476 
G01 X-5.7836 Y40.1476 
G01 X-5.8576 Y40.1099 
G01 X-5.8576 Y35.4952 
G01 X-5.8912 Y35.3699 
G01 X-5.9560 Y35.2577 
G01 X-6.0477 Y35.1660 
G01 X-6.1599 Y35.1012 
G01 X-6.2852 Y35.0676 
G01 X-12.6481 Y35.0676 
G01 X-12.6481 Y35.0125 
G01 X-12.6871 Y34.9735 
G01 X-4.8760 Y27.1624 
G01 X-3.7452 Y27.1624 
G01 X-3.6199 Y27.1288 
G01 X-3.5077 Y27.0640 
G01 X-2.2377 Y25.7940 
G01 X-2.1460 Y25.7023 
G01 X-2.0812 Y25.5901 
G01 X-2.0476 Y25.4648 
G01 X-2.0476 Y18.9852 
G01 X-2.0812 Y18.8599 
G01 X-2.1460 Y18.7477 
G01 X-2.2377 Y18.6560 
G01 X-2.3499 Y18.5912 
G01 X-2.4752 Y18.5576 
G01 X-2.9694 Y18.5576 
G01 X-3.0348 Y18.4292 
G01 X-3.1489 Y18.2722 
G01 X-3.2862 Y18.1349 
G01 X-3.4432 Y18.0208 
G01 X-3.6161 Y17.9327 
G01 X-3.8007 Y17.8728 
G01 X-3.9924 Y17.8424 
G01 X-4.5876 Y17.8424 
G01 X-4.5876 Y14.0219 
G01 X-4.5324 Y14.0219 
G01 X-3.7581 Y13.2475 
G01 X-3.7581 Y12.1783 
G01 X-1.7624 Y14.1740 
G01 X-1.7624 Y43.9576 
G01 X-10.2412 Y43.9576 
G01 X-9.7233 Y43.4397 
G01 X-9.7142 Y43.4522 
G01 X-9.5940 Y43.5724 
G01 X-9.4564 Y43.6724 
G01 X-9.3048 Y43.7496 
G01 X-9.1430 Y43.8022 
G01 X-8.9750 Y43.8288 
G01 X-8.8050 Y43.8288 
G01 X-8.6370 Y43.8022 
G01 X-8.4752 Y43.7496 
G01 X-8.3236 Y43.6724 
G01 X-8.1860 Y43.5724 
G01 X-8.0658 Y43.4522 
G01 X-7.9658 Y43.3146 
G01 X-7.8886 Y43.1630 
G01 X-7.8360 Y43.0012 
G01 X-7.8094 Y42.8332 
G01 X-7.8094 Y40.9868 
G01 X-7.8360 Y40.8188 
G01 X-7.8886 Y40.6570 
G01 X-7.9658 Y40.5054 
G01 X-8.0658 Y40.3678 
G01 X-8.1860 Y40.2476 
G01 X-8.3236 Y40.1476 
G01 X-8.4752 Y40.0704 
G01 X-8.6370 Y40.0178 
G01 X-8.8050 Y39.9912 
G01 X-8.9750 Y39.9912 
G01 X-9.1430 Y40.0178 
G01 X-9.3048 Y40.0704 
G01 X-9.4564 Y40.1476 
G01 X-9.5940 Y40.2476 
G01 X-9.7142 Y40.3678 
G01 X-9.8142 Y40.5054 
G01 X-9.8914 Y40.6570 
G01 X-9.9440 Y40.8188 
G01 X-9.9706 Y40.9868 
G01 X-9.9706 Y42.2942 
G01 X-11.8240 Y44.1477 
G01 X-15.4440 Y47.7676 
G01 X-16.3060 Y47.7676 
G01 X-18.6560 Y45.4177 
G01 X-18.7477 Y45.3260 
G01 X-18.8599 Y45.2612 
G01 X-18.9852 Y45.2276 
G01 X-20.6281 Y45.2276 
G01 X-20.6658 Y45.1536 
G01 X-20.7658 Y45.0160 
G01 X-20.8860 Y44.8958 
G01 X-21.0236 Y44.7958 
G01 X-21.1752 Y44.7186 
G01 X-21.3370 Y44.6660 
G01 X-21.5050 Y44.6394 
G01 X-21.6750 Y44.6394 
G01 X-21.8430 Y44.6660 
G01 X-22.0048 Y44.7186 
G01 X-22.1564 Y44.7958 
G01 X-22.2940 Y44.8958 
G01 X-22.4142 Y45.0160 
G01 X-22.5142 Y45.1536 
G01 X-22.5914 Y45.3052 
G01 X-22.6440 Y45.4670 
G01 X-22.6706 Y45.6350 
G01 X-22.6706 Y45.8050 
G01 X-22.6440 Y45.9730 
G01 X-22.6183 Y46.0520 
G01 X-26.9723 Y50.4060 
G01 X-27.0640 Y50.4977 
G01 X-27.1288 Y50.6099 
G01 X-27.1624 Y50.7352 
G01 X-27.1624 Y63.0076 
G01 X-34.0860 Y63.0076 
G01 X-35.3022 Y61.7915 
G01 X-35.2137 Y61.8281 
G01 X-35.0393 Y61.8628 
G01 X-33.5407 Y61.8628 
G01 X-33.3663 Y61.8281 
G01 X-33.2020 Y61.7600 
G01 X-33.0541 Y61.6612 
G01 X-32.9284 Y61.5355 
G01 X-32.8728 Y61.4524 
G01 X-30.1719 Y61.4524 
G01 X-30.1342 Y61.5264 
G01 X-30.0342 Y61.6640 
G01 X-29.9140 Y61.7842 
G01 X-29.7764 Y61.8842 
G01 X-29.6248 Y61.9614 
G01 X-29.4630 Y62.0140 
G01 X-29.2950 Y62.0406 
G01 X-29.1250 Y62.0406 
G01 X-28.9570 Y62.0140 
G01 X-28.7952 Y61.9614 
G01 X-28.6436 Y61.8842 
G01 X-28.5060 Y61.7842 
G01 X-28.3858 Y61.6640 
G01 X-28.2858 Y61.5264 
G01 X-28.2086 Y61.3748 
G01 X-28.1560 Y61.2130 
G01 X-28.1294 Y61.0450 
G01 X-28.1294 Y60.8750 
G01 X-28.1560 Y60.7070 
G01 X-28.2086 Y60.5452 
G01 X-28.2858 Y60.3936 
G01 X-28.3858 Y60.2560 
G01 X-28.5060 Y60.1358 
G01 X-28.6436 Y60.0358 
G01 X-28.7952 Y59.9586 
G01 X-28.9570 Y59.9060 
G01 X-29.1250 Y59.8794 
G01 X-29.2950 Y59.8794 
G01 X-29.4630 Y59.9060 
G01 X-29.6248 Y59.9586 
G01 X-29.7764 Y60.0358 
G01 X-29.9140 Y60.1358 
G01 X-30.0342 Y60.2560 
G01 X-30.1342 Y60.3936 
G01 X-30.1719 Y60.4676 
G01 X-32.8728 Y60.4676 
G01 X-32.9284 Y60.3845 
G01 X-33.0541 Y60.2588 
G01 X-33.2020 Y60.1600 
G01 X-33.3663 Y60.0919 
G01 X-33.5407 Y60.0572 
G01 X-35.0393 Y60.0572 
G01 X-35.2137 Y60.0919 
G01 X-35.3780 Y60.1600 
G01 X-35.5259 Y60.2588 
G01 X-35.6516 Y60.3845 
G01 X-35.7504 Y60.5324 
G01 X-35.8185 Y60.6967 
G01 X-35.8532 Y60.8711 
G01 X-35.8532 Y61.0489 
G01 X-35.8185 Y61.2233 
G01 X-35.7819 Y61.3118 
G01 X-36.3376 Y60.7560 
G01 X-36.3376 Y42.4024 
G01 X-30.4152 Y42.4024 
G01 X-30.2899 Y42.3688 
G01 X-30.1777 Y42.3040 
G01 X-30.0860 Y42.2123 
G01 X-29.5420 Y41.6683 
G01 X-29.4630 Y41.6940 
G01 X-29.2950 Y41.7206 
G01 X-29.1250 Y41.7206 
G01 X-28.9570 Y41.6940 
G01 X-28.7952 Y41.6414 
G01 X-28.6436 Y41.5642 
G01 X-28.5060 Y41.4642 
G01 X-28.3858 Y41.3440 
G01 X-28.2858 Y41.2064 
G01 X-28.2086 Y41.0548 
G01 X-28.1560 Y40.8930 
G01 X-28.1294 Y40.7250 
G01 X-28.1294 Y40.5550 
G01 X-28.1560 Y40.3870 
G01 X-28.2086 Y40.2252 
G01 X-28.2858 Y40.0736 
G01 X-28.3858 Y39.9360 
G01 X-28.5060 Y39.8158 
G01 X-28.6436 Y39.7158 
G01 X-28.7952 Y39.6386 
G01 X-28.9570 Y39.5860 
G01 X-29.1250 Y39.5594 
G01 X-29.2950 Y39.5594 
G01 X-29.4630 Y39.5860 
G01 X-29.6248 Y39.6386 
G01 X-29.7764 Y39.7158 
G01 X-29.9140 Y39.8158 
G01 X-30.0342 Y39.9360 
G01 X-30.1342 Y40.0736 
G01 X-30.2114 Y40.2252 
G01 X-30.2640 Y40.3870 
G01 X-30.2906 Y40.5550 
G01 X-30.2906 Y40.7250 
G01 X-30.2640 Y40.8930 
G01 X-30.2383 Y40.9720 
G01 X-30.6840 Y41.4176 
G01 X-33.1684 Y41.4176 
G01 X-33.0541 Y41.3412 
G01 X-32.9284 Y41.2155 
G01 X-32.8296 Y41.0676 
G01 X-32.7615 Y40.9033 
G01 X-32.7268 Y40.7289 
G01 X-32.7268 Y40.5511 
G01 X-32.7615 Y40.3767 
G01 X-32.8296 Y40.2124 
G01 X-32.9284 Y40.0645 
G01 X-32.9732 Y40.0196 
G01 X-31.5460 Y38.5924 
G01 X-30.1719 Y38.5924 
G01 X-30.1342 Y38.6664 
G00 Z2.5400 
G00 X-2.7294 Y42.8332 
G01 Z-0.1500 F254.00 
G01 X-2.7294 Y40.9868 F508.00 
G01 X-2.7560 Y40.8188 
G01 X-2.8086 Y40.6570 
G01 X-2.8858 Y40.5054 
G01 X-2.9858 Y40.3678 
G01 X-3.1060 Y40.2476 
G01 X-3.2436 Y40.1476 
G01 X-3.3176 Y40.1099 
G01 X-3.3176 Y36.8819 
G01 X-3.2625 Y36.8819 
G01 X-2.4881 Y36.1075 
G01 X-2.4881 Y35.0125 
G01 X-3.2625 Y34.2381 
G01 X-3.3176 Y34.2381 
G01 X-3.3176 Y31.4419 
G01 X-3.2436 Y31.4042 
G01 X-3.1060 Y31.3042 
G01 X-2.9858 Y31.1840 
G01 X-2.8858 Y31.0464 
G01 X-2.8086 Y30.8948 
G01 X-2.7560 Y30.7330 
G01 X-2.7294 Y30.5650 
G01 X-2.7294 Y30.3950 
G01 X-2.7560 Y30.2270 
G01 X-2.8086 Y30.0652 
G01 X-2.8858 Y29.9136 
G01 X-2.9858 Y29.7760 
G01 X-3.1060 Y29.6558 
G01 X-3.2436 Y29.5558 
G01 X-3.3952 Y29.4786 
G01 X-3.5570 Y29.4260 
G01 X-3.7250 Y29.3994 
G01 X-3.8950 Y29.3994 
G01 X-4.0630 Y29.4260 
G01 X-4.2248 Y29.4786 
G01 X-4.3764 Y29.5558 
G01 X-4.5140 Y29.6558 
G01 X-4.6342 Y29.7760 
G01 X-4.7342 Y29.9136 
G01 X-4.8114 Y30.0652 
G01 X-4.8640 Y30.2270 
G01 X-4.8906 Y30.3950 
G01 X-4.8906 Y30.5650 
G01 X-4.8640 Y30.7330 
G01 X-4.8114 Y30.8948 
G01 X-4.7342 Y31.0464 
G01 X-4.6342 Y31.1840 
G01 X-4.5140 Y31.3042 
G01 X-4.3764 Y31.4042 
G01 X-4.3024 Y31.4419 
G01 X-4.3024 Y34.2381 
G01 X-4.3575 Y34.2381 
G01 X-5.1319 Y35.0125 
G01 X-5.1319 Y36.1075 
G01 X-4.3575 Y36.8819 
G01 X-4.3024 Y36.8819 
G01 X-4.3024 Y40.1099 
G01 X-4.3764 Y40.1476 
G01 X-4.5140 Y40.2476 
G01 X-4.6342 Y40.3678 
G01 X-4.7342 Y40.5054 
G01 X-4.8114 Y40.6570 
G01 X-4.8640 Y40.8188 
G01 X-4.8906 Y40.9868 
G01 X-4.8906 Y42.8332 
G01 X-4.8640 Y43.0012 
G01 X-4.8114 Y43.1630 
G01 X-4.7342 Y43.3146 
G01 X-4.6342 Y43.4522 
G01 X-4.5140 Y43.5724 
G01 X-4.3764 Y43.6724 
G01 X-4.2248 Y43.7496 
G01 X-4.0630 Y43.8022 
G01 X-3.8950 Y43.8288 
G01 X-3.7250 Y43.8288 
G01 X-3.5570 Y43.8022 
G01 X-3.3952 Y43.7496 
G01 X-3.2436 Y43.6724 
G01 X-3.1060 Y43.5724 
G01 X-2.9858 Y43.4522 
G01 X-2.8858 Y43.3146 
G01 X-2.8086 Y43.1630 
G01 X-2.7560 Y43.0012 
G01 X-2.7294 Y42.8332 
G00 Z2.5400 
G00 X-15.8155 Y24.7042 
G01 Z-0.1500 F254.00 
G01 X-15.6676 Y24.8030 F508.00 
G01 X-15.5033 Y24.8711 
G01 X-15.3289 Y24.9058 
G01 X-15.1511 Y24.9058 
G01 X-14.9767 Y24.8711 
G01 X-14.8124 Y24.8030 
G01 X-14.6645 Y24.7042 
G01 X-14.5388 Y24.5785 
G01 X-14.4400 Y24.4306 
G01 X-14.3719 Y24.2663 
G01 X-14.3372 Y24.0919 
G01 X-14.3372 Y23.9236 
G01 X-11.1277 Y20.7140 
G01 X-11.0360 Y20.6223 
G01 X-10.9712 Y20.5101 
G01 X-10.9376 Y20.3848 
G01 X-10.9376 Y12.6352 
G01 X-10.9712 Y12.5099 
G01 X-11.0360 Y12.3977 
G01 X-11.1277 Y12.3060 
G01 X-11.2399 Y12.2412 
G01 X-11.3652 Y12.2076 
G01 X-13.9181 Y12.2076 
G01 X-13.9181 Y12.1524 
G01 X-14.6925 Y11.3781 
G01 X-15.7875 Y11.3781 
G01 X-16.5619 Y12.1524 
G01 X-16.5619 Y13.2475 
G01 X-15.7875 Y14.0219 
G01 X-14.6925 Y14.0219 
G01 X-13.9181 Y13.2475 
G01 X-13.9181 Y13.1924 
G01 X-11.9224 Y13.1924 
G01 X-11.9224 Y20.1160 
G01 X-14.9516 Y23.1453 
G01 X-14.9767 Y23.1349 
G01 X-15.1511 Y23.1002 
G01 X-15.3289 Y23.1002 
G01 X-15.5033 Y23.1349 
G01 X-15.6676 Y23.2030 
G01 X-15.8155 Y23.3018 
G01 X-15.9412 Y23.4275 
G01 X-16.0400 Y23.5754 
G01 X-16.0658 Y23.6376 
G01 X-16.5748 Y23.6376 
G01 X-16.7001 Y23.6712 
G01 X-16.8123 Y23.7360 
G01 X-16.9040 Y23.8277 
G01 X-16.9688 Y23.9399 
G01 X-17.0024 Y24.0652 
G01 X-17.0024 Y35.3560 
G01 X-21.2580 Y39.6117 
G01 X-21.3370 Y39.5860 
G01 X-21.5050 Y39.5594 
G01 X-21.6750 Y39.5594 
G01 X-21.8430 Y39.5860 
G01 X-22.0048 Y39.6386 
G01 X-22.1564 Y39.7158 
G01 X-22.2940 Y39.8158 
G01 X-22.4142 Y39.9360 
G01 X-22.5142 Y40.0736 
G01 X-22.5914 Y40.2252 
G01 X-22.6440 Y40.3870 
G01 X-22.6706 Y40.5550 
G01 X-22.6706 Y40.7250 
G01 X-22.6440 Y40.8930 
G01 X-22.5914 Y41.0548 
G01 X-22.5142 Y41.2064 
G01 X-22.4142 Y41.3440 
G01 X-22.2940 Y41.4642 
G01 X-22.1564 Y41.5642 
G01 X-22.0048 Y41.6414 
G01 X-21.8430 Y41.6940 
G01 X-21.6750 Y41.7206 
G01 X-21.5050 Y41.7206 
G01 X-21.3370 Y41.6940 
G01 X-21.1752 Y41.6414 
G01 X-21.0236 Y41.5642 
G01 X-20.8860 Y41.4642 
G01 X-20.7658 Y41.3440 
G01 X-20.6658 Y41.2064 
G01 X-20.5886 Y41.0548 
G01 X-20.5360 Y40.8930 
G01 X-20.5094 Y40.7250 
G01 X-20.5094 Y40.5550 
G01 X-20.5360 Y40.3870 
G01 X-20.5617 Y40.3080 
G01 X-16.2077 Y35.9540 
G01 X-16.1160 Y35.8623 
G01 X-16.0512 Y35.7501 
G01 X-16.0176 Y35.6248 
G01 X-16.0176 Y24.6224 
G01 X-15.8974 Y24.6224 
G01 X-15.8155 Y24.7042 
G00 Z2.5400 
G00 X-22.6706 Y32.9350 
G01 Z-0.1500 F254.00 
G01 X-22.6706 Y33.1050 F508.00 
G01 X-22.6440 Y33.2730 
G01 X-22.5914 Y33.4348 
G01 X-22.5142 Y33.5864 
G01 X-22.4142 Y33.7240 
G01 X-22.2940 Y33.8442 
G01 X-22.1564 Y33.9442 
G01 X-22.0048 Y34.0214 
G01 X-21.8430 Y34.0740 
G01 X-21.6750 Y34.1006 
G01 X-21.5050 Y34.1006 
G01 X-21.3370 Y34.0740 
G01 X-21.1752 Y34.0214 
G01 X-21.0236 Y33.9442 
G01 X-20.8860 Y33.8442 
G01 X-20.7658 Y33.7240 
G01 X-20.6658 Y33.5864 
G01 X-20.5886 Y33.4348 
G01 X-20.5360 Y33.2730 
G01 X-20.5094 Y33.1050 
G01 X-20.5094 Y32.9350 
G01 X-20.5360 Y32.7670 
G01 X-20.5886 Y32.6052 
G01 X-20.6658 Y32.4536 
G01 X-20.7658 Y32.3160 
G01 X-20.8860 Y32.1958 
G01 X-21.0236 Y32.0958 
G01 X-21.1752 Y32.0186 
G01 X-21.3370 Y31.9660 
G01 X-21.5050 Y31.9394 
G01 X-21.6750 Y31.9394 
G01 X-21.8430 Y31.9660 
G01 X-22.0048 Y32.0186 
G01 X-22.1564 Y32.0958 
G01 X-22.2940 Y32.1958 
G01 X-22.4142 Y32.3160 
G01 X-22.5142 Y32.4536 
G01 X-22.5914 Y32.6052 
G01 X-22.6440 Y32.7670 
G01 X-22.6706 Y32.9350 
G00 Z2.5400 
G00 X-22.6706 Y30.3950 
G01 Z-0.1500 F254.00 
G01 X-22.6706 Y30.5650 F508.00 
G01 X-22.6440 Y30.7330 
G01 X-22.5914 Y30.8948 
G01 X-22.5142 Y31.0464 
G01 X-22.4142 Y31.1840 
G01 X-22.2940 Y31.3042 
G01 X-22.1564 Y31.4042 
G01 X-22.0048 Y31.4814 
G01 X-21.8430 Y31.5340 
G01 X-21.6750 Y31.5606 
G01 X-21.5050 Y31.5606 
G01 X-21.3370 Y31.5340 
G01 X-21.1752 Y31.4814 
G01 X-21.0236 Y31.4042 
G01 X-20.8860 Y31.3042 
G01 X-20.7658 Y31.1840 
G01 X-20.6658 Y31.0464 
G01 X-20.5886 Y30.8948 
G01 X-20.5360 Y30.7330 
G01 X-20.5094 Y30.5650 
G01 X-20.5094 Y30.3950 
G01 X-20.5360 Y30.2270 
G01 X-20.5886 Y30.0652 
G01 X-20.6658 Y29.9136 
G01 X-20.7658 Y29.7760 
G01 X-20.8860 Y29.6558 
G01 X-21.0236 Y29.5558 
G01 X-21.1752 Y29.4786 
G01 X-21.3370 Y29.4260 
G01 X-21.5050 Y29.3994 
G01 X-21.6750 Y29.3994 
G01 X-21.8430 Y29.4260 
G01 X-22.0048 Y29.4786 
G01 X-22.1564 Y29.5558 
G01 X-22.2940 Y29.6558 
G01 X-22.4142 Y29.7760 
G01 X-22.5142 Y29.9136 
G01 X-22.5914 Y30.0652 
G01 X-22.6440 Y30.2270 
G01 X-22.6706 Y30.3950 
G00 Z2.5400 
G00 X-30.2906 Y43.0950 
G01 Z-0.1500 F254.00 
G01 X-30.2906 Y43.2650 F508.00 
G01 X-30.2640 Y43.4330 
G01 X-30.2114 Y43.5948 
G01 X-30.1342 Y43.7464 
G01 X-30.0342 Y43.8840 
G01 X-29.9140 Y44.0042 
G01 X-29.7764 Y44.1042 
G01 X-29.6248 Y44.1814 
G01 X-29.4630 Y44.2340 
G01 X-29.2950 Y44.2606 
G01 X-29.1250 Y44.2606 
G01 X-28.9570 Y44.2340 
G01 X-28.7952 Y44.1814 
G01 X-28.6436 Y44.1042 
G01 X-28.5060 Y44.0042 
G01 X-28.3858 Y43.8840 
G01 X-28.2858 Y43.7464 
G01 X-28.2086 Y43.5948 
G01 X-28.1560 Y43.4330 
G01 X-28.1294 Y43.2650 
G01 X-28.1294 Y43.0950 
G01 X-28.1560 Y42.9270 
G01 X-28.2086 Y42.7652 
G01 X-28.2858 Y42.6136 
G01 X-28.3858 Y42.4760 
G01 X-28.5060 Y42.3558 
G01 X-28.6436 Y42.2558 
G01 X-28.7952 Y42.1786 
G01 X-28.9570 Y42.1260 
G01 X-29.1250 Y42.0994 
G01 X-29.2950 Y42.0994 
G01 X-29.4630 Y42.1260 
G01 X-29.6248 Y42.1786 
G01 X-29.7764 Y42.2558 
G01 X-29.9140 Y42.3558 
G01 X-30.0342 Y42.4760 
G01 X-30.1342 Y42.6136 
G01 X-30.2114 Y42.7652 
G01 X-30.2640 Y42.9270 
G01 X-30.2906 Y43.0950 
G00 Z2.5400 
G00 X-30.1342 Y51.3664 
G01 Z-0.1500 F254.00 
G01 X-30.0342 Y51.5040 F508.00 
G01 X-29.9140 Y51.6242 
G01 X-29.7764 Y51.7242 
G01 X-29.6248 Y51.8014 
G01 X-29.4630 Y51.8540 
G01 X-29.2950 Y51.8806 
G01 X-29.1250 Y51.8806 
G01 X-28.9570 Y51.8540 
G01 X-28.7952 Y51.8014 
G01 X-28.6436 Y51.7242 
G01 X-28.5060 Y51.6242 
G01 X-28.3858 Y51.5040 
G01 X-28.2858 Y51.3664 
G01 X-28.2086 Y51.2148 
G01 X-28.1560 Y51.0530 
G01 X-28.1294 Y50.8850 
G01 X-28.1294 Y50.7150 
G01 X-28.1560 Y50.5470 
G01 X-28.2086 Y50.3852 
G01 X-28.2858 Y50.2336 
G01 X-28.3858 Y50.0960 
G01 X-28.5060 Y49.9758 
G01 X-28.6436 Y49.8758 
G01 X-28.7952 Y49.7986 
G01 X-28.9570 Y49.7460 
G01 X-29.1250 Y49.7194 
G01 X-29.2950 Y49.7194 
G01 X-29.4630 Y49.7460 
G01 X-29.6248 Y49.7986 
G01 X-29.7764 Y49.8758 
G01 X-29.9140 Y49.9758 
G01 X-30.0342 Y50.0960 
G01 X-30.1342 Y50.2336 
G01 X-30.1719 Y50.3076 
G01 X-32.8728 Y50.3076 
G01 X-32.9284 Y50.2245 
G01 X-33.0541 Y50.0988 
G01 X-33.2020 Y50.0000 
G01 X-33.3663 Y49.9319 
G01 X-33.5407 Y49.8972 
G01 X-35.0393 Y49.8972 
G01 X-35.2137 Y49.9319 
G01 X-35.3780 Y50.0000 
G01 X-35.5259 Y50.0988 
G01 X-35.6516 Y50.2245 
G01 X-35.7504 Y50.3724 
G01 X-35.8185 Y50.5367 
G01 X-35.8532 Y50.7111 
G01 X-35.8532 Y50.8889 
G01 X-35.8185 Y51.0633 
G01 X-35.7504 Y51.2276 
G01 X-35.6516 Y51.3755 
G01 X-35.5259 Y51.5012 
G01 X-35.3780 Y51.6000 
G01 X-35.2137 Y51.6681 
G01 X-35.0393 Y51.7028 
G01 X-33.5407 Y51.7028 
G01 X-33.3663 Y51.6681 
G01 X-33.2020 Y51.6000 
G01 X-33.0541 Y51.5012 
G01 X-32.9284 Y51.3755 
G01 X-32.8728 Y51.2924 
G01 X-30.1719 Y51.2924 
G01 X-30.1342 Y51.3664 
G00 Z2.5400 
G00 X-30.1342 Y56.4464 
G01 Z-0.1500 F254.00 
G01 X-30.0342 Y56.5840 F508.00 
G01 X-29.9140 Y56.7042 
G01 X-29.7764 Y56.8042 
G01 X-29.6248 Y56.8814 
G01 X-29.4630 Y56.9340 
G01 X-29.2950 Y56.9606 
G01 X-29.1250 Y56.9606 
G01 X-28.9570 Y56.9340 
G01 X-28.7952 Y56.8814 
G01 X-28.6436 Y56.8042 
G01 X-28.5060 Y56.7042 
G01 X-28.3858 Y56.5840 
G01 X-28.2858 Y56.4464 
G01 X-28.2086 Y56.2948 
G01 X-28.1560 Y56.1330 
G01 X-28.1294 Y55.9650 
G01 X-28.1294 Y55.7950 
G01 X-28.1560 Y55.6270 
G01 X-28.2086 Y55.4652 
G01 X-28.2858 Y55.3136 
G01 X-28.3858 Y55.1760 
G01 X-28.5060 Y55.0558 
G01 X-28.6436 Y54.9558 
G01 X-28.7952 Y54.8786 
G01 X-28.9570 Y54.8260 
G01 X-29.1250 Y54.7994 
G01 X-29.2950 Y54.7994 
G01 X-29.4630 Y54.8260 
G01 X-29.6248 Y54.8786 
G01 X-29.7764 Y54.9558 
G01 X-29.9140 Y55.0558 
G01 X-30.0342 Y55.1760 
G01 X-30.1342 Y55.3136 
G01 X-30.1719 Y55.3876 
G01 X-32.8728 Y55.3876 
G01 X-32.9284 Y55.3045 
G01 X-33.0541 Y55.1788 
G01 X-33.2020 Y55.0800 
G01 X-33.3663 Y55.0119 
G01 X-33.5407 Y54.9772 
G01 X-35.0393 Y54.9772 
G01 X-35.2137 Y55.0119 
G01 X-35.3780 Y55.0800 
G01 X-35.5259 Y55.1788 
G01 X-35.6516 Y55.3045 
G01 X-35.7504 Y55.4524 
G01 X-35.8185 Y55.6167 
G01 X-35.8532 Y55.7911 
G01 X-35.8532 Y55.9689 
G01 X-35.8185 Y56.1433 
G01 X-35.7504 Y56.3076 
G01 X-35.6516 Y56.4555 
G01 X-35.5259 Y56.5812 
G01 X-35.3780 Y56.6800 
G01 X-35.2137 Y56.7481 
G01 X-35.0393 Y56.7828 
G01 X-33.5407 Y56.7828 
G01 X-33.3663 Y56.7481 
G01 X-33.2020 Y56.6800 
G01 X-33.0541 Y56.5812 
G01 X-32.9284 Y56.4555 
G01 X-32.8728 Y56.3724 
G01 X-30.1719 Y56.3724 
G01 X-30.1342 Y56.4464 
G00 Z2.5400 
G00 X-33.5407 Y47.3572 
G01 Z-0.1500 F254.00 
G01 X-35.0393 Y47.3572 F508.00 
G01 X-35.2137 Y47.3919 
G01 X-35.3780 Y47.4599 
G01 X-35.5259 Y47.5588 
G01 X-35.6516 Y47.6845 
G01 X-35.7504 Y47.8324 
G01 X-35.8185 Y47.9967 
G01 X-35.8532 Y48.1711 
G01 X-35.8532 Y48.3489 
G01 X-35.8185 Y48.5233 
G01 X-35.7504 Y48.6876 
G01 X-35.6516 Y48.8355 
G01 X-35.5259 Y48.9612 
G01 X-35.3780 Y49.0600 
G01 X-35.2137 Y49.1281 
G01 X-35.0393 Y49.1628 
G01 X-33.5407 Y49.1628 
G01 X-33.3663 Y49.1281 
G01 X-33.2020 Y49.0600 
G01 X-33.0541 Y48.9612 
G01 X-32.9284 Y48.8355 
G01 X-32.8728 Y48.7524 
G01 X-30.1719 Y48.7524 
G01 X-30.1342 Y48.8264 
G01 X-30.0342 Y48.9640 
G01 X-29.9140 Y49.0842 
G01 X-29.7764 Y49.1842 
G01 X-29.6248 Y49.2614 
G01 X-29.4630 Y49.3140 
G01 X-29.2950 Y49.3406 
G01 X-29.1250 Y49.3406 
G01 X-28.9570 Y49.3140 
G01 X-28.7952 Y49.2614 
G01 X-28.6436 Y49.1842 
G01 X-28.5060 Y49.0842 
G01 X-28.3858 Y48.9640 
G01 X-28.2858 Y48.8264 
G01 X-28.2086 Y48.6748 
G01 X-28.1560 Y48.5130 
G01 X-28.1294 Y48.3450 
G01 X-28.1294 Y48.1750 
G01 X-28.1560 Y48.0070 
G01 X-28.2086 Y47.8452 
G01 X-28.2858 Y47.6936 
G01 X-28.3858 Y47.5560 
G01 X-28.5060 Y47.4358 
G01 X-28.6436 Y47.3358 
G01 X-28.7952 Y47.2586 
G01 X-28.9570 Y47.2060 
G01 X-29.1250 Y47.1794 
G01 X-29.2950 Y47.1794 
G01 X-29.4630 Y47.2060 
G01 X-29.6248 Y47.2586 
G01 X-29.7764 Y47.3358 
G01 X-29.9140 Y47.4358 
G01 X-30.0342 Y47.5560 
G01 X-30.1342 Y47.6936 
G01 X-30.1719 Y47.7676 
G01 X-32.8728 Y47.7676 
G01 X-32.9284 Y47.6845 
G01 X-33.0541 Y47.5588 
G01 X-33.2020 Y47.4599 
G01 X-33.3663 Y47.3919 
G01 X-33.5407 Y47.3572 
G00 Z2.5400 
G00 X-33.5407 Y52.4372 
G01 Z-0.1500 F254.00 
G01 X-35.0393 Y52.4372 F508.00 
G01 X-35.2137 Y52.4719 
G01 X-35.3780 Y52.5400 
G01 X-35.5259 Y52.6388 
G01 X-35.6516 Y52.7645 
G01 X-35.7504 Y52.9124 
G01 X-35.8185 Y53.0767 
G01 X-35.8532 Y53.2511 
G01 X-35.8532 Y53.4289 
G01 X-35.8185 Y53.6033 
G01 X-35.7504 Y53.7676 
G01 X-35.6516 Y53.9155 
G01 X-35.5259 Y54.0412 
G01 X-35.3780 Y54.1400 
G01 X-35.2137 Y54.2081 
G01 X-35.0393 Y54.2428 
G01 X-33.5407 Y54.2428 
G01 X-33.3663 Y54.2081 
G01 X-33.2020 Y54.1400 
G01 X-33.0541 Y54.0412 
G01 X-32.9284 Y53.9155 
G01 X-32.8728 Y53.8324 
G01 X-30.1719 Y53.8324 
G01 X-30.1342 Y53.9064 
G01 X-30.0342 Y54.0440 
G01 X-29.9140 Y54.1642 
G01 X-29.7764 Y54.2642 
G01 X-29.6248 Y54.3414 
G01 X-29.4630 Y54.3940 
G01 X-29.2950 Y54.4206 
G01 X-29.1250 Y54.4206 
G01 X-28.9570 Y54.3940 
G01 X-28.7952 Y54.3414 
G01 X-28.6436 Y54.2642 
G01 X-28.5060 Y54.1642 
G01 X-28.3858 Y54.0440 
G01 X-28.2858 Y53.9064 
G01 X-28.2086 Y53.7548 
G01 X-28.1560 Y53.5930 
G01 X-28.1294 Y53.4250 
G01 X-28.1294 Y53.2550 
G01 X-28.1560 Y53.0870 
G01 X-28.2086 Y52.9252 
G01 X-28.2858 Y52.7736 
G01 X-28.3858 Y52.6360 
G01 X-28.5060 Y52.5158 
G01 X-28.6436 Y52.4158 
G01 X-28.7952 Y52.3386 
G01 X-28.9570 Y52.2860 
G01 X-29.1250 Y52.2594 
G01 X-29.2950 Y52.2594 
G01 X-29.4630 Y52.2860 
G01 X-29.6248 Y52.3386 
G01 X-29.7764 Y52.4158 
G01 X-29.9140 Y52.5158 
G01 X-30.0342 Y52.6360 
G01 X-30.1342 Y52.7736 
G01 X-30.1719 Y52.8476 
G01 X-32.8728 Y52.8476 
G01 X-32.9284 Y52.7645 
G01 X-33.0541 Y52.6388 
G01 X-33.2020 Y52.5400 
G01 X-33.3663 Y52.4719 
G01 X-33.5407 Y52.4372 
G00 Z2.5400 
G00 X-33.5407 Y57.5172 
G01 Z-0.1500 F254.00 
G01 X-35.0393 Y57.5172 F508.00 
G01 X-35.2137 Y57.5519 
G01 X-35.3780 Y57.6200 
G01 X-35.5259 Y57.7188 
G01 X-35.6516 Y57.8445 
G01 X-35.7504 Y57.9924 
G01 X-35.8185 Y58.1567 
G01 X-35.8532 Y58.3311 
G01 X-35.8532 Y58.5089 
G01 X-35.8185 Y58.6833 
G01 X-35.7504 Y58.8476 
G01 X-35.6516 Y58.9955 
G01 X-35.5259 Y59.1212 
G01 X-35.3780 Y59.2200 
G01 X-35.2137 Y59.2881 
G01 X-35.0393 Y59.3228 
G01 X-33.5407 Y59.3228 
G01 X-33.3663 Y59.2881 
G01 X-33.2020 Y59.2200 
G01 X-33.0541 Y59.1212 
G01 X-32.9284 Y58.9955 
G01 X-32.8728 Y58.9124 
G01 X-30.1719 Y58.9124 
G01 X-30.1342 Y58.9864 
G01 X-30.0342 Y59.1240 
G01 X-29.9140 Y59.2442 
G01 X-29.7764 Y59.3442 
G01 X-29.6248 Y59.4214 
G01 X-29.4630 Y59.4740 
G01 X-29.2950 Y59.5006 
G01 X-29.1250 Y59.5006 
G01 X-28.9570 Y59.4740 
G01 X-28.7952 Y59.4214 
G01 X-28.6436 Y59.3442 
G01 X-28.5060 Y59.2442 
G01 X-28.3858 Y59.1240 
G01 X-28.2858 Y58.9864 
G01 X-28.2086 Y58.8348 
G01 X-28.1560 Y58.6730 
G01 X-28.1294 Y58.5050 
G01 X-28.1294 Y58.3350 
G01 X-28.1560 Y58.1670 
G01 X-28.2086 Y58.0052 
G01 X-28.2858 Y57.8536 
G01 X-28.3858 Y57.7160 
G01 X-28.5060 Y57.5958 
G01 X-28.6436 Y57.4958 
G01 X-28.7952 Y57.4186 
G01 X-28.9570 Y57.3660 
G01 X-29.1250 Y57.3394 
G01 X-29.2950 Y57.3394 
G01 X-29.4630 Y57.3660 
G01 X-29.6248 Y57.4186 
G01 X-29.7764 Y57.4958 
G01 X-29.9140 Y57.5958 
G01 X-30.0342 Y57.7160 
G01 X-30.1342 Y57.8536 
G01 X-30.1719 Y57.9276 
G01 X-32.8728 Y57.9276 
G01 X-32.9284 Y57.8445 
G01 X-33.0541 Y57.7188 
G01 X-33.2020 Y57.6200 
G01 X-33.3663 Y57.5519 
G01 X-33.5407 Y57.5172 
G00 Z2.5400 
G00 X-34.3548 Y63.9924 
G01 Z-0.1500 F254.00 
G01 X-26.6052 Y63.9924 F508.00 
G01 X-26.4799 Y63.9588 
G01 X-26.3677 Y63.8940 
G01 X-26.2760 Y63.8023 
G01 X-26.2112 Y63.6901 
G01 X-26.1776 Y63.5648 
G01 X-26.1776 Y51.0040 
G01 X-21.9220 Y46.7483 
G01 X-21.8430 Y46.7740 
G01 X-21.6750 Y46.8006 
G01 X-21.5050 Y46.8006 
G01 X-21.3370 Y46.7740 
G01 X-21.1752 Y46.7214 
G01 X-21.0236 Y46.6442 
G01 X-20.8860 Y46.5442 
G01 X-20.7658 Y46.4240 
G01 X-20.6658 Y46.2864 
G01 X-20.6281 Y46.2124 
G01 X-19.2540 Y46.2124 
G01 X-16.9040 Y48.5623 
G01 X-16.8123 Y48.6540 
G01 X-16.7001 Y48.7188 
G01 X-16.5748 Y48.7524 
G01 X-15.7391 Y48.7524 
G01 X-16.1428 Y49.1560 
G01 X-16.1428 Y49.9040 
G01 X-15.7391 Y50.3076 
G01 X-18.8460 Y50.3076 
G01 X-20.5617 Y48.5920 
G01 X-20.5360 Y48.5130 
G01 X-20.5094 Y48.3450 
G01 X-20.5094 Y48.1750 
G01 X-20.5360 Y48.0070 
G01 X-20.5886 Y47.8452 
G01 X-20.6658 Y47.6936 
G01 X-20.7658 Y47.5560 
