(.../pcb-gcode-3.6.0.4/pcb-gcode.ulp)
(Copyright 2005 - 2012 by John Johnson)
(See readme.txt for licensing terms.)
(This file generated from the board:)
(.../Documents/eagle/carm2/carm2.brd)
(Current profile is .../pcb-gcode-3.6.0.4/profiles/emc.pp  )
(This file generated 1/20/2014 1:52:57 PM)
(Settings from pcb-machine.h)
(  Tool Size)
(0.2000 )
(Z Axis Settings)
(  High     Up        Down     Drill)
(12.7000 	2.5400 	-0.1500 	-0.8128 )
(spindle on time = 3.0000)
(milling depth = -0.1500)
(text depth = -0.1270)
(tool change at 12.7000 15.2400 25.4000 )
(feed rate xy = F508.00 )
(feed rate z  = F254.00 )
(Settings from pcb-defaults.h)
(isolate min = 0.0154)
(isolate max = 0.5080)
(isolate step = 0.1270)
(Generated top outlines, top drill, bottom outlines, bottom drill, )
(Unit of measure: mm)
( Tool|       Size       |  Min Sub |  Max Sub |   Count )
( T01  3.302mm 0.1300in 0.0000in 0.0000in )
( T02  0.600mm 0.0236in 0.0000in 0.0000in )
( T03  0.813mm 0.0320in 0.0000in 0.0000in )
( T04  1.016mm 0.0400in 0.0000in 0.0000in )
( T05  1.118mm 0.0440in 0.0000in 0.0000in )
( T06  1.321mm 0.0520in 0.0000in 0.0000in )
(Metric Mode)
G21
(Absolute Coordinates)
G90
M05
G00 Z25.4000 
G00 X12.7000 Y15.2400 
M06 T01  ; 3.3020 
G01 Z0.0000 F254.00 
M06 T01  ; 3.3020 
G00 Z2.5400 
M03
G04 P3.000000
G00 Z2.540000
G00 X-6.3500 Y56.8960 
G01 Z-0.8128 F254.00 
G01 Z2.540000
(R2.5400  P1.000000)
M05
G00 Z25.4000 
M06 T02  ; 0.6000 
G01 Z0.0000 F254.00 
M06 T02  ; 0.6000 
G00 Z2.5400 
M03
G04 P3.000000
G00 Z2.540000
G00 X-39.3700 Y68.5800 
G01 Z-0.8128 F254.00 
G01 Z2.540000
(R2.5400  P1.000000)
(G00 Z2.540000)
G00 X-39.3700 Y8.8900 
G01 Z-0.812800
G01 Z2.540000
(G00 Z2.540000)
G00 X-1.2700 Y68.5800 
G01 Z-0.812800
G01 Z2.540000
(G00 Z2.540000)
G00 X-1.2700 Y8.8900 
G01 Z-0.812800
G01 Z2.540000
M05
G00 Z25.4000 
M06 T03  ; 0.8128 
G01 Z0.0000 F254.00 
M06 T03  ; 0.8128 
G00 Z2.5400 
M03
G04 P3.000000
G00 Z2.540000
G00 X-34.2900 Y33.0200 
G01 Z-0.8128 F254.00 
G01 Z2.540000
(R2.5400  P1.000000)
(G00 Z2.540000)
G00 X-34.2900 Y35.5600 
G01 Z-0.812800
G01 Z2.540000
(G00 Z2.540000)
G00 X-34.2900 Y38.1000 
G01 Z-0.812800
G01 Z2.540000
(G00 Z2.540000)
G00 X-34.2900 Y40.6400 
G01 Z-0.812800
G01 Z2.540000
(G00 Z2.540000)
G00 X-34.2900 Y48.2600 
G01 Z-0.812800
G01 Z2.540000
(G00 Z2.540000)
G00 X-34.2900 Y50.8000 
G01 Z-0.812800
G01 Z2.540000
(G00 Z2.540000)
G00 X-34.2900 Y53.3400 
G01 Z-0.812800
G01 Z2.540000
(G00 Z2.540000)
G00 X-34.2900 Y55.8800 
G01 Z-0.812800
G01 Z2.540000
(G00 Z2.540000)
G00 X-34.2900 Y58.4200 
G01 Z-0.812800
G01 Z2.540000
(G00 Z2.540000)
G00 X-34.2900 Y60.9600 
G01 Z-0.812800
G01 Z2.540000
(G00 Z2.540000)
G00 X-34.2900 Y27.9400 
G01 Z-0.812800
G01 Z2.540000
(G00 Z2.540000)
G00 X-34.2900 Y30.4800 
G01 Z-0.812800
G01 Z2.540000
(G00 Z2.540000)
G00 X-36.8300 Y10.1600 
G01 Z-0.812800
G01 Z2.540000
(G00 Z2.540000)
G00 X-36.8300 Y17.7800 
G01 Z-0.812800
G01 Z2.540000
(G00 Z2.540000)
G00 X-5.0800 Y66.0400 
G01 Z-0.812800
G01 Z2.540000
(G00 Z2.540000)
G00 X-7.6200 Y66.0400 
G01 Z-0.812800
G01 Z2.540000
(G00 Z2.540000)
G00 X-10.1600 Y66.0400 
G01 Z-0.812800
G01 Z2.540000
(G00 Z2.540000)
G00 X-12.7000 Y66.0400 
G01 Z-0.812800
G01 Z2.540000
(G00 Z2.540000)
G00 X-15.2400 Y49.5300 
G01 Z-0.812800
G01 Z2.540000
(G00 Z2.540000)
G00 X-15.2400 Y59.6900 
G01 Z-0.812800
G01 Z2.540000
(G00 Z2.540000)
G00 X-15.2400 Y66.0400 
G01 Z-0.812800
G01 Z2.540000
(G00 Z2.540000)
G00 X-15.2400 Y19.1770 
G01 Z-0.812800
G01 Z2.540000
(G00 Z2.540000)
G00 X-15.2400 Y24.0030 
G01 Z-0.812800
G01 Z2.540000
(G00 Z2.540000)
G00 X-17.7800 Y66.0400 
G01 Z-0.812800
G01 Z2.540000
(G00 Z2.540000)
G00 X-20.3200 Y66.0400 
G01 Z-0.812800
G01 Z2.540000
(G00 Z2.540000)
G00 X-2.5400 Y66.0400 
G01 Z-0.812800
G01 Z2.540000
M05
G00 Z25.4000 
M06 T04  ; 1.0160 
G01 Z0.0000 F254.00 
M06 T04  ; 1.0160 
G00 Z2.5400 
M03
G04 P3.000000
G00 Z2.540000
G00 X-31.7500 Y12.7000 
G01 Z-0.8128 F254.00 
G01 Z2.540000
(R2.5400  P1.000000)
(G00 Z2.540000)
G00 X-31.7500 Y22.8600 
G01 Z-0.812800
G01 Z2.540000
(G00 Z2.540000)
G00 X-3.8100 Y35.5600 
G01 Z-0.812800
G01 Z2.540000
(G00 Z2.540000)
G00 X-5.0800 Y12.7000 
G01 Z-0.812800
G01 Z2.540000
(G00 Z2.540000)
G00 X-13.9700 Y35.5600 
G01 Z-0.812800
G01 Z2.540000
(G00 Z2.540000)
G00 X-15.2400 Y12.7000 
G01 Z-0.812800
G01 Z2.540000
(G00 Z2.540000)
G00 X-21.5900 Y12.7000 
G01 Z-0.812800
G01 Z2.540000
(G00 Z2.540000)
G00 X-21.5900 Y22.8600 
G01 Z-0.812800
G01 Z2.540000
M05
G00 Z25.4000 
M06 T05  ; 1.1176 
G01 Z0.0000 F254.00 
M06 T05  ; 1.1176 
G00 Z2.5400 
M03
G04 P3.000000
G00 Z2.540000
G00 X-3.8100 Y41.9100 
G01 Z-0.8128 F254.00 
G01 Z2.540000
(R2.5400  P1.000000)
(G00 Z2.540000)
G00 X-3.8100 Y30.4800 
G01 Z-0.812800
G01 Z2.540000
(G00 Z2.540000)
G00 X-6.3500 Y41.9100 
G01 Z-0.812800
G01 Z2.540000
(G00 Z2.540000)
G00 X-8.8900 Y41.9100 
G01 Z-0.812800
G01 Z2.540000
(G00 Z2.540000)
G00 X-13.9700 Y30.4800 
G01 Z-0.812800
G01 Z2.540000
(G00 Z2.540000)
G00 X-21.5900 Y33.0200 
G01 Z-0.812800
G01 Z2.540000
(G00 Z2.540000)
G00 X-21.5900 Y35.5600 
G01 Z-0.812800
G01 Z2.540000
(G00 Z2.540000)
G00 X-21.5900 Y38.1000 
G01 Z-0.812800
G01 Z2.540000
(G00 Z2.540000)
G00 X-21.5900 Y40.6400 
G01 Z-0.812800
G01 Z2.540000
(G00 Z2.540000)
G00 X-21.5900 Y43.1800 
G01 Z-0.812800
G01 Z2.540000
(G00 Z2.540000)
G00 X-21.5900 Y45.7200 
G01 Z-0.812800
G01 Z2.540000
(G00 Z2.540000)
G00 X-21.5900 Y48.2600 
G01 Z-0.812800
G01 Z2.540000
(G00 Z2.540000)
G00 X-21.5900 Y50.8000 
G01 Z-0.812800
G01 Z2.540000
(G00 Z2.540000)
G00 X-21.5900 Y53.3400 
G01 Z-0.812800
G01 Z2.540000
(G00 Z2.540000)
G00 X-21.5900 Y55.8800 
G01 Z-0.812800
G01 Z2.540000
(G00 Z2.540000)
G00 X-21.5900 Y58.4200 
G01 Z-0.812800
G01 Z2.540000
(G00 Z2.540000)
G00 X-21.5900 Y60.9600 
G01 Z-0.812800
G01 Z2.540000
(G00 Z2.540000)
G00 X-21.5900 Y27.9400 
G01 Z-0.812800
G01 Z2.540000
(G00 Z2.540000)
G00 X-21.5900 Y30.4800 
G01 Z-0.812800
G01 Z2.540000
(G00 Z2.540000)
G00 X-29.2100 Y33.0200 
G01 Z-0.812800
G01 Z2.540000
(G00 Z2.540000)
G00 X-29.2100 Y35.5600 
G01 Z-0.812800
G01 Z2.540000
(G00 Z2.540000)
G00 X-29.2100 Y38.1000 
G01 Z-0.812800
G01 Z2.540000
(G00 Z2.540000)
G00 X-29.2100 Y40.6400 
G01 Z-0.812800
G01 Z2.540000
(G00 Z2.540000)
G00 X-29.2100 Y43.1800 
G01 Z-0.812800
G01 Z2.540000
(G00 Z2.540000)
G00 X-29.2100 Y45.7200 
G01 Z-0.812800
G01 Z2.540000
(G00 Z2.540000)
G00 X-29.2100 Y48.2600 
G01 Z-0.812800
G01 Z2.540000
(G00 Z2.540000)
G00 X-29.2100 Y50.8000 
G01 Z-0.812800
G01 Z2.540000
(G00 Z2.540000)
G00 X-29.2100 Y53.3400 
G01 Z-0.812800
G01 Z2.540000
(G00 Z2.540000)
G00 X-29.2100 Y55.8800 
G01 Z-0.812800
G01 Z2.540000
(G00 Z2.540000)
G00 X-29.2100 Y58.4200 
G01 Z-0.812800
G01 Z2.540000
(G00 Z2.540000)
G00 X-29.2100 Y60.9600 
G01 Z-0.812800
G01 Z2.540000
(G00 Z2.540000)
G00 X-29.2100 Y27.9400 
G01 Z-0.812800
G01 Z2.540000
(G00 Z2.540000)
G00 X-29.2100 Y30.4800 
G01 Z-0.812800
G01 Z2.540000
M05
G00 Z25.4000 
M06 T06  ; 1.3208 
G01 Z0.0000 F254.00 
M06 T06  ; 1.3208 
G00 Z2.5400 
M03
G04 P3.000000
G00 Z2.540000
G00 X-5.0800 Y19.0754 
G01 Z-0.8128 F254.00 
G01 Z2.540000
(R2.5400  P1.000000)
(G00 Z2.540000)
G00 X-5.0800 Y24.0792 
G01 Z-0.812800
G01 Z2.540000
T01 
G00 Z12.7000 
M05
M02
