(.../pcb-gcode-3.6.0.4/pcb-gcode.ulp)
(Copyright 2005 - 2012 by John Johnson)
(See readme.txt for licensing terms.)
(This file generated from the board:)
(.../Documents/eagle/carm2/carm2.brd)
(Current profile is .../pcb-gcode-3.6.0.4/profiles/emc.pp  )
(This file generated 1/20/2014 1:52:37 PM)
(Settings from pcb-machine.h)
(  Tool Size)
(0.2000 )
(Z Axis Settings)
(  High     Up        Down     Drill)
(12.7000 	2.5400 	-0.1500 	-0.8128 )
(spindle on time = 3.0000)
(milling depth = -0.1500)
(text depth = -0.1270)
(tool change at 12.7000 15.2400 25.4000 )
(feed rate xy = F508.00 )
(feed rate z  = F254.00 )
(Settings from pcb-defaults.h)
(isolate min = 0.0154)
(isolate max = 0.5080)
(isolate step = 0.1270)
(Generated top outlines, top drill, bottom outlines, bottom drill, )
(Unit of measure: mm)
(Metric Mode)
G21
(Absolute Coordinates)
G90
G00 X0.0000 Y0.0000 
M03
G04 P3.000000
G00 Z2.5400 
G00 X37.6058 Y9.4232 
G01 Z-0.1500 F254.00 
G01 X37.6058 Y10.8968 F508.00 
G01 X37.5760 Y11.0467 
G01 X37.5175 Y11.1879 
G01 X37.4326 Y11.3149 
G01 X37.3245 Y11.4230 
G01 X37.1975 Y11.5079 
G01 X37.0563 Y11.5664 
G01 X36.9064 Y11.5962 
G01 X36.7536 Y11.5962 
G01 X36.6037 Y11.5664 
G01 X36.4625 Y11.5079 
G01 X36.3355 Y11.4230 
G01 X36.2274 Y11.3149 
G01 X36.1425 Y11.1879 
G01 X36.0840 Y11.0467 
G01 X36.0542 Y10.8968 
G01 X36.0542 Y9.4232 
G01 X36.0840 Y9.2733 
G01 X36.1425 Y9.1321 
G01 X36.2274 Y9.0051 
G01 X36.3355 Y8.8970 
G01 X36.4625 Y8.8121 
G01 X36.6037 Y8.7536 
G01 X36.7536 Y8.7238 
G01 X36.9064 Y8.7238 
G01 X37.0563 Y8.7536 
G01 X37.1975 Y8.8121 
G01 X37.3245 Y8.8970 
G01 X37.4326 Y9.0051 
G01 X37.5175 Y9.1321 
G01 X37.5760 Y9.2733 
G01 X37.6058 Y9.4232 
G00 Z2.5400 
G00 X37.6058 Y17.0432 
G01 Z-0.1500 F254.00 
G01 X37.6058 Y18.5168 F508.00 
G01 X37.5760 Y18.6667 
G01 X37.5175 Y18.8079 
G01 X37.4326 Y18.9349 
G01 X37.3245 Y19.0430 
G01 X37.1975 Y19.1279 
G01 X37.1954 Y68.6281 
G01 X37.1705 Y68.7210 
G01 X37.1224 Y68.8044 
G01 X37.0544 Y68.8724 
G01 X36.9710 Y68.9205 
G01 X36.8781 Y68.9454 
G01 X5.0319 Y68.9454 
G01 X4.9390 Y68.9205 
G01 X4.8556 Y68.8724 
G01 X3.5856 Y67.6024 
G01 X3.5176 Y67.5344 
G01 X3.4695 Y67.4510 
G01 X3.4446 Y67.3581 
G01 X3.4446 Y59.6419 
G01 X3.4695 Y59.5490 
G01 X3.5176 Y59.4656 
G01 X3.5856 Y59.3976 
G01 X3.6690 Y59.3495 
G01 X3.7619 Y59.3246 
G01 X7.4686 Y59.3246 
G01 X14.8746 Y51.9186 
G01 X14.8746 Y50.2617 
G01 X14.4642 Y49.8513 
G01 X14.4642 Y49.2087 
G01 X14.9187 Y48.7542 
G01 X15.5613 Y48.7542 
G01 X16.0158 Y49.2087 
G01 X16.0158 Y49.8513 
G01 X15.6054 Y50.2617 
G01 X15.6054 Y52.1181 
G01 X15.5805 Y52.2110 
G01 X15.5324 Y52.2944 
G01 X15.4644 Y52.3624 
G01 X7.8444 Y59.9824 
G01 X7.7610 Y60.0305 
G01 X7.6681 Y60.0554 
G01 X4.1754 Y60.0554 
G01 X4.1754 Y67.1586 
G01 X5.2314 Y68.2146 
G01 X36.4646 Y68.2146 
G01 X36.4646 Y19.1288 
G01 X36.3355 Y19.0430 
G01 X36.2274 Y18.9349 
G01 X36.1425 Y18.8079 
G01 X36.0840 Y18.6667 
G01 X36.0542 Y18.5168 
G01 X36.0542 Y17.0432 
G01 X36.0840 Y16.8933 
G01 X36.1425 Y16.7521 
G01 X36.2274 Y16.6251 
G01 X36.3355 Y16.5170 
G01 X36.4625 Y16.4321 
G01 X36.6037 Y16.3736 
G01 X36.7536 Y16.3438 
G01 X36.9064 Y16.3438 
G01 X37.0563 Y16.3736 
G01 X37.1975 Y16.4321 
G01 X37.3245 Y16.5170 
G01 X37.4326 Y16.6251 
G01 X37.5175 Y16.7521 
G01 X37.5760 Y16.8933 
G01 X37.6058 Y17.0432 
G00 Z2.5400 
G00 X5.8558 Y66.7768 
G01 Z-0.1500 F254.00 
G01 X5.8260 Y66.9267 F508.00 
G01 X5.7675 Y67.0679 
G01 X5.6826 Y67.1949 
G01 X5.5745 Y67.3030 
G01 X5.4475 Y67.3879 
G01 X5.3063 Y67.4464 
G01 X5.1564 Y67.4762 
G01 X5.0036 Y67.4762 
G01 X4.8537 Y67.4464 
G01 X4.7125 Y67.3879 
G01 X4.5855 Y67.3030 
G01 X4.4774 Y67.1949 
G01 X4.3925 Y67.0679 
G01 X4.3340 Y66.9267 
G01 X4.3042 Y66.7768 
G01 X4.3042 Y65.3032 
G01 X4.3340 Y65.1533 
G01 X4.3925 Y65.0121 
G01 X4.4774 Y64.8851 
G01 X4.5855 Y64.7770 
G01 X4.7125 Y64.6921 
G01 X4.8537 Y64.6336 
G01 X5.0036 Y64.6038 
G01 X5.1564 Y64.6038 
G01 X5.3063 Y64.6336 
G01 X5.4475 Y64.6921 
G01 X5.5745 Y64.7770 
G01 X5.6826 Y64.8851 
G01 X5.6969 Y64.9064 
G01 X18.6846 Y51.9186 
G01 X18.6846 Y32.9719 
G01 X18.7095 Y32.8790 
G01 X18.7576 Y32.7956 
G01 X18.8256 Y32.7276 
G01 X18.9090 Y32.6795 
G01 X19.0019 Y32.6546 
G01 X20.7092 Y32.6546 
G01 X20.7449 Y32.5683 
G01 X20.8493 Y32.4121 
G01 X20.9821 Y32.2793 
G01 X21.1383 Y32.1749 
G01 X21.3118 Y32.1030 
G01 X21.4961 Y32.0664 
G01 X21.6839 Y32.0664 
G01 X21.8682 Y32.1030 
G01 X22.0417 Y32.1749 
G01 X22.1979 Y32.2793 
G01 X22.3307 Y32.4121 
G01 X22.4351 Y32.5683 
G01 X22.5069 Y32.7418 
G01 X22.5436 Y32.9261 
G01 X22.5436 Y33.1139 
G01 X22.5069 Y33.2982 
G01 X22.4351 Y33.4717 
G01 X22.3307 Y33.6279 
G01 X22.1979 Y33.7607 
G01 X22.0417 Y33.8651 
G01 X21.8682 Y33.9370 
G01 X21.6839 Y33.9736 
G01 X21.4961 Y33.9736 
G01 X21.3118 Y33.9370 
G01 X21.1383 Y33.8651 
G01 X20.9821 Y33.7607 
G01 X20.8493 Y33.6279 
G01 X20.7449 Y33.4717 
G01 X20.7092 Y33.3854 
G01 X19.4154 Y33.3854 
G01 X19.4154 Y52.1181 
G01 X19.3905 Y52.2110 
G01 X19.3424 Y52.2944 
G01 X19.2744 Y52.3624 
G01 X5.8558 Y65.7810 
G01 X5.8558 Y66.7768 
G00 Z2.5400 
G00 X8.3958 Y65.3032 
G01 Z-0.1500 F254.00 
G01 X8.3958 Y66.7768 F508.00 
G01 X8.3660 Y66.9267 
G01 X8.3075 Y67.0679 
G01 X8.2226 Y67.1949 
G01 X8.1145 Y67.3030 
G01 X7.9875 Y67.3879 
G01 X7.8463 Y67.4464 
G01 X7.6964 Y67.4762 
G01 X7.5436 Y67.4762 
G01 X7.3937 Y67.4464 
G01 X7.2525 Y67.3879 
G01 X7.1255 Y67.3030 
G01 X7.0174 Y67.1949 
G01 X6.9325 Y67.0679 
G01 X6.8740 Y66.9267 
G01 X6.8442 Y66.7768 
G01 X6.8442 Y65.3032 
G01 X6.8740 Y65.1533 
G01 X6.9325 Y65.0121 
G01 X7.0174 Y64.8851 
G01 X7.1255 Y64.7770 
G01 X7.2525 Y64.6921 
G01 X7.3937 Y64.6336 
G01 X7.5436 Y64.6038 
G01 X7.6964 Y64.6038 
G01 X7.8463 Y64.6336 
G01 X7.9875 Y64.6921 
G01 X8.1145 Y64.7770 
G01 X8.2226 Y64.8851 
G01 X8.3075 Y65.0121 
G01 X8.3660 Y65.1533 
G01 X8.3958 Y65.3032 
G00 Z2.5400 
G00 X10.9358 Y65.3032 
G01 Z-0.1500 F254.00 
G01 X10.9358 Y66.7768 F508.00 
G01 X10.9060 Y66.9267 
G01 X10.8475 Y67.0679 
G01 X10.7626 Y67.1949 
G01 X10.6545 Y67.3030 
G01 X10.5275 Y67.3879 
G01 X10.3863 Y67.4464 
G01 X10.2364 Y67.4762 
G01 X10.0836 Y67.4762 
G01 X9.9337 Y67.4464 
G01 X9.7925 Y67.3879 
G01 X9.6655 Y67.3030 
G01 X9.5574 Y67.1949 
G01 X9.4725 Y67.0679 
G01 X9.4140 Y66.9267 
G01 X9.3842 Y66.7768 
G01 X9.3842 Y65.3032 
G01 X9.4140 Y65.1533 
G01 X9.4725 Y65.0121 
G01 X9.5574 Y64.8851 
G01 X9.6655 Y64.7770 
G01 X9.7925 Y64.6921 
G01 X9.9337 Y64.6336 
G01 X10.0836 Y64.6038 
G01 X10.2364 Y64.6038 
G01 X10.3863 Y64.6336 
G01 X10.5275 Y64.6921 
G01 X10.6545 Y64.7770 
G01 X10.7626 Y64.8851 
G01 X10.8475 Y65.0121 
G01 X10.9060 Y65.1533 
G01 X10.9358 Y65.3032 
G00 Z2.5400 
G00 X13.4758 Y65.3032 
G01 Z-0.1500 F254.00 
G01 X13.4758 Y66.7768 F508.00 
G01 X13.4460 Y66.9267 
G01 X13.3875 Y67.0679 
G01 X13.3026 Y67.1949 
G01 X13.1945 Y67.3030 
G01 X13.0675 Y67.3879 
G01 X12.9263 Y67.4464 
G01 X12.7764 Y67.4762 
G01 X12.6236 Y67.4762 
G01 X12.4737 Y67.4464 
G01 X12.3325 Y67.3879 
G01 X12.2055 Y67.3030 
G01 X12.0974 Y67.1949 
G01 X12.0125 Y67.0679 
G01 X11.9540 Y66.9267 
G01 X11.9242 Y66.7768 
G01 X11.9242 Y65.3032 
G01 X11.9540 Y65.1533 
G01 X12.0125 Y65.0121 
G01 X12.0974 Y64.8851 
G01 X12.2055 Y64.7770 
G01 X12.3325 Y64.6921 
G01 X12.4737 Y64.6336 
G01 X12.6236 Y64.6038 
G01 X12.7764 Y64.6038 
G01 X12.9263 Y64.6336 
G01 X13.0675 Y64.6921 
G01 X13.1945 Y64.7770 
G01 X13.3026 Y64.8851 
G01 X13.3875 Y65.0121 
G01 X13.4460 Y65.1533 
G01 X13.4758 Y65.3032 
G00 Z2.5400 
G00 X16.0158 Y65.3032 
G01 Z-0.1500 F254.00 
G01 X16.0158 Y66.7768 F508.00 
G01 X15.9860 Y66.9267 
G01 X15.9275 Y67.0679 
G01 X15.8426 Y67.1949 
G01 X15.7345 Y67.3030 
G01 X15.6075 Y67.3879 
G01 X15.4663 Y67.4464 
G01 X15.3164 Y67.4762 
G01 X15.1636 Y67.4762 
G01 X15.0137 Y67.4464 
G01 X14.8725 Y67.3879 
G01 X14.7455 Y67.3030 
G01 X14.6374 Y67.1949 
G01 X14.5525 Y67.0679 
G01 X14.4940 Y66.9267 
G01 X14.4642 Y66.7768 
G01 X14.4642 Y65.3032 
G01 X14.4940 Y65.1533 
G01 X14.5525 Y65.0121 
G01 X14.6374 Y64.8851 
G01 X14.7455 Y64.7770 
G01 X14.8725 Y64.6921 
G01 X15.0137 Y64.6336 
G01 X15.1636 Y64.6038 
G01 X15.3164 Y64.6038 
G01 X15.4663 Y64.6336 
G01 X15.6075 Y64.6921 
G01 X15.7345 Y64.7770 
G01 X15.8426 Y64.8851 
G01 X15.9275 Y65.0121 
G01 X15.9860 Y65.1533 
G01 X16.0158 Y65.3032 
G00 Z2.5400 
G00 X18.5558 Y65.3032 
G01 Z-0.1500 F254.00 
G01 X18.5558 Y66.7768 F508.00 
G01 X18.5260 Y66.9267 
G01 X18.4675 Y67.0679 
G01 X18.3826 Y67.1949 
G01 X18.2745 Y67.3030 
G01 X18.1475 Y67.3879 
G01 X18.0063 Y67.4464 
G01 X17.8564 Y67.4762 
G01 X17.7036 Y67.4762 
G01 X17.5537 Y67.4464 
G01 X17.4125 Y67.3879 
G01 X17.2855 Y67.3030 
G01 X17.1774 Y67.1949 
G01 X17.0925 Y67.0679 
G01 X17.0340 Y66.9267 
G01 X17.0042 Y66.7768 
G01 X17.0042 Y65.3032 
G01 X17.0340 Y65.1533 
G01 X17.0925 Y65.0121 
G01 X17.1774 Y64.8851 
G01 X17.2855 Y64.7770 
G01 X17.4125 Y64.6921 
G01 X17.5537 Y64.6336 
G01 X17.7036 Y64.6038 
G01 X17.8564 Y64.6038 
G01 X18.0063 Y64.6336 
G01 X18.1475 Y64.6921 
G01 X18.2745 Y64.7770 
G01 X18.3826 Y64.8851 
G01 X18.4675 Y65.0121 
G01 X18.5260 Y65.1533 
G01 X18.5558 Y65.3032 
G00 Z2.5400 
G00 X21.0958 Y65.3032 
G01 Z-0.1500 F254.00 
G01 X21.0958 Y66.7768 F508.00 
G01 X21.0660 Y66.9267 
G01 X21.0075 Y67.0679 
G01 X20.9226 Y67.1949 
G01 X20.8145 Y67.3030 
G01 X20.6875 Y67.3879 
G01 X20.5463 Y67.4464 
G01 X20.3964 Y67.4762 
G01 X20.2436 Y67.4762 
G01 X20.0937 Y67.4464 
G01 X19.9525 Y67.3879 
G01 X19.8255 Y67.3030 
G01 X19.7174 Y67.1949 
G01 X19.6325 Y67.0679 
G01 X19.5740 Y66.9267 
G01 X19.5442 Y66.7768 
G01 X19.5442 Y65.3032 
G01 X19.5740 Y65.1533 
G01 X19.6325 Y65.0121 
G01 X19.7174 Y64.8851 
G01 X19.8255 Y64.7770 
G01 X19.9525 Y64.6921 
G01 X20.0937 Y64.6336 
G01 X20.2436 Y64.6038 
G01 X20.3964 Y64.6038 
G01 X20.5463 Y64.6336 
G01 X20.6875 Y64.6921 
G01 X20.8145 Y64.7770 
G01 X20.9226 Y64.8851 
G01 X21.0075 Y65.0121 
G01 X21.0660 Y65.1533 
G01 X21.0958 Y65.3032 
G00 Z2.5400 
G00 X35.0268 Y28.7158 
G01 Z-0.1500 F254.00 
G01 X33.5532 Y28.7158 F508.00 
G01 X33.4033 Y28.6860 
G01 X33.2621 Y28.6275 
G01 X33.1351 Y28.5426 
G01 X33.0270 Y28.4345 
G01 X32.9421 Y28.3075 
G01 X32.8836 Y28.1663 
G01 X32.8538 Y28.0164 
G01 X32.8538 Y27.8636 
G01 X32.8836 Y27.7137 
G01 X32.9421 Y27.5725 
G01 X33.0270 Y27.4455 
G01 X33.1351 Y27.3374 
G01 X33.2621 Y27.2525 
G01 X33.4033 Y27.1940 
G01 X33.5532 Y27.1642 
G01 X35.0268 Y27.1642 
G01 X35.1767 Y27.1940 
G01 X35.3179 Y27.2525 
G01 X35.4449 Y27.3374 
G01 X35.5530 Y27.4455 
G01 X35.6379 Y27.5725 
G01 X35.6964 Y27.7137 
G01 X35.7262 Y27.8636 
G01 X35.7262 Y28.0164 
G01 X35.6964 Y28.1663 
G01 X35.6379 Y28.3075 
G01 X35.5530 Y28.4345 
G01 X35.4449 Y28.5426 
G01 X35.3179 Y28.6275 
G01 X35.1767 Y28.6860 
G01 X35.0268 Y28.7158 
G00 Z2.5400 
G00 X35.0268 Y31.2558 
G01 Z-0.1500 F254.00 
G01 X33.5532 Y31.2558 F508.00 
G01 X33.4033 Y31.2260 
G01 X33.2621 Y31.1675 
G01 X33.1351 Y31.0826 
G01 X33.0270 Y30.9745 
G01 X32.9421 Y30.8475 
G01 X32.8836 Y30.7063 
G01 X32.8538 Y30.5564 
G01 X32.8538 Y30.4036 
G01 X32.8836 Y30.2537 
G01 X32.9421 Y30.1125 
G01 X33.0270 Y29.9855 
G01 X33.1351 Y29.8774 
G01 X33.2621 Y29.7925 
G01 X33.4033 Y29.7340 
G01 X33.5532 Y29.7042 
G01 X35.0268 Y29.7042 
G01 X35.1767 Y29.7340 
G01 X35.3179 Y29.7925 
G01 X35.4449 Y29.8774 
G01 X35.5530 Y29.9855 
G01 X35.6379 Y30.1125 
G01 X35.6964 Y30.2537 
G01 X35.7262 Y30.4036 
G01 X35.7262 Y30.5564 
G01 X35.6964 Y30.7063 
G01 X35.6379 Y30.8475 
G01 X35.5530 Y30.9745 
G01 X35.4449 Y31.0826 
G01 X35.3179 Y31.1675 
G01 X35.1767 Y31.2260 
G01 X35.0268 Y31.2558 
G00 Z2.5400 
G00 X35.0268 Y33.7958 
G01 Z-0.1500 F254.00 
G01 X33.5532 Y33.7958 F508.00 
G01 X33.4033 Y33.7660 
G01 X33.2621 Y33.7075 
G01 X33.1351 Y33.6226 
G01 X33.0270 Y33.5145 
G01 X32.9421 Y33.3875 
G01 X32.8836 Y33.2463 
G01 X32.8538 Y33.0964 
G01 X32.8538 Y32.9436 
G01 X32.8836 Y32.7937 
G01 X32.9421 Y32.6525 
G01 X33.0270 Y32.5255 
G01 X33.1351 Y32.4174 
G01 X33.2621 Y32.3325 
G01 X33.4033 Y32.2740 
G01 X33.5532 Y32.2442 
G01 X35.0268 Y32.2442 
G01 X35.1767 Y32.2740 
G01 X35.3179 Y32.3325 
G01 X35.4449 Y32.4174 
G01 X35.5530 Y32.5255 
G01 X35.6379 Y32.6525 
G01 X35.6964 Y32.7937 
G01 X35.7262 Y32.9436 
G01 X35.7262 Y33.0964 
G01 X35.6964 Y33.2463 
G01 X35.6379 Y33.3875 
G01 X35.5530 Y33.5145 
G01 X35.4449 Y33.6226 
G01 X35.3179 Y33.7075 
G01 X35.1767 Y33.7660 
G01 X35.0268 Y33.7958 
G00 Z2.5400 
G00 X35.0268 Y36.3358 
G01 Z-0.1500 F254.00 
G01 X33.5532 Y36.3358 F508.00 
G01 X33.4033 Y36.3060 
G01 X33.2621 Y36.2475 
G01 X33.1351 Y36.1626 
G01 X33.0270 Y36.0545 
G01 X32.9421 Y35.9275 
G01 X32.8836 Y35.7863 
G01 X32.8538 Y35.6364 
G01 X32.8538 Y35.4836 
G01 X32.8836 Y35.3337 
G01 X32.9421 Y35.1925 
G01 X33.0270 Y35.0655 
G01 X33.1351 Y34.9574 
G01 X33.2621 Y34.8725 
G01 X33.4033 Y34.8140 
G01 X33.5532 Y34.7842 
G01 X35.0268 Y34.7842 
G01 X35.1767 Y34.8140 
G01 X35.3179 Y34.8725 
G01 X35.4449 Y34.9574 
G01 X35.5530 Y35.0655 
G01 X35.6379 Y35.1925 
G01 X35.6964 Y35.3337 
G01 X35.7262 Y35.4836 
G01 X35.7262 Y35.6364 
G01 X35.6964 Y35.7863 
G01 X35.6379 Y35.9275 
G01 X35.5530 Y36.0545 
G01 X35.4449 Y36.1626 
G01 X35.3179 Y36.2475 
G01 X35.1767 Y36.3060 
G01 X35.0268 Y36.3358 
G00 Z2.5400 
G00 X35.0268 Y38.8758 
G01 Z-0.1500 F254.00 
G01 X33.5532 Y38.8758 F508.00 
G01 X33.4033 Y38.8460 
G01 X33.2621 Y38.7875 
G01 X33.1351 Y38.7026 
G01 X33.0270 Y38.5945 
G01 X32.9421 Y38.4675 
G01 X32.8836 Y38.3263 
G01 X32.8538 Y38.1764 
G01 X32.8538 Y38.0236 
G01 X32.8836 Y37.8737 
G01 X32.9421 Y37.7325 
G01 X33.0270 Y37.6055 
G01 X33.1351 Y37.4974 
G01 X33.2621 Y37.4125 
G01 X33.4033 Y37.3540 
G01 X33.5532 Y37.3242 
G01 X35.0268 Y37.3242 
G01 X35.1767 Y37.3540 
G01 X35.3179 Y37.4125 
G01 X35.4449 Y37.4974 
G01 X35.5530 Y37.6055 
G01 X35.6379 Y37.7325 
G01 X35.6964 Y37.8737 
G01 X35.7262 Y38.0236 
G01 X35.7262 Y38.1764 
G01 X35.6964 Y38.3263 
G01 X35.6379 Y38.4675 
G01 X35.5530 Y38.5945 
G01 X35.4449 Y38.7026 
G01 X35.3179 Y38.7875 
G01 X35.1767 Y38.8460 
G01 X35.0268 Y38.8758 
G00 Z2.5400 
G00 X35.0268 Y41.4158 
G01 Z-0.1500 F254.00 
G01 X33.5532 Y41.4158 F508.00 
G01 X33.4033 Y41.3860 
G01 X33.2621 Y41.3275 
G01 X33.1351 Y41.2426 
G01 X33.0270 Y41.1345 
G01 X32.9421 Y41.0075 
G01 X32.8836 Y40.8663 
G01 X32.8538 Y40.7164 
G01 X32.8538 Y40.5636 
G01 X32.8836 Y40.4137 
G01 X32.9421 Y40.2725 
G01 X33.0270 Y40.1455 
G01 X33.1351 Y40.0374 
G01 X33.2621 Y39.9525 
G01 X33.4033 Y39.8940 
G01 X33.5532 Y39.8642 
G01 X35.0268 Y39.8642 
G01 X35.1767 Y39.8940 
G01 X35.3179 Y39.9525 
G01 X35.4449 Y40.0374 
G01 X35.5530 Y40.1455 
G01 X35.6379 Y40.2725 
G01 X35.6964 Y40.4137 
G01 X35.7262 Y40.5636 
G01 X35.7262 Y40.7164 
G01 X35.6964 Y40.8663 
G01 X35.6379 Y41.0075 
G01 X35.5530 Y41.1345 
G01 X35.4449 Y41.2426 
G01 X35.3179 Y41.3275 
G01 X35.1767 Y41.3860 
G01 X35.0268 Y41.4158 
G00 Z2.5400 
G00 X33.5532 Y60.1842 
G01 Z-0.1500 F254.00 
G01 X35.0268 Y60.1842 F508.00 
G01 X35.1767 Y60.2140 
G01 X35.3179 Y60.2725 
G01 X35.4449 Y60.3574 
G01 X35.5530 Y60.4655 
G01 X35.6379 Y60.5925 
G01 X35.6964 Y60.7337 
G01 X35.7262 Y60.8836 
G01 X35.7262 Y61.0364 
G01 X35.6964 Y61.1863 
G01 X35.6379 Y61.3275 
G01 X35.5530 Y61.4545 
G01 X35.4449 Y61.5626 
G01 X35.3179 Y61.6475 
G01 X35.1767 Y61.7060 
G01 X35.0268 Y61.7358 
G01 X33.5532 Y61.7358 
G01 X33.4033 Y61.7060 
G01 X33.2621 Y61.6475 
G01 X33.1351 Y61.5626 
G01 X33.0270 Y61.4545 
G01 X32.9421 Y61.3275 
G01 X32.8836 Y61.1863 
G01 X32.8538 Y61.0364 
G01 X32.8538 Y60.8836 
G01 X32.8836 Y60.7337 
G01 X32.9421 Y60.5925 
G01 X33.0270 Y60.4655 
G01 X33.1351 Y60.3574 
G01 X33.2621 Y60.2725 
G01 X33.4033 Y60.2140 
G01 X33.5532 Y60.1842 
G00 Z2.5400 
G00 X33.5532 Y57.6442 
G01 Z-0.1500 F254.00 
G01 X35.0268 Y57.6442 F508.00 
G01 X35.1767 Y57.6740 
G01 X35.3179 Y57.7325 
G01 X35.4449 Y57.8174 
G01 X35.5530 Y57.9255 
G01 X35.6379 Y58.0525 
G01 X35.6964 Y58.1937 
G01 X35.7262 Y58.3436 
G01 X35.7262 Y58.4964 
G01 X35.6964 Y58.6463 
G01 X35.6379 Y58.7875 
G01 X35.5530 Y58.9145 
G01 X35.4449 Y59.0226 
G01 X35.3179 Y59.1075 
G01 X35.1767 Y59.1660 
G01 X35.0268 Y59.1958 
G01 X33.5532 Y59.1958 
G01 X33.4033 Y59.1660 
G01 X33.2621 Y59.1075 
G01 X33.1351 Y59.0226 
G01 X33.0270 Y58.9145 
G01 X32.9421 Y58.7875 
G01 X32.8836 Y58.6463 
G01 X32.8538 Y58.4964 
G01 X32.8538 Y58.3436 
G01 X32.8836 Y58.1937 
G01 X32.9421 Y58.0525 
G01 X33.0270 Y57.9255 
G01 X33.1351 Y57.8174 
G01 X33.2621 Y57.7325 
G01 X33.4033 Y57.6740 
G01 X33.5532 Y57.6442 
G00 Z2.5400 
G00 X33.5532 Y55.1042 
G01 Z-0.1500 F254.00 
G01 X35.0268 Y55.1042 F508.00 
G01 X35.1767 Y55.1340 
G01 X35.3179 Y55.1925 
G01 X35.4449 Y55.2774 
G01 X35.5530 Y55.3855 
G01 X35.6379 Y55.5125 
G01 X35.6964 Y55.6537 
G01 X35.7262 Y55.8036 
G01 X35.7262 Y55.9564 
G01 X35.6964 Y56.1063 
G01 X35.6379 Y56.2475 
G01 X35.5530 Y56.3745 
G01 X35.4449 Y56.4826 
G01 X35.3179 Y56.5675 
G01 X35.1767 Y56.6260 
G01 X35.0268 Y56.6558 
G01 X33.5532 Y56.6558 
G01 X33.4033 Y56.6260 
G01 X33.2621 Y56.5675 
G01 X33.1351 Y56.4826 
G01 X33.0270 Y56.3745 
G01 X32.9421 Y56.2475 
G01 X32.8836 Y56.1063 
G01 X32.8538 Y55.9564 
G01 X32.8538 Y55.8036 
G01 X32.8836 Y55.6537 
G01 X32.9421 Y55.5125 
G01 X33.0270 Y55.3855 
G01 X33.1351 Y55.2774 
G01 X33.2621 Y55.1925 
G01 X33.4033 Y55.1340 
G01 X33.5532 Y55.1042 
G00 Z2.5400 
G00 X33.5532 Y52.5642 
G01 Z-0.1500 F254.00 
G01 X35.0268 Y52.5642 F508.00 
G01 X35.1767 Y52.5940 
G01 X35.3179 Y52.6525 
G01 X35.4449 Y52.7374 
G01 X35.5530 Y52.8455 
G01 X35.6379 Y52.9725 
G01 X35.6964 Y53.1137 
G01 X35.7262 Y53.2636 
G01 X35.7262 Y53.4164 
G01 X35.6964 Y53.5663 
G01 X35.6379 Y53.7075 
G01 X35.5530 Y53.8345 
G01 X35.4449 Y53.9426 
G01 X35.3179 Y54.0275 
G01 X35.1767 Y54.0860 
G01 X35.0268 Y54.1158 
G01 X33.5532 Y54.1158 
G01 X33.4033 Y54.0860 
G01 X33.2621 Y54.0275 
G01 X33.1351 Y53.9426 
G01 X33.0270 Y53.8345 
G01 X32.9421 Y53.7075 
G01 X32.8836 Y53.5663 
G01 X32.8538 Y53.4164 
G01 X32.8538 Y53.2636 
G01 X32.8836 Y53.1137 
G01 X32.9421 Y52.9725 
G01 X33.0270 Y52.8455 
G01 X33.1351 Y52.7374 
G01 X33.2621 Y52.6525 
G01 X33.4033 Y52.5940 
G01 X33.5532 Y52.5642 
G00 Z2.5400 
G00 X33.5532 Y50.0242 
G01 Z-0.1500 F254.00 
G01 X35.0268 Y50.0242 F508.00 
G01 X35.1767 Y50.0540 
G01 X35.3179 Y50.1125 
G01 X35.4449 Y50.1974 
G01 X35.5530 Y50.3055 
G01 X35.6379 Y50.4325 
G01 X35.6964 Y50.5737 
G01 X35.7262 Y50.7236 
G01 X35.7262 Y50.8764 
G01 X35.6964 Y51.0263 
G01 X35.6379 Y51.1675 
G01 X35.5530 Y51.2945 
G01 X35.4449 Y51.4026 
G01 X35.3179 Y51.4875 
G01 X35.1767 Y51.5460 
G01 X35.0268 Y51.5758 
G01 X33.5532 Y51.5758 
G01 X33.4033 Y51.5460 
G01 X33.2621 Y51.4875 
G01 X33.1351 Y51.4026 
G01 X33.0270 Y51.2945 
G01 X32.9421 Y51.1675 
G01 X32.8836 Y51.0263 
G01 X32.8538 Y50.8764 
G01 X32.8538 Y50.7236 
G01 X32.8836 Y50.5737 
G01 X32.9421 Y50.4325 
G01 X33.0270 Y50.3055 
G01 X33.1351 Y50.1974 
G01 X33.2621 Y50.1125 
G01 X33.4033 Y50.0540 
G01 X33.5532 Y50.0242 
G00 Z2.5400 
G00 X33.5532 Y47.4842 
G01 Z-0.1500 F254.00 
G01 X35.0268 Y47.4842 F508.00 
G01 X35.1767 Y47.5140 
G01 X35.3179 Y47.5725 
G01 X35.4449 Y47.6574 
G01 X35.5530 Y47.7655 
G01 X35.6379 Y47.8925 
G01 X35.6964 Y48.0337 
G01 X35.7262 Y48.1836 
G01 X35.7262 Y48.3364 
G01 X35.6964 Y48.4863 
G01 X35.6379 Y48.6275 
G01 X35.5530 Y48.7545 
G01 X35.4449 Y48.8626 
G01 X35.3179 Y48.9475 
G01 X35.1767 Y49.0060 
G01 X35.0268 Y49.0358 
G01 X33.5532 Y49.0358 
G01 X33.4033 Y49.0060 
G01 X33.2621 Y48.9475 
G01 X33.1351 Y48.8626 
G01 X33.0270 Y48.7545 
G01 X32.9421 Y48.6275 
G01 X32.8836 Y48.4863 
G01 X32.8538 Y48.3364 
G01 X32.8538 Y48.1836 
G01 X32.8836 Y48.0337 
G01 X32.9421 Y47.8925 
G01 X33.0270 Y47.7655 
G01 X33.1351 Y47.6574 
G01 X33.2621 Y47.5725 
G01 X33.4033 Y47.5140 
G01 X33.5532 Y47.4842 
G00 Z2.5400 
G00 X30.1636 Y60.8661 
G01 Z-0.1500 F254.00 
G01 X30.1636 Y61.0539 F508.00 
G01 X30.1270 Y61.2382 
G01 X30.0551 Y61.4117 
G01 X29.9507 Y61.5679 
G01 X29.8179 Y61.7007 
G01 X29.6617 Y61.8051 
G01 X29.4882 Y61.8770 
G01 X29.3039 Y61.9136 
G01 X29.1161 Y61.9136 
G01 X28.9318 Y61.8770 
G01 X28.7583 Y61.8051 
G01 X28.6021 Y61.7007 
G01 X28.4693 Y61.5679 
G01 X28.3649 Y61.4117 
G01 X28.2930 Y61.2382 
G01 X28.2564 Y61.0539 
G01 X28.2564 Y60.8661 
G01 X28.2930 Y60.6818 
G01 X28.3649 Y60.5083 
G01 X28.4693 Y60.3521 
G01 X28.6021 Y60.2193 
G01 X28.7583 Y60.1149 
G01 X28.9318 Y60.0430 
G01 X29.1161 Y60.0064 
G01 X29.3039 Y60.0064 
G01 X29.4882 Y60.0430 
G01 X29.6617 Y60.1149 
G01 X29.8179 Y60.2193 
G01 X29.9507 Y60.3521 
G01 X30.0551 Y60.5083 
G01 X30.1270 Y60.6818 
G01 X30.1636 Y60.8661 
G00 Z2.5400 
G00 X30.1636 Y58.3261 
G01 Z-0.1500 F254.00 
G01 X30.1636 Y58.5139 F508.00 
G01 X30.1270 Y58.6982 
G01 X30.0551 Y58.8717 
G01 X29.9507 Y59.0279 
G01 X29.8179 Y59.1607 
G01 X29.6617 Y59.2651 
G01 X29.4882 Y59.3370 
G01 X29.3039 Y59.3736 
G01 X29.1161 Y59.3736 
G01 X28.9318 Y59.3370 
G01 X28.7583 Y59.2651 
G01 X28.6021 Y59.1607 
G01 X28.4693 Y59.0279 
G01 X28.3649 Y58.8717 
G01 X28.2930 Y58.6982 
G01 X28.2564 Y58.5139 
G01 X28.2564 Y58.3261 
G01 X28.2930 Y58.1418 
G01 X28.3649 Y57.9683 
G01 X28.4693 Y57.8121 
G01 X28.6021 Y57.6793 
G01 X28.7583 Y57.5749 
G01 X28.9318 Y57.5030 
G01 X29.1161 Y57.4664 
G01 X29.3039 Y57.4664 
G01 X29.4882 Y57.5030 
G01 X29.6617 Y57.5749 
G01 X29.8179 Y57.6793 
G01 X29.9507 Y57.8121 
G01 X30.0551 Y57.9683 
G01 X30.1270 Y58.1418 
G01 X30.1636 Y58.3261 
G00 Z2.5400 
G00 X30.1636 Y55.7861 
G01 Z-0.1500 F254.00 
G01 X30.1636 Y55.9739 F508.00 
G01 X30.1270 Y56.1582 
G01 X30.0551 Y56.3317 
G01 X29.9507 Y56.4879 
G01 X29.8179 Y56.6207 
G01 X29.6617 Y56.7251 
G01 X29.4882 Y56.7970 
G01 X29.3039 Y56.8336 
G01 X29.1161 Y56.8336 
G01 X28.9318 Y56.7970 
G01 X28.7583 Y56.7251 
G01 X28.6021 Y56.6207 
G01 X28.4693 Y56.4879 
G01 X28.3649 Y56.3317 
G01 X28.2930 Y56.1582 
G01 X28.2564 Y55.9739 
G01 X28.2564 Y55.7861 
G01 X28.2930 Y55.6018 
G01 X28.3649 Y55.4283 
G01 X28.4693 Y55.2721 
G01 X28.6021 Y55.1393 
G01 X28.7583 Y55.0349 
G01 X28.9318 Y54.9630 
G01 X29.1161 Y54.9264 
G01 X29.3039 Y54.9264 
G01 X29.4882 Y54.9630 
G01 X29.6617 Y55.0349 
G01 X29.8179 Y55.1393 
G01 X29.9507 Y55.2721 
G01 X30.0551 Y55.4283 
G01 X30.1270 Y55.6018 
G01 X30.1636 Y55.7861 
G00 Z2.5400 
G00 X30.1636 Y53.2461 
G01 Z-0.1500 F254.00 
G01 X30.1636 Y53.4339 F508.00 
G01 X30.1270 Y53.6182 
G01 X30.0551 Y53.7917 
G01 X29.9507 Y53.9479 
G01 X29.8179 Y54.0807 
G01 X29.6617 Y54.1851 
G01 X29.4882 Y54.2570 
G01 X29.3039 Y54.2936 
G01 X29.1161 Y54.2936 
G01 X28.9318 Y54.2570 
G01 X28.7583 Y54.1851 
G01 X28.6021 Y54.0807 
G01 X28.4693 Y53.9479 
G01 X28.3649 Y53.7917 
G01 X28.2930 Y53.6182 
G01 X28.2564 Y53.4339 
G01 X28.2564 Y53.2461 
G01 X28.2930 Y53.0618 
G01 X28.3649 Y52.8883 
G01 X28.4693 Y52.7321 
G01 X28.6021 Y52.5993 
G01 X28.7583 Y52.4949 
G01 X28.9318 Y52.4230 
G01 X29.1161 Y52.3864 
G01 X29.3039 Y52.3864 
G01 X29.4882 Y52.4230 
G01 X29.6617 Y52.4949 
G01 X29.8179 Y52.5993 
G01 X29.9507 Y52.7321 
G01 X30.0551 Y52.8883 
G01 X30.1270 Y53.0618 
G01 X30.1636 Y53.2461 
G00 Z2.5400 
G00 X30.1636 Y50.7061 
G01 Z-0.1500 F254.00 
G01 X30.1636 Y50.8939 F508.00 
G01 X30.1270 Y51.0782 
G01 X30.0551 Y51.2517 
G01 X29.9507 Y51.4079 
G01 X29.8179 Y51.5407 
G01 X29.6617 Y51.6451 
G01 X29.4882 Y51.7170 
G01 X29.3039 Y51.7536 
G01 X29.1161 Y51.7536 
G01 X28.9318 Y51.7170 
G01 X28.7583 Y51.6451 
G01 X28.6021 Y51.5407 
G01 X28.4693 Y51.4079 
G01 X28.3649 Y51.2517 
G01 X28.2930 Y51.0782 
G01 X28.2564 Y50.8939 
G01 X28.2564 Y50.7061 
G01 X28.2930 Y50.5218 
G01 X28.3649 Y50.3483 
G01 X28.4693 Y50.1921 
G01 X28.6021 Y50.0593 
G01 X28.7583 Y49.9549 
G01 X28.9318 Y49.8830 
G01 X29.1161 Y49.8464 
G01 X29.3039 Y49.8464 
G01 X29.4882 Y49.8830 
G01 X29.6617 Y49.9549 
G01 X29.8179 Y50.0593 
G01 X29.9507 Y50.1921 
G01 X30.0551 Y50.3483 
G01 X30.1270 Y50.5218 
G01 X30.1636 Y50.7061 
G00 Z2.5400 
G00 X30.1636 Y48.1661 
G01 Z-0.1500 F254.00 
G01 X30.1636 Y48.3539 F508.00 
G01 X30.1270 Y48.5382 
G01 X30.0551 Y48.7117 
G01 X29.9507 Y48.8679 
G01 X29.8179 Y49.0007 
G01 X29.6617 Y49.1051 
G01 X29.4882 Y49.1770 
G01 X29.3039 Y49.2136 
G01 X29.1161 Y49.2136 
G01 X28.9318 Y49.1770 
G01 X28.7583 Y49.1051 
G01 X28.6021 Y49.0007 
G01 X28.4693 Y48.8679 
G01 X28.3649 Y48.7117 
G01 X28.2930 Y48.5382 
G01 X28.2564 Y48.3539 
G01 X28.2564 Y48.1661 
G01 X28.2930 Y47.9818 
G01 X28.3649 Y47.8083 
G01 X28.4693 Y47.6521 
G01 X28.6021 Y47.5193 
G01 X28.7583 Y47.4149 
G01 X28.9318 Y47.3430 
G01 X29.1161 Y47.3064 
G01 X29.3039 Y47.3064 
G01 X29.4882 Y47.3430 
G01 X29.6617 Y47.4149 
G01 X29.8179 Y47.5193 
G01 X29.9507 Y47.6521 
G01 X30.0551 Y47.8083 
G01 X30.1270 Y47.9818 
G01 X30.1636 Y48.1661 
G00 Z2.5400 
G00 X30.1636 Y45.6261 
G01 Z-0.1500 F254.00 
G01 X30.1636 Y45.8139 F508.00 
G01 X30.1270 Y45.9982 
G01 X30.0551 Y46.1717 
G01 X29.9507 Y46.3279 
G01 X29.8179 Y46.4607 
G01 X29.6617 Y46.5651 
G01 X29.4882 Y46.6369 
G01 X29.3039 Y46.6736 
G01 X29.1161 Y46.6736 
G01 X28.9318 Y46.6369 
G01 X28.7583 Y46.5651 
G01 X28.6021 Y46.4607 
G01 X28.4693 Y46.3279 
G01 X28.3649 Y46.1717 
G01 X28.2930 Y45.9982 
G01 X28.2564 Y45.8139 
G01 X28.2564 Y45.6261 
G01 X28.2930 Y45.4418 
G01 X28.3649 Y45.2683 
G01 X28.4693 Y45.1121 
G01 X28.6021 Y44.9793 
G01 X28.7583 Y44.8749 
G01 X28.9318 Y44.8030 
G01 X29.1161 Y44.7664 
G01 X29.3039 Y44.7664 
G01 X29.4882 Y44.8030 
G01 X29.6617 Y44.8749 
G01 X29.8179 Y44.9793 
G01 X29.9507 Y45.1121 
G01 X30.0551 Y45.2683 
G01 X30.1270 Y45.4418 
G01 X30.1636 Y45.6261 
G00 Z2.5400 
G00 X30.1636 Y43.0861 
G01 Z-0.1500 F254.00 
G01 X30.1636 Y43.2739 F508.00 
G01 X30.1270 Y43.4582 
G01 X30.0551 Y43.6317 
G01 X29.9507 Y43.7879 
G01 X29.8179 Y43.9207 
G01 X29.6617 Y44.0251 
G01 X29.4882 Y44.0969 
G01 X29.3039 Y44.1336 
G01 X29.1161 Y44.1336 
G01 X28.9318 Y44.0969 
G01 X28.7583 Y44.0251 
G01 X28.6021 Y43.9207 
G01 X28.4693 Y43.7879 
G01 X28.3649 Y43.6317 
G01 X28.2930 Y43.4582 
G01 X28.2564 Y43.2739 
G01 X28.2564 Y43.0861 
G01 X28.2930 Y42.9018 
G01 X28.3649 Y42.7283 
G01 X28.4693 Y42.5721 
G01 X28.6021 Y42.4393 
G01 X28.7583 Y42.3349 
G01 X28.9318 Y42.2630 
G01 X29.1161 Y42.2264 
G01 X29.3039 Y42.2264 
G01 X29.4882 Y42.2630 
G01 X29.6617 Y42.3349 
G01 X29.8179 Y42.4393 
G01 X29.9507 Y42.5721 
G01 X30.0551 Y42.7283 
G01 X30.1270 Y42.9018 
G01 X30.1636 Y43.0861 
G00 Z2.5400 
G00 X30.1636 Y40.5461 
G01 Z-0.1500 F254.00 
G01 X30.1636 Y40.7339 F508.00 
G01 X30.1270 Y40.9182 
G01 X30.0551 Y41.0917 
G01 X29.9507 Y41.2479 
G01 X29.8179 Y41.3807 
G01 X29.6617 Y41.4851 
G01 X29.4882 Y41.5570 
G01 X29.3039 Y41.5936 
G01 X29.1161 Y41.5936 
G01 X28.9318 Y41.5570 
G01 X28.7583 Y41.4851 
G01 X28.6021 Y41.3807 
G01 X28.4693 Y41.2479 
G01 X28.3649 Y41.0917 
G01 X28.2930 Y40.9182 
G01 X28.2564 Y40.7339 
G01 X28.2564 Y40.5461 
G01 X28.2930 Y40.3618 
G01 X28.3649 Y40.1883 
G01 X28.4693 Y40.0321 
G01 X28.6021 Y39.8993 
G01 X28.7583 Y39.7949 
G01 X28.9318 Y39.7230 
G01 X29.1161 Y39.6864 
G01 X29.3039 Y39.6864 
G01 X29.4882 Y39.7230 
G01 X29.6617 Y39.7949 
G01 X29.8179 Y39.8993 
G01 X29.9507 Y40.0321 
G01 X30.0551 Y40.1883 
G01 X30.1270 Y40.3618 
G01 X30.1636 Y40.5461 
G00 Z2.5400 
G00 X30.1636 Y38.0061 
G01 Z-0.1500 F254.00 
G01 X30.1636 Y38.1939 F508.00 
G01 X30.1270 Y38.3782 
G01 X30.0551 Y38.5517 
G01 X29.9507 Y38.7079 
G01 X29.8179 Y38.8407 
G01 X29.6617 Y38.9451 
G01 X29.4882 Y39.0170 
G01 X29.3039 Y39.0536 
G01 X29.1161 Y39.0536 
G01 X28.9318 Y39.0170 
G01 X28.7583 Y38.9451 
G01 X28.6021 Y38.8407 
G01 X28.4693 Y38.7079 
G01 X28.3649 Y38.5517 
G01 X28.2930 Y38.3782 
G01 X28.2564 Y38.1939 
G01 X28.2564 Y38.0061 
G01 X28.2930 Y37.8218 
G01 X28.3649 Y37.6483 
G01 X28.4693 Y37.4921 
G01 X28.6021 Y37.3593 
G01 X28.7583 Y37.2549 
G01 X28.9318 Y37.1830 
G01 X29.1161 Y37.1464 
G01 X29.3039 Y37.1464 
G01 X29.4882 Y37.1830 
G01 X29.6617 Y37.2549 
G01 X29.8179 Y37.3593 
G01 X29.9507 Y37.4921 
G01 X30.0551 Y37.6483 
G01 X30.1270 Y37.8218 
G01 X30.1636 Y38.0061 
G00 Z2.5400 
G00 X30.1636 Y35.4661 
G01 Z-0.1500 F254.00 
G01 X30.1636 Y35.6539 F508.00 
G01 X30.1270 Y35.8382 
G01 X30.0551 Y36.0117 
G01 X29.9507 Y36.1679 
G01 X29.8179 Y36.3007 
G01 X29.6617 Y36.4051 
G01 X29.4882 Y36.4770 
G01 X29.3039 Y36.5136 
G01 X29.1161 Y36.5136 
G01 X28.9318 Y36.4770 
G01 X28.7583 Y36.4051 
G01 X28.6021 Y36.3007 
G01 X28.4693 Y36.1679 
G01 X28.3649 Y36.0117 
G01 X28.2930 Y35.8382 
G01 X28.2564 Y35.6539 
G01 X28.2564 Y35.4661 
G01 X28.2930 Y35.2818 
G01 X28.3649 Y35.1083 
G01 X28.4693 Y34.9521 
G01 X28.6021 Y34.8193 
G01 X28.7583 Y34.7149 
G01 X28.9318 Y34.6430 
G01 X29.1161 Y34.6064 
G01 X29.3039 Y34.6064 
G01 X29.4882 Y34.6430 
G01 X29.6617 Y34.7149 
G01 X29.8179 Y34.8193 
G01 X29.9507 Y34.9521 
G01 X30.0551 Y35.1083 
G01 X30.1270 Y35.2818 
G01 X30.1636 Y35.4661 
G00 Z2.5400 
G00 X30.1636 Y32.9261 
G01 Z-0.1500 F254.00 
G01 X30.1636 Y33.1139 F508.00 
G01 X30.1270 Y33.2982 
G01 X30.0551 Y33.4717 
G01 X29.9507 Y33.6279 
G01 X29.8179 Y33.7607 
G01 X29.6617 Y33.8651 
G01 X29.4882 Y33.9370 
G01 X29.3039 Y33.9736 
G01 X29.1161 Y33.9736 
G01 X28.9318 Y33.9370 
G01 X28.7583 Y33.8651 
G01 X28.6021 Y33.7607 
G01 X28.4693 Y33.6279 
G01 X28.3649 Y33.4717 
G01 X28.2930 Y33.2982 
G01 X28.2564 Y33.1139 
G01 X28.2564 Y32.9261 
G01 X28.2930 Y32.7418 
G01 X28.3649 Y32.5683 
G01 X28.4693 Y32.4121 
G01 X28.6021 Y32.2793 
G01 X28.7583 Y32.1749 
G01 X28.9318 Y32.1030 
G01 X29.1161 Y32.0664 
G01 X29.3039 Y32.0664 
G01 X29.4882 Y32.1030 
G01 X29.6617 Y32.1749 
G01 X29.8179 Y32.2793 
G01 X29.9507 Y32.4121 
G01 X30.0551 Y32.5683 
G01 X30.1270 Y32.7418 
G01 X30.1636 Y32.9261 
G00 Z2.5400 
G00 X30.1636 Y30.3861 
G01 Z-0.1500 F254.00 
G01 X30.1636 Y30.5739 F508.00 
G01 X30.1270 Y30.7582 
G01 X30.0551 Y30.9317 
G01 X29.9507 Y31.0879 
G01 X29.8179 Y31.2207 
G01 X29.6617 Y31.3251 
G01 X29.4882 Y31.3970 
G01 X29.3039 Y31.4336 
G01 X29.1161 Y31.4336 
G01 X28.9318 Y31.3970 
G01 X28.7583 Y31.3251 
G01 X28.6021 Y31.2207 
G01 X28.4693 Y31.0879 
G01 X28.3649 Y30.9317 
G01 X28.2930 Y30.7582 
G01 X28.2564 Y30.5739 
G01 X28.2564 Y30.3861 
G01 X28.2930 Y30.2018 
G01 X28.3649 Y30.0283 
G01 X28.4693 Y29.8721 
G01 X28.6021 Y29.7393 
G01 X28.7583 Y29.6349 
G01 X28.9318 Y29.5630 
G01 X29.1161 Y29.5264 
G01 X29.3039 Y29.5264 
G01 X29.4882 Y29.5630 
G01 X29.6617 Y29.6349 
G01 X29.8179 Y29.7393 
G01 X29.9507 Y29.8721 
G01 X30.0551 Y30.0283 
G01 X30.1270 Y30.2018 
G01 X30.1636 Y30.3861 
G00 Z2.5400 
G00 X30.1636 Y27.8461 
G01 Z-0.1500 F254.00 
G01 X30.1636 Y28.0339 F508.00 
G01 X30.1270 Y28.2182 
G01 X30.0551 Y28.3917 
G01 X29.9507 Y28.5479 
G01 X29.8179 Y28.6807 
G01 X29.6617 Y28.7851 
G01 X29.4882 Y28.8570 
G01 X29.3039 Y28.8936 
G01 X29.1161 Y28.8936 
G01 X28.9318 Y28.8570 
G01 X28.7583 Y28.7851 
G01 X28.6021 Y28.6807 
G01 X28.4693 Y28.5479 
G01 X28.3649 Y28.3917 
G01 X28.2930 Y28.2182 
G01 X28.2564 Y28.0339 
G01 X28.2564 Y27.8461 
G01 X28.2930 Y27.6618 
G01 X28.3649 Y27.4883 
G01 X28.4693 Y27.3321 
G01 X28.6021 Y27.1993 
G01 X28.7583 Y27.0949 
G01 X28.9318 Y27.0230 
G01 X29.1161 Y26.9864 
G01 X29.3039 Y26.9864 
G01 X29.4882 Y27.0230 
G01 X29.6617 Y27.0949 
G01 X29.8179 Y27.1993 
G01 X29.9507 Y27.3321 
G01 X30.0551 Y27.4883 
G01 X30.1270 Y27.6618 
G01 X30.1636 Y27.8461 
G00 Z2.5400 
G00 X22.5436 Y27.8461 
G01 Z-0.1500 F254.00 
G01 X22.5436 Y28.0339 F508.00 
G01 X22.5069 Y28.2182 
G01 X22.4351 Y28.3917 
G01 X22.3307 Y28.5479 
G01 X22.1979 Y28.6807 
G01 X22.0417 Y28.7851 
G01 X21.8682 Y28.8570 
G01 X21.6839 Y28.8936 
G01 X21.4961 Y28.8936 
G01 X21.3118 Y28.8570 
G01 X21.1383 Y28.7851 
G01 X20.9821 Y28.6807 
G01 X20.8493 Y28.5479 
G01 X20.7449 Y28.3917 
G01 X20.6730 Y28.2182 
G01 X20.6364 Y28.0339 
G01 X20.6364 Y27.8461 
G01 X20.6730 Y27.6618 
G01 X20.7449 Y27.4883 
G01 X20.8493 Y27.3321 
G01 X20.9821 Y27.1993 
G01 X21.1383 Y27.0949 
G01 X21.3118 Y27.0230 
G01 X21.4961 Y26.9864 
G01 X21.6839 Y26.9864 
G01 X21.8682 Y27.0230 
G01 X22.0417 Y27.0949 
G01 X22.1979 Y27.1993 
G01 X22.3307 Y27.3321 
G01 X22.4351 Y27.4883 
G01 X22.5069 Y27.6618 
G01 X22.5436 Y27.8461 
G00 Z2.5400 
G00 X22.5436 Y30.3861 
G01 Z-0.1500 F254.00 
G01 X22.5436 Y30.5739 F508.00 
G01 X22.5069 Y30.7582 
G01 X22.4351 Y30.9317 
G01 X22.3307 Y31.0879 
G01 X22.1979 Y31.2207 
G01 X22.0417 Y31.3251 
G01 X21.8682 Y31.3970 
G01 X21.6839 Y31.4336 
G01 X21.4961 Y31.4336 
G01 X21.3118 Y31.3970 
G01 X21.1383 Y31.3251 
G01 X20.9821 Y31.2207 
G01 X20.8493 Y31.0879 
G01 X20.7449 Y30.9317 
G01 X20.7092 Y30.8454 
G01 X18.1454 Y30.8454 
G01 X18.1454 Y36.8781 
G01 X18.1205 Y36.9710 
G01 X18.0724 Y37.0544 
G01 X18.0044 Y37.1224 
G01 X10.3844 Y44.7424 
G01 X10.3010 Y44.7905 
G01 X10.2081 Y44.8154 
G01 X2.9054 Y44.8154 
G01 X2.9054 Y64.6912 
G01 X3.0345 Y64.7770 
G01 X3.1426 Y64.8851 
G01 X3.2275 Y65.0121 
G01 X3.2860 Y65.1533 
G01 X3.3158 Y65.3032 
G01 X3.3158 Y66.7768 
G01 X3.2860 Y66.9267 
G01 X3.2275 Y67.0679 
G01 X3.1426 Y67.1949 
G01 X3.0345 Y67.3030 
G01 X2.9075 Y67.3879 
G01 X2.7663 Y67.4464 
G01 X2.6164 Y67.4762 
G01 X2.4636 Y67.4762 
G01 X2.3137 Y67.4464 
G01 X2.1725 Y67.3879 
G01 X2.0455 Y67.3030 
G01 X1.9374 Y67.1949 
G01 X1.8525 Y67.0679 
G01 X1.7940 Y66.9267 
G01 X1.7642 Y66.7768 
G01 X1.7642 Y65.3032 
G01 X1.7940 Y65.1533 
G01 X1.8525 Y65.0121 
G01 X1.9374 Y64.8851 
G01 X2.0455 Y64.7770 
G01 X2.1725 Y64.6921 
G01 X2.1746 Y44.4019 
G01 X2.1995 Y44.3090 
G01 X2.2476 Y44.2256 
G01 X2.3156 Y44.1576 
G01 X2.3990 Y44.1095 
G01 X2.4919 Y44.0846 
G01 X10.0086 Y44.0846 
G01 X17.4146 Y36.6786 
G01 X17.4146 Y30.4319 
G01 X17.4395 Y30.3390 
G01 X17.4876 Y30.2556 
G01 X17.5556 Y30.1876 
G01 X17.6390 Y30.1395 
G01 X17.7319 Y30.1146 
G01 X20.7092 Y30.1146 
G01 X20.7449 Y30.0283 
G01 X20.8493 Y29.8721 
G01 X20.9821 Y29.7393 
G01 X21.1383 Y29.6349 
G01 X21.3118 Y29.5630 
G01 X21.4961 Y29.5264 
G01 X21.6839 Y29.5264 
G01 X21.8682 Y29.5630 
G01 X22.0417 Y29.6349 
G01 X22.1979 Y29.7393 
G01 X22.3307 Y29.8721 
G01 X22.4351 Y30.0283 
G01 X22.5069 Y30.2018 
G01 X22.5436 Y30.3861 
G00 Z2.5400 
G00 X22.5436 Y35.4661 
G01 Z-0.1500 F254.00 
G01 X22.5436 Y35.6539 F508.00 
G01 X22.5069 Y35.8382 
G01 X22.4351 Y36.0117 
G01 X22.3307 Y36.1679 
G01 X22.1979 Y36.3007 
G01 X22.0417 Y36.4051 
G01 X21.8682 Y36.4770 
G01 X21.6839 Y36.5136 
G01 X21.4961 Y36.5136 
G01 X21.3118 Y36.4770 
G01 X21.1383 Y36.4051 
G01 X20.9821 Y36.3007 
G01 X20.8493 Y36.1679 
G01 X20.7449 Y36.0117 
G01 X20.6730 Y35.8382 
G01 X20.6364 Y35.6539 
G01 X20.6364 Y35.4661 
G01 X20.6730 Y35.2818 
G01 X20.7449 Y35.1083 
G01 X20.8493 Y34.9521 
G01 X20.9821 Y34.8193 
G01 X21.1383 Y34.7149 
G01 X21.3118 Y34.6430 
G01 X21.4961 Y34.6064 
G01 X21.6839 Y34.6064 
G01 X21.8682 Y34.6430 
G01 X22.0417 Y34.7149 
G01 X22.1979 Y34.8193 
G01 X22.3307 Y34.9521 
G01 X22.4351 Y35.1083 
G01 X22.5069 Y35.2818 
G01 X22.5436 Y35.4661 
G00 Z2.5400 
G00 X22.5436 Y38.0061 
G01 Z-0.1500 F254.00 
G01 X22.5436 Y38.1939 F508.00 
G01 X22.5069 Y38.3782 
G01 X22.4351 Y38.5517 
G01 X22.3307 Y38.7079 
G01 X22.1979 Y38.8407 
G01 X22.0417 Y38.9451 
G01 X21.8682 Y39.0170 
G01 X21.6839 Y39.0536 
G01 X21.4961 Y39.0536 
G01 X21.3118 Y39.0170 
G01 X21.1383 Y38.9451 
G01 X20.9821 Y38.8407 
G01 X20.8493 Y38.7079 
G01 X20.7449 Y38.5517 
G01 X20.6730 Y38.3782 
G01 X20.6364 Y38.1939 
G01 X20.6364 Y38.0061 
G01 X20.6730 Y37.8218 
G01 X20.7449 Y37.6483 
G01 X20.8493 Y37.4921 
G01 X20.9821 Y37.3593 
G01 X21.1383 Y37.2549 
G01 X21.3118 Y37.1830 
G01 X21.4961 Y37.1464 
G01 X21.6839 Y37.1464 
G01 X21.8682 Y37.1830 
G01 X22.0417 Y37.2549 
G01 X22.1979 Y37.3593 
G01 X22.3307 Y37.4921 
G01 X22.4351 Y37.6483 
G01 X22.5069 Y37.8218 
G01 X22.5436 Y38.0061 
G00 Z2.5400 
G00 X22.5436 Y40.5461 
G01 Z-0.1500 F254.00 
G01 X22.5436 Y40.7339 F508.00 
G01 X22.5069 Y40.9182 
G01 X22.4351 Y41.0917 
G01 X22.3307 Y41.2479 
G01 X22.1979 Y41.3807 
G01 X22.0417 Y41.4851 
G01 X21.8682 Y41.5570 
G01 X21.6839 Y41.5936 
G01 X21.4961 Y41.5936 
G01 X21.3118 Y41.5570 
G01 X21.1383 Y41.4851 
G01 X20.9821 Y41.3807 
G01 X20.8493 Y41.2479 
G01 X20.7449 Y41.0917 
G01 X20.6730 Y40.9182 
G01 X20.6364 Y40.7339 
G01 X20.6364 Y40.5461 
G01 X20.6730 Y40.3618 
G01 X20.7449 Y40.1883 
G01 X20.8493 Y40.0321 
G01 X20.9821 Y39.8993 
G01 X21.1383 Y39.7949 
G01 X21.3118 Y39.7230 
G01 X21.4961 Y39.6864 
G01 X21.6839 Y39.6864 
G01 X21.8682 Y39.7230 
G01 X22.0417 Y39.7949 
G01 X22.1979 Y39.8993 
G01 X22.3307 Y40.0321 
G01 X22.4351 Y40.1883 
G01 X22.5069 Y40.3618 
G01 X22.5436 Y40.5461 
G00 Z2.5400 
G00 X22.5436 Y43.0861 
G01 Z-0.1500 F254.00 
G01 X22.5436 Y43.2739 F508.00 
G01 X22.5069 Y43.4582 
G01 X22.4351 Y43.6317 
G01 X22.3307 Y43.7879 
G01 X22.1979 Y43.9207 
G01 X22.0417 Y44.0251 
G01 X21.8682 Y44.0969 
G01 X21.6839 Y44.1336 
G01 X21.4961 Y44.1336 
G01 X21.3118 Y44.0969 
G01 X21.1383 Y44.0251 
G01 X20.9821 Y43.9207 
G01 X20.8493 Y43.7879 
G01 X20.7449 Y43.6317 
G01 X20.6730 Y43.4582 
G01 X20.6364 Y43.2739 
G01 X20.6364 Y43.0861 
G01 X20.6730 Y42.9018 
G01 X20.7449 Y42.7283 
G01 X20.8493 Y42.5721 
G01 X20.9821 Y42.4393 
G01 X21.1383 Y42.3349 
G01 X21.3118 Y42.2630 
G01 X21.4961 Y42.2264 
G01 X21.6839 Y42.2264 
G01 X21.8682 Y42.2630 
G01 X22.0417 Y42.3349 
G01 X22.1979 Y42.4393 
G01 X22.3307 Y42.5721 
G01 X22.4351 Y42.7283 
G01 X22.5069 Y42.9018 
G01 X22.5436 Y43.0861 
G00 Z2.5400 
G00 X22.5436 Y45.6261 
G01 Z-0.1500 F254.00 
G01 X22.5436 Y45.8139 F508.00 
G01 X22.5069 Y45.9982 
G01 X22.4351 Y46.1717 
G01 X22.3307 Y46.3279 
G01 X22.1979 Y46.4607 
G01 X22.0417 Y46.5651 
G01 X21.8682 Y46.6369 
G01 X21.6839 Y46.6736 
G01 X21.4961 Y46.6736 
G01 X21.3118 Y46.6369 
G01 X21.1383 Y46.5651 
G01 X20.9821 Y46.4607 
G01 X20.8493 Y46.3279 
G01 X20.7449 Y46.1717 
G01 X20.6730 Y45.9982 
G01 X20.6364 Y45.8139 
G01 X20.6364 Y45.6261 
G01 X20.6730 Y45.4418 
G01 X20.7449 Y45.2683 
G01 X20.8493 Y45.1121 
G01 X20.9821 Y44.9793 
G01 X21.1383 Y44.8749 
G01 X21.3118 Y44.8030 
G01 X21.4961 Y44.7664 
G01 X21.6839 Y44.7664 
G01 X21.8682 Y44.8030 
G01 X22.0417 Y44.8749 
G01 X22.1979 Y44.9793 
G01 X22.3307 Y45.1121 
G01 X22.4351 Y45.2683 
G01 X22.5069 Y45.4418 
G01 X22.5436 Y45.6261 
G00 Z2.5400 
G00 X22.5436 Y48.1661 
G01 Z-0.1500 F254.00 
G01 X22.5436 Y48.3539 F508.00 
G01 X22.5069 Y48.5382 
G01 X22.4351 Y48.7117 
G01 X22.3307 Y48.8679 
G01 X22.1979 Y49.0007 
G01 X22.0417 Y49.1051 
G01 X21.8682 Y49.1770 
G01 X21.6839 Y49.2136 
G01 X21.4961 Y49.2136 
G01 X21.3118 Y49.1770 
G01 X21.1383 Y49.1051 
G01 X20.9821 Y49.0007 
G01 X20.8493 Y48.8679 
G01 X20.7449 Y48.7117 
G01 X20.6730 Y48.5382 
G01 X20.6364 Y48.3539 
G01 X20.6364 Y48.1661 
G01 X20.6730 Y47.9818 
G01 X20.7449 Y47.8083 
G01 X20.8493 Y47.6521 
G01 X20.9821 Y47.5193 
G01 X21.1383 Y47.4149 
G01 X21.3118 Y47.3430 
G01 X21.4961 Y47.3064 
G01 X21.6839 Y47.3064 
G01 X21.8682 Y47.3430 
G01 X22.0417 Y47.4149 
G01 X22.1979 Y47.5193 
G01 X22.3307 Y47.6521 
G01 X22.4351 Y47.8083 
G01 X22.5069 Y47.9818 
G01 X22.5436 Y48.1661 
G00 Z2.5400 
G00 X22.5436 Y50.7061 
G01 Z-0.1500 F254.00 
G01 X22.5436 Y50.8939 F508.00 
G01 X22.5069 Y51.0782 
G01 X22.4351 Y51.2517 
G01 X22.3307 Y51.4079 
G01 X22.1979 Y51.5407 
G01 X22.0417 Y51.6451 
G01 X21.8682 Y51.7170 
G01 X21.6839 Y51.7536 
G01 X21.4961 Y51.7536 
G01 X21.3118 Y51.7170 
G01 X21.1383 Y51.6451 
G01 X20.9821 Y51.5407 
G01 X20.8493 Y51.4079 
G01 X20.7449 Y51.2517 
G01 X20.6730 Y51.0782 
G01 X20.6364 Y50.8939 
G01 X20.6364 Y50.7061 
G01 X20.6730 Y50.5218 
G01 X20.7449 Y50.3483 
G01 X20.8493 Y50.1921 
G01 X20.9821 Y50.0593 
G01 X21.1383 Y49.9549 
G01 X21.3118 Y49.8830 
G01 X21.4961 Y49.8464 
G01 X21.6839 Y49.8464 
G01 X21.8682 Y49.8830 
G01 X22.0417 Y49.9549 
G01 X22.1979 Y50.0593 
G01 X22.3307 Y50.1921 
G01 X22.4351 Y50.3483 
G01 X22.5069 Y50.5218 
G01 X22.5436 Y50.7061 
G00 Z2.5400 
G00 X22.5436 Y53.2461 
G01 Z-0.1500 F254.00 
G01 X22.5436 Y53.4339 F508.00 
G01 X22.5069 Y53.6182 
G01 X22.4351 Y53.7917 
G01 X22.3307 Y53.9479 
G01 X22.1979 Y54.0807 
G01 X22.0417 Y54.1851 
G01 X21.8682 Y54.2570 
G01 X21.6839 Y54.2936 
G01 X21.4961 Y54.2936 
G01 X21.3118 Y54.2570 
G01 X21.1383 Y54.1851 
G01 X20.9821 Y54.0807 
G01 X20.8493 Y53.9479 
G01 X20.7449 Y53.7917 
G01 X20.6730 Y53.6182 
G01 X20.6364 Y53.4339 
G01 X20.6364 Y53.2461 
G01 X20.6730 Y53.0618 
G01 X20.7449 Y52.8883 
G01 X20.8493 Y52.7321 
G01 X20.9821 Y52.5993 
G01 X21.1383 Y52.4949 
G01 X21.3118 Y52.4230 
G01 X21.4961 Y52.3864 
G01 X21.6839 Y52.3864 
G01 X21.8682 Y52.4230 
G01 X22.0417 Y52.4949 
G01 X22.1979 Y52.5993 
G01 X22.3307 Y52.7321 
G01 X22.4351 Y52.8883 
G01 X22.5069 Y53.0618 
G01 X22.5436 Y53.2461 
G00 Z2.5400 
G00 X22.5436 Y55.7861 
G01 Z-0.1500 F254.00 
G01 X22.5436 Y55.9739 F508.00 
G01 X22.5069 Y56.1582 
G01 X22.4351 Y56.3317 
G01 X22.3307 Y56.4879 
G01 X22.1979 Y56.6207 
G01 X22.0417 Y56.7251 
G01 X21.8682 Y56.7970 
G01 X21.6839 Y56.8336 
G01 X21.4961 Y56.8336 
G01 X21.3118 Y56.7970 
G01 X21.1383 Y56.7251 
G01 X20.9821 Y56.6207 
G01 X20.8493 Y56.4879 
G01 X20.7449 Y56.3317 
G01 X20.6730 Y56.1582 
G01 X20.6364 Y55.9739 
G01 X20.6364 Y55.7861 
G01 X20.6730 Y55.6018 
G01 X20.7449 Y55.4283 
G01 X20.8493 Y55.2721 
G01 X20.9821 Y55.1393 
G01 X21.1383 Y55.0349 
G01 X21.3118 Y54.9630 
G01 X21.4961 Y54.9264 
G01 X21.6839 Y54.9264 
G01 X21.8682 Y54.9630 
G01 X22.0417 Y55.0349 
G01 X22.1979 Y55.1393 
G01 X22.3307 Y55.2721 
G01 X22.4351 Y55.4283 
G01 X22.5069 Y55.6018 
G01 X22.5436 Y55.7861 
G00 Z2.5400 
G00 X22.5436 Y58.3261 
G01 Z-0.1500 F254.00 
G01 X22.5436 Y58.5139 F508.00 
G01 X22.5069 Y58.6982 
G01 X22.4351 Y58.8717 
G01 X22.3307 Y59.0279 
G01 X22.1979 Y59.1607 
G01 X22.0417 Y59.2651 
G01 X21.8682 Y59.3370 
G01 X21.6839 Y59.3736 
G01 X21.4961 Y59.3736 
G01 X21.3118 Y59.3370 
G01 X21.1383 Y59.2651 
G01 X20.9821 Y59.1607 
G01 X20.8493 Y59.0279 
G01 X20.7449 Y58.8717 
G01 X20.6730 Y58.6982 
G01 X20.6364 Y58.5139 
G01 X20.6364 Y58.3261 
G01 X20.6730 Y58.1418 
G01 X20.7449 Y57.9683 
G01 X20.8493 Y57.8121 
G01 X20.9821 Y57.6793 
G01 X21.1383 Y57.5749 
G01 X21.3118 Y57.5030 
G01 X21.4961 Y57.4664 
G01 X21.6839 Y57.4664 
G01 X21.8682 Y57.5030 
G01 X22.0417 Y57.5749 
G01 X22.1979 Y57.6793 
G01 X22.3307 Y57.8121 
G01 X22.4351 Y57.9683 
G01 X22.5069 Y58.1418 
G01 X22.5436 Y58.3261 
G00 Z2.5400 
G00 X22.5436 Y60.0988 
G01 Z-0.1500 F254.00 
G01 X22.5436 Y61.8212 F508.00 
G01 X22.5260 Y61.8636 
G01 X22.4936 Y61.8960 
G01 X22.4512 Y61.9136 
G01 X20.7288 Y61.9136 
G01 X20.6864 Y61.8960 
G01 X20.6540 Y61.8636 
G01 X20.6364 Y61.8212 
G01 X20.6364 Y60.0988 
G01 X20.6540 Y60.0564 
G01 X20.6864 Y60.0240 
G01 X20.7288 Y60.0064 
G01 X22.4512 Y60.0064 
G01 X22.4936 Y60.0240 
G01 X22.5260 Y60.0564 
G01 X22.5436 Y60.0988 
G00 Z2.5400 
G00 X16.0158 Y59.3687 
G01 Z-0.1500 F254.00 
G01 X16.0158 Y60.0113 F508.00 
G01 X15.5613 Y60.4658 
G01 X14.9187 Y60.4658 
G01 X14.4642 Y60.0113 
G01 X14.4642 Y59.3687 
G01 X14.9187 Y58.9142 
G01 X15.5613 Y58.9142 
G01 X16.0158 Y59.3687 
G00 Z2.5400 
G00 X22.7849 Y22.3651 
G01 Z-0.1500 F254.00 
G01 X22.7849 Y23.3549 F508.00 
G01 X22.0849 Y24.0549 
G01 X21.0951 Y24.0549 
G01 X20.3951 Y23.3549 
G01 X20.3951 Y22.3651 
G01 X21.0951 Y21.6651 
G01 X22.0849 Y21.6651 
G01 X22.7849 Y22.3651 
G00 Z2.5400 
G00 X32.9449 Y22.3651 
G01 Z-0.1500 F254.00 
G01 X32.9449 Y23.3549 F508.00 
G01 X32.2449 Y24.0549 
G01 X31.2551 Y24.0549 
G01 X30.5551 Y23.3549 
G01 X30.5551 Y22.3651 
G01 X31.2551 Y21.6651 
G01 X32.2449 Y21.6651 
G01 X32.9449 Y22.3651 
G00 Z2.5400 
G00 X22.7849 Y12.2051 
G01 Z-0.1500 F254.00 
G01 X22.7849 Y13.1949 F508.00 
G01 X22.0849 Y13.8949 
G01 X21.0951 Y13.8949 
G01 X20.3951 Y13.1949 
G01 X20.3951 Y12.2051 
G01 X21.0951 Y11.5051 
G01 X22.0849 Y11.5051 
G01 X22.7849 Y12.2051 
G00 Z2.5400 
G00 X32.9449 Y12.2051 
G01 Z-0.1500 F254.00 
G01 X32.9449 Y13.1949 F508.00 
G01 X32.2449 Y13.8949 
G01 X31.2551 Y13.8949 
G01 X30.5551 Y13.1949 
G01 X30.5551 Y12.2051 
G01 X31.2551 Y11.5051 
G01 X32.2449 Y11.5051 
G01 X32.9449 Y12.2051 
G00 Z2.5400 
G00 X16.4349 Y12.2051 
G01 Z-0.1500 F254.00 
G01 X16.4349 Y13.1949 F508.00 
G01 X15.7349 Y13.8949 
G01 X14.7451 Y13.8949 
G01 X14.0451 Y13.1949 
G01 X14.0451 Y12.2051 
G01 X14.7451 Y11.5051 
G01 X15.7349 Y11.5051 
G01 X16.4349 Y12.2051 
G00 Z2.5400 
G00 X6.2749 Y12.2051 
G01 Z-0.1500 F254.00 
G01 X6.2749 Y13.1949 F508.00 
G01 X5.5749 Y13.8949 
G01 X4.5851 Y13.8949 
G01 X3.8851 Y13.1949 
G01 X3.8851 Y12.2051 
G01 X4.5851 Y11.5051 
G01 X5.5749 Y11.5051 
G01 X6.2749 Y12.2051 
G00 Z2.5400 
G00 X16.0158 Y23.9266 
G01 Z-0.1500 F254.00 
G01 X16.0158 Y24.0794 F508.00 
G01 X15.9860 Y24.2293 
G01 X15.9275 Y24.3705 
G01 X15.8426 Y24.4975 
G01 X15.7345 Y24.6056 
G01 X15.6075 Y24.6905 
G01 X15.4663 Y24.7490 
G01 X15.3164 Y24.7788 
G01 X15.1636 Y24.7788 
G01 X15.0137 Y24.7490 
G01 X14.8725 Y24.6905 
G01 X14.7455 Y24.6056 
G01 X14.6374 Y24.4975 
G01 X14.5525 Y24.3705 
G01 X14.4940 Y24.2293 
G01 X14.4642 Y24.0794 
G01 X14.4642 Y23.9266 
G01 X14.4940 Y23.7767 
G01 X14.5525 Y23.6355 
G01 X14.6374 Y23.5085 
G01 X14.7455 Y23.4004 
G01 X14.8725 Y23.3155 
G01 X15.0137 Y23.2570 
G01 X15.1636 Y23.2272 
G01 X15.3164 Y23.2272 
G01 X15.4663 Y23.2570 
G01 X15.6075 Y23.3155 
G01 X15.7345 Y23.4004 
G01 X15.8426 Y23.5085 
G01 X15.9275 Y23.6355 
G01 X15.9860 Y23.7767 
G01 X16.0158 Y23.9266 
G00 Z2.5400 
G00 X16.0158 Y19.1006 
G01 Z-0.1500 F254.00 
G01 X16.0158 Y19.2534 F508.00 
G01 X15.9860 Y19.4033 
G01 X15.9275 Y19.5445 
G01 X15.8426 Y19.6715 
G01 X15.7345 Y19.7796 
G01 X15.6075 Y19.8645 
G01 X15.4663 Y19.9230 
G01 X15.3164 Y19.9528 
G01 X15.1636 Y19.9528 
G01 X15.0137 Y19.9230 
G01 X14.8725 Y19.8645 
G01 X14.7455 Y19.7796 
G01 X14.6374 Y19.6715 
G01 X14.5525 Y19.5445 
G01 X14.4940 Y19.4033 
G01 X14.4642 Y19.2534 
G01 X14.4642 Y19.1006 
G01 X14.4940 Y18.9507 
G01 X14.5525 Y18.8095 
G01 X14.6374 Y18.6825 
G01 X14.7455 Y18.5744 
G01 X14.8725 Y18.4895 
G01 X15.0137 Y18.4310 
G01 X15.1636 Y18.4012 
G01 X15.3164 Y18.4012 
G01 X15.4663 Y18.4310 
G01 X15.6075 Y18.4895 
G01 X15.7345 Y18.5744 
G01 X15.8426 Y18.6825 
G01 X15.9275 Y18.8095 
G01 X15.9860 Y18.9507 
G01 X16.0158 Y19.1006 
G00 Z2.5400 
G00 X4.7636 Y30.3861 
G01 Z-0.1500 F254.00 
G01 X4.7636 Y30.5739 F508.00 
G01 X4.7270 Y30.7582 
G01 X4.6551 Y30.9317 
G01 X4.5507 Y31.0879 
G01 X4.4179 Y31.2207 
G01 X4.2617 Y31.3251 
G01 X4.0882 Y31.3970 
G01 X3.9039 Y31.4336 
G01 X3.7161 Y31.4336 
G01 X3.5318 Y31.3970 
G01 X3.3583 Y31.3251 
G01 X3.2021 Y31.2207 
G01 X3.0693 Y31.0879 
G01 X2.9649 Y30.9317 
G01 X2.8930 Y30.7582 
G01 X2.8564 Y30.5739 
G01 X2.8564 Y30.3861 
G01 X2.8930 Y30.2018 
G01 X2.9649 Y30.0283 
G01 X3.0693 Y29.8721 
G01 X3.2021 Y29.7393 
G01 X3.3583 Y29.6349 
G01 X3.5318 Y29.5630 
G01 X3.7161 Y29.5264 
G01 X3.9039 Y29.5264 
G01 X4.0882 Y29.5630 
G01 X4.2617 Y29.6349 
G01 X4.4179 Y29.7393 
G01 X4.5507 Y29.8721 
G01 X4.6551 Y30.0283 
G01 X4.7270 Y30.2018 
G01 X4.7636 Y30.3861 
G00 Z2.5400 
G00 X14.9236 Y30.3861 
G01 Z-0.1500 F254.00 
G01 X14.9236 Y30.5739 F508.00 
G01 X14.8870 Y30.7582 
G01 X14.8151 Y30.9317 
G01 X14.7107 Y31.0879 
G01 X14.5779 Y31.2207 
G01 X14.4217 Y31.3251 
G01 X14.2482 Y31.3970 
G01 X14.0639 Y31.4336 
G01 X13.8761 Y31.4336 
G01 X13.6918 Y31.3970 
G01 X13.5183 Y31.3251 
G01 X13.3621 Y31.2207 
G01 X13.2293 Y31.0879 
G01 X13.1249 Y30.9317 
G01 X13.0530 Y30.7582 
G01 X13.0164 Y30.5739 
G01 X13.0164 Y30.3861 
G01 X13.0530 Y30.2018 
G01 X13.1249 Y30.0283 
G01 X13.2293 Y29.8721 
G01 X13.3621 Y29.7393 
G01 X13.5183 Y29.6349 
G01 X13.6918 Y29.5630 
G01 X13.8761 Y29.5264 
G01 X14.0639 Y29.5264 
G01 X14.2482 Y29.5630 
G01 X14.4217 Y29.6349 
G01 X14.5779 Y29.7393 
G01 X14.7107 Y29.8721 
G01 X14.8151 Y30.0283 
G01 X14.8870 Y30.2018 
G01 X14.9236 Y30.3861 
G00 Z2.5400 
G00 X15.1649 Y35.0651 
G01 Z-0.1500 F254.00 
G01 X15.1649 Y36.0549 F508.00 
G01 X14.4649 Y36.7549 
G01 X13.4751 Y36.7549 
G01 X12.7751 Y36.0549 
G01 X12.7751 Y35.0651 
G01 X13.4751 Y34.3651 
G01 X14.4649 Y34.3651 
G01 X15.1649 Y35.0651 
G00 Z2.5400 
G00 X5.0049 Y35.0651 
G01 Z-0.1500 F254.00 
G01 X5.0049 Y36.0549 F508.00 
G01 X4.3049 Y36.7549 
G01 X3.3151 Y36.7549 
G01 X2.6151 Y36.0549 
G01 X2.6151 Y35.0651 
G01 X3.3151 Y34.3651 
G01 X4.3049 Y34.3651 
G01 X5.0049 Y35.0651 
G00 Z2.5400 
G00 X7.9364 Y42.8421 
G01 Z-0.1500 F254.00 
G01 X7.9364 Y40.9779 F508.00 
G01 X7.9730 Y40.7936 
G01 X8.0449 Y40.6201 
G01 X8.1493 Y40.4639 
G01 X8.2821 Y40.3311 
G01 X8.4383 Y40.2267 
G01 X8.6118 Y40.1548 
G01 X8.7961 Y40.1182 
G01 X8.9839 Y40.1182 
G01 X9.1682 Y40.1548 
G01 X9.3417 Y40.2267 
G01 X9.4979 Y40.3311 
G01 X9.6307 Y40.4639 
G01 X9.7351 Y40.6201 
G01 X9.8070 Y40.7936 
G01 X9.8436 Y40.9779 
G01 X9.8436 Y42.8421 
G01 X9.8070 Y43.0264 
G01 X9.7351 Y43.1999 
G01 X9.6307 Y43.3561 
G01 X9.4979 Y43.4889 
G01 X9.3417 Y43.5933 
G01 X9.1682 Y43.6652 
G01 X8.9839 Y43.7018 
G01 X8.7961 Y43.7018 
G01 X8.6118 Y43.6652 
G01 X8.4383 Y43.5933 
G01 X8.2821 Y43.4889 
G01 X8.1493 Y43.3561 
G01 X8.0449 Y43.1999 
G01 X7.9730 Y43.0264 
G01 X7.9364 Y42.8421 
G00 Z2.5400 
G00 X5.3964 Y42.8421 
G01 Z-0.1500 F254.00 
G01 X5.3964 Y40.9779 F508.00 
G01 X5.4330 Y40.7936 
G01 X5.5049 Y40.6201 
G01 X5.6093 Y40.4639 
G01 X5.7421 Y40.3311 
G01 X5.8983 Y40.2267 
G01 X6.0718 Y40.1548 
G01 X6.2561 Y40.1182 
G01 X6.4439 Y40.1182 
G01 X6.6282 Y40.1548 
G01 X6.8017 Y40.2267 
G01 X6.9579 Y40.3311 
G01 X7.0907 Y40.4639 
G01 X7.1951 Y40.6201 
G01 X7.2670 Y40.7936 
G01 X7.3036 Y40.9779 
G01 X7.3036 Y42.8421 
G01 X7.2670 Y43.0264 
G01 X7.1951 Y43.1999 
G01 X7.0907 Y43.3561 
G01 X6.9579 Y43.4889 
G01 X6.8017 Y43.5933 
G01 X6.6282 Y43.6652 
G01 X6.4439 Y43.7018 
G01 X6.2561 Y43.7018 
G01 X6.0718 Y43.6652 
G01 X5.8983 Y43.5933 
G01 X5.7421 Y43.4889 
G01 X5.6093 Y43.3561 
G01 X5.5049 Y43.1999 
G01 X5.4330 Y43.0264 
G01 X5.3964 Y42.8421 
G00 Z2.5400 
G00 X2.8564 Y42.8421 
G01 Z-0.1500 F254.00 
G01 X2.8564 Y40.9779 F508.00 
G01 X2.8930 Y40.7936 
G01 X2.9649 Y40.6201 
G01 X3.0693 Y40.4639 
G01 X3.2021 Y40.3311 
G01 X3.3583 Y40.2267 
G01 X3.5318 Y40.1548 
G01 X3.7161 Y40.1182 
G01 X3.9039 Y40.1182 
G01 X4.0882 Y40.1548 
G01 X4.2617 Y40.2267 
G01 X4.4179 Y40.3311 
G01 X4.5507 Y40.4639 
G01 X4.6551 Y40.6201 
G01 X4.7270 Y40.7936 
G01 X4.7636 Y40.9779 
G01 X4.7636 Y42.8421 
G01 X4.7270 Y43.0264 
G01 X4.6551 Y43.1999 
G01 X4.5507 Y43.3561 
G01 X4.4179 Y43.4889 
G01 X4.2617 Y43.5933 
G01 X4.0882 Y43.6652 
G01 X3.9039 Y43.7018 
G01 X3.7161 Y43.7018 
G01 X3.5318 Y43.6652 
G01 X3.3583 Y43.5933 
G01 X3.2021 Y43.4889 
G01 X3.0693 Y43.3561 
G01 X2.9649 Y43.1999 
G01 X2.8930 Y43.0264 
G01 X2.8564 Y42.8421 
G00 Z2.5400 
G00 X4.0024 Y22.9732 
G01 Z-0.1500 F254.00 
G01 X6.1576 Y22.9732 F508.00 
G01 X6.3296 Y23.0004 
G01 X6.4952 Y23.0542 
G01 X6.6503 Y23.1333 
G01 X6.7911 Y23.2356 
G01 X6.9142 Y23.3587 
G01 X7.0165 Y23.4995 
G01 X7.0956 Y23.6546 
G01 X7.1494 Y23.8202 
G01 X7.1766 Y23.9922 
G01 X7.1766 Y24.1662 
G01 X7.1494 Y24.3382 
G01 X7.0956 Y24.5038 
G01 X7.0165 Y24.6589 
G01 X6.9142 Y24.7997 
G01 X6.7911 Y24.9228 
G01 X6.6503 Y25.0251 
G01 X6.4952 Y25.1042 
G01 X6.3296 Y25.1580 
G01 X6.1576 Y25.1852 
G01 X4.0024 Y25.1852 
G01 X3.8304 Y25.1580 
G01 X3.6648 Y25.1042 
G01 X3.5097 Y25.0251 
G01 X3.3689 Y24.9228 
G01 X3.2458 Y24.7997 
G01 X3.1435 Y24.6589 
G01 X3.0644 Y24.5038 
G01 X3.0106 Y24.3382 
G01 X2.9834 Y24.1662 
G01 X2.9834 Y23.9922 
G01 X3.0106 Y23.8202 
G01 X3.0644 Y23.6546 
G01 X3.1435 Y23.4995 
G01 X3.2458 Y23.3587 
G01 X3.3689 Y23.2356 
G01 X3.5097 Y23.1333 
G01 X3.6648 Y23.0542 
G01 X3.8304 Y23.0004 
G01 X4.0024 Y22.9732 
G00 Z2.5400 
G00 X4.0024 Y17.9694 
G01 Z-0.1500 F254.00 
G01 X6.1576 Y17.9694 F508.00 
G01 X6.3296 Y17.9966 
G01 X6.4952 Y18.0504 
G01 X6.6503 Y18.1295 
G01 X6.7911 Y18.2318 
G01 X6.9142 Y18.3549 
G01 X7.0165 Y18.4957 
G01 X7.0956 Y18.6508 
G01 X7.1494 Y18.8164 
G01 X7.1766 Y18.9884 
G01 X7.1766 Y19.1624 
G01 X7.1494 Y19.3344 
G01 X7.0956 Y19.5000 
G01 X7.0165 Y19.6551 
G01 X6.9142 Y19.7959 
G01 X6.7911 Y19.9190 
G01 X6.6503 Y20.0213 
G01 X6.4952 Y20.1004 
G01 X6.3296 Y20.1542 
G01 X6.1576 Y20.1814 
G01 X4.0024 Y20.1814 
G01 X3.8304 Y20.1542 
G01 X3.6648 Y20.1004 
G01 X3.5097 Y20.0213 
G01 X3.3689 Y19.9190 
G01 X3.2458 Y19.7959 
G01 X3.1435 Y19.6551 
G01 X3.0644 Y19.5000 
G01 X3.0106 Y19.3344 
G01 X2.9834 Y19.1624 
G01 X2.9834 Y18.9884 
G01 X3.0106 Y18.8164 
G01 X3.0644 Y18.6508 
G01 X3.1435 Y18.4957 
G01 X3.2458 Y18.3549 
G01 X3.3689 Y18.2318 
G01 X3.5097 Y18.1295 
G01 X3.6648 Y18.0504 
G01 X3.8304 Y17.9966 
G01 X4.0024 Y17.9694 
G00 Z2.5400 
G00 X2.0966 Y68.4986 
G01 Z-0.1500 F254.00 
G01 X2.0966 Y68.6614 F508.00 
G01 X2.0648 Y68.8211 
G01 X2.0025 Y68.9715 
G01 X1.9121 Y69.1069 
G01 X1.7969 Y69.2221 
G01 X1.6615 Y69.3125 
G01 X1.5111 Y69.3748 
G01 X1.3514 Y69.4066 
G01 X1.1886 Y69.4066 
G01 X1.0289 Y69.3748 
G01 X0.8785 Y69.3125 
G01 X0.7431 Y69.2221 
G01 X0.6279 Y69.1069 
G01 X0.5375 Y68.9715 
G01 X0.4752 Y68.8211 
G01 X0.4434 Y68.6614 
G01 X0.4434 Y68.4986 
G01 X0.4752 Y68.3389 
G01 X0.5375 Y68.1885 
G01 X0.6279 Y68.0531 
G01 X0.7431 Y67.9379 
G01 X0.8785 Y67.8475 
G01 X1.0289 Y67.7852 
G01 X1.1886 Y67.7534 
G01 X1.3514 Y67.7534 
G01 X1.5111 Y67.7852 
G01 X1.6615 Y67.8475 
G01 X1.7969 Y67.9379 
G01 X1.9121 Y68.0531 
G01 X2.0025 Y68.1885 
G01 X2.0648 Y68.3389 
G01 X2.0966 Y68.4986 
G00 Z2.5400 
G00 X40.1966 Y68.4986 
G01 Z-0.1500 F254.00 
G01 X40.1966 Y68.6614 F508.00 
G01 X40.1648 Y68.8211 
G01 X40.1025 Y68.9715 
G01 X40.0121 Y69.1069 
G01 X39.8969 Y69.2221 
G01 X39.7615 Y69.3125 
G01 X39.6111 Y69.3748 
G01 X39.4514 Y69.4066 
G01 X39.2886 Y69.4066 
G01 X39.1289 Y69.3748 
G01 X38.9785 Y69.3125 
G01 X38.8431 Y69.2221 
G01 X38.7279 Y69.1069 
G01 X38.6375 Y68.9715 
G01 X38.5752 Y68.8211 
G01 X38.5434 Y68.6614 
G01 X38.5434 Y68.4986 
G01 X38.5752 Y68.3389 
G01 X38.6375 Y68.1885 
G01 X38.7279 Y68.0531 
G01 X38.8431 Y67.9379 
G01 X38.9785 Y67.8475 
G01 X39.1289 Y67.7852 
G01 X39.2886 Y67.7534 
G01 X39.4514 Y67.7534 
G01 X39.6111 Y67.7852 
G01 X39.7615 Y67.8475 
G01 X39.8969 Y67.9379 
G01 X40.0121 Y68.0531 
G01 X40.1025 Y68.1885 
G01 X40.1648 Y68.3389 
G01 X40.1966 Y68.4986 
G00 Z2.5400 
G00 X40.1966 Y8.8086 
G01 Z-0.1500 F254.00 
G01 X40.1966 Y8.9714 F508.00 
G01 X40.1648 Y9.1311 
G01 X40.1025 Y9.2815 
G01 X40.0121 Y9.4169 
G01 X39.8969 Y9.5321 
G01 X39.7615 Y9.6225 
G01 X39.6111 Y9.6848 
G01 X39.4514 Y9.7166 
G01 X39.2886 Y9.7166 
G01 X39.1289 Y9.6848 
G01 X38.9785 Y9.6225 
G01 X38.8431 Y9.5321 
G01 X38.7279 Y9.4169 
G01 X38.6375 Y9.2815 
G01 X38.5752 Y9.1311 
G01 X38.5434 Y8.9714 
G01 X38.5434 Y8.8086 
G01 X38.5752 Y8.6489 
G01 X38.6375 Y8.4985 
G01 X38.7279 Y8.3631 
G01 X38.8431 Y8.2479 
G01 X38.9785 Y8.1575 
G01 X39.1289 Y8.0952 
G01 X39.2886 Y8.0634 
G01 X39.4514 Y8.0634 
G01 X39.6111 Y8.0952 
G01 X39.7615 Y8.1575 
G01 X39.8969 Y8.2479 
G01 X40.0121 Y8.3631 
G01 X40.1025 Y8.4985 
G01 X40.1648 Y8.6489 
G01 X40.1966 Y8.8086 
G00 Z2.5400 
G00 X2.0966 Y8.8086 
G01 Z-0.1500 F254.00 
G01 X2.0966 Y8.9714 F508.00 
G01 X2.0648 Y9.1311 
G01 X2.0025 Y9.2815 
G01 X1.9121 Y9.4169 
G01 X1.7969 Y9.5321 
G01 X1.6615 Y9.6225 
G01 X1.5111 Y9.6848 
G01 X1.3514 Y9.7166 
G01 X1.1886 Y9.7166 
G01 X1.0289 Y9.6848 
G01 X0.8785 Y9.6225 
G01 X0.7431 Y9.5321 
G01 X0.6279 Y9.4169 
G01 X0.5375 Y9.2815 
G01 X0.4752 Y9.1311 
G01 X0.4434 Y8.9714 
G01 X0.4434 Y8.8086 
G01 X0.4752 Y8.6489 
G01 X0.5375 Y8.4985 
G01 X0.6279 Y8.3631 
G01 X0.7431 Y8.2479 
G01 X0.8785 Y8.1575 
G01 X1.0289 Y8.0952 
G01 X1.1886 Y8.0634 
G01 X1.3514 Y8.0634 
G01 X1.5111 Y8.0952 
G01 X1.6615 Y8.1575 
G01 X1.7969 Y8.2479 
G01 X1.9121 Y8.3631 
G01 X2.0025 Y8.4985 
G01 X2.0648 Y8.6489 
G01 X2.0966 Y8.8086 
G00 Z2.5400 
G00 X37.7328 Y9.4107 
G01 Z-0.1500 F254.00 
G01 X37.7328 Y10.9093 F508.00 
G01 X37.6981 Y11.0837 
G01 X37.6300 Y11.2480 
G01 X37.5312 Y11.3959 
G01 X37.4055 Y11.5216 
G01 X37.2576 Y11.6204 
G01 X37.0933 Y11.6885 
G01 X36.9189 Y11.7232 
G01 X36.7411 Y11.7232 
G01 X36.5667 Y11.6885 
G01 X36.4024 Y11.6204 
G01 X36.2545 Y11.5216 
G01 X36.1288 Y11.3959 
G01 X36.0299 Y11.2480 
G01 X35.9619 Y11.0837 
G01 X35.9272 Y10.9093 
G01 X35.9272 Y9.4107 
G01 X35.9619 Y9.2363 
G01 X36.0299 Y9.0720 
G01 X36.1288 Y8.9241 
G01 X36.2545 Y8.7984 
G01 X36.4024 Y8.6996 
G01 X36.5667 Y8.6315 
G01 X36.7411 Y8.5968 
G01 X36.9189 Y8.5968 
G01 X37.0933 Y8.6315 
G01 X37.2576 Y8.6996 
G01 X37.4055 Y8.7984 
G01 X37.5312 Y8.9241 
G01 X37.6300 Y9.0720 
G01 X37.6981 Y9.2363 
G01 X37.7328 Y9.4107 
G00 Z2.5400 
G00 X11.0628 Y65.2907 
G01 Z-0.1500 F254.00 
G01 X11.0628 Y66.7893 F508.00 
G01 X11.0281 Y66.9637 
G01 X10.9600 Y67.1280 
G01 X10.8612 Y67.2759 
G01 X10.7355 Y67.4016 
G01 X10.5876 Y67.5004 
G01 X10.4233 Y67.5685 
G01 X10.2489 Y67.6032 
G01 X10.0711 Y67.6032 
G01 X9.8967 Y67.5685 
G01 X9.7324 Y67.5004 
G01 X9.5845 Y67.4016 
G01 X9.4588 Y67.2759 
G01 X9.3600 Y67.1280 
G01 X9.2919 Y66.9637 
G01 X9.2572 Y66.7893 
G01 X9.2572 Y65.2907 
G01 X9.2919 Y65.1163 
G01 X9.3600 Y64.9520 
G01 X9.4588 Y64.8041 
G01 X9.5845 Y64.6784 
G01 X9.7324 Y64.5795 
G01 X9.8967 Y64.5115 
G01 X10.0711 Y64.4768 
G01 X10.2489 Y64.4768 
G01 X10.4233 Y64.5115 
G01 X10.5876 Y64.5795 
G01 X10.7355 Y64.6784 
G01 X10.8612 Y64.8041 
G01 X10.9600 Y64.9520 
G01 X11.0281 Y65.1163 
G01 X11.0628 Y65.2907 
G00 Z2.5400 
G00 X13.6028 Y65.2907 
G01 Z-0.1500 F254.00 
G01 X13.6028 Y66.7893 F508.00 
G01 X13.5681 Y66.9637 
G01 X13.5000 Y67.1280 
G01 X13.4012 Y67.2759 
G01 X13.2755 Y67.4016 
G01 X13.1276 Y67.5004 
G01 X12.9633 Y67.5685 
G01 X12.7889 Y67.6032 
G01 X12.6111 Y67.6032 
G01 X12.4367 Y67.5685 
G01 X12.2724 Y67.5004 
G01 X12.1245 Y67.4016 
G01 X11.9988 Y67.2759 
G01 X11.9000 Y67.1280 
G01 X11.8319 Y66.9637 
G01 X11.7972 Y66.7893 
G01 X11.7972 Y65.2907 
G01 X11.8319 Y65.1163 
G01 X11.9000 Y64.9520 
G01 X11.9988 Y64.8041 
G01 X12.1245 Y64.6784 
G01 X12.2724 Y64.5795 
G01 X12.4367 Y64.5115 
G01 X12.6111 Y64.4768 
G01 X12.7889 Y64.4768 
G01 X12.9633 Y64.5115 
G01 X13.1276 Y64.5795 
G01 X13.2755 Y64.6784 
G01 X13.4012 Y64.8041 
G01 X13.5000 Y64.9520 
G01 X13.5681 Y65.1163 
G01 X13.6028 Y65.2907 
G00 Z2.5400 
G00 X16.1428 Y65.2907 
G01 Z-0.1500 F254.00 
G01 X16.1428 Y66.7893 F508.00 
G01 X16.1081 Y66.9637 
G01 X16.0400 Y67.1280 
G01 X15.9412 Y67.2759 
G01 X15.8155 Y67.4016 
G01 X15.6676 Y67.5004 
G01 X15.5033 Y67.5685 
G01 X15.3289 Y67.6032 
G01 X15.1511 Y67.6032 
G01 X14.9767 Y67.5685 
G01 X14.8124 Y67.5004 
G01 X14.6645 Y67.4016 
G01 X14.5388 Y67.2759 
G01 X14.4400 Y67.1280 
G01 X14.3719 Y66.9637 
G01 X14.3372 Y66.7893 
G01 X14.3372 Y65.2907 
G01 X14.3719 Y65.1163 
G01 X14.4400 Y64.9520 
G01 X14.5388 Y64.8041 
G01 X14.6645 Y64.6784 
G01 X14.8124 Y64.5795 
G01 X14.9767 Y64.5115 
G01 X15.1511 Y64.4768 
G01 X15.3289 Y64.4768 
G01 X15.5033 Y64.5115 
G01 X15.6676 Y64.5795 
G01 X15.8155 Y64.6784 
G01 X15.9412 Y64.8041 
G01 X16.0400 Y64.9520 
G01 X16.1081 Y65.1163 
G01 X16.1428 Y65.2907 
G00 Z2.5400 
G00 X18.6828 Y65.2907 
G01 Z-0.1500 F254.00 
G01 X18.6828 Y66.7893 F508.00 
G01 X18.6481 Y66.9637 
G01 X18.5800 Y67.1280 
G01 X18.4812 Y67.2759 
G01 X18.3555 Y67.4016 
G01 X18.2076 Y67.5004 
G01 X18.0433 Y67.5685 
G01 X17.8689 Y67.6032 
G01 X17.6911 Y67.6032 
G01 X17.5167 Y67.5685 
G01 X17.3524 Y67.5004 
G01 X17.2045 Y67.4016 
G01 X17.0787 Y67.2759 
G01 X16.9800 Y67.1280 
G01 X16.9119 Y66.9637 
G01 X16.8772 Y66.7893 
G01 X16.8772 Y65.2907 
G01 X16.9119 Y65.1163 
G01 X16.9800 Y64.9520 
G01 X17.0787 Y64.8041 
G01 X17.2045 Y64.6784 
G01 X17.3524 Y64.5795 
G01 X17.5167 Y64.5115 
G01 X17.6911 Y64.4768 
G01 X17.8689 Y64.4768 
G01 X18.0433 Y64.5115 
G01 X18.2076 Y64.5795 
G01 X18.3555 Y64.6784 
G01 X18.4812 Y64.8041 
G01 X18.5800 Y64.9520 
G01 X18.6481 Y65.1163 
G01 X18.6828 Y65.2907 
G00 Z2.5400 
G00 X21.2228 Y65.2907 
G01 Z-0.1500 F254.00 
G01 X21.2228 Y66.7893 F508.00 
G01 X21.1881 Y66.9637 
G01 X21.1200 Y67.1280 
G01 X21.0212 Y67.2759 
G01 X20.8955 Y67.4016 
G01 X20.7476 Y67.5004 
G01 X20.5833 Y67.5685 
G01 X20.4089 Y67.6032 
G01 X20.2311 Y67.6032 
G01 X20.0567 Y67.5685 
G01 X19.8924 Y67.5004 
G01 X19.7445 Y67.4016 
G01 X19.6188 Y67.2759 
G01 X19.5200 Y67.1280 
G01 X19.4519 Y66.9637 
G01 X19.4172 Y66.7893 
G01 X19.4172 Y65.2907 
G01 X19.4519 Y65.1163 
G01 X19.5200 Y64.9520 
G01 X19.6188 Y64.8041 
G01 X19.7445 Y64.6784 
G01 X19.8924 Y64.5795 
G01 X20.0567 Y64.5115 
G01 X20.2311 Y64.4768 
G01 X20.4089 Y64.4768 
G01 X20.5833 Y64.5115 
G01 X20.7476 Y64.5795 
G01 X20.8955 Y64.6784 
G01 X21.0212 Y64.8041 
G01 X21.1200 Y64.9520 
G01 X21.1881 Y65.1163 
G01 X21.2228 Y65.2907 
G00 Z2.5400 
G00 X35.0393 Y28.8428 
G01 Z-0.1500 F254.00 
G01 X33.5407 Y28.8428 F508.00 
G01 X33.3663 Y28.8081 
G01 X33.2020 Y28.7400 
G01 X33.0541 Y28.6412 
G01 X32.9284 Y28.5155 
G01 X32.8296 Y28.3676 
G01 X32.7615 Y28.2033 
G01 X32.7268 Y28.0289 
G01 X32.7268 Y27.8511 
G01 X32.7615 Y27.6767 
G01 X32.8296 Y27.5124 
G01 X32.9284 Y27.3645 
G01 X33.0541 Y27.2387 
G01 X33.2020 Y27.1400 
G01 X33.3663 Y27.0719 
G01 X33.5407 Y27.0372 
G01 X35.0393 Y27.0372 
G01 X35.2137 Y27.0719 
G01 X35.3780 Y27.1400 
G01 X35.5259 Y27.2387 
G01 X35.6516 Y27.3645 
G01 X35.7504 Y27.5124 
G01 X35.8185 Y27.6767 
G01 X35.8532 Y27.8511 
G01 X35.8532 Y28.0289 
G01 X35.8185 Y28.2033 
G01 X35.7504 Y28.3676 
G01 X35.6516 Y28.5155 
G01 X35.5259 Y28.6412 
G01 X35.3780 Y28.7400 
G01 X35.2137 Y28.8081 
G01 X35.0393 Y28.8428 
G00 Z2.5400 
G00 X35.0393 Y31.3828 
G01 Z-0.1500 F254.00 
G01 X33.5407 Y31.3828 F508.00 
G01 X33.3663 Y31.3481 
G01 X33.2020 Y31.2800 
G01 X33.0541 Y31.1812 
G01 X32.9284 Y31.0555 
G01 X32.8296 Y30.9076 
G01 X32.7615 Y30.7433 
G01 X32.7268 Y30.5689 
G01 X32.7268 Y30.3911 
G01 X32.7615 Y30.2167 
G01 X32.8296 Y30.0524 
G01 X32.9284 Y29.9045 
G01 X33.0541 Y29.7788 
G01 X33.2020 Y29.6800 
G01 X33.3663 Y29.6119 
G01 X33.5407 Y29.5772 
G01 X35.0393 Y29.5772 
G01 X35.2137 Y29.6119 
G01 X35.3780 Y29.6800 
G01 X35.5259 Y29.7788 
G01 X35.6516 Y29.9045 
G01 X35.7504 Y30.0524 
G01 X35.8185 Y30.2167 
G01 X35.8532 Y30.3911 
G01 X35.8532 Y30.5689 
G01 X35.8185 Y30.7433 
G01 X35.7504 Y30.9076 
G01 X35.6516 Y31.0555 
G01 X35.5259 Y31.1812 
G01 X35.3780 Y31.2800 
G01 X35.2137 Y31.3481 
G01 X35.0393 Y31.3828 
G00 Z2.5400 
G00 X35.0393 Y33.9228 
G01 Z-0.1500 F254.00 
G01 X33.5407 Y33.9228 F508.00 
G01 X33.3663 Y33.8881 
G01 X33.2020 Y33.8200 
G01 X33.0541 Y33.7212 
G01 X32.9284 Y33.5955 
G01 X32.8296 Y33.4476 
G01 X32.7615 Y33.2833 
G01 X32.7268 Y33.1089 
G01 X32.7268 Y32.9311 
G01 X32.7615 Y32.7567 
G01 X32.8296 Y32.5924 
G01 X32.9284 Y32.4445 
G01 X33.0541 Y32.3188 
G01 X33.2020 Y32.2200 
G01 X33.3663 Y32.1519 
G01 X33.5407 Y32.1172 
G01 X35.0393 Y32.1172 
G01 X35.2137 Y32.1519 
G01 X35.3780 Y32.2200 
G01 X35.5259 Y32.3188 
G01 X35.6516 Y32.4445 
G01 X35.7504 Y32.5924 
G01 X35.8185 Y32.7567 
G01 X35.8532 Y32.9311 
G01 X35.8532 Y33.1089 
G01 X35.8185 Y33.2833 
G01 X35.7504 Y33.4476 
G01 X35.6516 Y33.5955 
G01 X35.5259 Y33.7212 
G01 X35.3780 Y33.8200 
G01 X35.2137 Y33.8881 
G01 X35.0393 Y33.9228 
G00 Z2.5400 
G00 X35.0393 Y36.4628 
G01 Z-0.1500 F254.00 
G01 X33.5407 Y36.4628 F508.00 
G01 X33.3663 Y36.4281 
G01 X33.2020 Y36.3600 
G01 X33.0541 Y36.2612 
G01 X32.9284 Y36.1355 
G01 X32.8296 Y35.9876 
G01 X32.7615 Y35.8233 
G01 X32.7268 Y35.6489 
G01 X32.7268 Y35.4711 
G01 X32.7615 Y35.2967 
G01 X32.8296 Y35.1324 
G01 X32.9284 Y34.9845 
G01 X33.0541 Y34.8588 
G01 X33.2020 Y34.7600 
G01 X33.3663 Y34.6919 
G01 X33.5407 Y34.6572 
G01 X35.0393 Y34.6572 
G01 X35.2137 Y34.6919 
G01 X35.3780 Y34.7600 
G01 X35.5259 Y34.8588 
G01 X35.6516 Y34.9845 
G01 X35.7504 Y35.1324 
G01 X35.8185 Y35.2967 
G01 X35.8532 Y35.4711 
G01 X35.8532 Y35.6489 
G01 X35.8185 Y35.8233 
G01 X35.7504 Y35.9876 
G01 X35.6516 Y36.1355 
G01 X35.5259 Y36.2612 
G01 X35.3780 Y36.3600 
G01 X35.2137 Y36.4281 
G01 X35.0393 Y36.4628 
G00 Z2.5400 
G00 X35.0393 Y39.0028 
G01 Z-0.1500 F254.00 
G01 X33.5407 Y39.0028 F508.00 
G01 X33.3663 Y38.9681 
G01 X33.2020 Y38.9000 
G01 X33.0541 Y38.8012 
G01 X32.9284 Y38.6755 
G01 X32.8296 Y38.5276 
G01 X32.7615 Y38.3633 
G01 X32.7268 Y38.1889 
G01 X32.7268 Y38.0111 
G01 X32.7615 Y37.8367 
G01 X32.8296 Y37.6724 
G01 X32.9284 Y37.5245 
G01 X33.0541 Y37.3987 
G01 X33.2020 Y37.3000 
G01 X33.3663 Y37.2319 
G01 X33.5407 Y37.1972 
G01 X35.0393 Y37.1972 
G01 X35.2137 Y37.2319 
G01 X35.3780 Y37.3000 
G01 X35.5259 Y37.3987 
G01 X35.6516 Y37.5245 
G01 X35.7504 Y37.6724 
G01 X35.8185 Y37.8367 
G01 X35.8532 Y38.0111 
G01 X35.8532 Y38.1889 
G01 X35.8185 Y38.3633 
G01 X35.7504 Y38.5276 
G01 X35.6516 Y38.6755 
G01 X35.5259 Y38.8012 
G01 X35.3780 Y38.9000 
G01 X35.2137 Y38.9681 
G01 X35.0393 Y39.0028 
G00 Z2.5400 
G00 X35.0393 Y41.5428 
G01 Z-0.1500 F254.00 
G01 X33.5407 Y41.5428 F508.00 
G01 X33.3663 Y41.5081 
G01 X33.2020 Y41.4400 
G01 X33.0541 Y41.3412 
G01 X32.9284 Y41.2155 
G01 X32.8296 Y41.0676 
G01 X32.7615 Y40.9033 
G01 X32.7268 Y40.7289 
G01 X32.7268 Y40.5511 
G01 X32.7615 Y40.3767 
G01 X32.8296 Y40.2124 
G01 X32.9284 Y40.0645 
G01 X33.0541 Y39.9387 
G01 X33.2020 Y39.8400 
G01 X33.3663 Y39.7719 
G01 X33.5407 Y39.7372 
G01 X35.0393 Y39.7372 
G01 X35.2137 Y39.7719 
G01 X35.3780 Y39.8400 
G01 X35.5259 Y39.9387 
G01 X35.6516 Y40.0645 
G01 X35.7504 Y40.2124 
G01 X35.8185 Y40.3767 
G01 X35.8532 Y40.5511 
G01 X35.8532 Y40.7289 
G01 X35.8185 Y40.9033 
G01 X35.7504 Y41.0676 
G01 X35.6516 Y41.2155 
G01 X35.5259 Y41.3412 
G01 X35.3780 Y41.4400 
G01 X35.2137 Y41.5081 
G01 X35.0393 Y41.5428 
G00 Z2.5400 
G00 X33.5407 Y60.0572 
G01 Z-0.1500 F254.00 
G01 X35.0393 Y60.0572 F508.00 
G01 X35.2137 Y60.0919 
G01 X35.3780 Y60.1600 
G01 X35.5259 Y60.2588 
G01 X35.6516 Y60.3845 
G01 X35.7504 Y60.5324 
G01 X35.8185 Y60.6967 
G01 X35.8532 Y60.8711 
G01 X35.8532 Y61.0489 
G01 X35.8185 Y61.2233 
G01 X35.7504 Y61.3876 
G01 X35.6516 Y61.5355 
G01 X35.5259 Y61.6612 
G01 X35.3780 Y61.7600 
G01 X35.2137 Y61.8281 
G01 X35.0393 Y61.8628 
G01 X33.5407 Y61.8628 
G01 X33.3663 Y61.8281 
G01 X33.2020 Y61.7600 
G01 X33.0541 Y61.6612 
G01 X32.9284 Y61.5355 
G01 X32.8296 Y61.3876 
G01 X32.7615 Y61.2233 
G01 X32.7268 Y61.0489 
G01 X32.7268 Y60.8711 
G01 X32.7615 Y60.6967 
G01 X32.8296 Y60.5324 
G01 X32.9284 Y60.3845 
G01 X33.0541 Y60.2588 
G01 X33.2020 Y60.1600 
G01 X33.3663 Y60.0919 
G01 X33.5407 Y60.0572 
G00 Z2.5400 
G00 X33.5407 Y57.5172 
G01 Z-0.1500 F254.00 
G01 X35.0393 Y57.5172 F508.00 
G01 X35.2137 Y57.5519 
G01 X35.3780 Y57.6200 
G01 X35.5259 Y57.7188 
G01 X35.6516 Y57.8445 
G01 X35.7504 Y57.9924 
G01 X35.8185 Y58.1567 
G01 X35.8532 Y58.3311 
G01 X35.8532 Y58.5089 
G01 X35.8185 Y58.6833 
G01 X35.7504 Y58.8476 
G01 X35.6516 Y58.9955 
G01 X35.5259 Y59.1212 
G01 X35.3780 Y59.2200 
G01 X35.2137 Y59.2881 
G01 X35.0393 Y59.3228 
G01 X33.5407 Y59.3228 
G01 X33.3663 Y59.2881 
G01 X33.2020 Y59.2200 
G01 X33.0541 Y59.1212 
G01 X32.9284 Y58.9955 
G01 X32.8296 Y58.8476 
G01 X32.7615 Y58.6833 
G01 X32.7268 Y58.5089 
G01 X32.7268 Y58.3311 
G01 X32.7615 Y58.1567 
G01 X32.8296 Y57.9924 
G01 X32.9284 Y57.8445 
G01 X33.0541 Y57.7188 
G01 X33.2020 Y57.6200 
G01 X33.3663 Y57.5519 
G01 X33.5407 Y57.5172 
G00 Z2.5400 
G00 X33.5407 Y54.9772 
G01 Z-0.1500 F254.00 
G01 X35.0393 Y54.9772 F508.00 
G01 X35.2137 Y55.0119 
G01 X35.3780 Y55.0800 
G01 X35.5259 Y55.1788 
G01 X35.6516 Y55.3045 
G01 X35.7504 Y55.4524 
G01 X35.8185 Y55.6167 
G01 X35.8532 Y55.7911 
G01 X35.8532 Y55.9689 
G01 X35.8185 Y56.1433 
G01 X35.7504 Y56.3076 
G01 X35.6516 Y56.4555 
G01 X35.5259 Y56.5812 
G01 X35.3780 Y56.6800 
G01 X35.2137 Y56.7481 
G01 X35.0393 Y56.7828 
G01 X33.5407 Y56.7828 
G01 X33.3663 Y56.7481 
G01 X33.2020 Y56.6800 
G01 X33.0541 Y56.5812 
G01 X32.9284 Y56.4555 
G01 X32.8296 Y56.3076 
G01 X32.7615 Y56.1433 
G01 X32.7268 Y55.9689 
G01 X32.7268 Y55.7911 
G01 X32.7615 Y55.6167 
G01 X32.8296 Y55.4524 
G01 X32.9284 Y55.3045 
G01 X33.0541 Y55.1788 
G01 X33.2020 Y55.0800 
G01 X33.3663 Y55.0119 
G01 X33.5407 Y54.9772 
G00 Z2.5400 
G00 X33.5407 Y52.4372 
G01 Z-0.1500 F254.00 
G01 X35.0393 Y52.4372 F508.00 
G01 X35.2137 Y52.4719 
G01 X35.3780 Y52.5400 
G01 X35.5259 Y52.6388 
G01 X35.6516 Y52.7645 
G01 X35.7504 Y52.9124 
G01 X35.8185 Y53.0767 
G01 X35.8532 Y53.2511 
G01 X35.8532 Y53.4289 
G01 X35.8185 Y53.6033 
G01 X35.7504 Y53.7676 
G01 X35.6516 Y53.9155 
G01 X35.5259 Y54.0412 
G01 X35.3780 Y54.1400 
G01 X35.2137 Y54.2081 
G01 X35.0393 Y54.2428 
G01 X33.5407 Y54.2428 
G01 X33.3663 Y54.2081 
G01 X33.2020 Y54.1400 
G01 X33.0541 Y54.0412 
G01 X32.9284 Y53.9155 
G01 X32.8296 Y53.7676 
G01 X32.7615 Y53.6033 
G01 X32.7268 Y53.4289 
G01 X32.7268 Y53.2511 
G01 X32.7615 Y53.0767 
G01 X32.8296 Y52.9124 
G01 X32.9284 Y52.7645 
G01 X33.0541 Y52.6388 
G01 X33.2020 Y52.5400 
G01 X33.3663 Y52.4719 
G01 X33.5407 Y52.4372 
G00 Z2.5400 
G00 X33.5407 Y49.8972 
G01 Z-0.1500 F254.00 
G01 X35.0393 Y49.8972 F508.00 
G01 X35.2137 Y49.9319 
G01 X35.3780 Y50.0000 
G01 X35.5259 Y50.0988 
G01 X35.6516 Y50.2245 
G01 X35.7504 Y50.3724 
G01 X35.8185 Y50.5367 
G01 X35.8532 Y50.7111 
G01 X35.8532 Y50.8889 
G01 X35.8185 Y51.0633 
G01 X35.7504 Y51.2276 
G01 X35.6516 Y51.3755 
G01 X35.5259 Y51.5012 
G01 X35.3780 Y51.6000 
G01 X35.2137 Y51.6681 
G01 X35.0393 Y51.7028 
G01 X33.5407 Y51.7028 
G01 X33.3663 Y51.6681 
G01 X33.2020 Y51.6000 
G01 X33.0541 Y51.5012 
G01 X32.9284 Y51.3755 
G01 X32.8296 Y51.2276 
G01 X32.7615 Y51.0633 
G01 X32.7268 Y50.8889 
G01 X32.7268 Y50.7111 
G01 X32.7615 Y50.5367 
G01 X32.8296 Y50.3724 
G01 X32.9284 Y50.2245 
G01 X33.0541 Y50.0988 
G01 X33.2020 Y50.0000 
G01 X33.3663 Y49.9319 
G01 X33.5407 Y49.8972 
G00 Z2.5400 
G00 X33.5407 Y47.3572 
G01 Z-0.1500 F254.00 
G01 X35.0393 Y47.3572 F508.00 
G01 X35.2137 Y47.3919 
G01 X35.3780 Y47.4599 
G01 X35.5259 Y47.5588 
G01 X35.6516 Y47.6845 
G01 X35.7504 Y47.8324 
G01 X35.8185 Y47.9967 
G01 X35.8532 Y48.1711 
G01 X35.8532 Y48.3489 
G01 X35.8185 Y48.5233 
G01 X35.7504 Y48.6876 
G01 X35.6516 Y48.8355 
G01 X35.5259 Y48.9612 
G01 X35.3780 Y49.0600 
G01 X35.2137 Y49.1281 
G01 X35.0393 Y49.1628 
G01 X33.5407 Y49.1628 
G01 X33.3663 Y49.1281 
G01 X33.2020 Y49.0600 
G01 X33.0541 Y48.9612 
G01 X32.9284 Y48.8355 
G01 X32.8296 Y48.6876 
G01 X32.7615 Y48.5233 
G01 X32.7268 Y48.3489 
G01 X32.7268 Y48.1711 
G01 X32.7615 Y47.9967 
G01 X32.8296 Y47.8324 
G01 X32.9284 Y47.6845 
G01 X33.0541 Y47.5588 
G01 X33.2020 Y47.4599 
G01 X33.3663 Y47.3919 
G01 X33.5407 Y47.3572 
G00 Z2.5400 
G00 X30.2906 Y60.8750 
G01 Z-0.1500 F254.00 
G01 X30.2906 Y61.0450 F508.00 
G01 X30.2640 Y61.2130 
G01 X30.2114 Y61.3748 
G01 X30.1342 Y61.5264 
G01 X30.0342 Y61.6640 
G01 X29.9140 Y61.7842 
G01 X29.7764 Y61.8842 
G01 X29.6248 Y61.9614 
G01 X29.4630 Y62.0140 
G01 X29.2950 Y62.0406 
G01 X29.1250 Y62.0406 
G01 X28.9570 Y62.0140 
G01 X28.7952 Y61.9614 
G01 X28.6436 Y61.8842 
G01 X28.5060 Y61.7842 
G01 X28.3858 Y61.6640 
G01 X28.2858 Y61.5264 
G01 X28.2086 Y61.3748 
G01 X28.1560 Y61.2130 
G01 X28.1294 Y61.0450 
G01 X28.1294 Y60.8750 
G01 X28.1560 Y60.7070 
G01 X28.2086 Y60.5452 
G01 X28.2858 Y60.3936 
G01 X28.3858 Y60.2560 
G01 X28.5060 Y60.1358 
G01 X28.6436 Y60.0358 
G01 X28.7952 Y59.9586 
G01 X28.9570 Y59.9060 
G01 X29.1250 Y59.8794 
G01 X29.2950 Y59.8794 
G01 X29.4630 Y59.9060 
G01 X29.6248 Y59.9586 
G01 X29.7764 Y60.0358 
G01 X29.9140 Y60.1358 
G01 X30.0342 Y60.2560 
G01 X30.1342 Y60.3936 
G01 X30.2114 Y60.5452 
G01 X30.2640 Y60.7070 
G01 X30.2906 Y60.8750 
G00 Z2.5400 
G00 X30.2906 Y58.3350 
G01 Z-0.1500 F254.00 
G01 X30.2906 Y58.5050 F508.00 
G01 X30.2640 Y58.6730 
G01 X30.2114 Y58.8348 
G01 X30.1342 Y58.9864 
G01 X30.0342 Y59.1240 
G01 X29.9140 Y59.2442 
G01 X29.7764 Y59.3442 
G01 X29.6248 Y59.4214 
G01 X29.4630 Y59.4740 
G01 X29.2950 Y59.5006 
G01 X29.1250 Y59.5006 
G01 X28.9570 Y59.4740 
G01 X28.7952 Y59.4214 
G01 X28.6436 Y59.3442 
G01 X28.5060 Y59.2442 
G01 X28.3858 Y59.1240 
G01 X28.2858 Y58.9864 
G01 X28.2086 Y58.8348 
G01 X28.1560 Y58.6730 
G01 X28.1294 Y58.5050 
G01 X28.1294 Y58.3350 
G01 X28.1560 Y58.1670 
G01 X28.2086 Y58.0052 
G01 X28.2858 Y57.8536 
G01 X28.3858 Y57.7160 
G01 X28.5060 Y57.5958 
G01 X28.6436 Y57.4958 
G01 X28.7952 Y57.4186 
G01 X28.9570 Y57.3660 
G01 X29.1250 Y57.3394 
G01 X29.2950 Y57.3394 
G01 X29.4630 Y57.3660 
G01 X29.6248 Y57.4186 
G01 X29.7764 Y57.4958 
G01 X29.9140 Y57.5958 
G01 X30.0342 Y57.7160 
G01 X30.1342 Y57.8536 
G01 X30.2114 Y58.0052 
G01 X30.2640 Y58.1670 
G01 X30.2906 Y58.3350 
G00 Z2.5400 
G00 X30.2906 Y55.7950 
G01 Z-0.1500 F254.00 
G01 X30.2906 Y55.9650 F508.00 
G01 X30.2640 Y56.1330 
G01 X30.2114 Y56.2948 
G01 X30.1342 Y56.4464 
G01 X30.0342 Y56.5840 
G01 X29.9140 Y56.7042 
G01 X29.7764 Y56.8042 
G01 X29.6248 Y56.8814 
G01 X29.4630 Y56.9340 
G01 X29.2950 Y56.9606 
G01 X29.1250 Y56.9606 
G01 X28.9570 Y56.9340 
G01 X28.7952 Y56.8814 
G01 X28.6436 Y56.8042 
G01 X28.5060 Y56.7042 
G01 X28.3858 Y56.5840 
G01 X28.2858 Y56.4464 
G01 X28.2086 Y56.2948 
G01 X28.1560 Y56.1330 
G01 X28.1294 Y55.9650 
G01 X28.1294 Y55.7950 
G01 X28.1560 Y55.6270 
G01 X28.2086 Y55.4652 
G01 X28.2858 Y55.3136 
G01 X28.3858 Y55.1760 
G01 X28.5060 Y55.0558 
G01 X28.6436 Y54.9558 
G01 X28.7952 Y54.8786 
G01 X28.9570 Y54.8260 
G01 X29.1250 Y54.7994 
G01 X29.2950 Y54.7994 
G01 X29.4630 Y54.8260 
G01 X29.6248 Y54.8786 
G01 X29.7764 Y54.9558 
G01 X29.9140 Y55.0558 
G01 X30.0342 Y55.1760 
G01 X30.1342 Y55.3136 
G01 X30.2114 Y55.4652 
G01 X30.2640 Y55.6270 
G01 X30.2906 Y55.7950 
G00 Z2.5400 
G00 X30.2906 Y53.2550 
G01 Z-0.1500 F254.00 
G01 X30.2906 Y53.4250 F508.00 
G01 X30.2640 Y53.5930 
G01 X30.2114 Y53.7548 
G01 X30.1342 Y53.9064 
G01 X30.0342 Y54.0440 
G01 X29.9140 Y54.1642 
G01 X29.7764 Y54.2642 
G01 X29.6248 Y54.3414 
G01 X29.4630 Y54.3940 
G01 X29.2950 Y54.4206 
G01 X29.1250 Y54.4206 
G01 X28.9570 Y54.3940 
G01 X28.7952 Y54.3414 
G01 X28.6436 Y54.2642 
G01 X28.5060 Y54.1642 
G01 X28.3858 Y54.0440 
G01 X28.2858 Y53.9064 
G01 X28.2086 Y53.7548 
G01 X28.1560 Y53.5930 
G01 X28.1294 Y53.4250 
G01 X28.1294 Y53.2550 
G01 X28.1560 Y53.0870 
G01 X28.2086 Y52.9252 
G01 X28.2858 Y52.7736 
G01 X28.3858 Y52.6360 
G01 X28.5060 Y52.5158 
G01 X28.6436 Y52.4158 
G01 X28.7952 Y52.3386 
G01 X28.9570 Y52.2860 
G01 X29.1250 Y52.2594 
G01 X29.2950 Y52.2594 
G01 X29.4630 Y52.2860 
G01 X29.6248 Y52.3386 
G01 X29.7764 Y52.4158 
G01 X29.9140 Y52.5158 
G01 X30.0342 Y52.6360 
G01 X30.1342 Y52.7736 
G01 X30.2114 Y52.9252 
G01 X30.2640 Y53.0870 
G01 X30.2906 Y53.2550 
G00 Z2.5400 
G00 X30.2906 Y50.7150 
G01 Z-0.1500 F254.00 
G01 X30.2906 Y50.8850 F508.00 
G01 X30.2640 Y51.0530 
G01 X30.2114 Y51.2148 
G01 X30.1342 Y51.3664 
G01 X30.0342 Y51.5040 
G01 X29.9140 Y51.6242 
G01 X29.7764 Y51.7242 
G01 X29.6248 Y51.8014 
G01 X29.4630 Y51.8540 
G01 X29.2950 Y51.8806 
G01 X29.1250 Y51.8806 
G01 X28.9570 Y51.8540 
G01 X28.7952 Y51.8014 
G01 X28.6436 Y51.7242 
G01 X28.5060 Y51.6242 
G01 X28.3858 Y51.5040 
G01 X28.2858 Y51.3664 
G01 X28.2086 Y51.2148 
G01 X28.1560 Y51.0530 
G01 X28.1294 Y50.8850 
G01 X28.1294 Y50.7150 
G01 X28.1560 Y50.5470 
G01 X28.2086 Y50.3852 
G01 X28.2858 Y50.2336 
G01 X28.3858 Y50.0960 
G01 X28.5060 Y49.9758 
G01 X28.6436 Y49.8758 
G01 X28.7952 Y49.7986 
G01 X28.9570 Y49.7460 
G01 X29.1250 Y49.7194 
G01 X29.2950 Y49.7194 
G01 X29.4630 Y49.7460 
G01 X29.6248 Y49.7986 
G01 X29.7764 Y49.8758 
G01 X29.9140 Y49.9758 
G01 X30.0342 Y50.0960 
G01 X30.1342 Y50.2336 
G01 X30.2114 Y50.3852 
G01 X30.2640 Y50.5470 
G01 X30.2906 Y50.7150 
G00 Z2.5400 
G00 X30.2906 Y48.1750 
G01 Z-0.1500 F254.00 
G01 X30.2906 Y48.3450 F508.00 
G01 X30.2640 Y48.5130 
G01 X30.2114 Y48.6748 
G01 X30.1342 Y48.8264 
G01 X30.0342 Y48.9640 
G01 X29.9140 Y49.0842 
G01 X29.7764 Y49.1842 
G01 X29.6248 Y49.2614 
G01 X29.4630 Y49.3140 
G01 X29.2950 Y49.3406 
G01 X29.1250 Y49.3406 
G01 X28.9570 Y49.3140 
G01 X28.7952 Y49.2614 
G01 X28.6436 Y49.1842 
G01 X28.5060 Y49.0842 
G01 X28.3858 Y48.9640 
G01 X28.2858 Y48.8264 
G01 X28.2086 Y48.6748 
G01 X28.1560 Y48.5130 
G01 X28.1294 Y48.3450 
G01 X28.1294 Y48.1750 
G01 X28.1560 Y48.0070 
G01 X28.2086 Y47.8452 
G01 X28.2858 Y47.6936 
G01 X28.3858 Y47.5560 
G01 X28.5060 Y47.4358 
G01 X28.6436 Y47.3358 
G01 X28.7952 Y47.2586 
G01 X28.9570 Y47.2060 
G01 X29.1250 Y47.1794 
G01 X29.2950 Y47.1794 
G01 X29.4630 Y47.2060 
G01 X29.6248 Y47.2586 
G01 X29.7764 Y47.3358 
G01 X29.9140 Y47.4358 
G01 X30.0342 Y47.5560 
G01 X30.1342 Y47.6936 
G01 X30.2114 Y47.8452 
G01 X30.2640 Y48.0070 
G01 X30.2906 Y48.1750 
G00 Z2.5400 
G00 X30.2906 Y45.6350 
G01 Z-0.1500 F254.00 
G01 X30.2906 Y45.8050 F508.00 
G01 X30.2640 Y45.9730 
G01 X30.2114 Y46.1348 
G01 X30.1342 Y46.2864 
G01 X30.0342 Y46.4240 
G01 X29.9140 Y46.5442 
G01 X29.7764 Y46.6442 
G01 X29.6248 Y46.7214 
G01 X29.4630 Y46.7740 
G01 X29.2950 Y46.8006 
G01 X29.1250 Y46.8006 
G01 X28.9570 Y46.7740 
G01 X28.7952 Y46.7214 
G01 X28.6436 Y46.6442 
G01 X28.5060 Y46.5442 
G01 X28.3858 Y46.4240 
G01 X28.2858 Y46.2864 
G01 X28.2086 Y46.1348 
G01 X28.1560 Y45.9730 
G01 X28.1294 Y45.8050 
G01 X28.1294 Y45.6350 
G01 X28.1560 Y45.4670 
G01 X28.2086 Y45.3052 
G01 X28.2858 Y45.1536 
G01 X28.3858 Y45.0160 
G01 X28.5060 Y44.8958 
G01 X28.6436 Y44.7958 
G01 X28.7952 Y44.7186 
G01 X28.9570 Y44.6660 
G01 X29.1250 Y44.6394 
G01 X29.2950 Y44.6394 
G01 X29.4630 Y44.6660 
G01 X29.6248 Y44.7186 
G01 X29.7764 Y44.7958 
G01 X29.9140 Y44.8958 
G01 X30.0342 Y45.0160 
G01 X30.1342 Y45.1536 
G01 X30.2114 Y45.3052 
G01 X30.2640 Y45.4670 
G01 X30.2906 Y45.6350 
G00 Z2.5400 
G00 X30.2906 Y43.0950 
G01 Z-0.1500 F254.00 
G01 X30.2906 Y43.2650 F508.00 
G01 X30.2640 Y43.4330 
G01 X30.2114 Y43.5948 
G01 X30.1342 Y43.7464 
G01 X30.0342 Y43.8840 
G01 X29.9140 Y44.0042 
G01 X29.7764 Y44.1042 
G01 X29.6248 Y44.1814 
G01 X29.4630 Y44.2340 
G01 X29.2950 Y44.2606 
G01 X29.1250 Y44.2606 
G01 X28.9570 Y44.2340 
G01 X28.7952 Y44.1814 
G01 X28.6436 Y44.1042 
G01 X28.5060 Y44.0042 
G01 X28.3858 Y43.8840 
G01 X28.2858 Y43.7464 
G01 X28.2086 Y43.5948 
G01 X28.1560 Y43.4330 
G01 X28.1294 Y43.2650 
G01 X28.1294 Y43.0950 
G01 X28.1560 Y42.9270 
G01 X28.2086 Y42.7652 
G01 X28.2858 Y42.6136 
G01 X28.3858 Y42.4760 
G01 X28.5060 Y42.3558 
G01 X28.6436 Y42.2558 
G01 X28.7952 Y42.1786 
G01 X28.9570 Y42.1260 
G01 X29.1250 Y42.0994 
G01 X29.2950 Y42.0994 
G01 X29.4630 Y42.1260 
G01 X29.6248 Y42.1786 
G01 X29.7764 Y42.2558 
G01 X29.9140 Y42.3558 
G01 X30.0342 Y42.4760 
G01 X30.1342 Y42.6136 
G01 X30.2114 Y42.7652 
G01 X30.2640 Y42.9270 
G01 X30.2906 Y43.0950 
G00 Z2.5400 
G00 X30.2906 Y40.5550 
G01 Z-0.1500 F254.00 
G01 X30.2906 Y40.7250 F508.00 
G01 X30.2640 Y40.8930 
G01 X30.2114 Y41.0548 
G01 X30.1342 Y41.2064 
G01 X30.0342 Y41.3440 
G01 X29.9140 Y41.4642 
G01 X29.7764 Y41.5642 
G01 X29.6248 Y41.6414 
G01 X29.4630 Y41.6940 
G01 X29.2950 Y41.7206 
G01 X29.1250 Y41.7206 
G01 X28.9570 Y41.6940 
G01 X28.7952 Y41.6414 
G01 X28.6436 Y41.5642 
G01 X28.5060 Y41.4642 
G01 X28.3858 Y41.3440 
G01 X28.2858 Y41.2064 
G01 X28.2086 Y41.0548 
G01 X28.1560 Y40.8930 
G01 X28.1294 Y40.7250 
G01 X28.1294 Y40.5550 
G01 X28.1560 Y40.3870 
G01 X28.2086 Y40.2252 
G01 X28.2858 Y40.0736 
G01 X28.3858 Y39.9360 
G01 X28.5060 Y39.8158 
G01 X28.6436 Y39.7158 
G01 X28.7952 Y39.6386 
G01 X28.9570 Y39.5860 
G01 X29.1250 Y39.5594 
G01 X29.2950 Y39.5594 
G01 X29.4630 Y39.5860 
G01 X29.6248 Y39.6386 
G01 X29.7764 Y39.7158 
G01 X29.9140 Y39.8158 
G01 X30.0342 Y39.9360 
G01 X30.1342 Y40.0736 
G01 X30.2114 Y40.2252 
G01 X30.2640 Y40.3870 
G01 X30.2906 Y40.5550 
G00 Z2.5400 
G00 X30.2906 Y38.0150 
G01 Z-0.1500 F254.00 
G01 X30.2906 Y38.1850 F508.00 
G01 X30.2640 Y38.3530 
G01 X30.2114 Y38.5148 
G01 X30.1342 Y38.6664 
G01 X30.0342 Y38.8040 
G01 X29.9140 Y38.9242 
G01 X29.7764 Y39.0242 
G01 X29.6248 Y39.1014 
G01 X29.4630 Y39.1540 
G01 X29.2950 Y39.1806 
G01 X29.1250 Y39.1806 
G01 X28.9570 Y39.1540 
G01 X28.7952 Y39.1014 
G01 X28.6436 Y39.0242 
G01 X28.5060 Y38.9242 
G01 X28.3858 Y38.8040 
G01 X28.2858 Y38.6664 
G01 X28.2086 Y38.5148 
G01 X28.1560 Y38.3530 
G01 X28.1294 Y38.1850 
G01 X28.1294 Y38.0150 
G01 X28.1560 Y37.8470 
G01 X28.2086 Y37.6852 
G01 X28.2858 Y37.5336 
G01 X28.3858 Y37.3960 
G01 X28.5060 Y37.2758 
G01 X28.6436 Y37.1758 
G01 X28.7952 Y37.0986 
G01 X28.9570 Y37.0460 
G01 X29.1250 Y37.0194 
G01 X29.2950 Y37.0194 
G01 X29.4630 Y37.0460 
G01 X29.6248 Y37.0986 
G01 X29.7764 Y37.1758 
G01 X29.9140 Y37.2758 
G01 X30.0342 Y37.3960 
G01 X30.1342 Y37.5336 
G01 X30.2114 Y37.6852 
G01 X30.2640 Y37.8470 
G01 X30.2906 Y38.0150 
G00 Z2.5400 
G00 X30.2906 Y35.4750 
G01 Z-0.1500 F254.00 
G01 X30.2906 Y35.6450 F508.00 
G01 X30.2640 Y35.8130 
G01 X30.2114 Y35.9748 
G01 X30.1342 Y36.1264 
G01 X30.0342 Y36.2640 
G01 X29.9140 Y36.3842 
G01 X29.7764 Y36.4842 
G01 X29.6248 Y36.5614 
G01 X29.4630 Y36.6140 
G01 X29.2950 Y36.6406 
G01 X29.1250 Y36.6406 
G01 X28.9570 Y36.6140 
G01 X28.7952 Y36.5614 
G01 X28.6436 Y36.4842 
G01 X28.5060 Y36.3842 
G01 X28.3858 Y36.2640 
G01 X28.2858 Y36.1264 
G01 X28.2086 Y35.9748 
G01 X28.1560 Y35.8130 
G01 X28.1294 Y35.6450 
G01 X28.1294 Y35.4750 
G01 X28.1560 Y35.3070 
G01 X28.2086 Y35.1452 
G01 X28.2858 Y34.9936 
G01 X28.3858 Y34.8560 
G01 X28.5060 Y34.7358 
G01 X28.6436 Y34.6358 
G01 X28.7952 Y34.5586 
G01 X28.9570 Y34.5060 
G01 X29.1250 Y34.4794 
G01 X29.2950 Y34.4794 
G01 X29.4630 Y34.5060 
G01 X29.6248 Y34.5586 
G01 X29.7764 Y34.6358 
G01 X29.9140 Y34.7358 
G01 X30.0342 Y34.8560 
G01 X30.1342 Y34.9936 
G01 X30.2114 Y35.1452 
G01 X30.2640 Y35.3070 
G01 X30.2906 Y35.4750 
G00 Z2.5400 
G00 X30.2906 Y32.9350 
G01 Z-0.1500 F254.00 
G01 X30.2906 Y33.1050 F508.00 
G01 X30.2640 Y33.2730 
G01 X30.2114 Y33.4348 
G01 X30.1342 Y33.5864 
G01 X30.0342 Y33.7240 
G01 X29.9140 Y33.8442 
G01 X29.7764 Y33.9442 
G01 X29.6248 Y34.0214 
G01 X29.4630 Y34.0740 
G01 X29.2950 Y34.1006 
G01 X29.1250 Y34.1006 
G01 X28.9570 Y34.0740 
G01 X28.7952 Y34.0214 
G01 X28.6436 Y33.9442 
G01 X28.5060 Y33.8442 
G01 X28.3858 Y33.7240 
G01 X28.2858 Y33.5864 
G01 X28.2086 Y33.4348 
G01 X28.1560 Y33.2730 
G01 X28.1294 Y33.1050 
G01 X28.1294 Y32.9350 
G01 X28.1560 Y32.7670 
G01 X28.2086 Y32.6052 
G01 X28.2858 Y32.4536 
G01 X28.3858 Y32.3160 
G01 X28.5060 Y32.1958 
G01 X28.6436 Y32.0958 
G01 X28.7952 Y32.0186 
G01 X28.9570 Y31.9660 
G01 X29.1250 Y31.9394 
G01 X29.2950 Y31.9394 
G01 X29.4630 Y31.9660 
G01 X29.6248 Y32.0186 
G01 X29.7764 Y32.0958 
G01 X29.9140 Y32.1958 
G01 X30.0342 Y32.3160 
G01 X30.1342 Y32.4536 
G01 X30.2114 Y32.6052 
G01 X30.2640 Y32.7670 
G01 X30.2906 Y32.9350 
G00 Z2.5400 
G00 X30.2906 Y30.3950 
G01 Z-0.1500 F254.00 
G01 X30.2906 Y30.5650 F508.00 
G01 X30.2640 Y30.7330 
G01 X30.2114 Y30.8948 
G01 X30.1342 Y31.0464 
G01 X30.0342 Y31.1840 
G01 X29.9140 Y31.3042 
G01 X29.7764 Y31.4042 
G01 X29.6248 Y31.4814 
G01 X29.4630 Y31.5340 
G01 X29.2950 Y31.5606 
G01 X29.1250 Y31.5606 
G01 X28.9570 Y31.5340 
G01 X28.7952 Y31.4814 
G01 X28.6436 Y31.4042 
G01 X28.5060 Y31.3042 
G01 X28.3858 Y31.1840 
G01 X28.2858 Y31.0464 
G01 X28.2086 Y30.8948 
G01 X28.1560 Y30.7330 
G01 X28.1294 Y30.5650 
G01 X28.1294 Y30.3950 
G01 X28.1560 Y30.2270 
G01 X28.2086 Y30.0652 
G01 X28.2858 Y29.9136 
G01 X28.3858 Y29.7760 
G01 X28.5060 Y29.6558 
G01 X28.6436 Y29.5558 
G01 X28.7952 Y29.4786 
G01 X28.9570 Y29.4260 
G01 X29.1250 Y29.3994 
G01 X29.2950 Y29.3994 
G01 X29.4630 Y29.4260 
G01 X29.6248 Y29.4786 
G01 X29.7764 Y29.5558 
G01 X29.9140 Y29.6558 
G01 X30.0342 Y29.7760 
G01 X30.1342 Y29.9136 
G01 X30.2114 Y30.0652 
G01 X30.2640 Y30.2270 
G01 X30.2906 Y30.3950 
G00 Z2.5400 
G00 X30.2906 Y27.8550 
G01 Z-0.1500 F254.00 
G01 X30.2906 Y28.0250 F508.00 
G01 X30.2640 Y28.1930 
G01 X30.2114 Y28.3548 
G01 X30.1342 Y28.5064 
G01 X30.0342 Y28.6440 
G01 X29.9140 Y28.7642 
G01 X29.7764 Y28.8642 
G01 X29.6248 Y28.9414 
G01 X29.4630 Y28.9940 
G01 X29.2950 Y29.0206 
G01 X29.1250 Y29.0206 
G01 X28.9570 Y28.9940 
G01 X28.7952 Y28.9414 
G01 X28.6436 Y28.8642 
G01 X28.5060 Y28.7642 
G01 X28.3858 Y28.6440 
G01 X28.2858 Y28.5064 
G01 X28.2086 Y28.3548 
G01 X28.1560 Y28.1930 
G01 X28.1294 Y28.0250 
G01 X28.1294 Y27.8550 
G01 X28.1560 Y27.6870 
G01 X28.2086 Y27.5252 
G01 X28.2858 Y27.3736 
G01 X28.3858 Y27.2360 
G01 X28.5060 Y27.1158 
G01 X28.6436 Y27.0158 
G01 X28.7952 Y26.9386 
G01 X28.9570 Y26.8860 
G01 X29.1250 Y26.8594 
G01 X29.2950 Y26.8594 
G01 X29.4630 Y26.8860 
G01 X29.6248 Y26.9386 
G01 X29.7764 Y27.0158 
G01 X29.9140 Y27.1158 
G01 X30.0342 Y27.2360 
G01 X30.1342 Y27.3736 
G01 X30.2114 Y27.5252 
G01 X30.2640 Y27.6870 
G01 X30.2906 Y27.8550 
G00 Z2.5400 
G00 X22.6706 Y27.8550 
G01 Z-0.1500 F254.00 
G01 X22.6706 Y28.0250 F508.00 
G01 X22.6440 Y28.1930 
G01 X22.5914 Y28.3548 
G01 X22.5142 Y28.5064 
G01 X22.4142 Y28.6440 
G01 X22.2940 Y28.7642 
G01 X22.1564 Y28.8642 
G01 X22.0048 Y28.9414 
G01 X21.8430 Y28.9940 
G01 X21.6750 Y29.0206 
G01 X21.5050 Y29.0206 
G01 X21.3370 Y28.9940 
G01 X21.1752 Y28.9414 
G01 X21.0236 Y28.8642 
G01 X20.8860 Y28.7642 
G01 X20.7658 Y28.6440 
G01 X20.6658 Y28.5064 
G01 X20.5886 Y28.3548 
G01 X20.5360 Y28.1930 
G01 X20.5094 Y28.0250 
G01 X20.5094 Y27.8550 
G01 X20.5360 Y27.6870 
G01 X20.5886 Y27.5252 
G01 X20.6658 Y27.3736 
G01 X20.7658 Y27.2360 
G01 X20.8860 Y27.1158 
G01 X21.0236 Y27.0158 
G01 X21.1752 Y26.9386 
G01 X21.3370 Y26.8860 
G01 X21.5050 Y26.8594 
G01 X21.6750 Y26.8594 
G01 X21.8430 Y26.8860 
G01 X22.0048 Y26.9386 
G01 X22.1564 Y27.0158 
G01 X22.2940 Y27.1158 
G01 X22.4142 Y27.2360 
G01 X22.5142 Y27.3736 
G01 X22.5914 Y27.5252 
G01 X22.6440 Y27.6870 
G01 X22.6706 Y27.8550 
G00 Z2.5400 
G00 X22.6706 Y30.3950 
G01 Z-0.1500 F254.00 
G01 X22.6706 Y30.5650 F508.00 
G01 X22.6440 Y30.7330 
G01 X22.5914 Y30.8948 
G01 X22.5142 Y31.0464 
G01 X22.4142 Y31.1840 
G01 X22.2940 Y31.3042 
G01 X22.1564 Y31.4042 
G01 X22.0048 Y31.4814 
G01 X21.8430 Y31.5340 
G01 X21.6750 Y31.5606 
G01 X21.5050 Y31.5606 
G01 X21.3370 Y31.5340 
G01 X21.1752 Y31.4814 
G01 X21.0236 Y31.4042 
G01 X20.8860 Y31.3042 
G01 X20.7658 Y31.1840 
G01 X20.6658 Y31.0464 
G01 X20.6281 Y30.9724 
G01 X18.2724 Y30.9724 
G01 X18.2724 Y36.8948 
G01 X18.2388 Y37.0201 
G01 X18.1740 Y37.1323 
G01 X18.0823 Y37.2240 
G01 X10.4623 Y44.8440 
G01 X10.3501 Y44.9088 
G01 X10.2248 Y44.9424 
G01 X3.0324 Y44.9424 
G01 X3.0324 Y64.6228 
G01 X3.1155 Y64.6784 
G01 X3.2412 Y64.8041 
G01 X3.3176 Y64.9184 
G01 X3.3176 Y59.6252 
G01 X3.3512 Y59.4999 
G01 X3.4160 Y59.3877 
G01 X3.5077 Y59.2960 
G01 X3.6199 Y59.2312 
G01 X3.7452 Y59.1976 
G01 X7.4160 Y59.1976 
G01 X14.7476 Y51.8660 
G01 X14.7476 Y50.3144 
G01 X14.3372 Y49.9040 
G01 X14.3372 Y49.1560 
G01 X14.8660 Y48.6272 
G01 X15.6140 Y48.6272 
G01 X16.1428 Y49.1560 
G01 X16.1428 Y49.9040 
G01 X15.7324 Y50.3144 
G01 X15.7324 Y52.1348 
G01 X15.6988 Y52.2601 
G01 X15.6340 Y52.3723 
G01 X15.5423 Y52.4640 
G01 X7.9223 Y60.0840 
G01 X7.8101 Y60.1488 
G01 X7.6848 Y60.1824 
G01 X4.3024 Y60.1824 
G01 X4.3024 Y64.9184 
G01 X4.3788 Y64.8041 
G01 X4.5045 Y64.6784 
G01 X4.6524 Y64.5795 
G01 X4.8167 Y64.5115 
G01 X4.9911 Y64.4768 
G01 X5.1689 Y64.4768 
G01 X5.3433 Y64.5115 
G01 X5.5076 Y64.5795 
G01 X5.6555 Y64.6784 
G01 X5.7004 Y64.7232 
G01 X18.5576 Y51.8660 
G01 X18.5576 Y32.9552 
G01 X18.5912 Y32.8299 
G01 X18.6560 Y32.7177 
G01 X18.7477 Y32.6260 
G01 X18.8599 Y32.5612 
G01 X18.9852 Y32.5276 
G01 X20.6281 Y32.5276 
G01 X20.6658 Y32.4536 
G01 X20.7658 Y32.3160 
G01 X20.8860 Y32.1958 
G01 X21.0236 Y32.0958 
G01 X21.1752 Y32.0186 
G01 X21.3370 Y31.9660 
G01 X21.5050 Y31.9394 
G01 X21.6750 Y31.9394 
G01 X21.8430 Y31.9660 
G01 X22.0048 Y32.0186 
G01 X22.1564 Y32.0958 
G01 X22.2940 Y32.1958 
G01 X22.4142 Y32.3160 
G01 X22.5142 Y32.4536 
G01 X22.5914 Y32.6052 
G01 X22.6440 Y32.7670 
G01 X22.6706 Y32.9350 
G01 X22.6706 Y33.1050 
G01 X22.6440 Y33.2730 
G01 X22.5914 Y33.4348 
G01 X22.5142 Y33.5864 
G01 X22.4142 Y33.7240 
G01 X22.2940 Y33.8442 
G01 X22.1564 Y33.9442 
G01 X22.0048 Y34.0214 
G01 X21.8430 Y34.0740 
G01 X21.6750 Y34.1006 
G01 X21.5050 Y34.1006 
G01 X21.3370 Y34.0740 
G01 X21.1752 Y34.0214 
G01 X21.0236 Y33.9442 
G01 X20.8860 Y33.8442 
G01 X20.7658 Y33.7240 
G01 X20.6658 Y33.5864 
G01 X20.6281 Y33.5124 
G01 X19.5424 Y33.5124 
G01 X19.5424 Y52.1348 
G01 X19.5088 Y52.2601 
G01 X19.4440 Y52.3723 
G01 X19.3523 Y52.4640 
G01 X7.2682 Y64.5481 
G01 X7.3567 Y64.5115 
G01 X7.5311 Y64.4768 
G01 X7.7089 Y64.4768 
G01 X7.8833 Y64.5115 
G01 X8.0476 Y64.5795 
G01 X8.1955 Y64.6784 
G01 X8.3212 Y64.8041 
G01 X8.4200 Y64.9520 
G01 X8.4881 Y65.1163 
G01 X8.5228 Y65.2907 
G01 X8.5228 Y66.7893 
G01 X8.4881 Y66.9637 
G01 X8.4200 Y67.1280 
G01 X8.3212 Y67.2759 
G01 X8.1955 Y67.4016 
G01 X8.0476 Y67.5004 
G01 X7.8833 Y67.5685 
G01 X7.7089 Y67.6032 
G01 X7.5311 Y67.6032 
G01 X7.3567 Y67.5685 
G01 X7.1924 Y67.5004 
G01 X7.0445 Y67.4016 
G01 X6.9188 Y67.2759 
G01 X6.8200 Y67.1280 
G01 X6.7519 Y66.9637 
G01 X6.7172 Y66.7893 
G01 X6.7172 Y65.2907 
G01 X6.7519 Y65.1163 
G01 X6.7885 Y65.0278 
G01 X5.9828 Y65.8336 
G01 X5.9828 Y66.7893 
G01 X5.9481 Y66.9637 
G01 X5.8800 Y67.1280 
G01 X5.7812 Y67.2759 
G01 X5.6555 Y67.4016 
G01 X5.5076 Y67.5004 
G01 X5.3433 Y67.5685 
G01 X5.1689 Y67.6032 
G01 X4.9911 Y67.6032 
G01 X4.8167 Y67.5685 
G01 X4.7282 Y67.5319 
G01 X5.2840 Y68.0876 
G01 X36.3376 Y68.0876 
G01 X36.3376 Y19.1972 
G01 X36.2545 Y19.1416 
G01 X36.1288 Y19.0159 
G01 X36.0299 Y18.8680 
G01 X35.9619 Y18.7037 
G01 X35.9272 Y18.5293 
G01 X35.9272 Y17.0307 
G01 X35.9619 Y16.8563 
G01 X36.0299 Y16.6920 
G01 X36.1288 Y16.5441 
G01 X36.2545 Y16.4184 
G01 X36.4024 Y16.3195 
G01 X36.5667 Y16.2515 
G01 X36.7411 Y16.2168 
G01 X36.9189 Y16.2168 
G01 X37.0933 Y16.2515 
G01 X37.2576 Y16.3195 
G01 X37.4055 Y16.4184 
G01 X37.5312 Y16.5441 
G01 X37.6300 Y16.6920 
G01 X37.6981 Y16.8563 
G01 X37.7328 Y17.0307 
G01 X37.7328 Y18.5293 
G01 X37.6981 Y18.7037 
G01 X37.6300 Y18.8680 
G01 X37.5312 Y19.0159 
G01 X37.4055 Y19.1416 
G01 X37.3224 Y19.1972 
G01 X37.3224 Y68.6448 
G01 X37.2888 Y68.7701 
G01 X37.2240 Y68.8823 
G01 X37.1323 Y68.9740 
G01 X37.0201 Y69.0388 
G01 X36.8948 Y69.0724 
G01 X5.0152 Y69.0724 
G01 X4.8899 Y69.0388 
G01 X4.7777 Y68.9740 
G01 X3.5077 Y67.7040 
G01 X3.4160 Y67.6123 
G01 X3.3512 Y67.5001 
G01 X3.3176 Y67.3748 
G01 X3.3176 Y67.1616 
G01 X3.2412 Y67.2759 
G01 X3.1155 Y67.4016 
G01 X2.9676 Y67.5004 
G01 X2.8033 Y67.5685 
G01 X2.6289 Y67.6032 
G01 X2.4511 Y67.6032 
G01 X2.2767 Y67.5685 
G01 X2.1124 Y67.5004 
G01 X1.9645 Y67.4016 
G01 X1.8388 Y67.2759 
G01 X1.7400 Y67.1280 
G01 X1.6719 Y66.9637 
G01 X1.6372 Y66.7893 
G01 X1.6372 Y65.2907 
G01 X1.6719 Y65.1163 
G01 X1.7400 Y64.9520 
G01 X1.8388 Y64.8041 
G01 X1.9645 Y64.6784 
G01 X2.0476 Y64.6228 
G01 X2.0476 Y44.3852 
G01 X2.0812 Y44.2599 
G01 X2.1460 Y44.1477 
G01 X2.2377 Y44.0560 
G01 X2.3499 Y43.9912 
G01 X2.4752 Y43.9576 
G01 X9.9560 Y43.9576 
G01 X17.2876 Y36.6260 
G01 X17.2876 Y30.4152 
G01 X17.3212 Y30.2899 
G01 X17.3860 Y30.1777 
G01 X17.4777 Y30.0860 
G01 X17.5899 Y30.0212 
G01 X17.7152 Y29.9876 
G01 X20.6281 Y29.9876 
G01 X20.6658 Y29.9136 
G01 X20.7658 Y29.7760 
G01 X20.8860 Y29.6558 
G01 X21.0236 Y29.5558 
G01 X21.1752 Y29.4786 
G01 X21.3370 Y29.4260 
G01 X21.5050 Y29.3994 
G01 X21.6750 Y29.3994 
G01 X21.8430 Y29.4260 
G01 X22.0048 Y29.4786 
G01 X22.1564 Y29.5558 
G01 X22.2940 Y29.6558 
G01 X22.4142 Y29.7760 
G01 X22.5142 Y29.9136 
G01 X22.5914 Y30.0652 
G01 X22.6440 Y30.2270 
G01 X22.6706 Y30.3950 
G00 Z2.5400 
G00 X22.6706 Y35.4750 
G01 Z-0.1500 F254.00 
G01 X22.6706 Y35.6450 F508.00 
G01 X22.6440 Y35.8130 
G01 X22.5914 Y35.9748 
G01 X22.5142 Y36.1264 
G01 X22.4142 Y36.2640 
G01 X22.2940 Y36.3842 
G01 X22.1564 Y36.4842 
G01 X22.0048 Y36.5614 
G01 X21.8430 Y36.6140 
G01 X21.6750 Y36.6406 
G01 X21.5050 Y36.6406 
G01 X21.3370 Y36.6140 
G01 X21.1752 Y36.5614 
G01 X21.0236 Y36.4842 
G01 X20.8860 Y36.3842 
G01 X20.7658 Y36.2640 
G01 X20.6658 Y36.1264 
G01 X20.5886 Y35.9748 
G01 X20.5360 Y35.8130 
G01 X20.5094 Y35.6450 
G01 X20.5094 Y35.4750 
G01 X20.5360 Y35.3070 
G01 X20.5886 Y35.1452 
G01 X20.6658 Y34.9936 
G01 X20.7658 Y34.8560 
G01 X20.8860 Y34.7358 
G01 X21.0236 Y34.6358 
G01 X21.1752 Y34.5586 
G01 X21.3370 Y34.5060 
G01 X21.5050 Y34.4794 
G01 X21.6750 Y34.4794 
G01 X21.8430 Y34.5060 
G01 X22.0048 Y34.5586 
G01 X22.1564 Y34.6358 
G01 X22.2940 Y34.7358 
G01 X22.4142 Y34.8560 
G01 X22.5142 Y34.9936 
G01 X22.5914 Y35.1452 
G01 X22.6440 Y35.3070 
G01 X22.6706 Y35.4750 
G00 Z2.5400 
G00 X22.6706 Y38.0150 
G01 Z-0.1500 F254.00 
G01 X22.6706 Y38.1850 F508.00 
G01 X22.6440 Y38.3530 
G01 X22.5914 Y38.5148 
G01 X22.5142 Y38.6664 
G01 X22.4142 Y38.8040 
G01 X22.2940 Y38.9242 
G01 X22.1564 Y39.0242 
G01 X22.0048 Y39.1014 
G01 X21.8430 Y39.1540 
G01 X21.6750 Y39.1806 
G01 X21.5050 Y39.1806 
G01 X21.3370 Y39.1540 
G01 X21.1752 Y39.1014 
G01 X21.0236 Y39.0242 
G01 X20.8860 Y38.9242 
G01 X20.7658 Y38.8040 
G01 X20.6658 Y38.6664 
G01 X20.5886 Y38.5148 
G01 X20.5360 Y38.3530 
G01 X20.5094 Y38.1850 
G01 X20.5094 Y38.0150 
G01 X20.5360 Y37.8470 
G01 X20.5886 Y37.6852 
G01 X20.6658 Y37.5336 
G01 X20.7658 Y37.3960 
G01 X20.8860 Y37.2758 
G01 X21.0236 Y37.1758 
G01 X21.1752 Y37.0986 
G01 X21.3370 Y37.0460 
G01 X21.5050 Y37.0194 
G01 X21.6750 Y37.0194 
G01 X21.8430 Y37.0460 
G01 X22.0048 Y37.0986 
G01 X22.1564 Y37.1758 
G01 X22.2940 Y37.2758 
G01 X22.4142 Y37.3960 
G01 X22.5142 Y37.5336 
G01 X22.5914 Y37.6852 
G01 X22.6440 Y37.8470 
G01 X22.6706 Y38.0150 
G00 Z2.5400 
G00 X22.6706 Y40.5550 
G01 Z-0.1500 F254.00 
G01 X22.6706 Y40.7250 F508.00 
G01 X22.6440 Y40.8930 
G01 X22.5914 Y41.0548 
G01 X22.5142 Y41.2064 
G01 X22.4142 Y41.3440 
G01 X22.2940 Y41.4642 
G01 X22.1564 Y41.5642 
G01 X22.0048 Y41.6414 
G01 X21.8430 Y41.6940 
G01 X21.6750 Y41.7206 
G01 X21.5050 Y41.7206 
G01 X21.3370 Y41.6940 
G01 X21.1752 Y41.6414 
G01 X21.0236 Y41.5642 
G01 X20.8860 Y41.4642 
G01 X20.7658 Y41.3440 
G01 X20.6658 Y41.2064 
G01 X20.5886 Y41.0548 
G01 X20.5360 Y40.8930 
G01 X20.5094 Y40.7250 
G01 X20.5094 Y40.5550 
G01 X20.5360 Y40.3870 
G01 X20.5886 Y40.2252 
G01 X20.6658 Y40.0736 
G01 X20.7658 Y39.9360 
G01 X20.8860 Y39.8158 
G01 X21.0236 Y39.7158 
G01 X21.1752 Y39.6386 
G01 X21.3370 Y39.5860 
G01 X21.5050 Y39.5594 
G01 X21.6750 Y39.5594 
G01 X21.8430 Y39.5860 
G01 X22.0048 Y39.6386 
G01 X22.1564 Y39.7158 
G01 X22.2940 Y39.8158 
G01 X22.4142 Y39.9360 
G01 X22.5142 Y40.0736 
G01 X22.5914 Y40.2252 
G01 X22.6440 Y40.3870 
G01 X22.6706 Y40.5550 
G00 Z2.5400 
G00 X22.6706 Y43.0950 
G01 Z-0.1500 F254.00 
G01 X22.6706 Y43.2650 F508.00 
G01 X22.6440 Y43.4330 
G01 X22.5914 Y43.5948 
G01 X22.5142 Y43.7464 
G01 X22.4142 Y43.8840 
G01 X22.2940 Y44.0042 
G01 X22.1564 Y44.1042 
G01 X22.0048 Y44.1814 
G01 X21.8430 Y44.2340 
G01 X21.6750 Y44.2606 
G01 X21.5050 Y44.2606 
G01 X21.3370 Y44.2340 
G01 X21.1752 Y44.1814 
G01 X21.0236 Y44.1042 
G01 X20.8860 Y44.0042 
G01 X20.7658 Y43.8840 
G01 X20.6658 Y43.7464 
G01 X20.5886 Y43.5948 
G01 X20.5360 Y43.4330 
G01 X20.5094 Y43.2650 
G01 X20.5094 Y43.0950 
G01 X20.5360 Y42.9270 
G01 X20.5886 Y42.7652 
G01 X20.6658 Y42.6136 
G01 X20.7658 Y42.4760 
G01 X20.8860 Y42.3558 
G01 X21.0236 Y42.2558 
G01 X21.1752 Y42.1786 
G01 X21.3370 Y42.1260 
G01 X21.5050 Y42.0994 
G01 X21.6750 Y42.0994 
G01 X21.8430 Y42.1260 
G01 X22.0048 Y42.1786 
G01 X22.1564 Y42.2558 
G01 X22.2940 Y42.3558 
G01 X22.4142 Y42.4760 
G01 X22.5142 Y42.6136 
G01 X22.5914 Y42.7652 
G01 X22.6440 Y42.9270 
G01 X22.6706 Y43.0950 
G00 Z2.5400 
G00 X22.6706 Y45.6350 
G01 Z-0.1500 F254.00 
G01 X22.6706 Y45.8050 F508.00 
G01 X22.6440 Y45.9730 
G01 X22.5914 Y46.1348 
G01 X22.5142 Y46.2864 
G01 X22.4142 Y46.4240 
G01 X22.2940 Y46.5442 
G01 X22.1564 Y46.6442 
G01 X22.0048 Y46.7214 
G01 X21.8430 Y46.7740 
G01 X21.6750 Y46.8006 
G01 X21.5050 Y46.8006 
G01 X21.3370 Y46.7740 
G01 X21.1752 Y46.7214 
G01 X21.0236 Y46.6442 
G01 X20.8860 Y46.5442 
G01 X20.7658 Y46.4240 
G01 X20.6658 Y46.2864 
G01 X20.5886 Y46.1348 
G01 X20.5360 Y45.9730 
G01 X20.5094 Y45.8050 
G01 X20.5094 Y45.6350 
G01 X20.5360 Y45.4670 
G01 X20.5886 Y45.3052 
G01 X20.6658 Y45.1536 
G01 X20.7658 Y45.0160 
G01 X20.8860 Y44.8958 
G01 X21.0236 Y44.7958 
G01 X21.1752 Y44.7186 
G01 X21.3370 Y44.6660 
G01 X21.5050 Y44.6394 
G01 X21.6750 Y44.6394 
G01 X21.8430 Y44.6660 
G01 X22.0048 Y44.7186 
G01 X22.1564 Y44.7958 
G01 X22.2940 Y44.8958 
G01 X22.4142 Y45.0160 
G01 X22.5142 Y45.1536 
G01 X22.5914 Y45.3052 
G01 X22.6440 Y45.4670 
G01 X22.6706 Y45.6350 
G00 Z2.5400 
G00 X22.6706 Y48.1750 
G01 Z-0.1500 F254.00 
G01 X22.6706 Y48.3450 F508.00 
G01 X22.6440 Y48.5130 
G01 X22.5914 Y48.6748 
G01 X22.5142 Y48.8264 
G01 X22.4142 Y48.9640 
G01 X22.2940 Y49.0842 
G01 X22.1564 Y49.1842 
G01 X22.0048 Y49.2614 
G01 X21.8430 Y49.3140 
G01 X21.6750 Y49.3406 
G01 X21.5050 Y49.3406 
G01 X21.3370 Y49.3140 
G01 X21.1752 Y49.2614 
G01 X21.0236 Y49.1842 
G01 X20.8860 Y49.0842 
G01 X20.7658 Y48.9640 
G01 X20.6658 Y48.8264 
G01 X20.5886 Y48.6748 
G01 X20.5360 Y48.5130 
G01 X20.5094 Y48.3450 
G01 X20.5094 Y48.1750 
G01 X20.5360 Y48.0070 
G01 X20.5886 Y47.8452 
G01 X20.6658 Y47.6936 
G01 X20.7658 Y47.5560 
G01 X20.8860 Y47.4358 
G01 X21.0236 Y47.3358 
G01 X21.1752 Y47.2586 
G01 X21.3370 Y47.2060 
G01 X21.5050 Y47.1794 
G01 X21.6750 Y47.1794 
G01 X21.8430 Y47.2060 
G01 X22.0048 Y47.2586 
G01 X22.1564 Y47.3358 
G01 X22.2940 Y47.4358 
G01 X22.4142 Y47.5560 
G01 X22.5142 Y47.6936 
G01 X22.5914 Y47.8452 
G01 X22.6440 Y48.0070 
G01 X22.6706 Y48.1750 
G00 Z2.5400 
G00 X22.6706 Y50.7150 
G01 Z-0.1500 F254.00 
G01 X22.6706 Y50.8850 F508.00 
G01 X22.6440 Y51.0530 
G01 X22.5914 Y51.2148 
G01 X22.5142 Y51.3664 
G01 X22.4142 Y51.5040 
G01 X22.2940 Y51.6242 
G01 X22.1564 Y51.7242 
G01 X22.0048 Y51.8014 
G01 X21.8430 Y51.8540 
G01 X21.6750 Y51.8806 
G01 X21.5050 Y51.8806 
G01 X21.3370 Y51.8540 
G01 X21.1752 Y51.8014 
G01 X21.0236 Y51.7242 
G01 X20.8860 Y51.6242 
G01 X20.7658 Y51.5040 
G01 X20.6658 Y51.3664 
G01 X20.5886 Y51.2148 
G01 X20.5360 Y51.0530 
G01 X20.5094 Y50.8850 
G01 X20.5094 Y50.7150 
G01 X20.5360 Y50.5470 
G01 X20.5886 Y50.3852 
G01 X20.6658 Y50.2336 
G01 X20.7658 Y50.0960 
G01 X20.8860 Y49.9758 
G01 X21.0236 Y49.8758 
G01 X21.1752 Y49.7986 
G01 X21.3370 Y49.7460 
G01 X21.5050 Y49.7194 
G01 X21.6750 Y49.7194 
G01 X21.8430 Y49.7460 
G01 X22.0048 Y49.7986 
G01 X22.1564 Y49.8758 
G01 X22.2940 Y49.9758 
G01 X22.4142 Y50.0960 
G01 X22.5142 Y50.2336 
G01 X22.5914 Y50.3852 
G01 X22.6440 Y50.5470 
G01 X22.6706 Y50.7150 
G00 Z2.5400 
G00 X22.6706 Y53.2550 
G01 Z-0.1500 F254.00 
G01 X22.6706 Y53.4250 F508.00 
G01 X22.6440 Y53.5930 
G01 X22.5914 Y53.7548 
G01 X22.5142 Y53.9064 
G01 X22.4142 Y54.0440 
G01 X22.2940 Y54.1642 
G01 X22.1564 Y54.2642 
G01 X22.0048 Y54.3414 
G01 X21.8430 Y54.3940 
G01 X21.6750 Y54.4206 
G01 X21.5050 Y54.4206 
G01 X21.3370 Y54.3940 
G01 X21.1752 Y54.3414 
G01 X21.0236 Y54.2642 
G01 X20.8860 Y54.1642 
G01 X20.7658 Y54.0440 
G01 X20.6658 Y53.9064 
G01 X20.5886 Y53.7548 
G01 X20.5360 Y53.5930 
G01 X20.5094 Y53.4250 
G01 X20.5094 Y53.2550 
G01 X20.5360 Y53.0870 
G01 X20.5886 Y52.9252 
G01 X20.6658 Y52.7736 
G01 X20.7658 Y52.6360 
G01 X20.8860 Y52.5158 
G01 X21.0236 Y52.4158 
G01 X21.1752 Y52.3386 
G01 X21.3370 Y52.2860 
G01 X21.5050 Y52.2594 
G01 X21.6750 Y52.2594 
G01 X21.8430 Y52.2860 
G01 X22.0048 Y52.3386 
G01 X22.1564 Y52.4158 
G01 X22.2940 Y52.5158 
G01 X22.4142 Y52.6360 
G01 X22.5142 Y52.7736 
G01 X22.5914 Y52.9252 
G01 X22.6440 Y53.0870 
G01 X22.6706 Y53.2550 
G00 Z2.5400 
G00 X22.6706 Y55.7950 
G01 Z-0.1500 F254.00 
G01 X22.6706 Y55.9650 F508.00 
G01 X22.6440 Y56.1330 
G01 X22.5914 Y56.2948 
G01 X22.5142 Y56.4464 
G01 X22.4142 Y56.5840 
G01 X22.2940 Y56.7042 
G01 X22.1564 Y56.8042 
G01 X22.0048 Y56.8814 
G01 X21.8430 Y56.9340 
G01 X21.6750 Y56.9606 
G01 X21.5050 Y56.9606 
G01 X21.3370 Y56.9340 
G01 X21.1752 Y56.8814 
G01 X21.0236 Y56.8042 
G01 X20.8860 Y56.7042 
G01 X20.7658 Y56.5840 
G01 X20.6658 Y56.4464 
G01 X20.5886 Y56.2948 
G01 X20.5360 Y56.1330 
G01 X20.5094 Y55.9650 
G01 X20.5094 Y55.7950 
G01 X20.5360 Y55.6270 
G01 X20.5886 Y55.4652 
G01 X20.6658 Y55.3136 
G01 X20.7658 Y55.1760 
G01 X20.8860 Y55.0558 
G01 X21.0236 Y54.9558 
G01 X21.1752 Y54.8786 
G01 X21.3370 Y54.8260 
G01 X21.5050 Y54.7994 
G01 X21.6750 Y54.7994 
G01 X21.8430 Y54.8260 
G01 X22.0048 Y54.8786 
G01 X22.1564 Y54.9558 
G01 X22.2940 Y55.0558 
G01 X22.4142 Y55.1760 
G01 X22.5142 Y55.3136 
G01 X22.5914 Y55.4652 
G01 X22.6440 Y55.6270 
G01 X22.6706 Y55.7950 
G00 Z2.5400 
G00 X22.6706 Y58.3350 
G01 Z-0.1500 F254.00 
G01 X22.6706 Y58.5050 F508.00 
G01 X22.6440 Y58.6730 
G01 X22.5914 Y58.8348 
G01 X22.5142 Y58.9864 
G01 X22.4142 Y59.1240 
G01 X22.2940 Y59.2442 
G01 X22.1564 Y59.3442 
G01 X22.0048 Y59.4214 
G01 X21.8430 Y59.4740 
G01 X21.6750 Y59.5006 
G01 X21.5050 Y59.5006 
G01 X21.3370 Y59.4740 
G01 X21.1752 Y59.4214 
G01 X21.0236 Y59.3442 
G01 X20.8860 Y59.2442 
G01 X20.7658 Y59.1240 
G01 X20.6658 Y58.9864 
G01 X20.5886 Y58.8348 
G01 X20.5360 Y58.6730 
G01 X20.5094 Y58.5050 
G01 X20.5094 Y58.3350 
G01 X20.5360 Y58.1670 
G01 X20.5886 Y58.0052 
G01 X20.6658 Y57.8536 
G01 X20.7658 Y57.7160 
G01 X20.8860 Y57.5958 
G01 X21.0236 Y57.4958 
G01 X21.1752 Y57.4186 
G01 X21.3370 Y57.3660 
G01 X21.5050 Y57.3394 
G01 X21.6750 Y57.3394 
G01 X21.8430 Y57.3660 
G01 X22.0048 Y57.4186 
G01 X22.1564 Y57.4958 
G01 X22.2940 Y57.5958 
G01 X22.4142 Y57.7160 
G01 X22.5142 Y57.8536 
G01 X22.5914 Y58.0052 
G01 X22.6440 Y58.1670 
G01 X22.6706 Y58.3350 
G00 Z2.5400 
G00 X22.6706 Y60.0736 
G01 Z-0.1500 F254.00 
G01 X22.6706 Y61.8464 F508.00 
G01 X22.6337 Y61.9355 
G01 X22.5655 Y62.0037 
G01 X22.4764 Y62.0406 
G01 X20.7036 Y62.0406 
G01 X20.6145 Y62.0037 
G01 X20.5463 Y61.9355 
G01 X20.5094 Y61.8464 
G01 X20.5094 Y60.0736 
G01 X20.5463 Y59.9845 
G01 X20.6145 Y59.9163 
G01 X20.7036 Y59.8794 
G01 X22.4764 Y59.8794 
G01 X22.5655 Y59.9163 
G01 X22.6337 Y59.9845 
G01 X22.6706 Y60.0736 
G00 Z2.5400 
G00 X16.1428 Y59.3160 
G01 Z-0.1500 F254.00 
G01 X16.1428 Y60.0640 F508.00 
G01 X15.6140 Y60.5928 
G01 X14.8660 Y60.5928 
G01 X14.3372 Y60.0640 
G01 X14.3372 Y59.3160 
G01 X14.8660 Y58.7872 
G01 X15.6140 Y58.7872 
G01 X16.1428 Y59.3160 
G00 Z2.5400 
G00 X22.9119 Y22.3125 
G01 Z-0.1500 F254.00 
