(.../pcb-gcode-3.6.0.4/pcb-gcode.ulp)
(Copyright 2005 - 2012 by John Johnson)
(See readme.txt for licensing terms.)
(This file generated from the board:)
(.../eagle/eagle/SulaMatik/SulaMatik.brd)
(Current profile is .../pcb-gcode-3.6.0.4/profiles/emc.pp  )
(This file generated 7/10/2014 5:23:27 PM)
(Settings from pcb-machine.h)
(  Tool Size)
(0.1000 )
(Z Axis Settings)
(  High     Up        Down     Drill)
(15.0000 	2.0000 	-0.0250 	-1.5000 )
(spindle on time = 1.0000)
(milling depth = -0.0500)
(text depth = -0.0500)
(tool change at 15.0000 15.0000 15.0000 )
(feed rate xy = F508.00 )
(feed rate z  = F254.00 )
(Settings from pcb-defaults.h)
(isolate min = 0.0500)
(isolate max = 0.3000)
(isolate step = 0.1000)
(Generated top outlines, top drill, bottom outlines, bottom drill, )
(Unit of measure: mm)
( Tool|       Size       |  Min Sub |  Max Sub |   Count )
( T01  3.200mm 0.1260in 0.0000in 0.0000in )
( T02  3.302mm 0.1300in 0.0000in 0.0000in )
( T03  0.813mm 0.0320in 0.0000in 0.0000in )
( T04  1.016mm 0.0400in 0.0000in 0.0000in )
( T05  1.118mm 0.0440in 0.0000in 0.0000in )
( T06  1.676mm 0.0660in 0.0000in 0.0000in )
(Metric Mode)
G21
(Absolute Coordinates)
G90
M05
G00 Z15.0000 
G00 X15.0000 Y15.0000 
M06 T01  ; 3.2000 
G01 Z0.0000 F254.00 
M06 T01  ; 3.2000 
G00 Z2.0000 
M03
G04 P1.000000
G00 Z2.000000
G00 X43.1800 Y5.0800 
G01 Z-1.5000 F254.00 
G01 Z2.000000
(R2.0000  P1.000000)
(G00 Z2.000000)
G00 X43.1800 Y55.8800 
G01 Z-1.500000
G01 Z2.000000
M05
G00 Z15.0000 
M06 T02  ; 3.3020 
G01 Z0.0000 F254.00 
M06 T02  ; 3.3020 
G00 Z2.0000 
M03
G04 P1.000000
G00 Z2.000000
G00 X10.1600 Y26.9240 
G01 Z-1.5000 F254.00 
G01 Z2.000000
(R2.0000  P1.000000)
M05
G00 Z15.0000 
M06 T03  ; 0.8128 
G01 Z0.0000 F254.00 
M06 T03  ; 0.8128 
G00 Z2.0000 
M03
G04 P1.000000
G00 Z2.000000
G00 X3.8100 Y6.3500 
G01 Z-1.5000 F254.00 
G01 Z2.000000
(R2.0000  P1.000000)
(G00 Z2.000000)
G00 X3.8100 Y13.9700 
G01 Z-1.500000
G01 Z2.000000
(G00 Z2.000000)
G00 X6.3500 Y6.3500 
G01 Z-1.500000
G01 Z2.000000
(G00 Z2.000000)
G00 X6.3500 Y13.9700 
G01 Z-1.500000
G01 Z2.000000
(G00 Z2.000000)
G00 X8.8900 Y6.3500 
G01 Z-1.500000
G01 Z2.000000
(G00 Z2.000000)
G00 X8.8900 Y13.9700 
G01 Z-1.500000
G01 Z2.000000
(G00 Z2.000000)
G00 X11.4300 Y6.3500 
G01 Z-1.500000
G01 Z2.000000
(G00 Z2.000000)
G00 X11.4300 Y13.9700 
G01 Z-1.500000
G01 Z2.000000
(G00 Z2.000000)
G00 X13.9700 Y6.3500 
G01 Z-1.500000
G01 Z2.000000
(G00 Z2.000000)
G00 X13.9700 Y13.9700 
G01 Z-1.500000
G01 Z2.000000
(G00 Z2.000000)
G00 X16.5100 Y6.3500 
G01 Z-1.500000
G01 Z2.000000
(G00 Z2.000000)
G00 X16.5100 Y13.9700 
G01 Z-1.500000
G01 Z2.000000
(G00 Z2.000000)
G00 X19.0500 Y6.3500 
G01 Z-1.500000
G01 Z2.000000
(G00 Z2.000000)
G00 X19.0500 Y13.9700 
G01 Z-1.500000
G01 Z2.000000
(G00 Z2.000000)
G00 X21.5900 Y6.3500 
G01 Z-1.500000
G01 Z2.000000
(G00 Z2.000000)
G00 X21.5900 Y13.9700 
G01 Z-1.500000
G01 Z2.000000
(G00 Z2.000000)
G00 X24.1300 Y6.3500 
G01 Z-1.500000
G01 Z2.000000
(G00 Z2.000000)
G00 X24.1300 Y13.9700 
G01 Z-1.500000
G01 Z2.000000
(G00 Z2.000000)
G00 X26.6700 Y6.3500 
G01 Z-1.500000
G01 Z2.000000
(G00 Z2.000000)
G00 X26.6700 Y13.9700 
G01 Z-1.500000
G01 Z2.000000
M05
G00 Z15.0000 
M06 T04  ; 1.0160 
G01 Z0.0000 F254.00 
M06 T04  ; 1.0160 
G00 Z2.0000 
M03
G04 P1.000000
G00 Z2.000000
G00 X34.2900 Y40.6400 
G01 Z-1.5000 F254.00 
G01 Z2.000000
(R2.0000  P1.000000)
(G00 Z2.000000)
G00 X34.2900 Y43.1800 
G01 Z-1.500000
G01 Z2.000000
(G00 Z2.000000)
G00 X36.8300 Y31.7500 
G01 Z-1.500000
G01 Z2.000000
(G00 Z2.000000)
G00 X36.8300 Y34.2900 
G01 Z-1.500000
G01 Z2.000000
(G00 Z2.000000)
G00 X36.8300 Y36.8300 
G01 Z-1.500000
G01 Z2.000000
(G00 Z2.000000)
G00 X36.8300 Y39.3700 
G01 Z-1.500000
G01 Z2.000000
(G00 Z2.000000)
G00 X36.8300 Y41.9100 
G01 Z-1.500000
G01 Z2.000000
(G00 Z2.000000)
G00 X36.8300 Y44.4500 
G01 Z-1.500000
G01 Z2.000000
(G00 Z2.000000)
G00 X36.8300 Y46.9900 
G01 Z-1.500000
G01 Z2.000000
(G00 Z2.000000)
G00 X36.8300 Y49.5300 
G01 Z-1.500000
G01 Z2.000000
(G00 Z2.000000)
G00 X36.8300 Y52.0700 
G01 Z-1.500000
G01 Z2.000000
(G00 Z2.000000)
G00 X36.8300 Y24.1300 
G01 Z-1.500000
G01 Z2.000000
(G00 Z2.000000)
G00 X36.8300 Y26.6700 
G01 Z-1.500000
G01 Z2.000000
(G00 Z2.000000)
G00 X36.8300 Y29.2100 
G01 Z-1.500000
G01 Z2.000000
(G00 Z2.000000)
G00 X43.1800 Y31.7500 
G01 Z-1.500000
G01 Z2.000000
(G00 Z2.000000)
G00 X43.1800 Y34.2900 
G01 Z-1.500000
G01 Z2.000000
(G00 Z2.000000)
G00 X43.1800 Y36.8300 
G01 Z-1.500000
G01 Z2.000000
(G00 Z2.000000)
G00 X43.1800 Y39.3700 
G01 Z-1.500000
G01 Z2.000000
(G00 Z2.000000)
G00 X43.1800 Y41.9100 
G01 Z-1.500000
G01 Z2.000000
(G00 Z2.000000)
G00 X43.1800 Y44.4500 
G01 Z-1.500000
G01 Z2.000000
(G00 Z2.000000)
G00 X43.1800 Y46.9900 
G01 Z-1.500000
G01 Z2.000000
(G00 Z2.000000)
G00 X43.1800 Y49.5300 
G01 Z-1.500000
G01 Z2.000000
(G00 Z2.000000)
G00 X7.6200 Y41.9100 
G01 Z-1.500000
G01 Z2.000000
(G00 Z2.000000)
G00 X10.1600 Y41.9100 
G01 Z-1.500000
G01 Z2.000000
(G00 Z2.000000)
G00 X12.7000 Y41.9100 
G01 Z-1.500000
G01 Z2.000000
(G00 Z2.000000)
G00 X12.9794 Y52.6288 
G01 Z-1.500000
G01 Z2.000000
(G00 Z2.000000)
G00 X12.9794 Y59.1312 
G01 Z-1.500000
G01 Z2.000000
(G00 Z2.000000)
G00 X17.5006 Y52.6288 
G01 Z-1.500000
G01 Z2.000000
(G00 Z2.000000)
G00 X17.5006 Y59.1312 
G01 Z-1.500000
G01 Z2.000000
(G00 Z2.000000)
G00 X21.5900 Y31.7500 
G01 Z-1.500000
G01 Z2.000000
(G00 Z2.000000)
G00 X21.5900 Y34.2900 
G01 Z-1.500000
G01 Z2.000000
(G00 Z2.000000)
G00 X21.5900 Y36.8300 
G01 Z-1.500000
G01 Z2.000000
(G00 Z2.000000)
G00 X21.5900 Y39.3700 
G01 Z-1.500000
G01 Z2.000000
(G00 Z2.000000)
G00 X21.5900 Y41.9100 
G01 Z-1.500000
G01 Z2.000000
(G00 Z2.000000)
G00 X21.5900 Y44.4500 
G01 Z-1.500000
G01 Z2.000000
(G00 Z2.000000)
G00 X21.5900 Y46.9900 
G01 Z-1.500000
G01 Z2.000000
(G00 Z2.000000)
G00 X21.5900 Y49.5300 
G01 Z-1.500000
G01 Z2.000000
(G00 Z2.000000)
G00 X21.5900 Y52.0700 
G01 Z-1.500000
G01 Z2.000000
(G00 Z2.000000)
G00 X21.5900 Y24.1300 
G01 Z-1.500000
G01 Z2.000000
(G00 Z2.000000)
G00 X21.5900 Y26.6700 
G01 Z-1.500000
G01 Z2.000000
(G00 Z2.000000)
G00 X21.5900 Y29.2100 
G01 Z-1.500000
G01 Z2.000000
M05
G00 Z15.0000 
M06 T05  ; 1.1176 
G01 Z0.0000 F254.00 
M06 T05  ; 1.1176 
G00 Z2.0000 
M03
G04 P1.000000
G00 Z2.000000
G00 X5.0800 Y58.4200 
G01 Z-1.5000 F254.00 
G01 Z2.000000
(R2.0000  P1.000000)
(G00 Z2.000000)
G00 X8.8900 Y58.4200 
G01 Z-1.500000
G01 Z2.000000
(G00 Z2.000000)
G00 X1.2700 Y58.4200 
G01 Z-1.500000
G01 Z2.000000
M05
G00 Z15.0000 
M06 T06  ; 1.6764 
G01 Z0.0000 F254.00 
M06 T06  ; 1.6764 
G00 Z2.0000 
M03
G04 P1.000000
G00 Z2.000000
G00 X33.5788 Y5.0800 
G01 Z-1.5000 F254.00 
G01 Z2.000000
(R2.0000  P1.000000)
(G00 Z2.000000)
G00 X37.5412 Y5.0800 
G01 Z-1.500000
G01 Z2.000000
(G00 Z2.000000)
G00 X25.9588 Y58.4200 
G01 Z-1.500000
G01 Z2.000000
(G00 Z2.000000)
G00 X29.9212 Y58.4200 
G01 Z-1.500000
G01 Z2.000000
T01 
G00 Z15.0000 
M05
M02
