(.../pcb-gcode-3.6.0.4/pcb-gcode.ulp)
(Copyright 2005 - 2012 by John Johnson)
(See readme.txt for licensing terms.)
(This file generated from the board:)
(.../eagle/eagle/SulaMatik/SulaMatik.brd)
(Current profile is .../pcb-gcode-3.6.0.4/profiles/emc.pp  )
(This file generated 7/15/2014 10:03:21 PM)
(Settings from pcb-machine.h)
(  Tool Size)
(0.1000 )
(Z Axis Settings)
(  High     Up        Down     Drill)
(19.5000 	2.0000 	-0.0250 	-1.5000 )
(spindle on time = 1.0000)
(milling depth = -0.0500)
(text depth = -0.0500)
(tool change at 15.0000 15.0000 19.0000 )
(feed rate xy = F508.00 )
(feed rate z  = F254.00 )
(Settings from pcb-defaults.h)
(isolate min = 0.0500)
(isolate max = 1.0000)
(isolate step = 0.1000)
(Generated top outlines, top drill, bottom outlines, bottom drill, )
(Unit of measure: mm)
(Metric Mode)
G21
(Absolute Coordinates)
G90
G00 X0.0000 Y0.0000 
M03
G04 P1.000000
G00 Z2.0000 
G00 X-21.3165 Y15.7314 
G01 Z-0.0250 F254.00 
G01 X-21.1283 Y15.5432 F508.00 
G01 X-20.2440 Y15.5432 
G01 X-20.2440 Y15.9196 
G01 X-21.1283 Y15.9196 
G01 X-21.3165 Y15.7314 
G00 Z2.0000 
G00 X-16.6389 Y15.7314 
G01 Z-0.0250 F254.00 
G01 X-16.4507 Y15.5432 F508.00 
G01 X-15.5664 Y15.5432 
G01 X-15.5664 Y15.9196 
G01 X-16.4507 Y15.9196 
G01 X-16.6389 Y15.7314 
G00 Z2.0000 
G00 X-44.8173 Y6.7072 
G01 Z-0.0250 F254.00 
G01 X-46.6227 Y6.7072 F508.00 
G01 X-46.7991 Y6.7423 
G01 X-46.9652 Y6.8111 
G01 X-47.1147 Y6.9110 
G01 X-47.2418 Y7.0381 
G01 X-47.3417 Y7.1876 
G01 X-47.4105 Y7.3537 
G01 X-47.4456 Y7.5301 
G01 X-47.4456 Y7.7099 
G01 X-47.4105 Y7.8863 
G01 X-47.3417 Y8.0524 
G01 X-47.2418 Y8.2019 
G01 X-47.1147 Y8.3290 
G01 X-46.9652 Y8.4289 
G01 X-46.7991 Y8.4977 
G01 X-46.6227 Y8.5328 
G01 X-44.8173 Y8.5328 
G01 X-44.6409 Y8.4977 
G01 X-44.4748 Y8.4289 
G01 X-44.3253 Y8.3290 
G01 X-44.1982 Y8.2019 
G01 X-44.0983 Y8.0524 
G01 X-44.0295 Y7.8863 
G01 X-43.9944 Y7.7099 
G01 X-43.9944 Y7.5301 
G01 X-44.0295 Y7.3537 
G01 X-44.0983 Y7.1876 
G01 X-44.1982 Y7.0381 
G01 X-44.3253 Y6.9110 
G01 X-44.4748 Y6.8111 
G01 X-44.6409 Y6.7423 
G01 X-44.8173 Y6.7072 
G00 Z2.0000 
G00 X-44.8173 Y1.6272 
G01 Z-0.0250 F254.00 
G01 X-46.6227 Y1.6272 F508.00 
G01 X-46.7991 Y1.6623 
G01 X-46.9652 Y1.7311 
G01 X-47.1147 Y1.8310 
G01 X-47.2418 Y1.9581 
G01 X-47.3417 Y2.1076 
G01 X-47.4105 Y2.2737 
G01 X-47.4456 Y2.4501 
G01 X-47.4456 Y2.6299 
G01 X-47.4105 Y2.8063 
G01 X-47.3417 Y2.9724 
G01 X-47.2418 Y3.1219 
G01 X-47.1147 Y3.2490 
G01 X-46.9652 Y3.3489 
G01 X-46.7991 Y3.4177 
G01 X-46.6227 Y3.4528 
G01 X-44.8173 Y3.4528 
G01 X-44.6409 Y3.4177 
G01 X-44.4748 Y3.3489 
G01 X-44.3253 Y3.2490 
G01 X-44.1982 Y3.1219 
G01 X-44.0983 Y2.9724 
G01 X-44.0295 Y2.8063 
G01 X-43.9944 Y2.6299 
G01 X-43.9944 Y2.4501 
G01 X-44.0295 Y2.2737 
G01 X-44.0983 Y2.1076 
G01 X-44.1982 Y1.9581 
G01 X-44.3253 Y1.8310 
G01 X-44.4748 Y1.7311 
G01 X-44.6409 Y1.6623 
G01 X-44.8173 Y1.6272 
G00 Z2.0000 
G00 X-39.7272 Y4.1773 
G01 Z-0.0250 F254.00 
G01 X-39.7623 Y4.0009 F508.00 
G01 X-39.8311 Y3.8348 
G01 X-39.9310 Y3.6853 
G01 X-40.0581 Y3.5582 
G01 X-40.2076 Y3.4583 
G01 X-40.3737 Y3.3895 
G01 X-40.5501 Y3.3544 
G01 X-40.7299 Y3.3544 
G01 X-40.9063 Y3.3895 
G01 X-41.0724 Y3.4583 
G01 X-41.2219 Y3.5582 
G01 X-41.3490 Y3.6853 
G01 X-41.4489 Y3.8348 
G01 X-41.5177 Y4.0009 
G01 X-41.5528 Y4.1773 
G01 X-41.5528 Y5.9827 
G01 X-41.5177 Y6.1591 
G01 X-41.4489 Y6.3252 
G01 X-41.3490 Y6.4747 
G01 X-41.2219 Y6.6018 
G01 X-41.0724 Y6.7017 
G01 X-40.9063 Y6.7705 
G01 X-40.7299 Y6.8056 
G01 X-40.5501 Y6.8056 
G01 X-40.3737 Y6.7705 
G01 X-40.2076 Y6.7017 
G01 X-40.0581 Y6.6018 
G01 X-39.9310 Y6.4747 
G01 X-39.8311 Y6.3252 
G01 X-39.8157 Y6.2879 
G01 X-37.9619 Y8.1416 
G01 X-37.8916 Y8.2119 
G01 X-37.7997 Y8.2500 
G01 X-33.9503 Y8.2500 
G01 X-33.8584 Y8.2119 
G01 X-32.3477 Y6.7012 
G01 X-32.2967 Y6.8583 
G01 X-32.1997 Y7.0487 
G01 X-32.0741 Y7.2215 
G01 X-31.9230 Y7.3726 
G01 X-31.7502 Y7.4982 
G01 X-31.5598 Y7.5952 
G01 X-31.3566 Y7.6612 
G01 X-31.1456 Y7.6946 
G01 X-30.9320 Y7.6946 
G01 X-30.7210 Y7.6612 
G01 X-30.5178 Y7.5952 
G01 X-30.3274 Y7.4982 
G01 X-30.1546 Y7.3726 
G01 X-30.0035 Y7.2215 
G01 X-29.8779 Y7.0487 
G01 X-29.7809 Y6.8583 
G01 X-29.7149 Y6.6551 
G01 X-29.6815 Y6.4441 
G01 X-29.6815 Y3.7159 
G01 X-29.7149 Y3.5049 
G01 X-29.7809 Y3.3017 
G01 X-29.8779 Y3.1113 
G01 X-30.0035 Y2.9385 
G01 X-30.1546 Y2.7874 
G01 X-30.3274 Y2.6618 
G01 X-30.5178 Y2.5648 
G01 X-30.7210 Y2.4988 
G01 X-30.9320 Y2.4654 
G01 X-31.1456 Y2.4654 
G01 X-31.3566 Y2.4988 
G01 X-31.5598 Y2.5648 
G01 X-31.7502 Y2.6618 
G01 X-31.9230 Y2.7874 
G01 X-32.0741 Y2.9385 
G01 X-32.1997 Y3.1113 
G01 X-32.2967 Y3.3017 
G01 X-32.3627 Y3.5049 
G01 X-32.3961 Y3.7159 
G01 X-32.3961 Y6.0425 
G01 X-34.1036 Y7.7500 
G01 X-37.6464 Y7.7500 
G01 X-39.7272 Y5.6692 
G01 X-39.7272 Y4.1773 
G00 Z2.0000 
G00 X-47.0841 Y18.5785 
G01 Z-0.0250 F254.00 
G01 X-44.3559 Y18.5785 F508.00 
G01 X-44.1449 Y18.5451 
G01 X-43.9417 Y18.4791 
G01 X-43.7513 Y18.3821 
G01 X-43.5785 Y18.2565 
G01 X-43.4274 Y18.1054 
G01 X-43.3018 Y17.9326 
G01 X-43.2048 Y17.7422 
G01 X-43.1388 Y17.5390 
G01 X-43.1054 Y17.3280 
G01 X-43.1054 Y17.1144 
G01 X-43.1388 Y16.9034 
G01 X-43.2048 Y16.7002 
G01 X-43.3018 Y16.5098 
G01 X-43.4274 Y16.3370 
G01 X-43.5785 Y16.1859 
G01 X-43.7513 Y16.0603 
G01 X-43.9417 Y15.9633 
G01 X-44.1449 Y15.8973 
G01 X-44.3559 Y15.8639 
G01 X-47.0841 Y15.8639 
G01 X-47.2951 Y15.8973 
G01 X-47.4983 Y15.9633 
G01 X-47.6887 Y16.0603 
G01 X-47.8615 Y16.1859 
G01 X-48.0126 Y16.3370 
G01 X-48.1382 Y16.5098 
G01 X-48.2352 Y16.7002 
G01 X-48.3012 Y16.9034 
G01 X-48.3346 Y17.1144 
G01 X-48.3346 Y17.3280 
G01 X-48.3012 Y17.5390 
G01 X-48.2352 Y17.7422 
G01 X-48.1382 Y17.9326 
G01 X-48.0126 Y18.1054 
G01 X-47.8615 Y18.2565 
G01 X-47.6887 Y18.3821 
G01 X-47.4983 Y18.4791 
G01 X-47.2951 Y18.5451 
G01 X-47.0841 Y18.5785 
G00 Z2.0000 
G00 X-43.1400 Y25.3212 
G01 Z-0.0250 F254.00 
G01 X-43.1400 Y25.4788 F508.00 
G01 X-43.1093 Y25.6334 
G01 X-43.0489 Y25.7789 
G01 X-42.9614 Y25.9100 
G01 X-42.8500 Y26.0214 
G01 X-42.7189 Y26.1089 
G01 X-42.5734 Y26.1693 
G01 X-42.4188 Y26.2000 
G01 X-42.2612 Y26.2000 
G01 X-42.1066 Y26.1693 
G01 X-41.9611 Y26.1089 
G01 X-41.8300 Y26.0214 
G01 X-41.7186 Y25.9100 
G01 X-41.6311 Y25.7789 
G01 X-41.5707 Y25.6334 
G01 X-41.5400 Y25.4788 
G01 X-41.5400 Y25.3212 
G01 X-41.5707 Y25.1666 
G01 X-41.6311 Y25.0211 
G01 X-41.7186 Y24.8900 
G01 X-41.8300 Y24.7786 
G01 X-41.9611 Y24.6911 
G01 X-42.1066 Y24.6307 
G01 X-42.2612 Y24.6000 
G01 X-42.4188 Y24.6000 
G01 X-42.5734 Y24.6307 
G01 X-42.7189 Y24.6911 
G01 X-42.8500 Y24.7786 
G01 X-42.9614 Y24.8900 
G01 X-43.0489 Y25.0211 
G01 X-43.1093 Y25.1666 
G01 X-43.1400 Y25.3212 
G00 Z2.0000 
G00 X-39.7400 Y25.3212 
G01 Z-0.0250 F254.00 
G01 X-39.7400 Y25.4788 F508.00 
G01 X-39.7093 Y25.6334 
G01 X-39.6489 Y25.7789 
G01 X-39.6424 Y25.7888 
G01 X-43.0347 Y29.1811 
G01 X-43.0727 Y29.1654 
G01 X-43.1901 Y29.1420 
G01 X-43.3099 Y29.1420 
G01 X-43.4273 Y29.1654 
G01 X-43.5380 Y29.2112 
G01 X-43.6376 Y29.2777 
G01 X-43.7223 Y29.3624 
G01 X-43.7888 Y29.4620 
G01 X-43.8346 Y29.5727 
G01 X-43.8580 Y29.6901 
G01 X-43.8580 Y29.8099 
G01 X-43.8346 Y29.9273 
G01 X-43.7888 Y30.0380 
G01 X-43.7223 Y30.1376 
G01 X-43.6376 Y30.2223 
G01 X-43.5380 Y30.2888 
G01 X-43.4273 Y30.3346 
G01 X-43.3099 Y30.3580 
G01 X-43.1901 Y30.3580 
G01 X-43.0727 Y30.3346 
G01 X-42.9620 Y30.2888 
G01 X-42.8624 Y30.2223 
G01 X-42.7777 Y30.1376 
G01 X-42.7112 Y30.0380 
G01 X-42.6654 Y29.9273 
G01 X-42.6420 Y29.8099 
G01 X-42.6420 Y29.6901 
G01 X-42.6654 Y29.5727 
G01 X-42.6811 Y29.5347 
G01 X-39.2740 Y26.1276 
G01 X-39.1733 Y26.1693 
G01 X-39.0188 Y26.2000 
G01 X-38.8612 Y26.2000 
G01 X-38.7066 Y26.1693 
G01 X-38.5611 Y26.1089 
G01 X-38.4300 Y26.0214 
G01 X-38.3186 Y25.9100 
G01 X-38.2311 Y25.7789 
G01 X-38.1707 Y25.6334 
G01 X-38.1400 Y25.4788 
G01 X-38.1400 Y25.3212 
G01 X-38.1707 Y25.1666 
G01 X-38.2311 Y25.0211 
G01 X-38.3186 Y24.8900 
G01 X-38.4300 Y24.7786 
G01 X-38.5611 Y24.6911 
G01 X-38.7066 Y24.6307 
G01 X-38.8612 Y24.6000 
G01 X-39.0188 Y24.6000 
G01 X-39.1733 Y24.6307 
G01 X-39.3189 Y24.6911 
G01 X-39.4500 Y24.7786 
G01 X-39.5614 Y24.8900 
G01 X-39.6489 Y25.0211 
G01 X-39.7093 Y25.1666 
G01 X-39.7400 Y25.3212 
G00 Z2.0000 
G00 X-41.0988 Y33.8111 
G01 Z-0.0250 F254.00 
G01 X-41.0988 Y32.2289 F508.00 
G01 X-41.1300 Y32.0722 
G01 X-41.1911 Y31.9245 
G01 X-41.2799 Y31.7917 
G01 X-41.3929 Y31.6787 
G01 X-41.5258 Y31.5899 
G01 X-41.6734 Y31.5288 
G01 X-41.8301 Y31.4976 
G01 X-41.9899 Y31.4976 
G01 X-42.1466 Y31.5288 
G01 X-42.2942 Y31.5899 
G01 X-42.4271 Y31.6787 
G01 X-42.5401 Y31.7917 
G01 X-42.6289 Y31.9245 
G01 X-42.6900 Y32.0722 
G01 X-42.7212 Y32.2289 
G01 X-42.7212 Y33.8111 
G01 X-42.6900 Y33.9678 
G01 X-42.6289 Y34.1154 
G01 X-42.5401 Y34.2483 
G01 X-42.4271 Y34.3613 
G01 X-42.2942 Y34.4501 
G01 X-42.1466 Y34.5112 
G01 X-41.9899 Y34.5424 
G01 X-41.8301 Y34.5424 
G01 X-41.6734 Y34.5112 
G01 X-41.5258 Y34.4501 
G01 X-41.3929 Y34.3613 
G01 X-41.2799 Y34.2483 
G01 X-41.1911 Y34.1154 
G01 X-41.1300 Y33.9678 
G01 X-41.0988 Y33.8111 
G00 Z2.0000 
G00 X-39.7373 Y40.9972 
G01 Z-0.0250 F254.00 
G01 X-41.5427 Y40.9972 F508.00 
G01 X-41.7191 Y41.0323 
G01 X-41.8852 Y41.1011 
G01 X-42.0347 Y41.2010 
G01 X-42.1618 Y41.3281 
G01 X-42.2617 Y41.4776 
G01 X-42.3305 Y41.6437 
G01 X-42.3656 Y41.8201 
G01 X-42.3656 Y41.9999 
G01 X-42.3305 Y42.1763 
G01 X-42.2617 Y42.3424 
G01 X-42.1618 Y42.4919 
G01 X-42.0347 Y42.6190 
G01 X-41.8852 Y42.7189 
G01 X-41.7191 Y42.7877 
G01 X-41.5427 Y42.8228 
G01 X-39.7373 Y42.8228 
G01 X-39.5609 Y42.7877 
G01 X-39.3948 Y42.7189 
G01 X-39.2453 Y42.6190 
G01 X-39.1182 Y42.4919 
G01 X-39.0183 Y42.3424 
G01 X-38.9495 Y42.1763 
G01 X-38.9144 Y41.9999 
G01 X-38.9144 Y41.8201 
G01 X-38.9495 Y41.6437 
G01 X-39.0183 Y41.4776 
G01 X-39.1182 Y41.3281 
G01 X-39.2453 Y41.2010 
G01 X-39.3948 Y41.1011 
G01 X-39.5609 Y41.0323 
G01 X-39.7373 Y40.9972 
G00 Z2.0000 
G00 X-39.7373 Y38.4572 
G01 Z-0.0250 F254.00 
G01 X-41.5427 Y38.4572 F508.00 
G01 X-41.7191 Y38.4923 
G01 X-41.8852 Y38.5611 
G01 X-42.0347 Y38.6610 
G01 X-42.1618 Y38.7881 
G01 X-42.2617 Y38.9376 
G01 X-42.3305 Y39.1037 
G01 X-42.3656 Y39.2801 
G01 X-42.3656 Y39.4599 
G01 X-42.3305 Y39.6363 
G01 X-42.2617 Y39.8024 
G01 X-42.1618 Y39.9519 
G01 X-42.0347 Y40.0790 
G01 X-41.8852 Y40.1789 
G01 X-41.7191 Y40.2477 
G01 X-41.5427 Y40.2828 
G01 X-39.7373 Y40.2828 
G01 X-39.5609 Y40.2477 
G01 X-39.3948 Y40.1789 
G01 X-39.2453 Y40.0790 
G01 X-39.1182 Y39.9519 
G01 X-39.0183 Y39.8024 
G01 X-38.9495 Y39.6363 
G01 X-38.9144 Y39.4599 
G01 X-38.9144 Y39.2801 
G01 X-38.9495 Y39.1037 
G01 X-39.0183 Y38.9376 
G01 X-39.1182 Y38.7881 
G01 X-39.2453 Y38.6610 
G01 X-39.3948 Y38.5611 
G01 X-39.5609 Y38.4923 
G01 X-39.7373 Y38.4572 
G00 Z2.0000 
G00 X-44.5441 Y59.2185 
G01 Z-0.0250 F254.00 
G01 X-41.8159 Y59.2185 F508.00 
G01 X-41.6049 Y59.1851 
G01 X-41.4017 Y59.1191 
G01 X-41.2113 Y59.0221 
G01 X-41.0385 Y58.8965 
G01 X-40.8874 Y58.7454 
G01 X-40.7618 Y58.5726 
G01 X-40.6648 Y58.3822 
G01 X-40.5988 Y58.1790 
G01 X-40.5654 Y57.9680 
G01 X-40.5654 Y57.7544 
G01 X-40.5988 Y57.5434 
G01 X-40.6648 Y57.3402 
G01 X-40.7618 Y57.1498 
G01 X-40.8874 Y56.9770 
G01 X-41.0385 Y56.8259 
G01 X-41.2113 Y56.7003 
G01 X-41.4017 Y56.6033 
G01 X-41.6049 Y56.5373 
G01 X-41.8159 Y56.5039 
G01 X-44.5441 Y56.5039 
G01 X-44.7551 Y56.5373 
G01 X-44.9583 Y56.6033 
G01 X-45.1487 Y56.7003 
G01 X-45.3215 Y56.8259 
G01 X-45.4726 Y56.9770 
G01 X-45.5982 Y57.1498 
G01 X-45.6952 Y57.3402 
G01 X-45.7612 Y57.5434 
G01 X-45.7946 Y57.7544 
G01 X-45.7946 Y57.9680 
G01 X-45.7612 Y58.1790 
G01 X-45.6952 Y58.3822 
G01 X-45.5982 Y58.5726 
G01 X-45.4726 Y58.7454 
G01 X-45.3215 Y58.8965 
G01 X-45.1487 Y59.0221 
G01 X-44.9583 Y59.1191 
G01 X-44.7551 Y59.1851 
G01 X-44.5441 Y59.2185 
G00 Z2.0000 
G00 X-44.5441 Y55.2561 
G01 Z-0.0250 F254.00 
G01 X-41.8159 Y55.2561 F508.00 
G01 X-41.6049 Y55.2227 
G01 X-41.4017 Y55.1567 
G01 X-41.2113 Y55.0597 
G01 X-41.0385 Y54.9341 
G01 X-40.8874 Y54.7830 
G01 X-40.7618 Y54.6102 
G01 X-40.6648 Y54.4198 
G01 X-40.5988 Y54.2166 
G01 X-40.5654 Y54.0056 
G01 X-40.5654 Y53.7920 
G01 X-40.5988 Y53.5810 
G01 X-40.6648 Y53.3778 
G01 X-40.7618 Y53.1874 
G01 X-40.8874 Y53.0146 
G01 X-41.0385 Y52.8635 
G01 X-41.2113 Y52.7379 
G01 X-41.4017 Y52.6409 
G01 X-41.6049 Y52.5749 
G01 X-41.8159 Y52.5415 
G01 X-44.5441 Y52.5415 
G01 X-44.7551 Y52.5749 
G01 X-44.9583 Y52.6409 
G01 X-45.1487 Y52.7379 
G01 X-45.3215 Y52.8635 
G01 X-45.4726 Y53.0146 
G01 X-45.5982 Y53.1874 
G01 X-45.6952 Y53.3778 
G01 X-45.7612 Y53.5810 
G01 X-45.7946 Y53.7920 
G01 X-45.7946 Y54.0056 
G01 X-45.7612 Y54.2166 
G01 X-45.6952 Y54.4198 
G01 X-45.5982 Y54.6102 
G01 X-45.4726 Y54.7830 
G01 X-45.3215 Y54.9341 
G01 X-45.1487 Y55.0597 
G01 X-44.9583 Y55.1567 
G01 X-44.7551 Y55.2227 
G01 X-44.5441 Y55.2561 
G00 Z2.0000 
G00 X-27.4812 Y3.0189 
G01 Z-0.0250 F254.00 
G01 X-27.4812 Y4.6011 F508.00 
G01 X-27.4500 Y4.7578 
G01 X-27.3889 Y4.9054 
G01 X-27.3001 Y5.0383 
G01 X-27.1871 Y5.1513 
G01 X-27.0542 Y5.2401 
G01 X-26.9066 Y5.3012 
G01 X-26.7499 Y5.3324 
G01 X-26.5901 Y5.3324 
G01 X-26.4334 Y5.3012 
G01 X-26.2858 Y5.2401 
G01 X-26.1529 Y5.1513 
G01 X-26.0399 Y5.0383 
G01 X-25.9511 Y4.9054 
G01 X-25.8900 Y4.7578 
G01 X-25.8588 Y4.6011 
G01 X-25.8588 Y3.0189 
G01 X-25.8900 Y2.8622 
G01 X-25.9511 Y2.7146 
G01 X-26.0399 Y2.5817 
G01 X-26.1529 Y2.4687 
G01 X-26.2858 Y2.3799 
G01 X-26.4334 Y2.3188 
G01 X-26.5901 Y2.2876 
G01 X-26.7499 Y2.2876 
G01 X-26.9066 Y2.3188 
G01 X-27.0542 Y2.3799 
G01 X-27.1871 Y2.4687 
G01 X-27.3001 Y2.5817 
G01 X-27.3889 Y2.7146 
G01 X-27.4500 Y2.8622 
G01 X-27.4812 Y3.0189 
G00 Z2.0000 
G00 X-24.9412 Y3.0189 
G01 Z-0.0250 F254.00 
G01 X-24.9412 Y4.6011 F508.00 
G01 X-24.9100 Y4.7578 
G01 X-24.8489 Y4.9054 
G01 X-24.7601 Y5.0383 
G01 X-24.6471 Y5.1513 
G01 X-24.5142 Y5.2401 
G01 X-24.3666 Y5.3012 
G01 X-24.2099 Y5.3324 
G01 X-24.0501 Y5.3324 
G01 X-23.8934 Y5.3012 
G01 X-23.7458 Y5.2401 
G01 X-23.6129 Y5.1513 
G01 X-23.4999 Y5.0383 
G01 X-23.4111 Y4.9054 
G01 X-23.3500 Y4.7578 
G01 X-23.3188 Y4.6011 
G01 X-23.3188 Y3.0189 
G01 X-23.3500 Y2.8622 
G01 X-23.4111 Y2.7146 
G01 X-23.4999 Y2.5817 
G01 X-23.6129 Y2.4687 
G01 X-23.7458 Y2.3799 
G01 X-23.8934 Y2.3188 
G01 X-24.0501 Y2.2876 
G01 X-24.2099 Y2.2876 
G01 X-24.3666 Y2.3188 
G01 X-24.5142 Y2.3799 
G01 X-24.6471 Y2.4687 
G01 X-24.7601 Y2.5817 
G01 X-24.8489 Y2.7146 
G01 X-24.9100 Y2.8622 
G01 X-24.9412 Y3.0189 
G00 Z2.0000 
G00 X-22.4012 Y3.0189 
G01 Z-0.0250 F254.00 
G01 X-22.4012 Y4.6011 F508.00 
G01 X-22.3700 Y4.7578 
G01 X-22.3089 Y4.9054 
G01 X-22.2201 Y5.0383 
G01 X-22.1071 Y5.1513 
G01 X-21.9742 Y5.2401 
G01 X-21.8266 Y5.3012 
G01 X-21.6699 Y5.3324 
G01 X-21.5101 Y5.3324 
G01 X-21.3534 Y5.3012 
G01 X-21.2058 Y5.2401 
G01 X-21.0729 Y5.1513 
G01 X-20.9599 Y5.0383 
G01 X-20.8711 Y4.9054 
G01 X-20.8100 Y4.7578 
G01 X-20.7788 Y4.6011 
G01 X-20.7788 Y3.0189 
G01 X-20.8100 Y2.8622 
G01 X-20.8711 Y2.7146 
G01 X-20.9599 Y2.5817 
G01 X-21.0729 Y2.4687 
G01 X-21.2058 Y2.3799 
G01 X-21.3534 Y2.3188 
G01 X-21.5101 Y2.2876 
G01 X-21.6699 Y2.2876 
G01 X-21.8266 Y2.3188 
G01 X-21.9742 Y2.3799 
G01 X-22.1071 Y2.4687 
G01 X-22.2201 Y2.5817 
G01 X-22.3089 Y2.7146 
G01 X-22.3700 Y2.8622 
G01 X-22.4012 Y3.0189 
G00 Z2.0000 
G00 X-19.8612 Y3.0189 
G01 Z-0.0250 F254.00 
G01 X-19.8612 Y4.6011 F508.00 
G01 X-19.8300 Y4.7578 
G01 X-19.7689 Y4.9054 
G01 X-19.6801 Y5.0383 
G01 X-19.5671 Y5.1513 
G01 X-19.4342 Y5.2401 
G01 X-19.2866 Y5.3012 
G01 X-19.1299 Y5.3324 
G01 X-18.9701 Y5.3324 
G01 X-18.8134 Y5.3012 
G01 X-18.6657 Y5.2401 
G01 X-18.5329 Y5.1513 
G01 X-18.4199 Y5.0383 
G01 X-18.3311 Y4.9054 
G01 X-18.2700 Y4.7578 
G01 X-18.2388 Y4.6011 
G01 X-18.2388 Y3.0189 
G01 X-18.2700 Y2.8622 
G01 X-18.3311 Y2.7146 
G01 X-18.4199 Y2.5817 
G01 X-18.5329 Y2.4687 
G01 X-18.6657 Y2.3799 
G01 X-18.8134 Y2.3188 
G01 X-18.9701 Y2.2876 
G01 X-19.1299 Y2.2876 
G01 X-19.2866 Y2.3188 
G01 X-19.4342 Y2.3799 
G01 X-19.5671 Y2.4687 
G01 X-19.6801 Y2.5817 
G01 X-19.7689 Y2.7146 
G01 X-19.8300 Y2.8622 
G01 X-19.8612 Y3.0189 
G00 Z2.0000 
G00 X-17.3212 Y3.0189 
G01 Z-0.0250 F254.00 
G01 X-17.3212 Y4.6011 F508.00 
G01 X-17.2900 Y4.7578 
G01 X-17.2289 Y4.9054 
G01 X-17.1401 Y5.0383 
G01 X-17.0271 Y5.1513 
G01 X-16.8942 Y5.2401 
G01 X-16.7466 Y5.3012 
G01 X-16.5899 Y5.3324 
G01 X-16.4301 Y5.3324 
G01 X-16.2734 Y5.3012 
G01 X-16.1258 Y5.2401 
G01 X-15.9929 Y5.1513 
G01 X-15.8799 Y5.0383 
G01 X-15.7911 Y4.9054 
G01 X-15.7300 Y4.7578 
G01 X-15.6988 Y4.6011 
G01 X-15.6988 Y3.0189 
G01 X-15.7300 Y2.8622 
G01 X-15.7911 Y2.7146 
G01 X-15.8799 Y2.5817 
G01 X-15.9929 Y2.4687 
G01 X-16.1258 Y2.3799 
G01 X-16.2734 Y2.3188 
G01 X-16.4301 Y2.2876 
G01 X-16.5899 Y2.2876 
G01 X-16.7466 Y2.3188 
G01 X-16.8942 Y2.3799 
G01 X-17.0271 Y2.4687 
G01 X-17.1401 Y2.5817 
G01 X-17.2289 Y2.7146 
G01 X-17.2900 Y2.8622 
G01 X-17.3212 Y3.0189 
G00 Z2.0000 
G00 X-14.7812 Y3.0189 
G01 Z-0.0250 F254.00 
G01 X-14.7812 Y4.6011 F508.00 
G01 X-14.7500 Y4.7578 
G01 X-14.6889 Y4.9054 
G01 X-14.6001 Y5.0383 
G01 X-14.4871 Y5.1513 
G01 X-14.3542 Y5.2401 
G01 X-14.2066 Y5.3012 
G01 X-14.0499 Y5.3324 
G01 X-13.8901 Y5.3324 
G01 X-13.7334 Y5.3012 
G01 X-13.5858 Y5.2401 
G01 X-13.4529 Y5.1513 
G01 X-13.3399 Y5.0383 
G01 X-13.2511 Y4.9054 
G01 X-13.1900 Y4.7578 
G01 X-13.1588 Y4.6011 
G01 X-13.1588 Y3.0189 
G01 X-13.1900 Y2.8622 
G01 X-13.2511 Y2.7146 
G01 X-13.3399 Y2.5817 
G01 X-13.4529 Y2.4687 
G01 X-13.5858 Y2.3799 
G01 X-13.7334 Y2.3188 
G01 X-13.8901 Y2.2876 
G01 X-14.0499 Y2.2876 
G01 X-14.2066 Y2.3188 
G01 X-14.3542 Y2.3799 
G01 X-14.4871 Y2.4687 
G01 X-14.6001 Y2.5817 
G01 X-14.6889 Y2.7146 
G01 X-14.7500 Y2.8622 
G01 X-14.7812 Y3.0189 
G00 Z2.0000 
G00 X-12.2412 Y3.0189 
G01 Z-0.0250 F254.00 
G01 X-12.2412 Y4.6011 F508.00 
G01 X-12.2100 Y4.7578 
G01 X-12.1489 Y4.9054 
G01 X-12.0601 Y5.0383 
G01 X-11.9471 Y5.1513 
G01 X-11.8142 Y5.2401 
G01 X-11.6666 Y5.3012 
G01 X-11.5099 Y5.3324 
G01 X-11.3501 Y5.3324 
G01 X-11.1934 Y5.3012 
G01 X-11.0457 Y5.2401 
G01 X-10.9129 Y5.1513 
G01 X-10.7999 Y5.0383 
G01 X-10.7111 Y4.9054 
G01 X-10.6500 Y4.7578 
G01 X-10.6188 Y4.6011 
G01 X-10.6188 Y3.0189 
G01 X-10.6500 Y2.8622 
G01 X-10.7111 Y2.7146 
G01 X-10.7999 Y2.5817 
G01 X-10.9129 Y2.4687 
G01 X-11.0457 Y2.3799 
G01 X-11.1934 Y2.3188 
G01 X-11.3501 Y2.2876 
G01 X-11.5099 Y2.2876 
G01 X-11.6666 Y2.3188 
G01 X-11.8142 Y2.3799 
G01 X-11.9471 Y2.4687 
G01 X-12.0601 Y2.5817 
G01 X-12.1489 Y2.7146 
G01 X-12.2100 Y2.8622 
G01 X-12.2412 Y3.0189 
G00 Z2.0000 
G00 X-9.7012 Y3.0189 
G01 Z-0.0250 F254.00 
G01 X-9.7012 Y4.6011 F508.00 
G01 X-9.6700 Y4.7578 
G01 X-9.6089 Y4.9054 
G01 X-9.5201 Y5.0383 
G01 X-9.4071 Y5.1513 
G01 X-9.2742 Y5.2401 
G01 X-9.1266 Y5.3012 
G01 X-8.9699 Y5.3324 
G01 X-8.8101 Y5.3324 
G01 X-8.6534 Y5.3012 
G01 X-8.5058 Y5.2401 
G01 X-8.3729 Y5.1513 
G01 X-8.2599 Y5.0383 
G01 X-8.1711 Y4.9054 
G01 X-8.1100 Y4.7578 
G01 X-8.0788 Y4.6011 
G01 X-8.0788 Y3.0189 
G01 X-8.1100 Y2.8622 
G01 X-8.1711 Y2.7146 
G01 X-8.2599 Y2.5817 
G01 X-8.3729 Y2.4687 
G01 X-8.5058 Y2.3799 
G01 X-8.6534 Y2.3188 
G01 X-8.8101 Y2.2876 
G01 X-8.9699 Y2.2876 
G01 X-9.1266 Y2.3188 
G01 X-9.2742 Y2.3799 
G01 X-9.4071 Y2.4687 
G01 X-9.5201 Y2.5817 
G01 X-9.6089 Y2.7146 
G01 X-9.6700 Y2.8622 
G01 X-9.7012 Y3.0189 
G00 Z2.0000 
G00 X-7.1612 Y3.0189 
G01 Z-0.0250 F254.00 
G01 X-7.1612 Y4.6011 F508.00 
G01 X-7.1300 Y4.7578 
G01 X-7.0689 Y4.9054 
G01 X-6.9801 Y5.0383 
G01 X-6.8671 Y5.1513 
G01 X-6.7342 Y5.2401 
G01 X-6.5866 Y5.3012 
G01 X-6.4299 Y5.3324 
G01 X-6.2701 Y5.3324 
G01 X-6.1134 Y5.3012 
G01 X-5.9657 Y5.2401 
G01 X-5.8329 Y5.1513 
G01 X-5.7199 Y5.0383 
G01 X-5.6311 Y4.9054 
G01 X-5.5700 Y4.7578 
G01 X-5.5388 Y4.6011 
G01 X-5.5388 Y3.0189 
G01 X-5.5700 Y2.8622 
G01 X-5.6311 Y2.7146 
G01 X-5.7199 Y2.5817 
G01 X-5.8329 Y2.4687 
G01 X-5.9657 Y2.3799 
G01 X-6.1134 Y2.3188 
G01 X-6.2701 Y2.2876 
G01 X-6.4299 Y2.2876 
G01 X-6.5866 Y2.3188 
G01 X-6.7342 Y2.3799 
G01 X-6.8671 Y2.4687 
G01 X-6.9801 Y2.5817 
G01 X-7.0689 Y2.7146 
G01 X-7.1300 Y2.8622 
G01 X-7.1612 Y3.0189 
G00 Z2.0000 
G00 X-4.6212 Y3.0189 
G01 Z-0.0250 F254.00 
G01 X-4.6212 Y4.6011 F508.00 
G01 X-4.5900 Y4.7578 
G01 X-4.5289 Y4.9054 
G01 X-4.4401 Y5.0383 
G01 X-4.3271 Y5.1513 
G01 X-4.1942 Y5.2401 
G01 X-4.0466 Y5.3012 
G01 X-3.8899 Y5.3324 
G01 X-3.7301 Y5.3324 
G01 X-3.5734 Y5.3012 
G01 X-3.4258 Y5.2401 
G01 X-3.2929 Y5.1513 
G01 X-3.1799 Y5.0383 
G01 X-3.0911 Y4.9054 
G01 X-3.0300 Y4.7578 
G01 X-2.9988 Y4.6011 
G01 X-2.9988 Y3.0189 
G01 X-3.0300 Y2.8622 
G01 X-3.0911 Y2.7146 
G01 X-3.1799 Y2.5817 
G01 X-3.2929 Y2.4687 
G01 X-3.4258 Y2.3799 
G01 X-3.5734 Y2.3188 
G01 X-3.7301 Y2.2876 
G01 X-3.8899 Y2.2876 
G01 X-4.0466 Y2.3188 
G01 X-4.1942 Y2.3799 
G01 X-4.3271 Y2.4687 
G01 X-4.4401 Y2.5817 
G01 X-4.5289 Y2.7146 
G01 X-4.5900 Y2.8622 
G01 X-4.6212 Y3.0189 
G00 Z2.0000 
G00 X-4.6212 Y10.6389 
G01 Z-0.0250 F254.00 
G01 X-4.6212 Y12.2211 F508.00 
G01 X-4.5900 Y12.3778 
G01 X-4.5289 Y12.5254 
G01 X-4.4401 Y12.6583 
G01 X-4.3271 Y12.7713 
G01 X-4.1942 Y12.8601 
G01 X-4.0466 Y12.9212 
G01 X-3.8899 Y12.9524 
G01 X-3.7301 Y12.9524 
G01 X-3.5734 Y12.9212 
G01 X-3.4258 Y12.8601 
G01 X-3.2929 Y12.7713 
G01 X-3.1799 Y12.6583 
G01 X-3.0911 Y12.5254 
G01 X-3.0300 Y12.3778 
G01 X-2.9988 Y12.2211 
G01 X-2.9988 Y10.6389 
G01 X-3.0300 Y10.4822 
G01 X-3.0911 Y10.3346 
G01 X-3.1799 Y10.2017 
G01 X-3.2929 Y10.0887 
G01 X-3.4258 Y9.9999 
G01 X-3.5734 Y9.9388 
G01 X-3.7301 Y9.9076 
G01 X-3.8899 Y9.9076 
G01 X-4.0466 Y9.9388 
G01 X-4.1942 Y9.9999 
G01 X-4.3271 Y10.0887 
G01 X-4.4401 Y10.2017 
G01 X-4.5289 Y10.3346 
G01 X-4.5900 Y10.4822 
G01 X-4.6212 Y10.6389 
G00 Z2.0000 
G00 X-7.1612 Y10.6389 
G01 Z-0.0250 F254.00 
G01 X-7.1612 Y12.2211 F508.00 
G01 X-7.1300 Y12.3778 
G01 X-7.0689 Y12.5254 
G01 X-6.9801 Y12.6583 
G01 X-6.8671 Y12.7713 
G01 X-6.7342 Y12.8601 
G01 X-6.5866 Y12.9212 
G01 X-6.4299 Y12.9524 
G01 X-6.2701 Y12.9524 
G01 X-6.1134 Y12.9212 
G01 X-5.9657 Y12.8601 
G01 X-5.8329 Y12.7713 
G01 X-5.7199 Y12.6583 
G01 X-5.6311 Y12.5254 
G01 X-5.5700 Y12.3778 
G01 X-5.5388 Y12.2211 
G01 X-5.5388 Y10.6389 
G01 X-5.5700 Y10.4822 
G01 X-5.6311 Y10.3346 
G01 X-5.7199 Y10.2017 
G01 X-5.8329 Y10.0887 
G01 X-5.9657 Y9.9999 
G01 X-6.1134 Y9.9388 
G01 X-6.2701 Y9.9076 
G01 X-6.4299 Y9.9076 
G01 X-6.5866 Y9.9388 
G01 X-6.7342 Y9.9999 
G01 X-6.8671 Y10.0887 
G01 X-6.9801 Y10.2017 
G01 X-7.0689 Y10.3346 
G01 X-7.1300 Y10.4822 
G01 X-7.1612 Y10.6389 
G00 Z2.0000 
G00 X-9.7012 Y10.6389 
G01 Z-0.0250 F254.00 
G01 X-9.7012 Y12.2211 F508.00 
G01 X-9.6700 Y12.3778 
G01 X-9.6089 Y12.5254 
G01 X-9.5201 Y12.6583 
G01 X-9.4071 Y12.7713 
G01 X-9.2742 Y12.8601 
G01 X-9.1266 Y12.9212 
G01 X-8.9699 Y12.9524 
G01 X-8.8101 Y12.9524 
G01 X-8.6534 Y12.9212 
G01 X-8.5058 Y12.8601 
G01 X-8.3729 Y12.7713 
G01 X-8.2599 Y12.6583 
G01 X-8.1711 Y12.5254 
G01 X-8.1100 Y12.3778 
G01 X-8.0788 Y12.2211 
G01 X-8.0788 Y10.6389 
G01 X-8.1100 Y10.4822 
G01 X-8.1711 Y10.3346 
G01 X-8.2599 Y10.2017 
G01 X-8.3729 Y10.0887 
G01 X-8.5058 Y9.9999 
G01 X-8.6534 Y9.9388 
G01 X-8.8101 Y9.9076 
G01 X-8.9699 Y9.9076 
G01 X-9.1266 Y9.9388 
G01 X-9.2742 Y9.9999 
G01 X-9.4071 Y10.0887 
G01 X-9.5201 Y10.2017 
G01 X-9.6089 Y10.3346 
G01 X-9.6700 Y10.4822 
G01 X-9.7012 Y10.6389 
G00 Z2.0000 
G00 X-12.2412 Y10.6389 
G01 Z-0.0250 F254.00 
G01 X-12.2412 Y12.2211 F508.00 
G01 X-12.2100 Y12.3778 
G01 X-12.1489 Y12.5254 
G01 X-12.0601 Y12.6583 
G01 X-11.9471 Y12.7713 
G01 X-11.8142 Y12.8601 
G01 X-11.6666 Y12.9212 
G01 X-11.5099 Y12.9524 
G01 X-11.3501 Y12.9524 
G01 X-11.1934 Y12.9212 
G01 X-11.0457 Y12.8601 
G01 X-10.9129 Y12.7713 
G01 X-10.7999 Y12.6583 
G01 X-10.7111 Y12.5254 
G01 X-10.6500 Y12.3778 
G01 X-10.6188 Y12.2211 
G01 X-10.6188 Y10.6389 
G01 X-10.6500 Y10.4822 
G01 X-10.7111 Y10.3346 
G01 X-10.7999 Y10.2017 
G01 X-10.9129 Y10.0887 
G01 X-11.0457 Y9.9999 
G01 X-11.1934 Y9.9388 
G01 X-11.3501 Y9.9076 
G01 X-11.5099 Y9.9076 
G01 X-11.6666 Y9.9388 
G01 X-11.8142 Y9.9999 
G01 X-11.9471 Y10.0887 
G01 X-12.0601 Y10.2017 
G01 X-12.1489 Y10.3346 
G01 X-12.2100 Y10.4822 
G01 X-12.2412 Y10.6389 
G00 Z2.0000 
G00 X-14.7812 Y10.6389 
G01 Z-0.0250 F254.00 
G01 X-14.7812 Y12.2211 F508.00 
G01 X-14.7500 Y12.3778 
G01 X-14.6889 Y12.5254 
G01 X-14.6001 Y12.6583 
G01 X-14.4871 Y12.7713 
G01 X-14.3542 Y12.8601 
G01 X-14.2066 Y12.9212 
G01 X-14.0499 Y12.9524 
G01 X-13.8901 Y12.9524 
G01 X-13.7334 Y12.9212 
G01 X-13.5858 Y12.8601 
G01 X-13.4529 Y12.7713 
G01 X-13.3399 Y12.6583 
G01 X-13.2511 Y12.5254 
G01 X-13.1900 Y12.3778 
G01 X-13.1588 Y12.2211 
G01 X-13.1588 Y10.6389 
G01 X-13.1900 Y10.4822 
G01 X-13.2511 Y10.3346 
G01 X-13.3399 Y10.2017 
G01 X-13.4529 Y10.0887 
G01 X-13.5858 Y9.9999 
G01 X-13.7334 Y9.9388 
G01 X-13.8901 Y9.9076 
G01 X-14.0499 Y9.9076 
G01 X-14.2066 Y9.9388 
G01 X-14.3542 Y9.9999 
G01 X-14.4871 Y10.0887 
G01 X-14.6001 Y10.2017 
G01 X-14.6889 Y10.3346 
G01 X-14.7500 Y10.4822 
G01 X-14.7812 Y10.6389 
G00 Z2.0000 
G00 X-17.3212 Y10.6389 
G01 Z-0.0250 F254.00 
G01 X-17.3212 Y12.2211 F508.00 
G01 X-17.2900 Y12.3778 
G01 X-17.2289 Y12.5254 
G01 X-17.1401 Y12.6583 
G01 X-17.0271 Y12.7713 
G01 X-16.8942 Y12.8601 
G01 X-16.7466 Y12.9212 
G01 X-16.5899 Y12.9524 
G01 X-16.4301 Y12.9524 
G01 X-16.2734 Y12.9212 
G01 X-16.1258 Y12.8601 
G01 X-15.9929 Y12.7713 
G01 X-15.8799 Y12.6583 
G01 X-15.7911 Y12.5254 
G01 X-15.7300 Y12.3778 
G01 X-15.6988 Y12.2211 
G01 X-15.6988 Y10.6389 
G01 X-15.7300 Y10.4822 
G01 X-15.7911 Y10.3346 
G01 X-15.8799 Y10.2017 
G01 X-15.9929 Y10.0887 
G01 X-16.1258 Y9.9999 
G01 X-16.2734 Y9.9388 
G01 X-16.4301 Y9.9076 
G01 X-16.5899 Y9.9076 
G01 X-16.7466 Y9.9388 
G01 X-16.8942 Y9.9999 
G01 X-17.0271 Y10.0887 
G01 X-17.1401 Y10.2017 
G01 X-17.2289 Y10.3346 
G01 X-17.2900 Y10.4822 
G01 X-17.3212 Y10.6389 
G00 Z2.0000 
G00 X-19.8612 Y10.6389 
G01 Z-0.0250 F254.00 
G01 X-19.8612 Y12.2211 F508.00 
G01 X-19.8300 Y12.3778 
G01 X-19.7689 Y12.5254 
G01 X-19.6801 Y12.6583 
G01 X-19.5671 Y12.7713 
G01 X-19.4342 Y12.8601 
G01 X-19.2866 Y12.9212 
G01 X-19.1299 Y12.9524 
G01 X-18.9701 Y12.9524 
G01 X-18.8134 Y12.9212 
G01 X-18.6657 Y12.8601 
G01 X-18.5329 Y12.7713 
G01 X-18.4199 Y12.6583 
G01 X-18.3311 Y12.5254 
G01 X-18.2700 Y12.3778 
G01 X-18.2388 Y12.2211 
G01 X-18.2388 Y10.6389 
G01 X-18.2700 Y10.4822 
G01 X-18.3311 Y10.3346 
G01 X-18.4199 Y10.2017 
G01 X-18.5329 Y10.0887 
G01 X-18.6657 Y9.9999 
G01 X-18.8134 Y9.9388 
G01 X-18.9701 Y9.9076 
G01 X-19.1299 Y9.9076 
G01 X-19.2866 Y9.9388 
G01 X-19.4342 Y9.9999 
G01 X-19.5671 Y10.0887 
G01 X-19.6801 Y10.2017 
G01 X-19.7689 Y10.3346 
G01 X-19.8300 Y10.4822 
G01 X-19.8612 Y10.6389 
G00 Z2.0000 
G00 X-22.4012 Y10.6389 
G01 Z-0.0250 F254.00 
G01 X-22.4012 Y12.2211 F508.00 
G01 X-22.3700 Y12.3778 
G01 X-22.3089 Y12.5254 
G01 X-22.2201 Y12.6583 
G01 X-22.1071 Y12.7713 
G01 X-21.9742 Y12.8601 
G01 X-21.8266 Y12.9212 
G01 X-21.6699 Y12.9524 
G01 X-21.5101 Y12.9524 
G01 X-21.3534 Y12.9212 
G01 X-21.2058 Y12.8601 
G01 X-21.0729 Y12.7713 
G01 X-20.9599 Y12.6583 
G01 X-20.8711 Y12.5254 
G01 X-20.8100 Y12.3778 
G01 X-20.7788 Y12.2211 
G01 X-20.7788 Y10.6389 
G01 X-20.8100 Y10.4822 
G01 X-20.8711 Y10.3346 
G01 X-20.9599 Y10.2017 
G01 X-21.0729 Y10.0887 
G01 X-21.2058 Y9.9999 
G01 X-21.3534 Y9.9388 
G01 X-21.5101 Y9.9076 
G01 X-21.6699 Y9.9076 
G01 X-21.8266 Y9.9388 
G01 X-21.9742 Y9.9999 
G01 X-22.1071 Y10.0887 
G01 X-22.2201 Y10.2017 
G01 X-22.3089 Y10.3346 
G01 X-22.3700 Y10.4822 
G01 X-22.4012 Y10.6389 
G00 Z2.0000 
G00 X-24.9412 Y10.6389 
G01 Z-0.0250 F254.00 
G01 X-24.9412 Y12.2211 F508.00 
G01 X-24.9100 Y12.3778 
G01 X-24.8489 Y12.5254 
G01 X-24.7601 Y12.6583 
G01 X-24.6471 Y12.7713 
G01 X-24.5142 Y12.8601 
G01 X-24.3666 Y12.9212 
G01 X-24.2099 Y12.9524 
G01 X-24.0501 Y12.9524 
G01 X-23.8934 Y12.9212 
G01 X-23.7458 Y12.8601 
G01 X-23.6129 Y12.7713 
G01 X-23.4999 Y12.6583 
G01 X-23.4111 Y12.5254 
G01 X-23.3500 Y12.3778 
G01 X-23.3188 Y12.2211 
G01 X-23.3188 Y10.6389 
G01 X-23.3500 Y10.4822 
G01 X-23.4111 Y10.3346 
G01 X-23.4999 Y10.2017 
G01 X-23.6129 Y10.0887 
G01 X-23.7458 Y9.9999 
G01 X-23.8934 Y9.9388 
G01 X-24.0501 Y9.9076 
G01 X-24.2099 Y9.9076 
G01 X-24.3666 Y9.9388 
G01 X-24.5142 Y9.9999 
G01 X-24.6471 Y10.0887 
G01 X-24.7601 Y10.2017 
G01 X-24.8489 Y10.3346 
G01 X-24.9100 Y10.4822 
G01 X-24.9412 Y10.6389 
G00 Z2.0000 
G00 X-27.4812 Y10.6389 
G01 Z-0.0250 F254.00 
G01 X-27.4812 Y12.2211 F508.00 
G01 X-27.4500 Y12.3778 
G01 X-27.3889 Y12.5254 
G01 X-27.3001 Y12.6583 
G01 X-27.1871 Y12.7713 
G01 X-27.0542 Y12.8601 
G01 X-26.9066 Y12.9212 
G01 X-26.7499 Y12.9524 
G01 X-26.5901 Y12.9524 
G01 X-26.4334 Y12.9212 
G01 X-26.2858 Y12.8601 
G01 X-26.1529 Y12.7713 
G01 X-26.0399 Y12.6583 
G01 X-25.9511 Y12.5254 
G01 X-25.8900 Y12.3778 
G01 X-25.8588 Y12.2211 
G01 X-25.8588 Y10.6389 
G01 X-25.8900 Y10.4822 
G01 X-25.9511 Y10.3346 
G01 X-26.0399 Y10.2017 
G01 X-26.1529 Y10.0887 
G01 X-26.2858 Y9.9999 
G01 X-26.4334 Y9.9388 
G01 X-26.5901 Y9.9076 
G01 X-26.7499 Y9.9076 
G01 X-26.9066 Y9.9388 
G01 X-27.0542 Y9.9999 
G01 X-27.1871 Y10.0887 
G01 X-27.3001 Y10.2017 
G01 X-27.3889 Y10.3346 
G01 X-27.4500 Y10.4822 
G01 X-27.4812 Y10.6389 
G00 Z2.0000 
G00 X-14.4415 Y59.7841 
G01 Z-0.0250 F254.00 
G01 X-14.4415 Y57.2951 F508.00 
G01 X-13.6464 Y56.5000 
G01 X-9.8536 Y56.5000 
G01 X-8.5836 Y57.7700 
G01 X-8.5836 Y59.3785 
G01 X-8.5466 Y59.5647 
G01 X-8.4739 Y59.7400 
G01 X-8.3685 Y59.8979 
G01 X-8.2343 Y60.0321 
G01 X-8.0764 Y60.1375 
G01 X-7.9011 Y60.2102 
G01 X-7.7149 Y60.2472 
G01 X-7.5251 Y60.2472 
G01 X-7.3389 Y60.2102 
G01 X-7.1636 Y60.1375 
G01 X-7.0057 Y60.0321 
G01 X-6.8715 Y59.8979 
G01 X-6.7661 Y59.7400 
G01 X-6.6934 Y59.5647 
G01 X-6.6564 Y59.3785 
G01 X-6.6564 Y57.4615 
G01 X-6.6934 Y57.2753 
G01 X-6.7661 Y57.1000 
G01 X-6.8715 Y56.9421 
G01 X-7.0057 Y56.8079 
G01 X-7.1636 Y56.7025 
G01 X-7.3389 Y56.6298 
G01 X-7.5251 Y56.5928 
G01 X-7.7149 Y56.5928 
G01 X-7.9011 Y56.6298 
G01 X-8.0764 Y56.7025 
G01 X-8.2343 Y56.8079 
G01 X-8.3685 Y56.9421 
G01 X-8.4739 Y57.1000 
G01 X-8.4952 Y57.1513 
G01 X-9.5381 Y56.1084 
G01 X-9.6084 Y56.0381 
G01 X-9.7003 Y56.0000 
G01 X-13.7997 Y56.0000 
G01 X-13.8916 Y56.0381 
G01 X-14.5297 Y56.6762 
G01 X-14.5409 Y56.6417 
G01 X-14.6379 Y56.4513 
G01 X-14.7635 Y56.2785 
G01 X-14.9146 Y56.1274 
G01 X-15.0874 Y56.0018 
G01 X-15.2778 Y55.9048 
G01 X-15.4810 Y55.8388 
G01 X-15.6920 Y55.8054 
G01 X-15.9056 Y55.8054 
G01 X-16.1166 Y55.8388 
G01 X-16.3198 Y55.9048 
G01 X-16.5102 Y56.0018 
G01 X-16.6830 Y56.1274 
G01 X-16.8341 Y56.2785 
G01 X-16.9597 Y56.4513 
G01 X-17.0567 Y56.6417 
G01 X-17.1227 Y56.8449 
G01 X-17.1561 Y57.0559 
G01 X-17.1561 Y59.7841 
G01 X-17.1227 Y59.9951 
G01 X-17.0567 Y60.1983 
G01 X-16.9597 Y60.3887 
G01 X-16.8341 Y60.5615 
G01 X-16.6830 Y60.7126 
G01 X-16.5102 Y60.8382 
G01 X-16.3198 Y60.9352 
G01 X-16.1166 Y61.0012 
G01 X-15.9056 Y61.0346 
G01 X-15.6920 Y61.0346 
G01 X-15.4810 Y61.0012 
G01 X-15.2778 Y60.9352 
G01 X-15.0874 Y60.8382 
G01 X-14.9146 Y60.7126 
G01 X-14.7635 Y60.5615 
G01 X-14.6379 Y60.3887 
G01 X-14.5409 Y60.1983 
G01 X-14.4749 Y59.9951 
G01 X-14.4415 Y59.7841 
G00 Z2.0000 
G00 X-18.4039 Y59.7841 
G01 Z-0.0250 F254.00 
G01 X-18.4039 Y57.0559 F508.00 
G01 X-18.4373 Y56.8449 
G01 X-18.5033 Y56.6417 
G01 X-18.6003 Y56.4513 
G01 X-18.7259 Y56.2785 
G01 X-18.8770 Y56.1274 
G01 X-19.0498 Y56.0018 
G01 X-19.2402 Y55.9048 
G01 X-19.4434 Y55.8388 
G01 X-19.6544 Y55.8054 
G01 X-19.8680 Y55.8054 
G01 X-20.0790 Y55.8388 
G01 X-20.2822 Y55.9048 
G01 X-20.4726 Y56.0018 
G01 X-20.6454 Y56.1274 
G01 X-20.7965 Y56.2785 
G01 X-20.9221 Y56.4513 
G01 X-21.0191 Y56.6417 
G01 X-21.0851 Y56.8449 
G01 X-21.1185 Y57.0559 
G01 X-21.1185 Y59.7841 
G01 X-21.0851 Y59.9951 
G01 X-21.0191 Y60.1983 
G01 X-20.9221 Y60.3887 
G01 X-20.7965 Y60.5615 
G01 X-20.6454 Y60.7126 
G01 X-20.4726 Y60.8382 
G01 X-20.2822 Y60.9352 
G01 X-20.0790 Y61.0012 
G01 X-19.8680 Y61.0346 
G01 X-19.6544 Y61.0346 
G01 X-19.4434 Y61.0012 
G01 X-19.2402 Y60.9352 
G01 X-19.0498 Y60.8382 
G01 X-18.8770 Y60.7126 
G01 X-18.7259 Y60.5615 
G01 X-18.6003 Y60.3887 
G01 X-18.5033 Y60.1983 
G01 X-18.4373 Y59.9951 
G01 X-18.4039 Y59.7841 
G00 Z2.0000 
G00 X-10.4664 Y59.3785 
G01 Z-0.0250 F254.00 
G01 X-10.4664 Y57.4615 F508.00 
G01 X-10.5034 Y57.2753 
G01 X-10.5761 Y57.1000 
G01 X-10.6815 Y56.9421 
G01 X-10.8157 Y56.8079 
G01 X-10.9736 Y56.7025 
G01 X-11.1489 Y56.6298 
G01 X-11.3351 Y56.5928 
G01 X-11.5249 Y56.5928 
G01 X-11.7111 Y56.6298 
G01 X-11.8864 Y56.7025 
G01 X-12.0443 Y56.8079 
G01 X-12.1785 Y56.9421 
G01 X-12.2839 Y57.1000 
G01 X-12.3566 Y57.2753 
G01 X-12.3936 Y57.4615 
G01 X-12.3936 Y59.3785 
G01 X-12.3566 Y59.5647 
G01 X-12.2839 Y59.7400 
G01 X-12.1785 Y59.8979 
G01 X-12.0443 Y60.0321 
G01 X-11.8864 Y60.1375 
G01 X-11.7111 Y60.2102 
G01 X-11.5249 Y60.2472 
G01 X-11.3351 Y60.2472 
G01 X-11.1489 Y60.2102 
G01 X-10.9736 Y60.1375 
G01 X-10.8157 Y60.0321 
G01 X-10.6815 Y59.8979 
G01 X-10.5761 Y59.7400 
G01 X-10.5034 Y59.5647 
G01 X-10.4664 Y59.3785 
G00 Z2.0000 
G00 X-2.8464 Y59.3785 
G01 Z-0.0250 F254.00 
G01 X-2.8464 Y57.4615 F508.00 
G01 X-2.8834 Y57.2753 
G01 X-2.9561 Y57.1000 
G01 X-3.0615 Y56.9421 
G01 X-3.1957 Y56.8079 
G01 X-3.3536 Y56.7025 
G01 X-3.5289 Y56.6298 
G01 X-3.7151 Y56.5928 
G01 X-3.9049 Y56.5928 
G01 X-4.0911 Y56.6298 
G01 X-4.2664 Y56.7025 
G01 X-4.4243 Y56.8079 
G01 X-4.5585 Y56.9421 
G01 X-4.6639 Y57.1000 
G01 X-4.7366 Y57.2753 
G01 X-4.7736 Y57.4615 
G01 X-4.7736 Y59.3785 
G01 X-4.7366 Y59.5647 
G01 X-4.6639 Y59.7400 
G01 X-4.5585 Y59.8979 
G01 X-4.4243 Y60.0321 
G01 X-4.2664 Y60.1375 
G01 X-4.0911 Y60.2102 
G01 X-3.9049 Y60.2472 
G01 X-3.7151 Y60.2472 
G01 X-3.5289 Y60.2102 
G01 X-3.3536 Y60.1375 
G01 X-3.1957 Y60.0321 
G01 X-3.0615 Y59.8979 
G01 X-2.9561 Y59.7400 
G01 X-2.8834 Y59.5647 
G01 X-2.8464 Y59.3785 
G00 Z2.0000 
G00 X-14.4510 Y28.1376 
G01 Z-0.0250 F254.00 
G01 X-14.4510 Y28.3012 F508.00 
G01 X-14.4254 Y28.4629 
G01 X-14.3748 Y28.6185 
G01 X-14.3005 Y28.7644 
G01 X-14.2043 Y28.8968 
G01 X-14.0886 Y29.0125 
G01 X-13.9562 Y29.1087 
G01 X-13.8103 Y29.1830 
G01 X-13.6547 Y29.2336 
G01 X-13.4930 Y29.2592 
G01 X-13.3294 Y29.2592 
G01 X-13.1677 Y29.2336 
G01 X-13.0121 Y29.1830 
G01 X-12.8662 Y29.1087 
G01 X-12.7338 Y29.0125 
G01 X-12.6181 Y28.8968 
G01 X-12.5219 Y28.7644 
G01 X-12.4476 Y28.6185 
G01 X-12.3970 Y28.4629 
G01 X-12.3714 Y28.3012 
G01 X-12.3714 Y28.1376 
G01 X-12.3970 Y27.9759 
G01 X-12.4476 Y27.8203 
G01 X-12.5219 Y27.6744 
G01 X-12.6181 Y27.5420 
G01 X-12.7338 Y27.4263 
G01 X-12.8662 Y27.3301 
G01 X-13.0121 Y27.2558 
G01 X-13.1677 Y27.2052 
G01 X-13.3294 Y27.1796 
G01 X-13.4930 Y27.1796 
G01 X-13.6547 Y27.2052 
G01 X-13.8103 Y27.2558 
G01 X-13.9562 Y27.3301 
G01 X-14.0886 Y27.4263 
G01 X-14.2043 Y27.5420 
G01 X-14.3005 Y27.6744 
G01 X-14.3748 Y27.8203 
G01 X-14.4254 Y27.9759 
G01 X-14.4510 Y28.1376 
G00 Z2.0000 
G00 X-14.4510 Y32.6588 
G01 Z-0.0250 F254.00 
G01 X-14.4510 Y32.8224 F508.00 
G01 X-14.4254 Y32.9841 
G01 X-14.3748 Y33.1397 
G01 X-14.3005 Y33.2856 
G01 X-14.2043 Y33.4180 
G01 X-14.0886 Y33.5337 
G01 X-13.9562 Y33.6299 
G01 X-13.8103 Y33.7042 
G01 X-13.6547 Y33.7548 
G01 X-13.4930 Y33.7804 
G01 X-13.3294 Y33.7804 
G01 X-13.1677 Y33.7548 
G01 X-13.0121 Y33.7042 
G01 X-12.8662 Y33.6299 
G01 X-12.7338 Y33.5337 
G01 X-12.6181 Y33.4180 
G01 X-12.5219 Y33.2856 
G01 X-12.4476 Y33.1397 
G01 X-12.3970 Y32.9841 
G01 X-12.3714 Y32.8224 
G01 X-12.3714 Y32.6588 
G01 X-12.3970 Y32.4971 
G01 X-12.4476 Y32.3415 
G01 X-12.5219 Y32.1956 
G01 X-12.6181 Y32.0632 
G01 X-12.7338 Y31.9475 
G01 X-12.8662 Y31.8513 
G01 X-13.0121 Y31.7770 
G01 X-13.1677 Y31.7264 
G01 X-13.3294 Y31.7008 
G01 X-13.4930 Y31.7008 
G01 X-13.6547 Y31.7264 
G01 X-13.8103 Y31.7770 
G01 X-13.9562 Y31.8513 
G01 X-14.0886 Y31.9475 
G01 X-14.2043 Y32.0632 
G01 X-14.3005 Y32.1956 
G01 X-14.3748 Y32.3415 
G01 X-14.4254 Y32.4971 
G01 X-14.4510 Y32.6588 
G00 Z2.0000 
G00 X-36.3585 Y3.7159 
G01 Z-0.0250 F254.00 
G01 X-36.3585 Y6.4441 F508.00 
G01 X-36.3251 Y6.6551 
G01 X-36.2591 Y6.8583 
G01 X-36.1621 Y7.0487 
G01 X-36.0365 Y7.2215 
G01 X-35.8854 Y7.3726 
G01 X-35.7126 Y7.4982 
G01 X-35.5222 Y7.5952 
G01 X-35.3190 Y7.6612 
G01 X-35.1080 Y7.6946 
G01 X-34.8944 Y7.6946 
G01 X-34.6834 Y7.6612 
G01 X-34.4802 Y7.5952 
G01 X-34.2898 Y7.4982 
G01 X-34.1170 Y7.3726 
G01 X-33.9659 Y7.2215 
G01 X-33.8403 Y7.0487 
G01 X-33.7433 Y6.8583 
G01 X-33.6773 Y6.6551 
G01 X-33.6439 Y6.4441 
G01 X-33.6439 Y3.7159 
G01 X-33.6773 Y3.5049 
G01 X-33.7433 Y3.3017 
G01 X-33.8403 Y3.1113 
G01 X-33.9659 Y2.9385 
G01 X-34.1170 Y2.7874 
G01 X-34.2898 Y2.6618 
G01 X-34.4802 Y2.5648 
G01 X-34.6834 Y2.4988 
G01 X-34.8944 Y2.4654 
G01 X-35.1080 Y2.4654 
G01 X-35.3190 Y2.4988 
G01 X-35.5222 Y2.5648 
G01 X-35.7126 Y2.6618 
G01 X-35.8854 Y2.7874 
G01 X-36.0365 Y2.9385 
G01 X-36.1621 Y3.1113 
G01 X-36.2591 Y3.3017 
G01 X-36.3251 Y3.5049 
G01 X-36.3585 Y3.7159 
G00 Z2.0000 
G00 X-32.6628 Y43.0901 
G01 Z-0.0250 F254.00 
G01 X-32.6628 Y43.2699 F508.00 
G01 X-32.6277 Y43.4463 
G01 X-32.5589 Y43.6124 
G01 X-32.4590 Y43.7619 
G01 X-32.3319 Y43.8890 
G01 X-32.1824 Y43.9889 
G01 X-32.0163 Y44.0577 
G01 X-31.8399 Y44.0928 
G01 X-31.6601 Y44.0928 
G01 X-31.4837 Y44.0577 
G01 X-31.3176 Y43.9889 
G01 X-31.1681 Y43.8890 
G01 X-31.0410 Y43.7619 
G01 X-30.9411 Y43.6124 
G01 X-30.8723 Y43.4463 
G01 X-30.8372 Y43.2699 
G01 X-30.8372 Y43.0901 
G01 X-30.8723 Y42.9137 
G01 X-30.9411 Y42.7476 
G01 X-31.0410 Y42.5981 
G01 X-31.1681 Y42.4710 
G01 X-31.3176 Y42.3711 
G01 X-31.4837 Y42.3023 
G01 X-31.6601 Y42.2672 
G01 X-31.8399 Y42.2672 
G01 X-32.0163 Y42.3023 
G01 X-32.1824 Y42.3711 
G01 X-32.3319 Y42.4710 
G01 X-32.4590 Y42.5981 
G01 X-32.5589 Y42.7476 
G01 X-32.6277 Y42.9137 
G01 X-32.6628 Y43.0901 
G00 Z2.0000 
G00 X-32.6628 Y40.5501 
G01 Z-0.0250 F254.00 
G01 X-32.6628 Y40.7299 F508.00 
G01 X-32.6277 Y40.9063 
G01 X-32.5589 Y41.0724 
G01 X-32.4590 Y41.2219 
G01 X-32.3319 Y41.3490 
G01 X-32.1824 Y41.4489 
G01 X-32.0163 Y41.5177 
G01 X-31.8399 Y41.5528 
G01 X-31.6601 Y41.5528 
G01 X-31.4837 Y41.5177 
G01 X-31.3176 Y41.4489 
G01 X-31.1681 Y41.3490 
G01 X-31.0410 Y41.2219 
G01 X-30.9411 Y41.0724 
G01 X-30.8723 Y40.9063 
G01 X-30.8372 Y40.7299 
G01 X-30.8372 Y40.5501 
G01 X-30.8723 Y40.3737 
G01 X-30.9411 Y40.2076 
G01 X-31.0410 Y40.0581 
G01 X-31.1681 Y39.9310 
G01 X-31.3176 Y39.8311 
G01 X-31.4837 Y39.7623 
G01 X-31.6601 Y39.7272 
G01 X-31.8399 Y39.7272 
G01 X-32.0163 Y39.7623 
G01 X-32.1824 Y39.8311 
G01 X-32.3319 Y39.9310 
G01 X-32.4590 Y40.0581 
G01 X-32.5589 Y40.2076 
G01 X-32.6277 Y40.3737 
G01 X-32.6628 Y40.5501 
G00 Z2.0000 
G00 X-19.9628 Y51.9801 
G01 Z-0.0250 F254.00 
G01 X-19.9628 Y52.1599 F508.00 
G01 X-19.9277 Y52.3363 
G01 X-19.8589 Y52.5024 
G01 X-19.7590 Y52.6519 
G01 X-19.6319 Y52.7790 
G01 X-19.4824 Y52.8789 
G01 X-19.3163 Y52.9477 
G01 X-19.1399 Y52.9828 
G01 X-18.9601 Y52.9828 
G01 X-18.7837 Y52.9477 
G01 X-18.6176 Y52.8789 
G01 X-18.4681 Y52.7790 
G01 X-18.3410 Y52.6519 
G01 X-18.2411 Y52.5024 
G01 X-18.1723 Y52.3363 
G01 X-18.1372 Y52.1599 
G01 X-18.1372 Y51.9801 
G01 X-18.1723 Y51.8037 
G01 X-18.2411 Y51.6376 
G01 X-18.3410 Y51.4881 
G01 X-18.4681 Y51.3610 
G01 X-18.6176 Y51.2611 
G01 X-18.7837 Y51.1923 
G01 X-18.9601 Y51.1572 
G01 X-19.1399 Y51.1572 
G01 X-19.3163 Y51.1923 
G01 X-19.4824 Y51.2611 
G01 X-19.6319 Y51.3610 
G01 X-19.7590 Y51.4881 
G01 X-19.8589 Y51.6376 
G01 X-19.9277 Y51.8037 
G01 X-19.9628 Y51.9801 
G00 Z2.0000 
G00 X-19.9628 Y49.4401 
G01 Z-0.0250 F254.00 
G01 X-19.9628 Y49.6199 F508.00 
G01 X-19.9277 Y49.7963 
G01 X-19.8589 Y49.9624 
G01 X-19.7590 Y50.1119 
G01 X-19.6319 Y50.2390 
G01 X-19.4824 Y50.3389 
G01 X-19.3163 Y50.4077 
G01 X-19.1399 Y50.4428 
G01 X-18.9601 Y50.4428 
G01 X-18.7837 Y50.4077 
G01 X-18.6176 Y50.3389 
G01 X-18.4681 Y50.2390 
G01 X-18.3410 Y50.1119 
G01 X-18.2411 Y49.9624 
G01 X-18.1723 Y49.7963 
G01 X-18.1372 Y49.6199 
G01 X-18.1372 Y49.4401 
G01 X-18.1723 Y49.2637 
G01 X-18.2411 Y49.0976 
G01 X-18.3410 Y48.9481 
G01 X-18.4681 Y48.8210 
G01 X-18.6176 Y48.7211 
G01 X-18.7837 Y48.6523 
G01 X-18.9601 Y48.6172 
G01 X-19.1399 Y48.6172 
G01 X-19.3163 Y48.6523 
G01 X-19.4824 Y48.7211 
G01 X-19.6319 Y48.8210 
G01 X-19.7590 Y48.9481 
G01 X-19.8589 Y49.0976 
G01 X-19.9277 Y49.2637 
G01 X-19.9628 Y49.4401 
G00 Z2.0000 
G00 X-19.9277 Y47.2563 
G01 Z-0.0250 F254.00 
G01 X-19.8589 Y47.4224 F508.00 
G01 X-19.7590 Y47.5719 
G01 X-19.6319 Y47.6990 
G01 X-19.4824 Y47.7989 
G01 X-19.3163 Y47.8677 
G01 X-19.1399 Y47.9028 
G01 X-18.9601 Y47.9028 
G01 X-18.7837 Y47.8677 
G01 X-18.6176 Y47.7989 
G01 X-18.4681 Y47.6990 
G01 X-18.3410 Y47.5719 
G01 X-18.2411 Y47.4224 
G01 X-18.1723 Y47.2563 
G01 X-18.1372 Y47.0799 
G01 X-18.1372 Y46.9001 
G01 X-18.1723 Y46.7237 
G01 X-18.2411 Y46.5576 
G01 X-18.3410 Y46.4081 
G01 X-18.4681 Y46.2810 
G01 X-18.6176 Y46.1811 
G01 X-18.7837 Y46.1123 
G01 X-18.9601 Y46.0772 
G01 X-19.1399 Y46.0772 
G01 X-19.3163 Y46.1123 
G01 X-19.4824 Y46.1811 
G01 X-19.6319 Y46.2810 
G01 X-19.7590 Y46.4081 
G01 X-19.8589 Y46.5576 
G01 X-19.9277 Y46.7237 
G01 X-19.9329 Y46.7500 
G01 X-33.4071 Y46.7500 
G01 X-33.4123 Y46.7237 
G01 X-33.4811 Y46.5576 
G01 X-33.5810 Y46.4081 
G01 X-33.7081 Y46.2810 
G01 X-33.8576 Y46.1811 
G01 X-34.0237 Y46.1123 
G01 X-34.2001 Y46.0772 
G01 X-34.3799 Y46.0772 
G01 X-34.5563 Y46.1123 
G01 X-34.7224 Y46.1811 
G01 X-34.8719 Y46.2810 
G01 X-34.9990 Y46.4081 
G01 X-35.0989 Y46.5576 
G01 X-35.1677 Y46.7237 
G01 X-35.2028 Y46.9001 
G01 X-35.2028 Y47.0799 
G01 X-35.1677 Y47.2563 
G01 X-35.0989 Y47.4224 
G01 X-34.9990 Y47.5719 
G01 X-34.8719 Y47.6990 
G01 X-34.7224 Y47.7989 
G01 X-34.5563 Y47.8677 
G01 X-34.3799 Y47.9028 
G01 X-34.2001 Y47.9028 
G01 X-34.0237 Y47.8677 
G01 X-33.8576 Y47.7989 
G01 X-33.7081 Y47.6990 
G01 X-33.5810 Y47.5719 
G01 X-33.4811 Y47.4224 
G01 X-33.4123 Y47.2563 
G01 X-33.4110 Y47.2500 
G01 X-19.9290 Y47.2500 
G01 X-19.9277 Y47.2563 
G00 Z2.0000 
G00 X-19.9628 Y44.3601 
G01 Z-0.0250 F254.00 
G01 X-19.9628 Y44.5399 F508.00 
G01 X-19.9277 Y44.7163 
G01 X-19.8589 Y44.8824 
G01 X-19.7590 Y45.0319 
G01 X-19.6319 Y45.1590 
G01 X-19.4824 Y45.2589 
G01 X-19.3163 Y45.3277 
G01 X-19.1399 Y45.3628 
G01 X-18.9601 Y45.3628 
G01 X-18.7837 Y45.3277 
G01 X-18.6176 Y45.2589 
G01 X-18.4681 Y45.1590 
G01 X-18.3410 Y45.0319 
G01 X-18.2411 Y44.8824 
G01 X-18.1723 Y44.7163 
G01 X-18.1372 Y44.5399 
G01 X-18.1372 Y44.3601 
G01 X-18.1723 Y44.1837 
G01 X-18.2411 Y44.0176 
G01 X-18.3410 Y43.8681 
G01 X-18.4681 Y43.7410 
G01 X-18.6176 Y43.6411 
G01 X-18.7837 Y43.5723 
G01 X-18.9601 Y43.5372 
G01 X-19.1399 Y43.5372 
G01 X-19.3163 Y43.5723 
G01 X-19.4824 Y43.6411 
G01 X-19.6319 Y43.7410 
G01 X-19.7590 Y43.8681 
G01 X-19.8589 Y44.0176 
G01 X-19.9277 Y44.1837 
G01 X-19.9628 Y44.3601 
G00 Z2.0000 
G00 X-19.9628 Y41.8201 
G01 Z-0.0250 F254.00 
G01 X-19.9628 Y41.9999 F508.00 
G01 X-19.9277 Y42.1763 
G01 X-19.8589 Y42.3424 
G01 X-19.7590 Y42.4919 
G01 X-19.6319 Y42.6190 
G01 X-19.4824 Y42.7189 
G01 X-19.3163 Y42.7877 
G01 X-19.1399 Y42.8228 
G01 X-18.9601 Y42.8228 
G01 X-18.7837 Y42.7877 
G01 X-18.6176 Y42.7189 
G01 X-18.4681 Y42.6190 
G01 X-18.3410 Y42.4919 
G01 X-18.2411 Y42.3424 
G01 X-18.1723 Y42.1763 
G01 X-18.1372 Y41.9999 
G01 X-18.1372 Y41.8201 
G01 X-18.1723 Y41.6437 
G01 X-18.2411 Y41.4776 
G01 X-18.3410 Y41.3281 
G01 X-18.4681 Y41.2010 
G01 X-18.6176 Y41.1011 
G01 X-18.7837 Y41.0323 
G01 X-18.9601 Y40.9972 
G01 X-19.1399 Y40.9972 
G01 X-19.3163 Y41.0323 
G01 X-19.4824 Y41.1011 
G01 X-19.6319 Y41.2010 
G01 X-19.7590 Y41.3281 
G01 X-19.8589 Y41.4776 
G01 X-19.9277 Y41.6437 
G01 X-19.9628 Y41.8201 
G00 Z2.0000 
G00 X-19.9628 Y39.2801 
G01 Z-0.0250 F254.00 
G01 X-19.9628 Y39.4599 F508.00 
G01 X-19.9277 Y39.6363 
G01 X-19.8589 Y39.8024 
G01 X-19.7590 Y39.9519 
G01 X-19.6319 Y40.0790 
G01 X-19.4824 Y40.1789 
G01 X-19.3163 Y40.2477 
G01 X-19.1399 Y40.2828 
G01 X-18.9601 Y40.2828 
G01 X-18.7837 Y40.2477 
G01 X-18.6176 Y40.1789 
G01 X-18.4681 Y40.0790 
G01 X-18.3410 Y39.9519 
G01 X-18.2411 Y39.8024 
G01 X-18.1723 Y39.6363 
G01 X-18.1372 Y39.4599 
G01 X-18.1372 Y39.2801 
G01 X-18.1723 Y39.1037 
G01 X-18.2411 Y38.9376 
G01 X-18.3410 Y38.7881 
G01 X-18.4681 Y38.6610 
G01 X-18.6176 Y38.5611 
G01 X-18.7837 Y38.4923 
G01 X-18.9601 Y38.4572 
G01 X-19.1399 Y38.4572 
G01 X-19.3163 Y38.4923 
G01 X-19.4824 Y38.5611 
G01 X-19.6319 Y38.6610 
G01 X-19.7590 Y38.7881 
G01 X-19.8589 Y38.9376 
G01 X-19.9277 Y39.1037 
G01 X-19.9628 Y39.2801 
G00 Z2.0000 
G00 X-19.9628 Y36.7401 
G01 Z-0.0250 F254.00 
G01 X-19.9628 Y36.9199 F508.00 
G01 X-19.9277 Y37.0963 
G01 X-19.8589 Y37.2624 
G01 X-19.7590 Y37.4119 
G01 X-19.6319 Y37.5390 
G01 X-19.4824 Y37.6389 
G01 X-19.3163 Y37.7077 
G01 X-19.1399 Y37.7428 
G01 X-18.9601 Y37.7428 
G01 X-18.7837 Y37.7077 
G01 X-18.6176 Y37.6389 
G01 X-18.4681 Y37.5390 
G01 X-18.3410 Y37.4119 
G01 X-18.2411 Y37.2624 
G01 X-18.1723 Y37.0963 
G01 X-18.1372 Y36.9199 
G01 X-18.1372 Y36.7401 
G01 X-18.1723 Y36.5637 
G01 X-18.2411 Y36.3976 
G01 X-18.3410 Y36.2481 
G01 X-18.4681 Y36.1210 
G01 X-18.6176 Y36.0211 
G01 X-18.7837 Y35.9523 
G01 X-18.9601 Y35.9172 
G01 X-19.1399 Y35.9172 
G01 X-19.3163 Y35.9523 
G01 X-19.4824 Y36.0211 
G01 X-19.6319 Y36.1210 
G01 X-19.7590 Y36.2481 
G01 X-19.8589 Y36.3976 
G01 X-19.9277 Y36.5637 
G01 X-19.9628 Y36.7401 
G00 Z2.0000 
G00 X-19.9628 Y34.2001 
G01 Z-0.0250 F254.00 
G01 X-19.9628 Y34.3799 F508.00 
G01 X-19.9277 Y34.5563 
G01 X-19.8589 Y34.7224 
G01 X-19.7590 Y34.8719 
G01 X-19.6319 Y34.9990 
G01 X-19.4824 Y35.0989 
G01 X-19.3163 Y35.1677 
G01 X-19.1399 Y35.2028 
G01 X-18.9601 Y35.2028 
G01 X-18.7837 Y35.1677 
G01 X-18.6176 Y35.0989 
G01 X-18.4681 Y34.9990 
G01 X-18.3410 Y34.8719 
G01 X-18.2411 Y34.7224 
G01 X-18.1723 Y34.5563 
G01 X-18.1372 Y34.3799 
G01 X-18.1372 Y34.2001 
G01 X-18.1723 Y34.0237 
G01 X-18.2411 Y33.8576 
G01 X-18.3410 Y33.7081 
G01 X-18.4681 Y33.5810 
G01 X-18.6176 Y33.4811 
G01 X-18.7837 Y33.4123 
G01 X-18.9601 Y33.3772 
G01 X-19.1399 Y33.3772 
G01 X-19.3163 Y33.4123 
G01 X-19.4824 Y33.4811 
G01 X-19.6319 Y33.5810 
G01 X-19.7590 Y33.7081 
G01 X-19.8589 Y33.8576 
G01 X-19.9277 Y34.0237 
G01 X-19.9628 Y34.2001 
G00 Z2.0000 
G00 X-19.9628 Y31.6601 
G01 Z-0.0250 F254.00 
G01 X-19.9628 Y31.8399 F508.00 
G01 X-19.9277 Y32.0163 
G01 X-19.8589 Y32.1824 
G01 X-19.7590 Y32.3319 
G01 X-19.6319 Y32.4590 
G01 X-19.4824 Y32.5589 
G01 X-19.3163 Y32.6277 
G01 X-19.1399 Y32.6628 
G01 X-18.9601 Y32.6628 
G01 X-18.7837 Y32.6277 
G01 X-18.6176 Y32.5589 
G01 X-18.4681 Y32.4590 
G01 X-18.3410 Y32.3319 
G01 X-18.2411 Y32.1824 
G01 X-18.1723 Y32.0163 
G01 X-18.1372 Y31.8399 
G01 X-18.1372 Y31.6601 
G01 X-18.1723 Y31.4837 
G01 X-18.2411 Y31.3176 
G01 X-18.3410 Y31.1681 
G01 X-18.4681 Y31.0410 
G01 X-18.6176 Y30.9411 
G01 X-18.7837 Y30.8723 
G01 X-18.9601 Y30.8372 
G01 X-19.1399 Y30.8372 
G01 X-19.3163 Y30.8723 
G01 X-19.4824 Y30.9411 
G01 X-19.6319 Y31.0410 
G01 X-19.7590 Y31.1681 
G01 X-19.8589 Y31.3176 
G01 X-19.9277 Y31.4837 
G01 X-19.9628 Y31.6601 
G00 Z2.0000 
G00 X-19.9628 Y29.1201 
G01 Z-0.0250 F254.00 
G01 X-19.9628 Y29.2999 F508.00 
G01 X-19.9277 Y29.4763 
G01 X-19.8589 Y29.6424 
G01 X-19.7590 Y29.7919 
G01 X-19.6319 Y29.9190 
G01 X-19.4824 Y30.0189 
G01 X-19.3163 Y30.0877 
G01 X-19.1399 Y30.1228 
G01 X-18.9601 Y30.1228 
G01 X-18.7837 Y30.0877 
G01 X-18.6176 Y30.0189 
G01 X-18.4681 Y29.9190 
G01 X-18.3410 Y29.7919 
G01 X-18.2411 Y29.6424 
G01 X-18.1723 Y29.4763 
G01 X-18.1372 Y29.2999 
G01 X-18.1372 Y29.1201 
G01 X-18.1723 Y28.9437 
G01 X-18.2411 Y28.7776 
G01 X-18.3410 Y28.6281 
G01 X-18.4681 Y28.5010 
G01 X-18.6176 Y28.4011 
G01 X-18.7837 Y28.3323 
G01 X-18.9601 Y28.2972 
G01 X-19.1399 Y28.2972 
G01 X-19.3163 Y28.3323 
G01 X-19.4824 Y28.4011 
G01 X-19.6319 Y28.5010 
G01 X-19.7590 Y28.6281 
G01 X-19.8589 Y28.7776 
G01 X-19.9277 Y28.9437 
G01 X-19.9628 Y29.1201 
G00 Z2.0000 
G00 X-19.9628 Y26.5801 
G01 Z-0.0250 F254.00 
G01 X-19.9628 Y26.7599 F508.00 
G01 X-19.9277 Y26.9363 
G01 X-19.8589 Y27.1024 
G01 X-19.7590 Y27.2519 
G01 X-19.6319 Y27.3790 
G01 X-19.4824 Y27.4789 
G01 X-19.3163 Y27.5477 
G01 X-19.1399 Y27.5828 
G01 X-18.9601 Y27.5828 
G01 X-18.7837 Y27.5477 
G01 X-18.6176 Y27.4789 
G01 X-18.4681 Y27.3790 
G01 X-18.3410 Y27.2519 
G01 X-18.2411 Y27.1024 
G01 X-18.1723 Y26.9363 
G01 X-18.1372 Y26.7599 
G01 X-18.1372 Y26.5801 
G01 X-18.1723 Y26.4037 
G01 X-18.2411 Y26.2376 
G01 X-18.3410 Y26.0881 
G01 X-18.4681 Y25.9610 
G01 X-18.6176 Y25.8611 
G01 X-18.7837 Y25.7923 
G01 X-18.9601 Y25.7572 
G01 X-19.1399 Y25.7572 
G01 X-19.3163 Y25.7923 
G01 X-19.4824 Y25.8611 
G01 X-19.6319 Y25.9610 
G01 X-19.7590 Y26.0881 
G01 X-19.8589 Y26.2376 
G01 X-19.9277 Y26.4037 
G01 X-19.9628 Y26.5801 
G00 Z2.0000 
G00 X-19.9628 Y24.0401 
G01 Z-0.0250 F254.00 
G01 X-19.9628 Y24.2199 F508.00 
G01 X-19.9277 Y24.3963 
G01 X-19.8589 Y24.5624 
G01 X-19.7590 Y24.7119 
G01 X-19.6319 Y24.8390 
G01 X-19.4824 Y24.9389 
G01 X-19.3163 Y25.0077 
G01 X-19.1399 Y25.0428 
G01 X-18.9601 Y25.0428 
G01 X-18.7837 Y25.0077 
G01 X-18.6176 Y24.9389 
G01 X-18.4681 Y24.8390 
G01 X-18.3410 Y24.7119 
G01 X-18.2411 Y24.5624 
G01 X-18.1723 Y24.3963 
G01 X-18.1372 Y24.2199 
G01 X-18.1372 Y24.0401 
G01 X-18.1723 Y23.8637 
G01 X-18.2411 Y23.6976 
G01 X-18.3410 Y23.5481 
G01 X-18.4681 Y23.4210 
G01 X-18.6176 Y23.3211 
G01 X-18.7837 Y23.2523 
G01 X-18.9601 Y23.2172 
G01 X-19.1399 Y23.2172 
G01 X-19.3163 Y23.2523 
G01 X-19.4824 Y23.3211 
G01 X-19.6319 Y23.4210 
G01 X-19.7590 Y23.5481 
G01 X-19.8589 Y23.6976 
G01 X-19.9277 Y23.8637 
G01 X-19.9628 Y24.0401 
G00 Z2.0000 
G00 X-35.2028 Y24.0401 
G01 Z-0.0250 F254.00 
G01 X-35.2028 Y24.2199 F508.00 
G01 X-35.1677 Y24.3963 
G01 X-35.0989 Y24.5624 
G01 X-34.9990 Y24.7119 
G01 X-34.8719 Y24.8390 
G01 X-34.7224 Y24.9389 
G01 X-34.5563 Y25.0077 
G01 X-34.3799 Y25.0428 
G01 X-34.2001 Y25.0428 
G01 X-34.0237 Y25.0077 
G01 X-33.8576 Y24.9389 
G01 X-33.7081 Y24.8390 
G01 X-33.5810 Y24.7119 
G01 X-33.4811 Y24.5624 
G01 X-33.4123 Y24.3963 
G01 X-33.3832 Y24.2500 
G01 X-28.8045 Y24.2500 
G01 X-28.7888 Y24.2880 
G01 X-28.7223 Y24.3876 
G01 X-28.6376 Y24.4723 
G01 X-28.5380 Y24.5388 
G01 X-28.4273 Y24.5846 
G01 X-28.3099 Y24.6080 
G01 X-28.1901 Y24.6080 
G01 X-28.0727 Y24.5846 
G01 X-27.9620 Y24.5388 
G01 X-27.8624 Y24.4723 
G01 X-27.7777 Y24.3876 
G01 X-27.7112 Y24.2880 
G01 X-27.6654 Y24.1773 
G01 X-27.6420 Y24.0599 
G01 X-27.6420 Y23.9401 
G01 X-27.6654 Y23.8226 
G01 X-27.7112 Y23.7120 
G01 X-27.7777 Y23.6124 
G01 X-27.8624 Y23.5277 
G01 X-27.9620 Y23.4612 
G01 X-28.0727 Y23.4154 
G01 X-28.1901 Y23.3920 
G01 X-28.3099 Y23.3920 
G01 X-28.4273 Y23.4154 
G01 X-28.5380 Y23.4612 
G01 X-28.6376 Y23.5277 
G01 X-28.7223 Y23.6124 
G01 X-28.7888 Y23.7120 
G01 X-28.8045 Y23.7500 
G01 X-33.4594 Y23.7500 
G01 X-33.4811 Y23.6976 
G01 X-33.5810 Y23.5481 
G01 X-33.7081 Y23.4210 
G01 X-33.8576 Y23.3211 
G01 X-34.0237 Y23.2523 
G01 X-34.2001 Y23.2172 
G01 X-34.3799 Y23.2172 
G01 X-34.5563 Y23.2523 
G01 X-34.7224 Y23.3211 
G01 X-34.8719 Y23.4210 
G01 X-34.9990 Y23.5481 
G01 X-35.0989 Y23.6976 
G01 X-35.1677 Y23.8637 
G01 X-35.2028 Y24.0401 
G00 Z2.0000 
G00 X-35.2028 Y26.5801 
G01 Z-0.0250 F254.00 
G01 X-35.2028 Y26.7599 F508.00 
G01 X-35.1677 Y26.9363 
G01 X-35.0989 Y27.1024 
G01 X-34.9990 Y27.2519 
G01 X-34.8719 Y27.3790 
G01 X-34.7224 Y27.4789 
G01 X-34.5563 Y27.5477 
G01 X-34.3799 Y27.5828 
G01 X-34.2001 Y27.5828 
G01 X-34.0237 Y27.5477 
G01 X-33.8576 Y27.4789 
G01 X-33.7081 Y27.3790 
G01 X-33.5810 Y27.2519 
G01 X-33.4811 Y27.1024 
G01 X-33.4123 Y26.9363 
G01 X-33.3772 Y26.7599 
G01 X-33.3772 Y26.5801 
G01 X-33.4123 Y26.4037 
G01 X-33.4811 Y26.2376 
G01 X-33.5810 Y26.0881 
G01 X-33.7081 Y25.9610 
G01 X-33.8576 Y25.8611 
G01 X-34.0237 Y25.7923 
G01 X-34.2001 Y25.7572 
G01 X-34.3799 Y25.7572 
G01 X-34.5563 Y25.7923 
G01 X-34.7224 Y25.8611 
G01 X-34.8719 Y25.9610 
G01 X-34.9990 Y26.0881 
G01 X-35.0989 Y26.2376 
G01 X-35.1677 Y26.4037 
G01 X-35.2028 Y26.5801 
G00 Z2.0000 
G00 X-35.2028 Y29.1201 
G01 Z-0.0250 F254.00 
G01 X-35.2028 Y29.2999 F508.00 
G01 X-35.1677 Y29.4763 
G01 X-35.0989 Y29.6424 
G01 X-34.9990 Y29.7919 
G01 X-34.8719 Y29.9190 
G01 X-34.7224 Y30.0189 
G01 X-34.5563 Y30.0877 
G01 X-34.3799 Y30.1228 
G01 X-34.2001 Y30.1228 
G01 X-34.0237 Y30.0877 
G01 X-33.8576 Y30.0189 
G01 X-33.7081 Y29.9190 
G01 X-33.5810 Y29.7919 
G01 X-33.4811 Y29.6424 
G01 X-33.4123 Y29.4763 
G01 X-33.3772 Y29.2999 
G01 X-33.3772 Y29.1201 
G01 X-33.4123 Y28.9437 
G01 X-33.4811 Y28.7776 
G01 X-33.5810 Y28.6281 
G01 X-33.7081 Y28.5010 
G01 X-33.8576 Y28.4011 
G01 X-34.0237 Y28.3323 
G01 X-34.2001 Y28.2972 
G01 X-34.3799 Y28.2972 
G01 X-34.5563 Y28.3323 
G01 X-34.7224 Y28.4011 
G01 X-34.8719 Y28.5010 
G01 X-34.9990 Y28.6281 
G01 X-35.0989 Y28.7776 
G01 X-35.1677 Y28.9437 
G01 X-35.2028 Y29.1201 
G00 Z2.0000 
G00 X-35.2028 Y31.6601 
G01 Z-0.0250 F254.00 
G01 X-35.2028 Y31.8399 F508.00 
G01 X-35.1677 Y32.0163 
G01 X-35.0989 Y32.1824 
G01 X-34.9990 Y32.3319 
G01 X-34.8719 Y32.4590 
G01 X-34.7224 Y32.5589 
G01 X-34.5563 Y32.6277 
G01 X-34.3799 Y32.6628 
G01 X-34.2001 Y32.6628 
G01 X-34.0237 Y32.6277 
G01 X-33.8576 Y32.5589 
G01 X-33.7081 Y32.4590 
G01 X-33.5810 Y32.3319 
G01 X-33.4811 Y32.1824 
G01 X-33.4123 Y32.0163 
G01 X-33.3772 Y31.8399 
G01 X-33.3772 Y31.6601 
G01 X-33.4123 Y31.4837 
G01 X-33.4761 Y31.3297 
G01 X-32.8964 Y30.7500 
G01 X-9.2003 Y30.7500 
G01 X-9.1084 Y30.7119 
G01 X-9.0381 Y30.6416 
G01 X-7.4835 Y29.0871 
G01 X-7.4538 Y29.1087 
G01 X-7.3079 Y29.1830 
G01 X-7.1523 Y29.2336 
G01 X-6.9906 Y29.2592 
G01 X-6.8270 Y29.2592 
G01 X-6.6653 Y29.2336 
G01 X-6.5097 Y29.1830 
G01 X-6.3638 Y29.1087 
G01 X-6.2314 Y29.0125 
G01 X-6.1157 Y28.8968 
G01 X-6.0195 Y28.7644 
G01 X-5.9452 Y28.6185 
G01 X-5.8946 Y28.4629 
G01 X-5.8690 Y28.3012 
G01 X-5.8690 Y28.1376 
G01 X-5.8946 Y27.9759 
G01 X-5.9452 Y27.8203 
G01 X-6.0195 Y27.6744 
G01 X-6.1157 Y27.5420 
G01 X-6.2314 Y27.4263 
G01 X-6.3638 Y27.3301 
G01 X-6.5097 Y27.2558 
G01 X-6.6653 Y27.2052 
G01 X-6.8270 Y27.1796 
G01 X-6.9906 Y27.1796 
G01 X-7.1523 Y27.2052 
G01 X-7.3079 Y27.2558 
G01 X-7.4538 Y27.3301 
G01 X-7.5862 Y27.4263 
G01 X-7.7019 Y27.5420 
G01 X-7.7981 Y27.6744 
G01 X-7.8724 Y27.8203 
G01 X-7.9230 Y27.9759 
G01 X-7.9486 Y28.1376 
G01 X-7.9486 Y28.3012 
G01 X-7.9230 Y28.4629 
G01 X-7.8724 Y28.6185 
G01 X-7.8217 Y28.7181 
G01 X-9.3536 Y30.2500 
G01 X-33.0497 Y30.2500 
G01 X-33.1416 Y30.2881 
G01 X-33.8199 Y30.9663 
G01 X-33.8576 Y30.9411 
G01 X-34.0237 Y30.8723 
G01 X-34.2001 Y30.8372 
G01 X-34.3799 Y30.8372 
G01 X-34.5563 Y30.8723 
G01 X-34.7224 Y30.9411 
G01 X-34.8719 Y31.0410 
G01 X-34.9990 Y31.1681 
G01 X-35.0989 Y31.3176 
G01 X-35.1677 Y31.4837 
G01 X-35.2028 Y31.6601 
G00 Z2.0000 
G00 X-35.2028 Y34.2001 
G01 Z-0.0250 F254.00 
G01 X-35.2028 Y34.3799 F508.00 
G01 X-35.1677 Y34.5563 
G01 X-35.0989 Y34.7224 
G01 X-34.9990 Y34.8719 
G01 X-34.8719 Y34.9990 
G01 X-34.7224 Y35.0989 
G01 X-34.5563 Y35.1677 
G01 X-34.3799 Y35.2028 
G01 X-34.2001 Y35.2028 
G01 X-34.0237 Y35.1677 
G01 X-33.8576 Y35.0989 
G01 X-33.7081 Y34.9990 
G01 X-33.5810 Y34.8719 
G01 X-33.4811 Y34.7224 
G01 X-33.4123 Y34.5563 
G01 X-33.3772 Y34.3799 
G01 X-33.3772 Y34.2001 
G01 X-33.4123 Y34.0237 
G01 X-33.4811 Y33.8576 
G01 X-33.5810 Y33.7081 
G01 X-33.7081 Y33.5810 
G01 X-33.8576 Y33.4811 
G01 X-34.0237 Y33.4123 
G01 X-34.2001 Y33.3772 
G01 X-34.3799 Y33.3772 
G01 X-34.5563 Y33.4123 
G01 X-34.7224 Y33.4811 
G01 X-34.8381 Y33.5584 
G01 X-37.5000 Y30.8964 
G01 X-37.5000 Y13.4503 
G01 X-37.5381 Y13.3584 
G01 X-37.6084 Y13.2881 
G01 X-37.7003 Y13.2500 
G01 X-43.1054 Y13.2500 
G01 X-43.1054 Y13.1520 
G01 X-43.1388 Y12.9410 
G01 X-43.2048 Y12.7378 
G01 X-43.3018 Y12.5474 
G01 X-43.4274 Y12.3746 
G01 X-43.5785 Y12.2235 
G01 X-43.7513 Y12.0979 
G01 X-43.9417 Y12.0009 
G01 X-44.1449 Y11.9349 
G01 X-44.3559 Y11.9015 
G01 X-47.0841 Y11.9015 
G01 X-47.2951 Y11.9349 
G01 X-47.4983 Y12.0009 
G01 X-47.6887 Y12.0979 
G01 X-47.8615 Y12.2235 
G01 X-48.0126 Y12.3746 
G01 X-48.1382 Y12.5474 
G01 X-48.2352 Y12.7378 
G01 X-48.3012 Y12.9410 
G01 X-48.3346 Y13.1520 
G01 X-48.3346 Y13.3656 
G01 X-48.3012 Y13.5766 
G01 X-48.2352 Y13.7798 
G01 X-48.1382 Y13.9702 
G01 X-48.0126 Y14.1430 
G01 X-47.8615 Y14.2941 
G01 X-47.6887 Y14.4197 
G01 X-47.4983 Y14.5167 
G01 X-47.2951 Y14.5827 
G01 X-47.0841 Y14.6161 
G01 X-44.3559 Y14.6161 
G01 X-44.1449 Y14.5827 
G01 X-43.9417 Y14.5167 
G01 X-43.7513 Y14.4197 
G01 X-43.5785 Y14.2941 
G01 X-43.4274 Y14.1430 
G01 X-43.3018 Y13.9702 
G01 X-43.2048 Y13.7798 
G01 X-43.1952 Y13.7500 
G01 X-38.0000 Y13.7500 
G01 X-38.0000 Y31.0497 
G01 X-37.9619 Y31.1416 
G01 X-37.8916 Y31.2119 
G01 X-35.1420 Y33.9616 
G01 X-35.1677 Y34.0237 
G01 X-35.2028 Y34.2001 
G00 Z2.0000 
G00 X-35.2028 Y36.7401 
G01 Z-0.0250 F254.00 
G01 X-35.2028 Y36.9199 F508.00 
G01 X-35.1677 Y37.0963 
G01 X-35.0989 Y37.2624 
G01 X-34.9990 Y37.4119 
G01 X-34.8719 Y37.5390 
G01 X-34.7224 Y37.6389 
G01 X-34.5563 Y37.7077 
G01 X-34.3799 Y37.7428 
G01 X-34.2001 Y37.7428 
G01 X-34.0237 Y37.7077 
G01 X-33.8576 Y37.6389 
G01 X-33.7081 Y37.5390 
G01 X-33.5810 Y37.4119 
G01 X-33.4811 Y37.2624 
G01 X-33.4123 Y37.0963 
G01 X-33.3772 Y36.9199 
G01 X-33.3772 Y36.7401 
G01 X-33.4123 Y36.5637 
G01 X-33.4811 Y36.3976 
G01 X-33.5810 Y36.2481 
G01 X-33.7081 Y36.1210 
G01 X-33.8576 Y36.0211 
G01 X-34.0237 Y35.9523 
G01 X-34.2001 Y35.9172 
G01 X-34.3799 Y35.9172 
G01 X-34.5563 Y35.9523 
G01 X-34.7224 Y36.0211 
G01 X-34.8141 Y36.0824 
G01 X-37.7881 Y33.1084 
G01 X-37.8584 Y33.0381 
G01 X-37.9503 Y33.0000 
G01 X-38.5588 Y33.0000 
G01 X-38.5588 Y32.2289 
G01 X-38.5900 Y32.0722 
G01 X-38.6511 Y31.9245 
G01 X-38.7399 Y31.7917 
G01 X-38.8529 Y31.6787 
G01 X-38.9858 Y31.5899 
G01 X-39.1334 Y31.5288 
G01 X-39.2901 Y31.4976 
G01 X-39.4499 Y31.4976 
G01 X-39.6066 Y31.5288 
G01 X-39.7542 Y31.5899 
G01 X-39.8871 Y31.6787 
G01 X-40.0001 Y31.7917 
G01 X-40.0889 Y31.9245 
G01 X-40.1500 Y32.0722 
G01 X-40.1812 Y32.2289 
G01 X-40.1812 Y33.5776 
G01 X-43.2847 Y36.6811 
G01 X-43.3227 Y36.6654 
G01 X-43.4401 Y36.6420 
G01 X-43.5599 Y36.6420 
G01 X-43.6773 Y36.6654 
G01 X-43.7880 Y36.7112 
G01 X-43.8876 Y36.7777 
G01 X-43.9723 Y36.8624 
G01 X-44.0388 Y36.9620 
G01 X-44.0846 Y37.0727 
G01 X-44.1080 Y37.1901 
G01 X-44.1080 Y37.3099 
G01 X-44.0846 Y37.4273 
G01 X-44.0388 Y37.5380 
G01 X-43.9723 Y37.6376 
G01 X-43.8876 Y37.7223 
G01 X-43.7880 Y37.7888 
G01 X-43.6773 Y37.8346 
G01 X-43.5599 Y37.8580 
G01 X-43.4401 Y37.8580 
G01 X-43.3227 Y37.8346 
G01 X-43.2120 Y37.7888 
G01 X-43.1124 Y37.7223 
G01 X-43.0277 Y37.6376 
G01 X-42.9612 Y37.5380 
G01 X-42.9154 Y37.4273 
G01 X-42.8920 Y37.3099 
G01 X-42.8920 Y37.1901 
G01 X-42.9154 Y37.0727 
G01 X-42.9311 Y37.0347 
G01 X-40.0580 Y34.1616 
G01 X-40.0001 Y34.2483 
G01 X-39.8871 Y34.3613 
G01 X-39.7542 Y34.4501 
G01 X-39.6066 Y34.5112 
G01 X-39.4499 Y34.5424 
G01 X-39.2901 Y34.5424 
G01 X-39.1334 Y34.5112 
G01 X-38.9858 Y34.4501 
G01 X-38.8529 Y34.3613 
G01 X-38.7399 Y34.2483 
G01 X-38.6511 Y34.1154 
G01 X-38.5900 Y33.9678 
G01 X-38.5588 Y33.8111 
G01 X-38.5588 Y33.5000 
G01 X-38.1036 Y33.5000 
G01 X-35.1303 Y36.4733 
G01 X-35.1677 Y36.5637 
G01 X-35.2028 Y36.7401 
G00 Z2.0000 
G00 X-35.2028 Y39.2801 
G01 Z-0.0250 F254.00 
G01 X-35.2028 Y39.4599 F508.00 
G01 X-35.1677 Y39.6363 
G01 X-35.0989 Y39.8024 
G01 X-34.9990 Y39.9519 
G01 X-34.8719 Y40.0790 
G01 X-34.7224 Y40.1789 
G01 X-34.5563 Y40.2477 
G01 X-34.3799 Y40.2828 
G01 X-34.2001 Y40.2828 
G01 X-34.0237 Y40.2477 
G01 X-33.8576 Y40.1789 
G01 X-33.7081 Y40.0790 
G01 X-33.5810 Y39.9519 
G01 X-33.4811 Y39.8024 
G01 X-33.4123 Y39.6363 
G01 X-33.3772 Y39.4599 
G01 X-33.3772 Y39.2801 
G01 X-33.4123 Y39.1037 
G01 X-33.4811 Y38.9376 
G01 X-33.5810 Y38.7881 
G01 X-33.7081 Y38.6610 
G01 X-33.8576 Y38.5611 
G01 X-34.0237 Y38.4923 
G01 X-34.2001 Y38.4572 
G01 X-34.3799 Y38.4572 
G01 X-34.5563 Y38.4923 
G01 X-34.7224 Y38.5611 
G01 X-34.8719 Y38.6610 
G01 X-34.9990 Y38.7881 
G01 X-35.0989 Y38.9376 
G01 X-35.1677 Y39.1037 
G01 X-35.2028 Y39.2801 
G00 Z2.0000 
G00 X-35.2028 Y41.8201 
G01 Z-0.0250 F254.00 
G01 X-35.2028 Y41.9999 F508.00 
G01 X-35.1677 Y42.1763 
G01 X-35.0989 Y42.3424 
G01 X-34.9990 Y42.4919 
G01 X-34.8719 Y42.6190 
G01 X-34.7224 Y42.7189 
G01 X-34.5563 Y42.7877 
G01 X-34.3799 Y42.8228 
G01 X-34.2808 Y42.8228 
G01 X-32.3916 Y44.7119 
G01 X-32.2997 Y44.7500 
G01 X-24.1080 Y44.7500 
G01 X-24.1080 Y44.8099 
G01 X-24.0846 Y44.9273 
G01 X-24.0388 Y45.0380 
G01 X-23.9723 Y45.1376 
G01 X-23.8876 Y45.2223 
G01 X-23.7880 Y45.2888 
G01 X-23.6773 Y45.3346 
G01 X-23.5599 Y45.3580 
G01 X-23.4401 Y45.3580 
G01 X-23.3226 Y45.3346 
G01 X-23.2120 Y45.2888 
G01 X-23.1124 Y45.2223 
G01 X-23.0277 Y45.1376 
G01 X-22.9612 Y45.0380 
G01 X-22.9154 Y44.9273 
G01 X-22.8920 Y44.8099 
G01 X-22.8920 Y44.6901 
G01 X-22.9154 Y44.5727 
G01 X-22.9612 Y44.4620 
G01 X-23.0277 Y44.3624 
G01 X-23.1124 Y44.2777 
G01 X-23.2120 Y44.2112 
G01 X-23.3226 Y44.1654 
G01 X-23.4401 Y44.1420 
G01 X-23.5599 Y44.1420 
G01 X-23.6773 Y44.1654 
G01 X-23.7880 Y44.2112 
G01 X-23.8461 Y44.2500 
G01 X-32.1464 Y44.2500 
G01 X-33.7497 Y42.6468 
G01 X-33.7081 Y42.6190 
G01 X-33.5810 Y42.4919 
G01 X-33.4811 Y42.3424 
G01 X-33.4123 Y42.1763 
G01 X-33.3772 Y41.9999 
G01 X-33.3772 Y41.8201 
G01 X-33.4123 Y41.6437 
G01 X-33.4811 Y41.4776 
G01 X-33.5810 Y41.3281 
G01 X-33.7081 Y41.2010 
G01 X-33.8576 Y41.1011 
G01 X-34.0237 Y41.0323 
G01 X-34.2001 Y40.9972 
G01 X-34.3799 Y40.9972 
G01 X-34.5563 Y41.0323 
G01 X-34.7224 Y41.1011 
G01 X-34.8719 Y41.2010 
G01 X-34.9990 Y41.3281 
G01 X-35.0989 Y41.4776 
G01 X-35.1677 Y41.6437 
G01 X-35.2028 Y41.8201 
G00 Z2.0000 
G00 X-35.0989 Y44.8824 
G01 Z-0.0250 F254.00 
G01 X-34.9990 Y45.0319 F508.00 
G01 X-34.8719 Y45.1590 
G01 X-34.7224 Y45.2589 
G01 X-34.5563 Y45.3277 
G01 X-34.3799 Y45.3628 
G01 X-34.2001 Y45.3628 
G01 X-34.0237 Y45.3277 
G01 X-33.8576 Y45.2589 
G01 X-33.8498 Y45.2537 
G01 X-33.1416 Y45.9619 
G01 X-33.0497 Y46.0000 
G01 X-17.7003 Y46.0000 
G01 X-17.6084 Y45.9619 
G01 X-17.5381 Y45.8916 
G01 X-17.5000 Y45.7997 
G01 X-17.5000 Y43.6036 
G01 X-7.4958 Y33.5994 
G01 X-7.4538 Y33.6299 
G01 X-7.3079 Y33.7042 
G01 X-7.1523 Y33.7548 
G01 X-6.9906 Y33.7804 
G01 X-6.8270 Y33.7804 
G01 X-6.6653 Y33.7548 
G01 X-6.5097 Y33.7042 
G01 X-6.3638 Y33.6299 
G01 X-6.2314 Y33.5337 
G01 X-6.1157 Y33.4180 
G01 X-6.0195 Y33.2856 
G01 X-5.9452 Y33.1397 
G01 X-5.8946 Y32.9841 
G01 X-5.8690 Y32.8224 
G01 X-5.8690 Y32.6588 
G01 X-5.8946 Y32.4971 
G01 X-5.9452 Y32.3415 
G01 X-6.0195 Y32.1956 
G01 X-6.1157 Y32.0632 
G01 X-6.2314 Y31.9475 
G01 X-6.3638 Y31.8513 
G01 X-6.5097 Y31.7770 
G01 X-6.6653 Y31.7264 
G01 X-6.8270 Y31.7008 
G01 X-6.9906 Y31.7008 
G01 X-7.1523 Y31.7264 
G01 X-7.3079 Y31.7770 
G01 X-7.4538 Y31.8513 
G01 X-7.5862 Y31.9475 
G01 X-7.7019 Y32.0632 
G01 X-7.7981 Y32.1956 
G01 X-7.8724 Y32.3415 
G01 X-7.9230 Y32.4971 
G01 X-7.9486 Y32.6588 
G01 X-7.9486 Y32.8224 
G01 X-7.9230 Y32.9841 
G01 X-7.8724 Y33.1397 
G01 X-7.8288 Y33.2253 
G01 X-17.8916 Y43.2881 
G01 X-17.9619 Y43.3584 
G01 X-18.0000 Y43.4503 
G01 X-18.0000 Y45.5000 
G01 X-32.8964 Y45.5000 
G01 X-33.4943 Y44.9021 
G01 X-33.4811 Y44.8824 
G01 X-33.4123 Y44.7163 
G01 X-33.3772 Y44.5399 
G01 X-33.3772 Y44.3601 
G01 X-33.4123 Y44.1837 
G01 X-33.4811 Y44.0176 
G01 X-33.5810 Y43.8681 
G01 X-33.7081 Y43.7410 
G01 X-33.8576 Y43.6411 
G01 X-34.0237 Y43.5723 
G01 X-34.2001 Y43.5372 
G01 X-34.3799 Y43.5372 
G01 X-34.5563 Y43.5723 
G01 X-34.7224 Y43.6411 
G01 X-34.8719 Y43.7410 
G01 X-34.9990 Y43.8681 
G01 X-35.0989 Y44.0176 
G01 X-35.1677 Y44.1837 
G01 X-35.1809 Y44.2500 
G01 X-38.9363 Y44.2500 
G01 X-38.9495 Y44.1837 
G01 X-39.0183 Y44.0176 
G01 X-39.1182 Y43.8681 
G01 X-39.2453 Y43.7410 
G01 X-39.3948 Y43.6411 
G01 X-39.5609 Y43.5723 
G01 X-39.7373 Y43.5372 
G01 X-41.5427 Y43.5372 
G01 X-41.7191 Y43.5723 
G01 X-41.8852 Y43.6411 
G01 X-42.0347 Y43.7410 
G01 X-42.1618 Y43.8681 
G01 X-42.2617 Y44.0176 
G01 X-42.3305 Y44.1837 
G01 X-42.3656 Y44.3601 
G01 X-42.3656 Y44.5399 
G01 X-42.3305 Y44.7163 
G01 X-42.2617 Y44.8824 
G01 X-42.1618 Y45.0319 
G01 X-42.0347 Y45.1590 
G01 X-41.8852 Y45.2589 
G01 X-41.7191 Y45.3277 
G01 X-41.5427 Y45.3628 
G01 X-39.7373 Y45.3628 
G01 X-39.5609 Y45.3277 
G01 X-39.3948 Y45.2589 
G01 X-39.2453 Y45.1590 
G01 X-39.1182 Y45.0319 
G01 X-39.0183 Y44.8824 
G01 X-38.9635 Y44.7500 
G01 X-35.1537 Y44.7500 
G01 X-35.0989 Y44.8824 
G00 Z2.0000 
G00 X-35.1677 Y49.7963 
G01 Z-0.0250 F254.00 
G01 X-35.0989 Y49.9624 F508.00 
G01 X-34.9990 Y50.1119 
G01 X-34.8719 Y50.2390 
G01 X-34.7224 Y50.3389 
G01 X-34.5563 Y50.4077 
G01 X-34.3799 Y50.4428 
G01 X-34.2001 Y50.4428 
G01 X-34.0237 Y50.4077 
G01 X-33.8576 Y50.3389 
G01 X-33.7081 Y50.2390 
G01 X-33.5810 Y50.1119 
G01 X-33.4811 Y49.9624 
G01 X-33.4123 Y49.7963 
G01 X-33.3772 Y49.6199 
G01 X-33.3772 Y49.4401 
G01 X-33.4123 Y49.2637 
G01 X-33.4811 Y49.0976 
G01 X-33.5810 Y48.9481 
G01 X-33.7081 Y48.8210 
G01 X-33.8576 Y48.7211 
G01 X-34.0237 Y48.6523 
G01 X-34.2001 Y48.6172 
G01 X-34.3799 Y48.6172 
G01 X-34.5563 Y48.6523 
G01 X-34.7224 Y48.7211 
G01 X-34.8719 Y48.8210 
G01 X-34.9990 Y48.9481 
G01 X-35.0989 Y49.0976 
G01 X-35.1620 Y49.2500 
G01 X-37.8964 Y49.2500 
G01 X-39.3665 Y47.7800 
G01 X-39.2453 Y47.6990 
G01 X-39.1182 Y47.5719 
G01 X-39.0183 Y47.4224 
G01 X-38.9495 Y47.2563 
G01 X-38.9144 Y47.0799 
G01 X-38.9144 Y46.9001 
G01 X-38.9495 Y46.7237 
G01 X-39.0183 Y46.5576 
G01 X-39.1182 Y46.4081 
G01 X-39.2453 Y46.2810 
G01 X-39.3948 Y46.1811 
G01 X-39.5609 Y46.1123 
G01 X-39.7373 Y46.0772 
G01 X-41.5427 Y46.0772 
G01 X-41.7191 Y46.1123 
G01 X-41.8852 Y46.1811 
G01 X-42.0347 Y46.2810 
G01 X-42.1618 Y46.4081 
G01 X-42.2617 Y46.5576 
G01 X-42.3305 Y46.7237 
G01 X-42.3656 Y46.9001 
G01 X-42.3656 Y47.0799 
G01 X-42.3305 Y47.2563 
G01 X-42.2617 Y47.4224 
G01 X-42.1618 Y47.5719 
G01 X-42.0347 Y47.6990 
G01 X-41.8852 Y47.7989 
G01 X-41.7191 Y47.8677 
G01 X-41.5427 Y47.9028 
G01 X-39.9508 Y47.9028 
G01 X-38.2119 Y49.6416 
G01 X-38.1416 Y49.7119 
G01 X-38.0497 Y49.7500 
G01 X-35.1769 Y49.7500 
G01 X-35.1677 Y49.7963 
G00 Z2.0000 
G00 X-35.2028 Y51.9801 
G01 Z-0.0250 F254.00 
G01 X-35.2028 Y52.1599 F508.00 
G01 X-35.1677 Y52.3363 
G01 X-35.0989 Y52.5024 
G01 X-34.9990 Y52.6519 
G01 X-34.8719 Y52.7790 
G01 X-34.7224 Y52.8789 
G01 X-34.5563 Y52.9477 
G01 X-34.3799 Y52.9828 
G01 X-34.2001 Y52.9828 
G01 X-34.0237 Y52.9477 
G01 X-33.8576 Y52.8789 
G01 X-33.7081 Y52.7790 
G01 X-33.5810 Y52.6519 
G01 X-33.4811 Y52.5024 
G01 X-33.4123 Y52.3363 
G01 X-33.3772 Y52.1599 
G01 X-33.3772 Y51.9801 
G01 X-33.4123 Y51.8037 
G01 X-33.4811 Y51.6376 
G01 X-33.5810 Y51.4881 
G01 X-33.7081 Y51.3610 
G01 X-33.8576 Y51.2611 
G01 X-34.0237 Y51.1923 
G01 X-34.2001 Y51.1572 
G01 X-34.3799 Y51.1572 
G01 X-34.5563 Y51.1923 
G01 X-34.7224 Y51.2611 
G01 X-34.8719 Y51.3610 
G01 X-34.9990 Y51.4881 
G01 X-35.0989 Y51.6376 
G01 X-35.1677 Y51.8037 
G01 X-35.2028 Y51.9801 
G00 Z2.0000 
G00 X-11.2652 Y17.7205 
G01 Z-0.0250 F254.00 
G01 X-11.2652 Y16.4979 F508.00 
G01 X-10.3759 Y17.0908 
G01 X-10.2972 Y17.1063 
G01 X-10.2186 Y17.0906 
G01 X-10.1519 Y17.0460 
G01 X-10.1074 Y16.9793 
G01 X-10.0919 Y16.9006 
G01 X-10.1076 Y16.8219 
G01 X-10.1522 Y16.7553 
G01 X-11.1034 Y16.1212 
G01 X-10.1522 Y15.4871 
G01 X-10.1076 Y15.4205 
G01 X-10.0919 Y15.3418 
G01 X-10.1074 Y15.2631 
G01 X-10.1519 Y15.1964 
G01 X-10.2186 Y15.1518 
G01 X-10.2972 Y15.1361 
G01 X-10.3759 Y15.1516 
G01 X-11.2652 Y15.7445 
G01 X-11.2652 Y15.3015 
G01 X-11.2959 Y15.2274 
G01 X-11.3526 Y15.1707 
G01 X-11.4267 Y15.1400 
G01 X-11.5069 Y15.1400 
G01 X-11.5810 Y15.1707 
G01 X-11.6377 Y15.2274 
G01 X-11.6684 Y15.3015 
G01 X-11.6684 Y16.1012 
G01 X-11.6724 Y16.1210 
G01 X-11.6684 Y16.1412 
G01 X-11.6684 Y17.7205 
G01 X-11.6377 Y17.7946 
G01 X-11.5810 Y17.8513 
G01 X-11.5069 Y17.8820 
G01 X-11.4267 Y17.8820 
G01 X-11.3526 Y17.8513 
G01 X-11.2959 Y17.7946 
G01 X-11.2652 Y17.7205 
G00 Z2.0000 
G00 X-12.8378 Y17.6403 
G01 Z-0.0250 F254.00 
G01 X-12.8378 Y18.1103 F508.00 
G01 X-12.8071 Y18.1844 
G01 X-12.7504 Y18.2411 
G01 X-12.6763 Y18.2718 
G01 X-12.5961 Y18.2718 
G01 X-12.5220 Y18.2411 
G01 X-12.4653 Y18.1844 
G01 X-12.4346 Y18.1103 
G01 X-12.4346 Y17.6403 
G01 X-12.4653 Y17.5662 
G01 X-12.5220 Y17.5095 
G01 X-12.5961 Y17.4788 
G01 X-12.6763 Y17.4788 
G01 X-12.7504 Y17.5095 
G01 X-12.8071 Y17.5662 
G01 X-12.8378 Y17.6403 
G00 Z2.0000 
G00 X-13.0661 Y16.6992 
G01 Z-0.0250 F254.00 
G01 X-13.1402 Y16.7299 F508.00 
G01 X-13.1969 Y16.7866 
G01 X-13.2276 Y16.8607 
G01 X-13.2276 Y16.9409 
G01 X-13.1969 Y17.0150 
G01 X-13.1402 Y17.0717 
G01 X-13.0661 Y17.1024 
G01 X-12.5961 Y17.1024 
G01 X-12.5220 Y17.0717 
G01 X-12.4653 Y17.0150 
G01 X-12.4346 Y16.9409 
G01 X-12.4346 Y15.5432 
G01 X-12.2063 Y15.5432 
G01 X-12.1322 Y15.5125 
G01 X-12.0755 Y15.4558 
G01 X-12.0448 Y15.3817 
G01 X-12.0448 Y15.3015 
G01 X-12.0755 Y15.2274 
G01 X-12.1322 Y15.1707 
G01 X-12.2063 Y15.1400 
G01 X-13.0661 Y15.1400 
G01 X-13.1402 Y15.1707 
G01 X-13.1969 Y15.2274 
G01 X-13.2276 Y15.3015 
G01 X-13.2276 Y15.3817 
G01 X-13.1969 Y15.4558 
G01 X-13.1402 Y15.5125 
G01 X-13.0661 Y15.5432 
G01 X-12.8378 Y15.5432 
G01 X-12.8378 Y16.6992 
G01 X-13.0661 Y16.6992 
G00 Z2.0000 
G00 X-14.3970 Y17.3307 
G01 Z-0.0250 F254.00 
G01 X-14.3663 Y17.4048 F508.00 
G01 X-14.3096 Y17.4615 
G01 X-14.2355 Y17.4922 
G01 X-14.1553 Y17.4922 
G01 X-14.0812 Y17.4615 
G01 X-14.0245 Y17.4048 
G01 X-13.9938 Y17.3307 
G01 X-13.9938 Y17.1024 
G01 X-13.7655 Y17.1024 
G01 X-13.6914 Y17.0717 
G01 X-13.6347 Y17.0150 
G01 X-13.6040 Y16.9409 
G01 X-13.6040 Y16.8607 
G01 X-13.6347 Y16.7866 
G01 X-13.6914 Y16.7299 
G01 X-13.7655 Y16.6992 
G01 X-13.9938 Y16.6992 
G01 X-13.9938 Y15.8149 
G01 X-13.6347 Y15.4558 
G01 X-13.6040 Y15.3817 
G01 X-13.6040 Y15.3015 
G01 X-13.6347 Y15.2274 
G01 X-13.6914 Y15.1707 
G01 X-13.7655 Y15.1400 
G01 X-13.8457 Y15.1400 
G01 X-13.9198 Y15.1707 
G01 X-14.3096 Y15.5605 
G01 X-14.3629 Y15.6138 
G01 X-14.3663 Y15.6172 
G01 X-14.3970 Y15.6913 
G01 X-14.3970 Y16.6992 
G01 X-14.6253 Y16.6992 
G01 X-14.6994 Y16.7299 
G01 X-14.7561 Y16.7866 
G01 X-14.7868 Y16.8607 
G01 X-14.7868 Y16.9409 
G01 X-14.7561 Y17.0150 
G01 X-14.6994 Y17.0717 
G01 X-14.6253 Y17.1024 
G01 X-14.3970 Y17.1024 
G01 X-14.3970 Y17.3307 
G00 Z2.0000 
G00 X-16.5743 Y16.6992 
G01 Z-0.0250 F254.00 
G01 X-16.6484 Y16.7299 F508.00 
G01 X-16.7051 Y16.7866 
G01 X-16.7358 Y16.8607 
G01 X-16.7358 Y16.9409 
G01 X-16.7051 Y17.0150 
G01 X-16.6484 Y17.0717 
G01 X-16.5743 Y17.1024 
G01 X-15.7145 Y17.1024 
G01 X-15.6404 Y17.0717 
G01 X-15.2506 Y16.6819 
G01 X-15.1939 Y16.6252 
G01 X-15.1632 Y16.5511 
G01 X-15.1632 Y15.3015 
G01 X-15.1939 Y15.2274 
G01 X-15.2506 Y15.1707 
G01 X-15.3247 Y15.1400 
G01 X-16.5743 Y15.1400 
G01 X-16.6484 Y15.1707 
G01 X-17.0949 Y15.6172 
G01 X-17.1256 Y15.6913 
G01 X-17.1256 Y15.7715 
G01 X-17.0949 Y15.8456 
G01 X-17.0382 Y15.9023 
G01 X-16.7051 Y16.2354 
G01 X-16.6484 Y16.2921 
G01 X-16.5743 Y16.3228 
G01 X-15.5664 Y16.3228 
G01 X-15.5664 Y16.4275 
G01 X-15.8381 Y16.6992 
G01 X-16.5743 Y16.6992 
G00 Z2.0000 
G00 X-19.0612 Y15.3015 
G01 Z-0.0250 F254.00 
G01 X-19.0919 Y15.2274 F508.00 
G01 X-19.1486 Y15.1707 
G01 X-19.2227 Y15.1400 
G01 X-19.3029 Y15.1400 
G01 X-19.3770 Y15.1707 
G01 X-19.4337 Y15.2274 
G01 X-19.4644 Y15.3015 
G01 X-19.4644 Y16.9409 
G01 X-19.4337 Y17.0150 
G01 X-19.3770 Y17.0717 
G01 X-19.3029 Y17.1024 
G01 X-18.8329 Y17.1024 
G01 X-18.7588 Y17.0717 
G01 X-18.4832 Y16.7961 
G01 X-18.2643 Y17.0150 
G01 X-18.2076 Y17.0717 
G01 X-18.1335 Y17.1024 
G01 X-18.0533 Y17.1024 
G01 X-17.9792 Y17.0717 
G01 X-17.5894 Y16.6819 
G01 X-17.5327 Y16.6252 
G01 X-17.5020 Y16.5511 
G01 X-17.5020 Y15.3015 
G01 X-17.5327 Y15.2274 
G01 X-17.5894 Y15.1707 
G01 X-17.6635 Y15.1400 
G01 X-17.7437 Y15.1400 
G01 X-17.8178 Y15.1707 
G01 X-17.8745 Y15.2274 
G01 X-17.9052 Y15.3015 
G01 X-17.9052 Y16.4275 
G01 X-18.0934 Y16.6157 
G01 X-18.2816 Y16.4275 
G01 X-18.2816 Y15.3015 
G01 X-18.3123 Y15.2274 
G01 X-18.3690 Y15.1707 
G01 X-18.4431 Y15.1400 
G01 X-18.5233 Y15.1400 
G01 X-18.5974 Y15.1707 
G01 X-18.6541 Y15.2274 
G01 X-18.6848 Y15.3015 
G01 X-18.6848 Y16.4275 
G01 X-18.9565 Y16.6992 
G01 X-19.0612 Y16.6992 
G01 X-19.0612 Y15.3015 
G00 Z2.0000 
G00 X-21.2519 Y16.6992 
G01 Z-0.0250 F254.00 
G01 X-21.3260 Y16.7299 F508.00 
G01 X-21.3827 Y16.7866 
G01 X-21.4134 Y16.8607 
G01 X-21.4134 Y16.9409 
G01 X-21.3827 Y17.0150 
G01 X-21.3260 Y17.0717 
G01 X-21.2519 Y17.1024 
G01 X-20.3921 Y17.1024 
G01 X-20.3180 Y17.0717 
G01 X-19.9282 Y16.6819 
G01 X-19.8715 Y16.6252 
G01 X-19.8408 Y16.5511 
G01 X-19.8408 Y15.3015 
G01 X-19.8715 Y15.2274 
G01 X-19.9282 Y15.1707 
G01 X-20.0023 Y15.1400 
G01 X-21.2519 Y15.1400 
G01 X-21.3260 Y15.1707 
G01 X-21.7716 Y15.6163 
G01 X-21.8032 Y15.6913 
G01 X-21.8032 Y15.7715 
G01 X-21.7725 Y15.8456 
G01 X-21.7158 Y15.9023 
G01 X-21.3827 Y16.2354 
G01 X-21.3260 Y16.2921 
G01 X-21.2519 Y16.3228 
G01 X-20.2440 Y16.3228 
G01 X-20.2440 Y16.4275 
G01 X-20.5157 Y16.6992 
G01 X-21.2519 Y16.6992 
G00 Z2.0000 
G00 X-23.2009 Y17.4788 
G01 Z-0.0250 F254.00 
G01 X-23.2750 Y17.5095 F508.00 
G01 X-23.3317 Y17.5662 
G01 X-23.3624 Y17.6403 
G01 X-23.3624 Y17.7205 
G01 X-23.3317 Y17.7946 
G01 X-23.2750 Y17.8513 
G01 X-23.2009 Y17.8820 
G01 X-22.7309 Y17.8820 
G01 X-22.6568 Y17.8513 
G01 X-22.6001 Y17.7946 
G01 X-22.5694 Y17.7205 
G01 X-22.5694 Y15.5432 
G01 X-22.3411 Y15.5432 
G01 X-22.2670 Y15.5125 
G01 X-22.2103 Y15.4558 
G01 X-22.1796 Y15.3817 
G01 X-22.1796 Y15.3015 
G01 X-22.2103 Y15.2274 
G01 X-22.2670 Y15.1707 
G01 X-22.3411 Y15.1400 
G01 X-23.2009 Y15.1400 
G01 X-23.2750 Y15.1707 
G01 X-23.3317 Y15.2274 
G01 X-23.3624 Y15.3015 
G01 X-23.3624 Y15.3817 
G01 X-23.3317 Y15.4558 
G01 X-23.2750 Y15.5125 
G01 X-23.2009 Y15.5432 
G01 X-22.9726 Y15.5432 
G01 X-22.9726 Y17.4788 
G01 X-23.2009 Y17.4788 
G00 Z2.0000 
G00 X-26.1083 Y17.4048 
G01 Z-0.0250 F254.00 
G01 X-26.0776 Y17.3307 F508.00 
G01 X-26.0776 Y17.2505 
G01 X-26.1083 Y17.1764 
G01 X-26.1650 Y17.1197 
G01 X-26.2391 Y17.0890 
G01 X-26.3193 Y17.0890 
G01 X-26.3934 Y17.1197 
G01 X-26.7525 Y17.4788 
G01 X-27.3651 Y17.4788 
G01 X-27.6368 Y17.2071 
G01 X-27.6368 Y16.9843 
G01 X-27.3651 Y16.7126 
G01 X-26.6289 Y16.7126 
G01 X-26.5548 Y16.6819 
G01 X-26.1650 Y16.2921 
G01 X-26.1083 Y16.2354 
G01 X-26.0776 Y16.1613 
G01 X-26.0776 Y15.6913 
G01 X-26.1083 Y15.6172 
G01 X-26.1117 Y15.6138 
G01 X-26.1650 Y15.5605 
G01 X-26.4981 Y15.2274 
G01 X-26.5548 Y15.1707 
G01 X-26.6289 Y15.1400 
G01 X-27.4887 Y15.1400 
G01 X-27.5628 Y15.1707 
G01 X-28.0093 Y15.6172 
G01 X-28.0400 Y15.6913 
G01 X-28.0400 Y15.7715 
G01 X-28.0093 Y15.8456 
G01 X-27.9526 Y15.9023 
G01 X-27.8785 Y15.9330 
G01 X-27.7983 Y15.9330 
G01 X-27.7242 Y15.9023 
G01 X-27.3651 Y15.5432 
G01 X-26.7525 Y15.5432 
G01 X-26.4808 Y15.8149 
G01 X-26.4808 Y16.0377 
G01 X-26.7525 Y16.3094 
G01 X-27.4887 Y16.3094 
G01 X-27.5628 Y16.3401 
G01 X-27.6195 Y16.3968 
G01 X-27.9526 Y16.7299 
G01 X-28.0093 Y16.7866 
G01 X-28.0391 Y16.8586 
G01 X-28.0400 Y17.3307 
G01 X-28.0093 Y17.4048 
G01 X-27.9526 Y17.4615 
G01 X-27.6195 Y17.7946 
G01 X-27.5662 Y17.8479 
G01 X-27.5628 Y17.8513 
G01 X-27.4887 Y17.8820 
G01 X-26.6289 Y17.8820 
G01 X-26.5548 Y17.8513 
G01 X-26.4981 Y17.7946 
G01 X-26.1083 Y17.4048 
G00 Z2.0000 
G00 X-25.7012 Y16.9409 
G01 Z-0.0250 F254.00 
G01 X-25.6705 Y17.0150 F508.00 
G01 X-25.6138 Y17.0717 
G01 X-25.5397 Y17.1024 
G01 X-25.4595 Y17.1024 
G01 X-25.3854 Y17.0717 
G01 X-25.3287 Y17.0150 
G01 X-25.2980 Y16.9409 
G01 X-25.2980 Y15.8149 
G01 X-25.0263 Y15.5432 
G01 X-24.1420 Y15.5432 
G01 X-24.1420 Y16.9409 
G01 X-24.1113 Y17.0150 
G01 X-24.0546 Y17.0717 
G01 X-23.9805 Y17.1024 
G01 X-23.9003 Y17.1024 
G01 X-23.8262 Y17.0717 
G01 X-23.7695 Y17.0150 
G01 X-23.7388 Y16.9409 
G01 X-23.7388 Y15.3015 
G01 X-23.7695 Y15.2274 
G01 X-23.8262 Y15.1707 
G01 X-23.9003 Y15.1400 
G01 X-25.1499 Y15.1400 
G01 X-25.2240 Y15.1707 
G01 X-25.2807 Y15.2274 
G01 X-25.6705 Y15.6172 
G01 X-25.7012 Y15.6913 
G01 X-25.7012 Y15.7715 
G01 X-25.7012 Y16.9409 
G00 Z2.0000 
G00 X-27.4080 Y27.1083 
G01 Z-0.0250 F254.00 
G01 X-27.4080 Y28.7717 F508.00 
G01 X-26.2317 Y29.9480 
G01 X-24.5683 Y29.9480 
G01 X-23.3920 Y28.7717 
G01 X-23.3920 Y27.1083 
G01 X-24.5683 Y25.9320 
G01 X-26.2317 Y25.9320 
G01 X-27.4080 Y27.1083 
G00 Z2.0000 
G00 X-21.1751 Y15.7314 
G01 Z-0.0250 F254.00 
G01 X-21.0869 Y15.6432 F508.00 
G01 X-20.3440 Y15.6432 
G01 X-20.3440 Y15.8196 
G01 X-21.0869 Y15.8196 
G01 X-21.1751 Y15.7314 
G00 Z2.0000 
G00 X-16.4975 Y15.7314 
G01 Z-0.0250 F254.00 
G01 X-16.4093 Y15.6432 F508.00 
G01 X-15.6664 Y15.6432 
G01 X-15.6664 Y15.8196 
G01 X-16.4093 Y15.8196 
G01 X-16.4975 Y15.7314 
G00 Z2.0000 
G00 X-32.0548 Y44.1500 
G01 Z-0.0250 F254.00 
G01 X-32.1050 Y44.1500 F508.00 
G01 X-32.1406 Y44.1145 
G01 X-32.0548 Y44.1500 
G00 Z2.0000 
G00 X-18.5703 Y45.3475 
G01 Z-0.0250 F254.00 
G01 X-18.4044 Y45.2367 F508.00 
G01 X-18.2633 Y45.0956 
G01 X-18.1525 Y44.9297 
G01 X-18.1000 Y44.8031 
G01 X-18.1000 Y45.4000 
G01 X-18.6969 Y45.4000 
G01 X-18.5703 Y45.3475 
G00 Z2.0000 
G00 X-44.8074 Y6.6072 
G01 Z-0.0250 F254.00 
G01 X-46.6326 Y6.6072 F508.00 
G01 X-46.8282 Y6.6461 
G01 X-47.0125 Y6.7225 
G01 X-47.1784 Y6.8333 
G01 X-47.3195 Y6.9744 
G01 X-47.4303 Y7.1403 
G01 X-47.5067 Y7.3246 
G01 X-47.5456 Y7.5202 
G01 X-47.5456 Y7.7198 
G01 X-47.5067 Y7.9154 
G01 X-47.4303 Y8.0997 
G01 X-47.3195 Y8.2656 
G01 X-47.1784 Y8.4067 
G01 X-47.0125 Y8.5175 
G01 X-46.8282 Y8.5939 
G01 X-46.6326 Y8.6328 
G01 X-44.8074 Y8.6328 
G01 X-44.6118 Y8.5939 
G01 X-44.4275 Y8.5175 
G01 X-44.2616 Y8.4067 
G01 X-44.1205 Y8.2656 
G01 X-44.0097 Y8.0997 
G01 X-43.9333 Y7.9154 
G01 X-43.8944 Y7.7198 
G01 X-43.8944 Y7.5202 
G01 X-43.9333 Y7.3246 
G01 X-44.0097 Y7.1403 
G01 X-44.1205 Y6.9744 
G01 X-44.2616 Y6.8333 
G01 X-44.4275 Y6.7225 
G01 X-44.6118 Y6.6461 
G01 X-44.8074 Y6.6072 
G00 Z2.0000 
G00 X-44.8074 Y1.5272 
G01 Z-0.0250 F254.00 
G01 X-46.6326 Y1.5272 F508.00 
G01 X-46.8282 Y1.5661 
G01 X-47.0125 Y1.6425 
G01 X-47.1784 Y1.7533 
G01 X-47.3195 Y1.8944 
G01 X-47.4303 Y2.0603 
G01 X-47.5067 Y2.2446 
G01 X-47.5456 Y2.4402 
G01 X-47.5456 Y2.6398 
G01 X-47.5067 Y2.8354 
G01 X-47.4303 Y3.0197 
G01 X-47.3195 Y3.1856 
G01 X-47.1784 Y3.3267 
G01 X-47.0125 Y3.4375 
G01 X-46.8282 Y3.5139 
G01 X-46.6326 Y3.5528 
G01 X-44.8074 Y3.5528 
G01 X-44.6118 Y3.5139 
G01 X-44.4275 Y3.4375 
G01 X-44.2616 Y3.3267 
G01 X-44.1205 Y3.1856 
G01 X-44.0097 Y3.0197 
G01 X-43.9333 Y2.8354 
G01 X-43.8944 Y2.6398 
G01 X-43.8944 Y2.4402 
G01 X-43.9333 Y2.2446 
G01 X-44.0097 Y2.0603 
G01 X-44.1205 Y1.8944 
G01 X-44.2616 Y1.7533 
G01 X-44.4275 Y1.6425 
G01 X-44.6118 Y1.5661 
G01 X-44.8074 Y1.5272 
G00 Z2.0000 
G00 X-47.0920 Y18.6785 
G01 Z-0.0250 F254.00 
G01 X-44.3480 Y18.6785 F508.00 
G01 X-44.1214 Y18.6426 
G01 X-43.9033 Y18.5717 
G01 X-43.6989 Y18.4676 
G01 X-43.5133 Y18.3328 
G01 X-43.3511 Y18.1706 
G01 X-43.2163 Y17.9850 
G01 X-43.1122 Y17.7806 
G01 X-43.0413 Y17.5625 
G01 X-43.0054 Y17.3359 
G01 X-43.0054 Y17.1065 
G01 X-43.0413 Y16.8799 
G01 X-43.1122 Y16.6618 
G01 X-43.2163 Y16.4574 
G01 X-43.3511 Y16.2718 
G01 X-43.5133 Y16.1096 
G01 X-43.6989 Y15.9748 
G01 X-43.9033 Y15.8707 
G01 X-44.1214 Y15.7998 
G01 X-44.3480 Y15.7639 
G01 X-47.0920 Y15.7639 
G01 X-47.3186 Y15.7998 
G01 X-47.5367 Y15.8707 
G01 X-47.7411 Y15.9748 
G01 X-47.9267 Y16.1096 
G01 X-48.0889 Y16.2718 
G01 X-48.2237 Y16.4574 
G01 X-48.3278 Y16.6618 
G01 X-48.3987 Y16.8799 
G01 X-48.4346 Y17.1065 
G01 X-48.4346 Y17.3359 
G01 X-48.3987 Y17.5625 
G01 X-48.3278 Y17.7806 
G01 X-48.2237 Y17.9850 
G01 X-48.0889 Y18.1706 
G01 X-47.9267 Y18.3328 
G01 X-47.7411 Y18.4676 
G01 X-47.5367 Y18.5717 
G01 X-47.3186 Y18.6426 
G01 X-47.0920 Y18.6785 
G00 Z2.0000 
G00 X-47.0920 Y14.7161 
G01 Z-0.0250 F254.00 
G01 X-44.3480 Y14.7161 F508.00 
G01 X-44.1214 Y14.6802 
G01 X-43.9033 Y14.6093 
G01 X-43.6989 Y14.5052 
G01 X-43.5133 Y14.3704 
G01 X-43.3511 Y14.2082 
G01 X-43.2163 Y14.0226 
G01 X-43.1284 Y13.8500 
G01 X-38.1000 Y13.8500 
G01 X-38.1000 Y25.0761 
G01 X-38.1424 Y24.9737 
G01 X-38.2409 Y24.8263 
G01 X-38.3663 Y24.7009 
G01 X-38.5137 Y24.6024 
G01 X-38.6775 Y24.5346 
G01 X-38.8514 Y24.5000 
G01 X-39.0286 Y24.5000 
G01 X-39.2025 Y24.5346 
G01 X-39.3663 Y24.6024 
G01 X-39.5137 Y24.7009 
G01 X-39.6391 Y24.8263 
G01 X-39.7376 Y24.9737 
G01 X-39.8054 Y25.1375 
G01 X-39.8400 Y25.3114 
G01 X-39.8400 Y25.4886 
G01 X-39.8054 Y25.6625 
G01 X-39.7621 Y25.7671 
G01 X-43.0607 Y29.0658 
G01 X-43.1803 Y29.0420 
G01 X-43.3197 Y29.0420 
G01 X-43.4565 Y29.0692 
G01 X-43.5854 Y29.1226 
G01 X-43.7013 Y29.2001 
G01 X-43.7999 Y29.2987 
G01 X-43.8774 Y29.4146 
G01 X-43.9308 Y29.5435 
G01 X-43.9580 Y29.6803 
G01 X-43.9580 Y29.8197 
G01 X-43.9308 Y29.9565 
G01 X-43.8774 Y30.0854 
G01 X-43.7999 Y30.2013 
G01 X-43.7013 Y30.2999 
G01 X-43.5854 Y30.3774 
G01 X-43.4565 Y30.4308 
G01 X-43.3197 Y30.4580 
G01 X-43.1803 Y30.4580 
G01 X-43.0435 Y30.4308 
G01 X-42.9146 Y30.3774 
G01 X-42.7987 Y30.2999 
G01 X-42.7001 Y30.2013 
G01 X-42.6226 Y30.0854 
G01 X-42.5692 Y29.9565 
G01 X-42.5420 Y29.8197 
G01 X-42.5420 Y29.6803 
G01 X-42.5658 Y29.5607 
G01 X-39.2505 Y26.2455 
G01 X-39.2025 Y26.2654 
G01 X-39.0286 Y26.3000 
G01 X-38.8514 Y26.3000 
G01 X-38.6775 Y26.2654 
G01 X-38.5137 Y26.1976 
G01 X-38.3663 Y26.0991 
G01 X-38.2409 Y25.9737 
G01 X-38.1424 Y25.8263 
G01 X-38.1000 Y25.7239 
G01 X-38.1000 Y31.0461 
G01 X-38.0761 Y31.1351 
G01 X-38.0301 Y31.2149 
G01 X-37.9649 Y31.2801 
G01 X-35.2599 Y33.9850 
G01 X-35.2639 Y33.9946 
G01 X-35.3028 Y34.1902 
G01 X-35.3028 Y34.3898 
G01 X-35.2639 Y34.5854 
G01 X-35.1875 Y34.7697 
G01 X-35.0767 Y34.9356 
G01 X-34.9356 Y35.0767 
G01 X-34.7697 Y35.1875 
G01 X-34.5854 Y35.2639 
G01 X-34.3898 Y35.3028 
G01 X-34.1902 Y35.3028 
G01 X-33.9946 Y35.2639 
G01 X-33.8103 Y35.1875 
G01 X-33.6444 Y35.0767 
G01 X-33.5033 Y34.9356 
G01 X-33.3925 Y34.7697 
G01 X-33.3161 Y34.5854 
G01 X-33.2772 Y34.3898 
G01 X-33.2772 Y34.1902 
G01 X-33.3161 Y33.9946 
G01 X-33.3925 Y33.8103 
G01 X-33.5033 Y33.6444 
G01 X-33.6444 Y33.5033 
G01 X-33.8103 Y33.3925 
G01 X-33.9946 Y33.3161 
G01 X-34.1902 Y33.2772 
G01 X-34.3898 Y33.2772 
G01 X-34.5854 Y33.3161 
G01 X-34.7697 Y33.3925 
G01 X-34.8254 Y33.4296 
G01 X-37.4000 Y30.8550 
G01 X-37.4000 Y13.4539 
G01 X-37.4239 Y13.3649 
G01 X-37.4699 Y13.2851 
G01 X-37.5351 Y13.2199 
G01 X-37.6149 Y13.1739 
G01 X-37.7039 Y13.1500 
G01 X-43.0054 Y13.1500 
G01 X-43.0054 Y13.1441 
G01 X-43.0413 Y12.9175 
G01 X-43.1122 Y12.6994 
G01 X-43.2163 Y12.4950 
G01 X-43.3511 Y12.3094 
G01 X-43.5133 Y12.1472 
G01 X-43.6989 Y12.0124 
G01 X-43.9033 Y11.9083 
G01 X-44.1214 Y11.8374 
G01 X-44.3480 Y11.8015 
G01 X-47.0920 Y11.8015 
G01 X-47.3186 Y11.8374 
G01 X-47.5367 Y11.9083 
G01 X-47.7411 Y12.0124 
G01 X-47.9267 Y12.1472 
G01 X-48.0889 Y12.3094 
G01 X-48.2237 Y12.4950 
G01 X-48.3278 Y12.6994 
G01 X-48.3987 Y12.9175 
G01 X-48.4346 Y13.1441 
G01 X-48.4346 Y13.3735 
G01 X-48.3987 Y13.6001 
G01 X-48.3278 Y13.8182 
G01 X-48.2237 Y14.0226 
G01 X-48.0889 Y14.2082 
G01 X-47.9267 Y14.3704 
G01 X-47.7411 Y14.5052 
G01 X-47.5367 Y14.6093 
G01 X-47.3186 Y14.6802 
G01 X-47.0920 Y14.7161 
G00 Z2.0000 
G00 X-43.2400 Y25.3114 
G01 Z-0.0250 F254.00 
G01 X-43.2400 Y25.4886 F508.00 
G01 X-43.2054 Y25.6625 
G01 X-43.1376 Y25.8263 
G01 X-43.0391 Y25.9737 
G01 X-42.9137 Y26.0991 
G01 X-42.7663 Y26.1976 
G01 X-42.6025 Y26.2654 
G01 X-42.4286 Y26.3000 
G01 X-42.2514 Y26.3000 
G01 X-42.0775 Y26.2654 
G01 X-41.9137 Y26.1976 
G01 X-41.7663 Y26.0991 
G01 X-41.6409 Y25.9737 
G01 X-41.5424 Y25.8263 
G01 X-41.4746 Y25.6625 
G01 X-41.4400 Y25.4886 
G01 X-41.4400 Y25.3114 
G01 X-41.4746 Y25.1375 
G01 X-41.5424 Y24.9737 
G01 X-41.6409 Y24.8263 
G01 X-41.7663 Y24.7009 
G01 X-41.9137 Y24.6024 
G01 X-42.0775 Y24.5346 
G01 X-42.2514 Y24.5000 
G01 X-42.4286 Y24.5000 
G01 X-42.6025 Y24.5346 
G01 X-42.7663 Y24.6024 
G01 X-42.9137 Y24.7009 
G01 X-43.0391 Y24.8263 
G01 X-43.1376 Y24.9737 
G01 X-43.2054 Y25.1375 
G01 X-43.2400 Y25.3114 
G00 Z2.0000 
G00 X-40.9988 Y33.8209 
G01 Z-0.0250 F254.00 
G01 X-40.9988 Y32.2191 F508.00 
G01 X-41.0338 Y32.0430 
G01 X-41.1025 Y31.8772 
G01 X-41.2022 Y31.7279 
G01 X-41.3291 Y31.6010 
G01 X-41.4784 Y31.5013 
G01 X-41.6442 Y31.4326 
G01 X-41.8203 Y31.3976 
G01 X-41.9997 Y31.3976 
G01 X-42.1758 Y31.4326 
G01 X-42.3416 Y31.5013 
G01 X-42.4909 Y31.6010 
G01 X-42.6178 Y31.7279 
G01 X-42.7175 Y31.8772 
G01 X-42.7862 Y32.0430 
G01 X-42.8212 Y32.2191 
G01 X-42.8212 Y33.8209 
G01 X-42.7862 Y33.9970 
G01 X-42.7175 Y34.1628 
G01 X-42.6178 Y34.3121 
G01 X-42.4909 Y34.4390 
G01 X-42.3416 Y34.5387 
G01 X-42.1758 Y34.6074 
G01 X-41.9997 Y34.6424 
G01 X-41.8203 Y34.6424 
G01 X-41.6442 Y34.6074 
G01 X-41.4784 Y34.5387 
G01 X-41.3291 Y34.4390 
G01 X-41.2022 Y34.3121 
G01 X-41.1025 Y34.1628 
G01 X-41.0338 Y33.9970 
G01 X-40.9988 Y33.8209 
G00 Z2.0000 
G00 X-38.4588 Y33.8209 
G01 Z-0.0250 F254.00 
G01 X-38.4588 Y33.6000 F508.00 
G01 X-38.1450 Y33.6000 
G01 X-35.2482 Y36.4968 
G01 X-35.2639 Y36.5346 
G01 X-35.3028 Y36.7302 
G01 X-35.3028 Y36.9298 
G01 X-35.2639 Y37.1254 
G01 X-35.1875 Y37.3097 
G01 X-35.0767 Y37.4756 
G01 X-34.9356 Y37.6167 
G01 X-34.7697 Y37.7275 
G01 X-34.5854 Y37.8039 
G01 X-34.3898 Y37.8428 
G01 X-34.1902 Y37.8428 
G01 X-33.9946 Y37.8039 
G01 X-33.8103 Y37.7275 
G01 X-33.6444 Y37.6167 
G01 X-33.5033 Y37.4756 
G01 X-33.3925 Y37.3097 
G01 X-33.3161 Y37.1254 
G01 X-33.2772 Y36.9298 
G01 X-33.2772 Y36.7302 
G01 X-33.3161 Y36.5346 
G01 X-33.3925 Y36.3503 
G01 X-33.5033 Y36.1844 
G01 X-33.6444 Y36.0433 
G01 X-33.8103 Y35.9325 
G01 X-33.9946 Y35.8561 
G01 X-34.1902 Y35.8172 
G01 X-34.3898 Y35.8172 
G01 X-34.5854 Y35.8561 
G01 X-34.7697 Y35.9325 
G01 X-34.8014 Y35.9536 
G01 X-37.7199 Y33.0351 
G01 X-37.7851 Y32.9699 
G01 X-37.8649 Y32.9239 
G01 X-37.9539 Y32.9000 
G01 X-38.4588 Y32.9000 
G01 X-38.4588 Y32.2191 
G01 X-38.4938 Y32.0430 
G01 X-38.5625 Y31.8772 
G01 X-38.6622 Y31.7279 
G01 X-38.7891 Y31.6010 
G01 X-38.9384 Y31.5013 
G01 X-39.1042 Y31.4326 
G01 X-39.2803 Y31.3976 
G01 X-39.4597 Y31.3976 
G01 X-39.6358 Y31.4326 
G01 X-39.8016 Y31.5013 
G01 X-39.9509 Y31.6010 
G01 X-40.0778 Y31.7279 
G01 X-40.1775 Y31.8772 
G01 X-40.2462 Y32.0430 
G01 X-40.2812 Y32.2191 
G01 X-40.2812 Y33.5362 
G01 X-43.3107 Y36.5658 
G01 X-43.4303 Y36.5420 
G01 X-43.5697 Y36.5420 
G01 X-43.7065 Y36.5692 
G01 X-43.8354 Y36.6226 
G01 X-43.9513 Y36.7001 
G01 X-44.0499 Y36.7987 
G01 X-44.1274 Y36.9146 
G01 X-44.1808 Y37.0435 
G01 X-44.2080 Y37.1803 
G01 X-44.2080 Y37.3197 
G01 X-44.1808 Y37.4565 
G01 X-44.1274 Y37.5854 
G01 X-44.0499 Y37.7013 
G01 X-43.9513 Y37.7999 
G01 X-43.8354 Y37.8774 
G01 X-43.7065 Y37.9308 
G01 X-43.5697 Y37.9580 
G01 X-43.4303 Y37.9580 
G01 X-43.2935 Y37.9308 
G01 X-43.1646 Y37.8774 
G01 X-43.0487 Y37.7999 
G01 X-42.9501 Y37.7013 
G01 X-42.8726 Y37.5854 
G01 X-42.8192 Y37.4565 
G01 X-42.7920 Y37.3197 
G01 X-42.7920 Y37.1803 
G01 X-42.8158 Y37.0607 
G01 X-40.0724 Y34.3174 
G01 X-39.9509 Y34.4390 
G01 X-39.8016 Y34.5387 
G01 X-39.6358 Y34.6074 
G01 X-39.4597 Y34.6424 
G01 X-39.2803 Y34.6424 
G01 X-39.1042 Y34.6074 
G01 X-38.9384 Y34.5387 
G01 X-38.7891 Y34.4390 
G01 X-38.6622 Y34.3121 
G01 X-38.5625 Y34.1628 
G01 X-38.4938 Y33.9970 
G01 X-38.4588 Y33.8209 
G00 Z2.0000 
G00 X-39.7274 Y40.8972 
G01 Z-0.0250 F254.00 
G01 X-41.5526 Y40.8972 F508.00 
G01 X-41.7482 Y40.9361 
G01 X-41.9325 Y41.0125 
G01 X-42.0984 Y41.1233 
G01 X-42.2395 Y41.2644 
G01 X-42.3503 Y41.4303 
G01 X-42.4267 Y41.6146 
G01 X-42.4656 Y41.8102 
G01 X-42.4656 Y42.0098 
G01 X-42.4267 Y42.2054 
G01 X-42.3503 Y42.3897 
G01 X-42.2395 Y42.5556 
G01 X-42.0984 Y42.6967 
G01 X-41.9325 Y42.8075 
G01 X-41.7482 Y42.8839 
G01 X-41.5526 Y42.9228 
G01 X-39.7274 Y42.9228 
G01 X-39.5318 Y42.8839 
G01 X-39.3475 Y42.8075 
G01 X-39.1816 Y42.6967 
G01 X-39.0405 Y42.5556 
G01 X-38.9297 Y42.3897 
G01 X-38.8533 Y42.2054 
G01 X-38.8144 Y42.0098 
G01 X-38.8144 Y41.8102 
G01 X-38.8533 Y41.6146 
G01 X-38.9297 Y41.4303 
G01 X-39.0405 Y41.2644 
G01 X-39.1816 Y41.1233 
G01 X-39.3475 Y41.0125 
G01 X-39.5318 Y40.9361 
G01 X-39.7274 Y40.8972 
G00 Z2.0000 
G00 X-39.7274 Y38.3572 
G01 Z-0.0250 F254.00 
G01 X-41.5526 Y38.3572 F508.00 
G01 X-41.7482 Y38.3961 
G01 X-41.9325 Y38.4725 
G01 X-42.0984 Y38.5833 
G01 X-42.2395 Y38.7244 
G01 X-42.3503 Y38.8903 
G01 X-42.4267 Y39.0746 
G01 X-42.4656 Y39.2702 
G01 X-42.4656 Y39.4698 
G01 X-42.4267 Y39.6654 
G01 X-42.3503 Y39.8497 
G01 X-42.2395 Y40.0156 
G01 X-42.0984 Y40.1567 
G01 X-41.9325 Y40.2675 
G01 X-41.7482 Y40.3439 
G01 X-41.5526 Y40.3828 
G01 X-39.7274 Y40.3828 
G01 X-39.5318 Y40.3439 
G01 X-39.3475 Y40.2675 
G01 X-39.1816 Y40.1567 
G01 X-39.0405 Y40.0156 
G01 X-38.9297 Y39.8497 
G01 X-38.8533 Y39.6654 
G01 X-38.8144 Y39.4698 
G01 X-38.8144 Y39.2702 
G01 X-38.8533 Y39.0746 
G01 X-38.9297 Y38.8903 
G01 X-39.0405 Y38.7244 
G01 X-39.1816 Y38.5833 
G01 X-39.3475 Y38.4725 
G01 X-39.5318 Y38.3961 
G01 X-39.7274 Y38.3572 
G00 Z2.0000 
G00 X-44.5520 Y59.3185 
G01 Z-0.0250 F254.00 
G01 X-41.8080 Y59.3185 F508.00 
G01 X-41.5814 Y59.2826 
G01 X-41.3633 Y59.2117 
G01 X-41.1589 Y59.1076 
G01 X-40.9733 Y58.9728 
G01 X-40.8111 Y58.8106 
G01 X-40.6763 Y58.6250 
G01 X-40.5722 Y58.4206 
G01 X-40.5013 Y58.2025 
G01 X-40.4654 Y57.9759 
G01 X-40.4654 Y57.7465 
G01 X-40.5013 Y57.5199 
G01 X-40.5722 Y57.3018 
G01 X-40.6763 Y57.0974 
G01 X-40.8111 Y56.9118 
G01 X-40.9733 Y56.7496 
G01 X-41.1589 Y56.6148 
G01 X-41.3633 Y56.5107 
G01 X-41.5814 Y56.4398 
G01 X-41.8080 Y56.4039 
G01 X-44.5520 Y56.4039 
G01 X-44.7786 Y56.4398 
G01 X-44.9967 Y56.5107 
G01 X-45.2011 Y56.6148 
G01 X-45.3867 Y56.7496 
G01 X-45.5489 Y56.9118 
G01 X-45.6837 Y57.0974 
G01 X-45.7878 Y57.3018 
G01 X-45.8587 Y57.5199 
G01 X-45.8946 Y57.7465 
G01 X-45.8946 Y57.9759 
G01 X-45.8587 Y58.2025 
G01 X-45.7878 Y58.4206 
G01 X-45.6837 Y58.6250 
G01 X-45.5489 Y58.8106 
G01 X-45.3867 Y58.9728 
G01 X-45.2011 Y59.1076 
G01 X-44.9967 Y59.2117 
G01 X-44.7786 Y59.2826 
G01 X-44.5520 Y59.3185 
G00 Z2.0000 
G00 X-44.5520 Y55.3561 
G01 Z-0.0250 F254.00 
G01 X-41.8080 Y55.3561 F508.00 
G01 X-41.5814 Y55.3202 
G01 X-41.3633 Y55.2493 
G01 X-41.1589 Y55.1452 
G01 X-40.9733 Y55.0104 
G01 X-40.8111 Y54.8482 
G01 X-40.6763 Y54.6626 
G01 X-40.5722 Y54.4582 
G01 X-40.5013 Y54.2401 
G01 X-40.4654 Y54.0135 
G01 X-40.4654 Y53.7841 
G01 X-40.5013 Y53.5575 
G01 X-40.5722 Y53.3394 
G01 X-40.6763 Y53.1350 
G01 X-40.8111 Y52.9494 
G01 X-40.9733 Y52.7872 
G01 X-41.1589 Y52.6524 
G01 X-41.3633 Y52.5483 
G01 X-41.5814 Y52.4774 
G01 X-41.8080 Y52.4415 
G01 X-44.5520 Y52.4415 
G01 X-44.7786 Y52.4774 
G01 X-44.9967 Y52.5483 
G01 X-45.2011 Y52.6524 
G01 X-45.3867 Y52.7872 
G01 X-45.5489 Y52.9494 
G01 X-45.6837 Y53.1350 
G01 X-45.7878 Y53.3394 
G01 X-45.8587 Y53.5575 
G01 X-45.8946 Y53.7841 
G01 X-45.8946 Y54.0135 
G01 X-45.8587 Y54.2401 
G01 X-45.7878 Y54.4582 
G01 X-45.6837 Y54.6626 
G01 X-45.5489 Y54.8482 
G01 X-45.3867 Y55.0104 
G01 X-45.2011 Y55.1452 
G01 X-44.9967 Y55.2493 
G01 X-44.7786 Y55.3202 
G01 X-44.5520 Y55.3561 
G00 Z2.0000 
G00 X-27.5812 Y3.0091 
G01 Z-0.0250 F254.00 
G01 X-27.5812 Y4.6109 F508.00 
G01 X-27.5462 Y4.7870 
G01 X-27.4775 Y4.9528 
G01 X-27.3778 Y5.1021 
G01 X-27.2509 Y5.2290 
G01 X-27.1016 Y5.3287 
G01 X-26.9358 Y5.3974 
G01 X-26.7597 Y5.4324 
G01 X-26.5803 Y5.4324 
G01 X-26.4042 Y5.3974 
G01 X-26.2384 Y5.3287 
G01 X-26.0891 Y5.2290 
G01 X-25.9622 Y5.1021 
G01 X-25.8625 Y4.9528 
G01 X-25.7938 Y4.7870 
G01 X-25.7588 Y4.6109 
G01 X-25.7588 Y3.0091 
G01 X-25.7938 Y2.8330 
G01 X-25.8625 Y2.6672 
G01 X-25.9622 Y2.5179 
G01 X-26.0891 Y2.3910 
G01 X-26.2384 Y2.2913 
G01 X-26.4042 Y2.2226 
G01 X-26.5803 Y2.1876 
G01 X-26.7597 Y2.1876 
G01 X-26.9358 Y2.2226 
G01 X-27.1016 Y2.2913 
G01 X-27.2509 Y2.3910 
G01 X-27.3778 Y2.5179 
G01 X-27.4775 Y2.6672 
G01 X-27.5462 Y2.8330 
G01 X-27.5812 Y3.0091 
G00 Z2.0000 
G00 X-25.0412 Y3.0091 
G01 Z-0.0250 F254.00 
G01 X-25.0412 Y4.6109 F508.00 
G01 X-25.0062 Y4.7870 
G01 X-24.9375 Y4.9528 
G01 X-24.8378 Y5.1021 
G01 X-24.7109 Y5.2290 
G01 X-24.5616 Y5.3287 
G01 X-24.3958 Y5.3974 
G01 X-24.2197 Y5.4324 
G01 X-24.0403 Y5.4324 
G01 X-23.8642 Y5.3974 
G01 X-23.6984 Y5.3287 
G01 X-23.5491 Y5.2290 
G01 X-23.4222 Y5.1021 
G01 X-23.3225 Y4.9528 
G01 X-23.2538 Y4.7870 
G01 X-23.2188 Y4.6109 
G01 X-23.2188 Y3.0091 
G01 X-23.2538 Y2.8330 
G01 X-23.3225 Y2.6672 
G01 X-23.4222 Y2.5179 
G01 X-23.5491 Y2.3910 
G01 X-23.6984 Y2.2913 
G01 X-23.8642 Y2.2226 
G01 X-24.0403 Y2.1876 
G01 X-24.2197 Y2.1876 
G01 X-24.3958 Y2.2226 
G01 X-24.5616 Y2.2913 
G01 X-24.7109 Y2.3910 
G01 X-24.8378 Y2.5179 
G01 X-24.9375 Y2.6672 
G01 X-25.0062 Y2.8330 
G01 X-25.0412 Y3.0091 
G00 Z2.0000 
G00 X-22.5012 Y3.0091 
G01 Z-0.0250 F254.00 
G01 X-22.5012 Y4.6109 F508.00 
G01 X-22.4662 Y4.7870 
G01 X-22.3975 Y4.9528 
G01 X-22.2978 Y5.1021 
G01 X-22.1709 Y5.2290 
G01 X-22.0216 Y5.3287 
G01 X-21.8558 Y5.3974 
G01 X-21.6797 Y5.4324 
G01 X-21.5003 Y5.4324 
G01 X-21.3242 Y5.3974 
G01 X-21.1584 Y5.3287 
G01 X-21.0091 Y5.2290 
G01 X-20.8822 Y5.1021 
G01 X-20.7825 Y4.9528 
G01 X-20.7138 Y4.7870 
G01 X-20.6788 Y4.6109 
G01 X-20.6788 Y3.0091 
G01 X-20.7138 Y2.8330 
G01 X-20.7825 Y2.6672 
G01 X-20.8822 Y2.5179 
G01 X-21.0091 Y2.3910 
G01 X-21.1584 Y2.2913 
G01 X-21.3242 Y2.2226 
G01 X-21.5003 Y2.1876 
G01 X-21.6797 Y2.1876 
G01 X-21.8558 Y2.2226 
G01 X-22.0216 Y2.2913 
G01 X-22.1709 Y2.3910 
G01 X-22.2978 Y2.5179 
G01 X-22.3975 Y2.6672 
G01 X-22.4662 Y2.8330 
G01 X-22.5012 Y3.0091 
G00 Z2.0000 
G00 X-19.9612 Y3.0091 
G01 Z-0.0250 F254.00 
G01 X-19.9612 Y4.6109 F508.00 
G01 X-19.9262 Y4.7870 
G01 X-19.8575 Y4.9528 
G01 X-19.7578 Y5.1021 
G01 X-19.6309 Y5.2290 
G01 X-19.4816 Y5.3287 
G01 X-19.3158 Y5.3974 
G01 X-19.1397 Y5.4324 
G01 X-18.9603 Y5.4324 
G01 X-18.7842 Y5.3974 
G01 X-18.6184 Y5.3287 
G01 X-18.4691 Y5.2290 
G01 X-18.3422 Y5.1021 
G01 X-18.2425 Y4.9528 
G01 X-18.1738 Y4.7870 
G01 X-18.1388 Y4.6109 
G01 X-18.1388 Y3.0091 
G01 X-18.1738 Y2.8330 
G01 X-18.2425 Y2.6672 
G01 X-18.3422 Y2.5179 
G01 X-18.4691 Y2.3910 
G01 X-18.6184 Y2.2913 
G01 X-18.7842 Y2.2226 
G01 X-18.9603 Y2.1876 
G01 X-19.1397 Y2.1876 
G01 X-19.3158 Y2.2226 
G01 X-19.4816 Y2.2913 
G01 X-19.6309 Y2.3910 
G01 X-19.7578 Y2.5179 
G01 X-19.8575 Y2.6672 
G01 X-19.9262 Y2.8330 
G01 X-19.9612 Y3.0091 
G00 Z2.0000 
G00 X-17.4212 Y3.0091 
G01 Z-0.0250 F254.00 
G01 X-17.4212 Y4.6109 F508.00 
G01 X-17.3862 Y4.7870 
G01 X-17.3175 Y4.9528 
G01 X-17.2178 Y5.1021 
G01 X-17.0909 Y5.2290 
G01 X-16.9416 Y5.3287 
G01 X-16.7758 Y5.3974 
G01 X-16.5997 Y5.4324 
G01 X-16.4203 Y5.4324 
G01 X-16.2442 Y5.3974 
G01 X-16.0784 Y5.3287 
G01 X-15.9291 Y5.2290 
G01 X-15.8022 Y5.1021 
G01 X-15.7025 Y4.9528 
G01 X-15.6338 Y4.7870 
G01 X-15.5988 Y4.6109 
G01 X-15.5988 Y3.0091 
G01 X-15.6338 Y2.8330 
G01 X-15.7025 Y2.6672 
G01 X-15.8022 Y2.5179 
G01 X-15.9291 Y2.3910 
G01 X-16.0784 Y2.2913 
G01 X-16.2442 Y2.2226 
G01 X-16.4203 Y2.1876 
G01 X-16.5997 Y2.1876 
G01 X-16.7758 Y2.2226 
G01 X-16.9416 Y2.2913 
G01 X-17.0909 Y2.3910 
G01 X-17.2178 Y2.5179 
G01 X-17.3175 Y2.6672 
G01 X-17.3862 Y2.8330 
G01 X-17.4212 Y3.0091 
G00 Z2.0000 
G00 X-14.8812 Y3.0091 
G01 Z-0.0250 F254.00 
G01 X-14.8812 Y4.6109 F508.00 
G01 X-14.8462 Y4.7870 
G01 X-14.7775 Y4.9528 
G01 X-14.6778 Y5.1021 
G01 X-14.5509 Y5.2290 
G01 X-14.4016 Y5.3287 
G01 X-14.2358 Y5.3974 
G01 X-14.0597 Y5.4324 
G01 X-13.8803 Y5.4324 
G01 X-13.7042 Y5.3974 
G01 X-13.5384 Y5.3287 
G01 X-13.3891 Y5.2290 
G01 X-13.2622 Y5.1021 
G01 X-13.1625 Y4.9528 
G01 X-13.0938 Y4.7870 
G01 X-13.0588 Y4.6109 
G01 X-13.0588 Y3.0091 
G01 X-13.0938 Y2.8330 
G01 X-13.1625 Y2.6672 
G01 X-13.2622 Y2.5179 
G01 X-13.3891 Y2.3910 
G01 X-13.5384 Y2.2913 
G01 X-13.7042 Y2.2226 
G01 X-13.8803 Y2.1876 
G01 X-14.0597 Y2.1876 
G01 X-14.2358 Y2.2226 
G01 X-14.4016 Y2.2913 
G01 X-14.5509 Y2.3910 
G01 X-14.6778 Y2.5179 
G01 X-14.7775 Y2.6672 
G01 X-14.8462 Y2.8330 
G01 X-14.8812 Y3.0091 
G00 Z2.0000 
G00 X-12.3412 Y3.0091 
G01 Z-0.0250 F254.00 
G01 X-12.3412 Y4.6109 F508.00 
G01 X-12.3062 Y4.7870 
G01 X-12.2375 Y4.9528 
G01 X-12.1378 Y5.1021 
G01 X-12.0109 Y5.2290 
G01 X-11.8616 Y5.3287 
G01 X-11.6958 Y5.3974 
G01 X-11.5197 Y5.4324 
G01 X-11.3403 Y5.4324 
G01 X-11.1642 Y5.3974 
G01 X-10.9984 Y5.3287 
G01 X-10.8491 Y5.2290 
G01 X-10.7222 Y5.1021 
G01 X-10.6225 Y4.9528 
G01 X-10.5538 Y4.7870 
G01 X-10.5188 Y4.6109 
G01 X-10.5188 Y3.0091 
G01 X-10.5538 Y2.8330 
G01 X-10.6225 Y2.6672 
G01 X-10.7222 Y2.5179 
G01 X-10.8491 Y2.3910 
G01 X-10.9984 Y2.2913 
G01 X-11.1642 Y2.2226 
G01 X-11.3403 Y2.1876 
G01 X-11.5197 Y2.1876 
G01 X-11.6958 Y2.2226 
G01 X-11.8616 Y2.2913 
G01 X-12.0109 Y2.3910 
G01 X-12.1378 Y2.5179 
G01 X-12.2375 Y2.6672 
G01 X-12.3062 Y2.8330 
G01 X-12.3412 Y3.0091 
G00 Z2.0000 
G00 X-9.8012 Y3.0091 
G01 Z-0.0250 F254.00 
G01 X-9.8012 Y4.6109 F508.00 
G01 X-9.7662 Y4.7870 
G01 X-9.6975 Y4.9528 
G01 X-9.5978 Y5.1021 
G01 X-9.4709 Y5.2290 
G01 X-9.3216 Y5.3287 
G01 X-9.1558 Y5.3974 
G01 X-8.9797 Y5.4324 
G01 X-8.8003 Y5.4324 
G01 X-8.6242 Y5.3974 
G01 X-8.4584 Y5.3287 
G01 X-8.3091 Y5.2290 
G01 X-8.1822 Y5.1021 
G01 X-8.0825 Y4.9528 
G01 X-8.0138 Y4.7870 
G01 X-7.9788 Y4.6109 
G01 X-7.9788 Y3.0091 
G01 X-8.0138 Y2.8330 
G01 X-8.0825 Y2.6672 
G01 X-8.1822 Y2.5179 
G01 X-8.3091 Y2.3910 
G01 X-8.4584 Y2.2913 
G01 X-8.6242 Y2.2226 
G01 X-8.8003 Y2.1876 
G01 X-8.9797 Y2.1876 
G01 X-9.1558 Y2.2226 
G01 X-9.3216 Y2.2913 
G01 X-9.4709 Y2.3910 
G01 X-9.5978 Y2.5179 
G01 X-9.6975 Y2.6672 
G01 X-9.7662 Y2.8330 
G01 X-9.8012 Y3.0091 
G00 Z2.0000 
G00 X-7.2612 Y3.0091 
G01 Z-0.0250 F254.00 
G01 X-7.2612 Y4.6109 F508.00 
G01 X-7.2262 Y4.7870 
G01 X-7.1575 Y4.9528 
G01 X-7.0578 Y5.1021 
G01 X-6.9309 Y5.2290 
G01 X-6.7816 Y5.3287 
G01 X-6.6158 Y5.3974 
G01 X-6.4397 Y5.4324 
G01 X-6.2603 Y5.4324 
G01 X-6.0842 Y5.3974 
G01 X-5.9184 Y5.3287 
G01 X-5.7691 Y5.2290 
G01 X-5.6422 Y5.1021 
G01 X-5.5425 Y4.9528 
G01 X-5.4738 Y4.7870 
G01 X-5.4388 Y4.6109 
G01 X-5.4388 Y3.0091 
G01 X-5.4738 Y2.8330 
G01 X-5.5425 Y2.6672 
G01 X-5.6422 Y2.5179 
G01 X-5.7691 Y2.3910 
G01 X-5.9184 Y2.2913 
G01 X-6.0842 Y2.2226 
G01 X-6.2603 Y2.1876 
G01 X-6.4397 Y2.1876 
G01 X-6.6158 Y2.2226 
G01 X-6.7816 Y2.2913 
G01 X-6.9309 Y2.3910 
G01 X-7.0578 Y2.5179 
G01 X-7.1575 Y2.6672 
G01 X-7.2262 Y2.8330 
G01 X-7.2612 Y3.0091 
G00 Z2.0000 
G00 X-4.7212 Y3.0091 
G01 Z-0.0250 F254.00 
G01 X-4.7212 Y4.6109 F508.00 
G01 X-4.6862 Y4.7870 
G01 X-4.6175 Y4.9528 
G01 X-4.5178 Y5.1021 
G01 X-4.3909 Y5.2290 
G01 X-4.2416 Y5.3287 
G01 X-4.0758 Y5.3974 
G01 X-3.8997 Y5.4324 
G01 X-3.7203 Y5.4324 
G01 X-3.5442 Y5.3974 
G01 X-3.3784 Y5.3287 
G01 X-3.2291 Y5.2290 
G01 X-3.1022 Y5.1021 
G01 X-3.0025 Y4.9528 
G01 X-2.9338 Y4.7870 
G01 X-2.8988 Y4.6109 
G01 X-2.8988 Y3.0091 
G01 X-2.9338 Y2.8330 
G01 X-3.0025 Y2.6672 
G01 X-3.1022 Y2.5179 
G01 X-3.2291 Y2.3910 
G01 X-3.3784 Y2.2913 
G01 X-3.5442 Y2.2226 
G01 X-3.7203 Y2.1876 
G01 X-3.8997 Y2.1876 
G01 X-4.0758 Y2.2226 
G01 X-4.2416 Y2.2913 
G01 X-4.3909 Y2.3910 
G01 X-4.5178 Y2.5179 
G01 X-4.6175 Y2.6672 
G01 X-4.6862 Y2.8330 
G01 X-4.7212 Y3.0091 
G00 Z2.0000 
G00 X-4.7212 Y10.6291 
G01 Z-0.0250 F254.00 
G01 X-4.7212 Y12.2309 F508.00 
G01 X-4.6862 Y12.4070 
G01 X-4.6175 Y12.5728 
G01 X-4.5178 Y12.7221 
G01 X-4.3909 Y12.8490 
G01 X-4.2416 Y12.9487 
G01 X-4.0758 Y13.0174 
G01 X-3.8997 Y13.0524 
G01 X-3.7203 Y13.0524 
G01 X-3.5442 Y13.0174 
G01 X-3.3784 Y12.9487 
G01 X-3.2291 Y12.8490 
G01 X-3.1022 Y12.7221 
G01 X-3.0025 Y12.5728 
G01 X-2.9338 Y12.4070 
G01 X-2.8988 Y12.2309 
G01 X-2.8988 Y10.6291 
G01 X-2.9338 Y10.4530 
G01 X-3.0025 Y10.2872 
G01 X-3.1022 Y10.1379 
G01 X-3.2291 Y10.0110 
G01 X-3.3784 Y9.9113 
G01 X-3.5442 Y9.8426 
G01 X-3.7203 Y9.8076 
G01 X-3.8997 Y9.8076 
G01 X-4.0758 Y9.8426 
G01 X-4.2416 Y9.9113 
G01 X-4.3909 Y10.0110 
G01 X-4.5178 Y10.1379 
G01 X-4.6175 Y10.2872 
G01 X-4.6862 Y10.4530 
G01 X-4.7212 Y10.6291 
G00 Z2.0000 
G00 X-7.2612 Y10.6291 
G01 Z-0.0250 F254.00 
G01 X-7.2612 Y12.2309 F508.00 
G01 X-7.2262 Y12.4070 
G01 X-7.1575 Y12.5728 
G01 X-7.0578 Y12.7221 
G01 X-6.9309 Y12.8490 
G01 X-6.7816 Y12.9487 
G01 X-6.6158 Y13.0174 
G01 X-6.4397 Y13.0524 
G01 X-6.2603 Y13.0524 
G01 X-6.0842 Y13.0174 
G01 X-5.9184 Y12.9487 
G01 X-5.7691 Y12.8490 
G01 X-5.6422 Y12.7221 
G01 X-5.5425 Y12.5728 
G01 X-5.4738 Y12.4070 
G01 X-5.4388 Y12.2309 
G01 X-5.4388 Y10.6291 
G01 X-5.4738 Y10.4530 
G01 X-5.5425 Y10.2872 
G01 X-5.6422 Y10.1379 
G01 X-5.7691 Y10.0110 
G01 X-5.9184 Y9.9113 
G01 X-6.0842 Y9.8426 
G01 X-6.2603 Y9.8076 
G01 X-6.4397 Y9.8076 
G01 X-6.6158 Y9.8426 
G01 X-6.7816 Y9.9113 
G01 X-6.9309 Y10.0110 
G01 X-7.0578 Y10.1379 
G01 X-7.1575 Y10.2872 
G01 X-7.2262 Y10.4530 
G01 X-7.2612 Y10.6291 
G00 Z2.0000 
G00 X-9.8012 Y10.6291 
G01 Z-0.0250 F254.00 
G01 X-9.8012 Y12.2309 F508.00 
G01 X-9.7662 Y12.4070 
G01 X-9.6975 Y12.5728 
G01 X-9.5978 Y12.7221 
G01 X-9.4709 Y12.8490 
G01 X-9.3216 Y12.9487 
G01 X-9.1558 Y13.0174 
G01 X-8.9797 Y13.0524 
G01 X-8.8003 Y13.0524 
G01 X-8.6242 Y13.0174 
G01 X-8.4584 Y12.9487 
G01 X-8.3091 Y12.8490 
G01 X-8.1822 Y12.7221 
G01 X-8.0825 Y12.5728 
G01 X-8.0138 Y12.4070 
G01 X-7.9788 Y12.2309 
G01 X-7.9788 Y10.6291 
G01 X-8.0138 Y10.4530 
G01 X-8.0825 Y10.2872 
G01 X-8.1822 Y10.1379 
G01 X-8.3091 Y10.0110 
G01 X-8.4584 Y9.9113 
G01 X-8.6242 Y9.8426 
G01 X-8.8003 Y9.8076 
G01 X-8.9797 Y9.8076 
G01 X-9.1558 Y9.8426 
