(.../pcb-gcode-3.6.0.4/pcb-gcode.ulp)
(Copyright 2005 - 2012 by John Johnson)
(See readme.txt for licensing terms.)
(This file generated from the board:)
(.../eagle/eagle/SulaMatik/SulaMatik.brd)
(Current profile is .../pcb-gcode-3.6.0.4/profiles/emc.pp  )
(This file generated 7/10/2014 3:32:34 PM)
(Settings from pcb-machine.h)
(  Tool Size)
(0.1000 )
(Z Axis Settings)
(  High     Up        Down     Drill)
(15.0000 	2.0000 	-0.0250 	-1.5000 )
(spindle on time = 1.0000)
(milling depth = -0.0500)
(text depth = -0.0500)
(tool change at 15.0000 15.0000 15.0000 )
(feed rate xy = F508.00 )
(feed rate z  = F254.00 )
(Settings from pcb-defaults.h)
(isolate min = 0.0500)
(isolate max = 0.3000)
(isolate step = 0.1000)
(Generated top outlines, top drill, bottom outlines, bottom drill, )
(Unit of measure: mm)
(Metric Mode)
G21
(Absolute Coordinates)
G90
G00 X0.0000 Y0.0000 
M03
G04 P1.000000
G00 Z2.0000 
G00 X37.7428 Y51.9801 
G01 Z-0.0250 F254.00 
G01 X37.7428 Y52.1599 F508.00 
G01 X37.7077 Y52.3363 
G01 X37.6389 Y52.5024 
G01 X37.5390 Y52.6519 
G01 X37.4119 Y52.7790 
G01 X37.2624 Y52.8789 
G01 X37.0963 Y52.9477 
G01 X36.9199 Y52.9828 
G01 X36.7401 Y52.9828 
G01 X36.5637 Y52.9477 
G01 X36.3976 Y52.8789 
G01 X36.2481 Y52.7790 
G01 X36.1210 Y52.6519 
G01 X36.0211 Y52.5024 
G01 X35.9523 Y52.3363 
G01 X35.9172 Y52.1599 
G01 X35.9172 Y51.9801 
G01 X35.9523 Y51.8037 
G01 X36.0211 Y51.6376 
G01 X36.1210 Y51.4881 
G01 X36.2481 Y51.3610 
G01 X36.3976 Y51.2611 
G01 X36.5637 Y51.1923 
G01 X36.7401 Y51.1572 
G01 X36.9199 Y51.1572 
G01 X37.0963 Y51.1923 
G01 X37.2624 Y51.2611 
G01 X37.4119 Y51.3610 
G01 X37.5390 Y51.4881 
G01 X37.6389 Y51.6376 
G01 X37.7077 Y51.8037 
G01 X37.7428 Y51.9801 
G00 Z2.0000 
G00 X37.7428 Y49.4401 
G01 Z-0.0250 F254.00 
G01 X37.7428 Y49.6199 F508.00 
G01 X37.7077 Y49.7963 
G01 X37.6389 Y49.9624 
G01 X37.5390 Y50.1119 
G01 X37.4119 Y50.2390 
G01 X37.2624 Y50.3389 
G01 X37.0963 Y50.4077 
G01 X36.9199 Y50.4428 
G01 X36.7401 Y50.4428 
G01 X36.5637 Y50.4077 
G01 X36.3976 Y50.3389 
G01 X36.2481 Y50.2390 
G01 X36.1210 Y50.1119 
G01 X36.0211 Y49.9624 
G01 X35.9523 Y49.7963 
G01 X35.9172 Y49.6199 
G01 X35.9172 Y49.4401 
G01 X35.9523 Y49.2637 
G01 X36.0132 Y49.1167 
G01 X35.7500 Y48.8535 
G01 X35.7500 Y52.7997 
G01 X35.7119 Y52.8916 
G01 X35.6416 Y52.9619 
G01 X31.2785 Y57.3251 
G01 X31.2785 Y59.7841 
G01 X31.2451 Y59.9951 
G01 X31.1791 Y60.1983 
G01 X31.0821 Y60.3887 
G01 X30.9565 Y60.5615 
G01 X30.8054 Y60.7126 
G01 X30.6326 Y60.8382 
G01 X30.4422 Y60.9352 
G01 X30.2390 Y61.0012 
G01 X30.0280 Y61.0346 
G01 X29.8144 Y61.0346 
G01 X29.6034 Y61.0012 
G01 X29.4002 Y60.9352 
G01 X29.2098 Y60.8382 
G01 X29.0370 Y60.7126 
G01 X28.8859 Y60.5615 
G01 X28.7603 Y60.3887 
G01 X28.6633 Y60.1983 
G01 X28.5973 Y59.9951 
G01 X28.5639 Y59.7841 
G01 X28.5639 Y57.4175 
G01 X25.3964 Y54.2500 
G01 X15.9503 Y54.2500 
G01 X15.8584 Y54.2119 
G01 X15.7881 Y54.1416 
G01 X15.7500 Y54.0497 
G01 X15.7500 Y49.7003 
G01 X15.7881 Y49.6084 
G01 X20.7070 Y44.6895 
G01 X20.6772 Y44.5399 
G01 X20.6772 Y44.3601 
G01 X20.7123 Y44.1837 
G01 X20.7811 Y44.0176 
G01 X20.8810 Y43.8681 
G01 X21.0081 Y43.7410 
G01 X21.1576 Y43.6411 
G01 X21.3237 Y43.5723 
G01 X21.5001 Y43.5372 
G01 X21.6799 Y43.5372 
G01 X21.8563 Y43.5723 
G01 X22.0224 Y43.6411 
G01 X22.1719 Y43.7410 
G01 X22.2990 Y43.8681 
G01 X22.3989 Y44.0176 
G01 X22.4677 Y44.1837 
G01 X22.5028 Y44.3601 
G01 X22.5028 Y44.5399 
G01 X22.4677 Y44.7163 
G01 X22.3989 Y44.8824 
G01 X22.2990 Y45.0319 
G01 X22.1719 Y45.1590 
G01 X22.0224 Y45.2589 
G01 X21.8563 Y45.3277 
G01 X21.6799 Y45.3628 
G01 X21.5001 Y45.3628 
G01 X21.3237 Y45.3277 
G01 X21.1576 Y45.2589 
G01 X21.0081 Y45.1590 
G01 X20.9763 Y45.1272 
G01 X16.2500 Y49.8536 
G01 X16.2500 Y53.7500 
G01 X25.5497 Y53.7500 
G01 X25.6416 Y53.7881 
G01 X25.7119 Y53.8584 
G01 X28.6221 Y56.7686 
G01 X28.6633 Y56.6417 
G01 X28.7603 Y56.4513 
G01 X28.8859 Y56.2785 
G01 X29.0370 Y56.1274 
G01 X29.2098 Y56.0018 
G01 X29.4002 Y55.9048 
G01 X29.6034 Y55.8388 
G01 X29.8144 Y55.8054 
G01 X30.0280 Y55.8054 
G01 X30.2390 Y55.8388 
G01 X30.4422 Y55.9048 
G01 X30.6326 Y56.0018 
G01 X30.8054 Y56.1274 
G01 X30.9565 Y56.2785 
G01 X31.0821 Y56.4513 
G01 X31.1791 Y56.6417 
G01 X31.1976 Y56.6988 
G01 X35.2500 Y52.6464 
G01 X35.2500 Y48.3536 
G01 X32.7881 Y45.8916 
G01 X32.7500 Y45.7997 
G01 X32.7500 Y36.6036 
G01 X30.5664 Y34.4200 
G01 X29.8601 Y34.4200 
G01 X29.8234 Y34.4048 
G01 X29.7952 Y34.3766 
G01 X29.7800 Y34.3399 
G01 X29.7800 Y33.5001 
G01 X29.7952 Y33.4634 
G01 X29.8234 Y33.4352 
G01 X29.8601 Y33.4200 
G01 X31.0999 Y33.4200 
G01 X31.1366 Y33.4352 
G01 X31.1648 Y33.4634 
G01 X31.1800 Y33.5001 
G01 X31.1800 Y34.3264 
G01 X33.1416 Y36.2881 
G01 X33.2119 Y36.3584 
G01 X33.2500 Y36.4503 
G01 X33.2500 Y45.6464 
G01 X35.6416 Y48.0381 
G01 X35.7119 Y48.1084 
G01 X36.3539 Y48.7503 
G01 X36.3976 Y48.7211 
G01 X36.5637 Y48.6523 
G01 X36.7401 Y48.6172 
G01 X36.9199 Y48.6172 
G01 X37.0963 Y48.6523 
G01 X37.2624 Y48.7211 
G01 X37.4119 Y48.8210 
G01 X37.5390 Y48.9481 
G01 X37.6389 Y49.0976 
G01 X37.7077 Y49.2637 
G01 X37.7428 Y49.4401 
G00 Z2.0000 
G00 X37.7428 Y46.9001 
G01 Z-0.0250 F254.00 
G01 X37.7428 Y47.0799 F508.00 
G01 X37.7077 Y47.2563 
G01 X37.6389 Y47.4224 
G01 X37.5390 Y47.5719 
G01 X37.4119 Y47.6990 
G01 X37.2624 Y47.7989 
G01 X37.0963 Y47.8677 
G01 X36.9199 Y47.9028 
G01 X36.7401 Y47.9028 
G01 X36.5637 Y47.8677 
G01 X36.3976 Y47.7989 
G01 X36.2481 Y47.6990 
G01 X36.1210 Y47.5719 
G01 X36.0211 Y47.4224 
G01 X35.9523 Y47.2563 
G01 X35.9172 Y47.0799 
G01 X35.9172 Y46.9001 
G01 X35.9523 Y46.7237 
G01 X36.0211 Y46.5576 
G01 X36.1210 Y46.4081 
G01 X36.2481 Y46.2810 
G01 X36.3976 Y46.1811 
G01 X36.5637 Y46.1123 
G01 X36.7401 Y46.0772 
G01 X36.9199 Y46.0772 
G01 X37.0963 Y46.1123 
G01 X37.2624 Y46.1811 
G01 X37.4119 Y46.2810 
G01 X37.5390 Y46.4081 
G01 X37.6389 Y46.5576 
G01 X37.7077 Y46.7237 
G01 X37.7428 Y46.9001 
G00 Z2.0000 
G00 X37.7428 Y44.3601 
G01 Z-0.0250 F254.00 
G01 X37.7428 Y44.5399 F508.00 
G01 X37.7077 Y44.7163 
G01 X37.6389 Y44.8824 
G01 X37.5390 Y45.0319 
G01 X37.4119 Y45.1590 
G01 X37.2624 Y45.2589 
G01 X37.0963 Y45.3277 
G01 X36.9199 Y45.3628 
G01 X36.7401 Y45.3628 
G01 X36.5637 Y45.3277 
G01 X36.3976 Y45.2589 
G01 X36.2481 Y45.1590 
G01 X36.1210 Y45.0319 
G01 X36.0211 Y44.8824 
G01 X35.9523 Y44.7163 
G01 X35.9172 Y44.5399 
G01 X35.9172 Y44.3601 
G01 X35.9523 Y44.1837 
G01 X36.0211 Y44.0176 
G01 X36.1210 Y43.8681 
G01 X36.2481 Y43.7410 
G01 X36.3976 Y43.6411 
G01 X36.5637 Y43.5723 
G01 X36.7401 Y43.5372 
G01 X36.9199 Y43.5372 
G01 X37.0963 Y43.5723 
G01 X37.2624 Y43.6411 
G01 X37.4119 Y43.7410 
G01 X37.5390 Y43.8681 
G01 X37.6389 Y44.0176 
G01 X37.7077 Y44.1837 
G01 X37.7428 Y44.3601 
G00 Z2.0000 
G00 X37.7428 Y41.8201 
G01 Z-0.0250 F254.00 
G01 X37.7428 Y41.9999 F508.00 
G01 X37.7077 Y42.1763 
G01 X37.6389 Y42.3424 
G01 X37.5390 Y42.4919 
G01 X37.4119 Y42.6190 
G01 X37.2624 Y42.7189 
G01 X37.0963 Y42.7877 
G01 X36.9199 Y42.8228 
G01 X36.7401 Y42.8228 
G01 X36.5637 Y42.7877 
G01 X36.3976 Y42.7189 
G01 X36.2481 Y42.6190 
G01 X36.1210 Y42.4919 
G01 X36.0211 Y42.3424 
G01 X35.9523 Y42.1763 
G01 X35.9172 Y41.9999 
G01 X35.9172 Y41.8201 
G01 X35.9523 Y41.6437 
G01 X36.0211 Y41.4776 
G01 X36.1210 Y41.3281 
G01 X36.2481 Y41.2010 
G01 X36.3976 Y41.1011 
G01 X36.5637 Y41.0323 
G01 X36.7401 Y40.9972 
G01 X36.9199 Y40.9972 
G01 X37.0963 Y41.0323 
G01 X37.2624 Y41.1011 
G01 X37.4119 Y41.2010 
G01 X37.5390 Y41.3281 
G01 X37.6389 Y41.4776 
G01 X37.7077 Y41.6437 
G01 X37.7428 Y41.8201 
G00 Z2.0000 
G00 X37.7428 Y39.2801 
G01 Z-0.0250 F254.00 
G01 X37.7428 Y39.4599 F508.00 
G01 X37.7077 Y39.6363 
G01 X37.6389 Y39.8024 
G01 X37.5390 Y39.9519 
G01 X37.4119 Y40.0790 
G01 X37.2624 Y40.1789 
G01 X37.0963 Y40.2477 
G01 X36.9199 Y40.2828 
G01 X36.7401 Y40.2828 
G01 X36.5637 Y40.2477 
G01 X36.3976 Y40.1789 
G01 X36.2481 Y40.0790 
G01 X36.1210 Y39.9519 
G01 X36.0211 Y39.8024 
G01 X35.9523 Y39.6363 
G01 X35.9172 Y39.4599 
G01 X35.9172 Y39.2801 
G01 X35.9523 Y39.1037 
G01 X36.0211 Y38.9376 
G01 X36.1210 Y38.7881 
G01 X36.2481 Y38.6610 
G01 X36.3976 Y38.5611 
G01 X36.5637 Y38.4923 
G01 X36.7401 Y38.4572 
G01 X36.9199 Y38.4572 
G01 X37.0963 Y38.4923 
G01 X37.2624 Y38.5611 
G01 X37.4119 Y38.6610 
G01 X37.5390 Y38.7881 
G01 X37.6389 Y38.9376 
G01 X37.7077 Y39.1037 
G01 X37.7428 Y39.2801 
G00 Z2.0000 
G00 X37.7428 Y36.7401 
G01 Z-0.0250 F254.00 
G01 X37.7428 Y36.9199 F508.00 
G01 X37.7077 Y37.0963 
G01 X37.6389 Y37.2624 
G01 X37.5390 Y37.4119 
G01 X37.4119 Y37.5390 
G01 X37.2624 Y37.6389 
G01 X37.0963 Y37.7077 
G01 X36.9199 Y37.7428 
G01 X36.7401 Y37.7428 
G01 X36.5637 Y37.7077 
G01 X36.3976 Y37.6389 
G01 X36.2481 Y37.5390 
G01 X36.1210 Y37.4119 
G01 X36.0211 Y37.2624 
G01 X35.9523 Y37.0963 
G01 X35.9172 Y36.9199 
G01 X35.9172 Y36.7401 
G01 X35.9523 Y36.5637 
G01 X36.0211 Y36.3976 
G01 X36.1210 Y36.2481 
G01 X36.2481 Y36.1210 
G01 X36.3976 Y36.0211 
G01 X36.5637 Y35.9523 
G01 X36.7401 Y35.9172 
G01 X36.9199 Y35.9172 
G01 X37.0963 Y35.9523 
G01 X37.2624 Y36.0211 
G01 X37.4119 Y36.1210 
G01 X37.5390 Y36.2481 
G01 X37.6389 Y36.3976 
G01 X37.7077 Y36.5637 
G01 X37.7428 Y36.7401 
G00 Z2.0000 
G00 X37.7428 Y34.2001 
G01 Z-0.0250 F254.00 
G01 X37.7428 Y34.3799 F508.00 
G01 X37.7077 Y34.5563 
G01 X37.6389 Y34.7224 
G01 X37.5390 Y34.8719 
G01 X37.4119 Y34.9990 
G01 X37.2624 Y35.0989 
G01 X37.0963 Y35.1677 
G01 X36.9199 Y35.2028 
G01 X36.7401 Y35.2028 
G01 X36.5637 Y35.1677 
G01 X36.3976 Y35.0989 
G01 X36.2481 Y34.9990 
G01 X36.1210 Y34.8719 
G01 X36.0211 Y34.7224 
G01 X35.9523 Y34.5563 
G01 X35.9172 Y34.3799 
G01 X35.9172 Y34.2001 
G01 X35.9523 Y34.0237 
G01 X36.0211 Y33.8576 
G01 X36.1210 Y33.7081 
G01 X36.2481 Y33.5810 
G01 X36.3976 Y33.4811 
G01 X36.5637 Y33.4123 
G01 X36.7401 Y33.3772 
G01 X36.9199 Y33.3772 
G01 X37.0963 Y33.4123 
G01 X37.2624 Y33.4811 
G01 X37.4119 Y33.5810 
G01 X37.5390 Y33.7081 
G01 X37.6389 Y33.8576 
G01 X37.7077 Y34.0237 
G01 X37.7428 Y34.2001 
G00 Z2.0000 
G00 X22.5028 Y24.0401 
G01 Z-0.0250 F254.00 
G01 X22.5028 Y24.2199 F508.00 
G01 X22.4677 Y24.3963 
G01 X22.3989 Y24.5624 
G01 X22.2990 Y24.7119 
G01 X22.1719 Y24.8390 
G01 X22.0224 Y24.9389 
G01 X21.8563 Y25.0077 
G01 X21.6799 Y25.0428 
G01 X21.5001 Y25.0428 
G01 X21.3237 Y25.0077 
G01 X21.1576 Y24.9389 
G01 X21.0081 Y24.8390 
G01 X20.8810 Y24.7119 
G01 X20.7811 Y24.5624 
G01 X20.7123 Y24.3963 
G01 X20.6772 Y24.2199 
G01 X20.6772 Y24.0401 
G01 X20.7123 Y23.8637 
G01 X20.7811 Y23.6976 
G01 X20.8810 Y23.5481 
G01 X21.0081 Y23.4210 
G01 X21.1576 Y23.3211 
G01 X21.2500 Y23.2828 
G01 X21.2500 Y19.8536 
G01 X20.5764 Y19.1800 
G01 X19.7001 Y19.1800 
G01 X19.6634 Y19.1648 
G01 X19.6352 Y19.1366 
G01 X19.6200 Y19.0999 
G01 X19.6200 Y18.2601 
G01 X19.6352 Y18.2234 
G01 X19.6634 Y18.1952 
G01 X19.7001 Y18.1800 
G01 X20.9399 Y18.1800 
G01 X20.9766 Y18.1952 
G01 X21.0048 Y18.2234 
G01 X21.0200 Y18.2601 
G01 X21.0200 Y18.9164 
G01 X21.6416 Y19.5381 
G01 X21.7119 Y19.6084 
G01 X21.7500 Y19.7003 
G01 X21.7500 Y23.2311 
G01 X21.8563 Y23.2523 
G01 X22.0224 Y23.3211 
G01 X22.1719 Y23.4210 
G01 X22.2990 Y23.5481 
G01 X22.3989 Y23.6976 
G01 X22.4677 Y23.8637 
G01 X22.5028 Y24.0401 
G00 Z2.0000 
G00 X22.5028 Y41.8201 
G01 Z-0.0250 F254.00 
G01 X22.5028 Y41.9999 F508.00 
G01 X22.4677 Y42.1763 
G01 X22.3989 Y42.3424 
G01 X22.2990 Y42.4919 
G01 X22.1719 Y42.6190 
G01 X22.0224 Y42.7189 
G01 X21.8563 Y42.7877 
G01 X21.6799 Y42.8228 
G01 X21.5001 Y42.8228 
G01 X21.3237 Y42.7877 
G01 X21.1576 Y42.7189 
G01 X21.0081 Y42.6190 
G01 X20.8810 Y42.4919 
G01 X20.7811 Y42.3424 
G01 X20.7123 Y42.1763 
G01 X20.6772 Y41.9999 
G01 X20.6772 Y41.8201 
G01 X20.7123 Y41.6437 
G01 X20.7811 Y41.4776 
G01 X20.8183 Y41.4219 
G01 X7.7881 Y28.3916 
G01 X7.7500 Y28.2997 
G01 X7.7500 Y24.1036 
G01 X2.8264 Y19.1800 
G01 X1.9201 Y19.1800 
G01 X1.8834 Y19.1648 
G01 X1.8552 Y19.1366 
G01 X1.8400 Y19.0999 
G01 X1.8400 Y18.2601 
G01 X1.8552 Y18.2234 
G01 X1.8834 Y18.1952 
G01 X1.9201 Y18.1800 
G01 X3.1599 Y18.1800 
G01 X3.1966 Y18.1952 
G01 X3.2248 Y18.2234 
G01 X3.2400 Y18.2601 
G01 X3.2400 Y18.8864 
G01 X8.1416 Y23.7881 
G01 X8.2119 Y23.8584 
G01 X8.2500 Y23.9503 
G01 X8.2500 Y28.1464 
G01 X21.1909 Y41.0873 
G01 X21.3237 Y41.0323 
G01 X21.5001 Y40.9972 
G01 X21.6799 Y40.9972 
G01 X21.8563 Y41.0323 
G01 X22.0224 Y41.1011 
G01 X22.1719 Y41.2010 
G01 X22.2990 Y41.3281 
G01 X22.3989 Y41.4776 
G01 X22.4677 Y41.6437 
G01 X22.5028 Y41.8201 
G00 Z2.0000 
G00 X22.5028 Y46.9001 
G01 Z-0.0250 F254.00 
G01 X22.5028 Y47.0799 F508.00 
G01 X22.4677 Y47.2563 
G01 X22.3989 Y47.4224 
G01 X22.2990 Y47.5719 
G01 X22.1719 Y47.6990 
G01 X22.0224 Y47.7989 
G01 X21.8563 Y47.8677 
G01 X21.6799 Y47.9028 
G01 X21.5001 Y47.9028 
G01 X21.3237 Y47.8677 
G01 X21.1576 Y47.7989 
G01 X21.0081 Y47.6990 
G01 X20.8810 Y47.5719 
G01 X20.7811 Y47.4224 
G01 X20.7123 Y47.2563 
G01 X20.6772 Y47.0799 
G01 X20.6772 Y46.9001 
G01 X20.7123 Y46.7237 
G01 X20.7811 Y46.5576 
G01 X20.8810 Y46.4081 
G01 X21.0081 Y46.2810 
G01 X21.1576 Y46.1811 
G01 X21.3237 Y46.1123 
G01 X21.5001 Y46.0772 
G01 X21.6799 Y46.0772 
G01 X21.8563 Y46.1123 
G01 X22.0224 Y46.1811 
G01 X22.1719 Y46.2810 
G01 X22.2990 Y46.4081 
G01 X22.3989 Y46.5576 
G01 X22.4677 Y46.7237 
G01 X22.5028 Y46.9001 
G00 Z2.0000 
G00 X22.5028 Y49.4401 
G01 Z-0.0250 F254.00 
G01 X22.5028 Y49.6199 F508.00 
G01 X22.4677 Y49.7963 
G01 X22.3989 Y49.9624 
G01 X22.2990 Y50.1119 
G01 X22.1719 Y50.2390 
G01 X22.0224 Y50.3389 
G01 X21.8563 Y50.4077 
G01 X21.6799 Y50.4428 
G01 X21.5001 Y50.4428 
G01 X21.3237 Y50.4077 
G01 X21.1576 Y50.3389 
G01 X21.0081 Y50.2390 
G01 X20.8810 Y50.1119 
G01 X20.7811 Y49.9624 
G01 X20.7123 Y49.7963 
G01 X20.6772 Y49.6199 
G01 X20.6772 Y49.4401 
G01 X20.7123 Y49.2637 
G01 X20.7811 Y49.0976 
G01 X20.8810 Y48.9481 
G01 X21.0081 Y48.8210 
G01 X21.1576 Y48.7211 
G01 X21.3237 Y48.6523 
G01 X21.5001 Y48.6172 
G01 X21.6799 Y48.6172 
G01 X21.8563 Y48.6523 
G01 X22.0224 Y48.7211 
G01 X22.1719 Y48.8210 
G01 X22.2990 Y48.9481 
G01 X22.3989 Y49.0976 
G01 X22.4677 Y49.2637 
G01 X22.5028 Y49.4401 
G00 Z2.0000 
G00 X22.5028 Y51.9801 
G01 Z-0.0250 F254.00 
G01 X22.5028 Y52.1599 F508.00 
G01 X22.4677 Y52.3363 
G01 X22.3989 Y52.5024 
G01 X22.2990 Y52.6519 
G01 X22.1719 Y52.7790 
G01 X22.0224 Y52.8789 
G01 X21.8563 Y52.9477 
G01 X21.6799 Y52.9828 
G01 X21.5001 Y52.9828 
G01 X21.3237 Y52.9477 
G01 X21.1576 Y52.8789 
G01 X21.0081 Y52.7790 
G01 X20.8810 Y52.6519 
G01 X20.7811 Y52.5024 
G01 X20.7123 Y52.3363 
G01 X20.6772 Y52.1599 
G01 X20.6772 Y51.9801 
G01 X20.7123 Y51.8037 
G01 X20.7811 Y51.6376 
G01 X20.8810 Y51.4881 
G01 X21.0081 Y51.3610 
G01 X21.1576 Y51.2611 
G01 X21.3237 Y51.1923 
G01 X21.5001 Y51.1572 
G01 X21.6799 Y51.1572 
G01 X21.8563 Y51.1923 
G01 X22.0224 Y51.2611 
G01 X22.1719 Y51.3610 
G01 X22.2990 Y51.4881 
G01 X22.3989 Y51.6376 
G01 X22.4677 Y51.8037 
G01 X22.5028 Y51.9801 
G00 Z2.0000 
G00 X35.2028 Y40.5501 
G01 Z-0.0250 F254.00 
G01 X35.2028 Y40.7299 F508.00 
G01 X35.1677 Y40.9063 
G01 X35.0989 Y41.0724 
G01 X34.9990 Y41.2219 
G01 X34.8719 Y41.3490 
G01 X34.7224 Y41.4489 
G01 X34.5563 Y41.5177 
G01 X34.3799 Y41.5528 
G01 X34.2001 Y41.5528 
G01 X34.0237 Y41.5177 
G01 X33.8576 Y41.4489 
G01 X33.7081 Y41.3490 
G01 X33.5810 Y41.2219 
G01 X33.4811 Y41.0724 
G01 X33.4123 Y40.9063 
G01 X33.3772 Y40.7299 
G01 X33.3772 Y40.5501 
G01 X33.4123 Y40.3737 
G01 X33.4811 Y40.2076 
G01 X33.5810 Y40.0581 
G01 X33.7081 Y39.9310 
G01 X33.8576 Y39.8311 
G01 X34.0237 Y39.7623 
G01 X34.2001 Y39.7272 
G01 X34.3799 Y39.7272 
G01 X34.5563 Y39.7623 
G01 X34.7224 Y39.8311 
G01 X34.8719 Y39.9310 
G01 X34.9990 Y40.0581 
G01 X35.0989 Y40.2076 
G01 X35.1677 Y40.3737 
G01 X35.2028 Y40.5501 
G00 Z2.0000 
G00 X35.2028 Y43.0901 
G01 Z-0.0250 F254.00 
G01 X35.2028 Y43.2699 F508.00 
G01 X35.1677 Y43.4463 
G01 X35.0989 Y43.6124 
G01 X34.9990 Y43.7619 
G01 X34.8719 Y43.8890 
G01 X34.7224 Y43.9889 
G01 X34.5563 Y44.0577 
G01 X34.3799 Y44.0928 
G01 X34.2001 Y44.0928 
G01 X34.0237 Y44.0577 
G01 X33.8576 Y43.9889 
G01 X33.7081 Y43.8890 
G01 X33.5810 Y43.7619 
G01 X33.4811 Y43.6124 
G01 X33.4123 Y43.4463 
G01 X33.3772 Y43.2699 
G01 X33.3772 Y43.0901 
G01 X33.4123 Y42.9137 
G01 X33.4811 Y42.7476 
G01 X33.5810 Y42.5981 
G01 X33.7081 Y42.4710 
G01 X33.8576 Y42.3711 
G01 X34.0237 Y42.3023 
G01 X34.2001 Y42.2672 
G01 X34.3799 Y42.2672 
G01 X34.5563 Y42.3023 
G01 X34.7224 Y42.3711 
G01 X34.8719 Y42.4710 
G01 X34.9990 Y42.5981 
G01 X35.0989 Y42.7476 
G01 X35.1677 Y42.9137 
G01 X35.2028 Y43.0901 
G00 Z2.0000 
G00 X34.9361 Y3.7159 
G01 Z-0.0250 F254.00 
G01 X34.9361 Y6.4441 F508.00 
G01 X34.9027 Y6.6551 
G01 X34.8367 Y6.8583 
G01 X34.7397 Y7.0487 
G01 X34.6141 Y7.2215 
G01 X34.4630 Y7.3726 
G01 X34.2902 Y7.4982 
G01 X34.0998 Y7.5952 
G01 X33.8966 Y7.6612 
G01 X33.7500 Y7.6844 
G01 X33.7500 Y11.8650 
G01 X34.0649 Y11.8650 
G01 X34.1016 Y11.8802 
G01 X34.1298 Y11.9084 
G01 X34.1450 Y11.9451 
G01 X34.1450 Y13.4549 
G01 X34.1298 Y13.4916 
G01 X34.1016 Y13.5198 
G01 X34.0649 Y13.5350 
G01 X32.7551 Y13.5350 
G01 X32.7184 Y13.5198 
G01 X32.6902 Y13.4916 
G01 X32.6750 Y13.4549 
G01 X32.6750 Y11.9451 
G01 X32.6902 Y11.9084 
G01 X32.7184 Y11.8802 
G01 X32.7551 Y11.8650 
G01 X33.2500 Y11.8650 
G01 X33.2500 Y7.6576 
G01 X33.0578 Y7.5952 
G01 X32.8674 Y7.4982 
G01 X32.6946 Y7.3726 
G01 X32.5435 Y7.2215 
G01 X32.4179 Y7.0487 
G01 X32.3209 Y6.8583 
G01 X32.2549 Y6.6551 
G01 X32.2215 Y6.4441 
G01 X32.2215 Y3.7159 
G01 X32.2549 Y3.5049 
G01 X32.3209 Y3.3017 
G01 X32.4179 Y3.1113 
G01 X32.5435 Y2.9385 
G01 X32.6946 Y2.7874 
G01 X32.8674 Y2.6618 
G01 X33.0578 Y2.5648 
G01 X33.2610 Y2.4988 
G01 X33.4720 Y2.4654 
G01 X33.6856 Y2.4654 
G01 X33.8966 Y2.4988 
G01 X34.0998 Y2.5648 
G01 X34.2902 Y2.6618 
G01 X34.4630 Y2.7874 
G01 X34.6141 Y2.9385 
G01 X34.7397 Y3.1113 
G01 X34.8367 Y3.3017 
G01 X34.9027 Y3.5049 
G01 X34.9361 Y3.7159 
G00 Z2.0000 
G00 X38.8985 Y3.7159 
G01 Z-0.0250 F254.00 
G01 X38.8985 Y6.4441 F508.00 
G01 X38.8651 Y6.6551 
G01 X38.7991 Y6.8583 
G01 X38.7021 Y7.0487 
G01 X38.5765 Y7.2215 
G01 X38.4254 Y7.3726 
G01 X38.2526 Y7.4982 
G01 X38.0622 Y7.5952 
G01 X38.0000 Y7.6154 
G01 X38.0000 Y11.8650 
G01 X38.3649 Y11.8650 
G01 X38.4016 Y11.8802 
G01 X38.4298 Y11.9084 
G01 X38.4450 Y11.9451 
G01 X38.4450 Y13.4549 
G01 X38.4298 Y13.4916 
G01 X38.4016 Y13.5198 
G01 X38.3649 Y13.5350 
G01 X37.7500 Y13.5350 
G01 X37.7500 Y14.5497 
G01 X37.7119 Y14.6416 
G01 X37.6416 Y14.7119 
G01 X34.9200 Y17.4336 
G01 X34.9200 Y18.2999 
G01 X34.9048 Y18.3366 
G01 X34.8766 Y18.3648 
G01 X34.8399 Y18.3800 
G01 X33.4001 Y18.3800 
G01 X33.3634 Y18.3648 
G01 X33.3352 Y18.3366 
G01 X33.3200 Y18.2999 
G01 X33.3200 Y17.2601 
G01 X33.3352 Y17.2234 
G01 X33.3634 Y17.1952 
G01 X33.4001 Y17.1800 
G01 X34.4664 Y17.1800 
G01 X37.2500 Y14.3964 
G01 X37.2500 Y13.5350 
G01 X37.0551 Y13.5350 
G01 X37.0184 Y13.5198 
G01 X36.9902 Y13.4916 
G01 X36.9750 Y13.4549 
G01 X36.9750 Y11.9451 
G01 X36.9902 Y11.9084 
G01 X37.0184 Y11.8802 
G01 X37.0551 Y11.8650 
G01 X37.5000 Y11.8650 
G01 X37.5000 Y7.6946 
G01 X37.4344 Y7.6946 
G01 X37.2234 Y7.6612 
G01 X37.0202 Y7.5952 
G01 X36.8298 Y7.4982 
G01 X36.6570 Y7.3726 
G01 X36.5059 Y7.2215 
G01 X36.3803 Y7.0487 
G01 X36.2833 Y6.8583 
G01 X36.2173 Y6.6551 
G01 X36.1839 Y6.4441 
G01 X36.1839 Y3.7159 
G01 X36.2173 Y3.5049 
G01 X36.2833 Y3.3017 
G01 X36.3803 Y3.1113 
G01 X36.5059 Y2.9385 
G01 X36.6570 Y2.7874 
G01 X36.8298 Y2.6618 
G01 X37.0202 Y2.5648 
G01 X37.2234 Y2.4988 
G01 X37.4344 Y2.4654 
G01 X37.6480 Y2.4654 
G01 X37.8590 Y2.4988 
G01 X38.0622 Y2.5648 
G01 X38.2526 Y2.6618 
G01 X38.4254 Y2.7874 
G01 X38.5765 Y2.9385 
G01 X38.7021 Y3.1113 
G01 X38.7991 Y3.3017 
G01 X38.8651 Y3.5049 
G01 X38.8985 Y3.7159 
G00 Z2.0000 
G00 X31.2001 Y18.1300 
G01 Z-0.0250 F254.00 
G01 X32.6399 Y18.1300 F508.00 
G01 X32.6766 Y18.1452 
G01 X32.7048 Y18.1734 
G01 X32.7200 Y18.2101 
G01 X32.7200 Y18.7500 
G01 X35.8964 Y18.7500 
G01 X37.4000 Y17.2464 
G01 X37.4000 Y16.4601 
G01 X37.4152 Y16.4234 
G01 X37.4434 Y16.3952 
G01 X37.4801 Y16.3800 
G01 X38.7199 Y16.3800 
G01 X38.7566 Y16.3952 
G01 X38.7848 Y16.4234 
G01 X38.8000 Y16.4601 
G01 X38.8000 Y17.2999 
G01 X38.7848 Y17.3366 
G01 X38.7566 Y17.3648 
G01 X38.7199 Y17.3800 
G01 X37.9736 Y17.3800 
G01 X36.2119 Y19.1416 
G01 X36.1416 Y19.2119 
G01 X36.0497 Y19.2500 
G01 X32.7200 Y19.2500 
G01 X32.7048 Y19.2866 
G01 X32.6766 Y19.3148 
G01 X32.6399 Y19.3300 
G01 X31.2001 Y19.3300 
G01 X31.1634 Y19.3148 
G01 X31.1352 Y19.2866 
G01 X31.1200 Y19.2499 
G01 X31.1200 Y18.2101 
G01 X31.1352 Y18.1734 
G01 X31.1634 Y18.1452 
G01 X31.2001 Y18.1300 
G00 Z2.0000 
G00 X38.7199 Y19.1800 
G01 Z-0.0250 F254.00 
G01 X38.5000 Y19.1800 F508.00 
G01 X38.5000 Y27.7997 
G01 X38.4619 Y27.8916 
G01 X37.6137 Y28.7399 
G01 X37.6389 Y28.7776 
G01 X37.7077 Y28.9437 
G01 X37.7428 Y29.1201 
G01 X37.7428 Y29.2999 
G01 X37.7077 Y29.4763 
G01 X37.6389 Y29.6424 
G01 X37.5390 Y29.7919 
G01 X37.4119 Y29.9190 
G01 X37.2624 Y30.0189 
G01 X37.0963 Y30.0877 
G01 X36.9199 Y30.1228 
G01 X36.7401 Y30.1228 
G01 X36.5637 Y30.0877 
G01 X36.3976 Y30.0189 
G01 X36.2481 Y29.9190 
G01 X36.1210 Y29.7919 
G01 X36.0211 Y29.6424 
G01 X35.9523 Y29.4763 
G01 X35.9172 Y29.2999 
G01 X35.9172 Y29.1201 
G01 X35.9523 Y28.9437 
G01 X36.0211 Y28.7776 
G01 X36.1210 Y28.6281 
G01 X36.2481 Y28.5010 
G01 X36.3976 Y28.4011 
G01 X36.5637 Y28.3323 
G01 X36.7401 Y28.2972 
G01 X36.9199 Y28.2972 
G01 X37.0963 Y28.3323 
G01 X37.2503 Y28.3961 
G01 X38.0000 Y27.6464 
G01 X38.0000 Y19.1800 
G01 X37.4801 Y19.1800 
G01 X37.4434 Y19.1648 
G01 X37.4152 Y19.1366 
G01 X37.4000 Y19.0999 
G01 X37.4000 Y18.2601 
G01 X37.4152 Y18.2234 
G01 X37.4434 Y18.1952 
G01 X37.4801 Y18.1800 
G01 X38.7199 Y18.1800 
G01 X38.7566 Y18.1952 
G01 X38.7848 Y18.2234 
G01 X38.8000 Y18.2601 
G01 X38.8000 Y19.0999 
G01 X38.7848 Y19.1366 
G01 X38.7566 Y19.1648 
G01 X38.7199 Y19.1800 
G00 Z2.0000 
G00 X14.0192 Y52.5470 
G01 Z-0.0250 F254.00 
G01 X14.0192 Y52.7106 F508.00 
G01 X13.9936 Y52.8723 
G01 X13.9430 Y53.0279 
G01 X13.8687 Y53.1738 
G01 X13.7725 Y53.3062 
G01 X13.6568 Y53.4219 
G01 X13.5244 Y53.5181 
G01 X13.3785 Y53.5924 
G01 X13.2229 Y53.6430 
G01 X13.0612 Y53.6686 
G01 X12.8976 Y53.6686 
G01 X12.7359 Y53.6430 
G01 X12.5803 Y53.5924 
G01 X12.4344 Y53.5181 
G01 X12.3020 Y53.4219 
G01 X12.1863 Y53.3062 
G01 X12.0901 Y53.1738 
G01 X12.0158 Y53.0279 
G01 X11.9652 Y52.8723 
G01 X11.9396 Y52.7106 
G01 X11.9396 Y52.5470 
G01 X11.9652 Y52.3853 
G01 X12.0158 Y52.2297 
G01 X12.0901 Y52.0838 
G01 X12.1863 Y51.9514 
G01 X12.3020 Y51.8357 
G01 X12.4344 Y51.7395 
G01 X12.5803 Y51.6652 
G01 X12.7359 Y51.6146 
G01 X12.8976 Y51.5890 
G01 X13.0612 Y51.5890 
G01 X13.2229 Y51.6146 
G01 X13.3785 Y51.6652 
G01 X13.5244 Y51.7395 
G01 X13.6568 Y51.8357 
G01 X13.7725 Y51.9514 
G01 X13.8687 Y52.0838 
G01 X13.9430 Y52.2297 
G01 X13.9936 Y52.3853 
G01 X14.0192 Y52.5470 
G00 Z2.0000 
G00 X14.0192 Y59.0494 
G01 Z-0.0250 F254.00 
G01 X14.0192 Y59.2130 F508.00 
G01 X13.9936 Y59.3747 
G01 X13.9430 Y59.5303 
G01 X13.8687 Y59.6762 
G01 X13.7725 Y59.8086 
G01 X13.6568 Y59.9243 
G01 X13.5244 Y60.0205 
G01 X13.3785 Y60.0948 
G01 X13.2229 Y60.1454 
G01 X13.0612 Y60.1710 
G01 X12.8976 Y60.1710 
G01 X12.7359 Y60.1454 
G01 X12.5803 Y60.0948 
G01 X12.4344 Y60.0205 
G01 X12.3020 Y59.9243 
G01 X12.1863 Y59.8086 
G01 X12.0901 Y59.6762 
G01 X12.0158 Y59.5303 
G01 X11.9652 Y59.3747 
G01 X11.9396 Y59.2130 
G01 X11.9396 Y59.0494 
G01 X11.9652 Y58.8877 
G01 X12.0158 Y58.7321 
G01 X12.0901 Y58.5862 
G01 X12.1863 Y58.4538 
G01 X12.3020 Y58.3381 
G01 X12.4344 Y58.2419 
G01 X12.5803 Y58.1676 
G01 X12.7359 Y58.1170 
G01 X12.8976 Y58.0914 
G01 X13.0612 Y58.0914 
G01 X13.2229 Y58.1170 
G01 X13.3785 Y58.1676 
G01 X13.5244 Y58.2419 
G01 X13.6568 Y58.3381 
G01 X13.7725 Y58.4538 
G01 X13.8687 Y58.5862 
G01 X13.9430 Y58.7321 
G01 X13.9936 Y58.8877 
G01 X14.0192 Y59.0494 
G00 Z2.0000 
G00 X18.5404 Y59.0494 
G01 Z-0.0250 F254.00 
G01 X18.5404 Y59.2130 F508.00 
G01 X18.5148 Y59.3747 
G01 X18.4642 Y59.5303 
G01 X18.3899 Y59.6762 
G01 X18.2937 Y59.8086 
G01 X18.1780 Y59.9243 
G01 X18.0456 Y60.0205 
G01 X17.8997 Y60.0948 
G01 X17.7441 Y60.1454 
G01 X17.5824 Y60.1710 
G01 X17.4188 Y60.1710 
G01 X17.2571 Y60.1454 
G01 X17.1015 Y60.0948 
G01 X16.9556 Y60.0205 
G01 X16.8232 Y59.9243 
G01 X16.7075 Y59.8086 
G01 X16.6113 Y59.6762 
G01 X16.5370 Y59.5303 
G01 X16.4864 Y59.3747 
G01 X16.4608 Y59.2130 
G01 X16.4608 Y59.0494 
G01 X16.4864 Y58.8877 
G01 X16.5370 Y58.7321 
G01 X16.6113 Y58.5862 
G01 X16.7075 Y58.4538 
G01 X16.8232 Y58.3381 
G01 X16.9556 Y58.2419 
G01 X17.1015 Y58.1676 
G01 X17.2571 Y58.1170 
G01 X17.4188 Y58.0914 
G01 X17.5824 Y58.0914 
G01 X17.7441 Y58.1170 
G01 X17.8997 Y58.1676 
G01 X18.0456 Y58.2419 
G01 X18.1780 Y58.3381 
G01 X18.2937 Y58.4538 
G01 X18.3899 Y58.5862 
G01 X18.4642 Y58.7321 
G01 X18.5148 Y58.8877 
G01 X18.5404 Y59.0494 
G00 Z2.0000 
G00 X1.9201 Y32.6200 
G01 Z-0.0250 F254.00 
G01 X1.8834 Y32.6048 F508.00 
G01 X1.8552 Y32.5766 
G01 X1.8400 Y32.5399 
G01 X1.8400 Y31.7001 
G01 X1.8419 Y31.6955 
G01 X1.3584 Y31.2119 
G01 X1.2881 Y31.1416 
G01 X1.2500 Y31.0497 
G01 X1.2500 Y8.7003 
G01 X1.2881 Y8.6084 
G01 X2.9988 Y6.8976 
G01 X2.9988 Y5.5589 
G01 X3.0300 Y5.4022 
G01 X3.0911 Y5.2546 
G01 X3.1799 Y5.1217 
G01 X3.2929 Y5.0087 
G01 X3.4258 Y4.9199 
G01 X3.5734 Y4.8588 
G01 X3.7301 Y4.8276 
G01 X3.8899 Y4.8276 
G01 X4.0466 Y4.8588 
G01 X4.1942 Y4.9199 
G01 X4.3271 Y5.0087 
G01 X4.4401 Y5.1217 
G01 X4.5289 Y5.2546 
G01 X4.5900 Y5.4022 
G01 X4.6212 Y5.5589 
G01 X4.6212 Y6.2500 
G01 X5.5388 Y6.2500 
G01 X5.5388 Y5.5589 
G01 X5.5700 Y5.4022 
G01 X5.6311 Y5.2546 
G01 X5.7199 Y5.1217 
G01 X5.8329 Y5.0087 
G01 X5.9657 Y4.9199 
G01 X6.1134 Y4.8588 
G01 X6.2701 Y4.8276 
G01 X6.4299 Y4.8276 
G01 X6.5866 Y4.8588 
G01 X6.7342 Y4.9199 
G01 X6.8671 Y5.0087 
G01 X6.9801 Y5.1217 
G01 X7.0689 Y5.2546 
G01 X7.1300 Y5.4022 
G01 X7.1612 Y5.5589 
G01 X7.1612 Y6.2500 
G01 X8.0788 Y6.2500 
G01 X8.0788 Y5.5589 
G01 X8.1100 Y5.4022 
G01 X8.1711 Y5.2546 
G01 X8.2599 Y5.1217 
G01 X8.3729 Y5.0087 
G01 X8.5058 Y4.9199 
G01 X8.6534 Y4.8588 
G01 X8.8101 Y4.8276 
G01 X8.9699 Y4.8276 
G01 X9.1266 Y4.8588 
G01 X9.2742 Y4.9199 
G01 X9.4071 Y5.0087 
G01 X9.5201 Y5.1217 
G01 X9.6089 Y5.2546 
G01 X9.6700 Y5.4022 
G01 X9.7012 Y5.5589 
G01 X9.7012 Y6.2500 
G01 X10.6188 Y6.2500 
G01 X10.6188 Y5.5589 
G01 X10.6500 Y5.4022 
G01 X10.7111 Y5.2546 
G01 X10.7999 Y5.1217 
G01 X10.9129 Y5.0087 
G01 X11.0457 Y4.9199 
G01 X11.1934 Y4.8588 
G01 X11.3501 Y4.8276 
G01 X11.5099 Y4.8276 
G01 X11.6666 Y4.8588 
G01 X11.8142 Y4.9199 
G01 X11.9471 Y5.0087 
G01 X12.0601 Y5.1217 
G01 X12.1489 Y5.2546 
G01 X12.2100 Y5.4022 
G01 X12.2412 Y5.5589 
G01 X12.2412 Y6.2500 
G01 X13.1588 Y6.2500 
G01 X13.1588 Y5.5589 
G01 X13.1900 Y5.4022 
G01 X13.2511 Y5.2546 
G01 X13.3399 Y5.1217 
G01 X13.4529 Y5.0087 
G01 X13.5858 Y4.9199 
G01 X13.7334 Y4.8588 
G01 X13.8901 Y4.8276 
G01 X14.0499 Y4.8276 
G01 X14.2066 Y4.8588 
G01 X14.3542 Y4.9199 
G01 X14.4871 Y5.0087 
G01 X14.6001 Y5.1217 
G01 X14.6889 Y5.2546 
G01 X14.7500 Y5.4022 
G01 X14.7812 Y5.5589 
G01 X14.7812 Y6.2500 
G01 X15.6988 Y6.2500 
G01 X15.6988 Y5.5589 
G01 X15.7300 Y5.4022 
G01 X15.7911 Y5.2546 
G01 X15.8799 Y5.1217 
G01 X15.9929 Y5.0087 
G01 X16.1258 Y4.9199 
G01 X16.2734 Y4.8588 
G01 X16.4301 Y4.8276 
G01 X16.5899 Y4.8276 
G01 X16.7466 Y4.8588 
G01 X16.8942 Y4.9199 
G01 X17.0271 Y5.0087 
G01 X17.1401 Y5.1217 
G01 X17.2289 Y5.2546 
G01 X17.2900 Y5.4022 
G01 X17.3212 Y5.5589 
G01 X17.3212 Y6.2500 
G01 X18.2388 Y6.2500 
G01 X18.2388 Y5.5589 
G01 X18.2700 Y5.4022 
G01 X18.3311 Y5.2546 
G01 X18.4199 Y5.1217 
G01 X18.5329 Y5.0087 
G01 X18.6657 Y4.9199 
G01 X18.8134 Y4.8588 
G01 X18.9701 Y4.8276 
G01 X19.1299 Y4.8276 
G01 X19.2866 Y4.8588 
G01 X19.4342 Y4.9199 
G01 X19.5671 Y5.0087 
G01 X19.6801 Y5.1217 
G01 X19.7689 Y5.2546 
G01 X19.8300 Y5.4022 
G01 X19.8612 Y5.5589 
G01 X19.8612 Y6.2500 
G01 X20.7788 Y6.2500 
G01 X20.7788 Y5.5589 
G01 X20.8100 Y5.4022 
G01 X20.8711 Y5.2546 
G01 X20.9599 Y5.1217 
G01 X21.0729 Y5.0087 
G01 X21.2058 Y4.9199 
G01 X21.3534 Y4.8588 
G01 X21.5101 Y4.8276 
G01 X21.6699 Y4.8276 
G01 X21.8266 Y4.8588 
G01 X21.9742 Y4.9199 
G01 X22.1071 Y5.0087 
G01 X22.2201 Y5.1217 
G01 X22.3089 Y5.2546 
G01 X22.3700 Y5.4022 
G01 X22.4012 Y5.5589 
G01 X22.4012 Y6.2500 
G01 X23.3188 Y6.2500 
G01 X23.3188 Y5.5589 
G01 X23.3500 Y5.4022 
G01 X23.4111 Y5.2546 
G01 X23.4999 Y5.1217 
G01 X23.6129 Y5.0087 
G01 X23.7458 Y4.9199 
G01 X23.8934 Y4.8588 
G01 X24.0501 Y4.8276 
G01 X24.2099 Y4.8276 
G01 X24.3666 Y4.8588 
G01 X24.5142 Y4.9199 
G01 X24.6471 Y5.0087 
G01 X24.7601 Y5.1217 
G01 X24.8489 Y5.2546 
G01 X24.9100 Y5.4022 
G01 X24.9412 Y5.5589 
G01 X24.9412 Y6.2500 
G01 X25.8588 Y6.2500 
G01 X25.8588 Y5.5589 
G01 X25.8900 Y5.4022 
G01 X25.9511 Y5.2546 
G01 X26.0399 Y5.1217 
G01 X26.1529 Y5.0087 
G01 X26.2858 Y4.9199 
G01 X26.4334 Y4.8588 
G01 X26.5901 Y4.8276 
G01 X26.7499 Y4.8276 
G01 X26.9066 Y4.8588 
G01 X27.0542 Y4.9199 
G01 X27.1871 Y5.0087 
G01 X27.3001 Y5.1217 
G01 X27.3889 Y5.2546 
G01 X27.4500 Y5.4022 
G01 X27.4812 Y5.5589 
G01 X27.4812 Y7.1411 
G01 X27.4500 Y7.2978 
G01 X27.3889 Y7.4454 
G01 X27.3001 Y7.5783 
G01 X27.1871 Y7.6913 
G01 X27.0542 Y7.7801 
G01 X27.0000 Y7.8025 
G01 X27.0000 Y11.6464 
G01 X31.5836 Y16.2300 
G01 X32.6399 Y16.2300 
G01 X32.6766 Y16.2452 
G01 X32.7048 Y16.2734 
G01 X32.7200 Y16.3101 
G01 X32.7200 Y17.3499 
G01 X32.7048 Y17.3866 
G01 X32.6766 Y17.4148 
G01 X32.6399 Y17.4300 
G01 X31.2001 Y17.4300 
G01 X31.1634 Y17.4148 
G01 X31.1352 Y17.3866 
G01 X31.1200 Y17.3499 
G01 X31.1200 Y16.4736 
G01 X26.6084 Y11.9619 
G01 X26.5381 Y11.8916 
G01 X26.5000 Y11.7997 
G01 X26.5000 Y7.8545 
G01 X26.4334 Y7.8412 
G01 X26.2858 Y7.7801 
G01 X26.1529 Y7.6913 
G01 X26.0399 Y7.5783 
G01 X25.9511 Y7.4454 
G01 X25.8900 Y7.2978 
G01 X25.8588 Y7.1411 
G01 X25.8588 Y6.7500 
G01 X24.9412 Y6.7500 
G01 X24.9412 Y7.1411 
G01 X24.9100 Y7.2978 
G01 X24.8489 Y7.4454 
G01 X24.7601 Y7.5783 
G01 X24.6471 Y7.6913 
G01 X24.5142 Y7.7801 
G01 X24.3666 Y7.8412 
G01 X24.2099 Y7.8724 
G01 X24.0501 Y7.8724 
G01 X23.8934 Y7.8412 
G01 X23.7458 Y7.7801 
G01 X23.6129 Y7.6913 
G01 X23.4999 Y7.5783 
G01 X23.4111 Y7.4454 
G01 X23.3500 Y7.2978 
G01 X23.3188 Y7.1411 
G01 X23.3188 Y6.7500 
G01 X22.4012 Y6.7500 
G01 X22.4012 Y7.1411 
G01 X22.3700 Y7.2978 
G01 X22.3089 Y7.4454 
G01 X22.2201 Y7.5783 
G01 X22.1071 Y7.6913 
G01 X21.9742 Y7.7801 
G01 X21.8266 Y7.8412 
G01 X21.6699 Y7.8724 
G01 X21.5101 Y7.8724 
G01 X21.3534 Y7.8412 
G01 X21.2058 Y7.7801 
G01 X21.0729 Y7.6913 
G01 X20.9599 Y7.5783 
G01 X20.8711 Y7.4454 
G01 X20.8100 Y7.2978 
G01 X20.7788 Y7.1411 
G01 X20.7788 Y6.7500 
G01 X19.8612 Y6.7500 
G01 X19.8612 Y7.1411 
G01 X19.8300 Y7.2978 
G01 X19.7689 Y7.4454 
G01 X19.6801 Y7.5783 
G01 X19.5671 Y7.6913 
G01 X19.4342 Y7.7801 
G01 X19.2866 Y7.8412 
G01 X19.1299 Y7.8724 
G01 X18.9701 Y7.8724 
G01 X18.8134 Y7.8412 
G01 X18.6657 Y7.7801 
G01 X18.5329 Y7.6913 
G01 X18.4199 Y7.5783 
G01 X18.3311 Y7.4454 
G01 X18.2700 Y7.2978 
G01 X18.2388 Y7.1411 
G01 X18.2388 Y6.7500 
G01 X17.3212 Y6.7500 
G01 X17.3212 Y7.1411 
G01 X17.2900 Y7.2978 
G01 X17.2289 Y7.4454 
G01 X17.1401 Y7.5783 
G01 X17.0271 Y7.6913 
G01 X16.8942 Y7.7801 
G01 X16.7466 Y7.8412 
G01 X16.5899 Y7.8724 
G01 X16.4301 Y7.8724 
G01 X16.2734 Y7.8412 
G01 X16.1258 Y7.7801 
G01 X15.9929 Y7.6913 
G01 X15.8799 Y7.5783 
G01 X15.7911 Y7.4454 
G01 X15.7300 Y7.2978 
G01 X15.6988 Y7.1411 
G01 X15.6988 Y6.7500 
G01 X14.7812 Y6.7500 
G01 X14.7812 Y7.1411 
G01 X14.7500 Y7.2978 
G01 X14.6889 Y7.4454 
G01 X14.6001 Y7.5783 
G01 X14.4871 Y7.6913 
G01 X14.3542 Y7.7801 
G01 X14.2066 Y7.8412 
G01 X14.0499 Y7.8724 
G01 X13.8901 Y7.8724 
G01 X13.7334 Y7.8412 
G01 X13.5858 Y7.7801 
G01 X13.4529 Y7.6913 
G01 X13.3399 Y7.5783 
G01 X13.2511 Y7.4454 
G01 X13.1900 Y7.2978 
G01 X13.1588 Y7.1411 
G01 X13.1588 Y6.7500 
G01 X12.2412 Y6.7500 
G01 X12.2412 Y7.1411 
G01 X12.2100 Y7.2978 
G01 X12.1489 Y7.4454 
G01 X12.0601 Y7.5783 
G01 X11.9471 Y7.6913 
G01 X11.8142 Y7.7801 
G01 X11.6666 Y7.8412 
G01 X11.5099 Y7.8724 
G01 X11.3501 Y7.8724 
G01 X11.1934 Y7.8412 
G01 X11.0457 Y7.7801 
G01 X10.9129 Y7.6913 
G01 X10.7999 Y7.5783 
G01 X10.7111 Y7.4454 
G01 X10.6500 Y7.2978 
G01 X10.6188 Y7.1411 
G01 X10.6188 Y6.7500 
G01 X9.7012 Y6.7500 
G01 X9.7012 Y7.1411 
G01 X9.6700 Y7.2978 
G01 X9.6089 Y7.4454 
G01 X9.5201 Y7.5783 
G01 X9.4071 Y7.6913 
G01 X9.2742 Y7.7801 
G01 X9.1266 Y7.8412 
G01 X8.9699 Y7.8724 
G01 X8.8101 Y7.8724 
G01 X8.6534 Y7.8412 
G01 X8.5058 Y7.7801 
G01 X8.3729 Y7.6913 
G01 X8.2599 Y7.5783 
G01 X8.1711 Y7.4454 
G01 X8.1100 Y7.2978 
G01 X8.0788 Y7.1411 
G01 X8.0788 Y6.7500 
G01 X7.1612 Y6.7500 
G01 X7.1612 Y7.1411 
G01 X7.1300 Y7.2978 
G01 X7.0689 Y7.4454 
G01 X6.9801 Y7.5783 
G01 X6.8671 Y7.6913 
G01 X6.7342 Y7.7801 
G01 X6.5866 Y7.8412 
G01 X6.4299 Y7.8724 
G01 X6.2701 Y7.8724 
G01 X6.1134 Y7.8412 
G01 X5.9657 Y7.7801 
G01 X5.8329 Y7.6913 
G01 X5.7199 Y7.5783 
G01 X5.6311 Y7.4454 
G01 X5.5700 Y7.2978 
G01 X5.5388 Y7.1411 
G01 X5.5388 Y6.7500 
G01 X4.6212 Y6.7500 
G01 X4.6212 Y7.1411 
G01 X4.5900 Y7.2978 
G01 X4.5289 Y7.4454 
G01 X4.4401 Y7.5783 
G01 X4.3271 Y7.6913 
G01 X4.1942 Y7.7801 
G01 X4.0466 Y7.8412 
G01 X3.8899 Y7.8724 
G01 X3.7301 Y7.8724 
G01 X3.5734 Y7.8412 
G01 X3.4258 Y7.7801 
G01 X3.2929 Y7.6913 
G01 X3.1799 Y7.5783 
G01 X3.1180 Y7.4856 
G01 X1.7500 Y8.8536 
G01 X1.7500 Y30.8964 
G01 X2.4736 Y31.6200 
G01 X3.1599 Y31.6200 
G01 X3.1966 Y31.6352 
G01 X3.2248 Y31.6634 
G01 X3.2400 Y31.7001 
G01 X3.2400 Y32.3864 
G01 X10.1416 Y39.2881 
G01 X10.2119 Y39.3584 
G01 X10.2500 Y39.4503 
G01 X10.2500 Y40.1844 
G01 X10.4263 Y40.2195 
G01 X10.5924 Y40.2883 
G01 X10.7419 Y40.3882 
G01 X10.8690 Y40.5153 
G01 X10.9689 Y40.6648 
G01 X11.0377 Y40.8309 
G01 X11.0728 Y41.0073 
G01 X11.0728 Y42.8127 
G01 X11.0377 Y42.9891 
G01 X10.9689 Y43.1552 
G01 X10.8690 Y43.3047 
G01 X10.7419 Y43.4318 
G01 X10.5924 Y43.5317 
G01 X10.4263 Y43.6005 
G01 X10.2500 Y43.6356 
G01 X10.2500 Y44.0497 
G01 X10.2119 Y44.1416 
G01 X10.1416 Y44.2119 
G01 X10.0497 Y44.2500 
G01 X3.2400 Y44.2500 
G01 X3.2400 Y44.8499 
G01 X3.2248 Y44.8866 
G01 X3.1966 Y44.9148 
G01 X3.1599 Y44.9300 
G01 X2.1736 Y44.9300 
G01 X2.0000 Y45.1036 
G01 X2.0000 Y47.5600 
G01 X2.0599 Y47.5600 
G01 X2.0966 Y47.5752 
G01 X2.1248 Y47.6034 
G01 X2.1400 Y47.6401 
G01 X2.1400 Y48.8799 
G01 X2.1248 Y48.9166 
G01 X2.0966 Y48.9448 
G01 X2.0599 Y48.9600 
G01 X1.2201 Y48.9600 
G01 X1.1834 Y48.9448 
G01 X1.1552 Y48.9166 
G01 X1.1400 Y48.8799 
G01 X1.1400 Y47.6401 
G01 X1.1552 Y47.6034 
G01 X1.1834 Y47.5752 
G01 X1.2201 Y47.5600 
G01 X1.5000 Y47.5600 
G01 X1.5000 Y44.9503 
G01 X1.5381 Y44.8584 
G01 X1.6084 Y44.7881 
G01 X1.8400 Y44.5564 
G01 X1.8400 Y43.6101 
G01 X1.8552 Y43.5734 
G01 X1.8834 Y43.5452 
G01 X1.9201 Y43.5300 
G01 X3.1599 Y43.5300 
G01 X3.1966 Y43.5452 
G01 X3.2248 Y43.5734 
G01 X3.2400 Y43.6101 
G01 X3.2400 Y43.7500 
G01 X9.7500 Y43.7500 
G01 X9.7500 Y43.5410 
G01 X9.7276 Y43.5317 
G01 X9.5781 Y43.4318 
G01 X9.4510 Y43.3047 
G01 X9.3511 Y43.1552 
G01 X9.2823 Y42.9891 
G01 X9.2472 Y42.8127 
G01 X9.2472 Y41.0073 
G01 X9.2823 Y40.8309 
G01 X9.3511 Y40.6648 
G01 X9.4510 Y40.5153 
G01 X9.5781 Y40.3882 
G01 X9.7276 Y40.2883 
G01 X9.7500 Y40.2790 
G01 X9.7500 Y39.6036 
G01 X2.7664 Y32.6200 
G01 X1.9201 Y32.6200 
G00 Z2.0000 
G00 X2.1950 Y52.5851 
G01 Z-0.0250 F254.00 
G01 X2.2102 Y52.5484 F508.00 
G01 X2.2384 Y52.5202 
G01 X2.2751 Y52.5050 
G01 X3.5849 Y52.5050 
G01 X3.6216 Y52.5202 
G01 X3.6498 Y52.5484 
G01 X3.6650 Y52.5851 
G01 X3.6650 Y54.0949 
G01 X3.6498 Y54.1316 
G01 X3.6216 Y54.1598 
G01 X3.5849 Y54.1750 
G01 X2.4286 Y54.1750 
G01 X1.7500 Y54.8536 
G01 X1.7500 Y56.7182 
G01 X1.8843 Y56.8079 
G01 X2.0185 Y56.9421 
G01 X2.1239 Y57.1000 
G01 X2.1966 Y57.2753 
G01 X2.2336 Y57.4615 
G01 X2.2336 Y59.3785 
G01 X2.1966 Y59.5647 
G01 X2.1239 Y59.7400 
G01 X2.0185 Y59.8979 
G01 X1.8843 Y60.0321 
G01 X1.7264 Y60.1375 
G01 X1.5511 Y60.2102 
G01 X1.3649 Y60.2472 
G01 X1.1751 Y60.2472 
G01 X0.9889 Y60.2102 
G01 X0.8136 Y60.1375 
G01 X0.6557 Y60.0321 
G01 X0.5215 Y59.8979 
G01 X0.4161 Y59.7400 
G01 X0.3434 Y59.5647 
G01 X0.3064 Y59.3785 
G01 X0.3064 Y57.4615 
G01 X0.3434 Y57.2753 
G01 X0.4161 Y57.1000 
G01 X0.5215 Y56.9421 
G01 X0.6557 Y56.8079 
G01 X0.8136 Y56.7025 
G01 X0.9889 Y56.6298 
G01 X1.1751 Y56.5928 
G01 X1.2500 Y56.5928 
G01 X1.2500 Y54.7003 
G01 X1.2881 Y54.6084 
G01 X1.3584 Y54.5381 
G01 X2.1950 Y53.7014 
G01 X2.1950 Y52.5851 
G00 Z2.0000 
G00 X7.9650 Y52.5851 
G01 Z-0.0250 F254.00 
G01 X7.9650 Y54.0949 F508.00 
G01 X7.9498 Y54.1316 
G01 X7.9216 Y54.1598 
G01 X7.8849 Y54.1750 
G01 X6.5751 Y54.1750 
G01 X6.5384 Y54.1598 
G01 X6.5102 Y54.1316 
G01 X6.4950 Y54.0949 
G01 X6.4950 Y52.5851 
G01 X6.5102 Y52.5484 
G01 X6.5384 Y52.5202 
G01 X6.5751 Y52.5050 
G01 X7.2500 Y52.5050 
G01 X7.2500 Y49.9600 
G01 X6.7601 Y49.9600 
G01 X6.7234 Y49.9448 
G01 X6.6952 Y49.9166 
G01 X6.6800 Y49.8799 
G01 X6.6800 Y48.5000 
G01 X3.9400 Y48.5000 
G01 X3.9400 Y48.8799 
G01 X3.9248 Y48.9166 
G01 X3.8966 Y48.9448 
G01 X3.8599 Y48.9600 
G01 X3.0201 Y48.9600 
G01 X2.9834 Y48.9448 
G01 X2.9552 Y48.9166 
G01 X2.9400 Y48.8799 
G01 X2.9400 Y47.6401 
G01 X2.9552 Y47.6034 
G01 X2.9834 Y47.5752 
G01 X3.0201 Y47.5600 
G01 X3.8599 Y47.5600 
G01 X3.8966 Y47.5752 
G01 X3.9248 Y47.6034 
G01 X3.9400 Y47.6401 
G01 X3.9400 Y48.0000 
G01 X6.6800 Y48.0000 
G01 X6.6800 Y46.6401 
G01 X6.6952 Y46.6034 
G01 X6.7234 Y46.5752 
G01 X6.7601 Y46.5600 
G01 X8.5799 Y46.5600 
G01 X8.6166 Y46.5752 
G01 X8.6448 Y46.6034 
G01 X8.6600 Y46.6401 
G01 X8.6600 Y49.8799 
G01 X8.6448 Y49.9166 
G01 X8.6166 Y49.9448 
G01 X8.5799 Y49.9600 
G01 X7.7500 Y49.9600 
G01 X7.7500 Y52.5050 
G01 X7.8849 Y52.5050 
G01 X7.9216 Y52.5202 
G01 X7.9498 Y52.5484 
G01 X7.9650 Y52.5851 
G00 Z2.0000 
G00 X4.1164 Y59.3785 
G01 Z-0.0250 F254.00 
G01 X4.1164 Y57.4615 F508.00 
G01 X4.1534 Y57.2753 
G01 X4.2261 Y57.1000 
G01 X4.3315 Y56.9421 
G01 X4.4657 Y56.8079 
G01 X4.6236 Y56.7025 
G01 X4.7989 Y56.6298 
G01 X4.9851 Y56.5928 
G01 X5.1749 Y56.5928 
G01 X5.3611 Y56.6298 
G01 X5.5364 Y56.7025 
G01 X5.6943 Y56.8079 
G01 X5.8285 Y56.9421 
G01 X5.9339 Y57.1000 
G01 X6.0066 Y57.2753 
G01 X6.0436 Y57.4615 
G01 X6.0436 Y59.3785 
G01 X6.0066 Y59.5647 
G01 X5.9339 Y59.7400 
G01 X5.8285 Y59.8979 
G01 X5.6943 Y60.0321 
G01 X5.5364 Y60.1375 
G01 X5.3611 Y60.2102 
G01 X5.1749 Y60.2472 
G01 X4.9851 Y60.2472 
G01 X4.7989 Y60.2102 
G01 X4.6236 Y60.1375 
G01 X4.4657 Y60.0321 
G01 X4.3315 Y59.8979 
G01 X4.2261 Y59.7400 
G01 X4.1534 Y59.5647 
G01 X4.1164 Y59.3785 
G00 Z2.0000 
G00 X7.9264 Y59.3785 
G01 Z-0.0250 F254.00 
G01 X7.9264 Y57.4615 F508.00 
G01 X7.9634 Y57.2753 
G01 X8.0361 Y57.1000 
G01 X8.1415 Y56.9421 
G01 X8.2757 Y56.8079 
G01 X8.4336 Y56.7025 
G01 X8.6089 Y56.6298 
G01 X8.7951 Y56.5928 
G01 X8.9849 Y56.5928 
G01 X9.1711 Y56.6298 
G01 X9.3464 Y56.7025 
G01 X9.5043 Y56.8079 
G01 X9.6385 Y56.9421 
G01 X9.7439 Y57.1000 
G01 X9.8166 Y57.2753 
G01 X9.8536 Y57.4615 
G01 X9.8536 Y59.3785 
G01 X9.8166 Y59.5647 
G01 X9.7439 Y59.7400 
G01 X9.6385 Y59.8979 
G01 X9.5043 Y60.0321 
G01 X9.3464 Y60.1375 
G01 X9.1711 Y60.2102 
G01 X8.9849 Y60.2472 
G01 X8.7951 Y60.2472 
G01 X8.6089 Y60.2102 
G01 X8.4336 Y60.1375 
G01 X8.2757 Y60.0321 
G01 X8.1415 Y59.8979 
G01 X8.0361 Y59.7400 
G01 X7.9634 Y59.5647 
G01 X7.9264 Y59.3785 
G00 Z2.0000 
G00 X3.1599 Y37.7000 
G01 Z-0.0250 F254.00 
G01 X2.4036 Y37.7000 F508.00 
G01 X1.7500 Y38.3535 
G01 X1.7500 Y40.8964 
G01 X2.2835 Y41.4300 
G01 X3.1599 Y41.4300 
G01 X3.1966 Y41.4452 
G01 X3.2248 Y41.4734 
G01 X3.2400 Y41.5101 
G01 X3.2400 Y42.7499 
G01 X3.2248 Y42.7866 
G01 X3.1966 Y42.8148 
G01 X3.1599 Y42.8300 
G01 X1.9201 Y42.8300 
G01 X1.8834 Y42.8148 
G01 X1.8552 Y42.7866 
G01 X1.8400 Y42.7499 
G01 X1.8400 Y41.6936 
G01 X1.2881 Y41.1416 
G01 X1.2500 Y41.0497 
G01 X1.2500 Y38.2003 
G01 X1.2881 Y38.1084 
G01 X1.3584 Y38.0381 
G01 X1.8400 Y37.5564 
G01 X1.8400 Y36.7801 
G01 X1.8552 Y36.7434 
G01 X1.8834 Y36.7152 
G01 X1.9201 Y36.7000 
G01 X3.1599 Y36.7000 
G01 X3.1966 Y36.7152 
G01 X3.2248 Y36.7434 
G01 X3.2400 Y36.7801 
G01 X3.2400 Y37.6199 
G01 X3.2248 Y37.6566 
G01 X3.1966 Y37.6848 
G01 X3.1599 Y37.7000 
G00 Z2.0000 
G00 X3.1599 Y39.5000 
G01 Z-0.0250 F254.00 
G01 X1.9201 Y39.5000 F508.00 
G01 X1.8834 Y39.4848 
G01 X1.8552 Y39.4566 
G01 X1.8400 Y39.4199 
G01 X1.8400 Y38.5801 
G01 X1.8552 Y38.5434 
G01 X1.8834 Y38.5152 
G01 X1.9201 Y38.5000 
G01 X2.8964 Y38.5000 
G01 X3.5000 Y37.8964 
G01 X3.5000 Y35.1036 
G01 X2.8164 Y34.4200 
G01 X1.9201 Y34.4200 
G01 X1.8834 Y34.4048 
G01 X1.8552 Y34.3766 
G01 X1.8400 Y34.3399 
G01 X1.8400 Y33.5001 
G01 X1.8552 Y33.4634 
G01 X1.8834 Y33.4352 
G01 X1.9201 Y33.4200 
G01 X3.1599 Y33.4200 
G01 X3.1966 Y33.4352 
G01 X3.2248 Y33.4634 
G01 X3.2400 Y33.5001 
G01 X3.2400 Y34.1364 
G01 X3.8916 Y34.7881 
G01 X3.9619 Y34.8584 
G01 X4.0000 Y34.9503 
G01 X4.0000 Y37.8964 
G01 X6.7986 Y40.6950 
G01 X6.8111 Y40.6648 
G01 X6.9110 Y40.5153 
G01 X7.0381 Y40.3882 
G01 X7.1876 Y40.2883 
G01 X7.3537 Y40.2195 
G01 X7.5301 Y40.1844 
G01 X7.7099 Y40.1844 
G01 X7.8863 Y40.2195 
G01 X8.0524 Y40.2883 
G01 X8.2019 Y40.3882 
G01 X8.3290 Y40.5153 
G01 X8.4289 Y40.6648 
G01 X8.4977 Y40.8309 
G01 X8.5328 Y41.0073 
G01 X8.5328 Y42.8127 
G01 X8.4977 Y42.9891 
G01 X8.4289 Y43.1552 
G01 X8.3290 Y43.3047 
G01 X8.2019 Y43.4318 
G01 X8.0524 Y43.5317 
G01 X7.8863 Y43.6005 
G01 X7.7099 Y43.6356 
G01 X7.5301 Y43.6356 
G01 X7.3537 Y43.6005 
G01 X7.1876 Y43.5317 
G01 X7.0381 Y43.4318 
G01 X6.9110 Y43.3047 
G01 X6.8111 Y43.1552 
G01 X6.7423 Y42.9891 
G01 X6.7072 Y42.8127 
G01 X6.7072 Y41.3107 
G01 X3.7500 Y38.3535 
G01 X3.2400 Y38.8636 
G01 X3.2400 Y39.4199 
G01 X3.2248 Y39.4566 
G01 X3.1966 Y39.4848 
G01 X3.1599 Y39.5000 
G00 Z2.0000 
G00 X13.6400 Y46.6401 
G01 Z-0.0250 F254.00 
G01 X13.6400 Y49.8799 F508.00 
G01 X13.6248 Y49.9166 
G01 X13.5966 Y49.9448 
G01 X13.5599 Y49.9600 
G01 X11.7401 Y49.9600 
G01 X11.7034 Y49.9448 
G01 X11.6752 Y49.9166 
G01 X11.6600 Y49.8799 
G01 X11.6600 Y46.6401 
G01 X11.6752 Y46.6034 
G01 X11.7034 Y46.5752 
G01 X11.7401 Y46.5600 
G01 X12.5000 Y46.5600 
G01 X12.5000 Y43.6137 
G01 X12.4337 Y43.6005 
G01 X12.2676 Y43.5317 
G01 X12.1181 Y43.4318 
G01 X11.9910 Y43.3047 
G01 X11.8911 Y43.1552 
G01 X11.8223 Y42.9891 
G01 X11.7872 Y42.8127 
G01 X11.7872 Y41.0073 
G01 X11.8223 Y40.8309 
G01 X11.8911 Y40.6648 
G01 X11.9910 Y40.5153 
G01 X12.1181 Y40.3882 
G01 X12.2676 Y40.2883 
G01 X12.4337 Y40.2195 
G01 X12.6101 Y40.1844 
G01 X12.7899 Y40.1844 
G01 X12.9663 Y40.2195 
G01 X13.1324 Y40.2883 
G01 X13.2819 Y40.3882 
G01 X13.4090 Y40.5153 
G01 X13.5089 Y40.6648 
G01 X13.5777 Y40.8309 
G01 X13.6128 Y41.0073 
G01 X13.6128 Y42.8127 
G01 X13.5777 Y42.9891 
G01 X13.5089 Y43.1552 
G01 X13.4090 Y43.3047 
G01 X13.2819 Y43.4318 
G01 X13.1324 Y43.5317 
G01 X13.0000 Y43.5865 
G01 X13.0000 Y46.5600 
G01 X13.5599 Y46.5600 
G01 X13.5966 Y46.5752 
G01 X13.6248 Y46.6034 
G01 X13.6400 Y46.6401 
G00 Z2.0000 
G00 X24.6015 Y59.7841 
G01 Z-0.0250 F254.00 
G01 X24.6015 Y57.0559 F508.00 
G01 X24.6349 Y56.8449 
G01 X24.7009 Y56.6417 
G01 X24.7979 Y56.4513 
G01 X24.9235 Y56.2785 
G01 X25.0746 Y56.1274 
G01 X25.2474 Y56.0018 
G01 X25.4378 Y55.9048 
G01 X25.6410 Y55.8388 
G01 X25.8520 Y55.8054 
G01 X26.0656 Y55.8054 
G01 X26.2766 Y55.8388 
G01 X26.4798 Y55.9048 
G01 X26.6702 Y56.0018 
G01 X26.8430 Y56.1274 
G01 X26.9941 Y56.2785 
G01 X27.1197 Y56.4513 
G01 X27.2167 Y56.6417 
G01 X27.2827 Y56.8449 
G01 X27.3161 Y57.0559 
G01 X27.3161 Y59.7841 
G01 X27.2827 Y59.9951 
G01 X27.2167 Y60.1983 
G01 X27.1197 Y60.3887 
G01 X26.9941 Y60.5615 
G01 X26.8430 Y60.7126 
G01 X26.6702 Y60.8382 
G01 X26.4798 Y60.9352 
G01 X26.2766 Y61.0012 
G01 X26.0656 Y61.0346 
G01 X25.8520 Y61.0346 
G01 X25.6410 Y61.0012 
G01 X25.4378 Y60.9352 
G01 X25.2474 Y60.8382 
G01 X25.0746 Y60.7126 
G01 X24.9235 Y60.5615 
G01 X24.7979 Y60.3887 
G01 X24.7009 Y60.1983 
G01 X24.6349 Y59.9951 
G01 X24.6015 Y59.7841 
G00 Z2.0000 
G00 X17.3212 Y13.1789 
G01 Z-0.0250 F254.00 
G01 X17.3212 Y14.7611 F508.00 
G01 X17.2900 Y14.9178 
G01 X17.2289 Y15.0654 
G01 X17.1401 Y15.1983 
G01 X17.0271 Y15.3113 
G01 X16.8942 Y15.4001 
G01 X16.7500 Y15.4598 
G01 X16.7500 Y15.5497 
G01 X16.7119 Y15.6416 
G01 X16.6416 Y15.7119 
G01 X15.9264 Y16.4272 
G01 X15.9400 Y16.4601 
G01 X15.9400 Y17.2999 
G01 X15.9248 Y17.3366 
G01 X15.8966 Y17.3648 
G01 X15.8599 Y17.3800 
G01 X14.6201 Y17.3800 
G01 X14.5834 Y17.3648 
G01 X14.5552 Y17.3366 
G01 X14.5400 Y17.2999 
G01 X14.5400 Y16.4601 
G01 X14.5552 Y16.4234 
G01 X14.5834 Y16.3952 
G01 X14.6201 Y16.3800 
G01 X15.2664 Y16.3800 
G01 X16.2110 Y15.4354 
G01 X16.1258 Y15.4001 
G01 X15.9929 Y15.3113 
G01 X15.8799 Y15.1983 
G01 X15.7911 Y15.0654 
G01 X15.7300 Y14.9178 
G01 X15.6988 Y14.7611 
G01 X15.6988 Y13.1789 
G01 X15.7300 Y13.0222 
G01 X15.7911 Y12.8746 
G01 X15.8799 Y12.7417 
G01 X15.9929 Y12.6287 
G01 X16.1258 Y12.5399 
G01 X16.2734 Y12.4788 
G01 X16.4301 Y12.4476 
G01 X16.5899 Y12.4476 
G01 X16.7466 Y12.4788 
G01 X16.8942 Y12.5399 
G01 X17.0271 Y12.6287 
G01 X17.1401 Y12.7417 
G01 X17.2289 Y12.8746 
G01 X17.2900 Y13.0222 
G01 X17.3212 Y13.1789 
G00 Z2.0000 
G00 X14.7812 Y13.1789 
G01 Z-0.0250 F254.00 
G01 X14.7812 Y14.7611 F508.00 
G01 X14.7500 Y14.9178 
G01 X14.6889 Y15.0654 
G01 X14.6001 Y15.1983 
G01 X14.4871 Y15.3113 
G01 X14.3542 Y15.4001 
G01 X14.2066 Y15.4612 
G01 X14.0499 Y15.4924 
G01 X14.0000 Y15.4924 
G01 X14.0000 Y15.7997 
G01 X13.9619 Y15.8916 
G01 X13.8916 Y15.9619 
G01 X13.3981 Y16.4555 
G01 X13.4000 Y16.4601 
G01 X13.4000 Y17.2999 
G01 X13.3848 Y17.3366 
G01 X13.3566 Y17.3648 
G01 X13.3199 Y17.3800 
G01 X12.0801 Y17.3800 
G01 X12.0434 Y17.3648 
G01 X12.0152 Y17.3366 
G01 X12.0000 Y17.2999 
G01 X12.0000 Y16.4601 
G01 X12.0152 Y16.4234 
G01 X12.0434 Y16.3952 
G01 X12.0801 Y16.3800 
G01 X12.7664 Y16.3800 
G01 X13.5000 Y15.6464 
G01 X13.5000 Y15.3428 
G01 X13.4529 Y15.3113 
G01 X13.3399 Y15.1983 
G01 X13.2511 Y15.0654 
G01 X13.1900 Y14.9178 
G01 X13.1588 Y14.7611 
G01 X13.1588 Y13.1789 
G01 X13.1900 Y13.0222 
G01 X13.2511 Y12.8746 
G01 X13.3399 Y12.7417 
G01 X13.4529 Y12.6287 
G01 X13.5858 Y12.5399 
G01 X13.7334 Y12.4788 
G01 X13.8901 Y12.4476 
G01 X14.0499 Y12.4476 
G01 X14.2066 Y12.4788 
G01 X14.3542 Y12.5399 
G01 X14.4871 Y12.6287 
G01 X14.6001 Y12.7417 
G01 X14.6889 Y12.8746 
G01 X14.7500 Y13.0222 
G01 X14.7812 Y13.1789 
G00 Z2.0000 
G00 X12.2412 Y13.1789 
G01 Z-0.0250 F254.00 
G01 X12.2412 Y14.7611 F508.00 
G01 X12.2100 Y14.9178 
G01 X12.1489 Y15.0654 
G01 X12.0601 Y15.1983 
G01 X11.9471 Y15.3113 
G01 X11.8142 Y15.4001 
G01 X11.6666 Y15.4612 
G01 X11.5099 Y15.4924 
G01 X11.5000 Y15.4924 
G01 X11.5000 Y15.7997 
G01 X11.4619 Y15.8916 
G01 X11.3916 Y15.9619 
G01 X10.8600 Y16.4935 
G01 X10.8600 Y17.2999 
G01 X10.8448 Y17.3366 
G01 X10.8166 Y17.3648 
G01 X10.7799 Y17.3800 
G01 X9.5401 Y17.3800 
G01 X9.5034 Y17.3648 
G01 X9.4752 Y17.3366 
G01 X9.4600 Y17.2999 
G01 X9.4600 Y16.4601 
G01 X9.4752 Y16.4234 
G01 X9.5034 Y16.3952 
G01 X9.5401 Y16.3800 
G01 X10.2664 Y16.3800 
G01 X11.0000 Y15.6464 
G01 X11.0000 Y15.3695 
G01 X10.9129 Y15.3113 
G01 X10.7999 Y15.1983 
G01 X10.7111 Y15.0654 
G01 X10.6500 Y14.9178 
G01 X10.6188 Y14.7611 
G01 X10.6188 Y13.1789 
G01 X10.6500 Y13.0222 
G01 X10.7111 Y12.8746 
G01 X10.7999 Y12.7417 
G01 X10.9129 Y12.6287 
G01 X11.0457 Y12.5399 
G01 X11.1934 Y12.4788 
G01 X11.3501 Y12.4476 
G01 X11.5099 Y12.4476 
G01 X11.6666 Y12.4788 
G01 X11.8142 Y12.5399 
G01 X11.9471 Y12.6287 
G01 X12.0601 Y12.7417 
G01 X12.1489 Y12.8746 
G01 X12.2100 Y13.0222 
G01 X12.2412 Y13.1789 
G00 Z2.0000 
G00 X9.7012 Y13.1789 
G01 Z-0.0250 F254.00 
G01 X9.7012 Y14.7611 F508.00 
G01 X9.6700 Y14.9178 
G01 X9.6089 Y15.0654 
G01 X9.5201 Y15.1983 
G01 X9.4071 Y15.3113 
G01 X9.2742 Y15.4001 
G01 X9.1266 Y15.4612 
G01 X9.0000 Y15.4864 
G01 X9.0000 Y15.7997 
G01 X8.9619 Y15.8916 
G01 X8.8916 Y15.9619 
G01 X8.3200 Y16.5336 
G01 X8.3200 Y17.2999 
G01 X8.3048 Y17.3366 
G01 X8.2766 Y17.3648 
G01 X8.2399 Y17.3800 
G01 X7.0001 Y17.3800 
G01 X6.9634 Y17.3648 
G01 X6.9352 Y17.3366 
G01 X6.9200 Y17.2999 
G01 X6.9200 Y16.4601 
G01 X6.9352 Y16.4234 
G01 X6.9634 Y16.3952 
G01 X7.0001 Y16.3800 
G01 X7.7664 Y16.3800 
G01 X8.5000 Y15.6464 
G01 X8.5000 Y15.3962 
G01 X8.3729 Y15.3113 
G01 X8.2599 Y15.1983 
G01 X8.1711 Y15.0654 
G01 X8.1100 Y14.9178 
G01 X8.0788 Y14.7611 
G01 X8.0788 Y13.1789 
G01 X8.1100 Y13.0222 
G01 X8.1711 Y12.8746 
G01 X8.2599 Y12.7417 
G01 X8.3729 Y12.6287 
G01 X8.5058 Y12.5399 
G01 X8.6534 Y12.4788 
G01 X8.8101 Y12.4476 
G01 X8.9699 Y12.4476 
G01 X9.1266 Y12.4788 
G01 X9.2742 Y12.5399 
G01 X9.4071 Y12.6287 
G01 X9.5201 Y12.7417 
G01 X9.6089 Y12.8746 
G01 X9.6700 Y13.0222 
G01 X9.7012 Y13.1789 
G00 Z2.0000 
G00 X7.1612 Y13.1789 
G01 Z-0.0250 F254.00 
G01 X7.1612 Y14.7611 F508.00 
G01 X7.1300 Y14.9178 
G01 X7.0689 Y15.0654 
G01 X6.9801 Y15.1983 
G01 X6.8671 Y15.3113 
G01 X6.7342 Y15.4001 
G01 X6.5866 Y15.4612 
G01 X6.5000 Y15.4785 
G01 X6.5000 Y15.7997 
G01 X6.4619 Y15.8916 
G01 X6.3916 Y15.9619 
G01 X5.7800 Y16.5736 
G01 X5.7800 Y17.2999 
G01 X5.7648 Y17.3366 
G01 X5.7366 Y17.3648 
G01 X5.6999 Y17.3800 
G01 X4.4601 Y17.3800 
G01 X4.4234 Y17.3648 
G01 X4.3952 Y17.3366 
G01 X4.3800 Y17.2999 
G01 X4.3800 Y16.4601 
G01 X4.3952 Y16.4234 
G01 X4.4234 Y16.3952 
G01 X4.4601 Y16.3800 
G01 X5.2664 Y16.3800 
G01 X6.0000 Y15.6464 
G01 X6.0000 Y15.4143 
G01 X5.9657 Y15.4001 
G01 X5.8329 Y15.3113 
G01 X5.7199 Y15.1983 
G01 X5.6311 Y15.0654 
G01 X5.5700 Y14.9178 
G01 X5.5388 Y14.7611 
G01 X5.5388 Y13.1789 
G01 X5.5700 Y13.0222 
G01 X5.6311 Y12.8746 
G01 X5.7199 Y12.7417 
G01 X5.8329 Y12.6287 
G01 X5.9657 Y12.5399 
G01 X6.1134 Y12.4788 
G01 X6.2701 Y12.4476 
G01 X6.4299 Y12.4476 
G01 X6.5866 Y12.4788 
G01 X6.7342 Y12.5399 
G01 X6.8671 Y12.6287 
G01 X6.9801 Y12.7417 
G01 X7.0689 Y12.8746 
G01 X7.1300 Y13.0222 
G01 X7.1612 Y13.1789 
G00 Z2.0000 
G00 X4.6212 Y13.1789 
G01 Z-0.0250 F254.00 
G01 X4.6212 Y14.7611 F508.00 
G01 X4.5900 Y14.9178 
G01 X4.5289 Y15.0654 
G01 X4.4401 Y15.1983 
G01 X4.3271 Y15.3113 
G01 X4.1942 Y15.4001 
G01 X4.0466 Y15.4612 
G01 X4.0000 Y15.4705 
G01 X4.0000 Y15.7997 
G01 X3.9619 Y15.8916 
G01 X3.8916 Y15.9619 
G01 X3.2400 Y16.6136 
G01 X3.2400 Y17.2999 
G01 X3.2248 Y17.3366 
G01 X3.1966 Y17.3648 
G01 X3.1599 Y17.3800 
G01 X1.9201 Y17.3800 
G01 X1.8834 Y17.3648 
G01 X1.8552 Y17.3366 
G01 X1.8400 Y17.2999 
G01 X1.8400 Y16.4601 
G01 X1.8552 Y16.4234 
G01 X1.8834 Y16.3952 
G01 X1.9201 Y16.3800 
G01 X2.7664 Y16.3800 
G01 X3.5000 Y15.6464 
G01 X3.5000 Y15.4308 
G01 X3.4258 Y15.4001 
G01 X3.2929 Y15.3113 
G01 X3.1799 Y15.1983 
G01 X3.0911 Y15.0654 
G01 X3.0300 Y14.9178 
G01 X2.9988 Y14.7611 
G01 X2.9988 Y13.1789 
G01 X3.0300 Y13.0222 
G01 X3.0911 Y12.8746 
G01 X3.1799 Y12.7417 
G01 X3.2929 Y12.6287 
G01 X3.4258 Y12.5399 
G01 X3.5734 Y12.4788 
G01 X3.7301 Y12.4476 
G01 X3.8899 Y12.4476 
G01 X4.0466 Y12.4788 
G01 X4.1942 Y12.5399 
G01 X4.3271 Y12.6287 
G01 X4.4401 Y12.7417 
G01 X4.5289 Y12.8746 
G01 X4.5900 Y13.0222 
G01 X4.6212 Y13.1789 
G00 Z2.0000 
G00 X24.7801 Y18.1800 
G01 Z-0.0250 F254.00 
G01 X26.0199 Y18.1800 F508.00 
G01 X26.0566 Y18.1952 
G01 X26.0848 Y18.2234 
G01 X26.1000 Y18.2601 
G01 X26.1000 Y18.9964 
G01 X33.3536 Y26.2500 
G01 X36.0160 Y26.2500 
G01 X36.0211 Y26.2376 
G01 X36.1210 Y26.0881 
G01 X36.2481 Y25.9610 
G01 X36.3976 Y25.8611 
G01 X36.5637 Y25.7923 
G01 X36.7401 Y25.7572 
G01 X36.9199 Y25.7572 
G01 X37.0963 Y25.7923 
G01 X37.2624 Y25.8611 
G01 X37.4119 Y25.9610 
G01 X37.5390 Y26.0881 
G01 X37.6389 Y26.2376 
G01 X37.7077 Y26.4037 
G01 X37.7428 Y26.5801 
G01 X37.7428 Y26.7599 
G01 X37.7077 Y26.9363 
G01 X37.6389 Y27.1024 
G01 X37.5390 Y27.2519 
G01 X37.4119 Y27.3790 
G01 X37.2624 Y27.4789 
G01 X37.0963 Y27.5477 
G01 X36.9199 Y27.5828 
G01 X36.7401 Y27.5828 
G01 X36.5637 Y27.5477 
G01 X36.3976 Y27.4789 
G01 X36.2481 Y27.3790 
G01 X36.1210 Y27.2519 
G01 X36.0211 Y27.1024 
G01 X35.9523 Y26.9363 
G01 X35.9172 Y26.7599 
G01 X35.9172 Y26.7500 
G01 X33.2003 Y26.7500 
G01 X33.1084 Y26.7119 
G01 X25.5764 Y19.1800 
G01 X24.7801 Y19.1800 
G01 X24.7434 Y19.1648 
G01 X24.7152 Y19.1366 
G01 X24.7000 Y19.0999 
G01 X24.7000 Y18.2601 
G01 X24.7152 Y18.2234 
G01 X24.7434 Y18.1952 
G01 X24.7801 Y18.1800 
G00 Z2.0000 
G00 X24.7801 Y16.3800 
G01 Z-0.0250 F254.00 
G01 X25.5164 Y16.3800 F508.00 
G01 X26.2500 Y15.6464 
G01 X26.2500 Y15.3762 
G01 X26.1529 Y15.3113 
G01 X26.0399 Y15.1983 
G01 X25.9511 Y15.0654 
G01 X25.8900 Y14.9178 
G01 X25.8588 Y14.7611 
G01 X25.8588 Y13.1789 
G01 X25.8900 Y13.0222 
G01 X25.9511 Y12.8746 
G01 X26.0399 Y12.7417 
G01 X26.1529 Y12.6287 
G01 X26.2858 Y12.5399 
G01 X26.4334 Y12.4788 
G01 X26.5901 Y12.4476 
G01 X26.7499 Y12.4476 
G01 X26.9066 Y12.4788 
G01 X27.0542 Y12.5399 
G01 X27.1871 Y12.6287 
G01 X27.3001 Y12.7417 
G01 X27.3889 Y12.8746 
G01 X27.4500 Y13.0222 
G01 X27.4812 Y13.1789 
G01 X27.4812 Y14.7611 
G01 X27.4500 Y14.9178 
G01 X27.3889 Y15.0654 
G01 X27.3001 Y15.1983 
G01 X27.1871 Y15.3113 
G01 X27.0542 Y15.4001 
G01 X26.9066 Y15.4612 
G01 X26.7500 Y15.4924 
G01 X26.7500 Y15.7997 
G01 X26.7119 Y15.8916 
G01 X26.6416 Y15.9619 
G01 X26.1000 Y16.5036 
G01 X26.1000 Y17.2999 
G01 X26.0848 Y17.3366 
G01 X26.0566 Y17.3648 
G01 X26.0199 Y17.3800 
G01 X24.7801 Y17.3800 
G01 X24.7434 Y17.3648 
G01 X24.7152 Y17.3366 
G01 X24.7000 Y17.2999 
G01 X24.7000 Y16.4601 
G01 X24.7152 Y16.4234 
G01 X24.7434 Y16.3952 
G01 X24.7801 Y16.3800 
G00 Z2.0000 
G00 X22.2401 Y18.1800 
G01 Z-0.0250 F254.00 
G01 X23.4799 Y18.1800 F508.00 
G01 X23.5166 Y18.1952 
G01 X23.5448 Y18.2234 
G01 X23.5558 Y18.2500 
G01 X24.0000 Y18.2500 
G01 X24.0000 Y18.2003 
G01 X24.0381 Y18.1084 
G01 X24.5381 Y17.6084 
G01 X24.6084 Y17.5381 
G01 X24.7003 Y17.5000 
G01 X30.7997 Y17.5000 
G01 X30.8916 Y17.5381 
G01 X30.9619 Y17.6084 
G01 X31.0000 Y17.7003 
G01 X31.0000 Y19.3964 
G01 X35.3536 Y23.7500 
G01 X35.9994 Y23.7500 
G01 X36.0211 Y23.6976 
G01 X36.1210 Y23.5481 
G01 X36.2481 Y23.4210 
G01 X36.3976 Y23.3211 
G01 X36.5637 Y23.2523 
G01 X36.7401 Y23.2172 
G01 X36.9199 Y23.2172 
G01 X37.0963 Y23.2523 
G01 X37.2624 Y23.3211 
G01 X37.4119 Y23.4210 
G01 X37.5390 Y23.5481 
G01 X37.6389 Y23.6976 
G01 X37.7077 Y23.8637 
G01 X37.7428 Y24.0401 
G01 X37.7428 Y24.2199 
G01 X37.7077 Y24.3963 
G01 X37.6389 Y24.5624 
G01 X37.5390 Y24.7119 
G01 X37.4119 Y24.8390 
G01 X37.2624 Y24.9389 
G01 X37.0963 Y25.0077 
G01 X36.9199 Y25.0428 
G01 X36.7401 Y25.0428 
G01 X36.5637 Y25.0077 
G01 X36.3976 Y24.9389 
G01 X36.2481 Y24.8390 
G01 X36.1210 Y24.7119 
G01 X36.0211 Y24.5624 
G01 X35.9523 Y24.3963 
G01 X35.9232 Y24.2500 
G01 X35.2003 Y24.2500 
G01 X35.1084 Y24.2119 
G01 X35.0381 Y24.1416 
G01 X30.5381 Y19.6416 
G01 X30.5000 Y19.5497 
G01 X30.5000 Y18.0000 
G01 X24.8536 Y18.0000 
G01 X24.5000 Y18.3536 
G01 X24.5000 Y18.5497 
G01 X24.4619 Y18.6416 
G01 X24.3916 Y18.7119 
G01 X24.2997 Y18.7500 
G01 X23.5600 Y18.7500 
G01 X23.5600 Y19.0999 
G01 X23.5448 Y19.1366 
G01 X23.5166 Y19.1648 
G01 X23.4799 Y19.1800 
G01 X22.2401 Y19.1800 
G01 X22.2034 Y19.1648 
G01 X22.1752 Y19.1366 
G01 X22.1600 Y19.0999 
G01 X22.1600 Y18.2601 
G01 X22.1752 Y18.2234 
G01 X22.2034 Y18.1952 
G01 X22.2401 Y18.1800 
G00 Z2.0000 
G00 X22.2401 Y16.3800 
G01 Z-0.0250 F254.00 
G01 X23.0164 Y16.3800 F508.00 
G01 X23.7500 Y15.6464 
G01 X23.7500 Y15.4018 
G01 X23.7458 Y15.4001 
G01 X23.6129 Y15.3113 
G01 X23.4999 Y15.1983 
G01 X23.4111 Y15.0654 
G01 X23.3500 Y14.9178 
G01 X23.3188 Y14.7611 
G01 X23.3188 Y13.1789 
G01 X23.3500 Y13.0222 
G01 X23.4111 Y12.8746 
G01 X23.4999 Y12.7417 
G01 X23.6129 Y12.6287 
G01 X23.7458 Y12.5399 
G01 X23.8934 Y12.4788 
G01 X24.0501 Y12.4476 
G01 X24.2099 Y12.4476 
G01 X24.3666 Y12.4788 
G01 X24.5142 Y12.5399 
G01 X24.6471 Y12.6287 
G01 X24.7601 Y12.7417 
G01 X24.8489 Y12.8746 
G01 X24.9100 Y13.0222 
G01 X24.9412 Y13.1789 
G01 X24.9412 Y14.7611 
G01 X24.9100 Y14.9178 
G01 X24.8489 Y15.0654 
G01 X24.7601 Y15.1983 
G01 X24.6471 Y15.3113 
G01 X24.5142 Y15.4001 
G01 X24.3666 Y15.4612 
G01 X24.2500 Y15.4844 
G01 X24.2500 Y15.7997 
G01 X24.2119 Y15.8916 
G01 X24.1416 Y15.9619 
G01 X23.5600 Y16.5436 
G01 X23.5600 Y17.2999 
G01 X23.5448 Y17.3366 
G01 X23.5166 Y17.3648 
G01 X23.4799 Y17.3800 
G01 X22.2401 Y17.3800 
G01 X22.2034 Y17.3648 
G01 X22.1752 Y17.3366 
G01 X22.1600 Y17.2999 
G01 X22.1600 Y16.4601 
G01 X22.1752 Y16.4234 
G01 X22.2034 Y16.3952 
G01 X22.2401 Y16.3800 
G00 Z2.0000 
G00 X19.7001 Y16.3800 
G01 Z-0.0250 F254.00 
G01 X20.5164 Y16.3800 F508.00 
G01 X21.2500 Y15.6464 
G01 X21.2500 Y15.4184 
G01 X21.2058 Y15.4001 
G01 X21.0729 Y15.3113 
G01 X20.9599 Y15.1983 
G01 X20.8711 Y15.0654 
G01 X20.8100 Y14.9178 
G01 X20.7788 Y14.7611 
G01 X20.7788 Y13.1789 
G01 X20.8100 Y13.0222 
G01 X20.8711 Y12.8746 
G01 X20.9599 Y12.7417 
G01 X21.0729 Y12.6287 
G01 X21.2058 Y12.5399 
G01 X21.3534 Y12.4788 
G01 X21.5101 Y12.4476 
G01 X21.6699 Y12.4476 
G01 X21.8266 Y12.4788 
G01 X21.9742 Y12.5399 
G01 X22.1071 Y12.6287 
G01 X22.2201 Y12.7417 
G01 X22.3089 Y12.8746 
G01 X22.3700 Y13.0222 
G01 X22.4012 Y13.1789 
G01 X22.4012 Y14.7611 
G01 X22.3700 Y14.9178 
G01 X22.3089 Y15.0654 
G01 X22.2201 Y15.1983 
G01 X22.1071 Y15.3113 
G01 X21.9742 Y15.4001 
G01 X21.8266 Y15.4612 
G01 X21.7500 Y15.4765 
G01 X21.7500 Y15.7997 
G01 X21.7119 Y15.8916 
G01 X21.6416 Y15.9619 
G01 X21.0200 Y16.5836 
G01 X21.0200 Y17.2999 
G01 X21.0048 Y17.3366 
G01 X20.9766 Y17.3648 
G01 X20.9399 Y17.3800 
G01 X19.7001 Y17.3800 
G01 X19.6634 Y17.3648 
G01 X19.6352 Y17.3366 
G01 X19.6200 Y17.2999 
G01 X19.6200 Y16.4601 
G01 X19.6352 Y16.4234 
G01 X19.6634 Y16.3952 
G01 X19.7001 Y16.3800 
G00 Z2.0000 
G00 X17.1601 Y18.1800 
G01 Z-0.0250 F254.00 
G01 X18.3999 Y18.1800 F508.00 
G01 X18.4366 Y18.1952 
G01 X18.4648 Y18.2234 
G01 X18.4800 Y18.2601 
G01 X18.4800 Y18.8764 
G01 X20.3916 Y20.7881 
G01 X20.4619 Y20.8584 
G01 X20.5000 Y20.9503 
G01 X20.5000 Y25.1464 
G01 X21.1979 Y25.8444 
G01 X21.3237 Y25.7923 
G01 X21.5001 Y25.7572 
G01 X21.6799 Y25.7572 
G01 X21.8563 Y25.7923 
G01 X22.0224 Y25.8611 
G01 X22.1719 Y25.9610 
G01 X22.2990 Y26.0881 
G01 X22.3989 Y26.2376 
G01 X22.4677 Y26.4037 
G01 X22.5028 Y26.5801 
G01 X22.5028 Y26.7599 
G01 X22.4677 Y26.9363 
G01 X22.3989 Y27.1024 
G01 X22.2990 Y27.2519 
G01 X22.1719 Y27.3790 
G01 X22.0224 Y27.4789 
G01 X21.8563 Y27.5477 
G01 X21.6799 Y27.5828 
G01 X21.5001 Y27.5828 
G01 X21.3237 Y27.5477 
G01 X21.1576 Y27.4789 
G01 X21.0081 Y27.3790 
G01 X20.8810 Y27.2519 
G01 X20.7811 Y27.1024 
G01 X20.7123 Y26.9363 
G01 X20.6772 Y26.7599 
G01 X20.6772 Y26.5801 
G01 X20.7123 Y26.4037 
G01 X20.7811 Y26.2376 
G01 X20.8223 Y26.1759 
G01 X20.0381 Y25.3916 
G01 X20.0000 Y25.2997 
G01 X20.0000 Y21.1036 
G01 X18.0764 Y19.1800 
G01 X17.1601 Y19.1800 
G01 X17.1234 Y19.1648 
G01 X17.0952 Y19.1366 
G01 X17.0800 Y19.0999 
G01 X17.0800 Y18.2601 
G01 X17.0952 Y18.2234 
G01 X17.1234 Y18.1952 
G01 X17.1601 Y18.1800 
G00 Z2.0000 
G00 X17.1601 Y16.3800 
G01 Z-0.0250 F254.00 
G01 X18.0164 Y16.3800 F508.00 
G01 X18.7500 Y15.6464 
G01 X18.7500 Y15.4350 
G01 X18.6657 Y15.4001 
G01 X18.5329 Y15.3113 
G01 X18.4199 Y15.1983 
G01 X18.3311 Y15.0654 
G01 X18.2700 Y14.9178 
G01 X18.2388 Y14.7611 
G01 X18.2388 Y13.1789 
G01 X18.2700 Y13.0222 
G01 X18.3311 Y12.8746 
G01 X18.4199 Y12.7417 
G01 X18.5329 Y12.6287 
G01 X18.6657 Y12.5399 
G01 X18.8134 Y12.4788 
G01 X18.9701 Y12.4476 
G01 X19.1299 Y12.4476 
G01 X19.2866 Y12.4788 
G01 X19.4342 Y12.5399 
G01 X19.5671 Y12.6287 
G01 X19.6801 Y12.7417 
G01 X19.7689 Y12.8746 
G01 X19.8300 Y13.0222 
G01 X19.8612 Y13.1789 
G01 X19.8612 Y14.7611 
G01 X19.8300 Y14.9178 
G01 X19.7689 Y15.0654 
G01 X19.6801 Y15.1983 
G01 X19.5671 Y15.3113 
G01 X19.4342 Y15.4001 
G01 X19.2866 Y15.4612 
G01 X19.2500 Y15.4685 
G01 X19.2500 Y15.7997 
G01 X19.2119 Y15.8916 
G01 X19.1416 Y15.9619 
G01 X18.4800 Y16.6236 
G01 X18.4800 Y17.2999 
G01 X18.4648 Y17.3366 
G01 X18.4366 Y17.3648 
G01 X18.3999 Y17.3800 
G01 X17.1601 Y17.3800 
G01 X17.1234 Y17.3648 
G01 X17.0952 Y17.3366 
G01 X17.0800 Y17.2999 
G01 X17.0800 Y16.4601 
G01 X17.0952 Y16.4234 
G01 X17.1234 Y16.3952 
G01 X17.1601 Y16.3800 
G00 Z2.0000 
G00 X14.6201 Y18.1800 
G01 Z-0.0250 F254.00 
G01 X15.8599 Y18.1800 F508.00 
G01 X15.8966 Y18.1952 
G01 X15.9248 Y18.2234 
G01 X15.9400 Y18.2601 
G01 X15.9400 Y19.0864 
G01 X19.6416 Y22.7881 
G01 X19.7119 Y22.8584 
G01 X19.7500 Y22.9503 
G01 X19.7500 Y26.8964 
G01 X21.2262 Y28.3727 
G01 X21.3237 Y28.3323 
G01 X21.5001 Y28.2972 
G01 X21.6799 Y28.2972 
G01 X21.8563 Y28.3323 
G01 X22.0224 Y28.4011 
G01 X22.1719 Y28.5010 
G01 X22.2990 Y28.6281 
G01 X22.3989 Y28.7776 
G01 X22.4677 Y28.9437 
G01 X22.5028 Y29.1201 
G01 X22.5028 Y29.2999 
G01 X22.4677 Y29.4763 
G01 X22.3989 Y29.6424 
G01 X22.2990 Y29.7919 
G01 X22.1719 Y29.9190 
G01 X22.0224 Y30.0189 
G01 X21.8563 Y30.0877 
G01 X21.6799 Y30.1228 
G01 X21.5001 Y30.1228 
G01 X21.3237 Y30.0877 
G01 X21.1576 Y30.0189 
G01 X21.0081 Y29.9190 
G01 X20.8810 Y29.7919 
G01 X20.7811 Y29.6424 
G01 X20.7123 Y29.4763 
G01 X20.6772 Y29.2999 
G01 X20.6772 Y29.1201 
G01 X20.7123 Y28.9437 
G01 X20.7811 Y28.7776 
G01 X20.8384 Y28.6919 
G01 X19.2881 Y27.1416 
G01 X19.2500 Y27.0497 
G01 X19.2500 Y23.1036 
G01 X15.3264 Y19.1800 
G01 X14.6201 Y19.1800 
G01 X14.5834 Y19.1648 
G01 X14.5552 Y19.1366 
G01 X14.5400 Y19.0999 
G01 X14.5400 Y18.2601 
G01 X14.5552 Y18.2234 
G01 X14.5834 Y18.1952 
G01 X14.6201 Y18.1800 
G00 Z2.0000 
G00 X12.0801 Y18.1800 
G01 Z-0.0250 F254.00 
G01 X13.3199 Y18.1800 F508.00 
G01 X13.3566 Y18.1952 
G01 X13.3848 Y18.2234 
G01 X13.4000 Y18.2601 
G01 X13.4000 Y19.0464 
G01 X18.8916 Y24.5381 
G01 X18.9619 Y24.6084 
G01 X19.0000 Y24.7003 
G01 X19.0000 Y28.8964 
G01 X21.0899 Y30.9863 
G01 X21.1576 Y30.9411 
G01 X21.3237 Y30.8723 
G01 X21.5001 Y30.8372 
G01 X21.6799 Y30.8372 
G01 X21.8563 Y30.8723 
G01 X22.0224 Y30.9411 
G01 X22.1719 Y31.0410 
G01 X22.2990 Y31.1681 
G01 X22.3989 Y31.3176 
G01 X22.4677 Y31.4837 
G01 X22.5028 Y31.6601 
G01 X22.5028 Y31.8399 
G01 X22.4677 Y32.0163 
G01 X22.3989 Y32.1824 
G01 X22.2990 Y32.3319 
G01 X22.1719 Y32.4590 
G01 X22.0224 Y32.5589 
G01 X21.8563 Y32.6277 
G01 X21.6799 Y32.6628 
G01 X21.5001 Y32.6628 
G01 X21.3237 Y32.6277 
G01 X21.1576 Y32.5589 
G01 X21.0081 Y32.4590 
G01 X20.8810 Y32.3319 
G01 X20.7811 Y32.1824 
G01 X20.7123 Y32.0163 
G01 X20.6772 Y31.8399 
G01 X20.6772 Y31.6601 
G01 X20.7123 Y31.4837 
G01 X20.7615 Y31.3650 
G01 X18.5381 Y29.1416 
G01 X18.5000 Y29.0497 
G01 X18.5000 Y24.8536 
G01 X12.8264 Y19.1800 
G01 X12.0801 Y19.1800 
G01 X12.0434 Y19.1648 
G01 X12.0152 Y19.1366 
G01 X12.0000 Y19.0999 
G01 X12.0000 Y18.2601 
G01 X12.0152 Y18.2234 
G01 X12.0434 Y18.1952 
G01 X12.0801 Y18.1800 
G00 Z2.0000 
G00 X9.5401 Y18.1800 
G01 Z-0.0250 F254.00 
G01 X10.7799 Y18.1800 F508.00 
G01 X10.8166 Y18.1952 
G01 X10.8448 Y18.2234 
G01 X10.8600 Y18.2601 
G01 X10.8600 Y19.0064 
G01 X18.1416 Y26.2881 
G01 X18.2119 Y26.3584 
G01 X18.2500 Y26.4503 
G01 X18.2500 Y30.6464 
G01 X21.1139 Y33.5103 
G01 X21.1576 Y33.4811 
G01 X21.3237 Y33.4123 
G01 X21.5001 Y33.3772 
G01 X21.6799 Y33.3772 
G01 X21.8563 Y33.4123 
G01 X22.0224 Y33.4811 
G01 X22.1719 Y33.5810 
G01 X22.2990 Y33.7081 
G01 X22.3989 Y33.8576 
G01 X22.4677 Y34.0237 
G01 X22.5028 Y34.2001 
G01 X22.5028 Y34.3799 
G01 X22.4677 Y34.5563 
G01 X22.3989 Y34.7224 
G01 X22.2990 Y34.8719 
G01 X22.1719 Y34.9990 
G01 X22.0224 Y35.0989 
G01 X21.8563 Y35.1677 
G01 X21.6799 Y35.2028 
G01 X21.5001 Y35.2028 
G01 X21.3237 Y35.1677 
G01 X21.1576 Y35.0989 
G01 X21.0081 Y34.9990 
G01 X20.8810 Y34.8719 
G01 X20.7811 Y34.7224 
G01 X20.7123 Y34.5563 
G01 X20.6772 Y34.3799 
G01 X20.6772 Y34.2001 
G01 X20.7123 Y34.0237 
G01 X20.7732 Y33.8767 
G01 X17.7881 Y30.8916 
G01 X17.7500 Y30.7997 
G01 X17.7500 Y26.6036 
G01 X10.3264 Y19.1800 
G01 X9.5401 Y19.1800 
G01 X9.5034 Y19.1648 
G01 X9.4752 Y19.1366 
G01 X9.4600 Y19.0999 
G01 X9.4600 Y18.2601 
G01 X9.4752 Y18.2234 
G01 X9.5034 Y18.1952 
G01 X9.5401 Y18.1800 
G00 Z2.0000 
G00 X7.0001 Y18.1800 
G01 Z-0.0250 F254.00 
G01 X8.2399 Y18.1800 F508.00 
G01 X8.2766 Y18.1952 
G01 X8.3048 Y18.2234 
G01 X8.3200 Y18.2601 
G01 X8.3200 Y18.9664 
G01 X17.3916 Y28.0381 
G01 X17.4619 Y28.1084 
G01 X17.5000 Y28.2003 
G01 X17.5000 Y32.3964 
G01 X21.1379 Y36.0343 
G01 X21.1576 Y36.0211 
G01 X21.3237 Y35.9523 
G01 X21.5001 Y35.9172 
G01 X21.6799 Y35.9172 
G01 X21.8563 Y35.9523 
G01 X22.0224 Y36.0211 
G01 X22.1719 Y36.1210 
G01 X22.2990 Y36.2481 
G01 X22.3989 Y36.3976 
G01 X22.4677 Y36.5637 
G01 X22.5028 Y36.7401 
G01 X22.5028 Y36.9199 
G01 X22.4677 Y37.0963 
G01 X22.3989 Y37.2624 
G01 X22.2990 Y37.4119 
G01 X22.1719 Y37.5390 
G01 X22.0224 Y37.6389 
G01 X21.8563 Y37.7077 
G01 X21.6799 Y37.7428 
G01 X21.5001 Y37.7428 
G01 X21.3237 Y37.7077 
G01 X21.1576 Y37.6389 
G01 X21.0081 Y37.5390 
G01 X20.8810 Y37.4119 
G01 X20.7811 Y37.2624 
G01 X20.7123 Y37.0963 
G01 X20.6772 Y36.9199 
G01 X20.6772 Y36.7401 
G01 X20.7123 Y36.5637 
G01 X20.7811 Y36.3976 
G01 X20.7863 Y36.3898 
G01 X17.0381 Y32.6416 
G01 X17.0000 Y32.5497 
G01 X17.0000 Y28.3536 
G01 X7.8264 Y19.1800 
G01 X7.0001 Y19.1800 
G01 X6.9634 Y19.1648 
G01 X6.9352 Y19.1366 
G01 X6.9200 Y19.0999 
G01 X6.9200 Y18.2601 
G01 X6.9352 Y18.2234 
G01 X6.9634 Y18.1952 
G01 X7.0001 Y18.1800 
G00 Z2.0000 
G00 X4.4601 Y18.1800 
G01 Z-0.0250 F254.00 
G01 X5.6999 Y18.1800 F508.00 
G01 X5.7366 Y18.1952 
G01 X5.7648 Y18.2234 
G01 X5.7800 Y18.2601 
G01 X5.7800 Y18.9264 
G01 X16.6416 Y29.7881 
G01 X16.7119 Y29.8584 
G01 X16.7500 Y29.9503 
G01 X16.7500 Y34.1464 
G01 X21.1626 Y38.5590 
G01 X21.3237 Y38.4923 
G01 X21.5001 Y38.4572 
G01 X21.6799 Y38.4572 
G01 X21.8563 Y38.4923 
G01 X22.0224 Y38.5611 
G01 X22.1719 Y38.6610 
G01 X22.2990 Y38.7881 
G01 X22.3989 Y38.9376 
G01 X22.4677 Y39.1037 
G01 X22.5028 Y39.2801 
G01 X22.5028 Y39.4599 
G01 X22.4677 Y39.6363 
G01 X22.3989 Y39.8024 
G01 X22.2990 Y39.9519 
G01 X22.1719 Y40.0790 
G01 X22.0224 Y40.1789 
G01 X21.8563 Y40.2477 
G01 X21.6799 Y40.2828 
G01 X21.5001 Y40.2828 
G01 X21.3237 Y40.2477 
G01 X21.1576 Y40.1789 
G01 X21.0081 Y40.0790 
G01 X20.8810 Y39.9519 
G01 X20.7811 Y39.8024 
G01 X20.7123 Y39.6363 
G01 X20.6772 Y39.4599 
G01 X20.6772 Y39.2801 
G01 X20.7123 Y39.1037 
G01 X20.7811 Y38.9376 
G01 X20.8023 Y38.9059 
G01 X16.2881 Y34.3916 
G01 X16.2500 Y34.2997 
G01 X16.2500 Y30.1036 
G01 X5.3264 Y19.1800 
G01 X4.4601 Y19.1800 
G01 X4.4234 Y19.1648 
G01 X4.3952 Y19.1366 
G01 X4.3800 Y19.0999 
G01 X4.3800 Y18.2601 
G01 X4.3952 Y18.2234 
G01 X4.4234 Y18.1952 
G01 X4.4601 Y18.1800 
G00 Z2.0000 
G00 X29.8601 Y31.6200 
G01 Z-0.0250 F254.00 
G01 X31.0999 Y31.6200 F508.00 
G01 X31.1366 Y31.6352 
G01 X31.1648 Y31.6634 
G01 X31.1800 Y31.7001 
G01 X31.1800 Y31.7500 
G01 X35.9172 Y31.7500 
G01 X35.9172 Y31.6601 
G01 X35.9523 Y31.4837 
G01 X36.0211 Y31.3176 
G01 X36.1210 Y31.1681 
G01 X36.2481 Y31.0410 
G01 X36.3976 Y30.9411 
G01 X36.5637 Y30.8723 
G01 X36.7401 Y30.8372 
G01 X36.9199 Y30.8372 
G01 X37.0963 Y30.8723 
G01 X37.2624 Y30.9411 
G01 X37.4119 Y31.0410 
G01 X37.5390 Y31.1681 
G01 X37.6389 Y31.3176 
G01 X37.7077 Y31.4837 
G01 X37.7428 Y31.6601 
G01 X37.7428 Y31.8399 
G01 X37.7077 Y32.0163 
G01 X37.6389 Y32.1824 
G01 X37.5390 Y32.3319 
G01 X37.4119 Y32.4590 
G01 X37.2624 Y32.5589 
G01 X37.0963 Y32.6277 
G01 X36.9199 Y32.6628 
G01 X36.7401 Y32.6628 
G01 X36.5637 Y32.6277 
G01 X36.3976 Y32.5589 
G01 X36.2481 Y32.4590 
G01 X36.1210 Y32.3319 
G01 X36.0663 Y32.2500 
G01 X31.1800 Y32.2500 
G01 X31.1800 Y32.5399 
G01 X31.1648 Y32.5766 
G01 X31.1366 Y32.6048 
G01 X31.0999 Y32.6200 
G01 X30.2336 Y32.6200 
G01 X29.5000 Y33.3536 
G01 X29.5000 Y45.7997 
G01 X29.4619 Y45.8916 
G01 X29.3916 Y45.9619 
G01 X29.2997 Y46.0000 
G01 X21.1036 Y46.0000 
G01 X20.5000 Y46.6036 
G01 X20.5000 Y50.0497 
G01 X20.4619 Y50.1416 
G01 X20.3916 Y50.2119 
G01 X18.4337 Y52.1698 
G01 X18.4642 Y52.2297 
G01 X18.5148 Y52.3853 
G01 X18.5404 Y52.5470 
G01 X18.5404 Y52.7106 
G01 X18.5148 Y52.8723 
G01 X18.4642 Y53.0279 
G01 X18.3899 Y53.1738 
G01 X18.2937 Y53.3062 
G01 X18.1780 Y53.4219 
G01 X18.0456 Y53.5181 
G01 X17.8997 Y53.5924 
G01 X17.7441 Y53.6430 
G01 X17.5824 Y53.6686 
G01 X17.4188 Y53.6686 
G01 X17.2571 Y53.6430 
G01 X17.1015 Y53.5924 
G01 X16.9556 Y53.5181 
G01 X16.8232 Y53.4219 
G01 X16.7075 Y53.3062 
G01 X16.6113 Y53.1738 
G01 X16.5370 Y53.0279 
G01 X16.4864 Y52.8723 
G01 X16.4608 Y52.7106 
G01 X16.4608 Y52.5470 
G01 X16.4864 Y52.3853 
G01 X16.5370 Y52.2297 
G01 X16.6113 Y52.0838 
G01 X16.7075 Y51.9514 
G01 X16.8232 Y51.8357 
G01 X16.9556 Y51.7395 
G01 X17.1015 Y51.6652 
G01 X17.2571 Y51.6146 
G01 X17.4188 Y51.5890 
G01 X17.5824 Y51.5890 
G01 X17.7441 Y51.6146 
G01 X17.8997 Y51.6652 
G01 X18.0456 Y51.7395 
G01 X18.1101 Y51.7864 
G01 X20.0000 Y49.8964 
G01 X20.0000 Y46.4503 
G01 X20.0381 Y46.3584 
G01 X20.7881 Y45.6084 
G01 X20.8584 Y45.5381 
G01 X20.9503 Y45.5000 
G01 X29.0000 Y45.5000 
G01 X29.0000 Y33.2003 
G01 X29.0381 Y33.1084 
G01 X29.7800 Y32.3664 
G01 X29.7800 Y31.7001 
G01 X29.7952 Y31.6634 
G01 X29.8234 Y31.6352 
G01 X29.8601 Y31.6200 
G00 Z2.0000 
G00 X45.3880 Y2.9521 
G01 Z-0.0250 F254.00 
G01 X45.3880 Y7.2079 F508.00 
G01 X45.3728 Y7.2446 
G01 X45.3446 Y7.2728 
G01 X45.3079 Y7.2880 
G01 X41.0521 Y7.2880 
G01 X41.0154 Y7.2728 
G01 X40.9872 Y7.2446 
G01 X40.9720 Y7.2079 
G01 X40.9720 Y2.9521 
G01 X40.9872 Y2.9154 
G01 X41.0154 Y2.8872 
G01 X41.0521 Y2.8720 
G01 X45.3079 Y2.8720 
G01 X45.3446 Y2.8872 
G01 X45.3728 Y2.9154 
G01 X45.3880 Y2.9521 
G00 Z2.0000 
G00 X45.3880 Y53.7521 
G01 Z-0.0250 F254.00 
G01 X45.3880 Y58.0079 F508.00 
G01 X45.3728 Y58.0446 
G01 X45.3446 Y58.0728 
G01 X45.3079 Y58.0880 
G01 X41.0521 Y58.0880 
G01 X41.0154 Y58.0728 
G01 X40.9872 Y58.0446 
G01 X40.9720 Y58.0079 
G01 X40.9720 Y53.7521 
G01 X40.9872 Y53.7154 
G01 X41.0154 Y53.6872 
G01 X41.0521 Y53.6720 
G01 X45.3079 Y53.6720 
G01 X45.3446 Y53.6872 
G01 X45.3728 Y53.7154 
G01 X45.3880 Y53.7521 
G00 Z2.0000 
G00 X35.8561 Y49.2346 
G01 Z-0.0250 F254.00 
G01 X35.8952 Y49.1402 F508.00 
G01 X35.8500 Y49.0950 
G01 X35.8500 Y49.2654 
G01 X35.8561 Y49.2346 
G00 Z2.0000 
G00 X21.1103 Y45.3475 
G01 Z-0.0250 F254.00 
G01 X20.9827 Y45.2623 F508.00 
G01 X16.3500 Y49.8950 
G01 X16.3500 Y53.6500 
G01 X16.9942 Y53.6500 
G01 X16.9032 Y53.6036 
G01 X16.7581 Y53.4982 
G01 X16.6312 Y53.3713 
G01 X16.5258 Y53.2262 
G01 X16.4443 Y53.0663 
G01 X16.3889 Y52.8957 
G01 X16.3608 Y52.7185 
G01 X16.3608 Y52.5391 
G01 X16.3889 Y52.3619 
G01 X16.4443 Y52.1913 
G01 X16.5258 Y52.0314 
G01 X16.6312 Y51.8863 
G01 X16.7581 Y51.7594 
G01 X16.9032 Y51.6540 
G01 X17.0631 Y51.5725 
G01 X17.2337 Y51.5171 
G01 X17.4109 Y51.4890 
G01 X17.5903 Y51.4890 
G01 X17.7675 Y51.5171 
G01 X17.9381 Y51.5725 
G01 X18.0980 Y51.6540 
G01 X19.9000 Y49.8550 
G01 X19.9000 Y46.4539 
G01 X19.9239 Y46.3649 
G01 X19.9699 Y46.2851 
G01 X20.7199 Y45.5351 
G01 X20.7851 Y45.4699 
G01 X20.8649 Y45.4239 
G01 X20.9539 Y45.4000 
G01 X21.2369 Y45.4000 
G01 X21.1103 Y45.3475 
G00 Z2.0000 
G00 X20.6000 Y46.7756 
G01 Z-0.0250 F254.00 
G01 X20.6161 Y46.6946 F508.00 
G01 X20.6626 Y46.5824 
G01 X20.6000 Y46.6450 
G01 X20.6000 Y46.7756 
G00 Z2.0000 
G00 X29.8402 Y31.5200 
G01 Z-0.0250 F254.00 
G01 X31.1198 Y31.5200 F508.00 
G01 X31.1933 Y31.5504 
G01 X31.2496 Y31.6067 
G01 X31.2675 Y31.6500 
G01 X35.8173 Y31.6500 
G01 X35.8561 Y31.4546 
G01 X35.9325 Y31.2703 
G01 X36.0433 Y31.1044 
G01 X36.1844 Y30.9633 
G01 X36.3503 Y30.8525 
G01 X36.5346 Y30.7761 
G01 X36.7302 Y30.7372 
G01 X36.9298 Y30.7372 
G01 X37.1254 Y30.7761 
G01 X37.3097 Y30.8525 
G01 X37.4756 Y30.9633 
G01 X37.6167 Y31.1044 
G01 X37.7275 Y31.2703 
G01 X37.8039 Y31.4546 
G01 X37.8428 Y31.6502 
G01 X37.8428 Y31.8498 
G01 X37.8039 Y32.0454 
G01 X37.7275 Y32.2297 
G01 X37.6167 Y32.3956 
G01 X37.4756 Y32.5367 
G01 X37.3097 Y32.6475 
G01 X37.1254 Y32.7239 
G01 X36.9298 Y32.7628 
G01 X36.7302 Y32.7628 
G01 X36.5346 Y32.7239 
G01 X36.3503 Y32.6475 
G01 X36.1844 Y32.5367 
G01 X36.0433 Y32.3956 
G01 X36.0128 Y32.3500 
G01 X31.2800 Y32.3500 
G01 X31.2800 Y32.5598 
G01 X31.2496 Y32.6333 
G01 X31.1933 Y32.6896 
G01 X31.1198 Y32.7200 
G01 X30.2750 Y32.7200 
G01 X29.6000 Y33.3950 
G01 X29.6000 Y45.7961 
G01 X29.5761 Y45.8851 
G01 X29.5301 Y45.9649 
G01 X29.4649 Y46.0301 
G01 X29.3851 Y46.0761 
G01 X29.2961 Y46.1000 
G01 X22.0810 Y46.1000 
G01 X22.2356 Y46.2033 
G01 X22.3767 Y46.3444 
G01 X22.4875 Y46.5103 
G01 X22.5639 Y46.6946 
G01 X22.6028 Y46.8902 
G01 X22.6028 Y47.0898 
G01 X22.5639 Y47.2854 
G01 X22.4875 Y47.4697 
G01 X22.3767 Y47.6356 
G01 X22.2356 Y47.7767 
G01 X22.0697 Y47.8875 
G01 X21.8854 Y47.9639 
G01 X21.6898 Y48.0028 
G01 X21.4902 Y48.0028 
G01 X21.2946 Y47.9639 
G01 X21.1103 Y47.8875 
G01 X20.9444 Y47.7767 
G01 X20.8033 Y47.6356 
G01 X20.6925 Y47.4697 
G01 X20.6161 Y47.2854 
G01 X20.6000 Y47.2044 
G01 X20.6000 Y49.3156 
G01 X20.6161 Y49.2346 
G01 X20.6925 Y49.0503 
G01 X20.8033 Y48.8844 
G01 X20.9444 Y48.7433 
G01 X21.1103 Y48.6325 
G01 X21.2946 Y48.5561 
G01 X21.4902 Y48.5172 
G01 X21.6898 Y48.5172 
G01 X21.8854 Y48.5561 
G01 X22.0697 Y48.6325 
G01 X22.2356 Y48.7433 
G01 X22.3767 Y48.8844 
G01 X22.4875 Y49.0503 
G01 X22.5639 Y49.2346 
G01 X22.6028 Y49.4302 
G01 X22.6028 Y49.6298 
G01 X22.5639 Y49.8254 
G01 X22.4875 Y50.0097 
G01 X22.3767 Y50.1756 
G01 X22.2356 Y50.3167 
G01 X22.0697 Y50.4275 
G01 X21.8854 Y50.5039 
G01 X21.6898 Y50.5428 
G01 X21.4902 Y50.5428 
G01 X21.2946 Y50.5039 
G01 X21.1103 Y50.4275 
G01 X20.9444 Y50.3167 
G01 X20.8033 Y50.1756 
G01 X20.6925 Y50.0097 
G01 X20.6161 Y49.8254 
G01 X20.6000 Y49.7444 
G01 X20.6000 Y50.0461 
G01 X20.5761 Y50.1351 
G01 X20.5301 Y50.2149 
G01 X20.4649 Y50.2801 
G01 X18.5558 Y52.1892 
G01 X18.6123 Y52.3619 
G01 X18.6404 Y52.5391 
G01 X18.6404 Y52.7185 
G01 X18.6123 Y52.8957 
G01 X18.5569 Y53.0663 
G01 X18.4754 Y53.2262 
G01 X18.3700 Y53.3713 
G01 X18.2431 Y53.4982 
G01 X18.0980 Y53.6036 
G01 X18.0070 Y53.6500 
G01 X25.5461 Y53.6500 
G01 X25.6351 Y53.6739 
G01 X25.7149 Y53.7199 
G01 X25.7801 Y53.7851 
G01 X28.5800 Y56.5850 
G01 X28.6748 Y56.3989 
G01 X28.8096 Y56.2133 
G01 X28.9718 Y56.0511 
G01 X29.1574 Y55.9163 
G01 X29.3618 Y55.8122 
G01 X29.5799 Y55.7413 
G01 X29.8065 Y55.7054 
G01 X30.0359 Y55.7054 
G01 X30.2625 Y55.7413 
G01 X30.4806 Y55.8122 
G01 X30.6850 Y55.9163 
G01 X30.8706 Y56.0511 
G01 X31.0328 Y56.2133 
G01 X31.1676 Y56.3989 
G01 X31.2312 Y56.5238 
G01 X35.1500 Y52.6050 
G01 X35.1500 Y48.3950 
G01 X32.7199 Y45.9649 
G01 X32.6739 Y45.8851 
G01 X32.6500 Y45.7961 
G01 X32.6500 Y36.6450 
G01 X30.5250 Y34.5200 
G01 X29.8402 Y34.5200 
G01 X29.7667 Y34.4896 
G01 X29.7104 Y34.4333 
G01 X29.6800 Y34.3598 
G01 X29.6800 Y33.4802 
G01 X29.7104 Y33.4067 
G01 X29.7667 Y33.3504 
G01 X29.8402 Y33.3200 
G01 X31.1198 Y33.3200 
G01 X31.1933 Y33.3504 
G01 X31.2496 Y33.4067 
G01 X31.2800 Y33.4802 
G01 X31.2800 Y34.2850 
G01 X33.2149 Y36.2199 
G01 X33.2801 Y36.2851 
G01 X33.3261 Y36.3649 
G01 X33.3500 Y36.4539 
G01 X33.3500 Y40.2628 
G01 X33.3925 Y40.1603 
G01 X33.5033 Y39.9944 
G01 X33.6444 Y39.8533 
G01 X33.8103 Y39.7425 
G01 X33.9946 Y39.6661 
G01 X34.1902 Y39.6272 
G01 X34.3898 Y39.6272 
G01 X34.5854 Y39.6661 
G01 X34.7697 Y39.7425 
G01 X34.9356 Y39.8533 
G01 X35.0767 Y39.9944 
G01 X35.1875 Y40.1603 
G01 X35.2639 Y40.3446 
G01 X35.3028 Y40.5402 
G01 X35.3028 Y40.7398 
G01 X35.2639 Y40.9354 
G01 X35.1875 Y41.1197 
G01 X35.0767 Y41.2856 
G01 X34.9356 Y41.4267 
G01 X34.7697 Y41.5375 
G01 X34.5854 Y41.6139 
G01 X34.3898 Y41.6528 
G01 X34.1902 Y41.6528 
G01 X33.9946 Y41.6139 
G01 X33.8103 Y41.5375 
G01 X33.6444 Y41.4267 
G01 X33.5033 Y41.2856 
G01 X33.3925 Y41.1197 
G01 X33.3500 Y41.0172 
G01 X33.3500 Y42.8028 
G01 X33.3925 Y42.7003 
G01 X33.5033 Y42.5344 
G01 X33.6444 Y42.3933 
G01 X33.8103 Y42.2825 
G01 X33.9946 Y42.2061 
G01 X34.1902 Y42.1672 
G01 X34.3898 Y42.1672 
G01 X34.5854 Y42.2061 
G01 X34.7697 Y42.2825 
G01 X34.9356 Y42.3933 
G01 X35.0767 Y42.5344 
G01 X35.1875 Y42.7003 
G01 X35.2639 Y42.8846 
G01 X35.3028 Y43.0802 
G01 X35.3028 Y43.2798 
G01 X35.2639 Y43.4754 
G01 X35.1875 Y43.6597 
G01 X35.0767 Y43.8256 
G01 X34.9356 Y43.9667 
G01 X34.7697 Y44.0775 
G01 X34.5854 Y44.1539 
G01 X34.3898 Y44.1928 
G01 X34.1902 Y44.1928 
G01 X33.9946 Y44.1539 
G01 X33.8103 Y44.0775 
G01 X33.6444 Y43.9667 
G01 X33.5033 Y43.8256 
G01 X33.3925 Y43.6597 
G01 X33.3500 Y43.5572 
G01 X33.3500 Y45.6050 
G01 X35.7149 Y47.9699 
G01 X35.7801 Y48.0351 
G01 X36.3695 Y48.6245 
G01 X36.5346 Y48.5561 
G01 X36.7302 Y48.5172 
G01 X36.9298 Y48.5172 
G01 X37.1254 Y48.5561 
G01 X37.3097 Y48.6325 
G01 X37.4756 Y48.7433 
G01 X37.6167 Y48.8844 
G01 X37.7275 Y49.0503 
G01 X37.8039 Y49.2346 
G01 X37.8428 Y49.4302 
G01 X37.8428 Y49.6298 
G01 X37.8039 Y49.8254 
G01 X37.7275 Y50.0097 
G01 X37.6167 Y50.1756 
G01 X37.4756 Y50.3167 
G01 X37.3097 Y50.4275 
G01 X37.1254 Y50.5039 
G01 X36.9298 Y50.5428 
G01 X36.7302 Y50.5428 
G01 X36.5346 Y50.5039 
G01 X36.3503 Y50.4275 
G01 X36.1844 Y50.3167 
G01 X36.0433 Y50.1756 
G01 X35.9325 Y50.0097 
G01 X35.8561 Y49.8254 
G01 X35.8500 Y49.7946 
G01 X35.8500 Y51.8054 
G01 X35.8561 Y51.7746 
G01 X35.9325 Y51.5903 
G01 X36.0433 Y51.4244 
G01 X36.1844 Y51.2833 
G01 X36.3503 Y51.1725 
G01 X36.5346 Y51.0961 
G01 X36.7302 Y51.0572 
G01 X36.9298 Y51.0572 
G01 X37.1254 Y51.0961 
G01 X37.3097 Y51.1725 
G01 X37.4756 Y51.2833 
G01 X37.6167 Y51.4244 
G01 X37.7275 Y51.5903 
G01 X37.8039 Y51.7746 
G01 X37.8428 Y51.9702 
G01 X37.8428 Y52.1698 
G01 X37.8039 Y52.3654 
G01 X37.7275 Y52.5497 
G01 X37.6167 Y52.7156 
G01 X37.4756 Y52.8567 
G01 X37.3097 Y52.9675 
G01 X37.1254 Y53.0439 
G01 X36.9298 Y53.0828 
G01 X36.7302 Y53.0828 
G01 X36.5346 Y53.0439 
G01 X36.3503 Y52.9675 
G01 X36.1844 Y52.8567 
G01 X36.0433 Y52.7156 
G01 X35.9325 Y52.5497 
G01 X35.8561 Y52.3654 
G01 X35.8500 Y52.3346 
G01 X35.8500 Y52.7961 
G01 X35.8261 Y52.8851 
G01 X35.7801 Y52.9649 
G01 X35.7149 Y53.0301 
G01 X31.3785 Y57.3665 
G01 X31.3785 Y59.7920 
G01 X31.3426 Y60.0186 
G01 X31.2717 Y60.2367 
G01 X31.1676 Y60.4411 
G01 X31.0328 Y60.6267 
G01 X30.8706 Y60.7889 
G01 X30.6850 Y60.9237 
G01 X30.4806 Y61.0278 
G01 X30.2625 Y61.0987 
G01 X30.0359 Y61.1346 
G01 X29.8065 Y61.1346 
G01 X29.5799 Y61.0987 
G01 X29.3618 Y61.0278 
G01 X29.1574 Y60.9237 
G01 X28.9718 Y60.7889 
G01 X28.8096 Y60.6267 
G01 X28.6748 Y60.4411 
G01 X28.5707 Y60.2367 
G01 X28.4998 Y60.0186 
G01 X28.4639 Y59.7920 
G01 X28.4639 Y57.4589 
G01 X25.3550 Y54.3500 
G01 X15.9539 Y54.3500 
G01 X15.8649 Y54.3261 
G01 X15.7851 Y54.2801 
G01 X15.7199 Y54.2149 
G01 X15.6739 Y54.1351 
G01 X15.6500 Y54.0461 
G01 X15.6500 Y49.7039 
G01 X15.6739 Y49.6149 
G01 X15.7199 Y49.5351 
G01 X20.5984 Y44.6566 
G01 X20.5772 Y44.5498 
G01 X20.5772 Y44.3502 
G01 X20.6161 Y44.1546 
G01 X20.6925 Y43.9703 
G01 X20.8033 Y43.8044 
G01 X20.9444 Y43.6633 
G01 X21.1103 Y43.5525 
G01 X21.2946 Y43.4761 
G01 X21.4902 Y43.4372 
G01 X21.6898 Y43.4372 
G01 X21.8854 Y43.4761 
G01 X22.0697 Y43.5525 
G01 X22.2356 Y43.6633 
G01 X22.3767 Y43.8044 
G01 X22.4875 Y43.9703 
G01 X22.5639 Y44.1546 
G01 X22.6028 Y44.3502 
G01 X22.6028 Y44.5498 
G01 X22.5639 Y44.7454 
G01 X22.4875 Y44.9297 
G01 X22.3767 Y45.0956 
G01 X22.2356 Y45.2367 
G01 X22.0697 Y45.3475 
G01 X21.9431 Y45.4000 
G01 X28.9000 Y45.4000 
G01 X28.9000 Y33.2039 
G01 X28.9239 Y33.1149 
G01 X28.9699 Y33.0351 
G01 X29.6800 Y32.3250 
G01 X29.6800 Y31.6802 
G01 X29.7104 Y31.6067 
G01 X29.7667 Y31.5504 
G01 X29.8402 Y31.5200 
G00 Z2.0000 
G00 X4.4402 Y18.0800 
G01 Z-0.0250 F254.00 
G01 X5.7198 Y18.0800 F508.00 
G01 X5.7933 Y18.1104 
G01 X5.8496 Y18.1667 
G01 X5.8800 Y18.2402 
G01 X5.8800 Y18.8850 
G01 X16.7149 Y29.7199 
G01 X16.7801 Y29.7851 
G01 X16.8261 Y29.8649 
G01 X16.8500 Y29.9539 
G01 X16.8500 Y34.1050 
G01 X21.1861 Y38.4411 
G01 X21.2946 Y38.3961 
G01 X21.4902 Y38.3572 
G01 X21.6898 Y38.3572 
G01 X21.8854 Y38.3961 
G01 X22.0697 Y38.4725 
G01 X22.2356 Y38.5833 
G01 X22.3767 Y38.7244 
G01 X22.4875 Y38.8903 
G01 X22.5639 Y39.0746 
G01 X22.6028 Y39.2702 
G01 X22.6028 Y39.4698 
G01 X22.5639 Y39.6654 
G01 X22.4875 Y39.8497 
G01 X22.3767 Y40.0156 
G01 X22.2356 Y40.1567 
G01 X22.0697 Y40.2675 
G01 X21.8854 Y40.3439 
G01 X21.6898 Y40.3828 
G01 X21.4902 Y40.3828 
G01 X21.2946 Y40.3439 
G01 X21.1103 Y40.2675 
G01 X20.9444 Y40.1567 
G01 X20.8033 Y40.0156 
G01 X20.6925 Y39.8497 
G01 X20.6161 Y39.6654 
G01 X20.5772 Y39.4698 
G01 X20.5772 Y39.2702 
G01 X20.6161 Y39.0746 
G01 X20.6787 Y38.9236 
G01 X16.2199 Y34.4649 
G01 X16.1739 Y34.3851 
G01 X16.1500 Y34.2961 
G01 X16.1500 Y30.1450 
G01 X5.2850 Y19.2800 
G01 X4.4402 Y19.2800 
G01 X4.3667 Y19.2495 
G01 X4.3104 Y19.1933 
G01 X4.2800 Y19.1198 
G01 X4.2800 Y18.2402 
G01 X4.3104 Y18.1667 
G01 X4.3667 Y18.1104 
G01 X4.4402 Y18.0800 
G00 Z2.0000 
G00 X9.5202 Y18.0800 
G01 Z-0.0250 F254.00 
G01 X10.7998 Y18.0800 F508.00 
G01 X10.8733 Y18.1104 
G01 X10.9296 Y18.1667 
G01 X10.9600 Y18.2402 
G01 X10.9600 Y18.9650 
G01 X18.2149 Y26.2199 
G01 X18.2801 Y26.2851 
G01 X18.3261 Y26.3649 
G01 X18.3500 Y26.4539 
G01 X18.3500 Y30.6050 
G01 X21.1295 Y33.3845 
G01 X21.2946 Y33.3161 
G01 X21.4902 Y33.2772 
G01 X21.6898 Y33.2772 
G01 X21.8854 Y33.3161 
G01 X22.0697 Y33.3925 
G01 X22.2356 Y33.5033 
G01 X22.3767 Y33.6444 
G01 X22.4875 Y33.8103 
G01 X22.5639 Y33.9946 
G01 X22.6028 Y34.1902 
G01 X22.6028 Y34.3898 
G01 X22.5639 Y34.5854 
G01 X22.4875 Y34.7697 
G01 X22.3767 Y34.9356 
G01 X22.2356 Y35.0767 
G01 X22.0697 Y35.1875 
G01 X21.8854 Y35.2639 
G01 X21.6898 Y35.3028 
G01 X21.4902 Y35.3028 
G01 X21.2946 Y35.2639 
G01 X21.1103 Y35.1875 
G01 X20.9444 Y35.0767 
G01 X20.8033 Y34.9356 
G01 X20.6925 Y34.7697 
G01 X20.6161 Y34.5854 
G01 X20.5772 Y34.3898 
G01 X20.5772 Y34.1902 
G01 X20.6161 Y33.9946 
G01 X20.6552 Y33.9002 
G01 X17.7199 Y30.9649 
G01 X17.6739 Y30.8851 
G01 X17.6500 Y30.7961 
G01 X17.6500 Y26.6450 
G01 X10.2850 Y19.2800 
G01 X9.5202 Y19.2800 
G01 X9.4467 Y19.2495 
G01 X9.3904 Y19.1933 
G01 X9.3600 Y19.1198 
G01 X9.3600 Y18.2402 
G01 X9.3904 Y18.1667 
G01 X9.4467 Y18.1104 
G01 X9.5202 Y18.0800 
G00 Z2.0000 
G00 X14.6002 Y18.0800 
G01 Z-0.0250 F254.00 
G01 X15.8798 Y18.0800 F508.00 
G01 X15.9533 Y18.1104 
G01 X16.0096 Y18.1667 
G01 X16.0400 Y18.2402 
G01 X16.0400 Y19.0450 
G01 X19.7149 Y22.7199 
G01 X19.7801 Y22.7851 
G01 X19.8261 Y22.8649 
G01 X19.8500 Y22.9539 
G01 X19.8500 Y26.8550 
G01 X21.2497 Y28.2547 
G01 X21.2946 Y28.2361 
G01 X21.4902 Y28.1972 
G01 X21.6898 Y28.1972 
G01 X21.8854 Y28.2361 
G01 X22.0697 Y28.3125 
G01 X22.2356 Y28.4233 
G01 X22.3767 Y28.5644 
G01 X22.4875 Y28.7303 
G01 X22.5639 Y28.9146 
G01 X22.6028 Y29.1102 
G01 X22.6028 Y29.3098 
G01 X22.5639 Y29.5054 
G01 X22.4875 Y29.6897 
G01 X22.3767 Y29.8556 
G01 X22.2356 Y29.9967 
G01 X22.0697 Y30.1075 
G01 X21.8854 Y30.1839 
G01 X21.6898 Y30.2228 
G01 X21.4902 Y30.2228 
G01 X21.2946 Y30.1839 
G01 X21.1103 Y30.1075 
G01 X20.9444 Y29.9967 
G01 X20.8033 Y29.8556 
G01 X20.6925 Y29.6897 
G01 X20.6161 Y29.5054 
G01 X20.5772 Y29.3098 
G01 X20.5772 Y29.1102 
G01 X20.6161 Y28.9146 
G01 X20.6925 Y28.7303 
G01 X20.7096 Y28.7046 
G01 X19.2199 Y27.2149 
G01 X19.1739 Y27.1351 
G01 X19.1500 Y27.0461 
G01 X19.1500 Y23.1450 
G01 X15.2850 Y19.2800 
G01 X14.6002 Y19.2800 
G01 X14.5267 Y19.2495 
G01 X14.4704 Y19.1933 
G01 X14.4400 Y19.1198 
G01 X14.4400 Y18.2402 
G01 X14.4704 Y18.1667 
G01 X14.5267 Y18.1104 
G01 X14.6002 Y18.0800 
G00 Z2.0000 
G00 X7.2612 Y13.1691 
G01 Z-0.0250 F254.00 
G01 X7.2612 Y14.7709 F508.00 
G01 X7.2262 Y14.9470 
G01 X7.1575 Y15.1128 
G01 X7.0578 Y15.2621 
G01 X6.9309 Y15.3890 
G01 X6.7816 Y15.4887 
G01 X6.6158 Y15.5574 
G01 X6.6000 Y15.5605 
G01 X6.6000 Y15.7961 
G01 X6.5761 Y15.8851 
G01 X6.5301 Y15.9649 
G01 X6.4649 Y16.0301 
G01 X5.8800 Y16.6150 
G01 X5.8800 Y17.3198 
G01 X5.8496 Y17.3933 
G01 X5.7933 Y17.4496 
G01 X5.7198 Y17.4800 
G01 X4.4402 Y17.4800 
G01 X4.3667 Y17.4496 
G01 X4.3104 Y17.3933 
G01 X4.2800 Y17.3198 
G01 X4.2800 Y16.4402 
G01 X4.3104 Y16.3667 
G01 X4.3667 Y16.3104 
G01 X4.4402 Y16.2800 
G01 X5.2250 Y16.2800 
G01 X5.9000 Y15.6050 
G01 X5.9000 Y15.4764 
G01 X5.7691 Y15.3890 
G01 X5.6422 Y15.2621 
G01 X5.5425 Y15.1128 
G01 X5.4738 Y14.9470 
G01 X5.4388 Y14.7709 
G01 X5.4388 Y13.1691 
G01 X5.4738 Y12.9930 
G01 X5.5425 Y12.8272 
G01 X5.6422 Y12.6779 
G01 X5.7691 Y12.5510 
G01 X5.9184 Y12.4513 
G01 X6.0842 Y12.3826 
G01 X6.2603 Y12.3476 
G01 X6.4397 Y12.3476 
G01 X6.6158 Y12.3826 
G01 X6.7816 Y12.4513 
G01 X6.9309 Y12.5510 
G01 X7.0578 Y12.6779 
G01 X7.1575 Y12.8272 
G01 X7.2262 Y12.9930 
G01 X7.2612 Y13.1691 
G00 Z2.0000 
G00 X9.8012 Y13.1691 
G01 Z-0.0250 F254.00 
G01 X9.8012 Y14.7709 F508.00 
G01 X9.7662 Y14.9470 
G01 X9.6975 Y15.1128 
G01 X9.5978 Y15.2621 
G01 X9.4709 Y15.3890 
G01 X9.3216 Y15.4887 
G01 X9.1558 Y15.5574 
G01 X9.1000 Y15.5685 
G01 X9.1000 Y15.7961 
G01 X9.0761 Y15.8851 
G01 X9.0301 Y15.9649 
G01 X8.9649 Y16.0301 
G01 X8.4200 Y16.5750 
G01 X8.4200 Y17.3198 
G01 X8.3895 Y17.3933 
G01 X8.3333 Y17.4496 
G01 X8.2598 Y17.4800 
G01 X6.9802 Y17.4800 
G01 X6.9067 Y17.4496 
G01 X6.8504 Y17.3933 
G01 X6.8200 Y17.3198 
G01 X6.8200 Y16.4402 
G01 X6.8504 Y16.3667 
G01 X6.9067 Y16.3104 
G01 X6.9802 Y16.2800 
G01 X7.7250 Y16.2800 
G01 X8.4000 Y15.6050 
G01 X8.4000 Y15.4497 
G01 X8.3091 Y15.3890 
G01 X8.1822 Y15.2621 
G01 X8.0825 Y15.1128 
G01 X8.0138 Y14.9470 
G01 X7.9788 Y14.7709 
G01 X7.9788 Y13.1691 
G01 X8.0138 Y12.9930 
G01 X8.0825 Y12.8272 
G01 X8.1822 Y12.6779 
G01 X8.3091 Y12.5510 
G01 X8.4584 Y12.4513 
G01 X8.6242 Y12.3826 
G01 X8.8003 Y12.3476 
G01 X8.9797 Y12.3476 
G01 X9.1558 Y12.3826 
G01 X9.3216 Y12.4513 
G01 X9.4709 Y12.5510 
G01 X9.5978 Y12.6779 
G01 X9.6975 Y12.8272 
G01 X9.7662 Y12.9930 
G01 X9.8012 Y13.1691 
G00 Z2.0000 
G00 X12.3412 Y13.1691 
G01 Z-0.0250 F254.00 
G01 X12.3412 Y14.7709 F508.00 
G01 X12.3062 Y14.9470 
G01 X12.2375 Y15.1128 
G01 X12.1378 Y15.2621 
G01 X12.0109 Y15.3890 
G01 X11.8616 Y15.4887 
G01 X11.6958 Y15.5574 
G01 X11.6000 Y15.5764 
G01 X11.6000 Y15.7961 
G01 X11.5761 Y15.8851 
G01 X11.5301 Y15.9649 
G01 X11.4649 Y16.0301 
G01 X10.9600 Y16.5350 
G01 X10.9600 Y17.3198 
G01 X10.9296 Y17.3933 
G01 X10.8733 Y17.4496 
G01 X10.7998 Y17.4800 
G01 X9.5202 Y17.4800 
G01 X9.4467 Y17.4496 
G01 X9.3904 Y17.3933 
G01 X9.3600 Y17.3198 
G01 X9.3600 Y16.4402 
G01 X9.3904 Y16.3667 
G01 X9.4467 Y16.3104 
G01 X9.5202 Y16.2800 
G01 X10.2250 Y16.2800 
G01 X10.9000 Y15.6050 
G01 X10.9000 Y15.4230 
G01 X10.8491 Y15.3890 
G01 X10.7222 Y15.2621 
G01 X10.6225 Y15.1128 
G01 X10.5538 Y14.9470 
G01 X10.5188 Y14.7709 
G01 X10.5188 Y13.1691 
G01 X10.5538 Y12.9930 
G01 X10.6225 Y12.8272 
G01 X10.7222 Y12.6779 
G01 X10.8491 Y12.5510 
G01 X10.9984 Y12.4513 
G01 X11.1642 Y12.3826 
G01 X11.3403 Y12.3476 
G01 X11.5197 Y12.3476 
G01 X11.6958 Y12.3826 
G01 X11.8616 Y12.4513 
G01 X12.0109 Y12.5510 
G01 X12.1378 Y12.6779 
G01 X12.2375 Y12.8272 
G01 X12.3062 Y12.9930 
G01 X12.3412 Y13.1691 
G00 Z2.0000 
G00 X14.8812 Y13.1691 
G01 Z-0.0250 F254.00 
G01 X14.8812 Y14.7709 F508.00 
G01 X14.8462 Y14.9470 
G01 X14.7775 Y15.1128 
G01 X14.6778 Y15.2621 
G01 X14.5509 Y15.3890 
G01 X14.4016 Y15.4887 
G01 X14.2358 Y15.5574 
G01 X14.1000 Y15.5844 
G01 X14.1000 Y15.7961 
G01 X14.0761 Y15.8851 
G01 X14.0301 Y15.9649 
G01 X13.9649 Y16.0301 
G01 X13.5000 Y16.4950 
G01 X13.5000 Y17.3198 
G01 X13.4695 Y17.3933 
G01 X13.4133 Y17.4496 
G01 X13.3398 Y17.4800 
G01 X12.0602 Y17.4800 
G01 X11.9867 Y17.4496 
G01 X11.9304 Y17.3933 
G01 X11.9000 Y17.3198 
G01 X11.9000 Y16.4402 
G01 X11.9304 Y16.3667 
G01 X11.9867 Y16.3104 
G01 X12.0602 Y16.2800 
G01 X12.7250 Y16.2800 
G01 X13.4000 Y15.6050 
G01 X13.4000 Y15.3962 
G01 X13.3891 Y15.3890 
G01 X13.2622 Y15.2621 
G01 X13.1625 Y15.1128 
G01 X13.0938 Y14.9470 
G01 X13.0588 Y14.7709 
G01 X13.0588 Y13.1691 
G01 X13.0938 Y12.9930 
G01 X13.1625 Y12.8272 
G01 X13.2622 Y12.6779 
G01 X13.3891 Y12.5510 
G01 X13.5384 Y12.4513 
G01 X13.7042 Y12.3826 
G01 X13.8803 Y12.3476 
G01 X14.0597 Y12.3476 
G01 X14.2358 Y12.3826 
G01 X14.4016 Y12.4513 
G01 X14.5509 Y12.5510 
G01 X14.6778 Y12.6779 
G01 X14.7775 Y12.8272 
G01 X14.8462 Y12.9930 
G01 X14.8812 Y13.1691 
G00 Z2.0000 
G00 X17.4212 Y13.1691 
G01 Z-0.0250 F254.00 
G01 X17.4212 Y14.7709 F508.00 
G01 X17.3862 Y14.9470 
G01 X17.3175 Y15.1128 
G01 X17.2178 Y15.2621 
G01 X17.0909 Y15.3890 
G01 X16.9416 Y15.4887 
G01 X16.8500 Y15.5266 
G01 X16.8500 Y15.5461 
G01 X16.8261 Y15.6351 
G01 X16.7801 Y15.7149 
G01 X16.7149 Y15.7801 
G01 X16.0400 Y16.4550 
G01 X16.0400 Y17.3198 
G01 X16.0096 Y17.3933 
G01 X15.9533 Y17.4496 
G01 X15.8798 Y17.4800 
G01 X14.6002 Y17.4800 
G01 X14.5267 Y17.4496 
G01 X14.4704 Y17.3933 
G01 X14.4400 Y17.3198 
G01 X14.4400 Y16.4402 
G01 X14.4704 Y16.3667 
G01 X14.5267 Y16.3104 
G01 X14.6002 Y16.2800 
G01 X15.2250 Y16.2800 
G01 X16.0412 Y15.4638 
G01 X15.9291 Y15.3890 
G01 X15.8022 Y15.2621 
G01 X15.7025 Y15.1128 
G01 X15.6338 Y14.9470 
G01 X15.5988 Y14.7709 
G01 X15.5988 Y13.1691 
G01 X15.6338 Y12.9930 
G01 X15.7025 Y12.8272 
G01 X15.8022 Y12.6779 
G01 X15.9291 Y12.5510 
G01 X16.0784 Y12.4513 
G01 X16.2442 Y12.3826 
G01 X16.4203 Y12.3476 
G01 X16.5997 Y12.3476 
G01 X16.7758 Y12.3826 
G01 X16.9416 Y12.4513 
G01 X17.0909 Y12.5510 
G01 X17.2178 Y12.6779 
G01 X17.3175 Y12.8272 
G01 X17.3862 Y12.9930 
G01 X17.4212 Y13.1691 
G00 Z2.0000 
G00 X19.9612 Y13.1691 
G01 Z-0.0250 F254.00 
G01 X19.9612 Y14.7709 F508.00 
G01 X19.9262 Y14.9470 
G01 X19.8575 Y15.1128 
G01 X19.7578 Y15.2621 
G01 X19.6309 Y15.3890 
G01 X19.4816 Y15.4887 
G01 X19.3500 Y15.5432 
G01 X19.3500 Y15.7961 
G01 X19.3261 Y15.8851 
G01 X19.2801 Y15.9649 
G01 X19.2149 Y16.0301 
G01 X18.5800 Y16.6650 
G01 X18.5800 Y17.3198 
G01 X18.5495 Y17.3933 
G01 X18.4933 Y17.4496 
G01 X18.4198 Y17.4800 
G01 X17.1402 Y17.4800 
G01 X17.0667 Y17.4496 
G01 X17.0104 Y17.3933 
G01 X16.9800 Y17.3198 
G01 X16.9800 Y16.4402 
G01 X17.0104 Y16.3667 
G01 X17.0667 Y16.3104 
G01 X17.1402 Y16.2800 
G01 X17.9750 Y16.2800 
G01 X18.6500 Y15.6050 
G01 X18.6500 Y15.5018 
G01 X18.6184 Y15.4887 
G01 X18.4691 Y15.3890 
G01 X18.3422 Y15.2621 
G01 X18.2425 Y15.1128 
G01 X18.1738 Y14.9470 
G01 X18.1388 Y14.7709 
G01 X18.1388 Y13.1691 
G01 X18.1738 Y12.9930 
G01 X18.2425 Y12.8272 
G01 X18.3422 Y12.6779 
G01 X18.4691 Y12.5510 
G01 X18.6184 Y12.4513 
G01 X18.7842 Y12.3826 
G01 X18.9603 Y12.3476 
G01 X19.1397 Y12.3476 
G01 X19.3158 Y12.3826 
G01 X19.4816 Y12.4513 
G01 X19.6309 Y12.5510 
G01 X19.7578 Y12.6779 
G01 X19.8575 Y12.8272 
G01 X19.9262 Y12.9930 
G01 X19.9612 Y13.1691 
G00 Z2.0000 
G00 X22.5012 Y13.1691 
G01 Z-0.0250 F254.00 
G01 X22.5012 Y14.7709 F508.00 
G01 X22.4662 Y14.9470 
G01 X22.3975 Y15.1128 
G01 X22.2978 Y15.2621 
G01 X22.1709 Y15.3890 
G01 X22.0216 Y15.4887 
G01 X21.8558 Y15.5574 
G01 X21.8500 Y15.5585 
G01 X21.8500 Y15.7961 
G01 X21.8261 Y15.8851 
G01 X21.7801 Y15.9649 
G01 X21.7149 Y16.0301 
G01 X21.1200 Y16.6250 
G01 X21.1200 Y17.3198 
G01 X21.0896 Y17.3933 
G01 X21.0333 Y17.4496 
G01 X20.9598 Y17.4800 
G01 X19.6802 Y17.4800 
G01 X19.6067 Y17.4496 
G01 X19.5504 Y17.3933 
G01 X19.5200 Y17.3198 
G01 X19.5200 Y16.4402 
G01 X19.5504 Y16.3667 
G01 X19.6067 Y16.3104 
G01 X19.6802 Y16.2800 
G01 X20.4750 Y16.2800 
G01 X21.1500 Y15.6050 
G01 X21.1500 Y15.4831 
G01 X21.0091 Y15.3890 
G01 X20.8822 Y15.2621 
G01 X20.7825 Y15.1128 
G01 X20.7138 Y14.9470 
G01 X20.6788 Y14.7709 
G01 X20.6788 Y13.1691 
G01 X20.7138 Y12.9930 
G01 X20.7825 Y12.8272 
G01 X20.8822 Y12.6779 
G01 X21.0091 Y12.5510 
G01 X21.1584 Y12.4513 
G01 X21.3242 Y12.3826 
G01 X21.5003 Y12.3476 
G01 X21.6797 Y12.3476 
G01 X21.8558 Y12.3826 
G01 X22.0216 Y12.4513 
G01 X22.1709 Y12.5510 
G01 X22.2978 Y12.6779 
G01 X22.3975 Y12.8272 
G01 X22.4662 Y12.9930 
G01 X22.5012 Y13.1691 
G00 Z2.0000 
G00 X25.0412 Y13.1691 
G01 Z-0.0250 F254.00 
G01 X25.0412 Y14.7709 F508.00 
G01 X25.0062 Y14.9470 
G01 X24.9375 Y15.1128 
G01 X24.8378 Y15.2621 
G01 X24.7109 Y15.3890 
G01 X24.5616 Y15.4887 
G01 X24.3958 Y15.5574 
G01 X24.3500 Y15.5665 
G01 X24.3500 Y15.7961 
G01 X24.3261 Y15.8851 
G01 X24.2801 Y15.9649 
G01 X24.2149 Y16.0301 
G01 X23.6600 Y16.5850 
G01 X23.6600 Y17.3198 
G01 X23.6296 Y17.3933 
G01 X23.5733 Y17.4496 
G01 X23.4998 Y17.4800 
G01 X22.2202 Y17.4800 
G01 X22.1467 Y17.4496 
G01 X22.0904 Y17.3933 
G01 X22.0600 Y17.3198 
G01 X22.0600 Y16.4402 
G01 X22.0904 Y16.3667 
G01 X22.1467 Y16.3104 
G01 X22.2202 Y16.2800 
G01 X22.9750 Y16.2800 
G01 X23.6500 Y15.6050 
G01 X23.6500 Y15.4564 
G01 X23.5491 Y15.3890 
G01 X23.4222 Y15.2621 
G01 X23.3225 Y15.1128 
G01 X23.2538 Y14.9470 
G01 X23.2188 Y14.7709 
G01 X23.2188 Y13.1691 
G01 X23.2538 Y12.9930 
G01 X23.3225 Y12.8272 
G01 X23.4222 Y12.6779 
G01 X23.5491 Y12.5510 
G01 X23.6984 Y12.4513 
G01 X23.8642 Y12.3826 
G01 X24.0403 Y12.3476 
G01 X24.2197 Y12.3476 
G01 X24.3958 Y12.3826 
G01 X24.5616 Y12.4513 
G01 X24.7109 Y12.5510 
G01 X24.8378 Y12.6779 
G01 X24.9375 Y12.8272 
G01 X25.0062 Y12.9930 
G01 X25.0412 Y13.1691 
G00 Z2.0000 
G00 X24.5015 Y59.7920 
G01 Z-0.0250 F254.00 
G01 X24.5015 Y57.0480 F508.00 
G01 X24.5374 Y56.8214 
G01 X24.6083 Y56.6033 
G01 X24.7124 Y56.3989 
G01 X24.8472 Y56.2133 
G01 X25.0094 Y56.0511 
G01 X25.1950 Y55.9163 
G01 X25.3994 Y55.8122 
G01 X25.6175 Y55.7413 
G01 X25.8441 Y55.7054 
G01 X26.0735 Y55.7054 
G01 X26.3001 Y55.7413 
G01 X26.5182 Y55.8122 
G01 X26.7226 Y55.9163 
G01 X26.9082 Y56.0511 
G01 X27.0704 Y56.2133 
G01 X27.2052 Y56.3989 
G01 X27.3093 Y56.6033 
G01 X27.3802 Y56.8214 
G01 X27.4161 Y57.0480 
G01 X27.4161 Y59.7920 
G01 X27.3802 Y60.0186 
G01 X27.3093 Y60.2367 
G01 X27.2052 Y60.4411 
G01 X27.0704 Y60.6267 
G01 X26.9082 Y60.7889 
G01 X26.7226 Y60.9237 
G01 X26.5182 Y61.0278 
G01 X26.3001 Y61.0987 
G01 X26.0735 Y61.1346 
G01 X25.8441 Y61.1346 
G01 X25.6175 Y61.0987 
G01 X25.3994 Y61.0278 
G01 X25.1950 Y60.9237 
G01 X25.0094 Y60.7889 
G01 X24.8472 Y60.6267 
G01 X24.7124 Y60.4411 
G01 X24.6083 Y60.2367 
G01 X24.5374 Y60.0186 
G01 X24.5015 Y59.7920 
G00 Z2.0000 
G00 X13.7400 Y46.6202 
G01 Z-0.0250 F254.00 
G01 X13.7400 Y49.8998 F508.00 
G01 X13.7096 Y49.9733 
G01 X13.6533 Y50.0296 
G01 X13.5798 Y50.0600 
G01 X11.7202 Y50.0600 
G01 X11.6467 Y50.0296 
G01 X11.5904 Y49.9733 
G01 X11.5600 Y49.8998 
G01 X11.5600 Y46.6202 
G01 X11.5904 Y46.5467 
G01 X11.6467 Y46.4904 
G01 X11.7202 Y46.4600 
G01 X12.4000 Y46.4600 
G01 X12.4000 Y43.6948 
G01 X12.2203 Y43.6203 
G01 X12.0544 Y43.5095 
G01 X11.9133 Y43.3684 
G01 X11.8025 Y43.2025 
G01 X11.7261 Y43.0182 
G01 X11.6872 Y42.8226 
G01 X11.6872 Y40.9974 
G01 X11.7261 Y40.8018 
G01 X11.8025 Y40.6175 
G01 X11.9133 Y40.4516 
G01 X12.0544 Y40.3105 
G01 X12.2203 Y40.1997 
G01 X12.4046 Y40.1233 
G01 X12.6002 Y40.0844 
G01 X12.7998 Y40.0844 
G01 X12.9954 Y40.1233 
G01 X13.1797 Y40.1997 
G01 X13.3456 Y40.3105 
G01 X13.4867 Y40.4516 
G01 X13.5975 Y40.6175 
G01 X13.6739 Y40.8018 
G01 X13.7128 Y40.9974 
G01 X13.7128 Y42.8226 
G01 X13.6739 Y43.0182 
G01 X13.5975 Y43.2025 
G01 X13.4867 Y43.3684 
G01 X13.3456 Y43.5095 
G01 X13.1797 Y43.6203 
G01 X13.1000 Y43.6534 
G01 X13.1000 Y46.4600 
G01 X13.5798 Y46.4600 
G01 X13.6533 Y46.4904 
G01 X13.7096 Y46.5467 
G01 X13.7400 Y46.6202 
G00 Z2.0000 
G00 X7.8264 Y59.3673 
G01 Z-0.0250 F254.00 
G01 X7.8264 Y57.4727 F508.00 
G01 X7.8526 Y57.3073 
G01 X7.9043 Y57.1481 
G01 X7.9803 Y56.9990 
G01 X8.0787 Y56.8635 
G01 X8.1971 Y56.7451 
G01 X8.3326 Y56.6467 
G01 X8.4817 Y56.5707 
G01 X8.6409 Y56.5190 
G01 X8.8063 Y56.4928 
G01 X8.9737 Y56.4928 
G01 X9.1391 Y56.5190 
G01 X9.2983 Y56.5707 
G01 X9.4474 Y56.6467 
G01 X9.5829 Y56.7451 
G01 X9.7013 Y56.8635 
G01 X9.7997 Y56.9990 
G01 X9.8757 Y57.1481 
G01 X9.9274 Y57.3073 
G01 X9.9536 Y57.4727 
G01 X9.9536 Y59.3673 
G01 X9.9274 Y59.5327 
G01 X9.8757 Y59.6919 
G01 X9.7997 Y59.8410 
G01 X9.7013 Y59.9765 
G01 X9.5829 Y60.0949 
G01 X9.4474 Y60.1933 
G01 X9.2983 Y60.2693 
G01 X9.1391 Y60.3210 
G01 X8.9737 Y60.3472 
G01 X8.8063 Y60.3472 
G01 X8.6409 Y60.3210 
G01 X8.4817 Y60.2693 
G01 X8.3326 Y60.1933 
G01 X8.1971 Y60.0949 
G01 X8.0787 Y59.9765 
G01 X7.9803 Y59.8410 
G01 X7.9043 Y59.6919 
G01 X7.8526 Y59.5327 
G01 X7.8264 Y59.3673 
G00 Z2.0000 
G00 X4.0164 Y59.3673 
G01 Z-0.0250 F254.00 
G01 X4.0164 Y57.4727 F508.00 
G01 X4.0426 Y57.3073 
G01 X4.0943 Y57.1481 
G01 X4.1703 Y56.9990 
G01 X4.2687 Y56.8635 
G01 X4.3871 Y56.7451 
G01 X4.5225 Y56.6467 
G01 X4.6717 Y56.5707 
G01 X4.8309 Y56.5190 
G01 X4.9963 Y56.4928 
G01 X5.1637 Y56.4928 
G01 X5.3291 Y56.5190 
G01 X5.4883 Y56.5707 
G01 X5.6374 Y56.6467 
G01 X5.7729 Y56.7451 
G01 X5.8913 Y56.8635 
G01 X5.9897 Y56.9990 
G01 X6.0657 Y57.1481 
G01 X6.1174 Y57.3073 
G01 X6.1436 Y57.4727 
G01 X6.1436 Y59.3673 
G01 X6.1174 Y59.5327 
G01 X6.0657 Y59.6919 
G01 X5.9897 Y59.8410 
G01 X5.8913 Y59.9765 
G01 X5.7729 Y60.0949 
G01 X5.6374 Y60.1933 
G01 X5.4883 Y60.2693 
G01 X5.3291 Y60.3210 
G01 X5.1637 Y60.3472 
G01 X4.9963 Y60.3472 
G01 X4.8309 Y60.3210 
G01 X4.6717 Y60.2693 
G01 X4.5225 Y60.1933 
G01 X4.3871 Y60.0949 
G01 X4.2687 Y59.9765 
G01 X4.1703 Y59.8410 
G01 X4.0943 Y59.6919 
G01 X4.0426 Y59.5327 
G01 X4.0164 Y59.3673 
G00 Z2.0000 
G00 X8.0650 Y52.5652 
G01 Z-0.0250 F254.00 
G01 X8.0650 Y54.1148 F508.00 
G01 X8.0346 Y54.1883 
G01 X7.9783 Y54.2446 
G01 X7.9048 Y54.2750 
G01 X6.5552 Y54.2750 
G01 X6.4817 Y54.2446 
G01 X6.4254 Y54.1883 
G01 X6.3950 Y54.1148 
G01 X6.3950 Y52.5652 
G01 X6.4254 Y52.4917 
G01 X6.4817 Y52.4354 
G01 X6.5552 Y52.4050 
G01 X7.1500 Y52.4050 
G01 X7.1500 Y50.0600 
G01 X6.7402 Y50.0600 
G01 X6.6667 Y50.0296 
G01 X6.6104 Y49.9733 
G01 X6.5800 Y49.8998 
G01 X6.5800 Y48.6000 
G01 X4.0400 Y48.6000 
G01 X4.0400 Y48.8998 
G01 X4.0095 Y48.9733 
G01 X3.9533 Y49.0296 
G01 X3.8798 Y49.0600 
G01 X3.0002 Y49.0600 
G01 X2.9267 Y49.0296 
G01 X2.8704 Y48.9733 
G01 X2.8400 Y48.8998 
G01 X2.8400 Y47.6202 
G01 X2.8704 Y47.5467 
G01 X2.9267 Y47.4904 
G01 X3.0002 Y47.4600 
G01 X3.8798 Y47.4600 
G01 X3.9533 Y47.4904 
G01 X4.0095 Y47.5467 
G01 X4.0400 Y47.6202 
G01 X4.0400 Y47.9000 
G01 X6.5800 Y47.9000 
G01 X6.5800 Y46.6202 
G01 X6.6104 Y46.5467 
G01 X6.6667 Y46.4904 
G01 X6.7402 Y46.4600 
G01 X8.5998 Y46.4600 
G01 X8.6733 Y46.4904 
G01 X8.7295 Y46.5467 
G01 X8.7600 Y46.6202 
G01 X8.7600 Y49.8998 
G01 X8.7295 Y49.9733 
G01 X8.6733 Y50.0296 
G01 X8.5998 Y50.0600 
G01 X7.8500 Y50.0600 
G01 X7.8500 Y52.4050 
G01 X7.9048 Y52.4050 
G01 X7.9783 Y52.4354 
G01 X8.0346 Y52.4917 
G01 X8.0650 Y52.5652 
G00 Z2.0000 
G00 X2.0950 Y52.5652 
G01 Z-0.0250 F254.00 
G01 X2.1254 Y52.4917 F508.00 
G01 X2.1817 Y52.4354 
G01 X2.2552 Y52.4050 
G01 X3.6048 Y52.4050 
G01 X3.6783 Y52.4354 
G01 X3.7346 Y52.4917 
G01 X3.7650 Y52.5652 
G01 X3.7650 Y54.1148 
G01 X3.7346 Y54.1883 
G01 X3.6783 Y54.2446 
G01 X3.6048 Y54.2750 
G01 X2.4700 Y54.2750 
G01 X1.8500 Y54.8950 
G01 X1.8500 Y56.6631 
G01 X1.9629 Y56.7451 
G01 X2.0813 Y56.8635 
G01 X2.1797 Y56.9990 
G01 X2.2557 Y57.1481 
G01 X2.3074 Y57.3073 
G01 X2.3336 Y57.4727 
G01 X2.3336 Y59.3673 
G01 X2.3074 Y59.5327 
G01 X2.2557 Y59.6919 
G01 X2.1797 Y59.8410 
G01 X2.0813 Y59.9765 
G01 X1.9629 Y60.0949 
G01 X1.8274 Y60.1933 
G01 X1.6783 Y60.2693 
G01 X1.5191 Y60.3210 
G01 X1.3537 Y60.3472 
G01 X1.1863 Y60.3472 
G01 X1.0209 Y60.3210 
G01 X0.8617 Y60.2693 
G01 X0.7126 Y60.1933 
G01 X0.5771 Y60.0949 
G01 X0.4587 Y59.9765 
G01 X0.3603 Y59.8410 
G01 X0.2843 Y59.6919 
G01 X0.2326 Y59.5327 
G01 X0.2064 Y59.3673 
G01 X0.2064 Y57.4727 
G01 X0.2326 Y57.3073 
G01 X0.2843 Y57.1481 
G01 X0.3603 Y56.9990 
G01 X0.4587 Y56.8635 
G01 X0.5771 Y56.7451 
G01 X0.7126 Y56.6467 
G01 X0.8617 Y56.5707 
G01 X1.0209 Y56.5190 
G01 X1.1500 Y56.4986 
G01 X1.1500 Y54.7039 
G01 X1.1739 Y54.6149 
G01 X1.2199 Y54.5351 
G01 X1.2851 Y54.4699 
G01 X2.0950 Y53.6600 
G01 X2.0950 Y52.5652 
G00 Z2.0000 
G00 X18.6404 Y59.0415 
G01 Z-0.0250 F254.00 
G01 X18.6404 Y59.2209 F508.00 
G01 X18.6123 Y59.3981 
G01 X18.5569 Y59.5687 
G01 X18.4754 Y59.7286 
G01 X18.3700 Y59.8737 
G01 X18.2431 Y60.0006 
G01 X18.0980 Y60.1060 
G01 X17.9381 Y60.1875 
G01 X17.7675 Y60.2429 
G01 X17.5903 Y60.2710 
G01 X17.4109 Y60.2710 
G01 X17.2337 Y60.2429 
G01 X17.0631 Y60.1875 
G01 X16.9032 Y60.1060 
G01 X16.7581 Y60.0006 
G01 X16.6312 Y59.8737 
G01 X16.5258 Y59.7286 
G01 X16.4443 Y59.5687 
G01 X16.3889 Y59.3981 
G01 X16.3608 Y59.2209 
G01 X16.3608 Y59.0415 
G01 X16.3889 Y58.8643 
G01 X16.4443 Y58.6937 
G01 X16.5258 Y58.5338 
G01 X16.6312 Y58.3887 
G01 X16.7581 Y58.2618 
G01 X16.9032 Y58.1564 
G01 X17.0631 Y58.0749 
G01 X17.2337 Y58.0195 
G01 X17.4109 Y57.9914 
G01 X17.5903 Y57.9914 
G01 X17.7675 Y58.0195 
G01 X17.9381 Y58.0749 
G01 X18.0980 Y58.1564 
G01 X18.2431 Y58.2618 
G01 X18.3700 Y58.3887 
G01 X18.4754 Y58.5338 
G01 X18.5569 Y58.6937 
G01 X18.6123 Y58.8643 
G01 X18.6404 Y59.0415 
G00 Z2.0000 
G00 X14.1192 Y59.0415 
G01 Z-0.0250 F254.00 
G01 X14.1192 Y59.2209 F508.00 
G01 X14.0911 Y59.3981 
G01 X14.0357 Y59.5687 
G01 X13.9542 Y59.7286 
G01 X13.8488 Y59.8737 
G01 X13.7219 Y60.0006 
G01 X13.5768 Y60.1060 
G01 X13.4169 Y60.1875 
G01 X13.2463 Y60.2429 
G01 X13.0691 Y60.2710 
G01 X12.8897 Y60.2710 
G01 X12.7125 Y60.2429 
G01 X12.5419 Y60.1875 
G01 X12.3820 Y60.1060 
G01 X12.2369 Y60.0006 
G01 X12.1100 Y59.8737 
G01 X12.0046 Y59.7286 
G01 X11.9231 Y59.5687 
G01 X11.8677 Y59.3981 
G01 X11.8396 Y59.2209 
G01 X11.8396 Y59.0415 
G01 X11.8677 Y58.8643 
G01 X11.9231 Y58.6937 
G01 X12.0046 Y58.5338 
G01 X12.1100 Y58.3887 
G01 X12.2369 Y58.2618 
G01 X12.3820 Y58.1564 
G01 X12.5419 Y58.0749 
G01 X12.7125 Y58.0195 
G01 X12.8897 Y57.9914 
G01 X13.0691 Y57.9914 
G01 X13.2463 Y58.0195 
G01 X13.4169 Y58.0749 
G01 X13.5768 Y58.1564 
