(.../pcb-gcode-3.6.0.4/pcb-gcode.ulp)
(Copyright 2005 - 2012 by John Johnson)
(See readme.txt for licensing terms.)
(This file generated from the board:)
(.../eagle/eagle/SulaMatik/SulaMatik.brd)
(Current profile is .../pcb-gcode-3.6.0.4/profiles/emc.pp  )
(This file generated 7/15/2014 10:04:00 PM)
(Settings from pcb-machine.h)
(  Tool Size)
(0.1000 )
(Z Axis Settings)
(  High     Up        Down     Drill)
(19.5000 	2.0000 	-0.0250 	-1.5000 )
(spindle on time = 1.0000)
(milling depth = -0.0500)
(text depth = -0.0500)
(tool change at 15.0000 15.0000 19.0000 )
(feed rate xy = F508.00 )
(feed rate z  = F254.00 )
(Settings from pcb-defaults.h)
(isolate min = 0.0500)
(isolate max = 1.0000)
(isolate step = 0.1000)
(Generated top outlines, top drill, bottom outlines, bottom drill, )
(Unit of measure: mm)
( Tool|       Size       |  Min Sub |  Max Sub |   Count )
( T01 | 0.508mm 0.0200in | 0.0000in | 0.0000in |       0 )
( T02 | 0.700mm 0.0276in | 0.0000in | 0.0000in |       0 )
( T03 | 0.813mm 0.0320in | 0.0000in | 0.0000in |       0 )
( T04 | 1.016mm 0.0400in | 0.0000in | 0.0000in |       0 )
( T05 | 1.118mm 0.0440in | 0.0000in | 0.0000in |       0 )
( T06 | 1.676mm 0.0660in | 0.0000in | 0.0000in |       0 )
( T07 | 2.800mm 0.1102in | 0.0000in | 0.0000in |       0 )
(Metric Mode)
G21
(Absolute Coordinates)
G90
M05
G00 Z19.0000 
G00 X15.0000 Y15.0000 
M06 T01 (0.5080 )
G01 Z0.0000 F254.00 
M06 T01 (0.5080 )
G00 Z2.0000 
M03
G04 P1.000000
G82 X-43.2500 Y29.7500 Z-1.5000 F254.00 R2.0000 P1.000000
G82 X-43.5000 Y37.2500 
G82 X-23.5000 Y44.7500 
G82 X-28.2500 Y24.0000 
M05
G00 Z19.0000 
M06 T02 (0.7000 )
G01 Z0.0000 F254.00 
M06 T02 (0.7000 )
G00 Z2.0000 
M03
G04 P1.000000
G82 X-38.9400 Y25.4000 Z-1.5000 F254.00 R2.0000 P1.000000
G82 X-42.3400 Y25.4000 
M05
G00 Z19.0000 
M06 T03 (0.8128 )
G01 Z0.0000 F254.00 
M06 T03 (0.8128 )
G00 Z2.0000 
M03
G04 P1.000000
G82 X-3.8100 Y3.8100 Z-1.5000 F254.00 R2.0000 P1.000000
G82 X-3.8100 Y11.4300 
G82 X-39.3700 Y33.0200 
G82 X-41.9100 Y33.0200 
G82 X-6.3500 Y3.8100 
G82 X-6.3500 Y11.4300 
G82 X-8.8900 Y3.8100 
G82 X-8.8900 Y11.4300 
G82 X-11.4300 Y3.8100 
G82 X-11.4300 Y11.4300 
G82 X-13.9700 Y3.8100 
G82 X-13.9700 Y11.4300 
G82 X-16.5100 Y3.8100 
G82 X-16.5100 Y11.4300 
G82 X-19.0500 Y3.8100 
G82 X-19.0500 Y11.4300 
G82 X-21.5900 Y3.8100 
G82 X-21.5900 Y11.4300 
G82 X-24.1300 Y3.8100 
G82 X-24.1300 Y11.4300 
G82 X-26.6700 Y3.8100 
G82 X-26.6700 Y11.4300 
M05
G00 Z19.0000 
M06 T04 (1.0160 )
G01 Z0.0000 F254.00 
M06 T04 (1.0160 )
G00 Z2.0000 
M03
G04 P1.000000
G82 X-31.7500 Y40.6400 Z-1.5000 F254.00 R2.0000 P1.000000
G82 X-31.7500 Y43.1800 
G82 X-34.2900 Y31.7500 
G82 X-34.2900 Y34.2900 
G82 X-34.2900 Y36.8300 
G82 X-34.2900 Y39.3700 
G82 X-34.2900 Y41.9100 
G82 X-34.2900 Y44.4500 
G82 X-34.2900 Y46.9900 
G82 X-34.2900 Y49.5300 
G82 X-34.2900 Y52.0700 
G82 X-34.2900 Y24.1300 
G82 X-34.2900 Y26.6700 
G82 X-34.2900 Y29.2100 
G82 X-40.6400 Y39.3700 
G82 X-40.6400 Y41.9100 
G82 X-40.6400 Y44.4500 
G82 X-40.6400 Y46.9900 
G82 X-40.6400 Y5.0800 
G82 X-45.7200 Y7.6200 
G82 X-45.7200 Y2.5400 
G82 X-6.9088 Y32.7406 
G82 X-6.9088 Y28.2194 
G82 X-13.4112 Y32.7406 
G82 X-13.4112 Y28.2194 
G82 X-19.0500 Y31.7500 
G82 X-19.0500 Y34.2900 
G82 X-19.0500 Y36.8300 
G82 X-19.0500 Y39.3700 
G82 X-19.0500 Y41.9100 
G82 X-19.0500 Y44.4500 
G82 X-19.0500 Y46.9900 
G82 X-19.0500 Y49.5300 
G82 X-19.0500 Y52.0700 
G82 X-19.0500 Y24.1300 
G82 X-19.0500 Y26.6700 
G82 X-19.0500 Y29.2100 
M05
G00 Z19.0000 
M06 T05 (1.1176 )
G01 Z0.0000 F254.00 
M06 T05 (1.1176 )
G00 Z2.0000 
M03
G04 P1.000000
G82 X-3.8100 Y58.4200 Z-1.5000 F254.00 R2.0000 P1.000000
G82 X-7.6200 Y58.4200 
G82 X-11.4300 Y58.4200 
M05
G00 Z19.0000 
M06 T06 (1.6764 )
G01 Z0.0000 F254.00 
M06 T06 (1.6764 )
G00 Z2.0000 
M03
G04 P1.000000
G82 X-35.0012 Y5.0800 Z-1.5000 F254.00 R2.0000 P1.000000
G82 X-43.1800 Y53.8988 
G82 X-43.1800 Y57.8612 
G82 X-45.7200 Y13.2588 
G82 X-45.7200 Y17.2212 
G82 X-15.7988 Y58.4200 
G82 X-19.7612 Y58.4200 
G82 X-31.0388 Y5.0800 
M05
G00 Z19.0000 
M06 T07 (2.8000 )
G01 Z0.0000 F254.00 
M06 T07 (2.8000 )
G00 Z2.0000 
M03
G04 P1.000000
G82 X-25.4000 Y27.9400 Z-1.5000 F254.00 R2.0000 P1.000000
T01 
G00 Z19.5000 
M05
M02
