(.../pcb-gcode-3.6.0.4/pcb-gcode.ulp)
(Copyright 2005 - 2012 by John Johnson)
(See readme.txt for licensing terms.)
(This file generated from the board:)
(.../eagle/eagle/SulaMatik/SulaMatik.brd)
(Current profile is .../pcb-gcode-3.6.0.4/profiles/emc.pp  )
(This file generated 7/10/2014 6:37:48 PM)
(Settings from pcb-machine.h)
(  Tool Size)
(0.1000 )
(Z Axis Settings)
(  High     Up        Down     Drill)
(21.0000 	2.0000 	-0.0250 	-1.5000 )
(spindle on time = 1.0000)
(milling depth = -0.0500)
(text depth = -0.0500)
(tool change at 15.0000 15.0000 20.0000 )
(feed rate xy = F508.00 )
(feed rate z  = F254.00 )
(Settings from pcb-defaults.h)
(isolate min = 0.0500)
(isolate max = 1.0000)
(isolate step = 0.1000)
(Generated top outlines, top drill, bottom outlines, bottom drill, )
(Unit of measure: mm)
(Metric Mode)
G21
(Absolute Coordinates)
G90
G00 X0.0000 Y0.0000 
M03
G04 P1.000000
G00 Z2.0000 
G00 X45.4168 Y17.8560 
G01 Z-0.0250 F254.00 
G01 X45.4168 Y16.9717 F508.00 
G01 X45.2286 Y16.7835 
G01 X45.0404 Y16.9717 
G01 X45.0404 Y17.8560 
G01 X45.4168 Y17.8560 
G00 Z2.0000 
G00 X45.4168 Y22.5336 
G01 Z-0.0250 F254.00 
G01 X45.4168 Y21.6493 F508.00 
G01 X45.2286 Y21.4611 
G01 X45.0404 Y21.6493 
G01 X45.0404 Y22.5336 
G01 X45.4168 Y22.5336 
G00 Z2.0000 
G00 X42.2773 Y46.0772 
G01 Z-0.0250 F254.00 
G01 X44.0827 Y46.0772 F508.00 
G01 X44.2591 Y46.1123 
G01 X44.4252 Y46.1811 
G01 X44.5747 Y46.2810 
G01 X44.7018 Y46.4081 
G01 X44.8017 Y46.5576 
G01 X44.8705 Y46.7237 
G01 X44.9056 Y46.9001 
G01 X44.9056 Y47.0799 
G01 X44.8705 Y47.2563 
G01 X44.8017 Y47.4224 
G01 X44.7018 Y47.5719 
G01 X44.5747 Y47.6990 
G01 X44.4252 Y47.7989 
G01 X44.2591 Y47.8677 
G01 X44.0827 Y47.9028 
G01 X42.2773 Y47.9028 
G01 X42.1009 Y47.8677 
G01 X41.9348 Y47.7989 
G01 X41.7853 Y47.6990 
G01 X41.6582 Y47.5719 
G01 X41.5583 Y47.4224 
G01 X41.4895 Y47.2563 
G01 X41.4544 Y47.0799 
G01 X41.4544 Y46.9001 
G01 X41.4895 Y46.7237 
G01 X41.5583 Y46.5576 
G01 X41.6582 Y46.4081 
G01 X41.7853 Y46.2810 
G01 X41.9348 Y46.1811 
G01 X42.1009 Y46.1123 
G01 X42.2773 Y46.0772 
G00 Z2.0000 
G00 X42.2773 Y43.5372 
G01 Z-0.0250 F254.00 
G01 X44.0827 Y43.5372 F508.00 
G01 X44.2591 Y43.5723 
G01 X44.4252 Y43.6411 
G01 X44.5747 Y43.7410 
G01 X44.7018 Y43.8681 
G01 X44.8017 Y44.0176 
G01 X44.8705 Y44.1837 
G01 X44.9056 Y44.3601 
G01 X44.9056 Y44.5399 
G01 X44.8705 Y44.7163 
G01 X44.8017 Y44.8824 
G01 X44.7018 Y45.0319 
G01 X44.5747 Y45.1590 
G01 X44.4252 Y45.2589 
G01 X44.2591 Y45.3277 
G01 X44.0827 Y45.3628 
G01 X43.2500 Y45.3628 
G01 X43.2500 Y45.7997 
G01 X43.2119 Y45.8916 
G01 X43.1416 Y45.9619 
G01 X43.0497 Y46.0000 
G01 X36.2003 Y46.0000 
G01 X36.1084 Y45.9619 
G01 X36.0381 Y45.8916 
G01 X35.2881 Y45.1416 
G01 X35.2500 Y45.0497 
G01 X35.2500 Y44.3536 
G01 X34.8201 Y43.9236 
G01 X34.7224 Y43.9889 
G01 X34.5563 Y44.0577 
G01 X34.3799 Y44.0928 
G01 X34.2001 Y44.0928 
G01 X34.0237 Y44.0577 
G01 X33.8576 Y43.9889 
G01 X33.7081 Y43.8890 
G01 X33.5810 Y43.7619 
G01 X33.4811 Y43.6124 
G01 X33.4123 Y43.4463 
G01 X33.3772 Y43.2699 
G01 X33.3772 Y43.0901 
G01 X33.4123 Y42.9137 
G01 X33.4811 Y42.7476 
G01 X33.5810 Y42.5981 
G01 X33.7081 Y42.4710 
G01 X33.8576 Y42.3711 
G01 X34.0237 Y42.3023 
G01 X34.2001 Y42.2672 
G01 X34.3799 Y42.2672 
G01 X34.5563 Y42.3023 
G01 X34.7224 Y42.3711 
G01 X34.8719 Y42.4710 
G01 X34.9990 Y42.5981 
G01 X35.0989 Y42.7476 
G01 X35.1677 Y42.9137 
G01 X35.2028 Y43.0901 
G01 X35.2028 Y43.2699 
G01 X35.1677 Y43.4463 
G01 X35.1332 Y43.5296 
G01 X35.6416 Y44.0381 
G01 X35.7119 Y44.1084 
G01 X35.7500 Y44.2003 
G01 X35.7500 Y44.8964 
G01 X36.3536 Y45.5000 
G01 X42.7500 Y45.5000 
G01 X42.7500 Y45.3628 
G01 X42.2773 Y45.3628 
G01 X42.1009 Y45.3277 
G01 X41.9348 Y45.2589 
G01 X41.7853 Y45.1590 
G01 X41.6582 Y45.0319 
G01 X41.5583 Y44.8824 
G01 X41.4895 Y44.7163 
G01 X41.4544 Y44.5399 
G01 X41.4544 Y44.3601 
G01 X41.4895 Y44.1837 
G01 X41.5583 Y44.0176 
G01 X41.6582 Y43.8681 
G01 X41.7853 Y43.7410 
G01 X41.9348 Y43.6411 
G01 X42.1009 Y43.5723 
G01 X42.2773 Y43.5372 
G00 Z2.0000 
G00 X44.0827 Y40.9972 
G01 Z-0.0250 F254.00 
G01 X44.2591 Y41.0323 F508.00 
G01 X44.4252 Y41.1011 
G01 X44.5747 Y41.2010 
G01 X44.7018 Y41.3281 
G01 X44.8017 Y41.4776 
G01 X44.8705 Y41.6437 
G01 X44.9056 Y41.8201 
G01 X44.9056 Y41.9999 
G01 X44.8705 Y42.1763 
G01 X44.8017 Y42.3424 
G01 X44.7018 Y42.4919 
G01 X44.5747 Y42.6190 
G01 X44.4252 Y42.7189 
G01 X44.2591 Y42.7877 
G01 X44.0827 Y42.8228 
G01 X42.2773 Y42.8228 
G01 X42.1009 Y42.7877 
G01 X41.9348 Y42.7189 
G01 X41.7853 Y42.6190 
G01 X41.6582 Y42.4919 
G01 X41.5583 Y42.3424 
G01 X41.4895 Y42.1763 
G01 X41.4544 Y41.9999 
G01 X41.4544 Y41.8201 
G01 X41.4895 Y41.6437 
G01 X41.5583 Y41.4776 
G01 X41.6582 Y41.3281 
G01 X41.7853 Y41.2010 
G01 X41.9348 Y41.1011 
G01 X41.9792 Y41.0827 
G01 X40.7881 Y39.8916 
G01 X40.7500 Y39.7997 
G01 X40.7500 Y33.2500 
G01 X36.3536 Y33.2500 
G01 X35.7500 Y33.8536 
G01 X35.7500 Y39.5497 
G01 X35.7119 Y39.6416 
G01 X35.6416 Y39.7119 
G01 X35.1127 Y40.2409 
G01 X35.1677 Y40.3737 
G01 X35.2028 Y40.5501 
G01 X35.2028 Y40.7299 
G01 X35.1677 Y40.9063 
G01 X35.0989 Y41.0724 
G01 X34.9990 Y41.2219 
G01 X34.8719 Y41.3490 
G01 X34.7224 Y41.4489 
G01 X34.5563 Y41.5177 
G01 X34.3799 Y41.5528 
G01 X34.2001 Y41.5528 
G01 X34.0237 Y41.5177 
G01 X33.8576 Y41.4489 
G01 X33.7081 Y41.3490 
G01 X33.5810 Y41.2219 
G01 X33.4811 Y41.0724 
G01 X33.4123 Y40.9063 
G01 X33.3772 Y40.7299 
G01 X33.3772 Y40.5501 
G01 X33.4123 Y40.3737 
G01 X33.4811 Y40.2076 
G01 X33.5810 Y40.0581 
G01 X33.7081 Y39.9310 
G01 X33.8576 Y39.8311 
G01 X34.0237 Y39.7623 
G01 X34.2001 Y39.7272 
G01 X34.3799 Y39.7272 
G01 X34.5563 Y39.7623 
G01 X34.7224 Y39.8311 
G01 X34.7781 Y39.8683 
G01 X35.2500 Y39.3964 
G01 X35.2500 Y33.7003 
G01 X35.2881 Y33.6084 
G01 X36.0381 Y32.8584 
G01 X36.1084 Y32.7881 
G01 X36.2003 Y32.7500 
G01 X41.0497 Y32.7500 
G01 X41.1416 Y32.7881 
G01 X41.2119 Y32.8584 
G01 X41.2500 Y32.9503 
G01 X41.2500 Y39.6464 
G01 X42.6008 Y40.9972 
G01 X44.0827 Y40.9972 
G00 Z2.0000 
G00 X42.2773 Y38.4572 
G01 Z-0.0250 F254.00 
G01 X44.0827 Y38.4572 F508.00 
G01 X44.2591 Y38.4923 
G01 X44.4252 Y38.5611 
G01 X44.5747 Y38.6610 
G01 X44.7018 Y38.7881 
G01 X44.8017 Y38.9376 
G01 X44.8705 Y39.1037 
G01 X44.9056 Y39.2801 
G01 X44.9056 Y39.4599 
G01 X44.8705 Y39.6363 
G01 X44.8017 Y39.8024 
G01 X44.7018 Y39.9519 
G01 X44.5747 Y40.0790 
G01 X44.4252 Y40.1789 
G01 X44.2591 Y40.2477 
G01 X44.0827 Y40.2828 
G01 X42.2773 Y40.2828 
G01 X42.1009 Y40.2477 
G01 X41.9348 Y40.1789 
G01 X41.7853 Y40.0790 
G01 X41.6582 Y39.9519 
G01 X41.5583 Y39.8024 
G01 X41.4895 Y39.6363 
G01 X41.4544 Y39.4599 
G01 X41.4544 Y39.2801 
G01 X41.4895 Y39.1037 
G01 X41.5583 Y38.9376 
G01 X41.6582 Y38.7881 
G01 X41.7853 Y38.6610 
G01 X41.9348 Y38.5611 
G01 X42.1009 Y38.4923 
G01 X42.2773 Y38.4572 
G00 Z2.0000 
G00 X42.2773 Y35.9172 
G01 Z-0.0250 F254.00 
G01 X44.0827 Y35.9172 F508.00 
G01 X44.2591 Y35.9523 
G01 X44.4252 Y36.0211 
G01 X44.5747 Y36.1210 
G01 X44.7018 Y36.2481 
G01 X44.8017 Y36.3976 
G01 X44.8705 Y36.5637 
G01 X44.9056 Y36.7401 
G01 X44.9056 Y36.9199 
G01 X44.8705 Y37.0963 
G01 X44.8017 Y37.2624 
G01 X44.7018 Y37.4119 
G01 X44.5747 Y37.5390 
G01 X44.4252 Y37.6389 
G01 X44.2591 Y37.7077 
G01 X44.0827 Y37.7428 
G01 X42.2773 Y37.7428 
G01 X42.1009 Y37.7077 
G01 X41.9348 Y37.6389 
G01 X41.7853 Y37.5390 
G01 X41.6582 Y37.4119 
G01 X41.5583 Y37.2624 
G01 X41.4895 Y37.0963 
G01 X41.4544 Y36.9199 
G01 X41.4544 Y36.7401 
G01 X41.4895 Y36.5637 
G01 X41.5583 Y36.3976 
G01 X41.6582 Y36.2481 
G01 X41.7853 Y36.1210 
G01 X41.9348 Y36.0211 
G01 X42.1009 Y35.9523 
G01 X42.2773 Y35.9172 
G00 Z2.0000 
G00 X42.2773 Y33.3772 
G01 Z-0.0250 F254.00 
G01 X44.0827 Y33.3772 F508.00 
G01 X44.2591 Y33.4123 
G01 X44.4252 Y33.4811 
G01 X44.5747 Y33.5810 
G01 X44.7018 Y33.7081 
G01 X44.8017 Y33.8576 
G01 X44.8705 Y34.0237 
G01 X44.9056 Y34.2001 
G01 X44.9056 Y34.3799 
G01 X44.8705 Y34.5563 
G01 X44.8017 Y34.7224 
G01 X44.7018 Y34.8719 
G01 X44.5747 Y34.9990 
G01 X44.4252 Y35.0989 
G01 X44.2591 Y35.1677 
G01 X44.0827 Y35.2028 
G01 X42.2773 Y35.2028 
G01 X42.1009 Y35.1677 
G01 X41.9348 Y35.0989 
G01 X41.7853 Y34.9990 
G01 X41.6582 Y34.8719 
G01 X41.5583 Y34.7224 
G01 X41.4895 Y34.5563 
G01 X41.4544 Y34.3799 
G01 X41.4544 Y34.2001 
G01 X41.4895 Y34.0237 
G01 X41.5583 Y33.8576 
G01 X41.6582 Y33.7081 
G01 X41.7853 Y33.5810 
G01 X41.9348 Y33.4811 
G01 X42.1009 Y33.4123 
G01 X42.2773 Y33.3772 
G00 Z2.0000 
G00 X42.2773 Y30.8372 
G01 Z-0.0250 F254.00 
G01 X44.0827 Y30.8372 F508.00 
G01 X44.2591 Y30.8723 
G01 X44.4252 Y30.9411 
G01 X44.5747 Y31.0410 
G01 X44.7018 Y31.1681 
G01 X44.8017 Y31.3176 
G01 X44.8705 Y31.4837 
G01 X44.9056 Y31.6601 
G01 X44.9056 Y31.8399 
G01 X44.8705 Y32.0163 
G01 X44.8017 Y32.1824 
G01 X44.7018 Y32.3319 
G01 X44.5747 Y32.4590 
G01 X44.4252 Y32.5589 
G01 X44.2591 Y32.6277 
G01 X44.0827 Y32.6628 
G01 X42.2773 Y32.6628 
G01 X42.1009 Y32.6277 
G01 X41.9348 Y32.5589 
G01 X41.7853 Y32.4590 
G01 X41.6582 Y32.3319 
G01 X41.5583 Y32.1824 
G01 X41.4895 Y32.0163 
G01 X41.4544 Y31.8399 
G01 X41.4544 Y31.6601 
G01 X41.4895 Y31.4837 
G01 X41.5583 Y31.3176 
G01 X41.6582 Y31.1681 
G01 X41.7853 Y31.0410 
G01 X41.9348 Y30.9411 
G01 X42.1009 Y30.8723 
G01 X42.2773 Y30.8372 
G00 Z2.0000 
G00 X29.8601 Y31.6200 
G01 Z-0.0250 F254.00 
G01 X31.0999 Y31.6200 F508.00 
G01 X31.1366 Y31.6352 
G01 X31.1648 Y31.6634 
G01 X31.1800 Y31.7001 
G01 X31.1800 Y31.7500 
G01 X35.9172 Y31.7500 
G01 X35.9172 Y31.6601 
G01 X35.9523 Y31.4837 
G01 X36.0211 Y31.3176 
G01 X36.1210 Y31.1681 
G01 X36.2481 Y31.0410 
G01 X36.3976 Y30.9411 
G01 X36.5637 Y30.8723 
G01 X36.7401 Y30.8372 
G01 X36.9199 Y30.8372 
G01 X37.0963 Y30.8723 
G01 X37.2624 Y30.9411 
G01 X37.4119 Y31.0410 
G01 X37.5390 Y31.1681 
G01 X37.6389 Y31.3176 
G01 X37.7077 Y31.4837 
G01 X37.7428 Y31.6601 
G01 X37.7428 Y31.8399 
G01 X37.7077 Y32.0163 
G01 X37.6389 Y32.1824 
G01 X37.5390 Y32.3319 
G01 X37.4119 Y32.4590 
G01 X37.2624 Y32.5589 
G01 X37.0963 Y32.6277 
G01 X36.9199 Y32.6628 
G01 X36.7401 Y32.6628 
G01 X36.5637 Y32.6277 
G01 X36.3976 Y32.5589 
G01 X36.2481 Y32.4590 
G01 X36.1210 Y32.3319 
G01 X36.0663 Y32.2500 
G01 X31.1800 Y32.2500 
G01 X31.1800 Y32.5399 
G01 X31.1648 Y32.5766 
G01 X31.1366 Y32.6048 
G01 X31.0999 Y32.6200 
G01 X30.2336 Y32.6200 
G01 X29.5000 Y33.3536 
G01 X29.5000 Y45.7997 
G01 X29.4619 Y45.8916 
G01 X29.3916 Y45.9619 
G01 X29.2997 Y46.0000 
G01 X21.1036 Y46.0000 
G01 X20.5000 Y46.6036 
G01 X20.5000 Y50.0497 
G01 X20.4619 Y50.1416 
G01 X20.3916 Y50.2119 
G01 X18.4337 Y52.1698 
G01 X18.4642 Y52.2297 
G01 X18.5148 Y52.3853 
G01 X18.5404 Y52.5470 
G01 X18.5404 Y52.7106 
G01 X18.5148 Y52.8723 
G01 X18.4642 Y53.0279 
G01 X18.3899 Y53.1738 
G01 X18.2937 Y53.3062 
G01 X18.1780 Y53.4219 
G01 X18.0456 Y53.5181 
G01 X17.8997 Y53.5924 
G01 X17.7441 Y53.6430 
G01 X17.5824 Y53.6686 
G01 X17.4188 Y53.6686 
G01 X17.2571 Y53.6430 
G01 X17.1015 Y53.5924 
G01 X16.9556 Y53.5181 
G01 X16.8232 Y53.4219 
G01 X16.7075 Y53.3062 
G01 X16.6113 Y53.1738 
G01 X16.5370 Y53.0279 
G01 X16.4864 Y52.8723 
G01 X16.4608 Y52.7106 
G01 X16.4608 Y52.5470 
G01 X16.4864 Y52.3853 
G01 X16.5370 Y52.2297 
G01 X16.6113 Y52.0838 
G01 X16.7075 Y51.9514 
G01 X16.8232 Y51.8357 
G01 X16.9556 Y51.7395 
G01 X17.1015 Y51.6652 
G01 X17.2571 Y51.6146 
G01 X17.4188 Y51.5890 
G01 X17.5824 Y51.5890 
G01 X17.7441 Y51.6146 
G01 X17.8997 Y51.6652 
G01 X18.0456 Y51.7395 
G01 X18.1101 Y51.7864 
G01 X20.0000 Y49.8964 
G01 X20.0000 Y46.4503 
G01 X20.0381 Y46.3584 
G01 X20.7881 Y45.6084 
G01 X20.8584 Y45.5381 
G01 X20.9503 Y45.5000 
G01 X29.0000 Y45.5000 
G01 X29.0000 Y33.2003 
G01 X29.0381 Y33.1084 
G01 X29.7800 Y32.3664 
G01 X29.7800 Y31.7001 
G01 X29.7952 Y31.6634 
G01 X29.8234 Y31.6352 
G01 X29.8601 Y31.6200 
G00 Z2.0000 
G00 X1.9201 Y16.3800 
G01 Z-0.0250 F254.00 
G01 X2.7664 Y16.3800 F508.00 
G01 X3.5000 Y15.6464 
G01 X3.5000 Y15.4308 
G01 X3.4258 Y15.4001 
G01 X3.2929 Y15.3113 
G01 X3.1799 Y15.1983 
G01 X3.0911 Y15.0654 
G01 X3.0300 Y14.9178 
G01 X2.9988 Y14.7611 
G01 X2.9988 Y13.1789 
G01 X3.0300 Y13.0222 
G01 X3.0911 Y12.8746 
G01 X3.1799 Y12.7417 
G01 X3.2929 Y12.6287 
G01 X3.4258 Y12.5399 
G01 X3.5734 Y12.4788 
G01 X3.7301 Y12.4476 
G01 X3.8899 Y12.4476 
G01 X4.0466 Y12.4788 
G01 X4.1942 Y12.5399 
G01 X4.3271 Y12.6287 
G01 X4.4401 Y12.7417 
G01 X4.5289 Y12.8746 
G01 X4.5900 Y13.0222 
G01 X4.6212 Y13.1789 
G01 X4.6212 Y14.7611 
G01 X4.5900 Y14.9178 
G01 X4.5289 Y15.0654 
G01 X4.4401 Y15.1983 
G01 X4.3271 Y15.3113 
G01 X4.1942 Y15.4001 
G01 X4.0466 Y15.4612 
G01 X4.0000 Y15.4705 
G01 X4.0000 Y15.7997 
G01 X3.9619 Y15.8916 
G01 X3.8916 Y15.9619 
G01 X3.2400 Y16.6136 
G01 X3.2400 Y17.2999 
G01 X3.2248 Y17.3366 
G01 X3.1966 Y17.3648 
G01 X3.1599 Y17.3800 
G01 X1.9201 Y17.3800 
G01 X1.8834 Y17.3648 
G01 X1.8552 Y17.3366 
G01 X1.8400 Y17.2999 
G01 X1.8400 Y16.4601 
G01 X1.8552 Y16.4234 
G01 X1.8834 Y16.3952 
G01 X1.9201 Y16.3800 
G00 Z2.0000 
G00 X4.4601 Y16.3800 
G01 Z-0.0250 F254.00 
G01 X5.2664 Y16.3800 F508.00 
G01 X6.0000 Y15.6464 
G01 X6.0000 Y15.4143 
G01 X5.9657 Y15.4001 
G01 X5.8329 Y15.3113 
G01 X5.7199 Y15.1983 
G01 X5.6311 Y15.0654 
G01 X5.5700 Y14.9178 
G01 X5.5388 Y14.7611 
G01 X5.5388 Y13.1789 
G01 X5.5700 Y13.0222 
G01 X5.6311 Y12.8746 
G01 X5.7199 Y12.7417 
G01 X5.8329 Y12.6287 
G01 X5.9657 Y12.5399 
G01 X6.1134 Y12.4788 
G01 X6.2701 Y12.4476 
G01 X6.4299 Y12.4476 
G01 X6.5866 Y12.4788 
G01 X6.7342 Y12.5399 
G01 X6.8671 Y12.6287 
G01 X6.9801 Y12.7417 
G01 X7.0689 Y12.8746 
G01 X7.1300 Y13.0222 
G01 X7.1612 Y13.1789 
G01 X7.1612 Y14.7611 
G01 X7.1300 Y14.9178 
G01 X7.0689 Y15.0654 
G01 X6.9801 Y15.1983 
G01 X6.8671 Y15.3113 
G01 X6.7342 Y15.4001 
G01 X6.5866 Y15.4612 
G01 X6.5000 Y15.4785 
G01 X6.5000 Y15.7997 
G01 X6.4619 Y15.8916 
G01 X6.3916 Y15.9619 
G01 X5.7800 Y16.5736 
G01 X5.7800 Y17.2999 
G01 X5.7648 Y17.3366 
G01 X5.7366 Y17.3648 
G01 X5.6999 Y17.3800 
G01 X4.4601 Y17.3800 
G01 X4.4234 Y17.3648 
G01 X4.3952 Y17.3366 
G01 X4.3800 Y17.2999 
G01 X4.3800 Y16.4601 
G01 X4.3952 Y16.4234 
G01 X4.4234 Y16.3952 
G01 X4.4601 Y16.3800 
G00 Z2.0000 
G00 X4.4601 Y18.1800 
G01 Z-0.0250 F254.00 
G01 X5.6999 Y18.1800 F508.00 
G01 X5.7366 Y18.1952 
G01 X5.7648 Y18.2234 
G01 X5.7800 Y18.2601 
G01 X5.7800 Y18.9264 
G01 X16.6416 Y29.7881 
G01 X16.7119 Y29.8584 
G01 X16.7500 Y29.9503 
G01 X16.7500 Y34.1464 
G01 X21.1626 Y38.5590 
G01 X21.3237 Y38.4923 
G01 X21.5001 Y38.4572 
G01 X21.6799 Y38.4572 
G01 X21.8563 Y38.4923 
G01 X22.0224 Y38.5611 
G01 X22.1719 Y38.6610 
G01 X22.2990 Y38.7881 
G01 X22.3989 Y38.9376 
G01 X22.4677 Y39.1037 
G01 X22.5028 Y39.2801 
G01 X22.5028 Y39.4599 
G01 X22.4677 Y39.6363 
G01 X22.3989 Y39.8024 
G01 X22.2990 Y39.9519 
G01 X22.1719 Y40.0790 
G01 X22.0224 Y40.1789 
G01 X21.8563 Y40.2477 
G01 X21.6799 Y40.2828 
G01 X21.5001 Y40.2828 
G01 X21.3237 Y40.2477 
G01 X21.1576 Y40.1789 
G01 X21.0081 Y40.0790 
G01 X20.8810 Y39.9519 
G01 X20.7811 Y39.8024 
G01 X20.7123 Y39.6363 
G01 X20.6772 Y39.4599 
G01 X20.6772 Y39.2801 
G01 X20.7123 Y39.1037 
G01 X20.7811 Y38.9376 
G01 X20.8023 Y38.9059 
G01 X16.2881 Y34.3916 
G01 X16.2500 Y34.2997 
G01 X16.2500 Y30.1036 
G01 X5.3264 Y19.1800 
G01 X4.4601 Y19.1800 
G01 X4.4234 Y19.1648 
G01 X4.3952 Y19.1366 
G01 X4.3800 Y19.0999 
G01 X4.3800 Y18.2601 
G01 X4.3952 Y18.2234 
G01 X4.4234 Y18.1952 
G01 X4.4601 Y18.1800 
G00 Z2.0000 
G00 X7.0001 Y16.3800 
G01 Z-0.0250 F254.00 
G01 X7.7664 Y16.3800 F508.00 
G01 X8.5000 Y15.6464 
G01 X8.5000 Y15.3962 
G01 X8.3729 Y15.3113 
G01 X8.2599 Y15.1983 
G01 X8.1711 Y15.0654 
G01 X8.1100 Y14.9178 
G01 X8.0788 Y14.7611 
G01 X8.0788 Y13.1789 
G01 X8.1100 Y13.0222 
G01 X8.1711 Y12.8746 
G01 X8.2599 Y12.7417 
G01 X8.3729 Y12.6287 
G01 X8.5058 Y12.5399 
G01 X8.6534 Y12.4788 
G01 X8.8101 Y12.4476 
G01 X8.9699 Y12.4476 
G01 X9.1266 Y12.4788 
G01 X9.2742 Y12.5399 
G01 X9.4071 Y12.6287 
G01 X9.5201 Y12.7417 
G01 X9.6089 Y12.8746 
G01 X9.6700 Y13.0222 
G01 X9.7012 Y13.1789 
G01 X9.7012 Y14.7611 
G01 X9.6700 Y14.9178 
G01 X9.6089 Y15.0654 
G01 X9.5201 Y15.1983 
G01 X9.4071 Y15.3113 
G01 X9.2742 Y15.4001 
G01 X9.1266 Y15.4612 
G01 X9.0000 Y15.4864 
G01 X9.0000 Y15.7997 
G01 X8.9619 Y15.8916 
G01 X8.8916 Y15.9619 
G01 X8.3200 Y16.5336 
G01 X8.3200 Y17.2999 
G01 X8.3048 Y17.3366 
G01 X8.2766 Y17.3648 
G01 X8.2399 Y17.3800 
G01 X7.0001 Y17.3800 
G01 X6.9634 Y17.3648 
G01 X6.9352 Y17.3366 
G01 X6.9200 Y17.2999 
G01 X6.9200 Y16.4601 
G01 X6.9352 Y16.4234 
G01 X6.9634 Y16.3952 
G01 X7.0001 Y16.3800 
G00 Z2.0000 
G00 X7.0001 Y18.1800 
G01 Z-0.0250 F254.00 
G01 X8.2399 Y18.1800 F508.00 
G01 X8.2766 Y18.1952 
G01 X8.3048 Y18.2234 
G01 X8.3200 Y18.2601 
G01 X8.3200 Y18.9664 
G01 X17.4619 Y28.1084 
G01 X17.5000 Y28.2003 
G01 X17.5000 Y32.3964 
G01 X21.1379 Y36.0343 
G01 X21.1576 Y36.0211 
G01 X21.3237 Y35.9523 
G01 X21.5001 Y35.9172 
G01 X21.6799 Y35.9172 
G01 X21.8563 Y35.9523 
G01 X22.0224 Y36.0211 
G01 X22.1719 Y36.1210 
G01 X22.2990 Y36.2481 
G01 X22.3989 Y36.3976 
G01 X22.4677 Y36.5637 
G01 X22.5028 Y36.7401 
G01 X22.5028 Y36.9199 
G01 X22.4677 Y37.0963 
G01 X22.3989 Y37.2624 
G01 X22.2990 Y37.4119 
G01 X22.1719 Y37.5390 
G01 X22.0224 Y37.6389 
G01 X21.8563 Y37.7077 
G01 X21.6799 Y37.7428 
G01 X21.5001 Y37.7428 
G01 X21.3237 Y37.7077 
G01 X21.1576 Y37.6389 
G01 X21.0081 Y37.5390 
G01 X20.8810 Y37.4119 
G01 X20.7811 Y37.2624 
G01 X20.7123 Y37.0963 
G01 X20.6772 Y36.9199 
G01 X20.6772 Y36.7401 
G01 X20.7123 Y36.5637 
G01 X20.7811 Y36.3976 
G01 X20.7863 Y36.3898 
G01 X17.0381 Y32.6416 
G01 X17.0000 Y32.5497 
G01 X17.0000 Y28.3536 
G01 X7.8264 Y19.1800 
G01 X7.0001 Y19.1800 
G01 X6.9634 Y19.1648 
G01 X6.9352 Y19.1366 
G01 X6.9200 Y19.0999 
G01 X6.9200 Y18.2601 
G01 X6.9352 Y18.2234 
G01 X6.9634 Y18.1952 
G01 X7.0001 Y18.1800 
G00 Z2.0000 
G00 X9.5401 Y16.3800 
G01 Z-0.0250 F254.00 
G01 X10.2664 Y16.3800 F508.00 
G01 X11.0000 Y15.6464 
G01 X11.0000 Y15.3695 
G01 X10.9129 Y15.3113 
G01 X10.7999 Y15.1983 
G01 X10.7111 Y15.0654 
G01 X10.6500 Y14.9178 
G01 X10.6188 Y14.7611 
G01 X10.6188 Y13.1789 
G01 X10.6500 Y13.0222 
G01 X10.7111 Y12.8746 
G01 X10.7999 Y12.7417 
G01 X10.9129 Y12.6287 
G01 X11.0457 Y12.5399 
G01 X11.1934 Y12.4788 
G01 X11.3501 Y12.4476 
G01 X11.5099 Y12.4476 
G01 X11.6666 Y12.4788 
G01 X11.8142 Y12.5399 
G01 X11.9471 Y12.6287 
G01 X12.0601 Y12.7417 
G01 X12.1489 Y12.8746 
G01 X12.2100 Y13.0222 
G01 X12.2412 Y13.1789 
G01 X12.2412 Y14.7611 
G01 X12.2100 Y14.9178 
G01 X12.1489 Y15.0654 
G01 X12.0601 Y15.1983 
G01 X11.9471 Y15.3113 
G01 X11.8142 Y15.4001 
G01 X11.6666 Y15.4612 
G01 X11.5099 Y15.4924 
G01 X11.5000 Y15.4924 
G01 X11.5000 Y15.7997 
G01 X11.4619 Y15.8916 
G01 X11.3916 Y15.9619 
G01 X10.8600 Y16.4935 
G01 X10.8600 Y17.2999 
G01 X10.8448 Y17.3366 
G01 X10.8166 Y17.3648 
G01 X10.7799 Y17.3800 
G01 X9.5401 Y17.3800 
G01 X9.5034 Y17.3648 
G01 X9.4752 Y17.3366 
G01 X9.4600 Y17.2999 
G01 X9.4600 Y16.4601 
G01 X9.4752 Y16.4234 
G01 X9.5034 Y16.3952 
G01 X9.5401 Y16.3800 
G00 Z2.0000 
G00 X9.5401 Y18.1800 
G01 Z-0.0250 F254.00 
G01 X10.7799 Y18.1800 F508.00 
G01 X10.8166 Y18.1952 
G01 X10.8448 Y18.2234 
G01 X10.8600 Y18.2601 
G01 X10.8600 Y19.0064 
G01 X18.1416 Y26.2881 
G01 X18.2119 Y26.3584 
G01 X18.2500 Y26.4503 
G01 X18.2500 Y30.6464 
G01 X21.1139 Y33.5103 
G01 X21.1576 Y33.4811 
G01 X21.3237 Y33.4123 
G01 X21.5001 Y33.3772 
G01 X21.6799 Y33.3772 
G01 X21.8563 Y33.4123 
G01 X22.0224 Y33.4811 
G01 X22.1719 Y33.5810 
G01 X22.2990 Y33.7081 
G01 X22.3989 Y33.8576 
G01 X22.4677 Y34.0237 
G01 X22.5028 Y34.2001 
G01 X22.5028 Y34.3799 
G01 X22.4677 Y34.5563 
G01 X22.3989 Y34.7224 
G01 X22.2990 Y34.8719 
G01 X22.1719 Y34.9990 
G01 X22.0224 Y35.0989 
G01 X21.8563 Y35.1677 
G01 X21.6799 Y35.2028 
G01 X21.5001 Y35.2028 
G01 X21.3237 Y35.1677 
G01 X21.1576 Y35.0989 
G01 X21.0081 Y34.9990 
G01 X20.8810 Y34.8719 
G01 X20.7811 Y34.7224 
G01 X20.7123 Y34.5563 
G01 X20.6772 Y34.3799 
G01 X20.6772 Y34.2001 
G01 X20.7123 Y34.0237 
G01 X20.7732 Y33.8767 
G01 X17.7881 Y30.8916 
G01 X17.7500 Y30.7997 
G01 X17.7500 Y26.6036 
G01 X10.3264 Y19.1800 
G01 X9.5401 Y19.1800 
G01 X9.5034 Y19.1648 
G01 X9.4752 Y19.1366 
G01 X9.4600 Y19.0999 
G01 X9.4600 Y18.2601 
G01 X9.4752 Y18.2234 
G01 X9.5034 Y18.1952 
G01 X9.5401 Y18.1800 
G00 Z2.0000 
G00 X12.0801 Y16.3800 
G01 Z-0.0250 F254.00 
G01 X12.7664 Y16.3800 F508.00 
G01 X13.5000 Y15.6464 
G01 X13.5000 Y15.3428 
G01 X13.4529 Y15.3113 
G01 X13.3399 Y15.1983 
G01 X13.2511 Y15.0654 
G01 X13.1900 Y14.9178 
G01 X13.1588 Y14.7611 
G01 X13.1588 Y13.1789 
G01 X13.1900 Y13.0222 
G01 X13.2511 Y12.8746 
G01 X13.3399 Y12.7417 
G01 X13.4529 Y12.6287 
G01 X13.5858 Y12.5399 
G01 X13.7334 Y12.4788 
G01 X13.8901 Y12.4476 
G01 X14.0499 Y12.4476 
G01 X14.2066 Y12.4788 
G01 X14.3542 Y12.5399 
G01 X14.4871 Y12.6287 
G01 X14.6001 Y12.7417 
G01 X14.6889 Y12.8746 
G01 X14.7500 Y13.0222 
G01 X14.7812 Y13.1789 
G01 X14.7812 Y14.7611 
G01 X14.7500 Y14.9178 
G01 X14.6889 Y15.0654 
G01 X14.6001 Y15.1983 
G01 X14.4871 Y15.3113 
G01 X14.3542 Y15.4001 
G01 X14.2066 Y15.4612 
G01 X14.0499 Y15.4924 
G01 X14.0000 Y15.4924 
G01 X14.0000 Y15.7997 
G01 X13.9619 Y15.8916 
G01 X13.8916 Y15.9619 
G01 X13.3981 Y16.4555 
G01 X13.4000 Y16.4601 
G01 X13.4000 Y17.2999 
G01 X13.3848 Y17.3366 
G01 X13.3566 Y17.3648 
G01 X13.3199 Y17.3800 
G01 X12.0801 Y17.3800 
G01 X12.0434 Y17.3648 
G01 X12.0152 Y17.3366 
G01 X12.0000 Y17.2999 
G01 X12.0000 Y16.4601 
G01 X12.0152 Y16.4234 
G01 X12.0434 Y16.3952 
G01 X12.0801 Y16.3800 
G00 Z2.0000 
G00 X12.0801 Y18.1800 
G01 Z-0.0250 F254.00 
G01 X13.3199 Y18.1800 F508.00 
G01 X13.3566 Y18.1952 
G01 X13.3848 Y18.2234 
G01 X13.4000 Y18.2601 
G01 X13.4000 Y19.0464 
G01 X18.8916 Y24.5381 
G01 X18.9619 Y24.6084 
G01 X19.0000 Y24.7003 
G01 X19.0000 Y28.8964 
G01 X21.0899 Y30.9863 
G01 X21.1576 Y30.9411 
G01 X21.3237 Y30.8723 
G01 X21.5001 Y30.8372 
G01 X21.6799 Y30.8372 
G01 X21.8563 Y30.8723 
G01 X22.0224 Y30.9411 
G01 X22.1719 Y31.0410 
G01 X22.2990 Y31.1681 
G01 X22.3989 Y31.3176 
G01 X22.4677 Y31.4837 
G01 X22.5028 Y31.6601 
G01 X22.5028 Y31.8399 
G01 X22.4677 Y32.0163 
G01 X22.3989 Y32.1824 
G01 X22.2990 Y32.3319 
G01 X22.1719 Y32.4590 
G01 X22.0224 Y32.5589 
G01 X21.8563 Y32.6277 
G01 X21.6799 Y32.6628 
G01 X21.5001 Y32.6628 
G01 X21.3237 Y32.6277 
G01 X21.1576 Y32.5589 
G01 X21.0081 Y32.4590 
G01 X20.8810 Y32.3319 
G01 X20.7811 Y32.1824 
G01 X20.7123 Y32.0163 
G01 X20.6772 Y31.8399 
G01 X20.6772 Y31.6601 
G01 X20.7123 Y31.4837 
G01 X20.7615 Y31.3650 
G01 X18.5381 Y29.1416 
G01 X18.5000 Y29.0497 
G01 X18.5000 Y24.8536 
G01 X12.8264 Y19.1800 
G01 X12.0801 Y19.1800 
G01 X12.0434 Y19.1648 
G01 X12.0152 Y19.1366 
G01 X12.0000 Y19.0999 
G01 X12.0000 Y18.2601 
G01 X12.0152 Y18.2234 
G01 X12.0434 Y18.1952 
G01 X12.0801 Y18.1800 
G00 Z2.0000 
G00 X14.6201 Y16.3800 
G01 Z-0.0250 F254.00 
G01 X15.2664 Y16.3800 F508.00 
G01 X16.2110 Y15.4354 
G01 X16.1258 Y15.4001 
G01 X15.9929 Y15.3113 
G01 X15.8799 Y15.1983 
G01 X15.7911 Y15.0654 
G01 X15.7300 Y14.9178 
G01 X15.6988 Y14.7611 
G01 X15.6988 Y13.1789 
G01 X15.7300 Y13.0222 
G01 X15.7911 Y12.8746 
G01 X15.8799 Y12.7417 
G01 X15.9929 Y12.6287 
G01 X16.1258 Y12.5399 
G01 X16.2734 Y12.4788 
G01 X16.4301 Y12.4476 
G01 X16.5899 Y12.4476 
G01 X16.7466 Y12.4788 
G01 X16.8942 Y12.5399 
G01 X17.0271 Y12.6287 
G01 X17.1401 Y12.7417 
G01 X17.2289 Y12.8746 
G01 X17.2900 Y13.0222 
G01 X17.3212 Y13.1789 
G01 X17.3212 Y14.7611 
G01 X17.2900 Y14.9178 
G01 X17.2289 Y15.0654 
G01 X17.1401 Y15.1983 
G01 X17.0271 Y15.3113 
G01 X16.8942 Y15.4001 
G01 X16.7500 Y15.4598 
G01 X16.7500 Y15.5497 
G01 X16.7119 Y15.6416 
G01 X16.6416 Y15.7119 
G01 X15.9264 Y16.4272 
G01 X15.9400 Y16.4601 
G01 X15.9400 Y17.2999 
G01 X15.9248 Y17.3366 
G01 X15.8966 Y17.3648 
G01 X15.8599 Y17.3800 
G01 X14.6201 Y17.3800 
G01 X14.5834 Y17.3648 
G01 X14.5552 Y17.3366 
G01 X14.5400 Y17.2999 
G01 X14.5400 Y16.4601 
G01 X14.5552 Y16.4234 
G01 X14.5834 Y16.3952 
G01 X14.6201 Y16.3800 
G00 Z2.0000 
G00 X14.6201 Y18.1800 
G01 Z-0.0250 F254.00 
G01 X15.8599 Y18.1800 F508.00 
G01 X15.8966 Y18.1952 
G01 X15.9248 Y18.2234 
G01 X15.9400 Y18.2601 
G01 X15.9400 Y19.0864 
G01 X19.6416 Y22.7881 
G01 X19.7119 Y22.8584 
G01 X19.7500 Y22.9503 
G01 X19.7500 Y26.8964 
G01 X21.2262 Y28.3727 
G01 X21.3237 Y28.3323 
G01 X21.5001 Y28.2972 
G01 X21.6799 Y28.2972 
G01 X21.8563 Y28.3323 
G01 X22.0224 Y28.4011 
G01 X22.1719 Y28.5010 
G01 X22.2990 Y28.6281 
G01 X22.3989 Y28.7776 
G01 X22.4677 Y28.9437 
G01 X22.5028 Y29.1201 
G01 X22.5028 Y29.2999 
G01 X22.4677 Y29.4763 
G01 X22.3989 Y29.6424 
G01 X22.2990 Y29.7919 
G01 X22.1719 Y29.9190 
G01 X22.0224 Y30.0189 
G01 X21.8563 Y30.0877 
G01 X21.6799 Y30.1228 
G01 X21.5001 Y30.1228 
G01 X21.3237 Y30.0877 
G01 X21.1576 Y30.0189 
G01 X21.0081 Y29.9190 
G01 X20.8810 Y29.7919 
G01 X20.7811 Y29.6424 
G01 X20.7123 Y29.4763 
G01 X20.6772 Y29.2999 
G01 X20.6772 Y29.1201 
G01 X20.7123 Y28.9437 
G01 X20.7811 Y28.7776 
G01 X20.8384 Y28.6919 
G01 X19.2881 Y27.1416 
G01 X19.2500 Y27.0497 
G01 X19.2500 Y23.1036 
G01 X15.3264 Y19.1800 
G01 X14.6201 Y19.1800 
G01 X14.5834 Y19.1648 
G01 X14.5552 Y19.1366 
G01 X14.5400 Y19.0999 
G01 X14.5400 Y18.2601 
G01 X14.5552 Y18.2234 
G01 X14.5834 Y18.1952 
G01 X14.6201 Y18.1800 
G00 Z2.0000 
G00 X19.7001 Y18.1800 
G01 Z-0.0250 F254.00 
G01 X20.9399 Y18.1800 F508.00 
G01 X20.9766 Y18.1952 
G01 X21.0048 Y18.2234 
G01 X21.0200 Y18.2601 
G01 X21.0200 Y18.9164 
G01 X21.6416 Y19.5381 
G01 X21.7119 Y19.6084 
G01 X21.7500 Y19.7003 
G01 X21.7500 Y23.2311 
G01 X21.8563 Y23.2523 
G01 X22.0224 Y23.3211 
G01 X22.1719 Y23.4210 
G01 X22.2990 Y23.5481 
G01 X22.3989 Y23.6976 
G01 X22.4677 Y23.8637 
G01 X22.5028 Y24.0401 
G01 X22.5028 Y24.2199 
G01 X22.4677 Y24.3963 
G01 X22.3989 Y24.5624 
G01 X22.2990 Y24.7119 
G01 X22.1719 Y24.8390 
G01 X22.0224 Y24.9389 
G01 X21.8563 Y25.0077 
G01 X21.6799 Y25.0428 
G01 X21.5001 Y25.0428 
G01 X21.3237 Y25.0077 
G01 X21.1576 Y24.9389 
G01 X21.0081 Y24.8390 
G01 X20.8810 Y24.7119 
G01 X20.7811 Y24.5624 
G01 X20.7123 Y24.3963 
G01 X20.6772 Y24.2199 
G01 X20.6772 Y24.0401 
G01 X20.7123 Y23.8637 
G01 X20.7811 Y23.6976 
G01 X20.8810 Y23.5481 
G01 X21.0081 Y23.4210 
G01 X21.1576 Y23.3211 
G01 X21.2500 Y23.2828 
G01 X21.2500 Y19.8536 
G01 X20.5764 Y19.1800 
G01 X19.7001 Y19.1800 
G01 X19.6634 Y19.1648 
G01 X19.6352 Y19.1366 
G01 X19.6200 Y19.0999 
G01 X19.6200 Y18.2601 
G01 X19.6352 Y18.2234 
G01 X19.6634 Y18.1952 
G01 X19.7001 Y18.1800 
G00 Z2.0000 
G00 X22.2401 Y18.1800 
G01 Z-0.0250 F254.00 
G01 X23.4799 Y18.1800 F508.00 
G01 X23.5166 Y18.1952 
G01 X23.5448 Y18.2234 
G01 X23.5558 Y18.2500 
G01 X24.0000 Y18.2500 
G01 X24.0000 Y18.2003 
G01 X24.0381 Y18.1084 
G01 X24.5381 Y17.6084 
G01 X24.6084 Y17.5381 
G01 X24.7003 Y17.5000 
G01 X30.7997 Y17.5000 
G01 X30.8916 Y17.5381 
G01 X30.9619 Y17.6084 
G01 X31.0000 Y17.7003 
G01 X31.0000 Y19.3964 
G01 X35.3536 Y23.7500 
G01 X35.9994 Y23.7500 
G01 X36.0211 Y23.6976 
G01 X36.1210 Y23.5481 
G01 X36.2481 Y23.4210 
G01 X36.3976 Y23.3211 
G01 X36.5637 Y23.2523 
G01 X36.7401 Y23.2172 
G01 X36.9199 Y23.2172 
G01 X37.0963 Y23.2523 
G01 X37.2624 Y23.3211 
G01 X37.4119 Y23.4210 
G01 X37.5390 Y23.5481 
G01 X37.6389 Y23.6976 
G01 X37.7077 Y23.8637 
G01 X37.7428 Y24.0401 
G01 X37.7428 Y24.2199 
G01 X37.7077 Y24.3963 
G01 X37.6389 Y24.5624 
G01 X37.5390 Y24.7119 
G01 X37.4119 Y24.8390 
G01 X37.2624 Y24.9389 
G01 X37.0963 Y25.0077 
G01 X36.9199 Y25.0428 
G01 X36.7401 Y25.0428 
G01 X36.5637 Y25.0077 
G01 X36.3976 Y24.9389 
G01 X36.2481 Y24.8390 
G01 X36.1210 Y24.7119 
G01 X36.0211 Y24.5624 
G01 X35.9523 Y24.3963 
G01 X35.9232 Y24.2500 
G01 X35.2003 Y24.2500 
G01 X35.1084 Y24.2119 
G01 X35.0381 Y24.1416 
G01 X30.5381 Y19.6416 
G01 X30.5000 Y19.5497 
G01 X30.5000 Y18.0000 
G01 X24.8536 Y18.0000 
G01 X24.5000 Y18.3536 
G01 X24.5000 Y18.5497 
G01 X24.4619 Y18.6416 
G01 X24.3916 Y18.7119 
G01 X24.2997 Y18.7500 
G01 X23.5600 Y18.7500 
G01 X23.5600 Y19.0999 
G01 X23.5448 Y19.1366 
G01 X23.5166 Y19.1648 
G01 X23.4799 Y19.1800 
G01 X22.2401 Y19.1800 
G01 X22.2034 Y19.1648 
G01 X22.1752 Y19.1366 
G01 X22.1600 Y19.0999 
G01 X22.1600 Y18.2601 
G01 X22.1752 Y18.2234 
G01 X22.2034 Y18.1952 
G01 X22.2401 Y18.1800 
G00 Z2.0000 
G00 X24.7801 Y18.1800 
G01 Z-0.0250 F254.00 
G01 X26.0199 Y18.1800 F508.00 
G01 X26.0566 Y18.1952 
G01 X26.0848 Y18.2234 
G01 X26.1000 Y18.2601 
G01 X26.1000 Y18.9964 
G01 X33.3536 Y26.2500 
G01 X36.0160 Y26.2500 
G01 X36.0211 Y26.2376 
G01 X36.1210 Y26.0881 
G01 X36.2481 Y25.9610 
G01 X36.3976 Y25.8611 
G01 X36.5637 Y25.7923 
G01 X36.7401 Y25.7572 
G01 X36.9199 Y25.7572 
G01 X37.0963 Y25.7923 
G01 X37.2624 Y25.8611 
G01 X37.4119 Y25.9610 
G01 X37.5390 Y26.0881 
G01 X37.6389 Y26.2376 
G01 X37.7077 Y26.4037 
G01 X37.7428 Y26.5801 
G01 X37.7428 Y26.7599 
G01 X37.7077 Y26.9363 
G01 X37.6389 Y27.1024 
G01 X37.5390 Y27.2519 
G01 X37.4119 Y27.3790 
G01 X37.2624 Y27.4789 
G01 X37.0963 Y27.5477 
G01 X36.9199 Y27.5828 
G01 X36.7401 Y27.5828 
G01 X36.5637 Y27.5477 
G01 X36.3976 Y27.4789 
G01 X36.2481 Y27.3790 
G01 X36.1210 Y27.2519 
G01 X36.0211 Y27.1024 
G01 X35.9523 Y26.9363 
G01 X35.9172 Y26.7599 
G01 X35.9172 Y26.7500 
G01 X33.2003 Y26.7500 
G01 X33.1084 Y26.7119 
G01 X33.0381 Y26.6416 
G01 X25.5764 Y19.1800 
G01 X24.7801 Y19.1800 
G01 X24.7434 Y19.1648 
G01 X24.7152 Y19.1366 
G01 X24.7000 Y19.0999 
G01 X24.7000 Y18.2601 
G01 X24.7152 Y18.2234 
G01 X24.7434 Y18.1952 
G01 X24.7801 Y18.1800 
G00 Z2.0000 
G00 X19.8612 Y13.1789 
G01 Z-0.0250 F254.00 
G01 X19.8612 Y14.7611 F508.00 
G01 X19.8300 Y14.9178 
G01 X19.7689 Y15.0654 
G01 X19.6801 Y15.1983 
G01 X19.5671 Y15.3113 
G01 X19.4342 Y15.4001 
G01 X19.2866 Y15.4612 
G01 X19.2500 Y15.4685 
G01 X19.2500 Y15.7997 
G01 X19.2119 Y15.8916 
G01 X19.1416 Y15.9619 
G01 X18.4800 Y16.6236 
G01 X18.4800 Y17.2999 
G01 X18.4648 Y17.3366 
G01 X18.4366 Y17.3648 
G01 X18.3999 Y17.3800 
G01 X17.1601 Y17.3800 
G01 X17.1234 Y17.3648 
G01 X17.0952 Y17.3366 
G01 X17.0800 Y17.2999 
G01 X17.0800 Y16.4601 
G01 X17.0952 Y16.4234 
G01 X17.1234 Y16.3952 
G01 X17.1601 Y16.3800 
G01 X18.0164 Y16.3800 
G01 X18.7500 Y15.6464 
G01 X18.7500 Y15.4350 
G01 X18.6657 Y15.4001 
G01 X18.5329 Y15.3113 
G01 X18.4199 Y15.1983 
G01 X18.3311 Y15.0654 
G01 X18.2700 Y14.9178 
G01 X18.2388 Y14.7611 
G01 X18.2388 Y13.1789 
G01 X18.2700 Y13.0222 
G01 X18.3311 Y12.8746 
G01 X18.4199 Y12.7417 
G01 X18.5329 Y12.6287 
G01 X18.6657 Y12.5399 
G01 X18.8134 Y12.4788 
G01 X18.9701 Y12.4476 
G01 X19.1299 Y12.4476 
G01 X19.2866 Y12.4788 
G01 X19.4342 Y12.5399 
G01 X19.5671 Y12.6287 
G01 X19.6801 Y12.7417 
G01 X19.7689 Y12.8746 
G01 X19.8300 Y13.0222 
G01 X19.8612 Y13.1789 
G00 Z2.0000 
G00 X22.4012 Y13.1789 
G01 Z-0.0250 F254.00 
G01 X22.4012 Y14.7611 F508.00 
G01 X22.3700 Y14.9178 
G01 X22.3089 Y15.0654 
G01 X22.2201 Y15.1983 
G01 X22.1071 Y15.3113 
G01 X21.9742 Y15.4001 
G01 X21.8266 Y15.4612 
G01 X21.7500 Y15.4765 
G01 X21.7500 Y15.7997 
G01 X21.7119 Y15.8916 
G01 X21.6416 Y15.9619 
G01 X21.0200 Y16.5836 
G01 X21.0200 Y17.2999 
G01 X21.0048 Y17.3366 
G01 X20.9766 Y17.3648 
G01 X20.9399 Y17.3800 
G01 X19.7001 Y17.3800 
G01 X19.6634 Y17.3648 
G01 X19.6352 Y17.3366 
G01 X19.6200 Y17.2999 
G01 X19.6200 Y16.4601 
G01 X19.6352 Y16.4234 
G01 X19.6634 Y16.3952 
G01 X19.7001 Y16.3800 
G01 X20.5164 Y16.3800 
G01 X21.2500 Y15.6464 
G01 X21.2500 Y15.4184 
G01 X21.2058 Y15.4001 
G01 X21.0729 Y15.3113 
G01 X20.9599 Y15.1983 
G01 X20.8711 Y15.0654 
G01 X20.8100 Y14.9178 
G01 X20.7788 Y14.7611 
G01 X20.7788 Y13.1789 
G01 X20.8100 Y13.0222 
G01 X20.8711 Y12.8746 
G01 X20.9599 Y12.7417 
G01 X21.0729 Y12.6287 
G01 X21.2058 Y12.5399 
G01 X21.3534 Y12.4788 
G01 X21.5101 Y12.4476 
G01 X21.6699 Y12.4476 
G01 X21.8266 Y12.4788 
G01 X21.9742 Y12.5399 
G01 X22.1071 Y12.6287 
G01 X22.2201 Y12.7417 
G01 X22.3089 Y12.8746 
G01 X22.3700 Y13.0222 
G01 X22.4012 Y13.1789 
G00 Z2.0000 
G00 X24.9412 Y13.1789 
G01 Z-0.0250 F254.00 
G01 X24.9412 Y14.7611 F508.00 
G01 X24.9100 Y14.9178 
G01 X24.8489 Y15.0654 
G01 X24.7601 Y15.1983 
G01 X24.6471 Y15.3113 
G01 X24.5142 Y15.4001 
G01 X24.3666 Y15.4612 
G01 X24.2500 Y15.4844 
G01 X24.2500 Y15.7997 
G01 X24.2119 Y15.8916 
G01 X23.5600 Y16.5436 
G01 X23.5600 Y17.2999 
G01 X23.5448 Y17.3366 
G01 X23.5166 Y17.3648 
G01 X23.4799 Y17.3800 
G01 X22.2401 Y17.3800 
G01 X22.2034 Y17.3648 
G01 X22.1752 Y17.3366 
G01 X22.1600 Y17.2999 
G01 X22.1600 Y16.4601 
G01 X22.1752 Y16.4234 
G01 X22.2034 Y16.3952 
G01 X22.2401 Y16.3800 
G01 X23.0164 Y16.3800 
G01 X23.7500 Y15.6464 
G01 X23.7500 Y15.4018 
G01 X23.7458 Y15.4001 
G01 X23.6129 Y15.3113 
G01 X23.4999 Y15.1983 
G01 X23.4111 Y15.0654 
G01 X23.3500 Y14.9178 
G01 X23.3188 Y14.7611 
G01 X23.3188 Y13.1789 
G01 X23.3500 Y13.0222 
G01 X23.4111 Y12.8746 
G01 X23.4999 Y12.7417 
G01 X23.6129 Y12.6287 
G01 X23.7458 Y12.5399 
G01 X23.8934 Y12.4788 
G01 X24.0501 Y12.4476 
G01 X24.2099 Y12.4476 
G01 X24.3666 Y12.4788 
G01 X24.5142 Y12.5399 
G01 X24.6471 Y12.6287 
G01 X24.7601 Y12.7417 
G01 X24.8489 Y12.8746 
G01 X24.9100 Y13.0222 
G01 X24.9412 Y13.1789 
G00 Z2.0000 
G00 X27.4812 Y13.1789 
G01 Z-0.0250 F254.00 
G01 X27.4812 Y14.7611 F508.00 
G01 X27.4500 Y14.9178 
G01 X27.3889 Y15.0654 
G01 X27.3001 Y15.1983 
G01 X27.1871 Y15.3113 
G01 X27.0542 Y15.4001 
G01 X26.9066 Y15.4612 
G01 X26.7500 Y15.4924 
G01 X26.7500 Y15.7997 
G01 X26.7119 Y15.8916 
G01 X26.6416 Y15.9619 
G01 X26.1000 Y16.5036 
G01 X26.1000 Y17.2999 
G01 X26.0848 Y17.3366 
G01 X26.0566 Y17.3648 
G01 X26.0199 Y17.3800 
G01 X24.7801 Y17.3800 
G01 X24.7434 Y17.3648 
G01 X24.7152 Y17.3366 
G01 X24.7000 Y17.2999 
G01 X24.7000 Y16.4601 
G01 X24.7152 Y16.4234 
G01 X24.7434 Y16.3952 
G01 X24.7801 Y16.3800 
G01 X25.5164 Y16.3800 
G01 X26.2500 Y15.6464 
G01 X26.2500 Y15.3762 
G01 X26.1529 Y15.3113 
G01 X26.0399 Y15.1983 
G01 X25.9511 Y15.0654 
G01 X25.8900 Y14.9178 
G01 X25.8588 Y14.7611 
G01 X25.8588 Y13.1789 
G01 X25.8900 Y13.0222 
G01 X25.9511 Y12.8746 
G01 X26.0399 Y12.7417 
G01 X26.1529 Y12.6287 
G01 X26.2858 Y12.5399 
G01 X26.4334 Y12.4788 
G01 X26.5901 Y12.4476 
G01 X26.7499 Y12.4476 
G01 X26.9066 Y12.4788 
G01 X27.0542 Y12.5399 
G01 X27.1871 Y12.6287 
G01 X27.3001 Y12.7417 
G01 X27.3889 Y12.8746 
G01 X27.4500 Y13.0222 
G01 X27.4812 Y13.1789 
G00 Z2.0000 
G00 X24.6015 Y59.7841 
G01 Z-0.0250 F254.00 
G01 X24.6015 Y57.0559 F508.00 
G01 X24.6349 Y56.8449 
G01 X24.7009 Y56.6417 
G01 X24.7979 Y56.4513 
G01 X24.9235 Y56.2785 
G01 X25.0746 Y56.1274 
G01 X25.2474 Y56.0018 
G01 X25.4378 Y55.9048 
G01 X25.6410 Y55.8388 
G01 X25.8520 Y55.8054 
G01 X26.0656 Y55.8054 
G01 X26.2766 Y55.8388 
G01 X26.4798 Y55.9048 
G01 X26.6702 Y56.0018 
G01 X26.8430 Y56.1274 
G01 X26.9941 Y56.2785 
G01 X27.1197 Y56.4513 
G01 X27.2167 Y56.6417 
G01 X27.2827 Y56.8449 
G01 X27.3161 Y57.0559 
G01 X27.3161 Y59.7841 
G01 X27.2827 Y59.9951 
G01 X27.2167 Y60.1983 
G01 X27.1197 Y60.3887 
G01 X26.9941 Y60.5615 
G01 X26.8430 Y60.7126 
G01 X26.6702 Y60.8382 
G01 X26.4798 Y60.9352 
G01 X26.2766 Y61.0012 
G01 X26.0656 Y61.0346 
G01 X25.8520 Y61.0346 
G01 X25.6410 Y61.0012 
G01 X25.4378 Y60.9352 
G01 X25.2474 Y60.8382 
G01 X25.0746 Y60.7126 
G01 X24.9235 Y60.5615 
G01 X24.7979 Y60.3887 
G01 X24.7009 Y60.1983 
G01 X24.6349 Y59.9951 
G01 X24.6015 Y59.7841 
G00 Z2.0000 
G00 X28.5639 Y59.7841 
G01 Z-0.0250 F254.00 
G01 X28.5639 Y57.0559 F508.00 
G01 X28.5973 Y56.8449 
G01 X28.6633 Y56.6417 
G01 X28.7603 Y56.4513 
G01 X28.8859 Y56.2785 
G01 X29.0370 Y56.1274 
G01 X29.2098 Y56.0018 
G01 X29.4002 Y55.9048 
G01 X29.6034 Y55.8388 
G01 X29.8144 Y55.8054 
G01 X30.0280 Y55.8054 
G01 X30.2390 Y55.8388 
G01 X30.4422 Y55.9048 
G01 X30.6326 Y56.0018 
G01 X30.8054 Y56.1274 
G01 X30.9565 Y56.2785 
G01 X31.0821 Y56.4513 
G01 X31.1791 Y56.6417 
G01 X31.1976 Y56.6988 
G01 X35.2500 Y52.6464 
G01 X35.2500 Y48.3536 
G01 X32.7881 Y45.8916 
G01 X32.7500 Y45.7997 
G01 X32.7500 Y36.6036 
G01 X30.5664 Y34.4200 
G01 X29.8601 Y34.4200 
G01 X29.8234 Y34.4048 
G01 X29.7952 Y34.3766 
G01 X29.7800 Y34.3399 
G01 X29.7800 Y33.5001 
G01 X29.7952 Y33.4634 
G01 X29.8234 Y33.4352 
G01 X29.8601 Y33.4200 
G01 X31.0999 Y33.4200 
G01 X31.1366 Y33.4352 
G01 X31.1648 Y33.4634 
G01 X31.1800 Y33.5001 
G01 X31.1800 Y34.3264 
G01 X33.1416 Y36.2881 
G01 X33.2119 Y36.3584 
G01 X33.2500 Y36.4503 
G01 X33.2500 Y45.6464 
G01 X35.6416 Y48.0381 
G01 X35.7119 Y48.1084 
G01 X36.3539 Y48.7503 
G01 X36.3976 Y48.7211 
G01 X36.5637 Y48.6523 
G01 X36.7401 Y48.6172 
G01 X36.9199 Y48.6172 
G01 X37.0963 Y48.6523 
G01 X37.2624 Y48.7211 
G01 X37.4119 Y48.8210 
G01 X37.5390 Y48.9481 
G01 X37.6389 Y49.0976 
G01 X37.7020 Y49.2500 
G01 X41.4952 Y49.2500 
G01 X41.5583 Y49.0976 
G01 X41.6582 Y48.9481 
G01 X41.7853 Y48.8210 
G01 X41.9348 Y48.7211 
G01 X42.1009 Y48.6523 
G01 X42.2773 Y48.6172 
G01 X44.0827 Y48.6172 
G01 X44.2591 Y48.6523 
G01 X44.4252 Y48.7211 
G01 X44.5747 Y48.8210 
G01 X44.7018 Y48.9481 
G01 X44.8017 Y49.0976 
G01 X44.8705 Y49.2637 
G01 X44.9056 Y49.4401 
G01 X44.9056 Y49.6199 
G01 X44.8705 Y49.7963 
G01 X44.8017 Y49.9624 
G01 X44.7018 Y50.1119 
G01 X44.5747 Y50.2390 
G01 X44.4252 Y50.3389 
G01 X44.2591 Y50.4077 
G01 X44.0827 Y50.4428 
G01 X42.2773 Y50.4428 
G01 X42.1009 Y50.4077 
G01 X41.9348 Y50.3389 
G01 X41.7853 Y50.2390 
G01 X41.6582 Y50.1119 
G01 X41.5583 Y49.9624 
G01 X41.4895 Y49.7963 
G01 X41.4803 Y49.7500 
G01 X37.7169 Y49.7500 
G01 X37.7077 Y49.7963 
G01 X37.6389 Y49.9624 
G01 X37.5390 Y50.1119 
G01 X37.4119 Y50.2390 
G01 X37.2624 Y50.3389 
G01 X37.0963 Y50.4077 
G01 X36.9199 Y50.4428 
G01 X36.7401 Y50.4428 
G01 X36.5637 Y50.4077 
G01 X36.3976 Y50.3389 
G01 X36.2481 Y50.2390 
G01 X36.1210 Y50.1119 
G01 X36.0211 Y49.9624 
G01 X35.9523 Y49.7963 
G01 X35.9172 Y49.6199 
G01 X35.9172 Y49.4401 
G01 X35.9523 Y49.2637 
G01 X36.0132 Y49.1167 
G01 X35.7500 Y48.8535 
G01 X35.7500 Y52.7997 
G01 X35.7119 Y52.8916 
G01 X35.6416 Y52.9619 
G01 X31.2785 Y57.3251 
G01 X31.2785 Y59.7841 
G01 X31.2451 Y59.9951 
G01 X31.1791 Y60.1983 
G01 X31.0821 Y60.3887 
G01 X30.9565 Y60.5615 
G01 X30.8054 Y60.7126 
G01 X30.6326 Y60.8382 
G01 X30.4422 Y60.9352 
G01 X30.2390 Y61.0012 
G01 X30.0280 Y61.0346 
G01 X29.8144 Y61.0346 
G01 X29.6034 Y61.0012 
G01 X29.4002 Y60.9352 
G01 X29.2098 Y60.8382 
G01 X29.0370 Y60.7126 
G01 X28.8859 Y60.5615 
G01 X28.7603 Y60.3887 
G01 X28.6633 Y60.1983 
G01 X28.5973 Y59.9951 
G01 X28.5639 Y59.7841 
G00 Z2.0000 
G00 X11.0728 Y41.0073 
G01 Z-0.0250 F254.00 
G01 X11.0728 Y42.8127 F508.00 
G01 X11.0377 Y42.9891 
G01 X10.9689 Y43.1552 
G01 X10.8690 Y43.3047 
G01 X10.7419 Y43.4318 
G01 X10.5924 Y43.5317 
G01 X10.4263 Y43.6005 
G01 X10.2499 Y43.6356 
G01 X10.0701 Y43.6356 
G01 X9.8937 Y43.6005 
G01 X9.7276 Y43.5317 
G01 X9.5781 Y43.4318 
G01 X9.4510 Y43.3047 
G01 X9.3511 Y43.1552 
G01 X9.2823 Y42.9891 
G01 X9.2472 Y42.8127 
G01 X9.2472 Y41.0073 
G01 X9.2823 Y40.8309 
G01 X9.3511 Y40.6648 
G01 X9.4510 Y40.5153 
G01 X9.5781 Y40.3882 
G01 X9.7276 Y40.2883 
G01 X9.7500 Y40.2790 
G01 X9.7500 Y39.6036 
G01 X2.7664 Y32.6200 
G01 X2.4836 Y32.6200 
G01 X1.7119 Y33.3916 
G01 X1.6416 Y33.4619 
G01 X1.0000 Y34.1036 
G01 X1.0000 Y42.1464 
G01 X2.3836 Y43.5300 
G01 X3.1599 Y43.5300 
G01 X3.1966 Y43.5452 
G01 X3.2248 Y43.5734 
G01 X3.2400 Y43.6101 
G01 X3.2400 Y44.8499 
G01 X3.2248 Y44.8866 
G01 X3.1966 Y44.9148 
G01 X3.1599 Y44.9300 
G01 X2.1736 Y44.9300 
G01 X2.0000 Y45.1036 
G01 X2.0000 Y47.5600 
G01 X2.0599 Y47.5600 
G01 X2.0966 Y47.5752 
G01 X2.1248 Y47.6034 
G01 X2.1400 Y47.6401 
G01 X2.1400 Y48.8799 
G01 X2.1248 Y48.9166 
G01 X2.0966 Y48.9448 
G01 X2.0599 Y48.9600 
G01 X1.2201 Y48.9600 
G01 X1.1834 Y48.9448 
G01 X1.1552 Y48.9166 
G01 X1.1400 Y48.8799 
G01 X1.1400 Y47.6401 
G01 X1.1552 Y47.6034 
G01 X1.1834 Y47.5752 
G01 X1.2201 Y47.5600 
G01 X1.5000 Y47.5600 
G01 X1.5000 Y44.9503 
G01 X1.5381 Y44.8584 
G01 X1.6084 Y44.7881 
G01 X1.8400 Y44.5564 
G01 X1.8400 Y43.6936 
G01 X0.6084 Y42.4619 
G01 X0.5381 Y42.3916 
G01 X0.5000 Y42.2997 
G01 X0.5000 Y33.9503 
G01 X0.5381 Y33.8584 
G01 X1.2500 Y33.1464 
G01 X1.2500 Y8.7003 
G01 X1.2881 Y8.6084 
G01 X1.3584 Y8.5381 
G01 X2.9988 Y6.8976 
G01 X2.9988 Y5.5589 
G01 X3.0300 Y5.4022 
G01 X3.0911 Y5.2546 
G01 X3.1799 Y5.1217 
G01 X3.2929 Y5.0087 
G01 X3.4258 Y4.9199 
G01 X3.5734 Y4.8588 
G01 X3.7301 Y4.8276 
G01 X3.8899 Y4.8276 
G01 X4.0466 Y4.8588 
G01 X4.1942 Y4.9199 
G01 X4.3271 Y5.0087 
G01 X4.4401 Y5.1217 
G01 X4.5289 Y5.2546 
G01 X4.5900 Y5.4022 
G01 X4.6212 Y5.5589 
G01 X4.6212 Y6.2500 
G01 X5.5388 Y6.2500 
G01 X5.5388 Y5.5589 
G01 X5.5700 Y5.4022 
G01 X5.6311 Y5.2546 
G01 X5.7199 Y5.1217 
G01 X5.8329 Y5.0087 
G01 X5.9657 Y4.9199 
G01 X6.1134 Y4.8588 
G01 X6.2701 Y4.8276 
G01 X6.4299 Y4.8276 
G01 X6.5866 Y4.8588 
G01 X6.7342 Y4.9199 
G01 X6.8671 Y5.0087 
G01 X6.9801 Y5.1217 
G01 X7.0689 Y5.2546 
G01 X7.1300 Y5.4022 
G01 X7.1612 Y5.5589 
G01 X7.1612 Y6.2500 
G01 X8.0788 Y6.2500 
G01 X8.0788 Y5.5589 
G01 X8.1100 Y5.4022 
G01 X8.1711 Y5.2546 
G01 X8.2599 Y5.1217 
G01 X8.3729 Y5.0087 
G01 X8.5058 Y4.9199 
G01 X8.6534 Y4.8588 
G01 X8.8101 Y4.8276 
G01 X8.9699 Y4.8276 
G01 X9.1266 Y4.8588 
G01 X9.2742 Y4.9199 
G01 X9.4071 Y5.0087 
G01 X9.5201 Y5.1217 
G01 X9.6089 Y5.2546 
G01 X9.6700 Y5.4022 
G01 X9.7012 Y5.5589 
G01 X9.7012 Y6.2500 
G01 X10.6188 Y6.2500 
G01 X10.6188 Y5.5589 
G01 X10.6500 Y5.4022 
G01 X10.7111 Y5.2546 
G01 X10.7999 Y5.1217 
G01 X10.9129 Y5.0087 
G01 X11.0457 Y4.9199 
G01 X11.1934 Y4.8588 
G01 X11.3501 Y4.8276 
G01 X11.5099 Y4.8276 
G01 X11.6666 Y4.8588 
G01 X11.8142 Y4.9199 
G01 X11.9471 Y5.0087 
G01 X12.0601 Y5.1217 
G01 X12.1489 Y5.2546 
G01 X12.2100 Y5.4022 
G01 X12.2412 Y5.5589 
G01 X12.2412 Y6.2500 
G01 X13.1588 Y6.2500 
G01 X13.1588 Y5.5589 
G01 X13.1900 Y5.4022 
G01 X13.2511 Y5.2546 
G01 X13.3399 Y5.1217 
G01 X13.4529 Y5.0087 
G01 X13.5858 Y4.9199 
G01 X13.7334 Y4.8588 
G01 X13.8901 Y4.8276 
G01 X14.0499 Y4.8276 
G01 X14.2066 Y4.8588 
G01 X14.3542 Y4.9199 
G01 X14.4871 Y5.0087 
G01 X14.6001 Y5.1217 
G01 X14.6889 Y5.2546 
G01 X14.7500 Y5.4022 
G01 X14.7812 Y5.5589 
G01 X14.7812 Y6.2500 
G01 X15.6988 Y6.2500 
G01 X15.6988 Y5.5589 
G01 X15.7300 Y5.4022 
G01 X15.7911 Y5.2546 
G01 X15.8799 Y5.1217 
G01 X15.9929 Y5.0087 
G01 X16.1258 Y4.9199 
G01 X16.2734 Y4.8588 
G01 X16.4301 Y4.8276 
G01 X16.5899 Y4.8276 
G01 X16.7466 Y4.8588 
G01 X16.8942 Y4.9199 
G01 X17.0271 Y5.0087 
G01 X17.1401 Y5.1217 
G01 X17.2289 Y5.2546 
G01 X17.2900 Y5.4022 
G01 X17.3212 Y5.5589 
G01 X17.3212 Y6.2500 
G01 X18.2388 Y6.2500 
G01 X18.2388 Y5.5589 
G01 X18.2700 Y5.4022 
G01 X18.3311 Y5.2546 
G01 X18.4199 Y5.1217 
G01 X18.5329 Y5.0087 
G01 X18.6657 Y4.9199 
G01 X18.8134 Y4.8588 
G01 X18.9701 Y4.8276 
G01 X19.1299 Y4.8276 
G01 X19.2866 Y4.8588 
G01 X19.4342 Y4.9199 
G01 X19.5671 Y5.0087 
G01 X19.6801 Y5.1217 
G01 X19.7689 Y5.2546 
G01 X19.8300 Y5.4022 
G01 X19.8612 Y5.5589 
G01 X19.8612 Y6.2500 
G01 X20.7788 Y6.2500 
G01 X20.7788 Y5.5589 
G01 X20.8100 Y5.4022 
G01 X20.8711 Y5.2546 
G01 X20.9599 Y5.1217 
G01 X21.0729 Y5.0087 
G01 X21.2058 Y4.9199 
G01 X21.3534 Y4.8588 
G01 X21.5101 Y4.8276 
G01 X21.6699 Y4.8276 
G01 X21.8266 Y4.8588 
G01 X21.9742 Y4.9199 
G01 X22.1071 Y5.0087 
G01 X22.2201 Y5.1217 
G01 X22.3089 Y5.2546 
G01 X22.3700 Y5.4022 
G01 X22.4012 Y5.5589 
G01 X22.4012 Y6.2500 
G01 X23.3188 Y6.2500 
G01 X23.3188 Y5.5589 
G01 X23.3500 Y5.4022 
G01 X23.4111 Y5.2546 
G01 X23.4999 Y5.1217 
G01 X23.6129 Y5.0087 
G01 X23.7458 Y4.9199 
G01 X23.8934 Y4.8588 
G01 X24.0501 Y4.8276 
G01 X24.2099 Y4.8276 
G01 X24.3666 Y4.8588 
G01 X24.5142 Y4.9199 
G01 X24.6471 Y5.0087 
G01 X24.7601 Y5.1217 
G01 X24.8489 Y5.2546 
G01 X24.9100 Y5.4022 
G01 X24.9412 Y5.5589 
G01 X24.9412 Y6.2500 
G01 X25.8588 Y6.2500 
G01 X25.8588 Y5.5589 
G01 X25.8900 Y5.4022 
G01 X25.9511 Y5.2546 
G01 X26.0399 Y5.1217 
G01 X26.1529 Y5.0087 
G01 X26.2858 Y4.9199 
G01 X26.4334 Y4.8588 
G01 X26.5901 Y4.8276 
G01 X26.7499 Y4.8276 
G01 X26.9066 Y4.8588 
G01 X27.0542 Y4.9199 
G01 X27.1871 Y5.0087 
G01 X27.3001 Y5.1217 
G01 X27.3889 Y5.2546 
G01 X27.4500 Y5.4022 
G01 X27.4812 Y5.5589 
G01 X27.4812 Y7.1411 
G01 X27.4500 Y7.2978 
G01 X27.3889 Y7.4454 
G01 X27.3001 Y7.5783 
G01 X27.1871 Y7.6913 
G01 X27.0542 Y7.7801 
G01 X27.0000 Y7.8025 
G01 X27.0000 Y11.6464 
G01 X31.5836 Y16.2300 
G01 X32.6399 Y16.2300 
G01 X32.6766 Y16.2452 
G01 X32.7048 Y16.2734 
G01 X32.7200 Y16.3101 
G01 X32.7200 Y17.3499 
G01 X32.7048 Y17.3866 
G01 X32.6766 Y17.4148 
G01 X32.6399 Y17.4300 
G01 X31.2001 Y17.4300 
G01 X31.1634 Y17.4148 
G01 X31.1352 Y17.3866 
G01 X31.1200 Y17.3499 
G01 X31.1200 Y16.4736 
G01 X26.6084 Y11.9619 
G01 X26.5381 Y11.8916 
G01 X26.5000 Y11.7997 
G01 X26.5000 Y7.8545 
G01 X26.4334 Y7.8412 
G01 X26.2858 Y7.7801 
G01 X26.1529 Y7.6913 
G01 X26.0399 Y7.5783 
G01 X25.9511 Y7.4454 
G01 X25.8900 Y7.2978 
G01 X25.8588 Y7.1411 
G01 X25.8588 Y6.7500 
G01 X24.9412 Y6.7500 
G01 X24.9412 Y7.1411 
G01 X24.9100 Y7.2978 
G01 X24.8489 Y7.4454 
G01 X24.7601 Y7.5783 
G01 X24.6471 Y7.6913 
G01 X24.5142 Y7.7801 
G01 X24.3666 Y7.8412 
G01 X24.2099 Y7.8724 
G01 X24.0501 Y7.8724 
G01 X23.8934 Y7.8412 
G01 X23.7458 Y7.7801 
G01 X23.6129 Y7.6913 
G01 X23.4999 Y7.5783 
G01 X23.4111 Y7.4454 
G01 X23.3500 Y7.2978 
G01 X23.3188 Y7.1411 
G01 X23.3188 Y6.7500 
G01 X22.4012 Y6.7500 
G01 X22.4012 Y7.1411 
G01 X22.3700 Y7.2978 
G01 X22.3089 Y7.4454 
G01 X22.2201 Y7.5783 
G01 X22.1071 Y7.6913 
G01 X21.9742 Y7.7801 
G01 X21.8266 Y7.8412 
G01 X21.6699 Y7.8724 
G01 X21.5101 Y7.8724 
G01 X21.3534 Y7.8412 
G01 X21.2058 Y7.7801 
G01 X21.0729 Y7.6913 
G01 X20.9599 Y7.5783 
G01 X20.8711 Y7.4454 
G01 X20.8100 Y7.2978 
G01 X20.7788 Y7.1411 
G01 X20.7788 Y6.7500 
G01 X19.8612 Y6.7500 
G01 X19.8612 Y7.1411 
G01 X19.8300 Y7.2978 
G01 X19.7689 Y7.4454 
G01 X19.6801 Y7.5783 
G01 X19.5671 Y7.6913 
G01 X19.4342 Y7.7801 
G01 X19.2866 Y7.8412 
G01 X19.1299 Y7.8724 
G01 X18.9701 Y7.8724 
G01 X18.8134 Y7.8412 
G01 X18.6657 Y7.7801 
G01 X18.5329 Y7.6913 
G01 X18.4199 Y7.5783 
G01 X18.3311 Y7.4454 
G01 X18.2700 Y7.2978 
G01 X18.2388 Y7.1411 
G01 X18.2388 Y6.7500 
G01 X17.3212 Y6.7500 
G01 X17.3212 Y7.1411 
G01 X17.2900 Y7.2978 
G01 X17.2289 Y7.4454 
G01 X17.1401 Y7.5783 
G01 X17.0271 Y7.6913 
G01 X16.8942 Y7.7801 
G01 X16.7466 Y7.8412 
G01 X16.5899 Y7.8724 
G01 X16.4301 Y7.8724 
G01 X16.2734 Y7.8412 
G01 X16.1258 Y7.7801 
G01 X15.9929 Y7.6913 
G01 X15.8799 Y7.5783 
G01 X15.7911 Y7.4454 
G01 X15.7300 Y7.2978 
G01 X15.6988 Y7.1411 
G01 X15.6988 Y6.7500 
G01 X14.7812 Y6.7500 
G01 X14.7812 Y7.1411 
G01 X14.7500 Y7.2978 
G01 X14.6889 Y7.4454 
G01 X14.6001 Y7.5783 
G01 X14.4871 Y7.6913 
G01 X14.3542 Y7.7801 
G01 X14.2066 Y7.8412 
G01 X14.0499 Y7.8724 
G01 X13.8901 Y7.8724 
G01 X13.7334 Y7.8412 
G01 X13.5858 Y7.7801 
G01 X13.4529 Y7.6913 
G01 X13.3399 Y7.5783 
G01 X13.2511 Y7.4454 
G01 X13.1900 Y7.2978 
G01 X13.1588 Y7.1411 
G01 X13.1588 Y6.7500 
G01 X12.2412 Y6.7500 
G01 X12.2412 Y7.1411 
G01 X12.2100 Y7.2978 
G01 X12.1489 Y7.4454 
G01 X12.0601 Y7.5783 
G01 X11.9471 Y7.6913 
G01 X11.8142 Y7.7801 
G01 X11.6666 Y7.8412 
G01 X11.5099 Y7.8724 
G01 X11.3501 Y7.8724 
G01 X11.1934 Y7.8412 
G01 X11.0457 Y7.7801 
G01 X10.9129 Y7.6913 
G01 X10.7999 Y7.5783 
G01 X10.7111 Y7.4454 
G01 X10.6500 Y7.2978 
G01 X10.6188 Y7.1411 
G01 X10.6188 Y6.7500 
G01 X9.7012 Y6.7500 
G01 X9.7012 Y7.1411 
G01 X9.6700 Y7.2978 
G01 X9.6089 Y7.4454 
G01 X9.5201 Y7.5783 
G01 X9.4071 Y7.6913 
G01 X9.2742 Y7.7801 
G01 X9.1266 Y7.8412 
G01 X8.9699 Y7.8724 
G01 X8.8101 Y7.8724 
G01 X8.6534 Y7.8412 
G01 X8.5058 Y7.7801 
G01 X8.3729 Y7.6913 
G01 X8.2599 Y7.5783 
G01 X8.1711 Y7.4454 
G01 X8.1100 Y7.2978 
G01 X8.0788 Y7.1411 
G01 X8.0788 Y6.7500 
G01 X7.1612 Y6.7500 
G01 X7.1612 Y7.1411 
G01 X7.1300 Y7.2978 
G01 X7.0689 Y7.4454 
G01 X6.9801 Y7.5783 
G01 X6.8671 Y7.6913 
G01 X6.7342 Y7.7801 
G01 X6.5866 Y7.8412 
G01 X6.4299 Y7.8724 
G01 X6.2701 Y7.8724 
G01 X6.1134 Y7.8412 
G01 X5.9657 Y7.7801 
G01 X5.8329 Y7.6913 
G01 X5.7199 Y7.5783 
G01 X5.6311 Y7.4454 
G01 X5.5700 Y7.2978 
G01 X5.5388 Y7.1411 
G01 X5.5388 Y6.7500 
G01 X4.6212 Y6.7500 
G01 X4.6212 Y7.1411 
G01 X4.5900 Y7.2978 
G01 X4.5289 Y7.4454 
G01 X4.4401 Y7.5783 
G01 X4.3271 Y7.6913 
G01 X4.1942 Y7.7801 
G01 X4.0466 Y7.8412 
G01 X3.8899 Y7.8724 
G01 X3.7301 Y7.8724 
G01 X3.5734 Y7.8412 
G01 X3.4258 Y7.7801 
G01 X3.2929 Y7.6913 
G01 X3.1799 Y7.5783 
G01 X3.1180 Y7.4856 
G01 X1.7500 Y8.8536 
G01 X1.7500 Y32.6465 
G01 X1.8449 Y32.5516 
G01 X1.8400 Y32.5399 
G01 X1.8400 Y31.7001 
G01 X1.8552 Y31.6634 
G01 X1.8834 Y31.6352 
G01 X1.9201 Y31.6200 
G01 X3.1599 Y31.6200 
G01 X3.1966 Y31.6352 
G01 X3.2248 Y31.6634 
G01 X3.2400 Y31.7001 
G01 X3.2400 Y32.3864 
G01 X10.1416 Y39.2881 
G01 X10.2119 Y39.3584 
G01 X10.2500 Y39.4503 
G01 X10.2500 Y40.1844 
G01 X10.4263 Y40.2195 
G01 X10.5924 Y40.2883 
G01 X10.7419 Y40.3882 
G01 X10.8690 Y40.5153 
G01 X10.9689 Y40.6648 
G01 X11.0377 Y40.8309 
G01 X11.0728 Y41.0073 
G00 Z2.0000 
G00 X13.6128 Y41.0073 
G01 Z-0.0250 F254.00 
G01 X13.6128 Y42.8127 F508.00 
G01 X13.5777 Y42.9891 
G01 X13.5089 Y43.1552 
G01 X13.4090 Y43.3047 
G01 X13.2819 Y43.4318 
G01 X13.1324 Y43.5317 
G01 X13.0000 Y43.5865 
G01 X13.0000 Y46.5600 
G01 X13.5599 Y46.5600 
G01 X13.5966 Y46.5752 
G01 X13.6248 Y46.6034 
G01 X13.6400 Y46.6401 
G01 X13.6400 Y49.8799 
G01 X13.6248 Y49.9166 
G01 X13.5966 Y49.9448 
G01 X13.5599 Y49.9600 
G01 X11.7401 Y49.9600 
G01 X11.7034 Y49.9448 
G01 X11.6752 Y49.9166 
G01 X11.6600 Y49.8799 
G01 X11.6600 Y46.6401 
G01 X11.6752 Y46.6034 
G01 X11.7034 Y46.5752 
G01 X11.7401 Y46.5600 
G01 X12.5000 Y46.5600 
G01 X12.5000 Y43.6137 
G01 X12.4337 Y43.6005 
G01 X12.2676 Y43.5317 
G01 X12.1181 Y43.4318 
G01 X11.9910 Y43.3047 
G01 X11.8911 Y43.1552 
G01 X11.8223 Y42.9891 
G01 X11.7872 Y42.8127 
G01 X11.7872 Y41.0073 
G01 X11.8223 Y40.8309 
G01 X11.8911 Y40.6648 
G01 X11.9910 Y40.5153 
G01 X12.1181 Y40.3882 
G01 X12.2676 Y40.2883 
G01 X12.4337 Y40.2195 
G01 X12.6101 Y40.1844 
G01 X12.7899 Y40.1844 
G01 X12.9663 Y40.2195 
G01 X13.1324 Y40.2883 
G01 X13.2819 Y40.3882 
G01 X13.4090 Y40.5153 
G01 X13.5089 Y40.6648 
G01 X13.5777 Y40.8309 
G01 X13.6128 Y41.0073 
G00 Z2.0000 
G00 X3.1599 Y39.5000 
G01 Z-0.0250 F254.00 
G01 X1.9201 Y39.5000 F508.00 
G01 X1.8834 Y39.4848 
G01 X1.8552 Y39.4566 
G01 X1.8400 Y39.4199 
G01 X1.8400 Y38.5801 
G01 X1.8552 Y38.5434 
G01 X1.8834 Y38.5152 
G01 X1.9201 Y38.5000 
G01 X2.8964 Y38.5000 
G01 X3.5000 Y37.8964 
G01 X3.5000 Y35.1036 
G01 X2.8164 Y34.4200 
G01 X1.9201 Y34.4200 
G01 X1.8834 Y34.4048 
G01 X1.8552 Y34.3766 
G01 X1.8400 Y34.3399 
G01 X1.8400 Y33.5001 
G01 X1.8552 Y33.4634 
G01 X1.8834 Y33.4352 
G01 X1.9201 Y33.4200 
G01 X3.1599 Y33.4200 
G01 X3.1966 Y33.4352 
G01 X3.2248 Y33.4634 
G01 X3.2400 Y33.5001 
G01 X3.2400 Y34.1364 
G01 X3.8916 Y34.7881 
G01 X3.9619 Y34.8584 
G01 X4.0000 Y34.9503 
G01 X4.0000 Y37.8964 
G01 X6.7986 Y40.6950 
G01 X6.8111 Y40.6648 
G01 X6.9110 Y40.5153 
G01 X7.0381 Y40.3882 
G01 X7.1876 Y40.2883 
G01 X7.3537 Y40.2195 
G01 X7.5301 Y40.1844 
G01 X7.7099 Y40.1844 
G01 X7.8863 Y40.2195 
G01 X8.0524 Y40.2883 
G01 X8.2019 Y40.3882 
G01 X8.3290 Y40.5153 
G01 X8.4289 Y40.6648 
G01 X8.4977 Y40.8309 
G01 X8.5328 Y41.0073 
G01 X8.5328 Y42.6792 
G01 X9.2119 Y43.3584 
G01 X9.2500 Y43.4503 
G01 X9.2500 Y48.6464 
G01 X12.3815 Y51.7779 
G01 X12.4344 Y51.7395 
G01 X12.5803 Y51.6652 
G01 X12.7359 Y51.6146 
G01 X12.8976 Y51.5890 
G01 X13.0612 Y51.5890 
G01 X13.2229 Y51.6146 
G01 X13.3785 Y51.6652 
G01 X13.5244 Y51.7395 
G01 X13.6568 Y51.8357 
G01 X13.7725 Y51.9514 
G01 X13.8687 Y52.0838 
G01 X13.9430 Y52.2297 
G01 X13.9936 Y52.3853 
G01 X14.0192 Y52.5470 
G01 X14.0192 Y52.7106 
G01 X13.9936 Y52.8723 
G01 X13.9430 Y53.0279 
G01 X13.8687 Y53.1738 
G01 X13.7725 Y53.3062 
G01 X13.6568 Y53.4219 
G01 X13.5244 Y53.5181 
G01 X13.3785 Y53.5924 
G01 X13.2229 Y53.6430 
G01 X13.0612 Y53.6686 
G01 X12.8976 Y53.6686 
G01 X12.7359 Y53.6430 
G01 X12.5803 Y53.5924 
G01 X12.4344 Y53.5181 
G01 X12.3020 Y53.4219 
G01 X12.1863 Y53.3062 
G01 X12.0901 Y53.1738 
G01 X12.0158 Y53.0279 
G01 X11.9652 Y52.8723 
G01 X11.9396 Y52.7106 
G01 X11.9396 Y52.5470 
G01 X11.9652 Y52.3853 
G01 X12.0158 Y52.2297 
G01 X12.0530 Y52.1566 
G01 X8.8584 Y48.9619 
G01 X8.7881 Y48.8916 
G01 X8.7500 Y48.7997 
G01 X8.7500 Y43.6036 
G01 X8.3779 Y43.2315 
G01 X8.3290 Y43.3047 
G01 X8.2019 Y43.4318 
G01 X8.0524 Y43.5317 
G01 X7.8863 Y43.6005 
G01 X7.7099 Y43.6356 
G01 X7.5301 Y43.6356 
G01 X7.3537 Y43.6005 
G01 X7.1876 Y43.5317 
G01 X7.0381 Y43.4318 
G01 X6.9110 Y43.3047 
G01 X6.8111 Y43.1552 
G01 X6.7423 Y42.9891 
G01 X6.7072 Y42.8127 
G01 X6.7072 Y41.3108 
G01 X3.7500 Y38.3535 
G01 X3.2400 Y38.8636 
G01 X3.2400 Y39.4199 
G01 X3.2248 Y39.4566 
G01 X3.1966 Y39.4848 
G01 X3.1599 Y39.5000 
G00 Z2.0000 
G00 X3.1599 Y37.7000 
G01 Z-0.0250 F254.00 
G01 X2.4036 Y37.7000 F508.00 
G01 X1.7500 Y38.3536 
G01 X1.7500 Y40.8964 
G01 X2.2835 Y41.4300 
G01 X3.1599 Y41.4300 
G01 X3.1966 Y41.4452 
G01 X3.2248 Y41.4734 
G01 X3.2400 Y41.5101 
G01 X3.2400 Y42.7499 
G01 X3.2248 Y42.7866 
G01 X3.1966 Y42.8148 
G01 X3.1599 Y42.8300 
G01 X1.9201 Y42.8300 
G01 X1.8834 Y42.8148 
G01 X1.8552 Y42.7866 
G01 X1.8400 Y42.7499 
G01 X1.8400 Y41.6936 
G01 X1.2881 Y41.1416 
G01 X1.2500 Y41.0497 
G01 X1.2500 Y38.2003 
G01 X1.2881 Y38.1084 
G01 X1.3584 Y38.0381 
G01 X1.8400 Y37.5564 
G01 X1.8400 Y36.7801 
G01 X1.8552 Y36.7434 
G01 X1.8834 Y36.7152 
G01 X1.9201 Y36.7000 
G01 X3.1599 Y36.7000 
G01 X3.1966 Y36.7152 
G01 X3.2248 Y36.7434 
G01 X3.2400 Y36.7801 
G01 X3.2400 Y37.6199 
G01 X3.2248 Y37.6566 
G01 X3.1966 Y37.6848 
G01 X3.1599 Y37.7000 
G00 Z2.0000 
G00 X3.9400 Y47.6401 
G01 Z-0.0250 F254.00 
G01 X3.9400 Y48.0000 F508.00 
G01 X6.6800 Y48.0000 
G01 X6.6800 Y46.6401 
G01 X6.6952 Y46.6034 
G01 X6.7234 Y46.5752 
G01 X6.7601 Y46.5600 
G01 X8.5799 Y46.5600 
G01 X8.6166 Y46.5752 
G01 X8.6448 Y46.6034 
G01 X8.6600 Y46.6401 
G01 X8.6600 Y49.8799 
G01 X8.6448 Y49.9166 
G01 X8.6166 Y49.9448 
G01 X8.5799 Y49.9600 
G01 X7.7500 Y49.9600 
G01 X7.7500 Y52.5050 
G01 X7.8849 Y52.5050 
G01 X7.9216 Y52.5202 
G01 X7.9498 Y52.5484 
G01 X7.9650 Y52.5851 
G01 X7.9650 Y54.0949 
G01 X7.9498 Y54.1316 
G01 X7.9216 Y54.1598 
G01 X7.8849 Y54.1750 
G01 X6.5751 Y54.1750 
G01 X6.5384 Y54.1598 
G01 X6.5102 Y54.1316 
G01 X6.4950 Y54.0949 
G01 X6.4950 Y52.5851 
G01 X6.5102 Y52.5484 
G01 X6.5384 Y52.5202 
G01 X6.5751 Y52.5050 
G01 X7.2500 Y52.5050 
G01 X7.2500 Y49.9600 
G01 X6.7601 Y49.9600 
G01 X6.7234 Y49.9448 
G01 X6.6952 Y49.9166 
G01 X6.6800 Y49.8799 
G01 X6.6800 Y48.5000 
G01 X3.9400 Y48.5000 
G01 X3.9400 Y48.8799 
G01 X3.9248 Y48.9166 
G01 X3.8966 Y48.9448 
G01 X3.8599 Y48.9600 
G01 X3.0201 Y48.9600 
G01 X2.9834 Y48.9448 
G01 X2.9552 Y48.9166 
G01 X2.9400 Y48.8799 
G01 X2.9400 Y47.6401 
G01 X2.9552 Y47.6034 
G01 X2.9834 Y47.5752 
G01 X3.0201 Y47.5600 
G01 X3.8599 Y47.5600 
G01 X3.8966 Y47.5752 
G01 X3.9248 Y47.6034 
G01 X3.9400 Y47.6401 
G00 Z2.0000 
G00 X7.9264 Y59.3785 
G01 Z-0.0250 F254.00 
G01 X7.9264 Y57.4615 F508.00 
G01 X7.9634 Y57.2753 
G01 X8.0361 Y57.1000 
G01 X8.1415 Y56.9421 
G01 X8.2757 Y56.8079 
G01 X8.4336 Y56.7025 
G01 X8.6089 Y56.6298 
G01 X8.7951 Y56.5928 
G01 X8.9849 Y56.5928 
G01 X9.1711 Y56.6298 
G01 X9.3464 Y56.7025 
G01 X9.5043 Y56.8079 
G01 X9.6385 Y56.9421 
G01 X9.7439 Y57.1000 
G01 X9.8166 Y57.2753 
G01 X9.8536 Y57.4615 
G01 X9.8536 Y59.3785 
G01 X9.8166 Y59.5647 
G01 X9.7439 Y59.7400 
G01 X9.6385 Y59.8979 
G01 X9.5043 Y60.0321 
G01 X9.3464 Y60.1375 
G01 X9.1711 Y60.2102 
G01 X8.9849 Y60.2472 
G01 X8.7951 Y60.2472 
G01 X8.6089 Y60.2102 
G01 X8.4336 Y60.1375 
G01 X8.2757 Y60.0321 
G01 X8.1415 Y59.8979 
G01 X8.0361 Y59.7400 
G01 X7.9634 Y59.5647 
G01 X7.9264 Y59.3785 
G00 Z2.0000 
G00 X4.1164 Y59.3785 
G01 Z-0.0250 F254.00 
G01 X4.1164 Y57.4615 F508.00 
G01 X4.1534 Y57.2753 
G01 X4.2261 Y57.1000 
G01 X4.3315 Y56.9421 
G01 X4.4657 Y56.8079 
G01 X4.6236 Y56.7025 
G01 X4.7989 Y56.6298 
G01 X4.9851 Y56.5928 
G01 X5.1749 Y56.5928 
G01 X5.3611 Y56.6298 
G01 X5.5364 Y56.7025 
G01 X5.6943 Y56.8079 
G01 X5.8285 Y56.9421 
G01 X5.9339 Y57.1000 
G01 X6.0066 Y57.2753 
G01 X6.0436 Y57.4615 
G01 X6.0436 Y59.3785 
G01 X6.0066 Y59.5647 
G01 X5.9339 Y59.7400 
G01 X5.8285 Y59.8979 
G01 X5.6943 Y60.0321 
G01 X5.5364 Y60.1375 
G01 X5.3611 Y60.2102 
G01 X5.1749 Y60.2472 
G01 X4.9851 Y60.2472 
G01 X4.7989 Y60.2102 
G01 X4.6236 Y60.1375 
G01 X4.4657 Y60.0321 
G01 X4.3315 Y59.8979 
G01 X4.2261 Y59.7400 
G01 X4.1534 Y59.5647 
G01 X4.1164 Y59.3785 
G00 Z2.0000 
G00 X0.3064 Y59.3785 
G01 Z-0.0250 F254.00 
G01 X0.3064 Y57.4615 F508.00 
G01 X0.3434 Y57.2753 
G01 X0.4161 Y57.1000 
G01 X0.5215 Y56.9421 
G01 X0.6557 Y56.8079 
G01 X0.8136 Y56.7025 
G01 X0.9889 Y56.6298 
G01 X1.1751 Y56.5928 
G01 X1.2500 Y56.5928 
G01 X1.2500 Y54.7003 
G01 X1.2881 Y54.6084 
G01 X1.3584 Y54.5381 
G01 X2.1950 Y53.7014 
G01 X2.1950 Y52.5851 
G01 X2.2102 Y52.5484 
G01 X2.2384 Y52.5202 
G01 X2.2751 Y52.5050 
G01 X3.5849 Y52.5050 
G01 X3.6216 Y52.5202 
G01 X3.6498 Y52.5484 
G01 X3.6650 Y52.5851 
G01 X3.6650 Y54.0949 
G01 X3.6498 Y54.1316 
G01 X3.6216 Y54.1598 
G01 X3.5849 Y54.1750 
G01 X2.4285 Y54.1750 
G01 X1.7500 Y54.8536 
G01 X1.7500 Y56.7182 
G01 X1.8843 Y56.8079 
G01 X2.0185 Y56.9421 
G01 X2.1239 Y57.1000 
G01 X2.1966 Y57.2753 
G01 X2.2336 Y57.4615 
G01 X2.2336 Y59.3785 
G01 X2.1966 Y59.5647 
G01 X2.1239 Y59.7400 
G01 X2.0185 Y59.8979 
G01 X1.8843 Y60.0321 
G01 X1.7264 Y60.1375 
G01 X1.5511 Y60.2102 
G01 X1.3649 Y60.2472 
G01 X1.1751 Y60.2472 
G01 X0.9889 Y60.2102 
G01 X0.8136 Y60.1375 
G01 X0.6557 Y60.0321 
G01 X0.5215 Y59.8979 
G01 X0.4161 Y59.7400 
G01 X0.3434 Y59.5647 
G01 X0.3064 Y59.3785 
G00 Z2.0000 
G00 X18.5404 Y59.0494 
G01 Z-0.0250 F254.00 
G01 X18.5404 Y59.2130 F508.00 
G01 X18.5148 Y59.3747 
G01 X18.4642 Y59.5303 
G01 X18.3899 Y59.6762 
G01 X18.2937 Y59.8086 
G01 X18.1780 Y59.9243 
G01 X18.0456 Y60.0205 
G01 X17.8997 Y60.0948 
G01 X17.7441 Y60.1454 
G01 X17.5824 Y60.1710 
G01 X17.4188 Y60.1710 
G01 X17.2571 Y60.1454 
G01 X17.1015 Y60.0948 
G01 X16.9556 Y60.0205 
G01 X16.8232 Y59.9243 
G01 X16.7075 Y59.8086 
G01 X16.6113 Y59.6762 
G01 X16.5370 Y59.5303 
G01 X16.4864 Y59.3747 
G01 X16.4608 Y59.2130 
G01 X16.4608 Y59.0494 
G01 X16.4864 Y58.8877 
G01 X16.5370 Y58.7321 
G01 X16.6113 Y58.5862 
G01 X16.7075 Y58.4538 
G01 X16.8232 Y58.3381 
G01 X16.9556 Y58.2419 
G01 X17.1015 Y58.1676 
G01 X17.2571 Y58.1170 
G01 X17.4188 Y58.0914 
G01 X17.5824 Y58.0914 
G01 X17.7441 Y58.1170 
G01 X17.8997 Y58.1676 
G01 X18.0456 Y58.2419 
G01 X18.1780 Y58.3381 
G01 X18.2937 Y58.4538 
G01 X18.3899 Y58.5862 
G01 X18.4642 Y58.7321 
G01 X18.5148 Y58.8877 
G01 X18.5404 Y59.0494 
G00 Z2.0000 
G00 X14.0192 Y59.0494 
G01 Z-0.0250 F254.00 
G01 X14.0192 Y59.2130 F508.00 
G01 X13.9936 Y59.3747 
G01 X13.9430 Y59.5303 
G01 X13.8687 Y59.6762 
G01 X13.7725 Y59.8086 
G01 X13.6568 Y59.9243 
G01 X13.5244 Y60.0205 
G01 X13.3785 Y60.0948 
G01 X13.2229 Y60.1454 
G01 X13.0612 Y60.1710 
G01 X12.8976 Y60.1710 
G01 X12.7359 Y60.1454 
G01 X12.5803 Y60.0948 
G01 X12.4344 Y60.0205 
G01 X12.3020 Y59.9243 
G01 X12.1863 Y59.8086 
G01 X12.0901 Y59.6762 
G01 X12.0158 Y59.5303 
G01 X11.9652 Y59.3747 
G01 X11.9396 Y59.2130 
G01 X11.9396 Y59.0494 
G01 X11.9652 Y58.8877 
G01 X12.0158 Y58.7321 
G01 X12.0901 Y58.5862 
G01 X12.1863 Y58.4538 
G01 X12.3020 Y58.3381 
G01 X12.4344 Y58.2419 
G01 X12.5803 Y58.1676 
G01 X12.7359 Y58.1170 
G01 X12.8976 Y58.0914 
G01 X13.0612 Y58.0914 
G01 X13.2229 Y58.1170 
G01 X13.3785 Y58.1676 
G01 X13.5244 Y58.2419 
G01 X13.6568 Y58.3381 
G01 X13.7725 Y58.4538 
G01 X13.8687 Y58.5862 
G01 X13.9430 Y58.7321 
G01 X13.9936 Y58.8877 
G01 X14.0192 Y59.0494 
G00 Z2.0000 
G00 X38.7199 Y19.1800 
G01 Z-0.0250 F254.00 
G01 X38.5000 Y19.1800 F508.00 
G01 X38.5000 Y27.7997 
G01 X38.4619 Y27.8916 
G01 X37.6137 Y28.7399 
G01 X37.6389 Y28.7776 
G01 X37.7077 Y28.9437 
G01 X37.7428 Y29.1201 
G01 X37.7428 Y29.2999 
G01 X37.7077 Y29.4763 
G01 X37.6389 Y29.6424 
G01 X37.5390 Y29.7919 
G01 X37.4119 Y29.9190 
G01 X37.2624 Y30.0189 
G01 X37.0963 Y30.0877 
G01 X36.9199 Y30.1228 
G01 X36.7401 Y30.1228 
G01 X36.5637 Y30.0877 
G01 X36.3976 Y30.0189 
G01 X36.2481 Y29.9190 
G01 X36.1210 Y29.7919 
G01 X36.0211 Y29.6424 
G01 X35.9523 Y29.4763 
G01 X35.9172 Y29.2999 
G01 X35.9172 Y29.1201 
G01 X35.9523 Y28.9437 
G01 X36.0211 Y28.7776 
G01 X36.1210 Y28.6281 
G01 X36.2481 Y28.5010 
G01 X36.3976 Y28.4011 
G01 X36.5637 Y28.3323 
G01 X36.7401 Y28.2972 
G01 X36.9199 Y28.2972 
G01 X37.0963 Y28.3323 
G01 X37.2503 Y28.3961 
G01 X38.0000 Y27.6464 
G01 X38.0000 Y19.1800 
G01 X37.4801 Y19.1800 
G01 X37.4434 Y19.1648 
G01 X37.4152 Y19.1366 
G01 X37.4000 Y19.0999 
G01 X37.4000 Y18.2601 
G01 X37.4152 Y18.2234 
G01 X37.4434 Y18.1952 
G01 X37.4801 Y18.1800 
G01 X38.7199 Y18.1800 
G01 X38.7566 Y18.1952 
G01 X38.7848 Y18.2234 
G01 X38.8000 Y18.2601 
G01 X38.8000 Y19.0999 
G01 X38.7848 Y19.1366 
G01 X38.7566 Y19.1648 
G01 X38.7199 Y19.1800 
G00 Z2.0000 
G00 X31.2001 Y18.1300 
G01 Z-0.0250 F254.00 
G01 X32.6399 Y18.1300 F508.00 
G01 X32.6766 Y18.1452 
G01 X32.7048 Y18.1734 
G01 X32.7200 Y18.2101 
G01 X32.7200 Y18.7500 
G01 X35.8964 Y18.7500 
G01 X37.4000 Y17.2464 
G01 X37.4000 Y16.4601 
G01 X37.4152 Y16.4234 
G01 X37.4434 Y16.3952 
G01 X37.4801 Y16.3800 
G01 X38.7199 Y16.3800 
G01 X38.7566 Y16.3952 
G01 X38.7848 Y16.4234 
G01 X38.8000 Y16.4601 
G01 X38.8000 Y17.2999 
G01 X38.7848 Y17.3366 
G01 X38.7566 Y17.3648 
G01 X38.7199 Y17.3800 
G01 X37.9736 Y17.3800 
G01 X36.1416 Y19.2119 
G01 X36.0497 Y19.2500 
G01 X32.7200 Y19.2500 
G01 X32.7048 Y19.2866 
G01 X32.6766 Y19.3148 
G01 X32.6399 Y19.3300 
G01 X31.2001 Y19.3300 
G01 X31.1634 Y19.3148 
G01 X31.1352 Y19.2866 
G01 X31.1200 Y19.2499 
G01 X31.1200 Y18.2101 
G01 X31.1352 Y18.1734 
G01 X31.1634 Y18.1452 
G01 X31.2001 Y18.1300 
G00 Z2.0000 
G00 X38.8985 Y3.7159 
G01 Z-0.0250 F254.00 
G01 X38.8985 Y6.4441 F508.00 
G01 X38.8651 Y6.6551 
G01 X38.7991 Y6.8583 
G01 X38.7021 Y7.0487 
G01 X38.5765 Y7.2215 
G01 X38.4254 Y7.3726 
G01 X38.2526 Y7.4982 
G01 X38.0622 Y7.5952 
G01 X38.0000 Y7.6154 
G01 X38.0000 Y11.8650 
G01 X38.3649 Y11.8650 
G01 X38.4016 Y11.8802 
G01 X38.4298 Y11.9084 
G01 X38.4450 Y11.9451 
G01 X38.4450 Y13.4549 
G01 X38.4298 Y13.4916 
G01 X38.4016 Y13.5198 
G01 X38.3649 Y13.5350 
G01 X37.7500 Y13.5350 
G01 X37.7500 Y14.5497 
G01 X37.7119 Y14.6416 
G01 X37.6416 Y14.7119 
G01 X34.9200 Y17.4336 
G01 X34.9200 Y18.2999 
G01 X34.9048 Y18.3366 
G01 X34.8766 Y18.3648 
G01 X34.8399 Y18.3800 
G01 X33.4001 Y18.3800 
G01 X33.3634 Y18.3648 
G01 X33.3352 Y18.3366 
G01 X33.3200 Y18.2999 
G01 X33.3200 Y17.2601 
G01 X33.3352 Y17.2234 
G01 X33.3634 Y17.1952 
G01 X33.4001 Y17.1800 
G01 X34.4664 Y17.1800 
G01 X37.2500 Y14.3964 
G01 X37.2500 Y13.5350 
G01 X37.0551 Y13.5350 
G01 X37.0184 Y13.5198 
G01 X36.9902 Y13.4916 
G01 X36.9750 Y13.4549 
G01 X36.9750 Y11.9451 
G01 X36.9902 Y11.9084 
G01 X37.0184 Y11.8802 
G01 X37.0551 Y11.8650 
G01 X37.5000 Y11.8650 
G01 X37.5000 Y7.6946 
G01 X37.4344 Y7.6946 
G01 X37.2234 Y7.6612 
G01 X37.0202 Y7.5952 
G01 X36.8298 Y7.4982 
G01 X36.6570 Y7.3726 
G01 X36.5059 Y7.2215 
G01 X36.3803 Y7.0487 
G01 X36.2833 Y6.8583 
G01 X36.2173 Y6.6551 
G01 X36.1839 Y6.4441 
G01 X36.1839 Y3.7159 
G01 X36.2173 Y3.5049 
G01 X36.2833 Y3.3017 
G01 X36.3803 Y3.1113 
G01 X36.5059 Y2.9385 
G01 X36.6570 Y2.7874 
G01 X36.8298 Y2.6618 
G01 X37.0202 Y2.5648 
G01 X37.2234 Y2.4988 
G01 X37.4344 Y2.4654 
G01 X37.6480 Y2.4654 
G01 X37.8590 Y2.4988 
G01 X38.0622 Y2.5648 
G01 X38.2526 Y2.6618 
G01 X38.4254 Y2.7874 
G01 X38.5765 Y2.9385 
G01 X38.7021 Y3.1113 
G01 X38.7991 Y3.3017 
G01 X38.8651 Y3.5049 
G01 X38.8985 Y3.7159 
G00 Z2.0000 
G00 X34.9361 Y3.7159 
G01 Z-0.0250 F254.00 
G01 X34.9361 Y6.4441 F508.00 
G01 X34.9027 Y6.6551 
G01 X34.8367 Y6.8583 
G01 X34.7397 Y7.0487 
G01 X34.6141 Y7.2215 
G01 X34.4630 Y7.3726 
G01 X34.2902 Y7.4982 
G01 X34.0998 Y7.5952 
G01 X33.8966 Y7.6612 
G01 X33.7500 Y7.6844 
G01 X33.7500 Y11.8650 
G01 X34.0649 Y11.8650 
G01 X34.1016 Y11.8802 
G01 X34.1298 Y11.9084 
G01 X34.1450 Y11.9451 
G01 X34.1450 Y13.4549 
G01 X34.1298 Y13.4916 
G01 X34.1016 Y13.5198 
G01 X34.0649 Y13.5350 
G01 X32.7551 Y13.5350 
G01 X32.7184 Y13.5198 
G01 X32.6902 Y13.4916 
G01 X32.6750 Y13.4549 
G01 X32.6750 Y11.9451 
G01 X32.6902 Y11.9084 
G01 X32.7184 Y11.8802 
G01 X32.7551 Y11.8650 
G01 X33.2500 Y11.8650 
G01 X33.2500 Y7.6576 
G01 X33.0578 Y7.5952 
G01 X32.8674 Y7.4982 
G01 X32.6946 Y7.3726 
G01 X32.5435 Y7.2215 
G01 X32.4179 Y7.0487 
G01 X32.3209 Y6.8583 
G01 X32.2549 Y6.6551 
G01 X32.2215 Y6.4441 
G01 X32.2215 Y3.7159 
G01 X32.2549 Y3.5049 
G01 X32.3209 Y3.3017 
G01 X32.4179 Y3.1113 
G01 X32.5435 Y2.9385 
G01 X32.6946 Y2.7874 
G01 X32.8674 Y2.6618 
G01 X33.0578 Y2.5648 
G01 X33.2610 Y2.4988 
G01 X33.4720 Y2.4654 
G01 X33.6856 Y2.4654 
G01 X33.8966 Y2.4988 
G01 X34.0998 Y2.5648 
G01 X34.2902 Y2.6618 
G01 X34.4630 Y2.7874 
G01 X34.6141 Y2.9385 
G01 X34.7397 Y3.1113 
G01 X34.8367 Y3.3017 
G01 X34.9027 Y3.5049 
G01 X34.9361 Y3.7159 
G00 Z2.0000 
G00 X22.5028 Y51.9801 
G01 Z-0.0250 F254.00 
G01 X22.5028 Y52.1599 F508.00 
G01 X22.4677 Y52.3363 
G01 X22.3989 Y52.5024 
G01 X22.2990 Y52.6519 
G01 X22.1719 Y52.7790 
G01 X22.0224 Y52.8789 
G01 X21.8563 Y52.9477 
G01 X21.6799 Y52.9828 
G01 X21.5001 Y52.9828 
G01 X21.3237 Y52.9477 
G01 X21.1576 Y52.8789 
G01 X21.0081 Y52.7790 
G01 X20.8810 Y52.6519 
G01 X20.7811 Y52.5024 
G01 X20.7123 Y52.3363 
G01 X20.6772 Y52.1599 
G01 X20.6772 Y51.9801 
G01 X20.7123 Y51.8037 
G01 X20.7811 Y51.6376 
G01 X20.8810 Y51.4881 
G01 X21.0081 Y51.3610 
G01 X21.1576 Y51.2611 
G01 X21.3237 Y51.1923 
G01 X21.5001 Y51.1572 
G01 X21.6799 Y51.1572 
G01 X21.8563 Y51.1923 
G01 X22.0224 Y51.2611 
G01 X22.1719 Y51.3610 
G01 X22.2990 Y51.4881 
G01 X22.3989 Y51.6376 
G01 X22.4677 Y51.8037 
G01 X22.5028 Y51.9801 
G00 Z2.0000 
G00 X22.5028 Y49.4401 
G01 Z-0.0250 F254.00 
G01 X22.5028 Y49.6199 F508.00 
G01 X22.4677 Y49.7963 
G01 X22.3989 Y49.9624 
G01 X22.2990 Y50.1119 
G01 X22.1719 Y50.2390 
G01 X22.0224 Y50.3389 
G01 X21.8563 Y50.4077 
G01 X21.6799 Y50.4428 
G01 X21.5001 Y50.4428 
G01 X21.3237 Y50.4077 
G01 X21.1576 Y50.3389 
G01 X21.0081 Y50.2390 
G01 X20.8810 Y50.1119 
G01 X20.7811 Y49.9624 
G01 X20.7123 Y49.7963 
G01 X20.6772 Y49.6199 
G01 X20.6772 Y49.4401 
G01 X20.7123 Y49.2637 
G01 X20.7811 Y49.0976 
G01 X20.8810 Y48.9481 
G01 X21.0081 Y48.8210 
G01 X21.1576 Y48.7211 
G01 X21.3237 Y48.6523 
G01 X21.5001 Y48.6172 
G01 X21.6799 Y48.6172 
G01 X21.8563 Y48.6523 
G01 X22.0224 Y48.7211 
G01 X22.1719 Y48.8210 
G01 X22.2990 Y48.9481 
G01 X22.3989 Y49.0976 
G01 X22.4677 Y49.2637 
G01 X22.5028 Y49.4401 
G00 Z2.0000 
G00 X22.5028 Y46.9001 
G01 Z-0.0250 F254.00 
G01 X22.5028 Y47.0799 F508.00 
G01 X22.4677 Y47.2563 
G01 X22.3989 Y47.4224 
G01 X22.2990 Y47.5719 
G01 X22.1719 Y47.6990 
G01 X22.0224 Y47.7989 
G01 X21.8563 Y47.8677 
G01 X21.6799 Y47.9028 
G01 X21.5001 Y47.9028 
G01 X21.3237 Y47.8677 
G01 X21.1576 Y47.7989 
G01 X21.0081 Y47.6990 
G01 X20.8810 Y47.5719 
G01 X20.7811 Y47.4224 
G01 X20.7123 Y47.2563 
G01 X20.6772 Y47.0799 
G01 X20.6772 Y46.9001 
G01 X20.7123 Y46.7237 
G01 X20.7811 Y46.5576 
G01 X20.8810 Y46.4081 
G01 X21.0081 Y46.2810 
G01 X21.1576 Y46.1811 
G01 X21.3237 Y46.1123 
G01 X21.5001 Y46.0772 
G01 X21.6799 Y46.0772 
G01 X21.8563 Y46.1123 
G01 X22.0224 Y46.1811 
G01 X22.1719 Y46.2810 
G01 X22.2990 Y46.4081 
G01 X22.3989 Y46.5576 
G01 X22.4677 Y46.7237 
G01 X22.5028 Y46.9001 
G00 Z2.0000 
G00 X22.5028 Y44.3601 
G01 Z-0.0250 F254.00 
G01 X22.5028 Y44.5399 F508.00 
G01 X22.4677 Y44.7163 
G01 X22.3989 Y44.8824 
G01 X22.2990 Y45.0319 
G01 X22.1719 Y45.1590 
G01 X22.0224 Y45.2589 
G01 X21.8563 Y45.3277 
G01 X21.6799 Y45.3628 
G01 X21.5001 Y45.3628 
G01 X21.3237 Y45.3277 
G01 X21.1576 Y45.2589 
G01 X21.0081 Y45.1590 
G01 X20.8810 Y45.0319 
G01 X20.7811 Y44.8824 
G01 X20.7123 Y44.7163 
G01 X20.6772 Y44.5399 
G01 X20.6772 Y44.3601 
G01 X20.7123 Y44.1837 
G01 X20.7811 Y44.0176 
G01 X20.8810 Y43.8681 
G01 X21.0081 Y43.7410 
G01 X21.1576 Y43.6411 
G01 X21.3237 Y43.5723 
G01 X21.5001 Y43.5372 
G01 X21.6799 Y43.5372 
G01 X21.8563 Y43.5723 
G01 X22.0224 Y43.6411 
G01 X22.1719 Y43.7410 
G01 X22.2990 Y43.8681 
G01 X22.3989 Y44.0176 
G01 X22.4677 Y44.1837 
G01 X22.5028 Y44.3601 
G00 Z2.0000 
G00 X22.5028 Y41.8201 
G01 Z-0.0250 F254.00 
G01 X22.5028 Y41.9999 F508.00 
G01 X22.4677 Y42.1763 
G01 X22.3989 Y42.3424 
G01 X22.2990 Y42.4919 
G01 X22.1719 Y42.6190 
G01 X22.0224 Y42.7189 
G01 X21.8563 Y42.7877 
G01 X21.6799 Y42.8228 
G01 X21.5001 Y42.8228 
G01 X21.3237 Y42.7877 
G01 X21.1576 Y42.7189 
G01 X21.0081 Y42.6190 
G01 X20.8810 Y42.4919 
G01 X20.7811 Y42.3424 
G01 X20.7123 Y42.1763 
G01 X20.6772 Y41.9999 
G01 X20.6772 Y41.8201 
G01 X20.7123 Y41.6437 
G01 X20.7811 Y41.4776 
G01 X20.8183 Y41.4219 
G01 X7.7881 Y28.3916 
G01 X7.7500 Y28.2997 
G01 X7.7500 Y24.1036 
G01 X2.8264 Y19.1800 
G01 X1.9201 Y19.1800 
G01 X1.8834 Y19.1648 
G01 X1.8552 Y19.1366 
G01 X1.8400 Y19.0999 
G01 X1.8400 Y18.2601 
G01 X1.8552 Y18.2234 
G01 X1.8834 Y18.1952 
G01 X1.9201 Y18.1800 
G01 X3.1599 Y18.1800 
G01 X3.1966 Y18.1952 
G01 X3.2248 Y18.2234 
G01 X3.2400 Y18.2601 
G01 X3.2400 Y18.8864 
G01 X8.1416 Y23.7881 
G01 X8.2119 Y23.8584 
G01 X8.2500 Y23.9503 
G01 X8.2500 Y28.1464 
G01 X21.1909 Y41.0873 
G01 X21.3237 Y41.0323 
G01 X21.5001 Y40.9972 
G01 X21.6799 Y40.9972 
G01 X21.8563 Y41.0323 
G01 X22.0224 Y41.1011 
G01 X22.1719 Y41.2010 
G01 X22.2990 Y41.3281 
G01 X22.3989 Y41.4776 
G01 X22.4677 Y41.6437 
G01 X22.5028 Y41.8201 
G00 Z2.0000 
G00 X22.5028 Y26.5801 
G01 Z-0.0250 F254.00 
G01 X22.5028 Y26.7599 F508.00 
G01 X22.4677 Y26.9363 
G01 X22.3989 Y27.1024 
G01 X22.2990 Y27.2519 
G01 X22.1719 Y27.3790 
G01 X22.0224 Y27.4789 
G01 X21.8563 Y27.5477 
G01 X21.6799 Y27.5828 
G01 X21.5001 Y27.5828 
G01 X21.3237 Y27.5477 
G01 X21.1576 Y27.4789 
G01 X21.0081 Y27.3790 
G01 X20.8810 Y27.2519 
G01 X20.7811 Y27.1024 
G01 X20.7123 Y26.9363 
G01 X20.6772 Y26.7599 
G01 X20.6772 Y26.5801 
G01 X20.7123 Y26.4037 
G01 X20.7811 Y26.2376 
G01 X20.8223 Y26.1759 
G01 X20.0381 Y25.3916 
G01 X20.0000 Y25.2997 
G01 X20.0000 Y21.1036 
G01 X18.0764 Y19.1800 
G01 X17.1601 Y19.1800 
G01 X17.1234 Y19.1648 
G01 X17.0952 Y19.1366 
G01 X17.0800 Y19.0999 
G01 X17.0800 Y18.2601 
G01 X17.0952 Y18.2234 
G01 X17.1234 Y18.1952 
G01 X17.1601 Y18.1800 
G01 X18.3999 Y18.1800 
G01 X18.4366 Y18.1952 
G01 X18.4648 Y18.2234 
G01 X18.4800 Y18.2601 
G01 X18.4800 Y18.8764 
G01 X20.3916 Y20.7881 
G01 X20.4619 Y20.8584 
G01 X20.5000 Y20.9503 
G01 X20.5000 Y25.1464 
G01 X21.1979 Y25.8444 
G01 X21.3237 Y25.7923 
G01 X21.5001 Y25.7572 
G01 X21.6799 Y25.7572 
G01 X21.8563 Y25.7923 
G01 X22.0224 Y25.8611 
G01 X22.1719 Y25.9610 
G01 X22.2990 Y26.0881 
G01 X22.3989 Y26.2376 
G01 X22.4677 Y26.4037 
G01 X22.5028 Y26.5801 
G00 Z2.0000 
G00 X37.7428 Y34.2001 
G01 Z-0.0250 F254.00 
G01 X37.7428 Y34.3799 F508.00 
G01 X37.7077 Y34.5563 
G01 X37.6389 Y34.7224 
G01 X37.5390 Y34.8719 
G01 X37.4119 Y34.9990 
G01 X37.2624 Y35.0989 
G01 X37.0963 Y35.1677 
G01 X36.9199 Y35.2028 
G01 X36.7401 Y35.2028 
G01 X36.5637 Y35.1677 
G01 X36.3976 Y35.0989 
G01 X36.2481 Y34.9990 
G01 X36.1210 Y34.8719 
G01 X36.0211 Y34.7224 
G01 X35.9523 Y34.5563 
G01 X35.9172 Y34.3799 
G01 X35.9172 Y34.2001 
G01 X35.9523 Y34.0237 
G01 X36.0211 Y33.8576 
G01 X36.1210 Y33.7081 
G01 X36.2481 Y33.5810 
G01 X36.3976 Y33.4811 
G01 X36.5637 Y33.4123 
G01 X36.7401 Y33.3772 
G01 X36.9199 Y33.3772 
G01 X37.0963 Y33.4123 
G01 X37.2624 Y33.4811 
G01 X37.4119 Y33.5810 
G01 X37.5390 Y33.7081 
G01 X37.6389 Y33.8576 
G01 X37.7077 Y34.0237 
G01 X37.7428 Y34.2001 
G00 Z2.0000 
G00 X37.7428 Y36.7401 
G01 Z-0.0250 F254.00 
G01 X37.7428 Y36.9199 F508.00 
G01 X37.7077 Y37.0963 
G01 X37.6389 Y37.2624 
G01 X37.5390 Y37.4119 
G01 X37.4119 Y37.5390 
G01 X37.2624 Y37.6389 
G01 X37.0963 Y37.7077 
G01 X36.9199 Y37.7428 
G01 X36.7401 Y37.7428 
G01 X36.5637 Y37.7077 
G01 X36.3976 Y37.6389 
G01 X36.2481 Y37.5390 
G01 X36.1210 Y37.4119 
G01 X36.0211 Y37.2624 
G01 X35.9523 Y37.0963 
G01 X35.9172 Y36.9199 
G01 X35.9172 Y36.7401 
G01 X35.9523 Y36.5637 
G01 X36.0211 Y36.3976 
G01 X36.1210 Y36.2481 
G01 X36.2481 Y36.1210 
G01 X36.3976 Y36.0211 
G01 X36.5637 Y35.9523 
G01 X36.7401 Y35.9172 
G01 X36.9199 Y35.9172 
G01 X37.0963 Y35.9523 
G01 X37.2624 Y36.0211 
G01 X37.4119 Y36.1210 
G01 X37.5390 Y36.2481 
G01 X37.6389 Y36.3976 
G01 X37.7077 Y36.5637 
G01 X37.7428 Y36.7401 
G00 Z2.0000 
G00 X37.7428 Y39.2801 
G01 Z-0.0250 F254.00 
G01 X37.7428 Y39.4599 F508.00 
G01 X37.7077 Y39.6363 
G01 X37.6389 Y39.8024 
G01 X37.5390 Y39.9519 
G01 X37.4119 Y40.0790 
G01 X37.2624 Y40.1789 
G01 X37.0963 Y40.2477 
G01 X36.9199 Y40.2828 
G01 X36.7401 Y40.2828 
G01 X36.5637 Y40.2477 
G01 X36.3976 Y40.1789 
G01 X36.2481 Y40.0790 
G01 X36.1210 Y39.9519 
G01 X36.0211 Y39.8024 
G01 X35.9523 Y39.6363 
G01 X35.9172 Y39.4599 
G01 X35.9172 Y39.2801 
G01 X35.9523 Y39.1037 
G01 X36.0211 Y38.9376 
G01 X36.1210 Y38.7881 
G01 X36.2481 Y38.6610 
G01 X36.3976 Y38.5611 
G01 X36.5637 Y38.4923 
G01 X36.7401 Y38.4572 
G01 X36.9199 Y38.4572 
G01 X37.0963 Y38.4923 
G01 X37.2624 Y38.5611 
G01 X37.4119 Y38.6610 
G01 X37.5390 Y38.7881 
G01 X37.6389 Y38.9376 
G01 X37.7077 Y39.1037 
G01 X37.7428 Y39.2801 
G00 Z2.0000 
G00 X37.7428 Y41.8201 
G01 Z-0.0250 F254.00 
G01 X37.7428 Y41.9999 F508.00 
G01 X37.7077 Y42.1763 
G01 X37.6389 Y42.3424 
G01 X37.5390 Y42.4919 
G01 X37.4119 Y42.6190 
G01 X37.2624 Y42.7189 
G01 X37.0963 Y42.7877 
G01 X36.9199 Y42.8228 
G01 X36.7401 Y42.8228 
G01 X36.5637 Y42.7877 
G01 X36.3976 Y42.7189 
G01 X36.2481 Y42.6190 
G01 X36.1210 Y42.4919 
G01 X36.0211 Y42.3424 
G01 X35.9523 Y42.1763 
G01 X35.9172 Y41.9999 
G01 X35.9172 Y41.8201 
G01 X35.9523 Y41.6437 
G01 X36.0211 Y41.4776 
G01 X36.1210 Y41.3281 
G01 X36.2481 Y41.2010 
G01 X36.3976 Y41.1011 
G01 X36.5637 Y41.0323 
G01 X36.7401 Y40.9972 
G01 X36.9199 Y40.9972 
G01 X37.0963 Y41.0323 
G01 X37.2624 Y41.1011 
G01 X37.4119 Y41.2010 
G01 X37.5390 Y41.3281 
G01 X37.6389 Y41.4776 
G01 X37.7077 Y41.6437 
G01 X37.7428 Y41.8201 
G00 Z2.0000 
G00 X37.7428 Y44.3601 
G01 Z-0.0250 F254.00 
G01 X37.7428 Y44.5399 F508.00 
G01 X37.7077 Y44.7163 
G01 X37.6389 Y44.8824 
G01 X37.5390 Y45.0319 
G01 X37.4119 Y45.1590 
G01 X37.2624 Y45.2589 
G01 X37.0963 Y45.3277 
G01 X36.9199 Y45.3628 
G01 X36.7401 Y45.3628 
G01 X36.5637 Y45.3277 
G01 X36.3976 Y45.2589 
G01 X36.2481 Y45.1590 
G01 X36.1210 Y45.0319 
G01 X36.0211 Y44.8824 
G01 X35.9523 Y44.7163 
G01 X35.9172 Y44.5399 
G01 X35.9172 Y44.3601 
G01 X35.9523 Y44.1837 
G01 X36.0211 Y44.0176 
G01 X36.1210 Y43.8681 
G01 X36.2481 Y43.7410 
G01 X36.3976 Y43.6411 
G01 X36.5637 Y43.5723 
G01 X36.7401 Y43.5372 
G01 X36.9199 Y43.5372 
G01 X37.0963 Y43.5723 
G01 X37.2624 Y43.6411 
G01 X37.4119 Y43.7410 
G01 X37.5390 Y43.8681 
G01 X37.6389 Y44.0176 
G01 X37.7077 Y44.1837 
G01 X37.7428 Y44.3601 
G00 Z2.0000 
G00 X37.7428 Y46.9001 
G01 Z-0.0250 F254.00 
G01 X37.7428 Y47.0799 F508.00 
G01 X37.7077 Y47.2563 
G01 X37.6389 Y47.4224 
G01 X37.5390 Y47.5719 
G01 X37.4119 Y47.6990 
G01 X37.2624 Y47.7989 
G01 X37.0963 Y47.8677 
G01 X36.9199 Y47.9028 
G01 X36.7401 Y47.9028 
G01 X36.5637 Y47.8677 
G01 X36.3976 Y47.7989 
G01 X36.2481 Y47.6990 
G01 X36.1210 Y47.5719 
G01 X36.0211 Y47.4224 
G01 X35.9523 Y47.2563 
G01 X35.9172 Y47.0799 
G01 X35.9172 Y46.9001 
G01 X35.9523 Y46.7237 
G01 X36.0211 Y46.5576 
G01 X36.1210 Y46.4081 
G01 X36.2481 Y46.2810 
G01 X36.3976 Y46.1811 
G01 X36.5637 Y46.1123 
G01 X36.7401 Y46.0772 
G01 X36.9199 Y46.0772 
G01 X37.0963 Y46.1123 
G01 X37.2624 Y46.1811 
G01 X37.4119 Y46.2810 
G01 X37.5390 Y46.4081 
G01 X37.6389 Y46.5576 
G01 X37.7077 Y46.7237 
G01 X37.7428 Y46.9001 
G00 Z2.0000 
G00 X37.7428 Y51.9801 
G01 Z-0.0250 F254.00 
G01 X37.7428 Y52.1599 F508.00 
G01 X37.7077 Y52.3363 
G01 X37.6389 Y52.5024 
G01 X37.5390 Y52.6519 
G01 X37.4119 Y52.7790 
G01 X37.2624 Y52.8789 
G01 X37.0963 Y52.9477 
G01 X36.9199 Y52.9828 
G01 X36.7401 Y52.9828 
G01 X36.5637 Y52.9477 
G01 X36.3976 Y52.8789 
G01 X36.2481 Y52.7790 
G01 X36.1210 Y52.6519 
G01 X36.0211 Y52.5024 
G01 X35.9523 Y52.3363 
G01 X35.9172 Y52.1599 
G01 X35.9172 Y51.9801 
G01 X35.9523 Y51.8037 
G01 X36.0211 Y51.6376 
G01 X36.1210 Y51.4881 
G01 X36.2481 Y51.3610 
G01 X36.3976 Y51.2611 
G01 X36.5637 Y51.1923 
G01 X36.7401 Y51.1572 
G01 X36.9199 Y51.1572 
G01 X37.0963 Y51.1923 
G01 X37.2624 Y51.2611 
G01 X37.4119 Y51.3610 
G01 X37.5390 Y51.4881 
G01 X37.6389 Y51.6376 
G01 X37.7077 Y51.8037 
G01 X37.7428 Y51.9801 
G00 Z2.0000 
G00 X43.2395 Y26.4316 
G01 Z-0.0250 F254.00 
G01 X44.8188 Y26.4316 F508.00 
G01 X44.8386 Y26.4276 
G01 X44.8588 Y26.4316 
G01 X45.6585 Y26.4316 
G01 X45.7326 Y26.4623 
G01 X45.7893 Y26.5190 
G01 X45.8200 Y26.5931 
G01 X45.8200 Y26.6733 
G01 X45.7893 Y26.7474 
G01 X45.7326 Y26.8041 
G01 X45.6585 Y26.8348 
G01 X45.2155 Y26.8348 
G01 X45.8084 Y27.7241 
G01 X45.8239 Y27.8028 
G01 X45.8082 Y27.8814 
G01 X45.7636 Y27.9481 
G01 X45.6969 Y27.9926 
G01 X45.6182 Y28.0081 
G01 X45.5395 Y27.9924 
G01 X45.4729 Y27.9478 
G01 X44.8388 Y26.9966 
G01 X44.2047 Y27.9478 
G01 X44.1381 Y27.9924 
G01 X44.0594 Y28.0081 
G01 X43.9807 Y27.9926 
G01 X43.9140 Y27.9481 
G01 X43.8694 Y27.8814 
G01 X43.8537 Y27.8028 
G01 X43.8692 Y27.7241 
G01 X44.4621 Y26.8348 
G01 X43.2395 Y26.8348 
G01 X43.1654 Y26.8041 
G01 X43.1087 Y26.7474 
G01 X43.0780 Y26.6733 
G01 X43.0780 Y26.5931 
G01 X43.1087 Y26.5190 
G01 X43.1654 Y26.4623 
G01 X43.2395 Y26.4316 
G00 Z2.0000 
G00 X43.3197 Y25.6654 
G01 Z-0.0250 F254.00 
G01 X42.8497 Y25.6654 F508.00 
G01 X42.7756 Y25.6347 
G01 X42.7189 Y25.5780 
G01 X42.6882 Y25.5039 
G01 X42.6882 Y25.4237 
G01 X42.7189 Y25.3496 
G01 X42.7756 Y25.2929 
G01 X42.8497 Y25.2622 
G01 X43.3197 Y25.2622 
G01 X43.3938 Y25.2929 
G01 X43.4505 Y25.3496 
G01 X43.4812 Y25.4237 
G01 X43.4812 Y25.5039 
G01 X43.4505 Y25.5780 
G01 X43.3938 Y25.6347 
G01 X43.3197 Y25.6654 
G00 Z2.0000 
G00 X43.8576 Y25.0339 
G01 Z-0.0250 F254.00 
G01 X43.8883 Y24.9598 F508.00 
G01 X43.9450 Y24.9031 
G01 X44.0191 Y24.8724 
G01 X44.0993 Y24.8724 
G01 X44.1734 Y24.9031 
G01 X44.2301 Y24.9598 
G01 X44.2608 Y25.0339 
G01 X44.2608 Y25.2622 
G01 X45.4168 Y25.2622 
G01 X45.4168 Y25.0339 
G01 X45.4475 Y24.9598 
G01 X45.5042 Y24.9031 
G01 X45.5783 Y24.8724 
G01 X45.6585 Y24.8724 
G01 X45.7326 Y24.9031 
G01 X45.7893 Y24.9598 
G01 X45.8200 Y25.0339 
G01 X45.8200 Y25.8937 
G01 X45.7893 Y25.9678 
G01 X45.7326 Y26.0245 
G01 X45.6585 Y26.0552 
G01 X45.5783 Y26.0552 
G01 X45.5042 Y26.0245 
G01 X45.4475 Y25.9678 
G01 X45.4168 Y25.8937 
G01 X45.4168 Y25.6654 
G01 X44.0191 Y25.6654 
G01 X43.9450 Y25.6347 
G01 X43.8883 Y25.5780 
G01 X43.8576 Y25.5039 
G01 X43.8576 Y25.4237 
G01 X43.8576 Y25.0339 
G00 Z2.0000 
G00 X43.6293 Y24.1062 
G01 Z-0.0250 F254.00 
G01 X43.5552 Y24.0755 F508.00 
G01 X43.4985 Y24.0188 
G01 X43.4678 Y23.9447 
G01 X43.4678 Y23.8645 
G01 X43.4985 Y23.7904 
G01 X43.5552 Y23.7337 
G01 X43.6293 Y23.7030 
G01 X43.8576 Y23.7030 
G01 X43.8576 Y23.4747 
G01 X43.8883 Y23.4006 
G01 X43.9450 Y23.3439 
G01 X44.0191 Y23.3132 
G01 X44.0993 Y23.3132 
G01 X44.1734 Y23.3439 
G01 X44.2301 Y23.4006 
G01 X44.2608 Y23.4747 
G01 X44.2608 Y23.7030 
G01 X45.2687 Y23.7030 
G01 X45.3428 Y23.7337 
G01 X45.3462 Y23.7371 
G01 X45.3995 Y23.7904 
G01 X45.7893 Y24.1802 
G01 X45.8200 Y24.2543 
G01 X45.8200 Y24.3345 
G01 X45.7893 Y24.4086 
G01 X45.7326 Y24.4653 
G01 X45.6585 Y24.4960 
G01 X45.5783 Y24.4960 
G01 X45.5042 Y24.4653 
G01 X45.1451 Y24.1062 
G01 X44.2608 Y24.1062 
G01 X44.2608 Y24.3345 
G01 X44.2301 Y24.4086 
G01 X44.1734 Y24.4653 
G01 X44.0993 Y24.4960 
G01 X44.0191 Y24.4960 
G01 X43.9450 Y24.4653 
G01 X43.8883 Y24.4086 
G01 X43.8576 Y24.3345 
G01 X43.8576 Y24.1062 
G01 X43.6293 Y24.1062 
G00 Z2.0000 
G00 X43.8576 Y21.5257 
G01 Z-0.0250 F254.00 
G01 X43.8883 Y21.4516 F508.00 
G01 X43.9450 Y21.3949 
G01 X44.0191 Y21.3642 
G01 X44.0993 Y21.3642 
G01 X44.1734 Y21.3949 
G01 X44.2301 Y21.4516 
G01 X44.2608 Y21.5257 
G01 X44.2608 Y22.2619 
G01 X44.5325 Y22.5336 
G01 X44.6372 Y22.5336 
G01 X44.6372 Y21.5257 
G01 X44.6679 Y21.4516 
G01 X44.7246 Y21.3949 
G01 X45.0577 Y21.0618 
G01 X45.1144 Y21.0051 
G01 X45.1885 Y20.9744 
G01 X45.2687 Y20.9744 
G01 X45.3428 Y21.0051 
G01 X45.7893 Y21.4516 
G01 X45.8200 Y21.5257 
G01 X45.8200 Y22.7753 
G01 X45.7893 Y22.8494 
G01 X45.7326 Y22.9061 
G01 X45.6585 Y22.9368 
G01 X44.4089 Y22.9368 
G01 X44.3348 Y22.9061 
G01 X44.2781 Y22.8494 
G01 X43.8883 Y22.4596 
G01 X43.8576 Y22.3855 
G01 X43.8576 Y22.3053 
G01 X43.8576 Y21.5257 
G00 Z2.0000 
G00 X45.6585 Y18.6356 
G01 Z-0.0250 F254.00 
G01 X45.7326 Y18.6663 F508.00 
G01 X45.7893 Y18.7230 
G01 X45.8200 Y18.7971 
G01 X45.8200 Y18.8773 
G01 X45.7893 Y18.9514 
G01 X45.7326 Y19.0081 
G01 X45.6585 Y19.0388 
G01 X44.2608 Y19.0388 
G01 X44.2608 Y19.1435 
G01 X44.5325 Y19.4152 
G01 X45.6585 Y19.4152 
G01 X45.7326 Y19.4459 
G01 X45.7893 Y19.5026 
G01 X45.8200 Y19.5767 
G01 X45.8200 Y19.6569 
G01 X45.7893 Y19.7310 
G01 X45.7326 Y19.7877 
G01 X45.6585 Y19.8184 
G01 X44.5325 Y19.8184 
G01 X44.3443 Y20.0066 
G01 X44.5325 Y20.1948 
G01 X45.6585 Y20.1948 
G01 X45.7326 Y20.2255 
G01 X45.7893 Y20.2822 
G01 X45.8200 Y20.3563 
G01 X45.8200 Y20.4365 
G01 X45.7893 Y20.5106 
G01 X45.7326 Y20.5673 
G01 X45.6585 Y20.5980 
G01 X44.4089 Y20.5980 
G01 X44.3348 Y20.5673 
G01 X44.2781 Y20.5106 
G01 X43.8883 Y20.1208 
G01 X43.8576 Y20.0467 
G01 X43.8576 Y19.9665 
G01 X43.8883 Y19.8924 
G01 X43.9450 Y19.8357 
G01 X44.1639 Y19.6168 
G01 X43.8883 Y19.3412 
G01 X43.8576 Y19.2671 
G01 X43.8576 Y18.7971 
G01 X43.8883 Y18.7230 
G01 X43.9450 Y18.6663 
G01 X44.0191 Y18.6356 
G01 X44.0993 Y18.6356 
G01 X45.6585 Y18.6356 
G00 Z2.0000 
G00 X43.8576 Y16.8481 
G01 Z-0.0250 F254.00 
G01 X43.8883 Y16.7740 F508.00 
G01 X43.9450 Y16.7173 
G01 X44.0191 Y16.6866 
G01 X44.0993 Y16.6866 
G01 X44.1734 Y16.7173 
G01 X44.2301 Y16.7740 
G01 X44.2608 Y16.8481 
G01 X44.2608 Y17.5843 
G01 X44.5325 Y17.8560 
G01 X44.6372 Y17.8560 
G01 X44.6372 Y16.8481 
G01 X44.6679 Y16.7740 
G01 X44.7246 Y16.7173 
G01 X45.0577 Y16.3842 
G01 X45.1144 Y16.3275 
G01 X45.1864 Y16.2977 
G01 X45.2687 Y16.2968 
G01 X45.3428 Y16.3275 
G01 X45.7893 Y16.7740 
G01 X45.8200 Y16.8481 
G01 X45.8200 Y18.0977 
G01 X45.7893 Y18.1718 
G01 X45.7326 Y18.2285 
G01 X45.6585 Y18.2592 
G01 X44.4089 Y18.2592 
G01 X44.3348 Y18.2285 
G01 X44.2781 Y18.1718 
G01 X43.8883 Y17.7820 
G01 X43.8576 Y17.7079 
G01 X43.8576 Y17.6277 
G01 X43.8576 Y16.8481 
G00 Z2.0000 
G00 X43.0780 Y14.8991 
G01 Z-0.0250 F254.00 
G01 X43.1087 Y14.8250 F508.00 
G01 X43.1654 Y14.7683 
G01 X43.2395 Y14.7376 
G01 X43.3197 Y14.7376 
G01 X43.3938 Y14.7683 
G01 X43.4505 Y14.8250 
G01 X43.4812 Y14.8991 
G01 X43.4812 Y15.1274 
G01 X45.4168 Y15.1274 
G01 X45.4168 Y14.8991 
G01 X45.4475 Y14.8250 
G01 X45.5042 Y14.7683 
G01 X45.5783 Y14.7376 
G01 X45.6585 Y14.7376 
G01 X45.7326 Y14.7683 
G01 X45.7893 Y14.8250 
G01 X45.8200 Y14.8991 
G01 X45.8200 Y15.7589 
G01 X45.7893 Y15.8330 
G01 X45.7326 Y15.8897 
G01 X45.6585 Y15.9204 
G01 X45.5783 Y15.9204 
G01 X45.5042 Y15.8897 
G01 X45.4475 Y15.8330 
G01 X45.4168 Y15.7589 
G01 X45.4168 Y15.5306 
G01 X43.2395 Y15.5306 
G01 X43.1654 Y15.4999 
G01 X43.1087 Y15.4432 
G01 X43.0780 Y15.3691 
G01 X43.0780 Y15.2889 
G01 X43.0780 Y14.8991 
G00 Z2.0000 
G00 X43.8403 Y11.7066 
G01 Z-0.0250 F254.00 
G01 X43.8710 Y11.7807 F508.00 
G01 X43.8710 Y11.8609 
G01 X43.8403 Y11.9350 
G01 X43.7836 Y11.9917 
G01 X43.7095 Y12.0224 
G01 X43.6293 Y12.0224 
G01 X43.5552 Y11.9917 
G01 X43.1654 Y11.6019 
G01 X43.1087 Y11.5452 
G01 X43.0780 Y11.4711 
G01 X43.0780 Y10.6113 
G01 X43.1087 Y10.5372 
G01 X43.1121 Y10.5338 
G01 X43.1654 Y10.4805 
G01 X43.4985 Y10.1474 
G01 X43.5552 Y10.0907 
G01 X43.6293 Y10.0600 
G01 X44.0993 Y10.0600 
G01 X44.1734 Y10.0907 
G01 X44.2301 Y10.1474 
G01 X44.5632 Y10.4805 
G01 X44.6199 Y10.5372 
G01 X44.6506 Y10.6113 
G01 X44.6506 Y11.3475 
G01 X44.9223 Y11.6192 
G01 X45.1451 Y11.6192 
G01 X45.4168 Y11.3475 
G01 X45.4168 Y10.7349 
G01 X45.0577 Y10.3758 
G01 X45.0270 Y10.3017 
G01 X45.0270 Y10.2215 
G01 X45.0577 Y10.1474 
G01 X45.1144 Y10.0907 
G01 X45.1885 Y10.0600 
G01 X45.2687 Y10.0600 
G01 X45.3428 Y10.0907 
G01 X45.7893 Y10.5372 
G01 X45.8200 Y10.6113 
G01 X45.8200 Y11.4711 
G01 X45.7893 Y11.5452 
G01 X45.7326 Y11.6019 
G01 X45.3995 Y11.9350 
G01 X45.3462 Y11.9883 
G01 X45.3428 Y11.9917 
G01 X45.2687 Y12.0224 
G01 X44.7987 Y12.0224 
G01 X44.7246 Y11.9917 
G01 X44.6679 Y11.9350 
G01 X44.2781 Y11.5452 
G01 X44.2474 Y11.4711 
G01 X44.2474 Y10.7349 
G01 X43.9757 Y10.4632 
G01 X43.7529 Y10.4632 
G01 X43.4812 Y10.7349 
G01 X43.4812 Y11.3475 
G01 X43.8403 Y11.7066 
G00 Z2.0000 
G00 X44.0191 Y12.8020 
G01 Z-0.0250 F254.00 
G01 X43.9450 Y12.7713 F508.00 
G01 X43.8883 Y12.7146 
G01 X43.8576 Y12.6405 
G01 X43.8576 Y12.5603 
G01 X43.8883 Y12.4862 
G01 X43.9450 Y12.4295 
G01 X44.0191 Y12.3988 
G01 X45.2687 Y12.3988 
G01 X45.3428 Y12.4295 
G01 X45.7326 Y12.8193 
G01 X45.7893 Y12.8760 
G01 X45.8200 Y12.9501 
G01 X45.8200 Y14.1997 
G01 X45.7893 Y14.2738 
G01 X45.7326 Y14.3305 
G01 X45.6585 Y14.3612 
G01 X44.0191 Y14.3612 
G01 X43.9450 Y14.3305 
G01 X43.8883 Y14.2738 
G01 X43.8576 Y14.1997 
G01 X43.8576 Y14.1195 
G01 X43.8883 Y14.0454 
G01 X43.9450 Y13.9887 
G01 X44.0191 Y13.9580 
G01 X45.4168 Y13.9580 
G01 X45.4168 Y13.0737 
G01 X45.1451 Y12.8020 
G01 X44.0191 Y12.8020 
G00 Z2.0000 
G00 X45.3880 Y2.9521 
G01 Z-0.0250 F254.00 
G01 X45.3880 Y7.2079 F508.00 
G01 X45.3728 Y7.2446 
G01 X45.3446 Y7.2728 
G01 X45.3079 Y7.2880 
G01 X41.0521 Y7.2880 
G01 X41.0154 Y7.2728 
G01 X40.9872 Y7.2446 
G01 X40.9720 Y7.2079 
G01 X40.9720 Y2.9521 
G01 X40.9872 Y2.9154 
G01 X41.0154 Y2.8872 
G01 X41.0521 Y2.8720 
G01 X45.3079 Y2.8720 
G01 X45.3446 Y2.8872 
G01 X45.3728 Y2.9154 
G01 X45.3880 Y2.9521 
G00 Z2.0000 
G00 X45.3880 Y53.7521 
G01 Z-0.0250 F254.00 
G01 X45.3880 Y58.0079 F508.00 
G01 X45.3728 Y58.0446 
G01 X45.3446 Y58.0728 
G01 X45.3079 Y58.0880 
G01 X41.0521 Y58.0880 
G01 X41.0154 Y58.0728 
G01 X40.9872 Y58.0446 
G01 X40.9720 Y58.0079 
G01 X40.9720 Y53.7521 
G01 X40.9872 Y53.7154 
G01 X41.0154 Y53.6872 
G01 X41.0521 Y53.6720 
G01 X45.3079 Y53.6720 
G01 X45.3446 Y53.6872 
G01 X45.3728 Y53.7154 
G01 X45.3880 Y53.7521 
G00 Z2.0000 
G00 X36.3541 Y33.3909 
G01 Z-0.0250 F254.00 
G01 X36.4528 Y33.3500 F508.00 
G01 X36.3950 Y33.3500 
G01 X36.3541 Y33.3909 
G00 Z2.0000 
G00 X20.6000 Y46.7756 
G01 Z-0.0250 F254.00 
G01 X20.6161 Y46.6946 F508.00 
G01 X20.6626 Y46.5824 
G01 X20.6000 Y46.6450 
G01 X20.6000 Y46.7756 
G00 Z2.0000 
G00 X1.1500 Y38.2039 
G01 Z-0.0250 F254.00 
G01 X1.1739 Y38.1149 F508.00 
G01 X1.2199 Y38.0351 
G01 X1.2851 Y37.9699 
G01 X1.7400 Y37.5150 
G01 X1.7400 Y36.7602 
G01 X1.7704 Y36.6867 
G01 X1.8267 Y36.6304 
G01 X1.9002 Y36.6000 
G01 X3.1798 Y36.6000 
G01 X3.2533 Y36.6304 
G01 X3.3096 Y36.6867 
G01 X3.3400 Y36.7602 
G01 X3.3400 Y37.6398 
G01 X3.3096 Y37.7133 
G01 X3.2533 Y37.7696 
G01 X3.1798 Y37.8000 
G01 X2.4450 Y37.8000 
G01 X1.8500 Y38.3950 
G01 X1.8500 Y38.4208 
G01 X1.9002 Y38.4000 
G01 X2.8550 Y38.4000 
G01 X3.4000 Y37.8550 
G01 X3.4000 Y35.1450 
G01 X2.7750 Y34.5200 
G01 X1.9002 Y34.5200 
G01 X1.8267 Y34.4896 
G01 X1.7704 Y34.4333 
G01 X1.7400 Y34.3598 
G01 X1.7400 Y33.5050 
G01 X1.7149 Y33.5301 
G01 X1.1000 Y34.1450 
G01 X1.1000 Y42.1050 
G01 X1.7400 Y42.7450 
G01 X1.7400 Y41.7350 
G01 X1.2199 Y41.2149 
G01 X1.1739 Y41.1351 
G01 X1.1500 Y41.0461 
G01 X1.1500 Y40.9539 
G01 X1.1500 Y38.2039 
G00 Z2.0000 
G00 X35.8500 Y34.0254 
G01 Z-0.0250 F254.00 
G01 X35.8561 Y33.9946 F508.00 
G01 X35.9309 Y33.8141 
G01 X35.8500 Y33.8950 
G01 X35.8500 Y34.0254 
G00 Z2.0000 
G00 X35.9325 Y44.9297 
G01 Z-0.0250 F254.00 
G01 X35.8561 Y44.7454 F508.00 
G01 X35.8500 Y44.7146 
G01 X35.8500 Y44.8550 
G01 X35.9481 Y44.9531 
G01 X35.9325 Y44.9297 
G00 Z2.0000 
G00 X36.3503 Y45.3475 
G01 Z-0.0250 F254.00 
G01 X36.3269 Y45.3319 F508.00 
G01 X36.3950 Y45.4000 
G01 X36.4769 Y45.4000 
G01 X36.3503 Y45.3475 
G00 Z2.0000 
G00 X35.8561 Y49.2346 
G01 Z-0.0250 F254.00 
G01 X35.8952 Y49.1402 F508.00 
G01 X35.8500 Y49.0950 
G01 X35.8500 Y49.2654 
G01 X35.8561 Y49.2346 
G00 Z2.0000 
G00 X45.3168 Y22.4336 
G01 Z-0.0250 F254.00 
G01 X45.3168 Y21.6907 F508.00 
G01 X45.2286 Y21.6025 
G01 X45.1404 Y21.6907 
G01 X45.1404 Y22.4336 
G01 X45.3168 Y22.4336 
G00 Z2.0000 
G00 X45.3168 Y17.7560 
G01 Z-0.0250 F254.00 
G01 X45.3168 Y17.0131 F508.00 
G01 X45.2286 Y16.9249 
G01 X45.1404 Y17.0131 
G01 X45.1404 Y17.7560 
G01 X45.3168 Y17.7560 
G00 Z2.0000 
G00 X44.0195 Y12.9020 
G01 Z-0.0250 F254.00 
G01 X43.9428 Y12.8814 F508.00 
G01 X43.8740 Y12.8417 
G01 X43.8179 Y12.7856 
G01 X43.7782 Y12.7168 
G01 X43.7576 Y12.6401 
G01 X43.7576 Y12.5607 
G01 X43.7782 Y12.4840 
G01 X43.8179 Y12.4152 
G01 X43.8740 Y12.3591 
G01 X43.9428 Y12.3194 
G01 X44.0195 Y12.2988 
G01 X45.2683 Y12.2988 
G01 X45.3450 Y12.3194 
G01 X45.4138 Y12.3591 
G01 X45.8036 Y12.7489 
G01 X45.8597 Y12.8050 
G01 X45.8994 Y12.8738 
G01 X45.9200 Y12.9505 
G01 X45.9200 Y14.1993 
G01 X45.8994 Y14.2760 
G01 X45.8597 Y14.3448 
G01 X45.8036 Y14.4009 
G01 X45.7348 Y14.4406 
G01 X45.6581 Y14.4612 
G01 X44.0195 Y14.4612 
G01 X43.9428 Y14.4406 
G01 X43.8740 Y14.4009 
G01 X43.8179 Y14.3448 
G01 X43.7782 Y14.2760 
G01 X43.7576 Y14.1993 
G01 X43.7576 Y14.1199 
G01 X43.7782 Y14.0432 
G01 X43.8179 Y13.9744 
G01 X43.8740 Y13.9183 
G01 X43.9428 Y13.8785 
G01 X44.0195 Y13.8580 
G01 X45.3168 Y13.8580 
G01 X45.3168 Y13.1151 
G01 X45.1037 Y12.9020 
G01 X44.0195 Y12.9020 
G00 Z2.0000 
G00 X43.9107 Y11.6356 
G01 Z-0.0250 F254.00 
G01 X43.9504 Y11.7044 F508.00 
G01 X43.9710 Y11.7811 
G01 X43.9710 Y11.8605 
G01 X43.9504 Y11.9372 
G01 X43.9107 Y12.0060 
G01 X43.8546 Y12.0621 
G01 X43.7858 Y12.1018 
G01 X43.7091 Y12.1224 
G01 X43.6297 Y12.1224 
G01 X43.5530 Y12.1018 
G01 X43.4842 Y12.0621 
G01 X43.0944 Y11.6723 
G01 X43.0383 Y11.6162 
G01 X42.9986 Y11.5474 
G01 X42.9780 Y11.4707 
G01 X42.9780 Y10.6117 
G01 X42.9986 Y10.5350 
G01 X43.0383 Y10.4662 
G01 X43.0452 Y10.4593 
G01 X43.0944 Y10.4101 
G01 X43.4773 Y10.0272 
G01 X43.4842 Y10.0203 
G01 X43.5530 Y9.9806 
G01 X43.6297 Y9.9600 
G01 X44.0989 Y9.9600 
G01 X44.1022 Y9.9609 
G01 X44.1756 Y9.9806 
G01 X44.2429 Y10.0194 
G01 X44.6342 Y10.4101 
G01 X44.6903 Y10.4662 
G01 X44.7300 Y10.5350 
G01 X44.7506 Y10.6117 
G01 X44.7506 Y11.3061 
G01 X44.9637 Y11.5192 
G01 X45.1037 Y11.5192 
G01 X45.3168 Y11.3061 
G01 X45.3168 Y10.7763 
G01 X44.9873 Y10.4468 
G01 X44.9476 Y10.3780 
G01 X44.9270 Y10.3013 
G01 X44.9270 Y10.2219 
G01 X44.9476 Y10.1452 
G01 X44.9873 Y10.0764 
G01 X45.0434 Y10.0203 
G01 X45.1122 Y9.9806 
G01 X45.1889 Y9.9600 
G01 X45.2683 Y9.9600 
G01 X45.3450 Y9.9806 
G01 X45.4138 Y10.0203 
G01 X45.8597 Y10.4662 
G01 X45.8994 Y10.5350 
G01 X45.9200 Y10.6117 
G01 X45.9200 Y11.4707 
G01 X45.8994 Y11.5474 
G01 X45.8597 Y11.6162 
G01 X45.8528 Y11.6231 
G01 X45.4699 Y12.0060 
G01 X45.4207 Y12.0552 
G01 X45.4138 Y12.0621 
G01 X45.3450 Y12.1018 
G01 X45.2683 Y12.1224 
G01 X44.7991 Y12.1224 
G01 X44.7224 Y12.1018 
G01 X44.6536 Y12.0621 
G01 X44.5975 Y12.0060 
G01 X44.2077 Y11.6162 
G01 X44.1680 Y11.5474 
G01 X44.1474 Y11.4707 
G01 X44.1474 Y10.7763 
G01 X43.9343 Y10.5632 
G01 X43.7943 Y10.5632 
G01 X43.5812 Y10.7763 
G01 X43.5812 Y11.3061 
G01 X43.9107 Y11.6356 
G00 Z2.0000 
G00 X42.9780 Y14.8995 
G01 Z-0.0250 F254.00 
G01 X42.9986 Y14.8228 F508.00 
G01 X43.0383 Y14.7540 
G01 X43.0944 Y14.6979 
G01 X43.1632 Y14.6581 
G01 X43.2399 Y14.6376 
G01 X43.3193 Y14.6376 
G01 X43.3960 Y14.6581 
G01 X43.4648 Y14.6979 
G01 X43.5209 Y14.7540 
G01 X43.5606 Y14.8228 
G01 X43.5812 Y14.8995 
G01 X43.5812 Y15.0274 
G01 X45.3168 Y15.0274 
G01 X45.3168 Y14.8995 
G01 X45.3374 Y14.8228 
G01 X45.3771 Y14.7540 
G01 X45.4332 Y14.6979 
G01 X45.5020 Y14.6581 
G01 X45.5787 Y14.6376 
G01 X45.6581 Y14.6376 
G01 X45.7348 Y14.6581 
G01 X45.8036 Y14.6979 
G01 X45.8597 Y14.7540 
G01 X45.8994 Y14.8228 
G01 X45.9200 Y14.8995 
G01 X45.9200 Y15.7585 
G01 X45.8994 Y15.8352 
G01 X45.8597 Y15.9040 
G01 X45.8036 Y15.9601 
G01 X45.7348 Y15.9998 
G01 X45.6581 Y16.0204 
G01 X45.5787 Y16.0204 
G01 X45.5020 Y15.9998 
G01 X45.4332 Y15.9601 
G01 X45.3771 Y15.9040 
G01 X45.3374 Y15.8352 
G01 X45.3168 Y15.7585 
G01 X45.3168 Y15.6306 
G01 X43.2399 Y15.6306 
G01 X43.1632 Y15.6100 
G01 X43.0944 Y15.5703 
G01 X43.0383 Y15.5142 
G01 X42.9986 Y15.4454 
G01 X42.9780 Y15.3687 
G01 X42.9780 Y15.2893 
G01 X42.9780 Y14.8995 
G00 Z2.0000 
G00 X43.7576 Y16.8485 
G01 Z-0.0250 F254.00 
G01 X43.7782 Y16.7718 F508.00 
G01 X43.8179 Y16.7030 
G01 X43.8740 Y16.6468 
G01 X43.9428 Y16.6071 
G01 X44.0195 Y16.5866 
G01 X44.0989 Y16.5866 
G01 X44.1756 Y16.6071 
G01 X44.2444 Y16.6468 
G01 X44.3005 Y16.7030 
G01 X44.3402 Y16.7718 
G01 X44.3608 Y16.8485 
G01 X44.3608 Y17.5429 
G01 X44.5372 Y17.7193 
G01 X44.5372 Y16.8485 
G01 X44.5578 Y16.7718 
G01 X44.5975 Y16.7030 
G01 X44.6536 Y16.6468 
G01 X45.0434 Y16.2570 
G01 X45.1122 Y16.2173 
G01 X45.1856 Y16.1977 
G01 X45.1889 Y16.1968 
G01 X45.2683 Y16.1968 
G01 X45.3450 Y16.2173 
G01 X45.4138 Y16.2570 
G01 X45.4699 Y16.3132 
G01 X45.8597 Y16.7030 
G01 X45.8994 Y16.7718 
G01 X45.9200 Y16.8485 
G01 X45.9200 Y18.0973 
G01 X45.8994 Y18.1740 
G01 X45.8597 Y18.2428 
G01 X45.8036 Y18.2989 
G01 X45.7348 Y18.3386 
G01 X45.6581 Y18.3592 
G01 X44.4093 Y18.3592 
G01 X44.3326 Y18.3386 
G01 X44.2638 Y18.2989 
G01 X44.2077 Y18.2428 
G01 X43.8179 Y17.8530 
G01 X43.7782 Y17.7842 
G01 X43.7576 Y17.7075 
G01 X43.7576 Y17.6281 
G01 X43.7576 Y16.8485 
G00 Z2.0000 
G00 X45.6581 Y18.5356 
G01 Z-0.0250 F254.00 
G01 X45.7348 Y18.5561 F508.00 
G01 X45.8036 Y18.5958 
G01 X45.8597 Y18.6520 
G01 X45.8994 Y18.7208 
G01 X45.9200 Y18.7975 
G01 X45.9200 Y18.8769 
G01 X45.8994 Y18.9536 
G01 X45.8597 Y19.0224 
G01 X45.8036 Y19.0785 
G01 X45.7348 Y19.1182 
G01 X45.6581 Y19.1388 
G01 X44.3975 Y19.1388 
G01 X44.5739 Y19.3152 
G01 X45.6581 Y19.3152 
G01 X45.7348 Y19.3357 
G01 X45.8036 Y19.3754 
G01 X45.8597 Y19.4316 
G01 X45.8994 Y19.5004 
G01 X45.9200 Y19.5771 
G01 X45.9200 Y19.6565 
G01 X45.8994 Y19.7332 
G01 X45.8597 Y19.8020 
G01 X45.8036 Y19.8581 
G01 X45.7348 Y19.8978 
G01 X45.6581 Y19.9184 
G01 X44.5739 Y19.9184 
G01 X44.4857 Y20.0066 
G01 X44.5739 Y20.0948 
G01 X45.6581 Y20.0948 
G01 X45.7348 Y20.1153 
G01 X45.8036 Y20.1550 
G01 X45.8597 Y20.2112 
G01 X45.8994 Y20.2800 
G01 X45.9200 Y20.3567 
G01 X45.9200 Y20.4361 
G01 X45.8994 Y20.5128 
G01 X45.8597 Y20.5816 
G01 X45.8036 Y20.6377 
G01 X45.7348 Y20.6774 
G01 X45.6581 Y20.6980 
G01 X44.4093 Y20.6980 
G01 X44.3326 Y20.6774 
G01 X44.2638 Y20.6377 
G01 X44.2077 Y20.5816 
G01 X43.8179 Y20.1918 
G01 X43.7782 Y20.1230 
G01 X43.7576 Y20.0463 
G01 X43.7576 Y19.9669 
G01 X43.7782 Y19.8902 
G01 X43.8179 Y19.8214 
G01 X43.8740 Y19.7652 
G01 X44.0225 Y19.6168 
G01 X43.8179 Y19.4122 
G01 X43.7782 Y19.3434 
G01 X43.7576 Y19.2667 
G01 X43.7576 Y18.7975 
G01 X43.7782 Y18.7208 
G01 X43.8179 Y18.6520 
G01 X43.8740 Y18.5958 
G01 X43.9428 Y18.5561 
G01 X44.0195 Y18.5356 
G01 X44.0989 Y18.5356 
G01 X45.6581 Y18.5356 
G00 Z2.0000 
G00 X43.7576 Y21.5261 
G01 Z-0.0250 F254.00 
G01 X43.7782 Y21.4494 F508.00 
G01 X43.8179 Y21.3806 
G01 X43.8740 Y21.3244 
G01 X43.9428 Y21.2847 
G01 X44.0195 Y21.2642 
G01 X44.0989 Y21.2642 
G01 X44.1756 Y21.2847 
G01 X44.2444 Y21.3244 
G01 X44.3005 Y21.3806 
G01 X44.3402 Y21.4494 
G01 X44.3608 Y21.5261 
G01 X44.3608 Y22.2205 
G01 X44.5372 Y22.3969 
G01 X44.5372 Y21.5261 
G01 X44.5578 Y21.4494 
G01 X44.5975 Y21.3806 
G01 X44.6536 Y21.3244 
G01 X44.9873 Y20.9908 
G01 X45.0434 Y20.9346 
G01 X45.1122 Y20.8949 
G01 X45.1889 Y20.8744 
G01 X45.2683 Y20.8744 
G01 X45.3450 Y20.8949 
G01 X45.4138 Y20.9346 
G01 X45.8597 Y21.3806 
G01 X45.8994 Y21.4494 
G01 X45.9200 Y21.5261 
G01 X45.9200 Y22.7749 
G01 X45.8994 Y22.8516 
G01 X45.8597 Y22.9204 
G01 X45.8036 Y22.9765 
G01 X45.7348 Y23.0162 
G01 X45.6581 Y23.0368 
G01 X44.4093 Y23.0368 
G01 X44.3326 Y23.0162 
G01 X44.2638 Y22.9765 
G01 X44.2077 Y22.9204 
G01 X43.8179 Y22.5306 
G01 X43.7782 Y22.4618 
G01 X43.7576 Y22.3851 
G01 X43.7576 Y22.3057 
G01 X43.7576 Y21.5261 
G00 Z2.0000 
G00 X43.6297 Y24.2062 
G01 Z-0.0250 F254.00 
G01 X43.5530 Y24.1856 F508.00 
G01 X43.4842 Y24.1459 
G01 X43.4281 Y24.0898 
G01 X43.3884 Y24.0210 
G01 X43.3678 Y23.9443 
G01 X43.3678 Y23.8649 
G01 X43.3884 Y23.7882 
G01 X43.4281 Y23.7194 
G01 X43.4842 Y23.6632 
G01 X43.5530 Y23.6235 
G01 X43.6297 Y23.6030 
G01 X43.7576 Y23.6030 
G01 X43.7576 Y23.4751 
G01 X43.7782 Y23.3984 
G01 X43.8179 Y23.3296 
G01 X43.8740 Y23.2734 
G01 X43.9428 Y23.2337 
G01 X44.0195 Y23.2132 
G01 X44.0989 Y23.2132 
G01 X44.1756 Y23.2337 
G01 X44.2444 Y23.2734 
G01 X44.3005 Y23.3296 
G01 X44.3402 Y23.3984 
G01 X44.3608 Y23.4751 
G01 X44.3608 Y23.6030 
G01 X45.2683 Y23.6030 
G01 X45.3450 Y23.6235 
G01 X45.4138 Y23.6632 
G01 X45.4207 Y23.6702 
G01 X45.4699 Y23.7194 
G01 X45.8597 Y24.1092 
G01 X45.8994 Y24.1780 
G01 X45.9200 Y24.2547 
G01 X45.9200 Y24.3341 
G01 X45.8994 Y24.4108 
G01 X45.8597 Y24.4796 
G01 X45.8036 Y24.5357 
G01 X45.7348 Y24.5754 
G01 X45.6581 Y24.5960 
G01 X45.5787 Y24.5960 
G01 X45.5020 Y24.5754 
G01 X45.4332 Y24.5357 
G01 X45.1037 Y24.2062 
G01 X44.3608 Y24.2062 
G01 X44.3608 Y24.3341 
G01 X44.3402 Y24.4108 
G01 X44.3005 Y24.4796 
G01 X44.2444 Y24.5357 
G01 X44.1756 Y24.5754 
G01 X44.0989 Y24.5960 
G01 X44.0195 Y24.5960 
G01 X43.9428 Y24.5754 
G01 X43.8740 Y24.5357 
G01 X43.8179 Y24.4796 
G01 X43.7782 Y24.4108 
G01 X43.7576 Y24.3341 
G01 X43.7576 Y24.2062 
G01 X43.6297 Y24.2062 
G00 Z2.0000 
G00 X43.7576 Y25.0343 
G01 Z-0.0250 F254.00 
G01 X43.7782 Y24.9576 F508.00 
G01 X43.8179 Y24.8888 
G01 X43.8740 Y24.8326 
G01 X43.9428 Y24.7929 
G01 X44.0195 Y24.7724 
G01 X44.0989 Y24.7724 
G01 X44.1756 Y24.7929 
G01 X44.2444 Y24.8326 
G01 X44.3005 Y24.8888 
G01 X44.3402 Y24.9576 
G01 X44.3608 Y25.0343 
G01 X44.3608 Y25.1622 
G01 X45.3168 Y25.1622 
G01 X45.3168 Y25.0343 
G01 X45.3374 Y24.9576 
G01 X45.3771 Y24.8888 
G01 X45.4332 Y24.8326 
G01 X45.5020 Y24.7929 
G01 X45.5787 Y24.7724 
G01 X45.6581 Y24.7724 
G01 X45.7348 Y24.7929 
G01 X45.8036 Y24.8326 
G01 X45.8597 Y24.8888 
G01 X45.8994 Y24.9576 
G01 X45.9200 Y25.0343 
G01 X45.9200 Y25.8933 
G01 X45.8994 Y25.9700 
G01 X45.8597 Y26.0388 
G01 X45.8036 Y26.0949 
G01 X45.7348 Y26.1346 
G01 X45.6581 Y26.1552 
G01 X45.5787 Y26.1552 
G01 X45.5020 Y26.1346 
G01 X45.4332 Y26.0949 
G01 X45.3771 Y26.0388 
G01 X45.3374 Y25.9700 
G01 X45.3168 Y25.8933 
G01 X45.3168 Y25.7654 
G01 X44.0195 Y25.7654 
G01 X43.9428 Y25.7448 
G01 X43.8740 Y25.7051 
G01 X43.8179 Y25.6490 
G01 X43.7782 Y25.5802 
G01 X43.7576 Y25.5035 
G01 X43.7576 Y25.4241 
G01 X43.7576 Y25.0343 
G00 Z2.0000 
G00 X43.3193 Y25.7654 
G01 Z-0.0250 F254.00 
G01 X42.8501 Y25.7654 F508.00 
G01 X42.7734 Y25.7448 
G01 X42.7046 Y25.7051 
G01 X42.6485 Y25.6490 
G01 X42.6088 Y25.5802 
G01 X42.5882 Y25.5035 
G01 X42.5882 Y25.4241 
G01 X42.6088 Y25.3474 
G01 X42.6485 Y25.2786 
G01 X42.7046 Y25.2224 
G01 X42.7734 Y25.1827 
G01 X42.8501 Y25.1622 
G01 X43.3193 Y25.1622 
G01 X43.3960 Y25.1827 
G01 X43.4648 Y25.2224 
G01 X43.5209 Y25.2786 
G01 X43.5606 Y25.3474 
G01 X43.5812 Y25.4241 
G01 X43.5812 Y25.5035 
G01 X43.5606 Y25.5802 
G01 X43.5209 Y25.6490 
G01 X43.4648 Y25.7051 
G01 X43.3960 Y25.7448 
G01 X43.3193 Y25.7654 
G00 Z2.0000 
G00 X43.2399 Y26.3316 
G01 Z-0.0250 F254.00 
G01 X44.8089 Y26.3316 F508.00 
G01 X44.8186 Y26.3296 
G01 X44.8388 Y26.3310 
G01 X44.8590 Y26.3296 
G01 X44.8687 Y26.3316 
G01 X45.6581 Y26.3316 
G01 X45.7348 Y26.3521 
G01 X45.8036 Y26.3918 
G01 X45.8597 Y26.4480 
G01 X45.8994 Y26.5168 
G01 X45.9200 Y26.5935 
G01 X45.9200 Y26.6729 
G01 X45.8994 Y26.7496 
G01 X45.8597 Y26.8184 
G01 X45.8036 Y26.8745 
G01 X45.7348 Y26.9142 
G01 X45.6581 Y26.9348 
G01 X45.4023 Y26.9348 
G01 X45.8914 Y27.6683 
G01 X45.9168 Y27.7435 
G01 X45.9219 Y27.8228 
G01 X45.9064 Y27.9007 
G01 X45.8712 Y27.9718 
G01 X45.8187 Y28.0315 
G01 X45.7527 Y28.0755 
G01 X45.6774 Y28.1010 
G01 X45.5982 Y28.1061 
G01 X45.5203 Y28.0905 
G01 X45.4491 Y28.0553 
G01 X45.3895 Y28.0029 
G01 X44.8388 Y27.1769 
G01 X44.2881 Y28.0029 
G01 X44.2285 Y28.0553 
G01 X44.1573 Y28.0905 
G01 X44.0794 Y28.1061 
G01 X44.0002 Y28.1010 
G01 X43.9249 Y28.0755 
G01 X43.8589 Y28.0315 
G01 X43.8064 Y27.9718 
G01 X43.7712 Y27.9007 
G01 X43.7557 Y27.8228 
G01 X43.7608 Y27.7435 
G01 X43.7862 Y27.6683 
G01 X44.2753 Y26.9348 
G01 X43.2399 Y26.9348 
G01 X43.1632 Y26.9142 
G01 X43.0944 Y26.8745 
G01 X43.0383 Y26.8184 
G01 X42.9986 Y26.7496 
G01 X42.9780 Y26.6729 
G01 X42.9780 Y26.5935 
G01 X42.9986 Y26.5168 
G01 X43.0383 Y26.4480 
G01 X43.0944 Y26.3918 
G01 X43.1632 Y26.3521 
G01 X43.2399 Y26.3316 
G00 Z2.0000 
G00 X37.8428 Y41.8102 
G01 Z-0.0250 F254.00 
G01 X37.8428 Y42.0098 F508.00 
G01 X37.8039 Y42.2054 
G01 X37.7275 Y42.3897 
G01 X37.6167 Y42.5556 
G01 X37.4756 Y42.6967 
G01 X37.3097 Y42.8075 
G01 X37.1254 Y42.8839 
G01 X36.9298 Y42.9228 
G01 X36.7302 Y42.9228 
G01 X36.5346 Y42.8839 
G01 X36.3503 Y42.8075 
G01 X36.1844 Y42.6967 
G01 X36.0433 Y42.5556 
G01 X35.9325 Y42.3897 
G01 X35.8561 Y42.2054 
G01 X35.8172 Y42.0098 
G01 X35.8172 Y41.8102 
G01 X35.8561 Y41.6146 
G01 X35.9325 Y41.4303 
G01 X36.0433 Y41.2644 
G01 X36.1844 Y41.1233 
G01 X36.3503 Y41.0125 
G01 X36.5346 Y40.9361 
G01 X36.7302 Y40.8972 
G01 X36.9298 Y40.8972 
G01 X37.1254 Y40.9361 
G01 X37.3097 Y41.0125 
G01 X37.4756 Y41.1233 
G01 X37.6167 Y41.2644 
G01 X37.7275 Y41.4303 
G01 X37.8039 Y41.6146 
G01 X37.8428 Y41.8102 
G00 Z2.0000 
G00 X22.6028 Y26.5702 
G01 Z-0.0250 F254.00 
G01 X22.6028 Y26.7698 F508.00 
G01 X22.5639 Y26.9654 
G01 X22.4875 Y27.1497 
G01 X22.3767 Y27.3156 
G01 X22.2356 Y27.4567 
