(.../pcb-gcode-3.6.0.4/pcb-gcode.ulp)
(Copyright 2005 - 2012 by John Johnson)
(See readme.txt for licensing terms.)
(This file generated from the board:)
(.../eagle/eagle/SulaMatik/SulaMatik.brd)
(Current profile is .../pcb-gcode-3.6.0.4/profiles/emc.pp  )
(This file generated 7/15/2014 10:03:05 PM)
(Settings from pcb-machine.h)
(  Tool Size)
(0.1000 )
(Z Axis Settings)
(  High     Up        Down     Drill)
(19.5000 	2.0000 	-0.0250 	-1.5000 )
(spindle on time = 1.0000)
(milling depth = -0.0500)
(text depth = -0.0500)
(tool change at 15.0000 15.0000 19.0000 )
(feed rate xy = F508.00 )
(feed rate z  = F254.00 )
(Settings from pcb-defaults.h)
(isolate min = 0.0500)
(isolate max = 1.0000)
(isolate step = 0.1000)
(Generated top outlines, top drill, bottom outlines, bottom drill, )
(Unit of measure: mm)
(Metric Mode)
G21
(Absolute Coordinates)
G90
G00 X0.0000 Y0.0000 
M03
G04 P1.000000
G00 Z2.0000 
G00 X44.8173 Y1.6272 
G01 Z-0.0250 F254.00 
G01 X46.6227 Y1.6272 F508.00 
G01 X46.7991 Y1.6623 
G01 X46.9652 Y1.7311 
G01 X47.1147 Y1.8310 
G01 X47.2418 Y1.9581 
G01 X47.3417 Y2.1076 
G01 X47.4105 Y2.2737 
G01 X47.4456 Y2.4501 
G01 X47.4456 Y2.6299 
G01 X47.4105 Y2.8063 
G01 X47.3417 Y2.9724 
G01 X47.2418 Y3.1219 
G01 X47.1147 Y3.2490 
G01 X46.9652 Y3.3489 
G01 X46.7991 Y3.4177 
G01 X46.6227 Y3.4528 
G01 X44.8173 Y3.4528 
G01 X44.6409 Y3.4177 
G01 X44.4748 Y3.3489 
G01 X44.3253 Y3.2490 
G01 X44.1982 Y3.1219 
G01 X44.0983 Y2.9724 
G01 X44.0295 Y2.8063 
G01 X43.9944 Y2.6299 
G01 X43.9944 Y2.4501 
G01 X44.0295 Y2.2737 
G01 X44.0983 Y2.1076 
G01 X44.1982 Y1.9581 
G01 X44.3253 Y1.8310 
G01 X44.4748 Y1.7311 
G01 X44.6409 Y1.6623 
G01 X44.8173 Y1.6272 
G00 Z2.0000 
G00 X39.7272 Y5.9827 
G01 Z-0.0250 F254.00 
G01 X39.7272 Y4.1773 F508.00 
G01 X39.7623 Y4.0009 
G01 X39.8311 Y3.8348 
G01 X39.9310 Y3.6853 
G01 X40.0581 Y3.5582 
G01 X40.2076 Y3.4583 
G01 X40.3737 Y3.3895 
G01 X40.5501 Y3.3544 
G01 X40.7299 Y3.3544 
G01 X40.9063 Y3.3895 
G01 X41.0724 Y3.4583 
G01 X41.2219 Y3.5582 
G01 X41.3490 Y3.6853 
G01 X41.4489 Y3.8348 
G01 X41.5177 Y4.0009 
G01 X41.5528 Y4.1773 
G01 X41.5528 Y5.9827 
G01 X41.5177 Y6.1591 
G01 X41.5000 Y6.2018 
G01 X41.5000 Y24.1464 
G01 X42.0201 Y24.6666 
G01 X42.1066 Y24.6307 
G01 X42.2612 Y24.6000 
G01 X42.4188 Y24.6000 
G01 X42.5734 Y24.6307 
G01 X42.7189 Y24.6911 
G01 X42.8500 Y24.7786 
G01 X42.9614 Y24.8900 
G01 X43.0489 Y25.0211 
G01 X43.1093 Y25.1666 
G01 X43.1400 Y25.3212 
G01 X43.1400 Y25.4788 
G01 X43.1093 Y25.6334 
G01 X43.0489 Y25.7789 
G01 X42.9614 Y25.9100 
G01 X42.8500 Y26.0214 
G01 X42.7189 Y26.1089 
G01 X42.5734 Y26.1693 
G01 X42.4188 Y26.2000 
G01 X42.2612 Y26.2000 
G01 X42.2500 Y26.1978 
G01 X42.2500 Y31.5716 
G01 X42.2942 Y31.5899 
G01 X42.4271 Y31.6787 
G01 X42.5401 Y31.7917 
G01 X42.6289 Y31.9245 
G01 X42.6900 Y32.0722 
G01 X42.7212 Y32.2289 
G01 X42.7212 Y33.6307 
G01 X42.7500 Y33.7003 
G01 X42.7500 Y38.3964 
G01 X42.8916 Y38.5381 
G01 X42.9619 Y38.6084 
G01 X43.0000 Y38.7003 
G01 X43.0000 Y52.5415 
G01 X44.5441 Y52.5415 
G01 X44.7551 Y52.5749 
G01 X44.9583 Y52.6409 
G01 X45.1487 Y52.7379 
G01 X45.3215 Y52.8635 
G01 X45.4726 Y53.0146 
G01 X45.5982 Y53.1874 
G01 X45.6952 Y53.3778 
G01 X45.7612 Y53.5810 
G01 X45.7946 Y53.7920 
G01 X45.7946 Y54.0056 
G01 X45.7612 Y54.2166 
G01 X45.6952 Y54.4198 
G01 X45.5982 Y54.6102 
G01 X45.4726 Y54.7830 
G01 X45.3215 Y54.9341 
G01 X45.1487 Y55.0597 
G01 X44.9583 Y55.1567 
G01 X44.7551 Y55.2227 
G01 X44.5441 Y55.2561 
G01 X41.8159 Y55.2561 
G01 X41.6049 Y55.2227 
G01 X41.4017 Y55.1567 
G01 X41.2113 Y55.0597 
G01 X41.0385 Y54.9341 
G01 X40.8874 Y54.7830 
G01 X40.7618 Y54.6102 
G01 X40.6648 Y54.4198 
G01 X40.5988 Y54.2166 
G01 X40.5654 Y54.0056 
G01 X40.5654 Y54.0000 
G01 X31.3150 Y54.0000 
G01 X31.3150 Y54.3849 
G01 X31.2998 Y54.4216 
G01 X31.2716 Y54.4498 
G01 X31.2349 Y54.4650 
G01 X29.7251 Y54.4650 
G01 X29.6884 Y54.4498 
G01 X29.6602 Y54.4216 
G01 X29.6450 Y54.3849 
G01 X29.6450 Y53.0751 
G01 X29.6602 Y53.0384 
G01 X29.6884 Y53.0102 
G01 X29.7251 Y52.9950 
G01 X31.2349 Y52.9950 
G01 X31.2716 Y53.0102 
G01 X31.2998 Y53.0384 
G01 X31.3150 Y53.0751 
G01 X31.3150 Y53.5000 
G01 X40.6251 Y53.5000 
G01 X40.6648 Y53.3778 
G01 X40.7618 Y53.1874 
G01 X40.8874 Y53.0146 
G01 X41.0385 Y52.8635 
G01 X41.2113 Y52.7379 
G01 X41.4017 Y52.6409 
G01 X41.6049 Y52.5749 
G01 X41.8159 Y52.5415 
G01 X42.5000 Y52.5415 
G01 X42.5000 Y46.6036 
G01 X41.2592 Y45.3628 
G01 X39.7373 Y45.3628 
G01 X39.5609 Y45.3277 
G01 X39.3948 Y45.2589 
G01 X39.2453 Y45.1590 
G01 X39.1182 Y45.0319 
G01 X39.0183 Y44.8824 
G01 X38.9495 Y44.7163 
G01 X38.9144 Y44.5399 
G01 X38.9144 Y44.3601 
G01 X38.9495 Y44.1837 
G01 X39.0183 Y44.0176 
G01 X39.1182 Y43.8681 
G01 X39.2453 Y43.7410 
G01 X39.3948 Y43.6411 
G01 X39.5609 Y43.5723 
G01 X39.7373 Y43.5372 
G01 X41.5427 Y43.5372 
G01 X41.7191 Y43.5723 
G01 X41.8852 Y43.6411 
G01 X42.0347 Y43.7410 
G01 X42.1618 Y43.8681 
G01 X42.2617 Y44.0176 
G01 X42.3305 Y44.1837 
G01 X42.3656 Y44.3601 
G01 X42.3656 Y44.5399 
G01 X42.3305 Y44.7163 
G01 X42.2617 Y44.8824 
G01 X42.1618 Y45.0319 
G01 X42.0347 Y45.1590 
G01 X41.8852 Y45.2589 
G01 X41.8691 Y45.2656 
G01 X42.5000 Y45.8965 
G01 X42.5000 Y38.8536 
G01 X42.2881 Y38.6416 
G01 X42.2500 Y38.5497 
G01 X42.2500 Y34.4684 
G01 X42.1466 Y34.5112 
G01 X41.9899 Y34.5424 
G01 X41.8301 Y34.5424 
G01 X41.6734 Y34.5112 
G01 X41.5258 Y34.4501 
G01 X41.3929 Y34.3613 
G01 X41.2799 Y34.2483 
G01 X41.1911 Y34.1154 
G01 X41.1300 Y33.9678 
G01 X41.0988 Y33.8111 
G01 X41.0988 Y32.2289 
G01 X41.1300 Y32.0722 
G01 X41.1911 Y31.9245 
G01 X41.2799 Y31.7917 
G01 X41.3929 Y31.6787 
G01 X41.5258 Y31.5899 
G01 X41.6734 Y31.5288 
G01 X41.7500 Y31.5135 
G01 X41.7500 Y25.9414 
G01 X41.7186 Y25.9100 
G01 X41.6311 Y25.7789 
G01 X41.5707 Y25.6334 
G01 X41.5400 Y25.4788 
G01 X41.5400 Y25.3212 
G01 X41.5707 Y25.1666 
G01 X41.6311 Y25.0211 
G01 X41.6457 Y24.9992 
G01 X41.0381 Y24.3916 
G01 X41.0000 Y24.2997 
G01 X41.0000 Y6.7317 
G01 X40.9063 Y6.7705 
G01 X40.7299 Y6.8056 
G01 X40.5501 Y6.8056 
G01 X40.3737 Y6.7705 
G01 X40.2076 Y6.7017 
G01 X40.0581 Y6.6018 
G01 X39.9310 Y6.4747 
G01 X39.8311 Y6.3252 
G01 X39.7623 Y6.1591 
G01 X39.7272 Y5.9827 
G00 Z2.0000 
G00 X47.0841 Y18.5785 
G01 Z-0.0250 F254.00 
G01 X44.3559 Y18.5785 F508.00 
G01 X44.1449 Y18.5451 
G01 X43.9417 Y18.4791 
G01 X43.7513 Y18.3821 
G01 X43.5785 Y18.2565 
G01 X43.4274 Y18.1054 
G01 X43.3018 Y17.9326 
G01 X43.2048 Y17.7422 
G01 X43.1388 Y17.5390 
G01 X43.1054 Y17.3280 
G01 X43.1054 Y17.1144 
G01 X43.1388 Y16.9034 
G01 X43.2048 Y16.7002 
G01 X43.3018 Y16.5098 
G01 X43.4274 Y16.3370 
G01 X43.5785 Y16.1859 
G01 X43.7513 Y16.0603 
G01 X43.9417 Y15.9633 
G01 X44.0686 Y15.9221 
G01 X42.5381 Y14.3916 
G01 X42.5000 Y14.2997 
G01 X42.5000 Y10.4503 
G01 X42.5381 Y10.3584 
G01 X42.6084 Y10.2881 
G01 X44.4705 Y8.4260 
G01 X44.3253 Y8.3290 
G01 X44.1982 Y8.2019 
G01 X44.0983 Y8.0524 
G01 X44.0295 Y7.8863 
G01 X43.9944 Y7.7099 
G01 X43.9944 Y7.5301 
G01 X44.0295 Y7.3537 
G01 X44.0983 Y7.1876 
G01 X44.1982 Y7.0381 
G01 X44.3253 Y6.9110 
G01 X44.4748 Y6.8111 
G01 X44.6409 Y6.7423 
G01 X44.8173 Y6.7072 
G01 X46.6227 Y6.7072 
G01 X46.7991 Y6.7423 
G01 X46.9652 Y6.8111 
G01 X47.1147 Y6.9110 
G01 X47.2418 Y7.0381 
G01 X47.3417 Y7.1876 
G01 X47.4105 Y7.3537 
G01 X47.4456 Y7.5301 
G01 X47.4456 Y7.7099 
G01 X47.4105 Y7.8863 
G01 X47.3417 Y8.0524 
G01 X47.2418 Y8.2019 
G01 X47.1147 Y8.3290 
G01 X46.9652 Y8.4289 
G01 X46.7991 Y8.4977 
G01 X46.6227 Y8.5328 
G01 X45.0708 Y8.5328 
G01 X43.0000 Y10.6036 
G01 X43.0000 Y14.1464 
G01 X44.7174 Y15.8639 
G01 X47.0841 Y15.8639 
G01 X47.2951 Y15.8973 
G01 X47.4983 Y15.9633 
G01 X47.6887 Y16.0603 
G01 X47.8615 Y16.1859 
G01 X48.0126 Y16.3370 
G01 X48.1382 Y16.5098 
G01 X48.2352 Y16.7002 
G01 X48.3012 Y16.9034 
G01 X48.3346 Y17.1144 
G01 X48.3346 Y17.3280 
G01 X48.3012 Y17.5390 
G01 X48.2352 Y17.7422 
G01 X48.1382 Y17.9326 
G01 X48.0126 Y18.1054 
G01 X47.8615 Y18.2565 
G01 X47.6887 Y18.3821 
G01 X47.4983 Y18.4791 
G01 X47.2951 Y18.5451 
G01 X47.0841 Y18.5785 
G00 Z2.0000 
G00 X47.0841 Y14.6161 
G01 Z-0.0250 F254.00 
G01 X44.3559 Y14.6161 F508.00 
G01 X44.1449 Y14.5827 
G01 X43.9417 Y14.5167 
G01 X43.7513 Y14.4197 
G01 X43.5785 Y14.2941 
G01 X43.4274 Y14.1430 
G01 X43.3018 Y13.9702 
G01 X43.2048 Y13.7798 
G01 X43.1388 Y13.5766 
G01 X43.1054 Y13.3656 
G01 X43.1054 Y13.1520 
G01 X43.1388 Y12.9410 
G01 X43.2048 Y12.7378 
G01 X43.3018 Y12.5474 
G01 X43.4274 Y12.3746 
G01 X43.5785 Y12.2235 
G01 X43.7513 Y12.0979 
G01 X43.9417 Y12.0009 
G01 X44.1449 Y11.9349 
G01 X44.3559 Y11.9015 
G01 X46.7449 Y11.9015 
G01 X47.5000 Y11.1464 
G01 X47.5000 Y6.5000 
G01 X44.6036 Y6.5000 
G01 X42.2500 Y8.8536 
G01 X42.2500 Y20.8964 
G01 X45.3536 Y24.0000 
G01 X46.3399 Y24.0000 
G01 X46.3766 Y24.0152 
G01 X46.4048 Y24.0434 
G01 X46.4200 Y24.0801 
G01 X46.4200 Y24.9199 
G01 X46.4048 Y24.9566 
G01 X46.3766 Y24.9848 
G01 X46.3399 Y25.0000 
G01 X45.1001 Y25.0000 
G01 X45.0634 Y24.9848 
G01 X45.0352 Y24.9566 
G01 X45.0200 Y24.9199 
G01 X45.0200 Y24.3736 
G01 X41.8584 Y21.2119 
G01 X41.7881 Y21.1416 
G01 X41.7500 Y21.0497 
G01 X41.7500 Y8.7003 
G01 X41.7881 Y8.6084 
G01 X44.2881 Y6.1084 
G01 X44.3584 Y6.0381 
G01 X44.4503 Y6.0000 
G01 X47.7997 Y6.0000 
G01 X47.8916 Y6.0381 
G01 X47.9619 Y6.1084 
G01 X48.0000 Y6.2003 
G01 X48.0000 Y11.2997 
G01 X47.9619 Y11.3916 
G01 X47.3883 Y11.9652 
G01 X47.4983 Y12.0009 
G01 X47.6887 Y12.0979 
G01 X47.8615 Y12.2235 
G01 X48.0126 Y12.3746 
G01 X48.1382 Y12.5474 
G01 X48.2352 Y12.7378 
G01 X48.3012 Y12.9410 
G01 X48.3346 Y13.1520 
G01 X48.3346 Y13.3656 
G01 X48.3012 Y13.5766 
G01 X48.2352 Y13.7798 
G01 X48.1382 Y13.9702 
G01 X48.0126 Y14.1430 
G01 X47.8615 Y14.2941 
G01 X47.6887 Y14.4197 
G01 X47.4983 Y14.5167 
G01 X47.2951 Y14.5827 
G01 X47.0841 Y14.6161 
G00 Z2.0000 
G00 X45.1001 Y47.1200 
G01 Z-0.0250 F254.00 
G01 X45.0634 Y47.1048 F508.00 
G01 X45.0352 Y47.0766 
G01 X45.0200 Y47.0399 
G01 X45.0200 Y46.2001 
G01 X45.0352 Y46.1634 
G01 X45.0634 Y46.1352 
G01 X45.1001 Y46.1200 
G01 X45.7764 Y46.1200 
G01 X46.5000 Y45.3964 
G01 X46.5000 Y35.8535 
G01 X46.3775 Y35.9761 
G01 X46.4048 Y36.0034 
G01 X46.4200 Y36.0401 
G01 X46.4200 Y36.8799 
G01 X46.4048 Y36.9166 
G01 X46.3766 Y36.9448 
G01 X46.3399 Y36.9600 
G01 X45.1001 Y36.9600 
G01 X45.0634 Y36.9448 
G01 X45.0352 Y36.9166 
G01 X45.0200 Y36.8799 
G01 X45.0200 Y36.0401 
G01 X45.0352 Y36.0034 
G01 X45.0634 Y35.9752 
G01 X45.1001 Y35.9600 
G01 X45.6864 Y35.9600 
G01 X46.5000 Y35.1464 
G01 X46.5000 Y27.6036 
G01 X45.6964 Y26.8000 
G01 X45.1001 Y26.8000 
G01 X45.0634 Y26.7848 
G01 X45.0352 Y26.7566 
G01 X45.0200 Y26.7199 
G01 X45.0200 Y25.8801 
G01 X45.0352 Y25.8434 
G01 X45.0634 Y25.8152 
G01 X45.1001 Y25.8000 
G01 X46.3399 Y25.8000 
G01 X46.3766 Y25.8152 
G01 X46.4048 Y25.8434 
G01 X46.4200 Y25.8801 
G01 X46.4200 Y26.7199 
G01 X46.4048 Y26.7566 
G01 X46.3825 Y26.7789 
G01 X46.8916 Y27.2881 
G01 X46.9619 Y27.3584 
G01 X47.0000 Y27.4503 
G01 X47.0000 Y45.5497 
G01 X46.9619 Y45.6416 
G01 X46.8916 Y45.7119 
G01 X46.4151 Y46.1884 
G01 X46.4200 Y46.2001 
G01 X46.4200 Y47.0399 
G01 X46.4122 Y47.0587 
G01 X46.4619 Y47.1084 
G01 X46.5000 Y47.2003 
G01 X46.5000 Y54.5497 
G01 X46.4619 Y54.6416 
G01 X45.2119 Y55.8916 
G01 X45.1416 Y55.9619 
G01 X45.0497 Y56.0000 
G01 X29.2003 Y56.0000 
G01 X29.1084 Y55.9619 
G01 X29.0381 Y55.8916 
G01 X29.0000 Y55.7997 
G01 X29.0000 Y52.2500 
G01 X26.9500 Y52.2500 
G01 X26.9500 Y52.9599 
G01 X26.9348 Y52.9966 
G01 X26.9066 Y53.0248 
G01 X26.8699 Y53.0400 
G01 X25.8301 Y53.0400 
G01 X25.7934 Y53.0248 
G01 X25.7652 Y52.9966 
G01 X25.7500 Y52.9599 
G01 X25.7500 Y51.8536 
G01 X24.3584 Y50.4619 
G01 X24.2881 Y50.3916 
G01 X24.2500 Y50.2997 
G01 X24.2500 Y37.8535 
G01 X20.7500 Y41.3536 
G01 X20.7500 Y56.2320 
G01 X20.7965 Y56.2785 
G01 X20.9221 Y56.4513 
G01 X21.0191 Y56.6417 
G01 X21.0851 Y56.8449 
G01 X21.1185 Y57.0559 
G01 X21.1185 Y59.7841 
G01 X21.0851 Y59.9951 
G01 X21.0191 Y60.1983 
G01 X20.9221 Y60.3887 
G01 X20.7965 Y60.5615 
G01 X20.6454 Y60.7126 
G01 X20.4726 Y60.8382 
G01 X20.2822 Y60.9352 
G01 X20.0790 Y61.0012 
G01 X19.8680 Y61.0346 
G01 X19.6544 Y61.0346 
G01 X19.4434 Y61.0012 
G01 X19.2402 Y60.9352 
G01 X19.0498 Y60.8382 
G01 X18.8770 Y60.7126 
G01 X18.7259 Y60.5615 
G01 X18.6003 Y60.3887 
G01 X18.5033 Y60.1983 
G01 X18.4373 Y59.9951 
G01 X18.4039 Y59.7841 
G01 X18.4039 Y57.5075 
G01 X11.0381 Y50.1416 
G01 X11.0000 Y50.0497 
G01 X11.0000 Y46.5000 
G01 X2.7500 Y46.5000 
G01 X2.7500 Y47.5497 
G01 X2.7119 Y47.6416 
G01 X2.6416 Y47.7119 
G01 X2.1400 Y48.2136 
G01 X2.1400 Y48.8799 
G01 X2.1248 Y48.9166 
G01 X2.0966 Y48.9448 
G01 X2.0599 Y48.9600 
G01 X1.2201 Y48.9600 
G01 X1.1834 Y48.9448 
G01 X1.1552 Y48.9166 
G01 X1.1400 Y48.8799 
G01 X1.1400 Y47.6401 
G01 X1.1552 Y47.6034 
G01 X1.1834 Y47.5752 
G01 X1.2201 Y47.5600 
G01 X2.0599 Y47.5600 
G01 X2.0787 Y47.5678 
G01 X2.2500 Y47.3964 
G01 X2.2500 Y44.9300 
G01 X1.9201 Y44.9300 
G01 X1.8834 Y44.9148 
G01 X1.8552 Y44.8866 
G01 X1.8400 Y44.8499 
G01 X1.8400 Y43.6101 
G01 X1.8552 Y43.5734 
G01 X1.8834 Y43.5452 
G01 X1.9201 Y43.5300 
G01 X2.8664 Y43.5300 
G01 X3.5000 Y42.8964 
G01 X3.5000 Y37.6036 
G01 X2.8564 Y36.9600 
G01 X1.9201 Y36.9600 
G01 X1.8834 Y36.9448 
G01 X1.8552 Y36.9166 
G01 X1.8400 Y36.8799 
G01 X1.8400 Y36.0401 
G01 X1.8552 Y36.0034 
G01 X1.8834 Y35.9752 
G01 X1.9201 Y35.9600 
G01 X3.1599 Y35.9600 
G01 X3.1966 Y35.9752 
G01 X3.2248 Y36.0034 
G01 X3.2400 Y36.0401 
G01 X3.2400 Y36.6364 
G01 X3.8916 Y37.2881 
G01 X3.9619 Y37.3584 
G01 X4.0000 Y37.4503 
G01 X4.0000 Y43.0497 
G01 X3.9619 Y43.1416 
G01 X3.2400 Y43.8636 
G01 X3.2400 Y44.8499 
G01 X3.2248 Y44.8866 
G01 X3.1966 Y44.9148 
G01 X3.1599 Y44.9300 
G01 X2.7500 Y44.9300 
G01 X2.7500 Y46.0000 
G01 X11.2997 Y46.0000 
G01 X11.3916 Y46.0381 
G01 X11.4619 Y46.1084 
G01 X11.5000 Y46.2003 
G01 X11.5000 Y49.8964 
G01 X18.4400 Y56.8365 
G01 X18.5033 Y56.6417 
G01 X18.6003 Y56.4513 
G01 X18.7259 Y56.2785 
G01 X18.8770 Y56.1274 
G01 X19.0498 Y56.0018 
G01 X19.2402 Y55.9048 
G01 X19.4434 Y55.8388 
G01 X19.6544 Y55.8054 
G01 X19.8680 Y55.8054 
G01 X20.0790 Y55.8388 
G01 X20.2500 Y55.8944 
G01 X20.2500 Y43.6035 
G01 X19.8497 Y44.0038 
G01 X19.8589 Y44.0176 
G01 X19.9277 Y44.1837 
G01 X19.9628 Y44.3601 
G01 X19.9628 Y44.5399 
G01 X19.9277 Y44.7163 
G01 X19.8589 Y44.8824 
G01 X19.7590 Y45.0319 
G01 X19.6319 Y45.1590 
G01 X19.4824 Y45.2589 
G01 X19.3163 Y45.3277 
G01 X19.1399 Y45.3628 
G01 X18.9601 Y45.3628 
G01 X18.7837 Y45.3277 
G01 X18.6176 Y45.2589 
G01 X18.4681 Y45.1590 
G01 X18.3410 Y45.0319 
G01 X18.2411 Y44.8824 
G01 X18.1723 Y44.7163 
G01 X18.1372 Y44.5399 
G01 X18.1372 Y44.3601 
G01 X18.1723 Y44.1837 
G01 X18.2411 Y44.0176 
G01 X18.3410 Y43.8681 
G01 X18.4278 Y43.7813 
G01 X13.8751 Y39.2287 
G01 X12.2864 Y39.2287 
G01 X12.2497 Y39.2135 
G01 X12.2215 Y39.1853 
G01 X12.2063 Y39.1486 
G01 X12.2063 Y37.6102 
G01 X12.2215 Y37.5735 
G01 X12.2497 Y37.5453 
G01 X12.2864 Y37.5301 
G01 X14.3328 Y37.5301 
G01 X14.3695 Y37.5453 
G01 X14.3977 Y37.5735 
G01 X14.4129 Y37.6102 
G01 X14.4129 Y39.0593 
G01 X18.9023 Y43.5487 
G01 X18.9601 Y43.5372 
G01 X19.1399 Y43.5372 
G01 X19.3163 Y43.5723 
G01 X19.4824 Y43.6411 
G01 X19.4962 Y43.6503 
G01 X20.2500 Y42.8964 
G01 X20.2500 Y41.2003 
G01 X20.2881 Y41.1084 
G01 X20.3584 Y41.0381 
G01 X24.2881 Y37.1084 
G01 X24.3584 Y37.0381 
G01 X27.2400 Y34.1564 
G01 X27.2400 Y33.5936 
G01 X21.5381 Y27.8916 
G01 X21.5000 Y27.7997 
G01 X21.5000 Y17.7003 
G01 X21.5381 Y17.6084 
G01 X21.6084 Y17.5381 
G01 X21.7003 Y17.5000 
G01 X26.1464 Y17.5000 
G01 X29.1464 Y14.5000 
G01 X27.8584 Y13.2119 
G01 X27.7881 Y13.1416 
G01 X27.7500 Y13.0497 
G01 X27.7500 Y5.3536 
G01 X27.3540 Y4.9576 
G01 X27.3001 Y5.0383 
G01 X27.1871 Y5.1513 
G01 X27.0542 Y5.2401 
G01 X26.9066 Y5.3012 
G01 X26.7499 Y5.3324 
G01 X26.5901 Y5.3324 
G01 X26.4334 Y5.3012 
G01 X26.2858 Y5.2401 
G01 X26.1529 Y5.1513 
G01 X26.0399 Y5.0383 
G01 X25.9511 Y4.9054 
G01 X25.8900 Y4.7578 
G01 X25.8588 Y4.6011 
G01 X25.8588 Y4.0000 
G01 X24.9412 Y4.0000 
G01 X24.9412 Y4.6011 
G01 X24.9100 Y4.7578 
G01 X24.8489 Y4.9054 
G01 X24.7601 Y5.0383 
G01 X24.6471 Y5.1513 
G01 X24.5142 Y5.2401 
G01 X24.3666 Y5.3012 
G01 X24.2099 Y5.3324 
G01 X24.0501 Y5.3324 
G01 X23.8934 Y5.3012 
G01 X23.7458 Y5.2401 
G01 X23.6129 Y5.1513 
G01 X23.4999 Y5.0383 
G01 X23.4111 Y4.9054 
G01 X23.3500 Y4.7578 
G01 X23.3188 Y4.6011 
G01 X23.3188 Y4.0000 
G01 X22.4012 Y4.0000 
G01 X22.4012 Y4.6011 
G01 X22.3700 Y4.7578 
G01 X22.3089 Y4.9054 
G01 X22.2201 Y5.0383 
G01 X22.1071 Y5.1513 
G01 X21.9742 Y5.2401 
G01 X21.8266 Y5.3012 
G01 X21.6699 Y5.3324 
G01 X21.5101 Y5.3324 
G01 X21.3534 Y5.3012 
G01 X21.2058 Y5.2401 
G01 X21.0729 Y5.1513 
G01 X20.9599 Y5.0383 
G01 X20.8711 Y4.9054 
G01 X20.8100 Y4.7578 
G01 X20.7788 Y4.6011 
G01 X20.7788 Y4.0000 
G01 X19.8612 Y4.0000 
G01 X19.8612 Y4.6011 
G01 X19.8300 Y4.7578 
G01 X19.7689 Y4.9054 
G01 X19.6801 Y5.0383 
G01 X19.5671 Y5.1513 
G01 X19.4342 Y5.2401 
G01 X19.2866 Y5.3012 
G01 X19.1299 Y5.3324 
G01 X18.9701 Y5.3324 
G01 X18.8134 Y5.3012 
G01 X18.6657 Y5.2401 
G01 X18.5329 Y5.1513 
G01 X18.4199 Y5.0383 
G01 X18.3311 Y4.9054 
G01 X18.2700 Y4.7578 
G01 X18.2388 Y4.6011 
G01 X18.2388 Y4.0000 
G01 X17.3212 Y4.0000 
G01 X17.3212 Y4.6011 
G01 X17.2900 Y4.7578 
G01 X17.2289 Y4.9054 
G01 X17.1401 Y5.0383 
G01 X17.0271 Y5.1513 
G01 X16.8942 Y5.2401 
G01 X16.7466 Y5.3012 
G01 X16.5899 Y5.3324 
G01 X16.4301 Y5.3324 
G01 X16.2734 Y5.3012 
G01 X16.1258 Y5.2401 
G01 X15.9929 Y5.1513 
G01 X15.8799 Y5.0383 
G01 X15.7911 Y4.9054 
G01 X15.7300 Y4.7578 
G01 X15.6988 Y4.6011 
G01 X15.6988 Y4.0000 
G01 X14.7812 Y4.0000 
G01 X14.7812 Y4.6011 
G01 X14.7500 Y4.7578 
G01 X14.6889 Y4.9054 
G01 X14.6001 Y5.0383 
G01 X14.4871 Y5.1513 
G01 X14.3542 Y5.2401 
G01 X14.2066 Y5.3012 
G01 X14.0499 Y5.3324 
G01 X13.8901 Y5.3324 
G01 X13.7334 Y5.3012 
G01 X13.5858 Y5.2401 
G01 X13.4529 Y5.1513 
G01 X13.3399 Y5.0383 
G01 X13.2511 Y4.9054 
G01 X13.1900 Y4.7578 
G01 X13.1588 Y4.6011 
G01 X13.1588 Y4.0000 
G01 X12.2412 Y4.0000 
G01 X12.2412 Y4.6011 
G01 X12.2100 Y4.7578 
G01 X12.1489 Y4.9054 
G01 X12.0601 Y5.0383 
G01 X11.9471 Y5.1513 
G01 X11.8142 Y5.2401 
G01 X11.6666 Y5.3012 
G01 X11.5099 Y5.3324 
G01 X11.3501 Y5.3324 
G01 X11.1934 Y5.3012 
G01 X11.0457 Y5.2401 
G01 X10.9129 Y5.1513 
G01 X10.7999 Y5.0383 
G01 X10.7111 Y4.9054 
G01 X10.6500 Y4.7578 
G01 X10.6188 Y4.6011 
G01 X10.6188 Y4.0000 
G01 X9.7012 Y4.0000 
G01 X9.7012 Y4.6011 
G01 X9.6700 Y4.7578 
G01 X9.6089 Y4.9054 
G01 X9.5201 Y5.0383 
G01 X9.4071 Y5.1513 
G01 X9.2742 Y5.2401 
G01 X9.1266 Y5.3012 
G01 X8.9699 Y5.3324 
G01 X8.8101 Y5.3324 
G01 X8.6534 Y5.3012 
G01 X8.5058 Y5.2401 
G01 X8.3729 Y5.1513 
G01 X8.2599 Y5.0383 
G01 X8.1711 Y4.9054 
G01 X8.1100 Y4.7578 
G01 X8.0788 Y4.6011 
G01 X8.0788 Y4.0000 
G01 X7.1612 Y4.0000 
G01 X7.1612 Y4.6011 
G01 X7.1300 Y4.7578 
G01 X7.0689 Y4.9054 
G01 X6.9801 Y5.0383 
G01 X6.8671 Y5.1513 
G01 X6.7342 Y5.2401 
G01 X6.5866 Y5.3012 
G01 X6.4299 Y5.3324 
G01 X6.2701 Y5.3324 
G01 X6.1134 Y5.3012 
G01 X5.9657 Y5.2401 
G01 X5.8329 Y5.1513 
G01 X5.7199 Y5.0383 
G01 X5.6311 Y4.9054 
G01 X5.5700 Y4.7578 
G01 X5.5388 Y4.6011 
G01 X5.5388 Y4.0000 
G01 X4.6212 Y4.0000 
G01 X4.6212 Y4.6011 
G01 X4.5900 Y4.7578 
G01 X4.5289 Y4.9054 
G01 X4.4401 Y5.0383 
G01 X4.3271 Y5.1513 
G01 X4.1942 Y5.2401 
G01 X4.0466 Y5.3012 
G01 X3.8899 Y5.3324 
G01 X3.7301 Y5.3324 
G01 X3.5734 Y5.3012 
G01 X3.4258 Y5.2401 
G01 X3.2929 Y5.1513 
G01 X3.1799 Y5.0383 
G01 X3.0911 Y4.9054 
G01 X3.0300 Y4.7578 
G01 X2.9988 Y4.6011 
G01 X2.9988 Y3.0189 
G01 X3.0300 Y2.8622 
G01 X3.0911 Y2.7146 
G01 X3.1799 Y2.5817 
G01 X3.2929 Y2.4687 
G01 X3.4258 Y2.3799 
G01 X3.5734 Y2.3188 
G01 X3.7301 Y2.2876 
G01 X3.8899 Y2.2876 
G01 X4.0466 Y2.3188 
G01 X4.1942 Y2.3799 
G01 X4.3271 Y2.4687 
G01 X4.4401 Y2.5817 
G01 X4.5289 Y2.7146 
G01 X4.5900 Y2.8622 
G01 X4.6212 Y3.0189 
G01 X4.6212 Y3.5000 
G01 X5.5388 Y3.5000 
G01 X5.5388 Y3.0189 
G01 X5.5700 Y2.8622 
G01 X5.6311 Y2.7146 
G01 X5.7199 Y2.5817 
G01 X5.8329 Y2.4687 
G01 X5.9657 Y2.3799 
G01 X6.1134 Y2.3188 
G01 X6.2701 Y2.2876 
G01 X6.4299 Y2.2876 
G01 X6.5866 Y2.3188 
G01 X6.7342 Y2.3799 
G01 X6.8671 Y2.4687 
G01 X6.9801 Y2.5817 
G01 X7.0689 Y2.7146 
G01 X7.1300 Y2.8622 
G01 X7.1612 Y3.0189 
G01 X7.1612 Y3.5000 
G01 X8.0788 Y3.5000 
G01 X8.0788 Y3.0189 
G01 X8.1100 Y2.8622 
G01 X8.1711 Y2.7146 
G01 X8.2599 Y2.5817 
G01 X8.3729 Y2.4687 
G01 X8.5058 Y2.3799 
G01 X8.6534 Y2.3188 
G01 X8.8101 Y2.2876 
G01 X8.9699 Y2.2876 
G01 X9.1266 Y2.3188 
G01 X9.2742 Y2.3799 
G01 X9.4071 Y2.4687 
G01 X9.5201 Y2.5817 
G01 X9.6089 Y2.7146 
G01 X9.6700 Y2.8622 
G01 X9.7012 Y3.0189 
G01 X9.7012 Y3.5000 
G01 X10.6188 Y3.5000 
G01 X10.6188 Y3.0189 
G01 X10.6500 Y2.8622 
G01 X10.7111 Y2.7146 
G01 X10.7999 Y2.5817 
G01 X10.9129 Y2.4687 
G01 X11.0457 Y2.3799 
G01 X11.1934 Y2.3188 
G01 X11.3501 Y2.2876 
G01 X11.5099 Y2.2876 
G01 X11.6666 Y2.3188 
G01 X11.8142 Y2.3799 
G01 X11.9471 Y2.4687 
G01 X12.0601 Y2.5817 
G01 X12.1489 Y2.7146 
G01 X12.2100 Y2.8622 
G01 X12.2412 Y3.0189 
G01 X12.2412 Y3.5000 
G01 X13.1588 Y3.5000 
G01 X13.1588 Y3.0189 
G01 X13.1900 Y2.8622 
G01 X13.2511 Y2.7146 
G01 X13.3399 Y2.5817 
G01 X13.4529 Y2.4687 
G01 X13.5858 Y2.3799 
G01 X13.7334 Y2.3188 
G01 X13.8901 Y2.2876 
G01 X14.0499 Y2.2876 
G01 X14.2066 Y2.3188 
G01 X14.3542 Y2.3799 
G01 X14.4871 Y2.4687 
G01 X14.6001 Y2.5817 
G01 X14.6889 Y2.7146 
G01 X14.7500 Y2.8622 
G01 X14.7812 Y3.0189 
G01 X14.7812 Y3.5000 
G01 X15.6988 Y3.5000 
G01 X15.6988 Y3.0189 
G01 X15.7300 Y2.8622 
G01 X15.7911 Y2.7146 
G01 X15.8799 Y2.5817 
G01 X15.9929 Y2.4687 
G01 X16.1258 Y2.3799 
G01 X16.2734 Y2.3188 
G01 X16.4301 Y2.2876 
G01 X16.5899 Y2.2876 
G01 X16.7466 Y2.3188 
G01 X16.8942 Y2.3799 
G01 X17.0271 Y2.4687 
G01 X17.1401 Y2.5817 
G01 X17.2289 Y2.7146 
G01 X17.2900 Y2.8622 
G01 X17.3212 Y3.0189 
G01 X17.3212 Y3.5000 
G01 X18.2388 Y3.5000 
G01 X18.2388 Y3.0189 
G01 X18.2700 Y2.8622 
G01 X18.3311 Y2.7146 
G01 X18.4199 Y2.5817 
G01 X18.5329 Y2.4687 
G01 X18.6657 Y2.3799 
G01 X18.8134 Y2.3188 
G01 X18.9701 Y2.2876 
G01 X19.1299 Y2.2876 
G01 X19.2866 Y2.3188 
G01 X19.4342 Y2.3799 
G01 X19.5671 Y2.4687 
G01 X19.6801 Y2.5817 
G01 X19.7689 Y2.7146 
G01 X19.8300 Y2.8622 
G01 X19.8612 Y3.0189 
G01 X19.8612 Y3.5000 
G01 X20.7788 Y3.5000 
G01 X20.7788 Y3.0189 
G01 X20.8100 Y2.8622 
G01 X20.8711 Y2.7146 
G01 X20.9599 Y2.5817 
G01 X21.0729 Y2.4687 
G01 X21.2058 Y2.3799 
G01 X21.3534 Y2.3188 
G01 X21.5101 Y2.2876 
G01 X21.6699 Y2.2876 
G01 X21.8266 Y2.3188 
G01 X21.9742 Y2.3799 
G01 X22.1071 Y2.4687 
G01 X22.2201 Y2.5817 
G01 X22.3089 Y2.7146 
G01 X22.3700 Y2.8622 
G01 X22.4012 Y3.0189 
G01 X22.4012 Y3.5000 
G01 X23.3188 Y3.5000 
G01 X23.3188 Y3.0189 
G01 X23.3500 Y2.8622 
G01 X23.4111 Y2.7146 
G01 X23.4999 Y2.5817 
G01 X23.6129 Y2.4687 
G01 X23.7458 Y2.3799 
G01 X23.8934 Y2.3188 
G01 X24.0501 Y2.2876 
G01 X24.2099 Y2.2876 
G01 X24.3666 Y2.3188 
G01 X24.5142 Y2.3799 
G01 X24.6471 Y2.4687 
G01 X24.7601 Y2.5817 
G01 X24.8489 Y2.7146 
G01 X24.9100 Y2.8622 
G01 X24.9412 Y3.0189 
G01 X24.9412 Y3.5000 
G01 X25.8588 Y3.5000 
G01 X25.8588 Y3.0189 
G01 X25.8900 Y2.8622 
G01 X25.9511 Y2.7146 
G01 X26.0399 Y2.5817 
G01 X26.1529 Y2.4687 
G01 X26.2858 Y2.3799 
G01 X26.4334 Y2.3188 
G01 X26.5901 Y2.2876 
G01 X26.7499 Y2.2876 
G01 X26.9066 Y2.3188 
G01 X27.0542 Y2.3799 
G01 X27.1871 Y2.4687 
G01 X27.3001 Y2.5817 
G01 X27.3889 Y2.7146 
G01 X27.4500 Y2.8622 
G01 X27.4812 Y3.0189 
G01 X27.4812 Y4.3776 
G01 X28.2119 Y5.1084 
G01 X28.2500 Y5.2003 
G01 X28.2500 Y12.8964 
G01 X29.6416 Y14.2881 
G01 X29.7119 Y14.3584 
G01 X31.5836 Y16.2300 
G01 X32.6399 Y16.2300 
G01 X32.6766 Y16.2452 
G01 X32.7048 Y16.2734 
G01 X32.7200 Y16.3101 
G01 X32.7200 Y17.3499 
G01 X32.7048 Y17.3866 
G01 X32.6766 Y17.4148 
G01 X32.6399 Y17.4300 
G01 X31.2001 Y17.4300 
G01 X31.1634 Y17.4148 
G01 X31.1352 Y17.3866 
G01 X31.1200 Y17.3499 
G01 X31.1200 Y16.4736 
G01 X29.5000 Y14.8536 
G01 X26.4619 Y17.8916 
G01 X26.3916 Y17.9619 
G01 X26.2997 Y18.0000 
G01 X22.0000 Y18.0000 
G01 X22.0000 Y27.6464 
G01 X27.7736 Y33.4200 
G01 X28.5599 Y33.4200 
G01 X28.5966 Y33.4352 
G01 X28.6248 Y33.4634 
G01 X28.6400 Y33.5001 
G01 X28.6400 Y34.3399 
G01 X28.6248 Y34.3766 
G01 X28.5966 Y34.4048 
G01 X28.5599 Y34.4200 
G01 X27.6836 Y34.4200 
G01 X24.7500 Y37.3535 
G01 X24.7500 Y50.1464 
G01 X26.0436 Y51.4400 
G01 X26.8699 Y51.4400 
G01 X26.9066 Y51.4552 
G01 X26.9348 Y51.4834 
G01 X26.9500 Y51.5201 
G01 X26.9500 Y51.7500 
G01 X32.7500 Y51.7500 
G01 X32.7500 Y50.9503 
G01 X32.7881 Y50.8584 
G01 X33.5624 Y50.0841 
G01 X33.4811 Y49.9624 
G01 X33.4123 Y49.7963 
G01 X33.3772 Y49.6199 
G01 X33.3772 Y49.4401 
G01 X33.4123 Y49.2637 
G01 X33.4811 Y49.0976 
G01 X33.5810 Y48.9481 
G01 X33.7081 Y48.8210 
G01 X33.8576 Y48.7211 
G01 X34.0237 Y48.6523 
G01 X34.2001 Y48.6172 
G01 X34.3799 Y48.6172 
G01 X34.5563 Y48.6523 
G01 X34.7224 Y48.7211 
G01 X34.8719 Y48.8210 
G01 X34.9990 Y48.9481 
G01 X35.0989 Y49.0976 
G01 X35.1677 Y49.2637 
G01 X35.2028 Y49.4401 
G01 X35.2028 Y49.6199 
G01 X35.1677 Y49.7963 
G01 X35.0989 Y49.9624 
G01 X34.9990 Y50.1119 
G01 X34.8719 Y50.2390 
G01 X34.7224 Y50.3389 
G01 X34.5563 Y50.4077 
G01 X34.3799 Y50.4428 
G01 X34.2001 Y50.4428 
G01 X34.0237 Y50.4077 
G01 X33.9687 Y50.3849 
G01 X33.2500 Y51.1036 
G01 X33.2500 Y52.0497 
G01 X33.2119 Y52.1416 
G01 X33.1416 Y52.2119 
G01 X33.0497 Y52.2500 
G01 X29.5000 Y52.2500 
G01 X29.5000 Y55.5000 
G01 X44.8964 Y55.5000 
G01 X46.0000 Y54.3964 
G01 X46.0000 Y47.3536 
G01 X45.7664 Y47.1200 
G01 X45.1001 Y47.1200 
G00 Z2.0000 
G00 X46.3399 Y45.3200 
G01 Z-0.0250 F254.00 
G01 X45.1001 Y45.3200 F508.00 
G01 X45.0634 Y45.3048 
G01 X45.0352 Y45.2766 
G01 X45.0200 Y45.2399 
G01 X45.0200 Y44.6236 
G01 X43.3584 Y42.9619 
G01 X43.2881 Y42.8916 
G01 X43.2500 Y42.7997 
G01 X43.2500 Y37.8045 
G01 X43.2120 Y37.7888 
G01 X43.1124 Y37.7223 
G01 X43.0277 Y37.6376 
G01 X42.9612 Y37.5380 
G01 X42.9154 Y37.4273 
G01 X42.8920 Y37.3099 
G01 X42.8920 Y37.1901 
G01 X42.9154 Y37.0727 
G01 X42.9612 Y36.9620 
G01 X43.0277 Y36.8624 
G01 X43.1124 Y36.7777 
G01 X43.2120 Y36.7112 
G01 X43.3227 Y36.6654 
G01 X43.4401 Y36.6420 
G01 X43.5599 Y36.6420 
G01 X43.6773 Y36.6654 
G01 X43.7880 Y36.7112 
G01 X43.8876 Y36.7777 
G01 X43.9723 Y36.8624 
G01 X44.0388 Y36.9620 
G01 X44.0846 Y37.0727 
G01 X44.1080 Y37.1901 
G01 X44.1080 Y37.3099 
G01 X44.0846 Y37.4273 
G01 X44.0388 Y37.5380 
G01 X43.9723 Y37.6376 
G01 X43.8876 Y37.7223 
G01 X43.7880 Y37.7888 
G01 X43.7500 Y37.8045 
G01 X43.7500 Y42.6464 
G01 X45.4236 Y44.3200 
G01 X46.3399 Y44.3200 
G01 X46.3766 Y44.3352 
G01 X46.4048 Y44.3634 
G01 X46.4200 Y44.4001 
G01 X46.4200 Y45.2399 
G01 X46.4048 Y45.2766 
G01 X46.3766 Y45.3048 
G01 X46.3399 Y45.3200 
G00 Z2.0000 
G00 X46.3399 Y35.1600 
G01 Z-0.0250 F254.00 
G01 X45.1001 Y35.1600 F508.00 
G01 X45.0634 Y35.1448 
G01 X45.0352 Y35.1166 
G01 X45.0200 Y35.0799 
G01 X45.0200 Y34.3736 
G01 X43.1084 Y32.4619 
G01 X43.0381 Y32.3916 
G01 X43.0000 Y32.2997 
G01 X43.0000 Y30.3045 
G01 X42.9620 Y30.2888 
G01 X42.8624 Y30.2223 
G01 X42.7777 Y30.1376 
G01 X42.7112 Y30.0380 
G01 X42.6654 Y29.9273 
G01 X42.6420 Y29.8099 
G01 X42.6420 Y29.6901 
G01 X42.6654 Y29.5727 
G01 X42.7112 Y29.4620 
G01 X42.7777 Y29.3624 
G01 X42.8624 Y29.2777 
G01 X42.9620 Y29.2112 
G01 X43.0727 Y29.1654 
G01 X43.1901 Y29.1420 
G01 X43.3099 Y29.1420 
G01 X43.4273 Y29.1654 
G01 X43.5380 Y29.2112 
G01 X43.6376 Y29.2777 
G01 X43.7223 Y29.3624 
G01 X43.7888 Y29.4620 
G01 X43.8346 Y29.5727 
G01 X43.8580 Y29.6901 
G01 X43.8580 Y29.8099 
G01 X43.8346 Y29.9273 
G01 X43.7888 Y30.0380 
G01 X43.7223 Y30.1376 
G01 X43.6376 Y30.2223 
G01 X43.5380 Y30.2888 
G01 X43.5000 Y30.3045 
G01 X43.5000 Y32.1464 
G01 X45.5136 Y34.1600 
G01 X46.3399 Y34.1600 
G01 X46.3766 Y34.1752 
G01 X46.4048 Y34.2034 
G01 X46.4200 Y34.2401 
G01 X46.4200 Y35.0799 
G01 X46.4048 Y35.1166 
G01 X46.3766 Y35.1448 
G01 X46.3399 Y35.1600 
G00 Z2.0000 
G00 X38.5588 Y33.8111 
G01 Z-0.0250 F254.00 
G01 X38.5588 Y32.2289 F508.00 
G01 X38.5900 Y32.0722 
G01 X38.6511 Y31.9245 
G01 X38.7399 Y31.7917 
G01 X38.8529 Y31.6787 
G01 X38.9858 Y31.5899 
G01 X39.1334 Y31.5288 
G01 X39.2901 Y31.4976 
G01 X39.4499 Y31.4976 
G01 X39.6066 Y31.5288 
G01 X39.7542 Y31.5899 
G01 X39.8871 Y31.6787 
G01 X40.0001 Y31.7917 
G01 X40.0889 Y31.9245 
G01 X40.1500 Y32.0722 
G01 X40.1812 Y32.2289 
G01 X40.1812 Y33.8111 
G01 X40.1500 Y33.9678 
G01 X40.0889 Y34.1154 
G01 X40.0001 Y34.2483 
G01 X39.8871 Y34.3613 
G01 X39.7542 Y34.4501 
G01 X39.6066 Y34.5112 
G01 X39.4499 Y34.5424 
G01 X39.2901 Y34.5424 
G01 X39.1334 Y34.5112 
G01 X38.9858 Y34.4501 
G01 X38.8529 Y34.3613 
G01 X38.7399 Y34.2483 
G01 X38.6511 Y34.1154 
G01 X38.5900 Y33.9678 
G01 X38.5588 Y33.8111 
G00 Z2.0000 
G00 X39.7373 Y46.0772 
G01 Z-0.0250 F254.00 
G01 X41.5427 Y46.0772 F508.00 
G01 X41.7191 Y46.1123 
G01 X41.8852 Y46.1811 
G01 X42.0347 Y46.2810 
G01 X42.1618 Y46.4081 
G01 X42.2617 Y46.5576 
G01 X42.3305 Y46.7237 
G01 X42.3656 Y46.9001 
G01 X42.3656 Y47.0799 
G01 X42.3305 Y47.2563 
G01 X42.2617 Y47.4224 
G01 X42.1618 Y47.5719 
G01 X42.0347 Y47.6990 
G01 X41.8852 Y47.7989 
G01 X41.7191 Y47.8677 
G01 X41.5427 Y47.9028 
G01 X39.7373 Y47.9028 
G01 X39.5609 Y47.8677 
G01 X39.3948 Y47.7989 
G01 X39.2453 Y47.6990 
G01 X39.1182 Y47.5719 
G01 X39.0183 Y47.4224 
G01 X38.9495 Y47.2563 
G01 X38.9144 Y47.0799 
G01 X38.9144 Y46.9001 
G01 X38.9495 Y46.7237 
G01 X39.0183 Y46.5576 
G01 X39.1182 Y46.4081 
G01 X39.2453 Y46.2810 
G01 X39.3948 Y46.1811 
G01 X39.5609 Y46.1123 
G01 X39.7373 Y46.0772 
G00 Z2.0000 
G00 X39.7373 Y40.9972 
G01 Z-0.0250 F254.00 
G01 X41.5427 Y40.9972 F508.00 
G01 X41.7191 Y41.0323 
G01 X41.8852 Y41.1011 
G01 X42.0347 Y41.2010 
G01 X42.1618 Y41.3281 
G01 X42.2617 Y41.4776 
G01 X42.3305 Y41.6437 
G01 X42.3656 Y41.8201 
G01 X42.3656 Y41.9999 
G01 X42.3305 Y42.1763 
G01 X42.2617 Y42.3424 
G01 X42.1618 Y42.4919 
G01 X42.0347 Y42.6190 
G01 X41.8852 Y42.7189 
G01 X41.7191 Y42.7877 
G01 X41.5427 Y42.8228 
G01 X40.0308 Y42.8228 
G01 X38.7500 Y44.1036 
G01 X38.7500 Y48.2997 
G01 X38.7119 Y48.3916 
G01 X38.6416 Y48.4619 
G01 X38.5497 Y48.5000 
G01 X33.7003 Y48.5000 
G01 X33.6084 Y48.4619 
G01 X33.5381 Y48.3916 
G01 X32.0381 Y46.8916 
G01 X32.0000 Y46.7997 
G01 X32.0000 Y44.0610 
G01 X31.8399 Y44.0928 
G01 X31.6601 Y44.0928 
G01 X31.4837 Y44.0577 
G01 X31.3176 Y43.9889 
G01 X31.1681 Y43.8890 
G01 X31.0410 Y43.7619 
G01 X30.9411 Y43.6124 
G01 X30.8723 Y43.4463 
G01 X30.8372 Y43.2699 
G01 X30.8372 Y43.0901 
G01 X30.8723 Y42.9137 
G01 X30.9411 Y42.7476 
G01 X31.0410 Y42.5981 
G01 X31.1681 Y42.4710 
G01 X31.3176 Y42.3711 
G01 X31.4837 Y42.3023 
G01 X31.6601 Y42.2672 
G01 X31.8399 Y42.2672 
G01 X32.0163 Y42.3023 
G01 X32.1824 Y42.3711 
G01 X32.3319 Y42.4710 
G01 X32.4590 Y42.5981 
G01 X32.5589 Y42.7476 
G01 X32.6277 Y42.9137 
G01 X32.6628 Y43.0901 
G01 X32.6628 Y43.2699 
G01 X32.6277 Y43.4463 
G01 X32.5589 Y43.6124 
G01 X32.5000 Y43.7005 
G01 X32.5000 Y46.6464 
G01 X33.8536 Y48.0000 
G01 X38.2500 Y48.0000 
G01 X38.2500 Y43.9503 
G01 X38.2881 Y43.8584 
G01 X39.4180 Y42.7285 
G01 X39.3948 Y42.7189 
G01 X39.2453 Y42.6190 
G01 X39.1182 Y42.4919 
G01 X39.0183 Y42.3424 
G01 X38.9495 Y42.1763 
G01 X38.9144 Y41.9999 
G01 X38.9144 Y41.8201 
G01 X38.9495 Y41.6437 
G01 X39.0183 Y41.4776 
G01 X39.1182 Y41.3281 
G01 X39.2453 Y41.2010 
G01 X39.3948 Y41.1011 
G01 X39.5609 Y41.0323 
G01 X39.7373 Y40.9972 
G00 Z2.0000 
G00 X39.7373 Y38.4572 
G01 Z-0.0250 F254.00 
G01 X41.5427 Y38.4572 F508.00 
G01 X41.7191 Y38.4923 
G01 X41.8852 Y38.5611 
G01 X42.0347 Y38.6610 
G01 X42.1618 Y38.7881 
G01 X42.2617 Y38.9376 
G01 X42.3305 Y39.1037 
G01 X42.3656 Y39.2801 
G01 X42.3656 Y39.4599 
G01 X42.3305 Y39.6363 
G01 X42.2617 Y39.8024 
G01 X42.1618 Y39.9519 
G01 X42.0347 Y40.0790 
G01 X41.8852 Y40.1789 
G01 X41.7191 Y40.2477 
G01 X41.5427 Y40.2828 
G01 X40.0708 Y40.2828 
G01 X38.0000 Y42.3536 
G01 X38.0000 Y45.7997 
G01 X37.9619 Y45.8916 
G01 X37.8916 Y45.9619 
G01 X37.7997 Y46.0000 
G01 X33.7003 Y46.0000 
G01 X33.6084 Y45.9619 
G01 X33.5381 Y45.8916 
G01 X32.7881 Y45.1416 
G01 X32.7500 Y45.0497 
G01 X32.7500 Y42.1036 
G01 X32.1208 Y41.4744 
G01 X32.0163 Y41.5177 
G01 X31.8399 Y41.5528 
G01 X31.6601 Y41.5528 
G01 X31.4837 Y41.5177 
G01 X31.3176 Y41.4489 
G01 X31.1681 Y41.3490 
G01 X31.0410 Y41.2219 
G01 X30.9411 Y41.0724 
G01 X30.8723 Y40.9063 
G01 X30.8372 Y40.7299 
G01 X30.8372 Y40.5501 
G01 X30.8723 Y40.3737 
G01 X30.9411 Y40.2076 
G01 X31.0410 Y40.0581 
G01 X31.1681 Y39.9310 
G01 X31.3176 Y39.8311 
G01 X31.4837 Y39.7623 
G01 X31.6601 Y39.7272 
G01 X31.8399 Y39.7272 
G01 X32.0163 Y39.7623 
G01 X32.1824 Y39.8311 
G01 X32.3319 Y39.9310 
G01 X32.4590 Y40.0581 
G01 X32.5589 Y40.2076 
G01 X32.6277 Y40.3737 
G01 X32.6628 Y40.5501 
G01 X32.6628 Y40.7299 
G01 X32.6277 Y40.9063 
G01 X32.5589 Y41.0724 
G01 X32.5056 Y41.1521 
G01 X33.1416 Y41.7881 
G01 X33.2119 Y41.8584 
G01 X33.2500 Y41.9503 
G01 X33.2500 Y44.8964 
G01 X33.8536 Y45.5000 
G01 X37.5000 Y45.5000 
G01 X37.5000 Y42.2003 
G01 X37.5381 Y42.1084 
G01 X39.4462 Y40.2002 
G01 X39.3948 Y40.1789 
G01 X39.2453 Y40.0790 
G01 X39.1182 Y39.9519 
G01 X39.0183 Y39.8024 
G01 X38.9495 Y39.6363 
G01 X38.9144 Y39.4599 
G01 X38.9144 Y39.2801 
G01 X38.9495 Y39.1037 
G01 X39.0183 Y38.9376 
G01 X39.1182 Y38.7881 
G01 X39.2453 Y38.6610 
G01 X39.3948 Y38.5611 
G01 X39.5609 Y38.4923 
G01 X39.7373 Y38.4572 
G00 Z2.0000 
G00 X24.0000 Y59.0399 
G01 Z-0.0250 F254.00 
G01 X24.0000 Y58.1036 F508.00 
G01 X23.3584 Y57.4619 
G01 X23.2881 Y57.3916 
G01 X23.2500 Y57.2997 
G01 X23.2500 Y45.3045 
G01 X23.2120 Y45.2888 
G01 X23.1124 Y45.2223 
G01 X23.0277 Y45.1376 
G01 X22.9612 Y45.0380 
G01 X22.9154 Y44.9273 
G01 X22.8920 Y44.8099 
G01 X22.8920 Y44.6901 
G01 X22.9154 Y44.5727 
G01 X22.9612 Y44.4620 
G01 X23.0277 Y44.3624 
G01 X23.1124 Y44.2777 
G01 X23.2120 Y44.2112 
G01 X23.3226 Y44.1654 
G01 X23.4401 Y44.1420 
G01 X23.5599 Y44.1420 
G01 X23.6773 Y44.1654 
G01 X23.7880 Y44.2112 
G01 X23.8876 Y44.2777 
G01 X23.9723 Y44.3624 
G01 X24.0388 Y44.4620 
G01 X24.0846 Y44.5727 
G01 X24.1080 Y44.6901 
G01 X24.1080 Y44.8099 
G01 X24.0846 Y44.9273 
G01 X24.0388 Y45.0380 
G01 X23.9723 Y45.1376 
G01 X23.8876 Y45.2223 
G01 X23.7880 Y45.2888 
G01 X23.7500 Y45.3045 
G01 X23.7500 Y57.1464 
G01 X24.3236 Y57.7200 
G01 X24.9199 Y57.7200 
G01 X24.9566 Y57.7352 
G01 X24.9848 Y57.7634 
G01 X25.0000 Y57.8001 
G01 X25.0000 Y59.0399 
G01 X24.9848 Y59.0766 
G01 X24.9566 Y59.1048 
G01 X24.9199 Y59.1200 
G01 X24.0801 Y59.1200 
G01 X24.0434 Y59.1048 
G01 X24.0152 Y59.0766 
G01 X24.0000 Y59.0399 
G00 Z2.0000 
G00 X25.0500 Y51.5201 
G01 Z-0.0250 F254.00 
G01 X25.0500 Y52.9599 F508.00 
G01 X25.0348 Y52.9966 
G01 X25.0066 Y53.0248 
G01 X24.9699 Y53.0400 
G01 X24.7500 Y53.0400 
G01 X24.7500 Y56.3964 
G01 X26.0736 Y57.7200 
G01 X26.7199 Y57.7200 
G01 X26.7566 Y57.7352 
G01 X26.7848 Y57.7634 
G01 X26.8000 Y57.8001 
G01 X26.8000 Y59.0399 
G01 X26.7848 Y59.0766 
G01 X26.7566 Y59.1048 
G01 X26.7199 Y59.1200 
G01 X25.8801 Y59.1200 
G01 X25.8434 Y59.1048 
G01 X25.8152 Y59.0766 
G01 X25.8000 Y59.0399 
G01 X25.8000 Y58.1536 
G01 X24.3584 Y56.7119 
G01 X24.2881 Y56.6416 
G01 X24.2500 Y56.5497 
G01 X24.2500 Y53.0400 
G01 X23.9301 Y53.0400 
G01 X23.8934 Y53.0248 
G01 X23.8652 Y52.9966 
G01 X23.8500 Y52.9599 
G01 X23.8500 Y51.5201 
G01 X23.8652 Y51.4834 
G01 X23.8934 Y51.4552 
G01 X23.9301 Y51.4400 
G01 X24.9699 Y51.4400 
G01 X25.0066 Y51.4552 
G01 X25.0348 Y51.4834 
G01 X25.0500 Y51.5201 
G00 Z2.0000 
G00 X44.5441 Y59.2185 
G01 Z-0.0250 F254.00 
G01 X41.8159 Y59.2185 F508.00 
G01 X41.6049 Y59.1851 
G01 X41.4017 Y59.1191 
G01 X41.2113 Y59.0221 
G01 X41.0385 Y58.8965 
G01 X40.8874 Y58.7454 
G01 X40.7618 Y58.5726 
G01 X40.6648 Y58.3822 
G01 X40.6219 Y58.2500 
G01 X31.3150 Y58.2500 
G01 X31.3150 Y58.6849 
G01 X31.2998 Y58.7216 
G01 X31.2716 Y58.7498 
G01 X31.2349 Y58.7650 
G01 X29.7251 Y58.7650 
G01 X29.6884 Y58.7498 
G01 X29.6602 Y58.7216 
G01 X29.6450 Y58.6849 
G01 X29.6450 Y58.5000 
G01 X29.2003 Y58.5000 
G01 X29.1084 Y58.4619 
G01 X29.0381 Y58.3916 
G01 X25.8864 Y55.2400 
G01 X24.8801 Y55.2400 
G01 X24.8434 Y55.2248 
G01 X24.8152 Y55.1966 
G01 X24.8000 Y55.1599 
G01 X24.8000 Y53.7201 
G01 X24.8152 Y53.6834 
G01 X24.8434 Y53.6552 
G01 X24.8801 Y53.6400 
G01 X25.9199 Y53.6400 
G01 X25.9566 Y53.6552 
G01 X25.9848 Y53.6834 
G01 X26.0000 Y53.7201 
G01 X26.0000 Y54.6464 
G01 X29.3536 Y58.0000 
G01 X29.6450 Y58.0000 
G01 X29.6450 Y57.3751 
G01 X29.6602 Y57.3384 
G01 X29.6884 Y57.3102 
G01 X29.7251 Y57.2950 
G01 X31.2349 Y57.2950 
G01 X31.2716 Y57.3102 
G01 X31.2998 Y57.3384 
G01 X31.3150 Y57.3751 
G01 X31.3150 Y57.7500 
G01 X40.5661 Y57.7500 
G01 X40.5988 Y57.5434 
G01 X40.6648 Y57.3402 
G01 X40.7618 Y57.1498 
G01 X40.8874 Y56.9770 
G01 X41.0385 Y56.8259 
G01 X41.2113 Y56.7003 
G01 X41.4017 Y56.6033 
G01 X41.6049 Y56.5373 
G01 X41.8159 Y56.5039 
G01 X44.5441 Y56.5039 
G01 X44.7551 Y56.5373 
G01 X44.9583 Y56.6033 
G01 X45.1487 Y56.7003 
G01 X45.3215 Y56.8259 
G01 X45.4726 Y56.9770 
G01 X45.5982 Y57.1498 
G01 X45.6952 Y57.3402 
G01 X45.7612 Y57.5434 
G01 X45.7946 Y57.7544 
G01 X45.7946 Y57.9680 
G01 X45.7612 Y58.1790 
G01 X45.6952 Y58.3822 
G01 X45.5982 Y58.5726 
G01 X45.4726 Y58.7454 
G01 X45.3215 Y58.8965 
G01 X45.1487 Y59.0221 
G01 X44.9583 Y59.1191 
G01 X44.7551 Y59.1851 
G01 X44.5441 Y59.2185 
G00 Z2.0000 
G00 X8.0336 Y42.6450 
G01 Z-0.0250 F254.00 
G01 X5.9872 Y42.6450 F508.00 
G01 X5.9505 Y42.6298 
G01 X5.9223 Y42.6016 
G01 X5.9071 Y42.5649 
G01 X5.9071 Y38.7151 
G01 X5.9223 Y38.6784 
G01 X5.9505 Y38.6502 
G01 X5.9872 Y38.6350 
G01 X8.0336 Y38.6350 
G01 X8.0703 Y38.6502 
G01 X8.0985 Y38.6784 
G01 X8.1137 Y38.7151 
G01 X8.1137 Y42.5649 
G01 X8.0985 Y42.6016 
G01 X8.0703 Y42.6298 
G01 X8.0336 Y42.6450 
G00 Z2.0000 
G00 X14.3328 Y43.8007 
G01 Z-0.0250 F254.00 
G01 X13.0000 Y43.8007 F508.00 
G01 X13.0000 Y46.5600 
G01 X13.5599 Y46.5600 
G01 X13.5966 Y46.5752 
G01 X13.6248 Y46.6034 
G01 X13.6400 Y46.6401 
G01 X13.6400 Y49.8799 
G01 X13.6248 Y49.9166 
G01 X13.5966 Y49.9448 
G01 X13.5599 Y49.9600 
G01 X11.7401 Y49.9600 
G01 X11.7034 Y49.9448 
G01 X11.6752 Y49.9166 
G01 X11.6600 Y49.8799 
G01 X11.6600 Y46.6401 
G01 X11.6752 Y46.6034 
G01 X11.7034 Y46.5752 
G01 X11.7401 Y46.5600 
G01 X12.5000 Y46.5600 
G01 X12.5000 Y43.8007 
G01 X12.2864 Y43.8007 
G01 X12.2497 Y43.7855 
G01 X12.2215 Y43.7573 
G01 X12.2063 Y43.7206 
G01 X12.2063 Y42.1822 
G01 X12.2215 Y42.1455 
G01 X12.2497 Y42.1173 
G01 X12.2864 Y42.1021 
G01 X14.3328 Y42.1021 
G01 X14.3695 Y42.1173 
G01 X14.3977 Y42.1455 
G01 X14.4129 Y42.1822 
G01 X14.4129 Y43.7206 
G01 X14.3977 Y43.7573 
G01 X14.3695 Y43.7855 
G01 X14.3328 Y43.8007 
G00 Z2.0000 
G00 X14.6201 Y18.1800 
G01 Z-0.0250 F254.00 
G01 X15.8599 Y18.1800 F508.00 
G01 X15.8966 Y18.1952 
G01 X15.9248 Y18.2234 
G01 X15.9400 Y18.2601 
G01 X15.9400 Y19.0864 
G01 X17.1416 Y20.2881 
G01 X17.2119 Y20.3584 
G01 X17.2500 Y20.4503 
G01 X17.2500 Y26.8964 
G01 X18.7145 Y28.3610 
G01 X18.7837 Y28.3323 
G01 X18.9601 Y28.2972 
G01 X19.1399 Y28.2972 
G01 X19.3163 Y28.3323 
G01 X19.4824 Y28.4011 
G01 X19.6319 Y28.5010 
G01 X19.7590 Y28.6281 
G01 X19.8589 Y28.7776 
G01 X19.9277 Y28.9437 
G01 X19.9628 Y29.1201 
G01 X19.9628 Y29.2999 
G01 X19.9277 Y29.4763 
G01 X19.8589 Y29.6424 
G01 X19.7590 Y29.7919 
G01 X19.6319 Y29.9190 
G01 X19.4824 Y30.0189 
G01 X19.3163 Y30.0877 
G01 X19.1399 Y30.1228 
G01 X18.9601 Y30.1228 
G01 X18.7837 Y30.0877 
G01 X18.6176 Y30.0189 
G01 X18.4681 Y29.9190 
G01 X18.3410 Y29.7919 
G01 X18.2411 Y29.6424 
G01 X18.1723 Y29.4763 
G01 X18.1372 Y29.2999 
G01 X18.1372 Y29.1201 
G01 X18.1723 Y28.9437 
G01 X18.2411 Y28.7776 
G01 X18.3144 Y28.6679 
G01 X16.7881 Y27.1416 
G01 X16.7500 Y27.0497 
G01 X16.7500 Y20.6036 
G01 X15.3264 Y19.1800 
G01 X14.6201 Y19.1800 
G01 X14.5834 Y19.1648 
G01 X14.5552 Y19.1366 
G01 X14.5400 Y19.0999 
G01 X14.5400 Y18.2601 
G01 X14.5552 Y18.2234 
G01 X14.5834 Y18.1952 
G01 X14.6201 Y18.1800 
G00 Z2.0000 
G00 X17.1601 Y18.1800 
G01 Z-0.0250 F254.00 
G01 X18.3999 Y18.1800 F508.00 
G01 X18.4366 Y18.1952 
G01 X18.4648 Y18.2234 
G01 X18.4800 Y18.2601 
G01 X18.4800 Y19.0999 
G01 X18.4648 Y19.1366 
G01 X18.4366 Y19.1648 
G01 X18.3999 Y19.1800 
G01 X18.0000 Y19.1800 
G01 X18.0000 Y25.1464 
G01 X18.6862 Y25.8327 
G01 X18.7837 Y25.7923 
G01 X18.9601 Y25.7572 
G01 X19.1399 Y25.7572 
G01 X19.3163 Y25.7923 
G01 X19.4824 Y25.8611 
G01 X19.6319 Y25.9610 
G01 X19.7590 Y26.0881 
G01 X19.8589 Y26.2376 
G01 X19.9277 Y26.4037 
G01 X19.9628 Y26.5801 
G01 X19.9628 Y26.7599 
G01 X19.9277 Y26.9363 
G01 X19.8589 Y27.1024 
G01 X19.7590 Y27.2519 
G01 X19.6319 Y27.3790 
G01 X19.4824 Y27.4789 
G01 X19.3163 Y27.5477 
G01 X19.1399 Y27.5828 
G01 X18.9601 Y27.5828 
G01 X18.7837 Y27.5477 
G01 X18.6176 Y27.4789 
G01 X18.4681 Y27.3790 
G01 X18.3410 Y27.2519 
G01 X18.2411 Y27.1024 
G01 X18.1723 Y26.9363 
G01 X18.1372 Y26.7599 
G01 X18.1372 Y26.5801 
G01 X18.1723 Y26.4037 
G01 X18.2411 Y26.2376 
G01 X18.2984 Y26.1519 
G01 X17.5381 Y25.3916 
G01 X17.5000 Y25.2997 
G01 X17.5000 Y19.1800 
G01 X17.1601 Y19.1800 
G01 X17.1234 Y19.1648 
G01 X17.0952 Y19.1366 
G01 X17.0800 Y19.0999 
G01 X17.0800 Y18.2601 
G01 X17.0952 Y18.2234 
G01 X17.1234 Y18.1952 
G01 X17.1601 Y18.1800 
G00 Z2.0000 
G00 X19.7001 Y18.1800 
G01 Z-0.0250 F254.00 
G01 X20.9399 Y18.1800 F508.00 
G01 X20.9766 Y18.1952 
G01 X21.0048 Y18.2234 
G01 X21.0200 Y18.2601 
G01 X21.0200 Y19.0999 
G01 X21.0048 Y19.1366 
G01 X20.9766 Y19.1648 
G01 X20.9399 Y19.1800 
G01 X20.1736 Y19.1800 
G01 X19.5000 Y19.8536 
G01 X19.5000 Y23.3329 
G01 X19.6319 Y23.4210 
G01 X19.7590 Y23.5481 
G01 X19.8589 Y23.6976 
G01 X19.9277 Y23.8637 
G01 X19.9628 Y24.0401 
G01 X19.9628 Y24.2199 
G01 X19.9277 Y24.3963 
G01 X19.8589 Y24.5624 
G01 X19.7590 Y24.7119 
G01 X19.6319 Y24.8390 
G01 X19.4824 Y24.9389 
G01 X19.3163 Y25.0077 
G01 X19.1399 Y25.0428 
G01 X18.9601 Y25.0428 
G01 X18.7837 Y25.0077 
G01 X18.6176 Y24.9389 
G01 X18.4681 Y24.8390 
G01 X18.3410 Y24.7119 
G01 X18.2411 Y24.5624 
G01 X18.1723 Y24.3963 
G01 X18.1372 Y24.2199 
G01 X18.1372 Y24.0401 
G01 X18.1723 Y23.8637 
G01 X18.2411 Y23.6976 
G01 X18.3410 Y23.5481 
G01 X18.4681 Y23.4210 
G01 X18.6176 Y23.3211 
G01 X18.7837 Y23.2523 
G01 X18.9601 Y23.2172 
G01 X19.0000 Y23.2172 
G01 X19.0000 Y19.7003 
G01 X19.0381 Y19.6084 
G01 X19.1084 Y19.5381 
G01 X19.6200 Y19.0264 
G01 X19.6200 Y18.2601 
G01 X19.6352 Y18.2234 
G01 X19.6634 Y18.1952 
G01 X19.7001 Y18.1800 
G00 Z2.0000 
G00 X22.2401 Y18.1800 
G01 Z-0.0250 F254.00 
G01 X23.4799 Y18.1800 F508.00 
G01 X23.5166 Y18.1952 
G01 X23.5448 Y18.2234 
G01 X23.5600 Y18.2601 
G01 X23.5600 Y18.9564 
G01 X28.0347 Y23.4311 
G01 X28.0727 Y23.4154 
G01 X28.1901 Y23.3920 
G01 X28.3099 Y23.3920 
G01 X28.4273 Y23.4154 
G01 X28.5380 Y23.4612 
G01 X28.6376 Y23.5277 
G01 X28.7223 Y23.6124 
G01 X28.7888 Y23.7120 
G01 X28.8346 Y23.8226 
G01 X28.8580 Y23.9401 
G01 X28.8580 Y24.0599 
G01 X28.8346 Y24.1773 
G01 X28.7888 Y24.2880 
G01 X28.7223 Y24.3876 
G01 X28.6376 Y24.4723 
G01 X28.5380 Y24.5388 
G01 X28.4273 Y24.5846 
G01 X28.3099 Y24.6080 
G01 X28.1901 Y24.6080 
G01 X28.0727 Y24.5846 
G01 X27.9620 Y24.5388 
G01 X27.8624 Y24.4723 
G01 X27.7777 Y24.3876 
G01 X27.7112 Y24.2880 
G01 X27.6654 Y24.1773 
G01 X27.6420 Y24.0599 
G01 X27.6420 Y23.9401 
G01 X27.6654 Y23.8226 
G01 X27.6811 Y23.7847 
G01 X23.0764 Y19.1800 
G01 X22.2401 Y19.1800 
G01 X22.2034 Y19.1648 
G01 X22.1752 Y19.1366 
G01 X22.1600 Y19.0999 
G01 X22.1600 Y18.2601 
G01 X22.1752 Y18.2234 
G01 X22.2034 Y18.1952 
G01 X22.2401 Y18.1800 
G00 Z2.0000 
G00 X24.7801 Y18.1800 
G01 Z-0.0250 F254.00 
G01 X26.0199 Y18.1800 F508.00 
G01 X26.0566 Y18.1952 
G01 X26.0848 Y18.2234 
G01 X26.1000 Y18.2601 
G01 X26.1000 Y18.9964 
G01 X33.3536 Y26.2500 
G01 X33.4760 Y26.2500 
G01 X33.4811 Y26.2376 
G01 X33.5810 Y26.0881 
G01 X33.7081 Y25.9610 
G01 X33.8576 Y25.8611 
G01 X34.0237 Y25.7923 
G01 X34.2001 Y25.7572 
G01 X34.3799 Y25.7572 
G01 X34.5563 Y25.7923 
G01 X34.7224 Y25.8611 
G01 X34.8719 Y25.9610 
G01 X34.9990 Y26.0881 
G01 X35.0989 Y26.2376 
G01 X35.1677 Y26.4037 
G01 X35.2028 Y26.5801 
G01 X35.2028 Y26.7599 
G01 X35.1677 Y26.9363 
G01 X35.0989 Y27.1024 
G01 X34.9990 Y27.2519 
G01 X34.8719 Y27.3790 
G01 X34.7224 Y27.4789 
G01 X34.5563 Y27.5477 
G01 X34.3799 Y27.5828 
G01 X34.2001 Y27.5828 
G01 X34.0237 Y27.5477 
G01 X33.8576 Y27.4789 
G01 X33.7081 Y27.3790 
G01 X33.5810 Y27.2519 
G01 X33.4811 Y27.1024 
G01 X33.4123 Y26.9363 
G01 X33.3772 Y26.7599 
G01 X33.3772 Y26.7500 
G01 X33.2003 Y26.7500 
G01 X33.1084 Y26.7119 
G01 X33.0381 Y26.6416 
G01 X25.5764 Y19.1800 
G01 X24.7801 Y19.1800 
G01 X24.7434 Y19.1648 
G01 X24.7152 Y19.1366 
G01 X24.7000 Y19.0999 
G01 X24.7000 Y18.2601 
G01 X24.7152 Y18.2234 
G01 X24.7434 Y18.1952 
G01 X24.7801 Y18.1800 
G00 Z2.0000 
G00 X4.6212 Y10.6389 
G01 Z-0.0250 F254.00 
G01 X4.6212 Y12.2211 F508.00 
G01 X4.5900 Y12.3778 
G01 X4.5289 Y12.5254 
G01 X4.4401 Y12.6583 
G01 X4.3271 Y12.7713 
G01 X4.1942 Y12.8601 
G01 X4.0466 Y12.9212 
G01 X4.0000 Y12.9305 
G01 X4.0000 Y15.7997 
G01 X3.9619 Y15.8916 
G01 X3.8916 Y15.9619 
G01 X3.2400 Y16.6136 
G01 X3.2400 Y17.2999 
G01 X3.2248 Y17.3366 
G01 X3.1966 Y17.3648 
G01 X3.1599 Y17.3800 
G01 X1.9201 Y17.3800 
G01 X1.8834 Y17.3648 
G01 X1.8552 Y17.3366 
G01 X1.8400 Y17.2999 
G01 X1.8400 Y16.4601 
G01 X1.8552 Y16.4234 
G01 X1.8834 Y16.3952 
G01 X1.9201 Y16.3800 
G01 X2.7664 Y16.3800 
G01 X3.5000 Y15.6464 
G01 X3.5000 Y12.8908 
G01 X3.4258 Y12.8601 
G01 X3.2929 Y12.7713 
G01 X3.1799 Y12.6583 
G01 X3.0911 Y12.5254 
G01 X3.0300 Y12.3778 
G01 X2.9988 Y12.2211 
G01 X2.9988 Y10.6389 
G01 X3.0300 Y10.4822 
G01 X3.0911 Y10.3346 
G01 X3.1799 Y10.2017 
G01 X3.2929 Y10.0887 
G01 X3.4258 Y9.9999 
G01 X3.5734 Y9.9388 
G01 X3.7301 Y9.9076 
G01 X3.8899 Y9.9076 
G01 X4.0466 Y9.9388 
G01 X4.1942 Y9.9999 
G01 X4.3271 Y10.0887 
G01 X4.4401 Y10.2017 
G01 X4.5289 Y10.3346 
G01 X4.5900 Y10.4822 
G01 X4.6212 Y10.6389 
G00 Z2.0000 
G00 X7.1612 Y10.6389 
G01 Z-0.0250 F254.00 
G01 X7.1612 Y12.2211 F508.00 
G01 X7.1300 Y12.3778 
G01 X7.0689 Y12.5254 
G01 X6.9801 Y12.6583 
G01 X6.8671 Y12.7713 
G01 X6.7342 Y12.8601 
G01 X6.5866 Y12.9212 
G01 X6.5000 Y12.9385 
G01 X6.5000 Y15.7997 
G01 X6.4619 Y15.8916 
G01 X6.3916 Y15.9619 
G01 X5.7800 Y16.5736 
G01 X5.7800 Y17.2999 
G01 X5.7648 Y17.3366 
G01 X5.7366 Y17.3648 
G01 X5.6999 Y17.3800 
G01 X4.4601 Y17.3800 
G01 X4.4234 Y17.3648 
G01 X4.3952 Y17.3366 
G01 X4.3800 Y17.2999 
G01 X4.3800 Y16.4601 
G01 X4.3952 Y16.4234 
G01 X4.4234 Y16.3952 
G01 X4.4601 Y16.3800 
G01 X5.2664 Y16.3800 
G01 X6.0000 Y15.6464 
G01 X6.0000 Y12.8743 
G01 X5.9657 Y12.8601 
G01 X5.8329 Y12.7713 
G01 X5.7199 Y12.6583 
G01 X5.6311 Y12.5254 
G01 X5.5700 Y12.3778 
G01 X5.5388 Y12.2211 
G01 X5.5388 Y10.6389 
G01 X5.5700 Y10.4822 
G01 X5.6311 Y10.3346 
G01 X5.7199 Y10.2017 
G01 X5.8329 Y10.0887 
G01 X5.9657 Y9.9999 
G01 X6.1134 Y9.9388 
G01 X6.2701 Y9.9076 
G01 X6.4299 Y9.9076 
G01 X6.5866 Y9.9388 
G01 X6.7342 Y9.9999 
G01 X6.8671 Y10.0887 
G01 X6.9801 Y10.2017 
G01 X7.0689 Y10.3346 
G01 X7.1300 Y10.4822 
G01 X7.1612 Y10.6389 
G00 Z2.0000 
G00 X9.7012 Y10.6389 
G01 Z-0.0250 F254.00 
G01 X9.7012 Y12.2211 F508.00 
G01 X9.6700 Y12.3778 
G01 X9.6089 Y12.5254 
G01 X9.5201 Y12.6583 
G01 X9.4071 Y12.7713 
G01 X9.2742 Y12.8601 
G01 X9.1266 Y12.9212 
G01 X9.0000 Y12.9464 
G01 X9.0000 Y15.7997 
G01 X8.9619 Y15.8916 
G01 X8.8916 Y15.9619 
G01 X8.3200 Y16.5336 
G01 X8.3200 Y17.2999 
G01 X8.3048 Y17.3366 
G01 X8.2766 Y17.3648 
G01 X8.2399 Y17.3800 
G01 X7.0001 Y17.3800 
G01 X6.9634 Y17.3648 
G01 X6.9352 Y17.3366 
G01 X6.9200 Y17.2999 
G01 X6.9200 Y16.4601 
G01 X6.9352 Y16.4234 
G01 X6.9634 Y16.3952 
G01 X7.0001 Y16.3800 
G01 X7.7664 Y16.3800 
G01 X8.5000 Y15.6464 
G01 X8.5000 Y12.8562 
G01 X8.3729 Y12.7713 
G01 X8.2599 Y12.6583 
G01 X8.1711 Y12.5254 
G01 X8.1100 Y12.3778 
G01 X8.0788 Y12.2211 
G01 X8.0788 Y10.6389 
G01 X8.1100 Y10.4822 
G01 X8.1711 Y10.3346 
G01 X8.2599 Y10.2017 
G01 X8.3729 Y10.0887 
G01 X8.5058 Y9.9999 
G01 X8.6534 Y9.9388 
G01 X8.8101 Y9.9076 
G01 X8.9699 Y9.9076 
G01 X9.1266 Y9.9388 
G01 X9.2742 Y9.9999 
G01 X9.4071 Y10.0887 
G01 X9.5201 Y10.2017 
G01 X9.6089 Y10.3346 
G01 X9.6700 Y10.4822 
G01 X9.7012 Y10.6389 
G00 Z2.0000 
G00 X12.2412 Y10.6389 
G01 Z-0.0250 F254.00 
G01 X12.2412 Y12.2211 F508.00 
G01 X12.2100 Y12.3778 
G01 X12.1489 Y12.5254 
G01 X12.0601 Y12.6583 
G01 X11.9471 Y12.7713 
G01 X11.8142 Y12.8601 
G01 X11.6666 Y12.9212 
G01 X11.5099 Y12.9524 
G01 X11.5000 Y12.9524 
G01 X11.5000 Y15.7997 
G01 X11.4619 Y15.8916 
G01 X11.3916 Y15.9619 
G01 X10.8600 Y16.4935 
G01 X10.8600 Y17.2999 
G01 X10.8448 Y17.3366 
G01 X10.8166 Y17.3648 
G01 X10.7799 Y17.3800 
G01 X9.5401 Y17.3800 
G01 X9.5034 Y17.3648 
G01 X9.4752 Y17.3366 
G01 X9.4600 Y17.2999 
G01 X9.4600 Y16.4601 
G01 X9.4752 Y16.4234 
G01 X9.5034 Y16.3952 
G01 X9.5401 Y16.3800 
G01 X10.2664 Y16.3800 
G01 X11.0000 Y15.6464 
G01 X11.0000 Y12.8295 
G01 X10.9129 Y12.7713 
G01 X10.7999 Y12.6583 
G01 X10.7111 Y12.5254 
G01 X10.6500 Y12.3778 
G01 X10.6188 Y12.2211 
G01 X10.6188 Y10.6389 
G01 X10.6500 Y10.4822 
G01 X10.7111 Y10.3346 
G01 X10.7999 Y10.2017 
G01 X10.9129 Y10.0887 
G01 X11.0457 Y9.9999 
G01 X11.1934 Y9.9388 
G01 X11.3501 Y9.9076 
G01 X11.5099 Y9.9076 
G01 X11.6666 Y9.9388 
G01 X11.8142 Y9.9999 
G01 X11.9471 Y10.0887 
G01 X12.0601 Y10.2017 
G01 X12.1489 Y10.3346 
G01 X12.2100 Y10.4822 
G01 X12.2412 Y10.6389 
G00 Z2.0000 
G00 X14.7812 Y10.6389 
G01 Z-0.0250 F254.00 
G01 X14.7812 Y12.2211 F508.00 
G01 X14.7500 Y12.3778 
G01 X14.6889 Y12.5254 
G01 X14.6001 Y12.6583 
G01 X14.4871 Y12.7713 
G01 X14.3542 Y12.8601 
G01 X14.2066 Y12.9212 
G01 X14.0499 Y12.9524 
G01 X14.0000 Y12.9524 
G01 X14.0000 Y15.7997 
G01 X13.9619 Y15.8916 
G01 X13.8916 Y15.9619 
G01 X13.3981 Y16.4555 
G01 X13.4000 Y16.4601 
G01 X13.4000 Y17.2999 
G01 X13.3848 Y17.3366 
G01 X13.3566 Y17.3648 
G01 X13.3199 Y17.3800 
G01 X12.0801 Y17.3800 
G01 X12.0434 Y17.3648 
G01 X12.0152 Y17.3366 
G01 X12.0000 Y17.2999 
G01 X12.0000 Y16.4601 
G01 X12.0152 Y16.4234 
G01 X12.0434 Y16.3952 
G01 X12.0801 Y16.3800 
G01 X12.7664 Y16.3800 
G01 X13.5000 Y15.6464 
G01 X13.5000 Y12.8028 
G01 X13.4529 Y12.7713 
G01 X13.3399 Y12.6583 
G01 X13.2511 Y12.5254 
G01 X13.1900 Y12.3778 
G01 X13.1588 Y12.2211 
G01 X13.1588 Y10.6389 
G01 X13.1900 Y10.4822 
G01 X13.2511 Y10.3346 
G01 X13.3399 Y10.2017 
G01 X13.4529 Y10.0887 
G01 X13.5858 Y9.9999 
G01 X13.7334 Y9.9388 
G01 X13.8901 Y9.9076 
G01 X14.0499 Y9.9076 
G01 X14.2066 Y9.9388 
G01 X14.3542 Y9.9999 
G01 X14.4871 Y10.0887 
G01 X14.6001 Y10.2017 
G01 X14.6889 Y10.3346 
G01 X14.7500 Y10.4822 
G01 X14.7812 Y10.6389 
G00 Z2.0000 
G00 X17.3212 Y10.6389 
G01 Z-0.0250 F254.00 
G01 X17.3212 Y12.2211 F508.00 
G01 X17.2900 Y12.3778 
G01 X17.2289 Y12.5254 
G01 X17.1401 Y12.6583 
G01 X17.0271 Y12.7713 
G01 X16.8942 Y12.8601 
G01 X16.7500 Y12.9198 
G01 X16.7500 Y15.5497 
G01 X16.7119 Y15.6416 
G01 X16.6416 Y15.7119 
G01 X15.9264 Y16.4272 
G01 X15.9400 Y16.4601 
G01 X15.9400 Y17.2999 
G01 X15.9248 Y17.3366 
G01 X15.8966 Y17.3648 
G01 X15.8599 Y17.3800 
G01 X14.6201 Y17.3800 
G01 X14.5834 Y17.3648 
G01 X14.5552 Y17.3366 
G01 X14.5400 Y17.2999 
G01 X14.5400 Y16.4601 
G01 X14.5552 Y16.4234 
G01 X14.5834 Y16.3952 
G01 X14.6201 Y16.3800 
G01 X15.2664 Y16.3800 
G01 X16.2500 Y15.3964 
G01 X16.2500 Y12.9115 
G01 X16.1258 Y12.8601 
G01 X15.9929 Y12.7713 
G01 X15.8799 Y12.6583 
G01 X15.7911 Y12.5254 
G01 X15.7300 Y12.3778 
G01 X15.6988 Y12.2211 
G01 X15.6988 Y10.6389 
G01 X15.7300 Y10.4822 
G01 X15.7911 Y10.3346 
G01 X15.8799 Y10.2017 
G01 X15.9929 Y10.0887 
G01 X16.1258 Y9.9999 
G01 X16.2734 Y9.9388 
G01 X16.4301 Y9.9076 
G01 X16.5899 Y9.9076 
G01 X16.7466 Y9.9388 
G01 X16.8942 Y9.9999 
G01 X17.0271 Y10.0887 
G01 X17.1401 Y10.2017 
G01 X17.2289 Y10.3346 
G01 X17.2900 Y10.4822 
G01 X17.3212 Y10.6389 
G00 Z2.0000 
G00 X19.8612 Y10.6389 
G01 Z-0.0250 F254.00 
G01 X19.8612 Y12.2211 F508.00 
G01 X19.8300 Y12.3778 
G01 X19.7689 Y12.5254 
G01 X19.6801 Y12.6583 
G01 X19.5671 Y12.7713 
G01 X19.4342 Y12.8601 
G01 X19.2866 Y12.9212 
G01 X19.2500 Y12.9285 
G01 X19.2500 Y15.7997 
G01 X19.2119 Y15.8916 
G01 X19.1416 Y15.9619 
G01 X18.4800 Y16.6236 
G01 X18.4800 Y17.2999 
G01 X18.4648 Y17.3366 
G01 X18.4366 Y17.3648 
G01 X18.3999 Y17.3800 
G01 X17.1601 Y17.3800 
G01 X17.1234 Y17.3648 
G01 X17.0952 Y17.3366 
G01 X17.0800 Y17.2999 
G01 X17.0800 Y16.4601 
G01 X17.0952 Y16.4234 
G01 X17.1234 Y16.3952 
G01 X17.1601 Y16.3800 
G01 X18.0164 Y16.3800 
G01 X18.7500 Y15.6464 
G01 X18.7500 Y12.8950 
G01 X18.6657 Y12.8601 
G01 X18.5329 Y12.7713 
G01 X18.4199 Y12.6583 
G01 X18.3311 Y12.5254 
G01 X18.2700 Y12.3778 
G01 X18.2388 Y12.2211 
G01 X18.2388 Y10.6389 
G01 X18.2700 Y10.4822 
G01 X18.3311 Y10.3346 
G01 X18.4199 Y10.2017 
G01 X18.5329 Y10.0887 
G01 X18.6657 Y9.9999 
G01 X18.8134 Y9.9388 
G01 X18.9701 Y9.9076 
G01 X19.1299 Y9.9076 
G01 X19.2866 Y9.9388 
G01 X19.4342 Y9.9999 
G01 X19.5671 Y10.0887 
G01 X19.6801 Y10.2017 
G01 X19.7689 Y10.3346 
G01 X19.8300 Y10.4822 
G01 X19.8612 Y10.6389 
G00 Z2.0000 
G00 X22.4012 Y10.6389 
G01 Z-0.0250 F254.00 
G01 X22.4012 Y12.2211 F508.00 
G01 X22.3700 Y12.3778 
G01 X22.3089 Y12.5254 
G01 X22.2201 Y12.6583 
G01 X22.1071 Y12.7713 
G01 X21.9742 Y12.8601 
G01 X21.8266 Y12.9212 
G01 X21.7500 Y12.9365 
G01 X21.7500 Y15.7997 
G01 X21.7119 Y15.8916 
G01 X21.6416 Y15.9619 
G01 X21.0200 Y16.5836 
G01 X21.0200 Y17.2999 
G01 X21.0048 Y17.3366 
G01 X20.9766 Y17.3648 
G01 X20.9399 Y17.3800 
G01 X19.7001 Y17.3800 
G01 X19.6634 Y17.3648 
G01 X19.6352 Y17.3366 
G01 X19.6200 Y17.2999 
G01 X19.6200 Y16.4601 
G01 X19.6352 Y16.4234 
G01 X19.6634 Y16.3952 
G01 X19.7001 Y16.3800 
G01 X20.5164 Y16.3800 
G01 X21.2500 Y15.6464 
G01 X21.2500 Y12.8784 
G01 X21.2058 Y12.8601 
G01 X21.0729 Y12.7713 
G01 X20.9599 Y12.6583 
G01 X20.8711 Y12.5254 
G01 X20.8100 Y12.3778 
G01 X20.7788 Y12.2211 
G01 X20.7788 Y10.6389 
G01 X20.8100 Y10.4822 
G01 X20.8711 Y10.3346 
G01 X20.9599 Y10.2017 
G01 X21.0729 Y10.0887 
G01 X21.2058 Y9.9999 
G01 X21.3534 Y9.9388 
G01 X21.5101 Y9.9076 
G01 X21.6699 Y9.9076 
G01 X21.8266 Y9.9388 
G01 X21.9742 Y9.9999 
G01 X22.1071 Y10.0887 
G01 X22.2201 Y10.2017 
G01 X22.3089 Y10.3346 
G01 X22.3700 Y10.4822 
G01 X22.4012 Y10.6389 
G00 Z2.0000 
G00 X24.9412 Y10.6389 
G01 Z-0.0250 F254.00 
G01 X24.9412 Y12.2211 F508.00 
G01 X24.9100 Y12.3778 
G01 X24.8489 Y12.5254 
G01 X24.7601 Y12.6583 
G01 X24.6471 Y12.7713 
G01 X24.5142 Y12.8601 
G01 X24.3666 Y12.9212 
G01 X24.2500 Y12.9444 
G01 X24.2500 Y15.7997 
G01 X24.2119 Y15.8916 
G01 X24.1416 Y15.9619 
G01 X23.5600 Y16.5436 
G01 X23.5600 Y17.2999 
G01 X23.5448 Y17.3366 
G01 X23.5166 Y17.3648 
G01 X23.4799 Y17.3800 
G01 X22.2401 Y17.3800 
G01 X22.2034 Y17.3648 
G01 X22.1752 Y17.3366 
G01 X22.1600 Y17.2999 
G01 X22.1600 Y16.4601 
G01 X22.1752 Y16.4234 
G01 X22.2034 Y16.3952 
G01 X22.2401 Y16.3800 
G01 X23.0164 Y16.3800 
G01 X23.7500 Y15.6464 
G01 X23.7500 Y12.8618 
G01 X23.7458 Y12.8601 
G01 X23.6129 Y12.7713 
G01 X23.4999 Y12.6583 
G01 X23.4111 Y12.5254 
G01 X23.3500 Y12.3778 
G01 X23.3188 Y12.2211 
G01 X23.3188 Y10.6389 
G01 X23.3500 Y10.4822 
G01 X23.4111 Y10.3346 
G01 X23.4999 Y10.2017 
G01 X23.6129 Y10.0887 
G01 X23.7458 Y9.9999 
G01 X23.8934 Y9.9388 
G01 X24.0501 Y9.9076 
G01 X24.2099 Y9.9076 
G01 X24.3666 Y9.9388 
G01 X24.5142 Y9.9999 
G01 X24.6471 Y10.0887 
G01 X24.7601 Y10.2017 
G01 X24.8489 Y10.3346 
G01 X24.9100 Y10.4822 
G01 X24.9412 Y10.6389 
G00 Z2.0000 
G00 X27.4812 Y10.6389 
G01 Z-0.0250 F254.00 
G01 X27.4812 Y12.2211 F508.00 
G01 X27.4500 Y12.3778 
G01 X27.3889 Y12.5254 
G01 X27.3001 Y12.6583 
G01 X27.1871 Y12.7713 
G01 X27.0542 Y12.8601 
G01 X26.9066 Y12.9212 
G01 X26.7500 Y12.9524 
G01 X26.7500 Y15.7997 
G01 X26.7119 Y15.8916 
G01 X26.6416 Y15.9619 
G01 X26.1000 Y16.5036 
G01 X26.1000 Y17.2999 
G01 X26.0848 Y17.3366 
G01 X26.0566 Y17.3648 
G01 X26.0199 Y17.3800 
G01 X24.7801 Y17.3800 
G01 X24.7434 Y17.3648 
G01 X24.7152 Y17.3366 
G01 X24.7000 Y17.2999 
G01 X24.7000 Y16.4601 
G01 X24.7152 Y16.4234 
G01 X24.7434 Y16.3952 
G01 X24.7801 Y16.3800 
G01 X25.5164 Y16.3800 
G01 X26.2500 Y15.6464 
G01 X26.2500 Y12.8362 
G01 X26.1529 Y12.7713 
G01 X26.0399 Y12.6583 
G01 X25.9511 Y12.5254 
G01 X25.8900 Y12.3778 
G01 X25.8588 Y12.2211 
G01 X25.8588 Y10.6389 
G01 X25.8900 Y10.4822 
G01 X25.9511 Y10.3346 
G01 X26.0399 Y10.2017 
G01 X26.1529 Y10.0887 
G01 X26.2858 Y9.9999 
G01 X26.4334 Y9.9388 
G01 X26.5901 Y9.9076 
G01 X26.7499 Y9.9076 
G01 X26.9066 Y9.9388 
G01 X27.0542 Y9.9999 
G01 X27.1871 Y10.0887 
G01 X27.3001 Y10.2017 
G01 X27.3889 Y10.3346 
G01 X27.4500 Y10.4822 
G01 X27.4812 Y10.6389 
G00 Z2.0000 
G00 X14.4415 Y59.7841 
G01 Z-0.0250 F254.00 
G01 X14.4415 Y57.0559 F508.00 
G01 X14.4749 Y56.8449 
G01 X14.5409 Y56.6417 
G01 X14.6379 Y56.4513 
G01 X14.7635 Y56.2785 
G01 X14.9146 Y56.1274 
G01 X15.0874 Y56.0018 
G01 X15.2778 Y55.9048 
G01 X15.4810 Y55.8388 
G01 X15.6920 Y55.8054 
G01 X15.9056 Y55.8054 
G01 X16.1166 Y55.8388 
G01 X16.3198 Y55.9048 
G01 X16.5102 Y56.0018 
G01 X16.6830 Y56.1274 
G01 X16.8341 Y56.2785 
G01 X16.9597 Y56.4513 
G01 X17.0567 Y56.6417 
G01 X17.1227 Y56.8449 
G01 X17.1561 Y57.0559 
G01 X17.1561 Y59.7841 
G01 X17.1227 Y59.9951 
G01 X17.0567 Y60.1983 
G01 X16.9597 Y60.3887 
G01 X16.8341 Y60.5615 
G01 X16.6830 Y60.7126 
G01 X16.5102 Y60.8382 
G01 X16.3198 Y60.9352 
G01 X16.1166 Y61.0012 
G01 X15.9056 Y61.0346 
G01 X15.6920 Y61.0346 
G01 X15.4810 Y61.0012 
G01 X15.2778 Y60.9352 
G01 X15.0874 Y60.8382 
G01 X14.9146 Y60.7126 
G01 X14.7635 Y60.5615 
G01 X14.6379 Y60.3887 
G01 X14.5409 Y60.1983 
G01 X14.4749 Y59.9951 
G01 X14.4415 Y59.7841 
G00 Z2.0000 
G00 X10.4664 Y59.3785 
G01 Z-0.0250 F254.00 
G01 X10.4664 Y57.4615 F508.00 
G01 X10.5034 Y57.2753 
G01 X10.5761 Y57.1000 
G01 X10.6815 Y56.9421 
G01 X10.8157 Y56.8079 
G01 X10.9736 Y56.7025 
G01 X11.1489 Y56.6298 
G01 X11.3351 Y56.5928 
G01 X11.5249 Y56.5928 
G01 X11.7111 Y56.6298 
G01 X11.8864 Y56.7025 
G01 X12.0443 Y56.8079 
G01 X12.1785 Y56.9421 
G01 X12.2839 Y57.1000 
G01 X12.3566 Y57.2753 
G01 X12.3936 Y57.4615 
G01 X12.3936 Y59.3785 
G01 X12.3566 Y59.5647 
G01 X12.2839 Y59.7400 
G01 X12.1785 Y59.8979 
G01 X12.0443 Y60.0321 
G01 X11.8864 Y60.1375 
G01 X11.7111 Y60.2102 
G01 X11.5249 Y60.2472 
G01 X11.3351 Y60.2472 
G01 X11.1489 Y60.2102 
G01 X10.9736 Y60.1375 
G01 X10.8157 Y60.0321 
G01 X10.6815 Y59.8979 
G01 X10.5761 Y59.7400 
G01 X10.5034 Y59.5647 
G01 X10.4664 Y59.3785 
G00 Z2.0000 
G00 X6.6564 Y59.3785 
G01 Z-0.0250 F254.00 
G01 X6.6564 Y57.4615 F508.00 
G01 X6.6934 Y57.2753 
G01 X6.7661 Y57.1000 
G01 X6.8715 Y56.9421 
G01 X7.0057 Y56.8079 
G01 X7.1636 Y56.7025 
G01 X7.3389 Y56.6298 
G01 X7.5251 Y56.5928 
G01 X7.7149 Y56.5928 
G01 X7.9011 Y56.6298 
G01 X8.0764 Y56.7025 
G01 X8.2343 Y56.8079 
G01 X8.3685 Y56.9421 
G01 X8.4739 Y57.1000 
G01 X8.5466 Y57.2753 
G01 X8.5836 Y57.4615 
G01 X8.5836 Y59.3785 
G01 X8.5466 Y59.5647 
G01 X8.4739 Y59.7400 
G01 X8.3685 Y59.8979 
G01 X8.2343 Y60.0321 
G01 X8.0764 Y60.1375 
G01 X7.9011 Y60.2102 
G01 X7.7149 Y60.2472 
G01 X7.5251 Y60.2472 
G01 X7.3389 Y60.2102 
G01 X7.1636 Y60.1375 
G01 X7.0057 Y60.0321 
G01 X6.8715 Y59.8979 
G01 X6.7661 Y59.7400 
G01 X6.6934 Y59.5647 
G01 X6.6564 Y59.3785 
G00 Z2.0000 
G00 X7.9650 Y52.5851 
G01 Z-0.0250 F254.00 
G01 X7.9650 Y54.0949 F508.00 
G01 X7.9498 Y54.1316 
G01 X7.9216 Y54.1598 
G01 X7.8849 Y54.1750 
G01 X6.5751 Y54.1750 
G01 X6.5384 Y54.1598 
G01 X6.5102 Y54.1316 
G01 X6.4950 Y54.0949 
G01 X6.4950 Y52.5851 
G01 X6.5102 Y52.5484 
G01 X6.5384 Y52.5202 
G01 X6.5751 Y52.5050 
G01 X7.2500 Y52.5050 
G01 X7.2500 Y49.9600 
G01 X6.7601 Y49.9600 
G01 X6.7234 Y49.9448 
G01 X6.6952 Y49.9166 
G01 X6.6800 Y49.8799 
G01 X6.6800 Y48.5000 
G01 X3.9400 Y48.5000 
G01 X3.9400 Y48.8799 
G01 X3.9248 Y48.9166 
G01 X3.8966 Y48.9448 
G01 X3.8599 Y48.9600 
G01 X3.0201 Y48.9600 
G01 X2.9834 Y48.9448 
G01 X2.9552 Y48.9166 
G01 X2.9400 Y48.8799 
G01 X2.9400 Y47.6401 
G01 X2.9552 Y47.6034 
G01 X2.9834 Y47.5752 
G01 X3.0201 Y47.5600 
G01 X3.8599 Y47.5600 
G01 X3.8966 Y47.5752 
G01 X3.9248 Y47.6034 
G01 X3.9400 Y47.6401 
G01 X3.9400 Y48.0000 
G01 X6.6800 Y48.0000 
G01 X6.6800 Y46.6401 
G01 X6.6952 Y46.6034 
G01 X6.7234 Y46.5752 
G01 X6.7601 Y46.5600 
G01 X8.5799 Y46.5600 
G01 X8.6166 Y46.5752 
G01 X8.6448 Y46.6034 
G01 X8.6600 Y46.6401 
G01 X8.6600 Y49.8799 
G01 X8.6448 Y49.9166 
G01 X8.6166 Y49.9448 
G01 X8.5799 Y49.9600 
G01 X7.7500 Y49.9600 
G01 X7.7500 Y52.5050 
G01 X7.8849 Y52.5050 
G01 X7.9216 Y52.5202 
G01 X7.9498 Y52.5484 
G01 X7.9650 Y52.5851 
G00 Z2.0000 
G00 X2.1950 Y54.0949 
G01 Z-0.0250 F254.00 
G01 X2.1950 Y52.5851 F508.00 
G01 X2.2102 Y52.5484 
G01 X2.2384 Y52.5202 
G01 X2.2751 Y52.5050 
G01 X3.5849 Y52.5050 
G01 X3.6216 Y52.5202 
G01 X3.6498 Y52.5484 
G01 X3.6650 Y52.5851 
G01 X3.6650 Y53.8114 
G01 X3.8916 Y54.0381 
G01 X3.9619 Y54.1084 
G01 X4.0000 Y54.2003 
G01 X4.0000 Y56.6117 
G01 X4.0911 Y56.6298 
G01 X4.2664 Y56.7025 
G01 X4.4243 Y56.8079 
G01 X4.5585 Y56.9421 
G01 X4.6639 Y57.1000 
G01 X4.7366 Y57.2753 
G01 X4.7736 Y57.4615 
G01 X4.7736 Y59.3785 
G01 X4.7366 Y59.5647 
G01 X4.6639 Y59.7400 
G01 X4.5585 Y59.8979 
G01 X4.4243 Y60.0321 
G01 X4.2664 Y60.1375 
G01 X4.0911 Y60.2102 
G01 X3.9049 Y60.2472 
G01 X3.7151 Y60.2472 
G01 X3.5289 Y60.2102 
G01 X3.3536 Y60.1375 
G01 X3.1957 Y60.0321 
G01 X3.0615 Y59.8979 
G01 X2.9561 Y59.7400 
G01 X2.8834 Y59.5647 
G01 X2.8464 Y59.3785 
G01 X2.8464 Y57.4615 
G01 X2.8834 Y57.2753 
G01 X2.9561 Y57.1000 
G01 X3.0615 Y56.9421 
G01 X3.1957 Y56.8079 
G01 X3.3536 Y56.7025 
G01 X3.5000 Y56.6418 
G01 X3.5000 Y54.3536 
G01 X3.3214 Y54.1750 
G01 X2.2751 Y54.1750 
G01 X2.2384 Y54.1598 
G01 X2.2102 Y54.1316 
G01 X2.1950 Y54.0949 
G00 Z2.0000 
G00 X3.2400 Y41.5101 
G01 Z-0.0250 F254.00 
G01 X3.2400 Y42.7499 F508.00 
G01 X3.2248 Y42.7866 
G01 X3.1966 Y42.8148 
G01 X3.1599 Y42.8300 
G01 X1.9201 Y42.8300 
G01 X1.8834 Y42.8148 
G01 X1.8552 Y42.7866 
G01 X1.8400 Y42.7499 
G01 X1.8400 Y41.6936 
G01 X1.2881 Y41.1416 
G01 X1.2500 Y41.0497 
G01 X1.2500 Y28.2003 
G01 X1.2881 Y28.1084 
G01 X1.3584 Y28.0381 
G01 X1.8775 Y27.5189 
G01 X1.8552 Y27.4966 
G01 X1.8400 Y27.4599 
G01 X1.8400 Y26.6201 
G01 X1.8552 Y26.5834 
G01 X1.8834 Y26.5552 
G01 X1.9201 Y26.5400 
G01 X3.1599 Y26.5400 
G01 X3.1966 Y26.5552 
G01 X3.2248 Y26.5834 
G01 X3.2400 Y26.6201 
G01 X3.2400 Y27.4599 
G01 X3.2248 Y27.4966 
G01 X3.1966 Y27.5248 
G01 X3.1599 Y27.5400 
G01 X2.5636 Y27.5400 
G01 X1.7500 Y28.3536 
G01 X1.7500 Y40.8964 
G01 X2.2836 Y41.4300 
G01 X3.1599 Y41.4300 
G01 X3.1966 Y41.4452 
G01 X3.2248 Y41.4734 
G01 X3.2400 Y41.5101 
G00 Z2.0000 
G00 X1.9201 Y34.1600 
G01 Z-0.0250 F254.00 
G01 X2.2500 Y34.1600 F508.00 
G01 X2.2500 Y29.3400 
G01 X1.9201 Y29.3400 
G01 X1.8834 Y29.3248 
G01 X1.8552 Y29.2966 
G01 X1.8400 Y29.2599 
G01 X1.8400 Y28.4201 
G01 X1.8552 Y28.3834 
G01 X1.8834 Y28.3552 
G01 X1.9201 Y28.3400 
G01 X3.1599 Y28.3400 
G01 X3.1966 Y28.3552 
G01 X3.2248 Y28.3834 
G01 X3.2400 Y28.4201 
G01 X3.2400 Y29.2599 
G01 X3.2248 Y29.2966 
G01 X3.1966 Y29.3248 
G01 X3.1599 Y29.3400 
G01 X2.7500 Y29.3400 
G01 X2.7500 Y32.2500 
G01 X5.9918 Y32.2500 
G01 X6.0195 Y32.1956 
G01 X6.1157 Y32.0632 
G01 X6.2314 Y31.9475 
G01 X6.3638 Y31.8513 
G01 X6.5097 Y31.7770 
G01 X6.6653 Y31.7264 
G01 X6.8270 Y31.7008 
G01 X6.9906 Y31.7008 
G01 X7.1523 Y31.7264 
G01 X7.3079 Y31.7770 
G01 X7.4538 Y31.8513 
G01 X7.5862 Y31.9475 
G01 X7.7019 Y32.0632 
G01 X7.7981 Y32.1956 
G01 X7.8724 Y32.3415 
G01 X7.9230 Y32.4971 
G01 X7.9486 Y32.6588 
G01 X7.9486 Y32.8224 
G01 X7.9230 Y32.9841 
G01 X7.8724 Y33.1397 
G01 X7.8288 Y33.2253 
G01 X8.7119 Y34.1084 
G01 X8.7500 Y34.2003 
G01 X8.7500 Y40.2500 
G01 X12.2063 Y40.2500 
G01 X12.2063 Y39.8962 
G01 X12.2215 Y39.8595 
G01 X12.2497 Y39.8313 
G01 X12.2864 Y39.8161 
G01 X14.3328 Y39.8161 
G01 X14.3695 Y39.8313 
G01 X14.3977 Y39.8595 
G01 X14.4129 Y39.8962 
G01 X14.4129 Y41.4346 
G01 X14.3977 Y41.4713 
G01 X14.3695 Y41.4995 
G01 X14.3328 Y41.5147 
G01 X12.2864 Y41.5147 
G01 X12.2497 Y41.4995 
G01 X12.2215 Y41.4713 
G01 X12.2063 Y41.4346 
G01 X12.2063 Y40.7500 
G01 X8.4503 Y40.7500 
G01 X8.3584 Y40.7119 
G01 X8.2881 Y40.6416 
G01 X8.2500 Y40.5497 
G01 X8.2500 Y34.3536 
G01 X7.4958 Y33.5994 
G01 X7.4538 Y33.6299 
G01 X7.3079 Y33.7042 
G01 X7.1523 Y33.7548 
G01 X6.9906 Y33.7804 
G01 X6.8270 Y33.7804 
G01 X6.6653 Y33.7548 
G01 X6.5097 Y33.7042 
G01 X6.3638 Y33.6299 
G01 X6.2314 Y33.5337 
G01 X6.1157 Y33.4180 
G01 X6.0195 Y33.2856 
G01 X5.9452 Y33.1397 
G01 X5.8946 Y32.9841 
G01 X5.8690 Y32.8224 
G01 X5.8690 Y32.7500 
G01 X2.7500 Y32.7500 
G01 X2.7500 Y34.1600 
G01 X3.1599 Y34.1600 
G01 X3.1966 Y34.1752 
G01 X3.2248 Y34.2034 
G01 X3.2400 Y34.2401 
G01 X3.2400 Y35.0799 
G01 X3.2248 Y35.1166 
G01 X3.1966 Y35.1448 
G01 X3.1599 Y35.1600 
G01 X1.9201 Y35.1600 
G01 X1.8834 Y35.1448 
G01 X1.8552 Y35.1166 
G01 X1.8400 Y35.0799 
G01 X1.8400 Y34.2401 
G01 X1.8552 Y34.2034 
G01 X1.8834 Y34.1752 
G01 X1.9201 Y34.1600 
G00 Z2.0000 
G00 X14.4510 Y28.1376 
G01 Z-0.0250 F254.00 
G01 X14.4510 Y28.3012 F508.00 
G01 X14.4254 Y28.4629 
G01 X14.3748 Y28.6185 
G01 X14.3005 Y28.7644 
G01 X14.2043 Y28.8968 
G01 X14.0886 Y29.0125 
G01 X13.9562 Y29.1087 
G01 X13.8103 Y29.1830 
G01 X13.6547 Y29.2336 
G01 X13.4930 Y29.2592 
G01 X13.3294 Y29.2592 
G01 X13.1677 Y29.2336 
G01 X13.0121 Y29.1830 
G01 X12.8662 Y29.1087 
G01 X12.7338 Y29.0125 
G01 X12.6181 Y28.8968 
G01 X12.5219 Y28.7644 
G01 X12.4476 Y28.6185 
G01 X12.3970 Y28.4629 
G01 X12.3714 Y28.3012 
G01 X12.3714 Y28.1376 
G01 X12.3970 Y27.9759 
G01 X12.4476 Y27.8203 
G01 X12.5219 Y27.6744 
G01 X12.6181 Y27.5420 
G01 X12.7338 Y27.4263 
G01 X12.8662 Y27.3301 
G01 X13.0121 Y27.2558 
G01 X13.1677 Y27.2052 
G01 X13.3294 Y27.1796 
G01 X13.4930 Y27.1796 
G01 X13.6547 Y27.2052 
G01 X13.8103 Y27.2558 
G01 X13.9562 Y27.3301 
G01 X14.0886 Y27.4263 
G01 X14.2043 Y27.5420 
G01 X14.3005 Y27.6744 
G01 X14.3748 Y27.8203 
G01 X14.4254 Y27.9759 
G01 X14.4510 Y28.1376 
G00 Z2.0000 
G00 X7.9486 Y28.1376 
G01 Z-0.0250 F254.00 
G01 X7.9486 Y28.3012 F508.00 
G01 X7.9230 Y28.4629 
G01 X7.8724 Y28.6185 
G01 X7.7981 Y28.7644 
G01 X7.7019 Y28.8968 
G01 X7.5862 Y29.0125 
G01 X7.4538 Y29.1087 
G01 X7.3079 Y29.1830 
G01 X7.1523 Y29.2336 
G01 X6.9906 Y29.2592 
G01 X6.8270 Y29.2592 
G01 X6.6653 Y29.2336 
G01 X6.5097 Y29.1830 
G01 X6.3638 Y29.1087 
G01 X6.2314 Y29.0125 
G01 X6.1157 Y28.8968 
G01 X6.0195 Y28.7644 
G01 X5.9452 Y28.6185 
G01 X5.8946 Y28.4629 
G01 X5.8690 Y28.3012 
G01 X5.8690 Y28.1376 
G01 X5.8946 Y27.9759 
G01 X5.9452 Y27.8203 
G01 X6.0195 Y27.6744 
G01 X6.1157 Y27.5420 
G01 X6.2314 Y27.4263 
G01 X6.3638 Y27.3301 
G01 X6.5097 Y27.2558 
G01 X6.6653 Y27.2052 
G01 X6.8270 Y27.1796 
G01 X6.9906 Y27.1796 
G01 X7.1523 Y27.2052 
G01 X7.3079 Y27.2558 
G01 X7.4538 Y27.3301 
G01 X7.5862 Y27.4263 
G01 X7.7019 Y27.5420 
G01 X7.7981 Y27.6744 
G01 X7.8724 Y27.8203 
G01 X7.9230 Y27.9759 
G01 X7.9486 Y28.1376 
G00 Z2.0000 
G00 X14.4510 Y32.6588 
G01 Z-0.0250 F254.00 
G01 X14.4510 Y32.8224 F508.00 
G01 X14.4254 Y32.9841 
G01 X14.3748 Y33.1397 
G01 X14.3005 Y33.2856 
G01 X14.2043 Y33.4180 
G01 X14.0886 Y33.5337 
G01 X13.9562 Y33.6299 
G01 X13.8103 Y33.7042 
G01 X13.6547 Y33.7548 
G01 X13.4930 Y33.7804 
G01 X13.3294 Y33.7804 
G01 X13.1677 Y33.7548 
G01 X13.0121 Y33.7042 
G01 X12.8662 Y33.6299 
G01 X12.7338 Y33.5337 
G01 X12.6181 Y33.4180 
G01 X12.5219 Y33.2856 
G01 X12.4476 Y33.1397 
G01 X12.3970 Y32.9841 
G01 X12.3714 Y32.8224 
G01 X12.3714 Y32.6588 
G01 X12.3970 Y32.4971 
G01 X12.4476 Y32.3415 
G01 X12.5219 Y32.1956 
G01 X12.6181 Y32.0632 
G01 X12.7338 Y31.9475 
G01 X12.8662 Y31.8513 
G01 X13.0121 Y31.7770 
G01 X13.1677 Y31.7264 
G01 X13.3294 Y31.7008 
G01 X13.4930 Y31.7008 
G01 X13.6547 Y31.7264 
G01 X13.8103 Y31.7770 
G01 X13.9562 Y31.8513 
G01 X14.0886 Y31.9475 
G01 X14.2043 Y32.0632 
G01 X14.3005 Y32.1956 
G01 X14.3748 Y32.3415 
G01 X14.4254 Y32.4971 
G01 X14.4510 Y32.6588 
G00 Z2.0000 
G00 X38.4450 Y11.9451 
G01 Z-0.0250 F254.00 
G01 X38.4450 Y13.4549 F508.00 
G01 X38.4298 Y13.4916 
G01 X38.4016 Y13.5198 
G01 X38.3649 Y13.5350 
G01 X37.7500 Y13.5350 
G01 X37.7500 Y14.5497 
G01 X37.7119 Y14.6416 
G01 X37.6416 Y14.7119 
G01 X34.9200 Y17.4336 
G01 X34.9200 Y18.2999 
G01 X34.9048 Y18.3366 
G01 X34.8766 Y18.3648 
G01 X34.8399 Y18.3800 
G01 X33.4001 Y18.3800 
G01 X33.3634 Y18.3648 
G01 X33.3352 Y18.3366 
G01 X33.3200 Y18.2999 
G01 X33.3200 Y17.2601 
G01 X33.3352 Y17.2234 
G01 X33.3634 Y17.1952 
G01 X33.4001 Y17.1800 
G01 X34.4664 Y17.1800 
G01 X37.2500 Y14.3964 
G01 X37.2500 Y13.5350 
G01 X37.0551 Y13.5350 
G01 X37.0184 Y13.5198 
G01 X36.9902 Y13.4916 
G01 X36.9750 Y13.4549 
G01 X36.9750 Y12.3286 
G01 X35.1084 Y10.4619 
G01 X35.0381 Y10.3916 
G01 X35.0000 Y10.2997 
G01 X35.0000 Y7.6946 
G01 X34.8944 Y7.6946 
G01 X34.6834 Y7.6612 
G01 X34.4802 Y7.5952 
G01 X34.2898 Y7.4982 
G01 X34.1170 Y7.3726 
G01 X33.9659 Y7.2215 
G01 X33.8403 Y7.0487 
G01 X33.7433 Y6.8583 
G01 X33.6773 Y6.6551 
G01 X33.6439 Y6.4441 
G01 X33.6439 Y3.7159 
G01 X33.6773 Y3.5049 
G01 X33.7433 Y3.3017 
G01 X33.8403 Y3.1113 
G01 X33.9659 Y2.9385 
G01 X34.1170 Y2.7874 
G01 X34.2898 Y2.6618 
G01 X34.4802 Y2.5648 
G01 X34.6834 Y2.4988 
G01 X34.8944 Y2.4654 
G01 X35.1080 Y2.4654 
G01 X35.3190 Y2.4988 
G01 X35.5222 Y2.5648 
G01 X35.7126 Y2.6618 
G01 X35.8854 Y2.7874 
G01 X36.0365 Y2.9385 
G01 X36.1621 Y3.1113 
G01 X36.2591 Y3.3017 
G01 X36.3251 Y3.5049 
G01 X36.3585 Y3.7159 
G01 X36.3585 Y6.4441 
G01 X36.3251 Y6.6551 
G01 X36.2591 Y6.8583 
G01 X36.1621 Y7.0487 
G01 X36.0365 Y7.2215 
G01 X35.8854 Y7.3726 
G01 X35.7126 Y7.4982 
G01 X35.5222 Y7.5952 
G01 X35.5000 Y7.6024 
G01 X35.5000 Y10.1464 
G01 X37.2186 Y11.8650 
G01 X38.3649 Y11.8650 
G01 X38.4016 Y11.8802 
G01 X38.4298 Y11.9084 
G01 X38.4450 Y11.9451 
G00 Z2.0000 
G00 X38.7199 Y17.3800 
G01 Z-0.0250 F254.00 
G01 X37.9736 Y17.3800 F508.00 
G01 X35.9619 Y19.3916 
G01 X35.8916 Y19.4619 
G01 X35.7997 Y19.5000 
G01 X31.9503 Y19.5000 
G01 X31.8584 Y19.4619 
G01 X31.7881 Y19.3916 
G01 X31.7625 Y19.3300 
G01 X31.2001 Y19.3300 
G01 X31.1634 Y19.3148 
G01 X31.1352 Y19.2866 
G01 X31.1200 Y19.2499 
G01 X31.1200 Y18.2101 
G01 X31.1352 Y18.1734 
G01 X31.1634 Y18.1452 
G01 X31.2001 Y18.1300 
G01 X32.6399 Y18.1300 
G01 X32.6766 Y18.1452 
G01 X32.7048 Y18.1734 
G01 X32.7200 Y18.2101 
G01 X32.7200 Y19.0000 
G01 X35.6464 Y19.0000 
G01 X37.4000 Y17.2464 
G01 X37.4000 Y16.4601 
G01 X37.4152 Y16.4234 
G01 X37.4434 Y16.3952 
G01 X37.4801 Y16.3800 
G01 X38.7199 Y16.3800 
G01 X38.7566 Y16.3952 
G01 X38.7848 Y16.4234 
G01 X38.8000 Y16.4601 
G01 X38.8000 Y17.2999 
G01 X38.7848 Y17.3366 
G01 X38.7566 Y17.3648 
G01 X38.7199 Y17.3800 
G00 Z2.0000 
G00 X32.3961 Y3.7159 
G01 Z-0.0250 F254.00 
G01 X32.3961 Y6.4441 F508.00 
G01 X32.3627 Y6.6551 
G01 X32.2967 Y6.8583 
G01 X32.1997 Y7.0487 
G01 X32.0741 Y7.2215 
G01 X31.9230 Y7.3726 
G01 X31.7502 Y7.4982 
G01 X31.5598 Y7.5952 
G01 X31.5000 Y7.6146 
G01 X31.5000 Y10.3964 
G01 X32.9686 Y11.8650 
G01 X34.0649 Y11.8650 
G01 X34.1016 Y11.8802 
G01 X34.1298 Y11.9084 
G01 X34.1450 Y11.9451 
G01 X34.1450 Y13.4549 
G01 X34.1298 Y13.4916 
G01 X34.1016 Y13.5198 
G01 X34.0649 Y13.5350 
G01 X32.7551 Y13.5350 
G01 X32.7184 Y13.5198 
G01 X32.6902 Y13.4916 
G01 X32.6750 Y13.4549 
G01 X32.6750 Y12.2786 
G01 X31.1084 Y10.7119 
G01 X31.0381 Y10.6416 
G01 X31.0000 Y10.5497 
G01 X31.0000 Y7.6946 
G01 X30.9320 Y7.6946 
G01 X30.7210 Y7.6612 
G01 X30.5178 Y7.5952 
G01 X30.3274 Y7.4982 
G01 X30.1546 Y7.3726 
G01 X30.0035 Y7.2215 
G01 X29.8779 Y7.0487 
G01 X29.7809 Y6.8583 
G01 X29.7149 Y6.6551 
G01 X29.6815 Y6.4441 
G01 X29.6815 Y3.7159 
G01 X29.7149 Y3.5049 
G01 X29.7809 Y3.3017 
G01 X29.8779 Y3.1113 
G01 X30.0035 Y2.9385 
G01 X30.1546 Y2.7874 
G01 X30.3274 Y2.6618 
G01 X30.5178 Y2.5648 
G01 X30.7210 Y2.4988 
G01 X30.9320 Y2.4654 
G01 X31.1456 Y2.4654 
G01 X31.3566 Y2.4988 
G01 X31.5598 Y2.5648 
G01 X31.7502 Y2.6618 
G01 X31.9230 Y2.7874 
G01 X32.0741 Y2.9385 
G01 X32.1997 Y3.1113 
G01 X32.2967 Y3.3017 
G01 X32.3627 Y3.5049 
G01 X32.3961 Y3.7159 
G00 Z2.0000 
G00 X19.9628 Y51.9801 
G01 Z-0.0250 F254.00 
G01 X19.9628 Y52.1599 F508.00 
G01 X19.9277 Y52.3363 
G01 X19.8589 Y52.5024 
G01 X19.7590 Y52.6519 
G01 X19.6319 Y52.7790 
G01 X19.4824 Y52.8789 
G01 X19.3163 Y52.9477 
G01 X19.1399 Y52.9828 
G01 X18.9601 Y52.9828 
G01 X18.7837 Y52.9477 
G01 X18.6176 Y52.8789 
G01 X18.4681 Y52.7790 
G01 X18.3410 Y52.6519 
G01 X18.2411 Y52.5024 
G01 X18.1723 Y52.3363 
G01 X18.1372 Y52.1599 
G01 X18.1372 Y51.9801 
G01 X18.1723 Y51.8037 
G01 X18.2411 Y51.6376 
G01 X18.3410 Y51.4881 
G01 X18.4681 Y51.3610 
G01 X18.6176 Y51.2611 
G01 X18.7837 Y51.1923 
G01 X18.9601 Y51.1572 
G01 X19.1399 Y51.1572 
G01 X19.3163 Y51.1923 
G01 X19.4824 Y51.2611 
G01 X19.6319 Y51.3610 
G01 X19.7590 Y51.4881 
G01 X19.8589 Y51.6376 
G01 X19.9277 Y51.8037 
G01 X19.9628 Y51.9801 
G00 Z2.0000 
G00 X19.9628 Y49.4401 
G01 Z-0.0250 F254.00 
G01 X19.9628 Y49.6199 F508.00 
G01 X19.9277 Y49.7963 
G01 X19.8589 Y49.9624 
G01 X19.7590 Y50.1119 
G01 X19.6319 Y50.2390 
G01 X19.4824 Y50.3389 
G01 X19.3163 Y50.4077 
G01 X19.1399 Y50.4428 
G01 X18.9601 Y50.4428 
G01 X18.7837 Y50.4077 
G01 X18.6176 Y50.3389 
G01 X18.4681 Y50.2390 
G01 X18.3410 Y50.1119 
G01 X18.2411 Y49.9624 
G01 X18.1723 Y49.7963 
G01 X18.1372 Y49.6199 
G01 X18.1372 Y49.4401 
G01 X18.1723 Y49.2637 
G01 X18.2411 Y49.0976 
G01 X18.3410 Y48.9481 
G01 X18.4681 Y48.8210 
G01 X18.6176 Y48.7211 
G01 X18.7837 Y48.6523 
G01 X18.9601 Y48.6172 
G01 X19.1399 Y48.6172 
G01 X19.3163 Y48.6523 
G01 X19.4824 Y48.7211 
G01 X19.6319 Y48.8210 
G01 X19.7590 Y48.9481 
G01 X19.8589 Y49.0976 
G01 X19.9277 Y49.2637 
G01 X19.9628 Y49.4401 
G00 Z2.0000 
G00 X19.9628 Y46.9001 
G01 Z-0.0250 F254.00 
G01 X19.9628 Y47.0799 F508.00 
G01 X19.9277 Y47.2563 
G01 X19.8589 Y47.4224 
G01 X19.7590 Y47.5719 
G01 X19.6319 Y47.6990 
G01 X19.4824 Y47.7989 
G01 X19.3163 Y47.8677 
G01 X19.1399 Y47.9028 
G01 X18.9601 Y47.9028 
G01 X18.7837 Y47.8677 
G01 X18.6176 Y47.7989 
G01 X18.4681 Y47.6990 
G01 X18.3410 Y47.5719 
G01 X18.2411 Y47.4224 
G01 X18.1723 Y47.2563 
G01 X18.1372 Y47.0799 
G01 X18.1372 Y46.9001 
G01 X18.1723 Y46.7237 
G01 X18.2411 Y46.5576 
G01 X18.3410 Y46.4081 
G01 X18.4681 Y46.2810 
G01 X18.6176 Y46.1811 
G01 X18.7837 Y46.1123 
G01 X18.9601 Y46.0772 
G01 X19.1399 Y46.0772 
G01 X19.3163 Y46.1123 
G01 X19.4824 Y46.1811 
G01 X19.6319 Y46.2810 
G01 X19.7590 Y46.4081 
G01 X19.8589 Y46.5576 
G01 X19.9277 Y46.7237 
G01 X19.9628 Y46.9001 
G00 Z2.0000 
G00 X19.9628 Y41.8201 
G01 Z-0.0250 F254.00 
G01 X19.9628 Y41.9999 F508.00 
G01 X19.9277 Y42.1763 
G01 X19.8589 Y42.3424 
G01 X19.7590 Y42.4919 
G01 X19.6319 Y42.6190 
G01 X19.4824 Y42.7189 
G01 X19.3163 Y42.7877 
G01 X19.1399 Y42.8228 
G01 X18.9601 Y42.8228 
G01 X18.7837 Y42.7877 
G01 X18.6176 Y42.7189 
G01 X18.4681 Y42.6190 
G01 X18.3410 Y42.4919 
G01 X18.2411 Y42.3424 
G01 X18.1723 Y42.1763 
G01 X18.1372 Y41.9999 
G01 X18.1372 Y41.8201 
G01 X18.1723 Y41.6437 
G01 X18.2411 Y41.4776 
G01 X18.2944 Y41.3979 
G01 X10.2881 Y33.3916 
G01 X10.2500 Y33.2997 
G01 X10.2500 Y26.6036 
G01 X2.8264 Y19.1800 
G01 X1.9201 Y19.1800 
G01 X1.8834 Y19.1648 
G01 X1.8552 Y19.1366 
G01 X1.8400 Y19.0999 
G01 X1.8400 Y18.2601 
G01 X1.8552 Y18.2234 
G01 X1.8834 Y18.1952 
G01 X1.9201 Y18.1800 
G01 X3.1599 Y18.1800 
G01 X3.1966 Y18.1952 
G01 X3.2248 Y18.2234 
G01 X3.2400 Y18.2601 
G01 X3.2400 Y18.8864 
G01 X10.6416 Y26.2881 
G01 X10.7119 Y26.3584 
G01 X10.7500 Y26.4503 
G01 X10.7500 Y33.1464 
G01 X18.6792 Y41.0756 
G01 X18.7837 Y41.0323 
G01 X18.9601 Y40.9972 
G01 X19.1399 Y40.9972 
G01 X19.3163 Y41.0323 
G01 X19.4824 Y41.1011 
G01 X19.6319 Y41.2010 
G01 X19.7590 Y41.3281 
G01 X19.8589 Y41.4776 
G01 X19.9277 Y41.6437 
G01 X19.9628 Y41.8201 
G00 Z2.0000 
G00 X19.9628 Y39.2801 
G01 Z-0.0250 F254.00 
G01 X19.9628 Y39.4599 F508.00 
G01 X19.9277 Y39.6363 
G01 X19.8589 Y39.8024 
G01 X19.7590 Y39.9519 
G01 X19.6319 Y40.0790 
G01 X19.4824 Y40.1789 
G01 X19.3163 Y40.2477 
G01 X19.1399 Y40.2828 
G01 X18.9601 Y40.2828 
G01 X18.7837 Y40.2477 
G01 X18.6176 Y40.1789 
G01 X18.4681 Y40.0790 
G01 X18.3410 Y39.9519 
G01 X18.2411 Y39.8024 
G01 X18.1723 Y39.6363 
G01 X18.1452 Y39.5000 
G01 X17.9503 Y39.5000 
G01 X17.8584 Y39.4619 
G01 X17.7881 Y39.3916 
G01 X11.0381 Y32.6416 
G01 X11.0000 Y32.5497 
G01 X11.0000 Y24.8536 
G01 X5.3264 Y19.1800 
G01 X4.4601 Y19.1800 
G01 X4.4234 Y19.1648 
G01 X4.3952 Y19.1366 
G01 X4.3800 Y19.0999 
G01 X4.3800 Y18.2601 
G01 X4.3952 Y18.2234 
G01 X4.4234 Y18.1952 
G01 X4.4601 Y18.1800 
G01 X5.6999 Y18.1800 
G01 X5.7366 Y18.1952 
G01 X5.7648 Y18.2234 
G01 X5.7800 Y18.2601 
G01 X5.7800 Y18.9264 
G01 X11.3916 Y24.5381 
G01 X11.4619 Y24.6084 
G01 X11.5000 Y24.7003 
G01 X11.5000 Y32.3964 
G01 X18.1036 Y39.0000 
G01 X18.2153 Y39.0000 
G01 X18.2411 Y38.9376 
G01 X18.3410 Y38.7881 
G01 X18.4681 Y38.6610 
G01 X18.6176 Y38.5611 
G01 X18.7837 Y38.4923 
G01 X18.9601 Y38.4572 
G01 X19.1399 Y38.4572 
G01 X19.3163 Y38.4923 
G01 X19.4824 Y38.5611 
G01 X19.6319 Y38.6610 
G01 X19.7590 Y38.7881 
G01 X19.8589 Y38.9376 
G01 X19.9277 Y39.1037 
G01 X19.9628 Y39.2801 
G00 Z2.0000 
G00 X19.9628 Y36.7401 
G01 Z-0.0250 F254.00 
G01 X19.9628 Y36.9199 F508.00 
G01 X19.9277 Y37.0963 
G01 X19.8589 Y37.2624 
G01 X19.7590 Y37.4119 
G01 X19.6319 Y37.5390 
G01 X19.4824 Y37.6389 
G01 X19.3163 Y37.7077 
G01 X19.1399 Y37.7428 
G01 X18.9601 Y37.7428 
G01 X18.7837 Y37.7077 
G01 X18.6176 Y37.6389 
G01 X18.4681 Y37.5390 
G01 X18.3410 Y37.4119 
G01 X18.2411 Y37.2624 
G01 X18.1723 Y37.0963 
G01 X18.1372 Y36.9199 
G01 X18.1372 Y36.7401 
G01 X18.1723 Y36.5637 
G01 X18.2411 Y36.3976 
G01 X18.2623 Y36.3659 
G01 X17.5381 Y35.6416 
G01 X17.5000 Y35.5497 
G01 X17.5000 Y34.6036 
G01 X11.7881 Y28.8916 
G01 X11.7500 Y28.7997 
G01 X11.7500 Y23.1036 
G01 X7.8264 Y19.1800 
G01 X7.0001 Y19.1800 
G01 X6.9634 Y19.1648 
G01 X6.9352 Y19.1366 
G01 X6.9200 Y19.0999 
G01 X6.9200 Y18.2601 
G01 X6.9352 Y18.2234 
G01 X6.9634 Y18.1952 
G01 X7.0001 Y18.1800 
G01 X8.2399 Y18.1800 
G01 X8.2766 Y18.1952 
G01 X8.3048 Y18.2234 
G01 X8.3200 Y18.2601 
G01 X8.3200 Y18.9664 
G01 X12.1416 Y22.7881 
G01 X12.2119 Y22.8584 
G01 X12.2500 Y22.9503 
G01 X12.2500 Y28.6464 
G01 X17.8916 Y34.2881 
G01 X17.9619 Y34.3584 
G01 X18.0000 Y34.4503 
G01 X18.0000 Y35.3964 
G01 X18.6226 Y36.0190 
G01 X18.7837 Y35.9523 
G01 X18.9601 Y35.9172 
G01 X19.1399 Y35.9172 
G01 X19.3163 Y35.9523 
G01 X19.4824 Y36.0211 
G01 X19.6319 Y36.1210 
G01 X19.7590 Y36.2481 
G01 X19.8589 Y36.3976 
G01 X19.9277 Y36.5637 
G01 X19.9628 Y36.7401 
G00 Z2.0000 
G00 X19.9628 Y34.2001 
G01 Z-0.0250 F254.00 
G01 X19.9628 Y34.3799 F508.00 
G01 X19.9277 Y34.5563 
G01 X19.8589 Y34.7224 
G01 X19.7590 Y34.8719 
G01 X19.6319 Y34.9990 
G01 X19.4824 Y35.0989 
G01 X19.3163 Y35.1677 
G01 X19.1399 Y35.2028 
G01 X18.9601 Y35.2028 
G01 X18.7837 Y35.1677 
G01 X18.6176 Y35.0989 
G01 X18.4681 Y34.9990 
G01 X18.3410 Y34.8719 
G01 X18.2411 Y34.7224 
G01 X18.1723 Y34.5563 
G01 X18.1372 Y34.3799 
G01 X18.1372 Y34.2001 
G01 X18.1723 Y34.0237 
G01 X18.2411 Y33.8576 
G01 X18.2463 Y33.8498 
G01 X15.2881 Y30.8916 
G01 X15.2500 Y30.7997 
G01 X15.2500 Y24.1036 
G01 X10.3264 Y19.1800 
G01 X9.5401 Y19.1800 
G01 X9.5034 Y19.1648 
G01 X9.4752 Y19.1366 
G01 X9.4600 Y19.0999 
G01 X9.4600 Y18.2601 
G01 X9.4752 Y18.2234 
G01 X9.5034 Y18.1952 
G01 X9.5401 Y18.1800 
G01 X10.7799 Y18.1800 
G01 X10.8166 Y18.1952 
G01 X10.8448 Y18.2234 
G01 X10.8600 Y18.2601 
G01 X10.8600 Y19.0064 
G01 X15.6416 Y23.7881 
G01 X15.7119 Y23.8584 
G01 X15.7500 Y23.9503 
G01 X15.7500 Y30.6464 
G01 X18.5979 Y33.4943 
G01 X18.6176 Y33.4811 
G01 X18.7837 Y33.4123 
G01 X18.9601 Y33.3772 
G01 X19.1399 Y33.3772 
G01 X19.3163 Y33.4123 
G01 X19.4824 Y33.4811 
G01 X19.6319 Y33.5810 
G01 X19.7590 Y33.7081 
G01 X19.8589 Y33.8576 
G01 X19.9277 Y34.0237 
G01 X19.9628 Y34.2001 
G00 Z2.0000 
G00 X19.9628 Y31.6601 
G01 Z-0.0250 F254.00 
G01 X19.9628 Y31.8399 F508.00 
G01 X19.9277 Y32.0163 
G01 X19.8589 Y32.1824 
G01 X19.7590 Y32.3319 
G01 X19.6319 Y32.4590 
G01 X19.4824 Y32.5589 
G01 X19.3163 Y32.6277 
G01 X19.1399 Y32.6628 
G01 X18.9601 Y32.6628 
G01 X18.7837 Y32.6277 
G01 X18.6176 Y32.5589 
G01 X18.4681 Y32.4590 
G01 X18.3410 Y32.3319 
G01 X18.2411 Y32.1824 
G01 X18.1723 Y32.0163 
G01 X18.1372 Y31.8399 
G01 X18.1372 Y31.6601 
G01 X18.1723 Y31.4837 
G01 X18.2332 Y31.3367 
G01 X16.0381 Y29.1416 
G01 X16.0000 Y29.0497 
G01 X16.0000 Y22.3536 
G01 X12.8264 Y19.1800 
G01 X12.0801 Y19.1800 
G01 X12.0434 Y19.1648 
G01 X12.0152 Y19.1366 
G01 X12.0000 Y19.0999 
G01 X12.0000 Y18.2601 
G01 X12.0152 Y18.2234 
G01 X12.0434 Y18.1952 
G01 X12.0801 Y18.1800 
G01 X13.3199 Y18.1800 
G01 X13.3566 Y18.1952 
G01 X13.3848 Y18.2234 
G01 X13.4000 Y18.2601 
G01 X13.4000 Y19.0464 
G01 X16.3916 Y22.0381 
G01 X16.4619 Y22.1084 
G01 X16.5000 Y22.2003 
G01 X16.5000 Y28.8964 
G01 X18.5739 Y30.9703 
G01 X18.6176 Y30.9411 
G01 X18.7837 Y30.8723 
G01 X18.9601 Y30.8372 
G01 X19.1399 Y30.8372 
G01 X19.3163 Y30.8723 
G01 X19.4824 Y30.9411 
G01 X19.6319 Y31.0410 
G01 X19.7590 Y31.1681 
G01 X19.8589 Y31.3176 
G01 X19.9277 Y31.4837 
G01 X19.9628 Y31.6601 
G00 Z2.0000 
G00 X35.2028 Y24.0401 
G01 Z-0.0250 F254.00 
G01 X35.2028 Y24.2199 F508.00 
G01 X35.1677 Y24.3963 
G01 X35.0989 Y24.5624 
G01 X34.9990 Y24.7119 
G01 X34.8719 Y24.8390 
G01 X34.7224 Y24.9389 
G01 X34.5563 Y25.0077 
G01 X34.3799 Y25.0428 
G01 X34.2001 Y25.0428 
G01 X34.0237 Y25.0077 
G01 X33.8576 Y24.9389 
G01 X33.7081 Y24.8390 
G01 X33.5810 Y24.7119 
G01 X33.4811 Y24.5624 
G01 X33.4123 Y24.3963 
G01 X33.3772 Y24.2199 
G01 X33.3772 Y24.0401 
G01 X33.4123 Y23.8637 
G01 X33.4811 Y23.6976 
G01 X33.5810 Y23.5481 
G01 X33.7081 Y23.4210 
G01 X33.8576 Y23.3211 
G01 X34.0237 Y23.2523 
G01 X34.2001 Y23.2172 
G01 X34.3799 Y23.2172 
G01 X34.5563 Y23.2523 
G01 X34.7224 Y23.3211 
G01 X34.8719 Y23.4210 
G01 X34.9990 Y23.5481 
G01 X35.0989 Y23.6976 
G01 X35.1677 Y23.8637 
G01 X35.2028 Y24.0401 
G00 Z2.0000 
G00 X35.2028 Y29.1201 
G01 Z-0.0250 F254.00 
G01 X35.2028 Y29.2999 F508.00 
G01 X35.1677 Y29.4763 
G01 X35.0989 Y29.6424 
G01 X34.9990 Y29.7919 
G01 X34.8719 Y29.9190 
G01 X34.7224 Y30.0189 
G01 X34.5563 Y30.0877 
G01 X34.3799 Y30.1228 
G01 X34.2001 Y30.1228 
G01 X34.0237 Y30.0877 
G01 X33.8576 Y30.0189 
G01 X33.7081 Y29.9190 
G01 X33.5810 Y29.7919 
G01 X33.4811 Y29.6424 
G01 X33.4123 Y29.4763 
G01 X33.3772 Y29.2999 
G01 X33.3772 Y29.1201 
G01 X33.4123 Y28.9437 
G01 X33.4811 Y28.7776 
G01 X33.5810 Y28.6281 
G01 X33.7081 Y28.5010 
G01 X33.8576 Y28.4011 
G01 X34.0237 Y28.3323 
G01 X34.2001 Y28.2972 
G01 X34.3799 Y28.2972 
G01 X34.5563 Y28.3323 
G01 X34.7224 Y28.4011 
G01 X34.7362 Y28.4103 
G01 X35.5000 Y27.6464 
G01 X35.5000 Y20.9503 
G01 X35.5381 Y20.8584 
G01 X35.6084 Y20.7881 
G01 X37.4000 Y18.9964 
G01 X37.4000 Y18.2601 
G01 X37.4152 Y18.2234 
G01 X37.4434 Y18.1952 
G01 X37.4801 Y18.1800 
G01 X38.7199 Y18.1800 
G01 X38.7566 Y18.1952 
G01 X38.7848 Y18.2234 
G01 X38.8000 Y18.2601 
G01 X38.8000 Y19.0999 
G01 X38.7848 Y19.1366 
G01 X38.7566 Y19.1648 
G01 X38.7199 Y19.1800 
G01 X37.9235 Y19.1800 
G01 X36.0000 Y21.1036 
G01 X36.0000 Y27.7997 
G01 X35.9619 Y27.8916 
G01 X35.0897 Y28.7638 
G01 X35.0989 Y28.7776 
G01 X35.1677 Y28.9437 
G01 X35.2028 Y29.1201 
G00 Z2.0000 
G00 X35.2028 Y31.6601 
G01 Z-0.0250 F254.00 
G01 X35.2028 Y31.8399 F508.00 
G01 X35.1677 Y32.0163 
G01 X35.0989 Y32.1824 
G01 X34.9990 Y32.3319 
G01 X34.8719 Y32.4590 
G01 X34.7224 Y32.5589 
G01 X34.5563 Y32.6277 
G01 X34.3799 Y32.6628 
G01 X34.2001 Y32.6628 
G01 X34.0237 Y32.6277 
G01 X33.8576 Y32.5589 
G01 X33.7081 Y32.4590 
G01 X33.5810 Y32.3319 
G01 X33.5263 Y32.2500 
G01 X28.6400 Y32.2500 
G01 X28.6400 Y32.5399 
G01 X28.6248 Y32.5766 
G01 X28.5966 Y32.6048 
G01 X28.5599 Y32.6200 
G01 X27.3201 Y32.6200 
G01 X27.2834 Y32.6048 
G01 X27.2552 Y32.5766 
G01 X27.2400 Y32.5399 
G01 X27.2400 Y31.7001 
G01 X27.2552 Y31.6634 
G01 X27.2834 Y31.6352 
G01 X27.3201 Y31.6200 
G01 X28.5599 Y31.6200 
G01 X28.5966 Y31.6352 
G01 X28.6248 Y31.6634 
G01 X28.6400 Y31.7001 
G01 X28.6400 Y31.7500 
G01 X33.3772 Y31.7500 
G01 X33.3772 Y31.6601 
G01 X33.4123 Y31.4837 
G01 X33.4811 Y31.3176 
G01 X33.5810 Y31.1681 
G01 X33.7081 Y31.0410 
G01 X33.8576 Y30.9411 
G01 X34.0237 Y30.8723 
G01 X34.2001 Y30.8372 
G01 X34.3799 Y30.8372 
G01 X34.5563 Y30.8723 
G01 X34.7224 Y30.9411 
G01 X34.8719 Y31.0410 
G01 X34.9990 Y31.1681 
G01 X35.0989 Y31.3176 
G01 X35.1677 Y31.4837 
G01 X35.2028 Y31.6601 
G00 Z2.0000 
G00 X35.2028 Y34.2001 
G01 Z-0.0250 F254.00 
G01 X35.2028 Y34.3799 F508.00 
G01 X35.1677 Y34.5563 
G01 X35.0989 Y34.7224 
G01 X34.9990 Y34.8719 
G01 X34.8719 Y34.9990 
G01 X34.7224 Y35.0989 
G01 X34.5563 Y35.1677 
G01 X34.3799 Y35.2028 
G01 X34.2001 Y35.2028 
G01 X34.0237 Y35.1677 
G01 X33.8576 Y35.0989 
G01 X33.7081 Y34.9990 
G01 X33.5810 Y34.8719 
G01 X33.4811 Y34.7224 
G01 X33.4123 Y34.5563 
G01 X33.3772 Y34.3799 
G01 X33.3772 Y34.2001 
G01 X33.4123 Y34.0237 
G01 X33.4811 Y33.8576 
G01 X33.5810 Y33.7081 
G01 X33.7081 Y33.5810 
G01 X33.8576 Y33.4811 
G01 X34.0237 Y33.4123 
G01 X34.2001 Y33.3772 
G01 X34.3799 Y33.3772 
G01 X34.5563 Y33.4123 
G01 X34.7224 Y33.4811 
G01 X34.8719 Y33.5810 
G01 X34.9990 Y33.7081 
G01 X35.0989 Y33.8576 
G01 X35.1677 Y34.0237 
G01 X35.2028 Y34.2001 
G00 Z2.0000 
G00 X35.2028 Y36.7401 
G01 Z-0.0250 F254.00 
G01 X35.2028 Y36.9199 F508.00 
G01 X35.1677 Y37.0963 
G01 X35.0989 Y37.2624 
G01 X34.9990 Y37.4119 
G01 X34.8719 Y37.5390 
G01 X34.7224 Y37.6389 
G01 X34.5563 Y37.7077 
G01 X34.3799 Y37.7428 
G01 X34.2001 Y37.7428 
G01 X34.0237 Y37.7077 
G01 X33.8576 Y37.6389 
G01 X33.7081 Y37.5390 
G01 X33.5810 Y37.4119 
G01 X33.4811 Y37.2624 
G01 X33.4123 Y37.0963 
G01 X33.3772 Y36.9199 
G01 X33.3772 Y36.7401 
G01 X33.4123 Y36.5637 
G01 X33.4811 Y36.3976 
G01 X33.5810 Y36.2481 
G01 X33.7081 Y36.1210 
G01 X33.8576 Y36.0211 
G01 X34.0237 Y35.9523 
G01 X34.2001 Y35.9172 
G01 X34.3799 Y35.9172 
G01 X34.5563 Y35.9523 
G01 X34.7224 Y36.0211 
G01 X34.8719 Y36.1210 
G01 X34.9990 Y36.2481 
G01 X35.0989 Y36.3976 
G01 X35.1677 Y36.5637 
G01 X35.2028 Y36.7401 
G00 Z2.0000 
G00 X35.2028 Y39.2801 
G01 Z-0.0250 F254.00 
G01 X35.2028 Y39.4599 F508.00 
G01 X35.1677 Y39.6363 
G01 X35.0989 Y39.8024 
G01 X34.9990 Y39.9519 
G01 X34.8719 Y40.0790 
G01 X34.7224 Y40.1789 
G01 X34.5563 Y40.2477 
G01 X34.3799 Y40.2828 
G01 X34.2001 Y40.2828 
G01 X34.0237 Y40.2477 
G01 X33.8576 Y40.1789 
G01 X33.7081 Y40.0790 
G01 X33.5810 Y39.9519 
G01 X33.4811 Y39.8024 
G01 X33.4123 Y39.6363 
G01 X33.3772 Y39.4599 
G01 X33.3772 Y39.2801 
G01 X33.4123 Y39.1037 
G01 X33.4811 Y38.9376 
G01 X33.5810 Y38.7881 
G01 X33.7081 Y38.6610 
G01 X33.8576 Y38.5611 
G01 X34.0237 Y38.4923 
G01 X34.2001 Y38.4572 
G01 X34.3799 Y38.4572 
G01 X34.5563 Y38.4923 
G01 X34.7224 Y38.5611 
G01 X34.7901 Y38.6063 
G01 X38.0000 Y35.3964 
G01 X38.0000 Y25.9503 
G01 X38.0381 Y25.8584 
G01 X38.1978 Y25.6987 
G01 X38.1707 Y25.6334 
G01 X38.1400 Y25.4788 
G01 X38.1400 Y25.3212 
G01 X38.1707 Y25.1666 
G01 X38.2311 Y25.0211 
G01 X38.3186 Y24.8900 
G01 X38.4300 Y24.7786 
G01 X38.5611 Y24.6911 
G01 X38.7066 Y24.6307 
G01 X38.8612 Y24.6000 
G01 X39.0188 Y24.6000 
G01 X39.1733 Y24.6307 
G01 X39.3189 Y24.6911 
G01 X39.4500 Y24.7786 
G01 X39.5614 Y24.8900 
G01 X39.6489 Y25.0211 
G01 X39.7093 Y25.1666 
G01 X39.7400 Y25.3212 
G01 X39.7400 Y25.4788 
G01 X39.7093 Y25.6334 
G01 X39.6489 Y25.7789 
G01 X39.5614 Y25.9100 
G01 X39.4500 Y26.0214 
G01 X39.3189 Y26.1089 
G01 X39.1733 Y26.1693 
G01 X39.0188 Y26.2000 
G01 X38.8612 Y26.2000 
G01 X38.7066 Y26.1693 
G01 X38.5611 Y26.1089 
G01 X38.5212 Y26.0823 
G01 X38.5000 Y26.1036 
G01 X38.5000 Y35.5497 
G01 X38.4619 Y35.6416 
G01 X38.3916 Y35.7119 
G01 X35.1185 Y38.9850 
G01 X35.1677 Y39.1037 
G01 X35.2028 Y39.2801 
G00 Z2.0000 
G00 X35.2028 Y41.8201 
G01 Z-0.0250 F254.00 
G01 X35.2028 Y41.9999 F508.00 
G01 X35.1677 Y42.1763 
G01 X35.0989 Y42.3424 
G01 X34.9990 Y42.4919 
G01 X34.8719 Y42.6190 
G01 X34.7224 Y42.7189 
G01 X34.5563 Y42.7877 
G01 X34.3799 Y42.8228 
G01 X34.2001 Y42.8228 
G01 X34.0237 Y42.7877 
G01 X33.8576 Y42.7189 
G01 X33.7081 Y42.6190 
G01 X33.5810 Y42.4919 
G01 X33.4811 Y42.3424 
G01 X33.4123 Y42.1763 
G01 X33.3772 Y41.9999 
G01 X33.3772 Y41.8201 
G01 X33.4123 Y41.6437 
G01 X33.4811 Y41.4776 
G01 X33.5810 Y41.3281 
G01 X33.7081 Y41.2010 
G01 X33.8576 Y41.1011 
G01 X34.0237 Y41.0323 
G01 X34.2001 Y40.9972 
G01 X34.3799 Y40.9972 
G01 X34.5563 Y41.0323 
G01 X34.7224 Y41.1011 
G01 X34.8719 Y41.2010 
G01 X34.9990 Y41.3281 
G01 X35.0989 Y41.4776 
G01 X35.1677 Y41.6437 
G01 X35.2028 Y41.8201 
G00 Z2.0000 
G00 X35.2028 Y44.3601 
G01 Z-0.0250 F254.00 
G01 X35.2028 Y44.5399 F508.00 
G01 X35.1677 Y44.7163 
G01 X35.0989 Y44.8824 
G01 X34.9990 Y45.0319 
G01 X34.8719 Y45.1590 
G01 X34.7224 Y45.2589 
G01 X34.5563 Y45.3277 
G01 X34.3799 Y45.3628 
G01 X34.2001 Y45.3628 
G01 X34.0237 Y45.3277 
G01 X33.8576 Y45.2589 
G01 X33.7081 Y45.1590 
G01 X33.5810 Y45.0319 
G01 X33.4811 Y44.8824 
G01 X33.4123 Y44.7163 
G01 X33.3772 Y44.5399 
G01 X33.3772 Y44.3601 
G01 X33.4123 Y44.1837 
G01 X33.4811 Y44.0176 
G01 X33.5810 Y43.8681 
G01 X33.7081 Y43.7410 
G01 X33.8576 Y43.6411 
G01 X34.0237 Y43.5723 
G01 X34.2001 Y43.5372 
G01 X34.3799 Y43.5372 
G01 X34.5563 Y43.5723 
G01 X34.7224 Y43.6411 
G01 X34.8719 Y43.7410 
G01 X34.9990 Y43.8681 
G01 X35.0989 Y44.0176 
G01 X35.1677 Y44.1837 
G01 X35.2028 Y44.3601 
G00 Z2.0000 
G00 X35.2028 Y46.9001 
G01 Z-0.0250 F254.00 
G01 X35.2028 Y47.0799 F508.00 
G01 X35.1677 Y47.2563 
G01 X35.0989 Y47.4224 
G01 X34.9990 Y47.5719 
G01 X34.8719 Y47.6990 
G01 X34.7224 Y47.7989 
G01 X34.5563 Y47.8677 
G01 X34.3799 Y47.9028 
G01 X34.2001 Y47.9028 
G01 X34.0237 Y47.8677 
G01 X33.8576 Y47.7989 
G01 X33.7081 Y47.6990 
G01 X33.5810 Y47.5719 
G01 X33.4811 Y47.4224 
G01 X33.4123 Y47.2563 
G01 X33.3772 Y47.0799 
G01 X33.3772 Y46.9001 
G01 X33.4123 Y46.7237 
G01 X33.4811 Y46.5576 
G01 X33.5810 Y46.4081 
G01 X33.7081 Y46.2810 
G01 X33.8576 Y46.1811 
G01 X34.0237 Y46.1123 
G01 X34.2001 Y46.0772 
G01 X34.3799 Y46.0772 
G01 X34.5563 Y46.1123 
G01 X34.7224 Y46.1811 
G01 X34.8719 Y46.2810 
G01 X34.9990 Y46.4081 
G01 X35.0989 Y46.5576 
G01 X35.1677 Y46.7237 
G01 X35.2028 Y46.9001 
G00 Z2.0000 
G00 X35.2028 Y51.9801 
G01 Z-0.0250 F254.00 
G01 X35.2028 Y52.1599 F508.00 
G01 X35.1677 Y52.3363 
G01 X35.0989 Y52.5024 
G01 X34.9990 Y52.6519 
G01 X34.8719 Y52.7790 
G01 X34.7224 Y52.8789 
G01 X34.5563 Y52.9477 
G01 X34.3799 Y52.9828 
G01 X34.2001 Y52.9828 
G01 X34.0237 Y52.9477 
G01 X33.8576 Y52.8789 
G01 X33.7081 Y52.7790 
G01 X33.5810 Y52.6519 
G01 X33.4811 Y52.5024 
G01 X33.4123 Y52.3363 
G01 X33.3772 Y52.1599 
G01 X33.3772 Y51.9801 
G01 X33.4123 Y51.8037 
G01 X33.4811 Y51.6376 
G01 X33.5810 Y51.4881 
G01 X33.7081 Y51.3610 
G01 X33.8576 Y51.2611 
G01 X34.0237 Y51.1923 
G01 X34.2001 Y51.1572 
G01 X34.3799 Y51.1572 
G01 X34.5563 Y51.1923 
G01 X34.7224 Y51.2611 
G01 X34.8719 Y51.3610 
G01 X34.9990 Y51.4881 
G01 X35.0989 Y51.6376 
G01 X35.1677 Y51.8037 
G01 X35.2028 Y51.9801 
G00 Z2.0000 
G00 X27.4080 Y27.1083 
G01 Z-0.0250 F254.00 
G01 X27.4080 Y28.7717 F508.00 
G01 X26.2317 Y29.9480 
G01 X24.5683 Y29.9480 
G01 X23.3920 Y28.7717 
G01 X23.3920 Y27.1083 
G01 X24.5683 Y25.9320 
G01 X26.2317 Y25.9320 
G01 X27.4080 Y27.1083 
G00 Z2.0000 
G00 X44.8074 Y6.6072 
G01 Z-0.0250 F254.00 
G01 X46.6326 Y6.6072 F508.00 
G01 X46.8282 Y6.6461 
G01 X47.0125 Y6.7225 
G01 X47.1784 Y6.8333 
G01 X47.3195 Y6.9744 
G01 X47.4000 Y7.0949 
G01 X47.4000 Y6.6000 
G01 X44.6450 Y6.6000 
G01 X44.5897 Y6.6553 
G01 X44.6118 Y6.6461 
G01 X44.8074 Y6.6072 
G00 Z2.0000 
G00 X43.1122 Y12.6994 
G01 Z-0.0250 F254.00 
G01 X43.2163 Y12.4950 F508.00 
G01 X43.3511 Y12.3094 
G01 X43.5133 Y12.1472 
G01 X43.6989 Y12.0124 
G01 X43.9033 Y11.9083 
G01 X44.1214 Y11.8374 
G01 X44.3480 Y11.8015 
G01 X46.7035 Y11.8015 
G01 X47.4000 Y11.1050 
G01 X47.4000 Y8.1451 
G01 X47.3195 Y8.2656 
G01 X47.1784 Y8.4067 
G01 X47.0125 Y8.5175 
G01 X46.8282 Y8.5939 
G01 X46.6326 Y8.6328 
G01 X45.1122 Y8.6328 
G01 X43.1000 Y10.6450 
G01 X43.1000 Y12.7369 
G01 X43.1122 Y12.6994 
G00 Z2.0000 
G00 X42.8500 Y38.3550 
G01 Z-0.0250 F254.00 
G01 X42.9649 Y38.4699 F508.00 
G01 X43.0301 Y38.5351 
G01 X43.0761 Y38.6149 
G01 X43.1000 Y38.7039 
G01 X43.1000 Y52.4415 
G01 X44.5520 Y52.4415 
G01 X44.7786 Y52.4774 
G01 X44.9967 Y52.5483 
G01 X45.2011 Y52.6524 
G01 X45.3867 Y52.7872 
G01 X45.5489 Y52.9494 
G01 X45.6837 Y53.1350 
G01 X45.7878 Y53.3394 
G01 X45.8587 Y53.5575 
G01 X45.8946 Y53.7841 
G01 X45.8946 Y54.0135 
G01 X45.8587 Y54.2401 
G01 X45.7878 Y54.4582 
G01 X45.7785 Y54.4765 
G01 X45.9000 Y54.3550 
G01 X45.9000 Y47.3950 
G01 X45.7250 Y47.2200 
G01 X45.0802 Y47.2200 
G01 X45.0067 Y47.1896 
G01 X44.9504 Y47.1333 
G01 X44.9200 Y47.0598 
G01 X44.9200 Y46.1802 
G01 X44.9504 Y46.1067 
G01 X45.0067 Y46.0504 
G01 X45.0802 Y46.0200 
G01 X45.7350 Y46.0200 
G01 X46.3350 Y45.4200 
G01 X45.0802 Y45.4200 
G01 X45.0067 Y45.3895 
G01 X44.9504 Y45.3333 
G01 X44.9200 Y45.2598 
G01 X44.9200 Y44.6650 
G01 X43.2851 Y43.0301 
G01 X43.2199 Y42.9649 
G01 X43.1739 Y42.8851 
G01 X43.1500 Y42.7961 
G01 X43.1500 Y37.8676 
G01 X43.0487 Y37.7999 
G01 X42.9501 Y37.7013 
G01 X42.8726 Y37.5854 
G01 X42.8500 Y37.5308 
G01 X42.8500 Y38.3550 
G00 Z2.0000 
G00 X14.3527 Y43.9007 
G01 Z-0.0250 F254.00 
G01 X13.1000 Y43.9007 F508.00 
G01 X13.1000 Y46.4600 
G01 X13.5798 Y46.4600 
G01 X13.6533 Y46.4904 
G01 X13.7096 Y46.5467 
G01 X13.7400 Y46.6202 
G01 X13.7400 Y49.8998 
G01 X13.7096 Y49.9733 
G01 X13.6533 Y50.0296 
G01 X13.5798 Y50.0600 
G01 X11.8050 Y50.0600 
G01 X18.3954 Y56.6504 
G01 X18.4107 Y56.6033 
G01 X18.5148 Y56.3989 
G01 X18.6496 Y56.2133 
G01 X18.8118 Y56.0511 
G01 X18.9974 Y55.9163 
G01 X19.2018 Y55.8122 
G01 X19.4199 Y55.7413 
G01 X19.6465 Y55.7054 
G01 X19.8759 Y55.7054 
G01 X20.1025 Y55.7413 
G01 X20.1500 Y55.7567 
G01 X20.1500 Y43.8450 
G01 X19.9701 Y44.0248 
G01 X20.0239 Y44.1546 
G01 X20.0628 Y44.3502 
G01 X20.0628 Y44.5498 
G01 X20.0239 Y44.7454 
G01 X19.9475 Y44.9297 
G01 X19.8367 Y45.0956 
G01 X19.6956 Y45.2367 
G01 X19.5297 Y45.3475 
G01 X19.3454 Y45.4239 
G01 X19.1498 Y45.4628 
G01 X18.9502 Y45.4628 
G01 X18.7546 Y45.4239 
G01 X18.5703 Y45.3475 
G01 X18.4044 Y45.2367 
G01 X18.2633 Y45.0956 
G01 X18.1525 Y44.9297 
G01 X18.0761 Y44.7454 
G01 X18.0372 Y44.5498 
G01 X18.0372 Y44.3502 
G01 X18.0761 Y44.1546 
G01 X18.1525 Y43.9703 
G01 X18.2633 Y43.8044 
G01 X18.2864 Y43.7813 
G01 X14.5129 Y40.0079 
G01 X14.5129 Y41.4545 
G01 X14.4825 Y41.5280 
G01 X14.4262 Y41.5843 
G01 X14.3527 Y41.6147 
G01 X12.2665 Y41.6147 
G01 X12.1930 Y41.5843 
G01 X12.1367 Y41.5280 
G01 X12.1063 Y41.4545 
G01 X12.1063 Y40.8500 
G01 X8.4539 Y40.8500 
G01 X8.3649 Y40.8261 
G01 X8.2851 Y40.7801 
G01 X8.2199 Y40.7149 
G01 X8.2137 Y40.7041 
G01 X8.2137 Y42.5848 
G01 X8.1833 Y42.6583 
G01 X8.1270 Y42.7146 
G01 X8.0535 Y42.7450 
G01 X5.9673 Y42.7450 
G01 X5.8938 Y42.7146 
G01 X5.8375 Y42.6583 
G01 X5.8071 Y42.5848 
G01 X5.8071 Y38.6952 
G01 X5.8375 Y38.6217 
G01 X5.8938 Y38.5654 
G01 X5.9673 Y38.5350 
G01 X8.0535 Y38.5350 
G01 X8.1270 Y38.5654 
G01 X8.1500 Y38.5885 
G01 X8.1500 Y34.3950 
G01 X7.4825 Y33.7275 
G01 X7.3463 Y33.7969 
G01 X7.1757 Y33.8523 
G01 X6.9985 Y33.8804 
G01 X6.8191 Y33.8804 
G01 X6.6419 Y33.8523 
G01 X6.4713 Y33.7969 
G01 X6.3114 Y33.7154 
G01 X6.1663 Y33.6100 
G01 X6.0394 Y33.4831 
G01 X5.9340 Y33.3380 
G01 X5.8525 Y33.1781 
G01 X5.7971 Y33.0075 
G01 X5.7721 Y32.8500 
G01 X2.8500 Y32.8500 
G01 X2.8500 Y34.0600 
G01 X3.1798 Y34.0600 
G01 X3.2533 Y34.0904 
G01 X3.3096 Y34.1467 
G01 X3.3400 Y34.2202 
G01 X3.3400 Y35.0998 
G01 X3.3096 Y35.1733 
G01 X3.2533 Y35.2296 
G01 X3.1798 Y35.2600 
G01 X1.9002 Y35.2600 
G01 X1.8500 Y35.2392 
G01 X1.8500 Y35.8808 
G01 X1.9002 Y35.8600 
G01 X3.1798 Y35.8600 
G01 X3.2533 Y35.8904 
G01 X3.3096 Y35.9467 
G01 X3.3400 Y36.0202 
G01 X3.3400 Y36.5950 
G01 X3.9649 Y37.2199 
G01 X4.0301 Y37.2851 
G01 X4.0761 Y37.3649 
G01 X4.1000 Y37.4539 
G01 X4.1000 Y43.0461 
G01 X4.0761 Y43.1351 
G01 X4.0301 Y43.2149 
G01 X3.3400 Y43.9050 
G01 X3.3400 Y44.8698 
G01 X3.3096 Y44.9433 
G01 X3.2533 Y44.9995 
G01 X3.1798 Y45.0300 
G01 X2.8500 Y45.0300 
G01 X2.8500 Y45.9000 
G01 X11.2961 Y45.9000 
G01 X11.3851 Y45.9239 
G01 X11.4649 Y45.9699 
G01 X11.5301 Y46.0351 
G01 X11.5761 Y46.1149 
G01 X11.6000 Y46.2039 
G01 X11.6000 Y46.5372 
G01 X11.6467 Y46.4904 
G01 X11.7202 Y46.4600 
G01 X12.4000 Y46.4600 
G01 X12.4000 Y43.9007 
G01 X12.2665 Y43.9007 
G01 X12.1930 Y43.8702 
G01 X12.1367 Y43.8140 
G01 X12.1063 Y43.7405 
G01 X12.1063 Y42.1623 
G01 X12.1367 Y42.0888 
G01 X12.1930 Y42.0325 
G01 X12.2665 Y42.0021 
G01 X14.3527 Y42.0021 
G01 X14.4262 Y42.0325 
G01 X14.4825 Y42.0888 
G01 X14.5129 Y42.1623 
G01 X14.5129 Y43.7405 
G01 X14.4825 Y43.8140 
G01 X14.4262 Y43.8702 
G01 X14.3527 Y43.9007 
G00 Z2.0000 
G00 X20.0628 Y46.8902 
G01 Z-0.0250 F254.00 
G01 X20.0628 Y47.0898 F508.00 
G01 X20.0239 Y47.2854 
G01 X19.9475 Y47.4697 
G01 X19.8367 Y47.6356 
G01 X19.6956 Y47.7767 
G01 X19.5297 Y47.8875 
G01 X19.3454 Y47.9639 
G01 X19.1498 Y48.0028 
G01 X18.9502 Y48.0028 
G01 X18.7546 Y47.9639 
G01 X18.5703 Y47.8875 
G01 X18.4044 Y47.7767 
G01 X18.2633 Y47.6356 
G01 X18.1525 Y47.4697 
G01 X18.0761 Y47.2854 
G01 X18.0372 Y47.0898 
G01 X18.0372 Y46.8902 
G01 X18.0761 Y46.6946 
G01 X18.1525 Y46.5103 
G01 X18.2633 Y46.3444 
G01 X18.4044 Y46.2033 
G01 X18.5703 Y46.0925 
G01 X18.7546 Y46.0161 
G01 X18.9502 Y45.9772 
G01 X19.1498 Y45.9772 
G01 X19.3454 Y46.0161 
G01 X19.5297 Y46.0925 
G01 X19.6956 Y46.2033 
G01 X19.8367 Y46.3444 
G01 X19.9475 Y46.5103 
G01 X20.0239 Y46.6946 
G01 X20.0628 Y46.8902 
G00 Z2.0000 
G00 X20.0628 Y49.4302 
G01 Z-0.0250 F254.00 
G01 X20.0628 Y49.6298 F508.00 
G01 X20.0239 Y49.8254 
G01 X19.9475 Y50.0097 
G01 X19.8367 Y50.1756 
G01 X19.6956 Y50.3167 
G01 X19.5297 Y50.4275 
G01 X19.3454 Y50.5039 
G01 X19.1498 Y50.5428 
G01 X18.9502 Y50.5428 
G01 X18.7546 Y50.5039 
G01 X18.5703 Y50.4275 
G01 X18.4044 Y50.3167 
G01 X18.2633 Y50.1756 
G01 X18.1525 Y50.0097 
G01 X18.0761 Y49.8254 
G01 X18.0372 Y49.6298 
G01 X18.0372 Y49.4302 
G01 X18.0761 Y49.2346 
G01 X18.1525 Y49.0503 
G01 X18.2633 Y48.8844 
G01 X18.4044 Y48.7433 
G01 X18.5703 Y48.6325 
G01 X18.7546 Y48.5561 
G01 X18.9502 Y48.5172 
G01 X19.1498 Y48.5172 
G01 X19.3454 Y48.5561 
G01 X19.5297 Y48.6325 
G01 X19.6956 Y48.7433 
G01 X19.8367 Y48.8844 
G01 X19.9475 Y49.0503 
G01 X20.0239 Y49.2346 
G01 X20.0628 Y49.4302 
G00 Z2.0000 
G00 X20.0628 Y51.9702 
G01 Z-0.0250 F254.00 
G01 X20.0628 Y52.1698 F508.00 
G01 X20.0239 Y52.3654 
G01 X19.9475 Y52.5497 
G01 X19.8367 Y52.7156 
G01 X19.6956 Y52.8567 
G01 X19.5297 Y52.9675 
G01 X19.3454 Y53.0439 
G01 X19.1498 Y53.0828 
G01 X18.9502 Y53.0828 
G01 X18.7546 Y53.0439 
G01 X18.5703 Y52.9675 
G01 X18.4044 Y52.8567 
G01 X18.2633 Y52.7156 
G01 X18.1525 Y52.5497 
G01 X18.0761 Y52.3654 
G01 X18.0372 Y52.1698 
G01 X18.0372 Y51.9702 
G01 X18.0761 Y51.7746 
G01 X18.1525 Y51.5903 
G01 X18.2633 Y51.4244 
G01 X18.4044 Y51.2833 
G01 X18.5703 Y51.1725 
G01 X18.7546 Y51.0961 
G01 X18.9502 Y51.0572 
G01 X19.1498 Y51.0572 
G01 X19.3454 Y51.0961 
G01 X19.5297 Y51.1725 
G01 X19.6956 Y51.2833 
G01 X19.8367 Y51.4244 
G01 X19.9475 Y51.5903 
G01 X20.0239 Y51.7746 
G01 X20.0628 Y51.9702 
G00 Z2.0000 
G00 X22.1467 Y18.1104 
G01 Z-0.0250 F254.00 
G01 X22.1719 Y18.1000 F508.00 
G01 X22.1000 Y18.1000 
G01 X22.1000 Y18.1572 
G01 X22.1467 Y18.1104 
G00 Z2.0000 
G00 X31.4150 Y54.4048 
G01 Z-0.0250 F254.00 
G01 X31.3846 Y54.4783 F508.00 
G01 X31.3283 Y54.5346 
G01 X31.2548 Y54.5650 
G01 X29.7052 Y54.5650 
G01 X29.6317 Y54.5346 
G01 X29.6000 Y54.5028 
G01 X29.6000 Y55.4000 
G01 X44.8550 Y55.4000 
G01 X45.0150 Y55.2400 
G01 X44.9967 Y55.2493 
G01 X44.7786 Y55.3202 
G01 X44.5520 Y55.3561 
G01 X41.8080 Y55.3561 
G01 X41.5814 Y55.3202 
G01 X41.3633 Y55.2493 
G01 X41.1589 Y55.1452 
G01 X40.9733 Y55.0104 
G01 X40.8111 Y54.8482 
G01 X40.6763 Y54.6626 
G01 X40.5722 Y54.4582 
G01 X40.5013 Y54.2401 
G01 X40.4791 Y54.1000 
G01 X31.4150 Y54.1000 
G01 X31.4150 Y54.4048 
G00 Z2.0000 
G00 X42.3503 Y44.9297 
G01 Z-0.0250 F254.00 
G01 X42.2395 Y45.0956 F508.00 
G01 X42.0984 Y45.2367 
G01 X42.0284 Y45.2835 
G01 X42.4000 Y45.6550 
G01 X42.4000 Y44.8098 
G01 X42.3503 Y44.9297 
G00 Z2.0000 
G00 X42.2598 Y38.7548 
G01 Z-0.0250 F254.00 
G01 X42.3503 Y38.8903 F508.00 
G01 X42.4000 Y39.0102 
G01 X42.4000 Y38.8950 
G01 X42.2598 Y38.7548 
G00 Z2.0000 
G00 X1.9002 Y34.0600 
G01 Z-0.0250 F254.00 
G01 X2.1500 Y34.0600 F508.00 
G01 X2.1500 Y29.4400 
G01 X1.9002 Y29.4400 
G01 X1.8500 Y29.4192 
G01 X1.8500 Y34.0808 
G01 X1.9002 Y34.0600 
G00 Z2.0000 
G00 X39.5318 Y43.4761 
G01 Z-0.0250 F254.00 
G01 X39.7274 Y43.4372 F508.00 
G01 X41.5526 Y43.4372 
G01 X41.7482 Y43.4761 
G01 X41.9325 Y43.5525 
G01 X42.0984 Y43.6633 
G01 X42.2395 Y43.8044 
G01 X42.3503 Y43.9703 
G01 X42.4000 Y44.0902 
G01 X42.4000 Y42.2698 
G01 X42.3503 Y42.3897 
G01 X42.2395 Y42.5556 
G01 X42.0984 Y42.6967 
G01 X41.9325 Y42.8075 
G01 X41.7482 Y42.8839 
G01 X41.5526 Y42.9228 
G01 X40.0722 Y42.9228 
G01 X39.5097 Y43.4853 
G01 X39.5318 Y43.4761 
G00 Z2.0000 
G00 X38.8500 Y44.1713 
G01 Z-0.0250 F254.00 
G01 X38.8533 Y44.1546 F508.00 
G01 X38.8625 Y44.1325 
G01 X38.8500 Y44.1450 
G01 X38.8500 Y44.1713 
G00 Z2.0000 
G00 X34.6913 Y48.6000 
G01 Z-0.0250 F254.00 
G01 X34.7697 Y48.6325 F508.00 
G01 X34.9356 Y48.7433 
G01 X35.0767 Y48.8844 
G01 X35.1875 Y49.0503 
