(.../pcb-gcode-3.6.0.4/pcb-gcode.ulp)
(Copyright 2005 - 2012 by John Johnson)
(See readme.txt for licensing terms.)
(This file generated from the board:)
(.../eagle/eagle/SulaMatik/SulaMatik.brd)
(Current profile is .../pcb-gcode-3.6.0.4/profiles/emc.pp  )
(This file generated 7/15/2014 5:20:23 PM)
(Settings from pcb-machine.h)
(  Tool Size)
(0.1000 )
(Z Axis Settings)
(  High     Up        Down     Drill)
(19.5000 	2.0000 	-0.0250 	-1.5000 )
(spindle on time = 1.0000)
(milling depth = -0.0500)
(text depth = -0.0500)
(tool change at 15.0000 15.0000 19.0000 )
(feed rate xy = F508.00 )
(feed rate z  = F254.00 )
(Settings from pcb-defaults.h)
(isolate min = 0.0500)
(isolate max = 1.0000)
(isolate step = 0.1000)
(Generated top outlines, top drill, bottom outlines, bottom drill, )
(Unit of measure: mm)
(Metric Mode)
G21
(Absolute Coordinates)
G90
G00 X0.0000 Y0.0000 
M03
G04 P1.000000
G00 Z2.0000 
G00 X-3.0314 Y29.4835 
G01 Z-0.0250 F254.00 
G01 X-2.8432 Y29.6717 F508.00 
G01 X-2.8432 Y30.5560 
G01 X-3.2196 Y30.5560 
G01 X-3.2196 Y29.6717 
G01 X-3.0314 Y29.4835 
G00 Z2.0000 
G00 X-3.0314 Y34.1611 
G01 Z-0.0250 F254.00 
G01 X-2.8432 Y34.3493 F508.00 
G01 X-2.8432 Y35.2336 
G01 X-3.2196 Y35.2336 
G01 X-3.2196 Y34.3493 
G01 X-3.0314 Y34.1611 
G00 Z2.0000 
G00 X-47.0841 Y14.6161 
G01 Z-0.0250 F254.00 
G01 X-44.3559 Y14.6161 F508.00 
G01 X-44.1449 Y14.5827 
G01 X-43.9417 Y14.5167 
G01 X-43.7513 Y14.4197 
G01 X-43.5785 Y14.2941 
G01 X-43.4274 Y14.1430 
G01 X-43.3018 Y13.9702 
G01 X-43.2048 Y13.7798 
G01 X-43.1388 Y13.5766 
G01 X-43.1054 Y13.3656 
G01 X-43.1054 Y13.1520 
G01 X-43.1388 Y12.9410 
G01 X-43.2048 Y12.7378 
G01 X-43.3018 Y12.5474 
G01 X-43.4274 Y12.3746 
G01 X-43.5785 Y12.2235 
G01 X-43.7513 Y12.0979 
G01 X-43.9417 Y12.0009 
G01 X-44.1449 Y11.9349 
G01 X-44.3559 Y11.9015 
G01 X-47.0841 Y11.9015 
G01 X-47.2951 Y11.9349 
G01 X-47.4983 Y12.0009 
G01 X-47.6887 Y12.0979 
G01 X-47.8615 Y12.2235 
G01 X-48.0126 Y12.3746 
G01 X-48.1382 Y12.5474 
G01 X-48.2352 Y12.7378 
G01 X-48.3012 Y12.9410 
G01 X-48.3346 Y13.1520 
G01 X-48.3346 Y13.3656 
G01 X-48.3012 Y13.5766 
G01 X-48.2352 Y13.7798 
G01 X-48.1382 Y13.9702 
G01 X-48.0126 Y14.1430 
G01 X-47.8615 Y14.2941 
G01 X-47.6887 Y14.4197 
G01 X-47.4983 Y14.5167 
G01 X-47.2951 Y14.5827 
G01 X-47.0841 Y14.6161 
G00 Z2.0000 
G00 X-43.1093 Y25.6334 
G01 Z-0.0250 F254.00 
G01 X-43.0489 Y25.7789 F508.00 
G01 X-42.9614 Y25.9100 
G01 X-42.8500 Y26.0214 
G01 X-42.7189 Y26.1089 
G01 X-42.5734 Y26.1693 
G01 X-42.4188 Y26.2000 
G01 X-42.2612 Y26.2000 
G01 X-42.1066 Y26.1693 
G01 X-41.9611 Y26.1089 
G01 X-41.8300 Y26.0214 
G01 X-41.7186 Y25.9100 
G01 X-41.6311 Y25.7789 
G01 X-41.5707 Y25.6334 
G01 X-41.5400 Y25.4788 
G01 X-41.5400 Y25.3212 
G01 X-41.5707 Y25.1666 
G01 X-41.6311 Y25.0211 
G01 X-41.7186 Y24.8900 
G01 X-41.8300 Y24.7786 
G01 X-41.9611 Y24.6911 
G01 X-42.1066 Y24.6307 
G01 X-42.2612 Y24.6000 
G01 X-42.4188 Y24.6000 
G01 X-42.5734 Y24.6307 
G01 X-42.7189 Y24.6911 
G01 X-42.8500 Y24.7786 
G01 X-42.9614 Y24.8900 
G01 X-43.0349 Y25.0000 
G01 X-45.2500 Y25.0000 
G01 X-45.2500 Y18.5785 
G01 X-44.3559 Y18.5785 
G01 X-44.1449 Y18.5451 
G01 X-43.9417 Y18.4791 
G01 X-43.7513 Y18.3821 
G01 X-43.5785 Y18.2565 
G01 X-43.4274 Y18.1054 
G01 X-43.3018 Y17.9326 
G01 X-43.2048 Y17.7422 
G01 X-43.1388 Y17.5390 
G01 X-43.1054 Y17.3280 
G01 X-43.1054 Y17.1144 
G01 X-43.1388 Y16.9034 
G01 X-43.2048 Y16.7002 
G01 X-43.3018 Y16.5098 
G01 X-43.4274 Y16.3370 
G01 X-43.5785 Y16.1859 
G01 X-43.7513 Y16.0603 
G01 X-43.9417 Y15.9633 
G01 X-44.0686 Y15.9221 
G01 X-34.8779 Y6.7314 
G01 X-34.8367 Y6.8583 
G01 X-34.7397 Y7.0487 
G01 X-34.6141 Y7.2215 
G01 X-34.4630 Y7.3726 
G01 X-34.2902 Y7.4982 
G01 X-34.0998 Y7.5952 
G01 X-33.8966 Y7.6612 
G01 X-33.6856 Y7.6946 
G01 X-33.4720 Y7.6946 
G01 X-33.2610 Y7.6612 
G01 X-33.0578 Y7.5952 
G01 X-32.8674 Y7.4982 
G01 X-32.6946 Y7.3726 
G01 X-32.5435 Y7.2215 
G01 X-32.4179 Y7.0487 
G01 X-32.3209 Y6.8583 
G01 X-32.2549 Y6.6551 
G01 X-32.2215 Y6.4441 
G01 X-32.2215 Y3.7159 
G01 X-32.2549 Y3.5049 
G01 X-32.3209 Y3.3017 
G01 X-32.4179 Y3.1113 
G01 X-32.5435 Y2.9385 
G01 X-32.6946 Y2.7874 
G01 X-32.8674 Y2.6618 
G01 X-33.0578 Y2.5648 
G01 X-33.2610 Y2.4988 
G01 X-33.4720 Y2.4654 
G01 X-33.6856 Y2.4654 
G01 X-33.8966 Y2.4988 
G01 X-34.0998 Y2.5648 
G01 X-34.2902 Y2.6618 
G01 X-34.4630 Y2.7874 
G01 X-34.6141 Y2.9385 
G01 X-34.7397 Y3.1113 
G01 X-34.8367 Y3.3017 
G01 X-34.9027 Y3.5049 
G01 X-34.9361 Y3.7159 
G01 X-34.9361 Y6.0825 
G01 X-44.7175 Y15.8639 
G01 X-47.0841 Y15.8639 
G01 X-47.2951 Y15.8973 
G01 X-47.4983 Y15.9633 
G01 X-47.6887 Y16.0603 
G01 X-47.8615 Y16.1859 
G01 X-48.0126 Y16.3370 
G01 X-48.1382 Y16.5098 
G01 X-48.2352 Y16.7002 
G01 X-48.3012 Y16.9034 
G01 X-48.3346 Y17.1144 
G01 X-48.3346 Y17.3280 
G01 X-48.3012 Y17.5390 
G01 X-48.2352 Y17.7422 
G01 X-48.1382 Y17.9326 
G01 X-48.0126 Y18.1054 
G01 X-47.8615 Y18.2565 
G01 X-47.6887 Y18.3821 
G01 X-47.4983 Y18.4791 
G01 X-47.2951 Y18.5451 
G01 X-47.0841 Y18.5785 
G01 X-45.7500 Y18.5785 
G01 X-45.7500 Y25.2997 
G01 X-45.7119 Y25.3916 
G01 X-45.6416 Y25.4619 
G01 X-45.5497 Y25.5000 
G01 X-43.1358 Y25.5000 
G01 X-43.1093 Y25.6334 
G00 Z2.0000 
G00 X-39.7400 Y25.3212 
G01 Z-0.0250 F254.00 
G01 X-39.7400 Y25.4788 F508.00 
G01 X-39.7093 Y25.6334 
G01 X-39.6489 Y25.7789 
G01 X-39.6424 Y25.7888 
G01 X-44.2847 Y30.4311 
G01 X-44.3227 Y30.4154 
G01 X-44.4401 Y30.3920 
G01 X-44.5599 Y30.3920 
G01 X-44.6773 Y30.4154 
G01 X-44.7880 Y30.4612 
G01 X-44.8876 Y30.5277 
G01 X-44.9723 Y30.6124 
G01 X-45.0388 Y30.7120 
G01 X-45.0846 Y30.8227 
G01 X-45.1080 Y30.9401 
G01 X-45.1080 Y31.0599 
G01 X-45.0846 Y31.1773 
G01 X-45.0388 Y31.2880 
G01 X-44.9723 Y31.3876 
G01 X-44.8876 Y31.4723 
G01 X-44.7880 Y31.5388 
G01 X-44.6773 Y31.5846 
G01 X-44.5599 Y31.6080 
G01 X-44.4401 Y31.6080 
G01 X-44.3227 Y31.5846 
G01 X-44.2120 Y31.5388 
G01 X-44.1124 Y31.4723 
G01 X-44.0277 Y31.3876 
G01 X-43.9612 Y31.2880 
G01 X-43.9154 Y31.1773 
G01 X-43.8920 Y31.0599 
G01 X-43.8920 Y30.9401 
G01 X-43.9154 Y30.8227 
G01 X-43.9311 Y30.7847 
G01 X-39.2740 Y26.1276 
G01 X-39.1733 Y26.1693 
G01 X-39.0188 Y26.2000 
G01 X-38.8612 Y26.2000 
G01 X-38.7066 Y26.1693 
G01 X-38.5611 Y26.1089 
G01 X-38.4300 Y26.0214 
G01 X-38.3186 Y25.9100 
G01 X-38.2311 Y25.7789 
G01 X-38.1707 Y25.6334 
G01 X-38.1400 Y25.4788 
G01 X-38.1400 Y25.3212 
G01 X-38.1707 Y25.1666 
G01 X-38.2311 Y25.0211 
G01 X-38.3186 Y24.8900 
G01 X-38.4300 Y24.7786 
G01 X-38.5611 Y24.6911 
G01 X-38.7066 Y24.6307 
G01 X-38.8612 Y24.6000 
G01 X-39.0188 Y24.6000 
G01 X-39.1733 Y24.6307 
G01 X-39.3189 Y24.6911 
G01 X-39.4500 Y24.7786 
G01 X-39.5614 Y24.8900 
G01 X-39.6489 Y25.0211 
G01 X-39.7093 Y25.1666 
G01 X-39.7400 Y25.3212 
G00 Z2.0000 
G00 X-41.0988 Y33.8111 
G01 Z-0.0250 F254.00 
G01 X-41.0988 Y32.2289 F508.00 
G01 X-41.1300 Y32.0722 
G01 X-41.1911 Y31.9245 
G01 X-41.2799 Y31.7917 
G01 X-41.3929 Y31.6787 
G01 X-41.5258 Y31.5899 
G01 X-41.6734 Y31.5288 
G01 X-41.8301 Y31.4976 
G01 X-41.9899 Y31.4976 
G01 X-42.1466 Y31.5288 
G01 X-42.2942 Y31.5899 
G01 X-42.4271 Y31.6787 
G01 X-42.5401 Y31.7917 
G01 X-42.6289 Y31.9245 
G01 X-42.6900 Y32.0722 
G01 X-42.7212 Y32.2289 
G01 X-42.7212 Y33.8111 
G01 X-42.6900 Y33.9678 
G01 X-42.6289 Y34.1154 
G01 X-42.5401 Y34.2483 
G01 X-42.4271 Y34.3613 
G01 X-42.2942 Y34.4501 
G01 X-42.1466 Y34.5112 
G01 X-41.9899 Y34.5424 
G01 X-41.8301 Y34.5424 
G01 X-41.6734 Y34.5112 
G01 X-41.5258 Y34.4501 
G01 X-41.3929 Y34.3613 
G01 X-41.2799 Y34.2483 
G01 X-41.1911 Y34.1154 
G01 X-41.1300 Y33.9678 
G01 X-41.0988 Y33.8111 
G00 Z2.0000 
G00 X-38.5588 Y33.8111 
G01 Z-0.0250 F254.00 
G01 X-38.5588 Y33.5000 F508.00 
G01 X-38.1036 Y33.5000 
G01 X-35.1303 Y36.4733 
G01 X-35.1677 Y36.5637 
G01 X-35.2028 Y36.7401 
G01 X-35.2028 Y36.9199 
G01 X-35.1677 Y37.0963 
G01 X-35.0989 Y37.2624 
G01 X-34.9990 Y37.4119 
G01 X-34.8719 Y37.5390 
G01 X-34.7224 Y37.6389 
G01 X-34.5563 Y37.7077 
G01 X-34.3799 Y37.7428 
G01 X-34.2001 Y37.7428 
G01 X-34.0237 Y37.7077 
G01 X-33.8576 Y37.6389 
G01 X-33.7081 Y37.5390 
G01 X-33.5810 Y37.4119 
G01 X-33.4811 Y37.2624 
G01 X-33.4123 Y37.0963 
G01 X-33.3772 Y36.9199 
G01 X-33.3772 Y36.7401 
G01 X-33.4123 Y36.5637 
G01 X-33.4811 Y36.3976 
G01 X-33.5810 Y36.2481 
G01 X-33.7081 Y36.1210 
G01 X-33.8576 Y36.0211 
G01 X-34.0237 Y35.9523 
G01 X-34.2001 Y35.9172 
G01 X-34.3799 Y35.9172 
G01 X-34.5563 Y35.9523 
G01 X-34.7224 Y36.0211 
G01 X-34.8141 Y36.0824 
G01 X-37.7881 Y33.1084 
G01 X-37.8584 Y33.0381 
G01 X-37.9503 Y33.0000 
G01 X-38.5588 Y33.0000 
G01 X-38.5588 Y32.2289 
G01 X-38.5900 Y32.0722 
G01 X-38.6511 Y31.9245 
G01 X-38.7399 Y31.7917 
G01 X-38.8529 Y31.6787 
G01 X-38.9858 Y31.5899 
G01 X-39.1334 Y31.5288 
G01 X-39.2901 Y31.4976 
G01 X-39.4499 Y31.4976 
G01 X-39.6066 Y31.5288 
G01 X-39.7542 Y31.5899 
G01 X-39.8871 Y31.6787 
G01 X-40.0001 Y31.7917 
G01 X-40.0889 Y31.9245 
G01 X-40.1500 Y32.0722 
G01 X-40.1812 Y32.2289 
G01 X-40.1812 Y33.8111 
G01 X-40.1500 Y33.9678 
G01 X-40.0889 Y34.1154 
G01 X-40.0001 Y34.2483 
G01 X-39.8871 Y34.3613 
G01 X-39.7542 Y34.4501 
G01 X-39.6066 Y34.5112 
G01 X-39.4499 Y34.5424 
G01 X-39.2901 Y34.5424 
G01 X-39.1334 Y34.5112 
G01 X-38.9858 Y34.4501 
G01 X-38.8529 Y34.3613 
G01 X-38.7399 Y34.2483 
G01 X-38.6511 Y34.1154 
G01 X-38.5900 Y33.9678 
G01 X-38.5588 Y33.8111 
G00 Z2.0000 
G00 X-39.7373 Y40.9972 
G01 Z-0.0250 F254.00 
G01 X-41.5427 Y40.9972 F508.00 
G01 X-41.7191 Y41.0323 
G01 X-41.8852 Y41.1011 
G01 X-42.0347 Y41.2010 
G01 X-42.1618 Y41.3281 
G01 X-42.2617 Y41.4776 
G01 X-42.3305 Y41.6437 
G01 X-42.3656 Y41.8201 
G01 X-42.3656 Y41.9999 
G01 X-42.3305 Y42.1763 
G01 X-42.2617 Y42.3424 
G01 X-42.1618 Y42.4919 
G01 X-42.0347 Y42.6190 
G01 X-41.8852 Y42.7189 
G01 X-41.7191 Y42.7877 
G01 X-41.5427 Y42.8228 
G01 X-39.7373 Y42.8228 
G01 X-39.5609 Y42.7877 
G01 X-39.3948 Y42.7189 
G01 X-39.2453 Y42.6190 
G01 X-39.1182 Y42.4919 
G01 X-39.0183 Y42.3424 
G01 X-38.9495 Y42.1763 
G01 X-38.9144 Y41.9999 
G01 X-38.9144 Y41.8201 
G01 X-38.9495 Y41.6437 
G01 X-39.0183 Y41.4776 
G01 X-39.1182 Y41.3281 
G01 X-39.2453 Y41.2010 
G01 X-39.3948 Y41.1011 
G01 X-39.5609 Y41.0323 
G01 X-39.7373 Y40.9972 
G00 Z2.0000 
G00 X-39.7373 Y38.4572 
G01 Z-0.0250 F254.00 
G01 X-41.5427 Y38.4572 F508.00 
G01 X-41.7191 Y38.4923 
G01 X-41.8852 Y38.5611 
G01 X-42.0347 Y38.6610 
G01 X-42.1618 Y38.7881 
G01 X-42.2617 Y38.9376 
G01 X-42.3305 Y39.1037 
G01 X-42.3656 Y39.2801 
G01 X-42.3656 Y39.4599 
G01 X-42.3305 Y39.6363 
G01 X-42.2617 Y39.8024 
G01 X-42.1618 Y39.9519 
G01 X-42.0347 Y40.0790 
G01 X-41.8852 Y40.1789 
G01 X-41.7191 Y40.2477 
G01 X-41.5427 Y40.2828 
G01 X-39.7373 Y40.2828 
G01 X-39.5609 Y40.2477 
G01 X-39.3948 Y40.1789 
G01 X-39.2453 Y40.0790 
G01 X-39.1182 Y39.9519 
G01 X-39.0183 Y39.8024 
G01 X-38.9495 Y39.6363 
G01 X-38.9144 Y39.4599 
G01 X-38.9144 Y39.2801 
G01 X-38.9495 Y39.1037 
G01 X-39.0183 Y38.9376 
G01 X-39.1182 Y38.7881 
G01 X-39.2453 Y38.6610 
G01 X-39.3948 Y38.5611 
G01 X-39.5609 Y38.4923 
G01 X-39.7373 Y38.4572 
G00 Z2.0000 
G00 X-44.5441 Y59.2185 
G01 Z-0.0250 F254.00 
G01 X-41.8159 Y59.2185 F508.00 
G01 X-41.6049 Y59.1851 
G01 X-41.4017 Y59.1191 
G01 X-41.2113 Y59.0221 
G01 X-41.0385 Y58.8965 
G01 X-40.8874 Y58.7454 
G01 X-40.7618 Y58.5726 
G01 X-40.6648 Y58.3822 
G01 X-40.5988 Y58.1790 
G01 X-40.5654 Y57.9680 
G01 X-40.5654 Y57.7544 
G01 X-40.5988 Y57.5434 
G01 X-40.6648 Y57.3402 
G01 X-40.7618 Y57.1498 
G01 X-40.8874 Y56.9770 
G01 X-41.0385 Y56.8259 
G01 X-41.2113 Y56.7003 
G01 X-41.4017 Y56.6033 
G01 X-41.6049 Y56.5373 
G01 X-41.8159 Y56.5039 
G01 X-44.5441 Y56.5039 
G01 X-44.7551 Y56.5373 
G01 X-44.9583 Y56.6033 
G01 X-45.1487 Y56.7003 
G01 X-45.3215 Y56.8259 
G01 X-45.4726 Y56.9770 
G01 X-45.5982 Y57.1498 
G01 X-45.6952 Y57.3402 
G01 X-45.7612 Y57.5434 
G01 X-45.7946 Y57.7544 
G01 X-45.7946 Y57.9680 
G01 X-45.7612 Y58.1790 
G01 X-45.6952 Y58.3822 
G01 X-45.5982 Y58.5726 
G01 X-45.4726 Y58.7454 
G01 X-45.3215 Y58.8965 
G01 X-45.1487 Y59.0221 
G01 X-44.9583 Y59.1191 
G01 X-44.7551 Y59.1851 
G01 X-44.5441 Y59.2185 
G00 Z2.0000 
G00 X-44.5441 Y55.2561 
G01 Z-0.0250 F254.00 
G01 X-41.8159 Y55.2561 F508.00 
G01 X-41.6049 Y55.2227 
G01 X-41.4017 Y55.1567 
G01 X-41.2113 Y55.0597 
G01 X-41.0385 Y54.9341 
G01 X-40.8874 Y54.7830 
G01 X-40.7618 Y54.6102 
G01 X-40.6648 Y54.4198 
G01 X-40.5988 Y54.2166 
G01 X-40.5654 Y54.0056 
G01 X-40.5654 Y53.7920 
G01 X-40.5988 Y53.5810 
G01 X-40.6648 Y53.3778 
G01 X-40.7618 Y53.1874 
G01 X-40.8874 Y53.0146 
G01 X-41.0385 Y52.8635 
G01 X-41.2113 Y52.7379 
G01 X-41.4017 Y52.6409 
G01 X-41.6049 Y52.5749 
G01 X-41.8159 Y52.5415 
G01 X-44.5441 Y52.5415 
G01 X-44.7551 Y52.5749 
G01 X-44.9583 Y52.6409 
G01 X-45.1487 Y52.7379 
G01 X-45.3215 Y52.8635 
G01 X-45.4726 Y53.0146 
G01 X-45.5982 Y53.1874 
G01 X-45.6952 Y53.3778 
G01 X-45.7612 Y53.5810 
G01 X-45.7946 Y53.7920 
G01 X-45.7946 Y54.0056 
G01 X-45.7612 Y54.2166 
G01 X-45.6952 Y54.4198 
G01 X-45.5982 Y54.6102 
G01 X-45.4726 Y54.7830 
G01 X-45.3215 Y54.9341 
G01 X-45.1487 Y55.0597 
G01 X-44.9583 Y55.1567 
G01 X-44.7551 Y55.2227 
G01 X-44.5441 Y55.2561 
G00 Z2.0000 
G00 X-27.4812 Y5.5589 
G01 Z-0.0250 F254.00 
G01 X-27.4812 Y7.1411 F508.00 
G01 X-27.4500 Y7.2978 
G01 X-27.3889 Y7.4454 
G01 X-27.3001 Y7.5783 
G01 X-27.1871 Y7.6913 
G01 X-27.0542 Y7.7801 
G01 X-26.9066 Y7.8412 
G01 X-26.7499 Y7.8724 
G01 X-26.5901 Y7.8724 
G01 X-26.4334 Y7.8412 
G01 X-26.2858 Y7.7801 
G01 X-26.1529 Y7.6913 
G01 X-26.0399 Y7.5783 
G01 X-25.9511 Y7.4454 
G01 X-25.8900 Y7.2978 
G01 X-25.8588 Y7.1411 
G01 X-25.8588 Y5.5589 
G01 X-25.8900 Y5.4022 
G01 X-25.9511 Y5.2546 
G01 X-26.0399 Y5.1217 
G01 X-26.1529 Y5.0087 
G01 X-26.2858 Y4.9199 
G01 X-26.4334 Y4.8588 
G01 X-26.5901 Y4.8276 
G01 X-26.7499 Y4.8276 
G01 X-26.9066 Y4.8588 
G01 X-27.0542 Y4.9199 
G01 X-27.1871 Y5.0087 
G01 X-27.3001 Y5.1217 
G01 X-27.3889 Y5.2546 
G01 X-27.4500 Y5.4022 
G01 X-27.4812 Y5.5589 
G00 Z2.0000 
G00 X-24.9412 Y5.5589 
G01 Z-0.0250 F254.00 
G01 X-24.9412 Y7.1411 F508.00 
G01 X-24.9100 Y7.2978 
G01 X-24.8489 Y7.4454 
G01 X-24.7601 Y7.5783 
G01 X-24.6471 Y7.6913 
G01 X-24.5142 Y7.7801 
G01 X-24.3666 Y7.8412 
G01 X-24.2099 Y7.8724 
G01 X-24.0501 Y7.8724 
G01 X-23.8934 Y7.8412 
G01 X-23.7458 Y7.7801 
G01 X-23.6129 Y7.6913 
G01 X-23.4999 Y7.5783 
G01 X-23.4111 Y7.4454 
G01 X-23.3500 Y7.2978 
G01 X-23.3188 Y7.1411 
G01 X-23.3188 Y5.5589 
G01 X-23.3500 Y5.4022 
G01 X-23.4111 Y5.2546 
G01 X-23.4999 Y5.1217 
G01 X-23.6129 Y5.0087 
G01 X-23.7458 Y4.9199 
G01 X-23.8934 Y4.8588 
G01 X-24.0501 Y4.8276 
G01 X-24.2099 Y4.8276 
G01 X-24.3666 Y4.8588 
G01 X-24.5142 Y4.9199 
G01 X-24.6471 Y5.0087 
G01 X-24.7601 Y5.1217 
G01 X-24.8489 Y5.2546 
G01 X-24.9100 Y5.4022 
G01 X-24.9412 Y5.5589 
G00 Z2.0000 
G00 X-22.4012 Y5.5589 
G01 Z-0.0250 F254.00 
G01 X-22.4012 Y7.1411 F508.00 
G01 X-22.3700 Y7.2978 
G01 X-22.3089 Y7.4454 
G01 X-22.2201 Y7.5783 
G01 X-22.1071 Y7.6913 
G01 X-21.9742 Y7.7801 
G01 X-21.8266 Y7.8412 
G01 X-21.6699 Y7.8724 
G01 X-21.5101 Y7.8724 
G01 X-21.3534 Y7.8412 
G01 X-21.2058 Y7.7801 
G01 X-21.0729 Y7.6913 
G01 X-20.9599 Y7.5783 
G01 X-20.8711 Y7.4454 
G01 X-20.8100 Y7.2978 
G01 X-20.7788 Y7.1411 
G01 X-20.7788 Y5.5589 
G01 X-20.8100 Y5.4022 
G01 X-20.8711 Y5.2546 
G01 X-20.9599 Y5.1217 
G01 X-21.0729 Y5.0087 
G01 X-21.2058 Y4.9199 
G01 X-21.3534 Y4.8588 
G01 X-21.5101 Y4.8276 
G01 X-21.6699 Y4.8276 
G01 X-21.8266 Y4.8588 
G01 X-21.9742 Y4.9199 
G01 X-22.1071 Y5.0087 
G01 X-22.2201 Y5.1217 
G01 X-22.3089 Y5.2546 
G01 X-22.3700 Y5.4022 
G01 X-22.4012 Y5.5589 
G00 Z2.0000 
G00 X-19.8612 Y5.5589 
G01 Z-0.0250 F254.00 
G01 X-19.8612 Y7.1411 F508.00 
G01 X-19.8300 Y7.2978 
G01 X-19.7689 Y7.4454 
G01 X-19.6801 Y7.5783 
G01 X-19.5671 Y7.6913 
G01 X-19.4342 Y7.7801 
G01 X-19.2866 Y7.8412 
G01 X-19.1299 Y7.8724 
G01 X-18.9701 Y7.8724 
G01 X-18.8134 Y7.8412 
G01 X-18.6657 Y7.7801 
G01 X-18.5329 Y7.6913 
G01 X-18.4199 Y7.5783 
G01 X-18.3311 Y7.4454 
G01 X-18.2700 Y7.2978 
G01 X-18.2388 Y7.1411 
G01 X-18.2388 Y5.5589 
G01 X-18.2700 Y5.4022 
G01 X-18.3311 Y5.2546 
G01 X-18.4199 Y5.1217 
G01 X-18.5329 Y5.0087 
G01 X-18.6657 Y4.9199 
G01 X-18.8134 Y4.8588 
G01 X-18.9701 Y4.8276 
G01 X-19.1299 Y4.8276 
G01 X-19.2866 Y4.8588 
G01 X-19.4342 Y4.9199 
G01 X-19.5671 Y5.0087 
G01 X-19.6801 Y5.1217 
G01 X-19.7689 Y5.2546 
G01 X-19.8300 Y5.4022 
G01 X-19.8612 Y5.5589 
G00 Z2.0000 
G00 X-17.3212 Y5.5589 
G01 Z-0.0250 F254.00 
G01 X-17.3212 Y7.1411 F508.00 
G01 X-17.2900 Y7.2978 
G01 X-17.2289 Y7.4454 
G01 X-17.1401 Y7.5783 
G01 X-17.0271 Y7.6913 
G01 X-16.8942 Y7.7801 
G01 X-16.7466 Y7.8412 
G01 X-16.5899 Y7.8724 
G01 X-16.4301 Y7.8724 
G01 X-16.2734 Y7.8412 
G01 X-16.1258 Y7.7801 
G01 X-15.9929 Y7.6913 
G01 X-15.8799 Y7.5783 
G01 X-15.7911 Y7.4454 
G01 X-15.7300 Y7.2978 
G01 X-15.6988 Y7.1411 
G01 X-15.6988 Y5.5589 
G01 X-15.7300 Y5.4022 
G01 X-15.7911 Y5.2546 
G01 X-15.8799 Y5.1217 
G01 X-15.9929 Y5.0087 
G01 X-16.1258 Y4.9199 
G01 X-16.2734 Y4.8588 
G01 X-16.4301 Y4.8276 
G01 X-16.5899 Y4.8276 
G01 X-16.7466 Y4.8588 
G01 X-16.8942 Y4.9199 
G01 X-17.0271 Y5.0087 
G01 X-17.1401 Y5.1217 
G01 X-17.2289 Y5.2546 
G01 X-17.2900 Y5.4022 
G01 X-17.3212 Y5.5589 
G00 Z2.0000 
G00 X-14.7812 Y5.5589 
G01 Z-0.0250 F254.00 
G01 X-14.7812 Y7.1411 F508.00 
G01 X-14.7500 Y7.2978 
G01 X-14.6889 Y7.4454 
G01 X-14.6001 Y7.5783 
G01 X-14.4871 Y7.6913 
G01 X-14.3542 Y7.7801 
G01 X-14.2066 Y7.8412 
G01 X-14.0499 Y7.8724 
G01 X-13.8901 Y7.8724 
G01 X-13.7334 Y7.8412 
G01 X-13.5858 Y7.7801 
G01 X-13.4529 Y7.6913 
G01 X-13.3399 Y7.5783 
G01 X-13.2511 Y7.4454 
G01 X-13.1900 Y7.2978 
G01 X-13.1588 Y7.1411 
G01 X-13.1588 Y5.5589 
G01 X-13.1900 Y5.4022 
G01 X-13.2511 Y5.2546 
G01 X-13.3399 Y5.1217 
G01 X-13.4529 Y5.0087 
G01 X-13.5858 Y4.9199 
G01 X-13.7334 Y4.8588 
G01 X-13.8901 Y4.8276 
G01 X-14.0499 Y4.8276 
G01 X-14.2066 Y4.8588 
G01 X-14.3542 Y4.9199 
G01 X-14.4871 Y5.0087 
G01 X-14.6001 Y5.1217 
G01 X-14.6889 Y5.2546 
G01 X-14.7500 Y5.4022 
G01 X-14.7812 Y5.5589 
G00 Z2.0000 
G00 X-12.2412 Y5.5589 
G01 Z-0.0250 F254.00 
G01 X-12.2412 Y7.1411 F508.00 
G01 X-12.2100 Y7.2978 
G01 X-12.1489 Y7.4454 
G01 X-12.0601 Y7.5783 
G01 X-11.9471 Y7.6913 
G01 X-11.8142 Y7.7801 
G01 X-11.6666 Y7.8412 
G01 X-11.5099 Y7.8724 
G01 X-11.3501 Y7.8724 
G01 X-11.1934 Y7.8412 
G01 X-11.0457 Y7.7801 
G01 X-10.9129 Y7.6913 
G01 X-10.7999 Y7.5783 
G01 X-10.7111 Y7.4454 
G01 X-10.6500 Y7.2978 
G01 X-10.6188 Y7.1411 
G01 X-10.6188 Y5.5589 
G01 X-10.6500 Y5.4022 
G01 X-10.7111 Y5.2546 
G01 X-10.7999 Y5.1217 
G01 X-10.9129 Y5.0087 
G01 X-11.0457 Y4.9199 
G01 X-11.1934 Y4.8588 
G01 X-11.3501 Y4.8276 
G01 X-11.5099 Y4.8276 
G01 X-11.6666 Y4.8588 
G01 X-11.8142 Y4.9199 
G01 X-11.9471 Y5.0087 
G01 X-12.0601 Y5.1217 
G01 X-12.1489 Y5.2546 
G01 X-12.2100 Y5.4022 
G01 X-12.2412 Y5.5589 
G00 Z2.0000 
G00 X-9.7012 Y5.5589 
G01 Z-0.0250 F254.00 
G01 X-9.7012 Y7.1411 F508.00 
G01 X-9.6700 Y7.2978 
G01 X-9.6089 Y7.4454 
G01 X-9.5201 Y7.5783 
G01 X-9.4071 Y7.6913 
G01 X-9.2742 Y7.7801 
G01 X-9.1266 Y7.8412 
G01 X-8.9699 Y7.8724 
G01 X-8.8101 Y7.8724 
G01 X-8.6534 Y7.8412 
G01 X-8.5058 Y7.7801 
G01 X-8.3729 Y7.6913 
G01 X-8.2599 Y7.5783 
G01 X-8.1711 Y7.4454 
G01 X-8.1100 Y7.2978 
G01 X-8.0788 Y7.1411 
G01 X-8.0788 Y5.5589 
G01 X-8.1100 Y5.4022 
G01 X-8.1711 Y5.2546 
G01 X-8.2599 Y5.1217 
G01 X-8.3729 Y5.0087 
G01 X-8.5058 Y4.9199 
G01 X-8.6534 Y4.8588 
G01 X-8.8101 Y4.8276 
G01 X-8.9699 Y4.8276 
G01 X-9.1266 Y4.8588 
G01 X-9.2742 Y4.9199 
G01 X-9.4071 Y5.0087 
G01 X-9.5201 Y5.1217 
G01 X-9.6089 Y5.2546 
G01 X-9.6700 Y5.4022 
G01 X-9.7012 Y5.5589 
G00 Z2.0000 
G00 X-7.1612 Y5.5589 
G01 Z-0.0250 F254.00 
G01 X-7.1612 Y7.1411 F508.00 
G01 X-7.1300 Y7.2978 
G01 X-7.0689 Y7.4454 
G01 X-6.9801 Y7.5783 
G01 X-6.8671 Y7.6913 
G01 X-6.7342 Y7.7801 
G01 X-6.5866 Y7.8412 
G01 X-6.4299 Y7.8724 
G01 X-6.2701 Y7.8724 
G01 X-6.1134 Y7.8412 
G01 X-5.9657 Y7.7801 
G01 X-5.8329 Y7.6913 
G01 X-5.7199 Y7.5783 
G01 X-5.6311 Y7.4454 
G01 X-5.5700 Y7.2978 
G01 X-5.5388 Y7.1411 
G01 X-5.5388 Y5.5589 
G01 X-5.5700 Y5.4022 
G01 X-5.6311 Y5.2546 
G01 X-5.7199 Y5.1217 
G01 X-5.8329 Y5.0087 
G01 X-5.9657 Y4.9199 
G01 X-6.1134 Y4.8588 
G01 X-6.2701 Y4.8276 
G01 X-6.4299 Y4.8276 
G01 X-6.5866 Y4.8588 
G01 X-6.7342 Y4.9199 
G01 X-6.8671 Y5.0087 
G01 X-6.9801 Y5.1217 
G01 X-7.0689 Y5.2546 
G01 X-7.1300 Y5.4022 
G01 X-7.1612 Y5.5589 
G00 Z2.0000 
G00 X-4.6212 Y5.5589 
G01 Z-0.0250 F254.00 
G01 X-4.6212 Y7.1411 F508.00 
G01 X-4.5900 Y7.2978 
G01 X-4.5289 Y7.4454 
G01 X-4.4401 Y7.5783 
G01 X-4.3271 Y7.6913 
G01 X-4.1942 Y7.7801 
G01 X-4.0466 Y7.8412 
G01 X-3.8899 Y7.8724 
G01 X-3.7301 Y7.8724 
G01 X-3.5734 Y7.8412 
G01 X-3.4258 Y7.7801 
G01 X-3.2929 Y7.6913 
G01 X-3.1799 Y7.5783 
G01 X-3.0911 Y7.4454 
G01 X-3.0300 Y7.2978 
G01 X-2.9988 Y7.1411 
G01 X-2.9988 Y5.5589 
G01 X-3.0300 Y5.4022 
G01 X-3.0911 Y5.2546 
G01 X-3.1799 Y5.1217 
G01 X-3.2929 Y5.0087 
G01 X-3.4258 Y4.9199 
G01 X-3.5734 Y4.8588 
G01 X-3.7301 Y4.8276 
G01 X-3.8899 Y4.8276 
G01 X-4.0466 Y4.8588 
G01 X-4.1942 Y4.9199 
G01 X-4.3271 Y5.0087 
G01 X-4.4401 Y5.1217 
G01 X-4.5289 Y5.2546 
G01 X-4.5900 Y5.4022 
G01 X-4.6212 Y5.5589 
G00 Z2.0000 
G00 X-4.6212 Y13.1789 
G01 Z-0.0250 F254.00 
G01 X-4.6212 Y14.7611 F508.00 
G01 X-4.5900 Y14.9178 
G01 X-4.5289 Y15.0654 
G01 X-4.4401 Y15.1983 
G01 X-4.3271 Y15.3113 
G01 X-4.1942 Y15.4001 
G01 X-4.0466 Y15.4612 
G01 X-3.8899 Y15.4924 
G01 X-3.7301 Y15.4924 
G01 X-3.5734 Y15.4612 
G01 X-3.4258 Y15.4001 
G01 X-3.2929 Y15.3113 
G01 X-3.1799 Y15.1983 
G01 X-3.0911 Y15.0654 
G01 X-3.0300 Y14.9178 
G01 X-2.9988 Y14.7611 
G01 X-2.9988 Y13.1789 
G01 X-3.0300 Y13.0222 
G01 X-3.0911 Y12.8746 
G01 X-3.1799 Y12.7417 
G01 X-3.2929 Y12.6287 
G01 X-3.4258 Y12.5399 
G01 X-3.5734 Y12.4788 
G01 X-3.7301 Y12.4476 
G01 X-3.8899 Y12.4476 
G01 X-4.0466 Y12.4788 
G01 X-4.1942 Y12.5399 
G01 X-4.3271 Y12.6287 
G01 X-4.4401 Y12.7417 
G01 X-4.5289 Y12.8746 
G01 X-4.5900 Y13.0222 
G01 X-4.6212 Y13.1789 
G00 Z2.0000 
G00 X-7.1612 Y13.1789 
G01 Z-0.0250 F254.00 
G01 X-7.1612 Y14.7611 F508.00 
G01 X-7.1300 Y14.9178 
G01 X-7.0689 Y15.0654 
G01 X-6.9801 Y15.1983 
G01 X-6.8671 Y15.3113 
G01 X-6.7342 Y15.4001 
G01 X-6.5866 Y15.4612 
G01 X-6.4299 Y15.4924 
G01 X-6.2701 Y15.4924 
G01 X-6.1134 Y15.4612 
G01 X-5.9657 Y15.4001 
G01 X-5.8329 Y15.3113 
G01 X-5.7199 Y15.1983 
G01 X-5.6311 Y15.0654 
G01 X-5.5700 Y14.9178 
G01 X-5.5388 Y14.7611 
G01 X-5.5388 Y13.1789 
G01 X-5.5700 Y13.0222 
G01 X-5.6311 Y12.8746 
G01 X-5.7199 Y12.7417 
G01 X-5.8329 Y12.6287 
G01 X-5.9657 Y12.5399 
G01 X-6.1134 Y12.4788 
G01 X-6.2701 Y12.4476 
G01 X-6.4299 Y12.4476 
G01 X-6.5866 Y12.4788 
G01 X-6.7342 Y12.5399 
G01 X-6.8671 Y12.6287 
G01 X-6.9801 Y12.7417 
G01 X-7.0689 Y12.8746 
G01 X-7.1300 Y13.0222 
G01 X-7.1612 Y13.1789 
G00 Z2.0000 
G00 X-9.7012 Y13.1789 
G01 Z-0.0250 F254.00 
G01 X-9.7012 Y14.7611 F508.00 
G01 X-9.6700 Y14.9178 
G01 X-9.6089 Y15.0654 
G01 X-9.5201 Y15.1983 
G01 X-9.4071 Y15.3113 
G01 X-9.2742 Y15.4001 
G01 X-9.1266 Y15.4612 
G01 X-8.9699 Y15.4924 
G01 X-8.8101 Y15.4924 
G01 X-8.6534 Y15.4612 
G01 X-8.5058 Y15.4001 
G01 X-8.3729 Y15.3113 
G01 X-8.2599 Y15.1983 
G01 X-8.1711 Y15.0654 
G01 X-8.1100 Y14.9178 
G01 X-8.0788 Y14.7611 
G01 X-8.0788 Y13.1789 
G01 X-8.1100 Y13.0222 
G01 X-8.1711 Y12.8746 
G01 X-8.2599 Y12.7417 
G01 X-8.3729 Y12.6287 
G01 X-8.5058 Y12.5399 
G01 X-8.6534 Y12.4788 
G01 X-8.8101 Y12.4476 
G01 X-8.9699 Y12.4476 
G01 X-9.1266 Y12.4788 
G01 X-9.2742 Y12.5399 
G01 X-9.4071 Y12.6287 
G01 X-9.5201 Y12.7417 
G01 X-9.6089 Y12.8746 
G01 X-9.6700 Y13.0222 
G01 X-9.7012 Y13.1789 
G00 Z2.0000 
G00 X-12.2412 Y13.1789 
G01 Z-0.0250 F254.00 
G01 X-12.2412 Y14.7611 F508.00 
G01 X-12.2100 Y14.9178 
G01 X-12.1489 Y15.0654 
G01 X-12.0601 Y15.1983 
G01 X-11.9471 Y15.3113 
G01 X-11.8142 Y15.4001 
G01 X-11.6666 Y15.4612 
G01 X-11.5099 Y15.4924 
G01 X-11.3501 Y15.4924 
G01 X-11.1934 Y15.4612 
G01 X-11.0457 Y15.4001 
G01 X-10.9129 Y15.3113 
G01 X-10.7999 Y15.1983 
G01 X-10.7111 Y15.0654 
G01 X-10.6500 Y14.9178 
G01 X-10.6188 Y14.7611 
G01 X-10.6188 Y13.1789 
G01 X-10.6500 Y13.0222 
G01 X-10.7111 Y12.8746 
G01 X-10.7999 Y12.7417 
G01 X-10.9129 Y12.6287 
G01 X-11.0457 Y12.5399 
G01 X-11.1934 Y12.4788 
G01 X-11.3501 Y12.4476 
G01 X-11.5099 Y12.4476 
G01 X-11.6666 Y12.4788 
G01 X-11.8142 Y12.5399 
G01 X-11.9471 Y12.6287 
G01 X-12.0601 Y12.7417 
G01 X-12.1489 Y12.8746 
G01 X-12.2100 Y13.0222 
G01 X-12.2412 Y13.1789 
G00 Z2.0000 
G00 X-14.7812 Y13.1789 
G01 Z-0.0250 F254.00 
G01 X-14.7812 Y14.7611 F508.00 
G01 X-14.7500 Y14.9178 
G01 X-14.6889 Y15.0654 
G01 X-14.6001 Y15.1983 
G01 X-14.4871 Y15.3113 
G01 X-14.3542 Y15.4001 
G01 X-14.2066 Y15.4612 
G01 X-14.0499 Y15.4924 
G01 X-13.8901 Y15.4924 
G01 X-13.7334 Y15.4612 
G01 X-13.5858 Y15.4001 
G01 X-13.4529 Y15.3113 
G01 X-13.3399 Y15.1983 
G01 X-13.2511 Y15.0654 
G01 X-13.1900 Y14.9178 
G01 X-13.1588 Y14.7611 
G01 X-13.1588 Y13.1789 
G01 X-13.1900 Y13.0222 
G01 X-13.2511 Y12.8746 
G01 X-13.3399 Y12.7417 
G01 X-13.4529 Y12.6287 
G01 X-13.5858 Y12.5399 
G01 X-13.7334 Y12.4788 
G01 X-13.8901 Y12.4476 
G01 X-14.0499 Y12.4476 
G01 X-14.2066 Y12.4788 
G01 X-14.3542 Y12.5399 
G01 X-14.4871 Y12.6287 
G01 X-14.6001 Y12.7417 
G01 X-14.6889 Y12.8746 
G01 X-14.7500 Y13.0222 
G01 X-14.7812 Y13.1789 
G00 Z2.0000 
G00 X-17.3212 Y13.1789 
G01 Z-0.0250 F254.00 
G01 X-17.3212 Y14.7611 F508.00 
G01 X-17.2900 Y14.9178 
G01 X-17.2289 Y15.0654 
G01 X-17.1401 Y15.1983 
G01 X-17.0271 Y15.3113 
G01 X-16.8942 Y15.4001 
G01 X-16.7466 Y15.4612 
G01 X-16.5899 Y15.4924 
G01 X-16.4301 Y15.4924 
G01 X-16.2734 Y15.4612 
G01 X-16.1258 Y15.4001 
G01 X-15.9929 Y15.3113 
G01 X-15.8799 Y15.1983 
G01 X-15.7911 Y15.0654 
G01 X-15.7300 Y14.9178 
G01 X-15.6988 Y14.7611 
G01 X-15.6988 Y13.1789 
G01 X-15.7300 Y13.0222 
G01 X-15.7911 Y12.8746 
G01 X-15.8799 Y12.7417 
G01 X-15.9929 Y12.6287 
G01 X-16.1258 Y12.5399 
G01 X-16.2734 Y12.4788 
G01 X-16.4301 Y12.4476 
G01 X-16.5899 Y12.4476 
G01 X-16.7466 Y12.4788 
G01 X-16.8942 Y12.5399 
G01 X-17.0271 Y12.6287 
G01 X-17.1401 Y12.7417 
G01 X-17.2289 Y12.8746 
G01 X-17.2900 Y13.0222 
G01 X-17.3212 Y13.1789 
G00 Z2.0000 
G00 X-19.8612 Y13.1789 
G01 Z-0.0250 F254.00 
G01 X-19.8612 Y14.7611 F508.00 
G01 X-19.8300 Y14.9178 
G01 X-19.7689 Y15.0654 
G01 X-19.6801 Y15.1983 
G01 X-19.5671 Y15.3113 
G01 X-19.4342 Y15.4001 
G01 X-19.2866 Y15.4612 
G01 X-19.1299 Y15.4924 
G01 X-18.9701 Y15.4924 
G01 X-18.8134 Y15.4612 
G01 X-18.6657 Y15.4001 
G01 X-18.5329 Y15.3113 
G01 X-18.4199 Y15.1983 
G01 X-18.3311 Y15.0654 
G01 X-18.2700 Y14.9178 
G01 X-18.2388 Y14.7611 
G01 X-18.2388 Y13.1789 
G01 X-18.2700 Y13.0222 
G01 X-18.3311 Y12.8746 
G01 X-18.4199 Y12.7417 
G01 X-18.5329 Y12.6287 
G01 X-18.6657 Y12.5399 
G01 X-18.8134 Y12.4788 
G01 X-18.9701 Y12.4476 
G01 X-19.1299 Y12.4476 
G01 X-19.2866 Y12.4788 
G01 X-19.4342 Y12.5399 
G01 X-19.5671 Y12.6287 
G01 X-19.6801 Y12.7417 
G01 X-19.7689 Y12.8746 
G01 X-19.8300 Y13.0222 
G01 X-19.8612 Y13.1789 
G00 Z2.0000 
G00 X-22.4012 Y13.1789 
G01 Z-0.0250 F254.00 
G01 X-22.4012 Y14.7611 F508.00 
G01 X-22.3700 Y14.9178 
G01 X-22.3089 Y15.0654 
G01 X-22.2201 Y15.1983 
G01 X-22.1071 Y15.3113 
G01 X-21.9742 Y15.4001 
G01 X-21.8266 Y15.4612 
G01 X-21.6699 Y15.4924 
G01 X-21.5101 Y15.4924 
G01 X-21.3534 Y15.4612 
G01 X-21.2058 Y15.4001 
G01 X-21.0729 Y15.3113 
G01 X-20.9599 Y15.1983 
G01 X-20.8711 Y15.0654 
G01 X-20.8100 Y14.9178 
G01 X-20.7788 Y14.7611 
G01 X-20.7788 Y13.1789 
G01 X-20.8100 Y13.0222 
G01 X-20.8711 Y12.8746 
G01 X-20.9599 Y12.7417 
G01 X-21.0729 Y12.6287 
G01 X-21.2058 Y12.5399 
G01 X-21.3534 Y12.4788 
G01 X-21.5101 Y12.4476 
G01 X-21.6699 Y12.4476 
G01 X-21.8266 Y12.4788 
G01 X-21.9742 Y12.5399 
G01 X-22.1071 Y12.6287 
G01 X-22.2201 Y12.7417 
G01 X-22.3089 Y12.8746 
G01 X-22.3700 Y13.0222 
G01 X-22.4012 Y13.1789 
G00 Z2.0000 
G00 X-24.9412 Y13.1789 
G01 Z-0.0250 F254.00 
G01 X-24.9412 Y14.7611 F508.00 
G01 X-24.9100 Y14.9178 
G01 X-24.8489 Y15.0654 
G01 X-24.7601 Y15.1983 
G01 X-24.6471 Y15.3113 
G01 X-24.5142 Y15.4001 
G01 X-24.3666 Y15.4612 
G01 X-24.2099 Y15.4924 
G01 X-24.0501 Y15.4924 
G01 X-23.8934 Y15.4612 
G01 X-23.7458 Y15.4001 
G01 X-23.6129 Y15.3113 
G01 X-23.4999 Y15.1983 
G01 X-23.4111 Y15.0654 
G01 X-23.3500 Y14.9178 
G01 X-23.3188 Y14.7611 
G01 X-23.3188 Y13.1789 
G01 X-23.3500 Y13.0222 
G01 X-23.4111 Y12.8746 
G01 X-23.4999 Y12.7417 
G01 X-23.6129 Y12.6287 
G01 X-23.7458 Y12.5399 
G01 X-23.8934 Y12.4788 
G01 X-24.0501 Y12.4476 
G01 X-24.2099 Y12.4476 
G01 X-24.3666 Y12.4788 
G01 X-24.5142 Y12.5399 
G01 X-24.6471 Y12.6287 
G01 X-24.7601 Y12.7417 
G01 X-24.8489 Y12.8746 
G01 X-24.9100 Y13.0222 
G01 X-24.9412 Y13.1789 
G00 Z2.0000 
G00 X-27.4812 Y13.1789 
G01 Z-0.0250 F254.00 
G01 X-27.4812 Y14.7611 F508.00 
G01 X-27.4500 Y14.9178 
G01 X-27.3889 Y15.0654 
G01 X-27.3001 Y15.1983 
G01 X-27.1871 Y15.3113 
G01 X-27.0542 Y15.4001 
G01 X-26.9066 Y15.4612 
G01 X-26.7499 Y15.4924 
G01 X-26.5901 Y15.4924 
G01 X-26.4334 Y15.4612 
G01 X-26.2858 Y15.4001 
G01 X-26.1529 Y15.3113 
G01 X-26.0399 Y15.1983 
G01 X-25.9511 Y15.0654 
G01 X-25.8900 Y14.9178 
G01 X-25.8588 Y14.7611 
G01 X-25.8588 Y13.1789 
G01 X-25.8900 Y13.0222 
G01 X-25.9511 Y12.8746 
G01 X-26.0399 Y12.7417 
G01 X-26.1529 Y12.6287 
G01 X-26.2858 Y12.5399 
G01 X-26.4334 Y12.4788 
G01 X-26.5901 Y12.4476 
G01 X-26.7499 Y12.4476 
G01 X-26.9066 Y12.4788 
G01 X-27.0542 Y12.5399 
G01 X-27.1871 Y12.6287 
G01 X-27.3001 Y12.7417 
G01 X-27.3889 Y12.8746 
G01 X-27.4500 Y13.0222 
G01 X-27.4812 Y13.1789 
G00 Z2.0000 
G00 X-18.4039 Y59.7841 
G01 Z-0.0250 F254.00 
G01 X-18.4039 Y57.0559 F508.00 
G01 X-18.4373 Y56.8449 
G01 X-18.5033 Y56.6417 
G01 X-18.6003 Y56.4513 
G01 X-18.7259 Y56.2785 
G01 X-18.8770 Y56.1274 
G01 X-19.0498 Y56.0018 
G01 X-19.2402 Y55.9048 
G01 X-19.4434 Y55.8388 
G01 X-19.6544 Y55.8054 
G01 X-19.8680 Y55.8054 
G01 X-20.0790 Y55.8388 
G01 X-20.2822 Y55.9048 
G01 X-20.4726 Y56.0018 
G01 X-20.6454 Y56.1274 
G01 X-20.7965 Y56.2785 
G01 X-20.9221 Y56.4513 
G01 X-21.0191 Y56.6417 
G01 X-21.0851 Y56.8449 
G01 X-21.1185 Y57.0559 
G01 X-21.1185 Y59.7841 
G01 X-21.0851 Y59.9951 
G01 X-21.0191 Y60.1983 
G01 X-20.9221 Y60.3887 
G01 X-20.7965 Y60.5615 
G01 X-20.6454 Y60.7126 
G01 X-20.4726 Y60.8382 
G01 X-20.2822 Y60.9352 
G01 X-20.0790 Y61.0012 
G01 X-19.8680 Y61.0346 
G01 X-19.6544 Y61.0346 
G01 X-19.4434 Y61.0012 
G01 X-19.2402 Y60.9352 
G01 X-19.0498 Y60.8382 
G01 X-18.8770 Y60.7126 
G01 X-18.7259 Y60.5615 
G01 X-18.6003 Y60.3887 
G01 X-18.5033 Y60.1983 
G01 X-18.4373 Y59.9951 
G01 X-18.4039 Y59.7841 
G00 Z2.0000 
G00 X-7.9264 Y59.3785 
G01 Z-0.0250 F254.00 
G01 X-7.9264 Y57.4615 F508.00 
G01 X-7.9634 Y57.2753 
G01 X-8.0361 Y57.1000 
G01 X-8.1415 Y56.9421 
G01 X-8.2757 Y56.8079 
G01 X-8.4336 Y56.7025 
G01 X-8.6089 Y56.6298 
G01 X-8.7951 Y56.5928 
G01 X-8.9849 Y56.5928 
G01 X-9.1711 Y56.6298 
G01 X-9.3464 Y56.7025 
G01 X-9.5043 Y56.8079 
G01 X-9.6385 Y56.9421 
G01 X-9.7439 Y57.1000 
G01 X-9.8166 Y57.2753 
G01 X-9.8536 Y57.4615 
G01 X-9.8536 Y59.3785 
G01 X-9.8166 Y59.5647 
G01 X-9.7439 Y59.7400 
G01 X-9.6385 Y59.8979 
G01 X-9.5043 Y60.0321 
G01 X-9.3464 Y60.1375 
G01 X-9.1711 Y60.2102 
G01 X-8.9849 Y60.2472 
G01 X-8.7951 Y60.2472 
G01 X-8.6089 Y60.2102 
G01 X-8.4336 Y60.1375 
G01 X-8.2757 Y60.0321 
G01 X-8.1415 Y59.8979 
G01 X-8.0361 Y59.7400 
G01 X-7.9634 Y59.5647 
G01 X-7.9264 Y59.3785 
G00 Z2.0000 
G00 X-4.1164 Y59.3785 
G01 Z-0.0250 F254.00 
G01 X-4.1164 Y57.4615 F508.00 
G01 X-4.1534 Y57.2753 
G01 X-4.2261 Y57.1000 
G01 X-4.3315 Y56.9421 
G01 X-4.4657 Y56.8079 
G01 X-4.6236 Y56.7025 
G01 X-4.7989 Y56.6298 
G01 X-4.9851 Y56.5928 
G01 X-5.1749 Y56.5928 
G01 X-5.3611 Y56.6298 
G01 X-5.5364 Y56.7025 
G01 X-5.6943 Y56.8079 
G01 X-5.8285 Y56.9421 
G01 X-5.9339 Y57.1000 
G01 X-5.9669 Y57.1796 
G01 X-7.0381 Y56.1084 
G01 X-7.1084 Y56.0381 
G01 X-7.2003 Y56.0000 
G01 X-13.7997 Y56.0000 
G01 X-13.8916 Y56.0381 
G01 X-14.5297 Y56.6762 
G01 X-14.5409 Y56.6417 
G01 X-14.6379 Y56.4513 
G01 X-14.7635 Y56.2785 
G01 X-14.9146 Y56.1274 
G01 X-15.0874 Y56.0018 
G01 X-15.2778 Y55.9048 
G01 X-15.4810 Y55.8388 
G01 X-15.6920 Y55.8054 
G01 X-15.9056 Y55.8054 
G01 X-16.1166 Y55.8388 
G01 X-16.3198 Y55.9048 
G01 X-16.5102 Y56.0018 
G01 X-16.6830 Y56.1274 
G01 X-16.8341 Y56.2785 
G01 X-16.9597 Y56.4513 
G01 X-17.0567 Y56.6417 
G01 X-17.1227 Y56.8449 
G01 X-17.1561 Y57.0559 
G01 X-17.1561 Y59.7841 
G01 X-17.1227 Y59.9951 
G01 X-17.0567 Y60.1983 
G01 X-16.9597 Y60.3887 
G01 X-16.8341 Y60.5615 
G01 X-16.6830 Y60.7126 
G01 X-16.5102 Y60.8382 
G01 X-16.3198 Y60.9352 
G01 X-16.1166 Y61.0012 
G01 X-15.9056 Y61.0346 
G01 X-15.6920 Y61.0346 
G01 X-15.4810 Y61.0012 
G01 X-15.2778 Y60.9352 
G01 X-15.0874 Y60.8382 
G01 X-14.9146 Y60.7126 
G01 X-14.7635 Y60.5615 
G01 X-14.6379 Y60.3887 
G01 X-14.5409 Y60.1983 
G01 X-14.4749 Y59.9951 
G01 X-14.4415 Y59.7841 
G01 X-14.4415 Y57.2951 
G01 X-13.6464 Y56.5000 
G01 X-7.3536 Y56.5000 
G01 X-6.0436 Y57.8100 
G01 X-6.0436 Y59.3785 
G01 X-6.0066 Y59.5647 
G01 X-5.9339 Y59.7400 
G01 X-5.8285 Y59.8979 
G01 X-5.6943 Y60.0321 
G01 X-5.5364 Y60.1375 
G01 X-5.3611 Y60.2102 
G01 X-5.1749 Y60.2472 
G01 X-4.9851 Y60.2472 
G01 X-4.7989 Y60.2102 
G01 X-4.6236 Y60.1375 
G01 X-4.4657 Y60.0321 
G01 X-4.3315 Y59.8979 
G01 X-4.2261 Y59.7400 
G01 X-4.1534 Y59.5647 
G01 X-4.1164 Y59.3785 
G00 Z2.0000 
G00 X-0.3064 Y59.3785 
G01 Z-0.0250 F254.00 
G01 X-0.3064 Y57.4615 F508.00 
G01 X-0.3434 Y57.2753 
G01 X-0.4161 Y57.1000 
G01 X-0.5215 Y56.9421 
G01 X-0.6557 Y56.8079 
G01 X-0.8136 Y56.7025 
G01 X-0.9889 Y56.6298 
G01 X-1.1751 Y56.5928 
G01 X-1.3649 Y56.5928 
G01 X-1.5511 Y56.6298 
G01 X-1.7264 Y56.7025 
G01 X-1.8843 Y56.8079 
G01 X-2.0185 Y56.9421 
G01 X-2.1239 Y57.1000 
G01 X-2.1966 Y57.2753 
G01 X-2.2336 Y57.4615 
G01 X-2.2336 Y59.3785 
G01 X-2.1966 Y59.5647 
G01 X-2.1239 Y59.7400 
G01 X-2.0185 Y59.8979 
G01 X-1.8843 Y60.0321 
G01 X-1.7264 Y60.1375 
G01 X-1.5511 Y60.2102 
G01 X-1.3649 Y60.2472 
G01 X-1.1751 Y60.2472 
G01 X-0.9889 Y60.2102 
G01 X-0.8136 Y60.1375 
G01 X-0.6557 Y60.0321 
G01 X-0.5215 Y59.8979 
G01 X-0.4161 Y59.7400 
G01 X-0.3434 Y59.5647 
G01 X-0.3064 Y59.3785 
G00 Z2.0000 
G00 X-14.4510 Y28.1376 
G01 Z-0.0250 F254.00 
G01 X-14.4510 Y28.3012 F508.00 
G01 X-14.4254 Y28.4629 
G01 X-14.3748 Y28.6185 
G01 X-14.3005 Y28.7644 
G01 X-14.2043 Y28.8968 
G01 X-14.0886 Y29.0125 
G01 X-13.9562 Y29.1087 
G01 X-13.8103 Y29.1830 
G01 X-13.6547 Y29.2336 
G01 X-13.4930 Y29.2592 
G01 X-13.3294 Y29.2592 
G01 X-13.1677 Y29.2336 
G01 X-13.0121 Y29.1830 
G01 X-12.8662 Y29.1087 
G01 X-12.7338 Y29.0125 
G01 X-12.6181 Y28.8968 
G01 X-12.5219 Y28.7644 
G01 X-12.4476 Y28.6185 
G01 X-12.3970 Y28.4629 
G01 X-12.3714 Y28.3012 
G01 X-12.3714 Y28.1376 
G01 X-12.3970 Y27.9759 
G01 X-12.4476 Y27.8203 
G01 X-12.5219 Y27.6744 
G01 X-12.6181 Y27.5420 
G01 X-12.7338 Y27.4263 
G01 X-12.8662 Y27.3301 
G01 X-13.0121 Y27.2558 
G01 X-13.1677 Y27.2052 
G01 X-13.3294 Y27.1796 
G01 X-13.4930 Y27.1796 
G01 X-13.6547 Y27.2052 
G01 X-13.8103 Y27.2558 
G01 X-13.9562 Y27.3301 
G01 X-14.0886 Y27.4263 
G01 X-14.2043 Y27.5420 
G01 X-14.3005 Y27.6744 
G01 X-14.3748 Y27.8203 
G01 X-14.4254 Y27.9759 
G01 X-14.4510 Y28.1376 
G00 Z2.0000 
G00 X-14.4510 Y32.6588 
G01 Z-0.0250 F254.00 
G01 X-14.4510 Y32.8224 F508.00 
G01 X-14.4254 Y32.9841 
G01 X-14.3748 Y33.1397 
G01 X-14.3005 Y33.2856 
G01 X-14.2043 Y33.4180 
G01 X-14.0886 Y33.5337 
G01 X-13.9562 Y33.6299 
G01 X-13.8103 Y33.7042 
G01 X-13.6547 Y33.7548 
G01 X-13.4930 Y33.7804 
G01 X-13.3294 Y33.7804 
G01 X-13.1677 Y33.7548 
G01 X-13.0121 Y33.7042 
G01 X-12.8662 Y33.6299 
G01 X-12.7338 Y33.5337 
G01 X-12.6181 Y33.4180 
G01 X-12.5219 Y33.2856 
G01 X-12.4476 Y33.1397 
G01 X-12.3970 Y32.9841 
G01 X-12.3714 Y32.8224 
G01 X-12.3714 Y32.6588 
G01 X-12.3970 Y32.4971 
G01 X-12.4476 Y32.3415 
G01 X-12.5219 Y32.1956 
G01 X-12.6181 Y32.0632 
G01 X-12.7338 Y31.9475 
G01 X-12.8662 Y31.8513 
G01 X-13.0121 Y31.7770 
G01 X-13.1677 Y31.7264 
G01 X-13.3294 Y31.7008 
G01 X-13.4930 Y31.7008 
G01 X-13.6547 Y31.7264 
G01 X-13.8103 Y31.7770 
G01 X-13.9562 Y31.8513 
G01 X-14.0886 Y31.9475 
G01 X-14.2043 Y32.0632 
G01 X-14.3005 Y32.1956 
G01 X-14.3748 Y32.3415 
G01 X-14.4254 Y32.4971 
G01 X-14.4510 Y32.6588 
G00 Z2.0000 
G00 X-38.8985 Y3.7159 
G01 Z-0.0250 F254.00 
G01 X-38.8985 Y6.4441 F508.00 
G01 X-38.8651 Y6.6551 
G01 X-38.7991 Y6.8583 
G01 X-38.7021 Y7.0487 
G01 X-38.5765 Y7.2215 
G01 X-38.4254 Y7.3726 
G01 X-38.2526 Y7.4982 
G01 X-38.0622 Y7.5952 
G01 X-37.8590 Y7.6612 
G01 X-37.6480 Y7.6946 
G01 X-37.4344 Y7.6946 
G01 X-37.2234 Y7.6612 
G01 X-37.0202 Y7.5952 
G01 X-36.8298 Y7.4982 
G01 X-36.6570 Y7.3726 
G01 X-36.5059 Y7.2215 
G01 X-36.3803 Y7.0487 
G01 X-36.2833 Y6.8583 
G01 X-36.2173 Y6.6551 
G01 X-36.1839 Y6.4441 
G01 X-36.1839 Y3.7159 
G01 X-36.2173 Y3.5049 
G01 X-36.2833 Y3.3017 
G01 X-36.3803 Y3.1113 
G01 X-36.5059 Y2.9385 
G01 X-36.6570 Y2.7874 
G01 X-36.8298 Y2.6618 
G01 X-37.0202 Y2.5648 
G01 X-37.2234 Y2.4988 
G01 X-37.4344 Y2.4654 
G01 X-37.6480 Y2.4654 
G01 X-37.8590 Y2.4988 
G01 X-38.0622 Y2.5648 
G01 X-38.2526 Y2.6618 
G01 X-38.4254 Y2.7874 
G01 X-38.5765 Y2.9385 
G01 X-38.7021 Y3.1113 
G01 X-38.7991 Y3.3017 
G01 X-38.8651 Y3.5049 
G01 X-38.8985 Y3.7159 
G00 Z2.0000 
G00 X-32.6628 Y43.0901 
G01 Z-0.0250 F254.00 
G01 X-32.6628 Y43.2699 F508.00 
G01 X-32.6277 Y43.4463 
G01 X-32.5589 Y43.6124 
G01 X-32.4590 Y43.7619 
G01 X-32.3319 Y43.8890 
G01 X-32.1824 Y43.9889 
G01 X-32.0163 Y44.0577 
G01 X-31.8399 Y44.0928 
G01 X-31.6601 Y44.0928 
G01 X-31.4837 Y44.0577 
G01 X-31.3176 Y43.9889 
G01 X-31.1681 Y43.8890 
G01 X-31.0410 Y43.7619 
G01 X-30.9411 Y43.6124 
G01 X-30.8723 Y43.4463 
G01 X-30.8372 Y43.2699 
G01 X-30.8372 Y43.0901 
G01 X-30.8723 Y42.9137 
G01 X-30.9411 Y42.7476 
G01 X-31.0410 Y42.5981 
G01 X-31.1681 Y42.4710 
G01 X-31.3176 Y42.3711 
G01 X-31.4837 Y42.3023 
G01 X-31.6601 Y42.2672 
G01 X-31.8399 Y42.2672 
G01 X-32.0163 Y42.3023 
G01 X-32.1824 Y42.3711 
G01 X-32.3319 Y42.4710 
G01 X-32.4590 Y42.5981 
G01 X-32.5589 Y42.7476 
G01 X-32.6277 Y42.9137 
G01 X-32.6628 Y43.0901 
G00 Z2.0000 
G00 X-32.6628 Y40.5501 
G01 Z-0.0250 F254.00 
G01 X-32.6628 Y40.7299 F508.00 
G01 X-32.6277 Y40.9063 
G01 X-32.5589 Y41.0724 
G01 X-32.4590 Y41.2219 
G01 X-32.3319 Y41.3490 
G01 X-32.1824 Y41.4489 
G01 X-32.0163 Y41.5177 
G01 X-31.8399 Y41.5528 
G01 X-31.6601 Y41.5528 
G01 X-31.4837 Y41.5177 
G01 X-31.3176 Y41.4489 
G01 X-31.1681 Y41.3490 
G01 X-31.0410 Y41.2219 
G01 X-30.9411 Y41.0724 
G01 X-30.8723 Y40.9063 
G01 X-30.8372 Y40.7299 
G01 X-30.8372 Y40.5501 
G01 X-30.8723 Y40.3737 
G01 X-30.9411 Y40.2076 
G01 X-31.0410 Y40.0581 
G01 X-31.1681 Y39.9310 
G01 X-31.3176 Y39.8311 
G01 X-31.4837 Y39.7623 
G01 X-31.6601 Y39.7272 
G01 X-31.8399 Y39.7272 
G01 X-32.0163 Y39.7623 
G01 X-32.1824 Y39.8311 
G01 X-32.3319 Y39.9310 
G01 X-32.4590 Y40.0581 
G01 X-32.5589 Y40.2076 
G01 X-32.6277 Y40.3737 
G01 X-32.6628 Y40.5501 
G00 Z2.0000 
G00 X-19.9628 Y51.9801 
G01 Z-0.0250 F254.00 
G01 X-19.9628 Y52.1599 F508.00 
G01 X-19.9277 Y52.3363 
G01 X-19.8589 Y52.5024 
G01 X-19.7590 Y52.6519 
G01 X-19.6319 Y52.7790 
G01 X-19.4824 Y52.8789 
G01 X-19.3163 Y52.9477 
G01 X-19.1399 Y52.9828 
G01 X-18.9601 Y52.9828 
G01 X-18.7837 Y52.9477 
G01 X-18.6176 Y52.8789 
G01 X-18.4681 Y52.7790 
G01 X-18.3410 Y52.6519 
G01 X-18.2411 Y52.5024 
G01 X-18.1723 Y52.3363 
G01 X-18.1372 Y52.1599 
G01 X-18.1372 Y51.9801 
G01 X-18.1723 Y51.8037 
G01 X-18.2411 Y51.6376 
G01 X-18.3410 Y51.4881 
G01 X-18.4681 Y51.3610 
G01 X-18.6176 Y51.2611 
G01 X-18.7837 Y51.1923 
G01 X-18.9601 Y51.1572 
G01 X-19.1399 Y51.1572 
G01 X-19.3163 Y51.1923 
G01 X-19.4824 Y51.2611 
G01 X-19.6319 Y51.3610 
G01 X-19.7590 Y51.4881 
G01 X-19.8589 Y51.6376 
G01 X-19.9277 Y51.8037 
G01 X-19.9628 Y51.9801 
G00 Z2.0000 
G00 X-19.9628 Y49.4401 
G01 Z-0.0250 F254.00 
G01 X-19.9628 Y49.6199 F508.00 
G01 X-19.9277 Y49.7963 
G01 X-19.8589 Y49.9624 
G01 X-19.7590 Y50.1119 
G01 X-19.6319 Y50.2390 
G01 X-19.4824 Y50.3389 
G01 X-19.3163 Y50.4077 
G01 X-19.1399 Y50.4428 
G01 X-18.9601 Y50.4428 
G01 X-18.7837 Y50.4077 
G01 X-18.6176 Y50.3389 
G01 X-18.4681 Y50.2390 
G01 X-18.3410 Y50.1119 
G01 X-18.2411 Y49.9624 
G01 X-18.1723 Y49.7963 
G01 X-18.1372 Y49.6199 
G01 X-18.1372 Y49.4401 
G01 X-18.1723 Y49.2637 
G01 X-18.2411 Y49.0976 
G01 X-18.3410 Y48.9481 
G01 X-18.4681 Y48.8210 
G01 X-18.6176 Y48.7211 
G01 X-18.7837 Y48.6523 
G01 X-18.9601 Y48.6172 
G01 X-19.1399 Y48.6172 
G01 X-19.3163 Y48.6523 
G01 X-19.4824 Y48.7211 
G01 X-19.6319 Y48.8210 
G01 X-19.7590 Y48.9481 
G01 X-19.8589 Y49.0976 
G01 X-19.9277 Y49.2637 
G01 X-19.9628 Y49.4401 
G00 Z2.0000 
G00 X-19.9277 Y47.2563 
G01 Z-0.0250 F254.00 
G01 X-19.8589 Y47.4224 F508.00 
G01 X-19.7590 Y47.5719 
G01 X-19.6319 Y47.6990 
G01 X-19.4824 Y47.7989 
G01 X-19.3163 Y47.8677 
G01 X-19.1399 Y47.9028 
G01 X-18.9601 Y47.9028 
G01 X-18.7837 Y47.8677 
G01 X-18.6176 Y47.7989 
G01 X-18.4681 Y47.6990 
G01 X-18.3410 Y47.5719 
G01 X-18.2411 Y47.4224 
G01 X-18.1723 Y47.2563 
G01 X-18.1372 Y47.0799 
G01 X-18.1372 Y46.9001 
G01 X-18.1723 Y46.7237 
G01 X-18.2411 Y46.5576 
G01 X-18.3410 Y46.4081 
G01 X-18.4681 Y46.2810 
G01 X-18.6176 Y46.1811 
G01 X-18.7837 Y46.1123 
G01 X-18.9601 Y46.0772 
G01 X-19.1399 Y46.0772 
G01 X-19.3163 Y46.1123 
G01 X-19.4824 Y46.1811 
G01 X-19.6319 Y46.2810 
G01 X-19.7590 Y46.4081 
G01 X-19.8589 Y46.5576 
G01 X-19.9277 Y46.7237 
G01 X-19.9329 Y46.7500 
G01 X-33.4071 Y46.7500 
G01 X-33.4123 Y46.7237 
G01 X-33.4811 Y46.5576 
G01 X-33.5810 Y46.4081 
G01 X-33.7081 Y46.2810 
G01 X-33.8576 Y46.1811 
G01 X-34.0237 Y46.1123 
G01 X-34.2001 Y46.0772 
G01 X-34.3799 Y46.0772 
G01 X-34.5563 Y46.1123 
G01 X-34.7224 Y46.1811 
G01 X-34.8719 Y46.2810 
G01 X-34.9990 Y46.4081 
G01 X-35.0989 Y46.5576 
G01 X-35.1677 Y46.7237 
G01 X-35.2028 Y46.9001 
G01 X-35.2028 Y47.0799 
G01 X-35.1677 Y47.2563 
G01 X-35.0989 Y47.4224 
G01 X-34.9990 Y47.5719 
G01 X-34.8719 Y47.6990 
G01 X-34.7224 Y47.7989 
G01 X-34.5563 Y47.8677 
G01 X-34.3799 Y47.9028 
G01 X-34.2001 Y47.9028 
G01 X-34.0237 Y47.8677 
G01 X-33.8576 Y47.7989 
G01 X-33.7081 Y47.6990 
G01 X-33.5810 Y47.5719 
G01 X-33.4811 Y47.4224 
G01 X-33.4123 Y47.2563 
G01 X-33.4110 Y47.2500 
G01 X-19.9290 Y47.2500 
G01 X-19.9277 Y47.2563 
G00 Z2.0000 
G00 X-19.9628 Y44.3601 
G01 Z-0.0250 F254.00 
G01 X-19.9628 Y44.5399 F508.00 
G01 X-19.9277 Y44.7163 
G01 X-19.8589 Y44.8824 
G01 X-19.7590 Y45.0319 
G01 X-19.6319 Y45.1590 
G01 X-19.4824 Y45.2589 
G01 X-19.3163 Y45.3277 
G01 X-19.1399 Y45.3628 
G01 X-18.9601 Y45.3628 
G01 X-18.7837 Y45.3277 
G01 X-18.6176 Y45.2589 
G01 X-18.4681 Y45.1590 
G01 X-18.3410 Y45.0319 
G01 X-18.2411 Y44.8824 
G01 X-18.1723 Y44.7163 
G01 X-18.1372 Y44.5399 
G01 X-18.1372 Y44.3601 
G01 X-18.1723 Y44.1837 
G01 X-18.2411 Y44.0176 
G01 X-18.3410 Y43.8681 
G01 X-18.4681 Y43.7410 
G01 X-18.6176 Y43.6411 
G01 X-18.7837 Y43.5723 
G01 X-18.9601 Y43.5372 
G01 X-19.1399 Y43.5372 
G01 X-19.3163 Y43.5723 
G01 X-19.4824 Y43.6411 
G01 X-19.6319 Y43.7410 
G01 X-19.7590 Y43.8681 
G01 X-19.8589 Y44.0176 
G01 X-19.9277 Y44.1837 
G01 X-19.9628 Y44.3601 
G00 Z2.0000 
G00 X-19.9628 Y41.8201 
G01 Z-0.0250 F254.00 
G01 X-19.9628 Y41.9999 F508.00 
G01 X-19.9277 Y42.1763 
G01 X-19.8589 Y42.3424 
G01 X-19.7590 Y42.4919 
G01 X-19.6319 Y42.6190 
G01 X-19.4824 Y42.7189 
G01 X-19.3163 Y42.7877 
G01 X-19.1399 Y42.8228 
G01 X-18.9601 Y42.8228 
G01 X-18.7837 Y42.7877 
G01 X-18.6176 Y42.7189 
G01 X-18.4681 Y42.6190 
G01 X-18.3410 Y42.4919 
G01 X-18.2411 Y42.3424 
G01 X-18.1723 Y42.1763 
G01 X-18.1372 Y41.9999 
G01 X-18.1372 Y41.8201 
G01 X-18.1723 Y41.6437 
G01 X-18.2411 Y41.4776 
G01 X-18.3410 Y41.3281 
G01 X-18.4681 Y41.2010 
G01 X-18.6176 Y41.1011 
G01 X-18.7837 Y41.0323 
G01 X-18.9601 Y40.9972 
G01 X-19.1399 Y40.9972 
G01 X-19.3163 Y41.0323 
G01 X-19.4824 Y41.1011 
G01 X-19.6319 Y41.2010 
G01 X-19.7590 Y41.3281 
G01 X-19.8589 Y41.4776 
G01 X-19.9277 Y41.6437 
G01 X-19.9628 Y41.8201 
G00 Z2.0000 
G00 X-19.9628 Y39.2801 
G01 Z-0.0250 F254.00 
G01 X-19.9628 Y39.4599 F508.00 
G01 X-19.9277 Y39.6363 
G01 X-19.8589 Y39.8024 
G01 X-19.7590 Y39.9519 
G01 X-19.6319 Y40.0790 
G01 X-19.4824 Y40.1789 
G01 X-19.3163 Y40.2477 
G01 X-19.1399 Y40.2828 
G01 X-18.9601 Y40.2828 
G01 X-18.7837 Y40.2477 
G01 X-18.6176 Y40.1789 
G01 X-18.4681 Y40.0790 
G01 X-18.3410 Y39.9519 
G01 X-18.2411 Y39.8024 
G01 X-18.1723 Y39.6363 
G01 X-18.1372 Y39.4599 
G01 X-18.1372 Y39.2801 
G01 X-18.1723 Y39.1037 
G01 X-18.2411 Y38.9376 
G01 X-18.3410 Y38.7881 
G01 X-18.4681 Y38.6610 
G01 X-18.6176 Y38.5611 
G01 X-18.7837 Y38.4923 
G01 X-18.9601 Y38.4572 
G01 X-19.1399 Y38.4572 
G01 X-19.3163 Y38.4923 
G01 X-19.4824 Y38.5611 
G01 X-19.6319 Y38.6610 
G01 X-19.7590 Y38.7881 
G01 X-19.8589 Y38.9376 
G01 X-19.9277 Y39.1037 
G01 X-19.9628 Y39.2801 
G00 Z2.0000 
G00 X-19.9628 Y36.7401 
G01 Z-0.0250 F254.00 
G01 X-19.9628 Y36.9199 F508.00 
G01 X-19.9277 Y37.0963 
G01 X-19.8589 Y37.2624 
G01 X-19.7590 Y37.4119 
G01 X-19.6319 Y37.5390 
G01 X-19.4824 Y37.6389 
G01 X-19.3163 Y37.7077 
G01 X-19.1399 Y37.7428 
G01 X-18.9601 Y37.7428 
G01 X-18.7837 Y37.7077 
G01 X-18.6176 Y37.6389 
G01 X-18.4681 Y37.5390 
G01 X-18.3410 Y37.4119 
G01 X-18.2411 Y37.2624 
G01 X-18.1723 Y37.0963 
G01 X-18.1372 Y36.9199 
G01 X-18.1372 Y36.7401 
G01 X-18.1723 Y36.5637 
G01 X-18.2411 Y36.3976 
G01 X-18.3410 Y36.2481 
G01 X-18.4681 Y36.1210 
G01 X-18.6176 Y36.0211 
G01 X-18.7837 Y35.9523 
G01 X-18.9601 Y35.9172 
G01 X-19.1399 Y35.9172 
G01 X-19.3163 Y35.9523 
G01 X-19.4824 Y36.0211 
G01 X-19.6319 Y36.1210 
G01 X-19.7590 Y36.2481 
G01 X-19.8589 Y36.3976 
G01 X-19.9277 Y36.5637 
G01 X-19.9628 Y36.7401 
G00 Z2.0000 
G00 X-19.9628 Y34.2001 
G01 Z-0.0250 F254.00 
G01 X-19.9628 Y34.3799 F508.00 
G01 X-19.9277 Y34.5563 
G01 X-19.8589 Y34.7224 
G01 X-19.7590 Y34.8719 
G01 X-19.6319 Y34.9990 
G01 X-19.4824 Y35.0989 
G01 X-19.3163 Y35.1677 
G01 X-19.1399 Y35.2028 
G01 X-18.9601 Y35.2028 
G01 X-18.7837 Y35.1677 
G01 X-18.6176 Y35.0989 
G01 X-18.4681 Y34.9990 
G01 X-18.3410 Y34.8719 
G01 X-18.2411 Y34.7224 
G01 X-18.1723 Y34.5563 
G01 X-18.1372 Y34.3799 
G01 X-18.1372 Y34.2001 
G01 X-18.1723 Y34.0237 
G01 X-18.2411 Y33.8576 
G01 X-18.3410 Y33.7081 
G01 X-18.4681 Y33.5810 
G01 X-18.6176 Y33.4811 
G01 X-18.7837 Y33.4123 
G01 X-18.9601 Y33.3772 
G01 X-19.1399 Y33.3772 
G01 X-19.3163 Y33.4123 
G01 X-19.4824 Y33.4811 
G01 X-19.6319 Y33.5810 
G01 X-19.7590 Y33.7081 
G01 X-19.8589 Y33.8576 
G01 X-19.9277 Y34.0237 
G01 X-19.9628 Y34.2001 
G00 Z2.0000 
G00 X-19.9628 Y31.6601 
G01 Z-0.0250 F254.00 
G01 X-19.9628 Y31.8399 F508.00 
G01 X-19.9277 Y32.0163 
G01 X-19.8589 Y32.1824 
G01 X-19.7590 Y32.3319 
G01 X-19.6319 Y32.4590 
G01 X-19.4824 Y32.5589 
G01 X-19.3163 Y32.6277 
G01 X-19.1399 Y32.6628 
G01 X-18.9601 Y32.6628 
G01 X-18.7837 Y32.6277 
G01 X-18.6176 Y32.5589 
G01 X-18.4681 Y32.4590 
G01 X-18.3410 Y32.3319 
G01 X-18.2411 Y32.1824 
G01 X-18.1723 Y32.0163 
G01 X-18.1372 Y31.8399 
G01 X-18.1372 Y31.6601 
G01 X-18.1723 Y31.4837 
G01 X-18.2411 Y31.3176 
G01 X-18.3410 Y31.1681 
G01 X-18.4681 Y31.0410 
G01 X-18.6176 Y30.9411 
G01 X-18.7837 Y30.8723 
G01 X-18.9601 Y30.8372 
G01 X-19.1399 Y30.8372 
G01 X-19.3163 Y30.8723 
G01 X-19.4824 Y30.9411 
G01 X-19.6319 Y31.0410 
G01 X-19.7590 Y31.1681 
G01 X-19.8589 Y31.3176 
G01 X-19.9277 Y31.4837 
G01 X-19.9628 Y31.6601 
G00 Z2.0000 
G00 X-19.9628 Y29.1201 
G01 Z-0.0250 F254.00 
G01 X-19.9628 Y29.2999 F508.00 
G01 X-19.9277 Y29.4763 
G01 X-19.8589 Y29.6424 
G01 X-19.7590 Y29.7919 
G01 X-19.6319 Y29.9190 
G01 X-19.4824 Y30.0189 
G01 X-19.3163 Y30.0877 
G01 X-19.1399 Y30.1228 
G01 X-18.9601 Y30.1228 
G01 X-18.7837 Y30.0877 
G01 X-18.6176 Y30.0189 
G01 X-18.4681 Y29.9190 
G01 X-18.3410 Y29.7919 
G01 X-18.2411 Y29.6424 
G01 X-18.1723 Y29.4763 
G01 X-18.1372 Y29.2999 
G01 X-18.1372 Y29.1201 
G01 X-18.1723 Y28.9437 
G01 X-18.2411 Y28.7776 
G01 X-18.3410 Y28.6281 
G01 X-18.4681 Y28.5010 
G01 X-18.6176 Y28.4011 
G01 X-18.7837 Y28.3323 
G01 X-18.9601 Y28.2972 
G01 X-19.1399 Y28.2972 
G01 X-19.3163 Y28.3323 
G01 X-19.4824 Y28.4011 
G01 X-19.6319 Y28.5010 
G01 X-19.7590 Y28.6281 
G01 X-19.8589 Y28.7776 
G01 X-19.9277 Y28.9437 
G01 X-19.9628 Y29.1201 
G00 Z2.0000 
G00 X-19.9628 Y26.5801 
G01 Z-0.0250 F254.00 
G01 X-19.9628 Y26.7599 F508.00 
G01 X-19.9277 Y26.9363 
G01 X-19.8589 Y27.1024 
G01 X-19.7590 Y27.2519 
G01 X-19.6319 Y27.3790 
G01 X-19.4824 Y27.4789 
G01 X-19.3163 Y27.5477 
G01 X-19.1399 Y27.5828 
G01 X-18.9601 Y27.5828 
G01 X-18.7837 Y27.5477 
G01 X-18.6176 Y27.4789 
G01 X-18.4681 Y27.3790 
G01 X-18.3410 Y27.2519 
G01 X-18.2411 Y27.1024 
G01 X-18.1723 Y26.9363 
G01 X-18.1372 Y26.7599 
G01 X-18.1372 Y26.5801 
G01 X-18.1723 Y26.4037 
G01 X-18.2411 Y26.2376 
G01 X-18.3410 Y26.0881 
G01 X-18.4681 Y25.9610 
G01 X-18.6176 Y25.8611 
G01 X-18.7837 Y25.7923 
G01 X-18.9601 Y25.7572 
G01 X-19.1399 Y25.7572 
G01 X-19.3163 Y25.7923 
G01 X-19.4824 Y25.8611 
G01 X-19.6319 Y25.9610 
G01 X-19.7590 Y26.0881 
G01 X-19.8589 Y26.2376 
G01 X-19.9277 Y26.4037 
G01 X-19.9628 Y26.5801 
G00 Z2.0000 
G00 X-19.9628 Y24.0401 
G01 Z-0.0250 F254.00 
G01 X-19.9628 Y24.2199 F508.00 
G01 X-19.9277 Y24.3963 
G01 X-19.8589 Y24.5624 
G01 X-19.7590 Y24.7119 
G01 X-19.6319 Y24.8390 
G01 X-19.4824 Y24.9389 
G01 X-19.3163 Y25.0077 
G01 X-19.1399 Y25.0428 
G01 X-18.9601 Y25.0428 
G01 X-18.7837 Y25.0077 
G01 X-18.6176 Y24.9389 
G01 X-18.4681 Y24.8390 
G01 X-18.3410 Y24.7119 
G01 X-18.2411 Y24.5624 
G01 X-18.1723 Y24.3963 
G01 X-18.1372 Y24.2199 
G01 X-18.1372 Y24.0401 
G01 X-18.1723 Y23.8637 
G01 X-18.2411 Y23.6976 
G01 X-18.3410 Y23.5481 
G01 X-18.4681 Y23.4210 
G01 X-18.6176 Y23.3211 
G01 X-18.7837 Y23.2523 
G01 X-18.9601 Y23.2172 
G01 X-19.1399 Y23.2172 
G01 X-19.3163 Y23.2523 
G01 X-19.4824 Y23.3211 
G01 X-19.6319 Y23.4210 
G01 X-19.7590 Y23.5481 
G01 X-19.8589 Y23.6976 
G01 X-19.9277 Y23.8637 
G01 X-19.9628 Y24.0401 
G00 Z2.0000 
G00 X-35.2028 Y24.0401 
G01 Z-0.0250 F254.00 
G01 X-35.2028 Y24.2199 F508.00 
G01 X-35.1677 Y24.3963 
G01 X-35.0989 Y24.5624 
G01 X-34.9990 Y24.7119 
G01 X-34.8719 Y24.8390 
G01 X-34.7224 Y24.9389 
G01 X-34.5563 Y25.0077 
G01 X-34.3799 Y25.0428 
G01 X-34.2001 Y25.0428 
G01 X-34.0237 Y25.0077 
G01 X-33.8576 Y24.9389 
G01 X-33.7081 Y24.8390 
G01 X-33.5810 Y24.7119 
G01 X-33.4811 Y24.5624 
G01 X-33.4123 Y24.3963 
G01 X-33.3832 Y24.2500 
G01 X-28.8045 Y24.2500 
G01 X-28.7888 Y24.2880 
G01 X-28.7223 Y24.3876 
G01 X-28.6376 Y24.4723 
G01 X-28.5380 Y24.5388 
G01 X-28.4273 Y24.5846 
G01 X-28.3099 Y24.6080 
G01 X-28.1901 Y24.6080 
G01 X-28.0727 Y24.5846 
G01 X-27.9620 Y24.5388 
G01 X-27.8624 Y24.4723 
G01 X-27.7777 Y24.3876 
G01 X-27.7112 Y24.2880 
G01 X-27.6654 Y24.1773 
G01 X-27.6420 Y24.0599 
G01 X-27.6420 Y23.9401 
G01 X-27.6654 Y23.8226 
G01 X-27.7112 Y23.7120 
G01 X-27.7777 Y23.6124 
G01 X-27.8624 Y23.5277 
G01 X-27.9620 Y23.4612 
G01 X-28.0727 Y23.4154 
G01 X-28.1901 Y23.3920 
G01 X-28.3099 Y23.3920 
G01 X-28.4273 Y23.4154 
G01 X-28.5380 Y23.4612 
G01 X-28.6376 Y23.5277 
G01 X-28.7223 Y23.6124 
G01 X-28.7888 Y23.7120 
G01 X-28.8045 Y23.7500 
G01 X-33.4594 Y23.7500 
G01 X-33.4811 Y23.6976 
G01 X-33.5810 Y23.5481 
G01 X-33.7081 Y23.4210 
G01 X-33.8576 Y23.3211 
G01 X-34.0237 Y23.2523 
G01 X-34.2001 Y23.2172 
G01 X-34.3799 Y23.2172 
G01 X-34.5563 Y23.2523 
G01 X-34.7224 Y23.3211 
G01 X-34.8719 Y23.4210 
G01 X-34.9990 Y23.5481 
G01 X-35.0989 Y23.6976 
G01 X-35.1677 Y23.8637 
G01 X-35.2028 Y24.0401 
G00 Z2.0000 
G00 X-35.2028 Y26.5801 
G01 Z-0.0250 F254.00 
G01 X-35.2028 Y26.7599 F508.00 
G01 X-35.1677 Y26.9363 
G01 X-35.0989 Y27.1024 
G01 X-34.9990 Y27.2519 
G01 X-34.8719 Y27.3790 
G01 X-34.7224 Y27.4789 
G01 X-34.5563 Y27.5477 
G01 X-34.3799 Y27.5828 
G01 X-34.2001 Y27.5828 
G01 X-34.0237 Y27.5477 
G01 X-33.8576 Y27.4789 
G01 X-33.7081 Y27.3790 
G01 X-33.5810 Y27.2519 
G01 X-33.4811 Y27.1024 
G01 X-33.4123 Y26.9363 
G01 X-33.3772 Y26.7599 
G01 X-33.3772 Y26.5801 
G01 X-33.4123 Y26.4037 
G01 X-33.4811 Y26.2376 
G01 X-33.5810 Y26.0881 
G01 X-33.7081 Y25.9610 
G01 X-33.8576 Y25.8611 
G01 X-34.0237 Y25.7923 
G01 X-34.2001 Y25.7572 
G01 X-34.3799 Y25.7572 
G01 X-34.5563 Y25.7923 
G01 X-34.7224 Y25.8611 
G01 X-34.8719 Y25.9610 
G01 X-34.9990 Y26.0881 
G01 X-35.0989 Y26.2376 
G01 X-35.1677 Y26.4037 
G01 X-35.2028 Y26.5801 
G00 Z2.0000 
G00 X-35.2028 Y29.1201 
G01 Z-0.0250 F254.00 
G01 X-35.2028 Y29.2999 F508.00 
G01 X-35.1677 Y29.4763 
G01 X-35.0989 Y29.6424 
G01 X-34.9990 Y29.7919 
G01 X-34.8719 Y29.9190 
G01 X-34.7224 Y30.0189 
G01 X-34.5563 Y30.0877 
G01 X-34.3799 Y30.1228 
G01 X-34.2001 Y30.1228 
G01 X-34.0237 Y30.0877 
G01 X-33.8576 Y30.0189 
G01 X-33.7081 Y29.9190 
G01 X-33.5810 Y29.7919 
G01 X-33.4811 Y29.6424 
G01 X-33.4123 Y29.4763 
G01 X-33.3772 Y29.2999 
G01 X-33.3772 Y29.1201 
G01 X-33.4123 Y28.9437 
G01 X-33.4811 Y28.7776 
G01 X-33.5810 Y28.6281 
G01 X-33.7081 Y28.5010 
G01 X-33.8576 Y28.4011 
G01 X-34.0237 Y28.3323 
G01 X-34.2001 Y28.2972 
G01 X-34.3799 Y28.2972 
G01 X-34.5563 Y28.3323 
G01 X-34.7224 Y28.4011 
G01 X-34.8719 Y28.5010 
G01 X-34.9990 Y28.6281 
G01 X-35.0989 Y28.7776 
G01 X-35.1677 Y28.9437 
G01 X-35.2028 Y29.1201 
G00 Z2.0000 
G00 X-35.2028 Y31.6601 
G01 Z-0.0250 F254.00 
G01 X-35.2028 Y31.8399 F508.00 
G01 X-35.1677 Y32.0163 
G01 X-35.0989 Y32.1824 
G01 X-34.9990 Y32.3319 
G01 X-34.8719 Y32.4590 
G01 X-34.7224 Y32.5589 
G01 X-34.5563 Y32.6277 
G01 X-34.3799 Y32.6628 
G01 X-34.2001 Y32.6628 
G01 X-34.0237 Y32.6277 
G01 X-33.8576 Y32.5589 
G01 X-33.7081 Y32.4590 
G01 X-33.5810 Y32.3319 
G01 X-33.4811 Y32.1824 
G01 X-33.4123 Y32.0163 
G01 X-33.3772 Y31.8399 
G01 X-33.3772 Y31.6601 
G01 X-33.4123 Y31.4837 
G01 X-33.4761 Y31.3297 
G01 X-32.8964 Y30.7500 
G01 X-9.2003 Y30.7500 
G01 X-9.1084 Y30.7119 
G01 X-9.0381 Y30.6416 
G01 X-7.4835 Y29.0871 
G01 X-7.4538 Y29.1087 
G01 X-7.3079 Y29.1830 
G01 X-7.1523 Y29.2336 
G01 X-6.9906 Y29.2592 
G01 X-6.8270 Y29.2592 
G01 X-6.6653 Y29.2336 
G01 X-6.5097 Y29.1830 
G01 X-6.3638 Y29.1087 
G01 X-6.2314 Y29.0125 
G01 X-6.1157 Y28.8968 
G01 X-6.0195 Y28.7644 
G01 X-5.9452 Y28.6185 
G01 X-5.8946 Y28.4629 
G01 X-5.8690 Y28.3012 
G01 X-5.8690 Y28.1376 
G01 X-5.8946 Y27.9759 
G01 X-5.9452 Y27.8203 
G01 X-6.0195 Y27.6744 
G01 X-6.1157 Y27.5420 
G01 X-6.2314 Y27.4263 
G01 X-6.3638 Y27.3301 
G01 X-6.5097 Y27.2558 
G01 X-6.6653 Y27.2052 
G01 X-6.8270 Y27.1796 
G01 X-6.9906 Y27.1796 
G01 X-7.1523 Y27.2052 
G01 X-7.3079 Y27.2558 
G01 X-7.4538 Y27.3301 
G01 X-7.5862 Y27.4263 
G01 X-7.7019 Y27.5420 
G01 X-7.7981 Y27.6744 
G01 X-7.8724 Y27.8203 
G01 X-7.9230 Y27.9759 
G01 X-7.9486 Y28.1376 
G01 X-7.9486 Y28.3012 
G01 X-7.9230 Y28.4629 
G01 X-7.8724 Y28.6185 
G01 X-7.8217 Y28.7181 
G01 X-9.3536 Y30.2500 
G01 X-33.0497 Y30.2500 
G01 X-33.1416 Y30.2881 
G01 X-33.8199 Y30.9663 
G01 X-33.8576 Y30.9411 
G01 X-34.0237 Y30.8723 
G01 X-34.2001 Y30.8372 
G01 X-34.3799 Y30.8372 
G01 X-34.5563 Y30.8723 
G01 X-34.7224 Y30.9411 
G01 X-34.8719 Y31.0410 
G01 X-34.9990 Y31.1681 
G01 X-35.0989 Y31.3176 
G01 X-35.1677 Y31.4837 
G01 X-35.2028 Y31.6601 
G00 Z2.0000 
G00 X-35.2028 Y34.2001 
G01 Z-0.0250 F254.00 
G01 X-35.2028 Y34.3799 F508.00 
G01 X-35.1677 Y34.5563 
G01 X-35.0989 Y34.7224 
G01 X-34.9990 Y34.8719 
G01 X-34.8719 Y34.9990 
G01 X-34.7224 Y35.0989 
G01 X-34.5563 Y35.1677 
G01 X-34.3799 Y35.2028 
G01 X-34.2001 Y35.2028 
G01 X-34.0237 Y35.1677 
G01 X-33.8576 Y35.0989 
G01 X-33.7081 Y34.9990 
G01 X-33.5810 Y34.8719 
G01 X-33.4811 Y34.7224 
G01 X-33.4123 Y34.5563 
G01 X-33.3772 Y34.3799 
G01 X-33.3772 Y34.2001 
G01 X-33.4123 Y34.0237 
G01 X-33.4811 Y33.8576 
G01 X-33.5810 Y33.7081 
G01 X-33.7081 Y33.5810 
G01 X-33.8576 Y33.4811 
G01 X-34.0237 Y33.4123 
G01 X-34.2001 Y33.3772 
G01 X-34.3799 Y33.3772 
G01 X-34.5563 Y33.4123 
G01 X-34.7224 Y33.4811 
G01 X-34.8719 Y33.5810 
G01 X-34.9990 Y33.7081 
G01 X-35.0989 Y33.8576 
G01 X-35.1677 Y34.0237 
G01 X-35.2028 Y34.2001 
G00 Z2.0000 
G00 X-35.2028 Y39.2801 
G01 Z-0.0250 F254.00 
G01 X-35.2028 Y39.4599 F508.00 
G01 X-35.1677 Y39.6363 
G01 X-35.0989 Y39.8024 
G01 X-34.9990 Y39.9519 
G01 X-34.8719 Y40.0790 
G01 X-34.7224 Y40.1789 
G01 X-34.5563 Y40.2477 
G01 X-34.3799 Y40.2828 
G01 X-34.2001 Y40.2828 
G01 X-34.0237 Y40.2477 
G01 X-33.8576 Y40.1789 
G01 X-33.7081 Y40.0790 
G01 X-33.5810 Y39.9519 
G01 X-33.4811 Y39.8024 
G01 X-33.4123 Y39.6363 
G01 X-33.3772 Y39.4599 
G01 X-33.3772 Y39.2801 
G01 X-33.4123 Y39.1037 
G01 X-33.4811 Y38.9376 
G01 X-33.5810 Y38.7881 
G01 X-33.7081 Y38.6610 
G01 X-33.8576 Y38.5611 
G01 X-34.0237 Y38.4923 
G01 X-34.2001 Y38.4572 
G01 X-34.3799 Y38.4572 
G01 X-34.5563 Y38.4923 
G01 X-34.7224 Y38.5611 
G01 X-34.8719 Y38.6610 
G01 X-34.9990 Y38.7881 
G01 X-35.0989 Y38.9376 
G01 X-35.1677 Y39.1037 
G01 X-35.2028 Y39.2801 
G00 Z2.0000 
G00 X-35.2028 Y41.8201 
G01 Z-0.0250 F254.00 
G01 X-35.2028 Y41.9999 F508.00 
G01 X-35.1677 Y42.1763 
G01 X-35.0989 Y42.3424 
G01 X-34.9990 Y42.4919 
G01 X-34.8719 Y42.6190 
G01 X-34.7224 Y42.7189 
G01 X-34.5563 Y42.7877 
G01 X-34.3799 Y42.8228 
G01 X-34.2808 Y42.8228 
G01 X-32.3916 Y44.7119 
G01 X-32.2997 Y44.7500 
G01 X-24.1080 Y44.7500 
G01 X-24.1080 Y44.8099 
G01 X-24.0846 Y44.9273 
G01 X-24.0388 Y45.0380 
G01 X-23.9723 Y45.1376 
G01 X-23.8876 Y45.2223 
G01 X-23.7880 Y45.2888 
G01 X-23.6773 Y45.3346 
G01 X-23.5599 Y45.3580 
G01 X-23.4401 Y45.3580 
G01 X-23.3226 Y45.3346 
G01 X-23.2120 Y45.2888 
G01 X-23.1124 Y45.2223 
G01 X-23.0277 Y45.1376 
G01 X-22.9612 Y45.0380 
G01 X-22.9154 Y44.9273 
G01 X-22.8920 Y44.8099 
G01 X-22.8920 Y44.6901 
G01 X-22.9154 Y44.5727 
G01 X-22.9612 Y44.4620 
G01 X-23.0277 Y44.3624 
G01 X-23.1124 Y44.2777 
G01 X-23.2120 Y44.2112 
G01 X-23.3226 Y44.1654 
G01 X-23.4401 Y44.1420 
G01 X-23.5599 Y44.1420 
G01 X-23.6773 Y44.1654 
G01 X-23.7880 Y44.2112 
G01 X-23.8461 Y44.2500 
G01 X-32.1464 Y44.2500 
G01 X-33.7497 Y42.6468 
G01 X-33.7081 Y42.6190 
G01 X-33.5810 Y42.4919 
G01 X-33.4811 Y42.3424 
G01 X-33.4123 Y42.1763 
G01 X-33.3772 Y41.9999 
G01 X-33.3772 Y41.8201 
G01 X-33.4123 Y41.6437 
G01 X-33.4811 Y41.4776 
G01 X-33.5810 Y41.3281 
G01 X-33.7081 Y41.2010 
G01 X-33.8576 Y41.1011 
G01 X-34.0237 Y41.0323 
G01 X-34.2001 Y40.9972 
G01 X-34.3799 Y40.9972 
G01 X-34.5563 Y41.0323 
G01 X-34.7224 Y41.1011 
G01 X-34.8719 Y41.2010 
G01 X-34.9990 Y41.3281 
G01 X-35.0989 Y41.4776 
G01 X-35.1677 Y41.6437 
G01 X-35.2028 Y41.8201 
G00 Z2.0000 
G00 X-35.0989 Y44.8824 
G01 Z-0.0250 F254.00 
G01 X-34.9990 Y45.0319 F508.00 
G01 X-34.8719 Y45.1590 
G01 X-34.7224 Y45.2589 
G01 X-34.5563 Y45.3277 
G01 X-34.3799 Y45.3628 
G01 X-34.2001 Y45.3628 
G01 X-34.0237 Y45.3277 
G01 X-33.8576 Y45.2589 
G01 X-33.8498 Y45.2537 
G01 X-33.1416 Y45.9619 
G01 X-33.0497 Y46.0000 
G01 X-17.7003 Y46.0000 
G01 X-17.6084 Y45.9619 
G01 X-17.5381 Y45.8916 
G01 X-17.5000 Y45.7997 
G01 X-17.5000 Y43.6036 
G01 X-7.4958 Y33.5994 
G01 X-7.4538 Y33.6299 
G01 X-7.3079 Y33.7042 
G01 X-7.1523 Y33.7548 
G01 X-6.9906 Y33.7804 
G01 X-6.8270 Y33.7804 
G01 X-6.6653 Y33.7548 
G01 X-6.5097 Y33.7042 
G01 X-6.3638 Y33.6299 
G01 X-6.2314 Y33.5337 
G01 X-6.1157 Y33.4180 
G01 X-6.0195 Y33.2856 
G01 X-5.9452 Y33.1397 
G01 X-5.8946 Y32.9841 
G01 X-5.8690 Y32.8224 
G01 X-5.8690 Y32.6588 
G01 X-5.8946 Y32.4971 
G01 X-5.9452 Y32.3415 
G01 X-6.0195 Y32.1956 
G01 X-6.1157 Y32.0632 
G01 X-6.2314 Y31.9475 
G01 X-6.3638 Y31.8513 
G01 X-6.5097 Y31.7770 
G01 X-6.6653 Y31.7264 
G01 X-6.8270 Y31.7008 
G01 X-6.9906 Y31.7008 
G01 X-7.1523 Y31.7264 
G01 X-7.3079 Y31.7770 
G01 X-7.4538 Y31.8513 
G01 X-7.5862 Y31.9475 
G01 X-7.7019 Y32.0632 
G01 X-7.7981 Y32.1956 
G01 X-7.8724 Y32.3415 
G01 X-7.9230 Y32.4971 
G01 X-7.9486 Y32.6588 
G01 X-7.9486 Y32.8224 
G01 X-7.9230 Y32.9841 
G01 X-7.8724 Y33.1397 
G01 X-7.8288 Y33.2253 
G01 X-17.8916 Y43.2881 
G01 X-17.9619 Y43.3584 
G01 X-18.0000 Y43.4503 
G01 X-18.0000 Y45.5000 
G01 X-32.8964 Y45.5000 
G01 X-33.4943 Y44.9021 
G01 X-33.4811 Y44.8824 
G01 X-33.4123 Y44.7163 
G01 X-33.3772 Y44.5399 
G01 X-33.3772 Y44.3601 
G01 X-33.4123 Y44.1837 
G01 X-33.4811 Y44.0176 
G01 X-33.5810 Y43.8681 
G01 X-33.7081 Y43.7410 
G01 X-33.8576 Y43.6411 
G01 X-34.0237 Y43.5723 
G01 X-34.2001 Y43.5372 
G01 X-34.3799 Y43.5372 
G01 X-34.5563 Y43.5723 
G01 X-34.7224 Y43.6411 
G01 X-34.8719 Y43.7410 
G01 X-34.9990 Y43.8681 
G01 X-35.0989 Y44.0176 
G01 X-35.1677 Y44.1837 
G01 X-35.1809 Y44.2500 
G01 X-38.9363 Y44.2500 
G01 X-38.9495 Y44.1837 
G01 X-39.0183 Y44.0176 
G01 X-39.1182 Y43.8681 
G01 X-39.2453 Y43.7410 
G01 X-39.3948 Y43.6411 
G01 X-39.5609 Y43.5723 
G01 X-39.7373 Y43.5372 
G01 X-41.5427 Y43.5372 
G01 X-41.7191 Y43.5723 
G01 X-41.8852 Y43.6411 
G01 X-42.0347 Y43.7410 
G01 X-42.1618 Y43.8681 
G01 X-42.2617 Y44.0176 
G01 X-42.3305 Y44.1837 
G01 X-42.3656 Y44.3601 
G01 X-42.3656 Y44.5399 
G01 X-42.3305 Y44.7163 
G01 X-42.2617 Y44.8824 
G01 X-42.1618 Y45.0319 
G01 X-42.0347 Y45.1590 
G01 X-41.8852 Y45.2589 
G01 X-41.7191 Y45.3277 
G01 X-41.5427 Y45.3628 
G01 X-39.7373 Y45.3628 
G01 X-39.5609 Y45.3277 
G01 X-39.3948 Y45.2589 
G01 X-39.2453 Y45.1590 
G01 X-39.1182 Y45.0319 
G01 X-39.0183 Y44.8824 
G01 X-38.9635 Y44.7500 
G01 X-35.1537 Y44.7500 
G01 X-35.0989 Y44.8824 
G00 Z2.0000 
G00 X-35.1677 Y49.7963 
G01 Z-0.0250 F254.00 
G01 X-35.0989 Y49.9624 F508.00 
G01 X-34.9990 Y50.1119 
G01 X-34.8719 Y50.2390 
G01 X-34.7224 Y50.3389 
G01 X-34.5563 Y50.4077 
G01 X-34.3799 Y50.4428 
G01 X-34.2001 Y50.4428 
G01 X-34.0237 Y50.4077 
G01 X-33.8576 Y50.3389 
G01 X-33.7081 Y50.2390 
G01 X-33.5810 Y50.1119 
G01 X-33.4811 Y49.9624 
G01 X-33.4123 Y49.7963 
G01 X-33.3772 Y49.6199 
G01 X-33.3772 Y49.4401 
G01 X-33.4123 Y49.2637 
G01 X-33.4811 Y49.0976 
G01 X-33.5810 Y48.9481 
G01 X-33.7081 Y48.8210 
G01 X-33.8576 Y48.7211 
G01 X-34.0237 Y48.6523 
G01 X-34.2001 Y48.6172 
G01 X-34.3799 Y48.6172 
G01 X-34.5563 Y48.6523 
G01 X-34.7224 Y48.7211 
G01 X-34.8719 Y48.8210 
G01 X-34.9990 Y48.9481 
G01 X-35.0989 Y49.0976 
G01 X-35.1620 Y49.2500 
G01 X-37.8964 Y49.2500 
G01 X-39.3665 Y47.7800 
G01 X-39.2453 Y47.6990 
G01 X-39.1182 Y47.5719 
G01 X-39.0183 Y47.4224 
G01 X-38.9495 Y47.2563 
G01 X-38.9144 Y47.0799 
G01 X-38.9144 Y46.9001 
G01 X-38.9495 Y46.7237 
G01 X-39.0183 Y46.5576 
G01 X-39.1182 Y46.4081 
G01 X-39.2453 Y46.2810 
G01 X-39.3948 Y46.1811 
G01 X-39.5609 Y46.1123 
G01 X-39.7373 Y46.0772 
G01 X-41.5427 Y46.0772 
G01 X-41.7191 Y46.1123 
G01 X-41.8852 Y46.1811 
G01 X-42.0347 Y46.2810 
G01 X-42.1618 Y46.4081 
G01 X-42.2617 Y46.5576 
G01 X-42.3305 Y46.7237 
G01 X-42.3656 Y46.9001 
G01 X-42.3656 Y47.0799 
G01 X-42.3305 Y47.2563 
G01 X-42.2617 Y47.4224 
G01 X-42.1618 Y47.5719 
G01 X-42.0347 Y47.6990 
G01 X-41.8852 Y47.7989 
G01 X-41.7191 Y47.8677 
G01 X-41.5427 Y47.9028 
G01 X-39.9508 Y47.9028 
G01 X-38.2119 Y49.6416 
G01 X-38.1416 Y49.7119 
G01 X-38.0497 Y49.7500 
G01 X-35.1769 Y49.7500 
G01 X-35.1677 Y49.7963 
G00 Z2.0000 
G00 X-35.2028 Y51.9801 
G01 Z-0.0250 F254.00 
G01 X-35.2028 Y52.1599 F508.00 
G01 X-35.1677 Y52.3363 
G01 X-35.0989 Y52.5024 
G01 X-34.9990 Y52.6519 
G01 X-34.8719 Y52.7790 
G01 X-34.7224 Y52.8789 
G01 X-34.5563 Y52.9477 
G01 X-34.3799 Y52.9828 
G01 X-34.2001 Y52.9828 
G01 X-34.0237 Y52.9477 
G01 X-33.8576 Y52.8789 
G01 X-33.7081 Y52.7790 
G01 X-33.5810 Y52.6519 
G01 X-33.4811 Y52.5024 
G01 X-33.4123 Y52.3363 
G01 X-33.3772 Y52.1599 
G01 X-33.3772 Y51.9801 
G01 X-33.4123 Y51.8037 
G01 X-33.4811 Y51.6376 
G01 X-33.5810 Y51.4881 
G01 X-33.7081 Y51.3610 
G01 X-33.8576 Y51.2611 
G01 X-34.0237 Y51.1923 
G01 X-34.2001 Y51.1572 
G01 X-34.3799 Y51.1572 
G01 X-34.5563 Y51.1923 
G01 X-34.7224 Y51.2611 
G01 X-34.8719 Y51.3610 
G01 X-34.9990 Y51.4881 
G01 X-35.0989 Y51.6376 
G01 X-35.1677 Y51.8037 
G01 X-35.2028 Y51.9801 
G00 Z2.0000 
G00 X-5.0205 Y39.5348 
G01 Z-0.0250 F254.00 
G01 X-3.7979 Y39.5348 F508.00 
G01 X-4.3908 Y40.4241 
G01 X-4.4063 Y40.5028 
G01 X-4.3906 Y40.5814 
G01 X-4.3460 Y40.6481 
G01 X-4.2793 Y40.6926 
G01 X-4.2006 Y40.7081 
G01 X-4.1219 Y40.6924 
G01 X-4.0553 Y40.6478 
G01 X-3.4212 Y39.6966 
G01 X-2.7871 Y40.6478 
G01 X-2.7205 Y40.6924 
G01 X-2.6418 Y40.7081 
G01 X-2.5631 Y40.6926 
G01 X-2.4964 Y40.6481 
G01 X-2.4518 Y40.5814 
G01 X-2.4361 Y40.5028 
G01 X-2.4516 Y40.4241 
G01 X-3.0445 Y39.5348 
G01 X-2.6015 Y39.5348 
G01 X-2.5274 Y39.5041 
G01 X-2.4707 Y39.4474 
G01 X-2.4400 Y39.3733 
G01 X-2.4400 Y39.2931 
G01 X-2.4707 Y39.2190 
G01 X-2.5274 Y39.1623 
G01 X-2.6015 Y39.1316 
G01 X-3.4012 Y39.1316 
G01 X-3.4210 Y39.1276 
G01 X-3.4412 Y39.1316 
G01 X-5.0205 Y39.1316 
G01 X-5.0946 Y39.1623 
G01 X-5.1513 Y39.2190 
G01 X-5.1820 Y39.2931 
G01 X-5.1820 Y39.3733 
G01 X-5.1513 Y39.4474 
G01 X-5.0946 Y39.5041 
G01 X-5.0205 Y39.5348 
G00 Z2.0000 
G00 X-4.9403 Y37.9622 
G01 Z-0.0250 F254.00 
G01 X-5.4103 Y37.9622 F508.00 
G01 X-5.4844 Y37.9929 
G01 X-5.5411 Y38.0496 
G01 X-5.5718 Y38.1237 
G01 X-5.5718 Y38.2039 
G01 X-5.5411 Y38.2780 
G01 X-5.4844 Y38.3347 
G01 X-5.4103 Y38.3654 
G01 X-4.9403 Y38.3654 
G01 X-4.8662 Y38.3347 
G01 X-4.8095 Y38.2780 
G01 X-4.7788 Y38.2039 
G01 X-4.7788 Y38.1237 
G01 X-4.8095 Y38.0496 
G01 X-4.8662 Y37.9929 
G01 X-4.9403 Y37.9622 
G00 Z2.0000 
G00 X-3.9992 Y37.7339 
G01 Z-0.0250 F254.00 
G01 X-4.0299 Y37.6598 F508.00 
G01 X-4.0866 Y37.6031 
G01 X-4.1607 Y37.5724 
G01 X-4.2409 Y37.5724 
G01 X-4.3150 Y37.6031 
G01 X-4.3717 Y37.6598 
G01 X-4.4024 Y37.7339 
G01 X-4.4024 Y38.2039 
G01 X-4.3717 Y38.2780 
G01 X-4.3150 Y38.3347 
G01 X-4.2409 Y38.3654 
G01 X-2.8432 Y38.3654 
G01 X-2.8432 Y38.5937 
G01 X-2.8125 Y38.6678 
G01 X-2.7558 Y38.7245 
G01 X-2.6817 Y38.7552 
G01 X-2.6015 Y38.7552 
G01 X-2.5274 Y38.7245 
G01 X-2.4707 Y38.6678 
G01 X-2.4400 Y38.5937 
G01 X-2.4400 Y37.7339 
G01 X-2.4707 Y37.6598 
G01 X-2.5274 Y37.6031 
G01 X-2.6015 Y37.5724 
G01 X-2.6817 Y37.5724 
G01 X-2.7558 Y37.6031 
G01 X-2.8125 Y37.6598 
G01 X-2.8432 Y37.7339 
G01 X-2.8432 Y37.9622 
G01 X-3.9992 Y37.9622 
G01 X-3.9992 Y37.7339 
G00 Z2.0000 
G00 X-4.6307 Y36.4030 
G01 Z-0.0250 F254.00 
G01 X-4.7048 Y36.4337 F508.00 
G01 X-4.7615 Y36.4904 
G01 X-4.7922 Y36.5645 
G01 X-4.7922 Y36.6447 
G01 X-4.7615 Y36.7188 
G01 X-4.7048 Y36.7755 
G01 X-4.6307 Y36.8062 
G01 X-4.4024 Y36.8062 
G01 X-4.4024 Y37.0345 
G01 X-4.3717 Y37.1086 
G01 X-4.3150 Y37.1653 
G01 X-4.2409 Y37.1960 
G01 X-4.1607 Y37.1960 
G01 X-4.0866 Y37.1653 
G01 X-4.0299 Y37.1086 
G01 X-3.9992 Y37.0345 
G01 X-3.9992 Y36.8062 
G01 X-3.1149 Y36.8062 
G01 X-2.7558 Y37.1653 
G01 X-2.6817 Y37.1960 
G01 X-2.6015 Y37.1960 
G01 X-2.5274 Y37.1653 
G01 X-2.4707 Y37.1086 
G01 X-2.4400 Y37.0345 
G01 X-2.4400 Y36.9543 
G01 X-2.4707 Y36.8802 
G01 X-2.8605 Y36.4904 
G01 X-2.9138 Y36.4371 
G01 X-2.9172 Y36.4337 
G01 X-2.9913 Y36.4030 
G01 X-3.9992 Y36.4030 
G01 X-3.9992 Y36.1747 
G01 X-4.0299 Y36.1006 
G01 X-4.0866 Y36.0439 
G01 X-4.1607 Y36.0132 
G01 X-4.2409 Y36.0132 
G01 X-4.3150 Y36.0439 
G01 X-4.3717 Y36.1006 
G01 X-4.4024 Y36.1747 
G01 X-4.4024 Y36.4030 
G01 X-4.6307 Y36.4030 
G00 Z2.0000 
G00 X-3.9992 Y34.2257 
G01 Z-0.0250 F254.00 
G01 X-4.0299 Y34.1516 F508.00 
G01 X-4.0866 Y34.0949 
G01 X-4.1607 Y34.0642 
G01 X-4.2409 Y34.0642 
G01 X-4.3150 Y34.0949 
G01 X-4.3717 Y34.1516 
G01 X-4.4024 Y34.2257 
G01 X-4.4024 Y35.0855 
G01 X-4.3717 Y35.1596 
G01 X-3.9819 Y35.5494 
G01 X-3.9252 Y35.6061 
G01 X-3.8511 Y35.6368 
G01 X-2.6015 Y35.6368 
G01 X-2.5274 Y35.6061 
G01 X-2.4707 Y35.5494 
G01 X-2.4400 Y35.4753 
G01 X-2.4400 Y34.2257 
G01 X-2.4707 Y34.1516 
G01 X-2.9172 Y33.7051 
G01 X-2.9913 Y33.6744 
G01 X-3.0715 Y33.6744 
G01 X-3.1456 Y33.7051 
G01 X-3.2023 Y33.7618 
G01 X-3.5354 Y34.0949 
G01 X-3.5921 Y34.1516 
G01 X-3.6228 Y34.2257 
G01 X-3.6228 Y35.2336 
G01 X-3.7275 Y35.2336 
G01 X-3.9992 Y34.9619 
G01 X-3.9992 Y34.2257 
G00 Z2.0000 
G00 X-2.6015 Y31.7388 
G01 Z-0.0250 F254.00 
G01 X-2.5274 Y31.7081 F508.00 
G01 X-2.4707 Y31.6514 
G01 X-2.4400 Y31.5773 
G01 X-2.4400 Y31.4971 
G01 X-2.4707 Y31.4230 
G01 X-2.5274 Y31.3663 
G01 X-2.6015 Y31.3356 
G01 X-4.2409 Y31.3356 
G01 X-4.3150 Y31.3663 
G01 X-4.3717 Y31.4230 
G01 X-4.4024 Y31.4971 
G01 X-4.4024 Y31.9671 
G01 X-4.3717 Y32.0412 
G01 X-4.0961 Y32.3168 
G01 X-4.3150 Y32.5357 
G01 X-4.3717 Y32.5924 
G01 X-4.4024 Y32.6665 
G01 X-4.4024 Y32.7467 
G01 X-4.3717 Y32.8208 
G01 X-3.9819 Y33.2106 
G01 X-3.9252 Y33.2673 
G01 X-3.8511 Y33.2980 
G01 X-2.6015 Y33.2980 
G01 X-2.5274 Y33.2673 
G01 X-2.4707 Y33.2106 
G01 X-2.4400 Y33.1365 
G01 X-2.4400 Y33.0563 
G01 X-2.4707 Y32.9822 
G01 X-2.5274 Y32.9255 
G01 X-2.6015 Y32.8948 
G01 X-3.7275 Y32.8948 
G01 X-3.9157 Y32.7066 
G01 X-3.7275 Y32.5184 
G01 X-2.6015 Y32.5184 
G01 X-2.5274 Y32.4877 
G01 X-2.4707 Y32.4310 
G01 X-2.4400 Y32.3569 
G01 X-2.4400 Y32.2767 
G01 X-2.4707 Y32.2026 
G01 X-2.5274 Y32.1459 
G01 X-2.6015 Y32.1152 
G01 X-3.7275 Y32.1152 
G01 X-3.9992 Y31.8435 
G01 X-3.9992 Y31.7388 
G01 X-2.6015 Y31.7388 
G00 Z2.0000 
G00 X-3.9992 Y29.5481 
G01 Z-0.0250 F254.00 
G01 X-4.0299 Y29.4740 F508.00 
G01 X-4.0866 Y29.4173 
G01 X-4.1607 Y29.3866 
G01 X-4.2409 Y29.3866 
G01 X-4.3150 Y29.4173 
G01 X-4.3717 Y29.4740 
G01 X-4.4024 Y29.5481 
G01 X-4.4024 Y30.4079 
G01 X-4.3717 Y30.4820 
G01 X-3.9819 Y30.8718 
G01 X-3.9252 Y30.9285 
G01 X-3.8511 Y30.9592 
G01 X-2.6015 Y30.9592 
G01 X-2.5274 Y30.9285 
G01 X-2.4707 Y30.8718 
G01 X-2.4400 Y30.7977 
G01 X-2.4400 Y29.5481 
G01 X-2.4707 Y29.4740 
G01 X-2.9163 Y29.0284 
G01 X-2.9913 Y28.9968 
G01 X-3.0715 Y28.9968 
G01 X-3.1456 Y29.0275 
G01 X-3.2023 Y29.0842 
G01 X-3.5354 Y29.4173 
G01 X-3.5921 Y29.4740 
G01 X-3.6228 Y29.5481 
G01 X-3.6228 Y30.5560 
G01 X-3.7275 Y30.5560 
G01 X-3.9992 Y30.2843 
G01 X-3.9992 Y29.5481 
G00 Z2.0000 
G00 X-4.7788 Y27.5991 
G01 Z-0.0250 F254.00 
G01 X-4.8095 Y27.5250 F508.00 
G01 X-4.8662 Y27.4683 
G01 X-4.9403 Y27.4376 
G01 X-5.0205 Y27.4376 
G01 X-5.0946 Y27.4683 
G01 X-5.1513 Y27.5250 
G01 X-5.1820 Y27.5991 
G01 X-5.1820 Y28.0691 
G01 X-5.1513 Y28.1432 
G01 X-5.0946 Y28.1999 
G01 X-5.0205 Y28.2306 
G01 X-2.8432 Y28.2306 
G01 X-2.8432 Y28.4589 
G01 X-2.8125 Y28.5330 
G01 X-2.7558 Y28.5897 
G01 X-2.6817 Y28.6204 
G01 X-2.6015 Y28.6204 
G01 X-2.5274 Y28.5897 
G01 X-2.4707 Y28.5330 
G01 X-2.4400 Y28.4589 
G01 X-2.4400 Y27.5991 
G01 X-2.4707 Y27.5250 
G01 X-2.5274 Y27.4683 
G01 X-2.6015 Y27.4376 
G01 X-2.6817 Y27.4376 
G01 X-2.7558 Y27.4683 
G01 X-2.8125 Y27.5250 
G01 X-2.8432 Y27.5991 
G01 X-2.8432 Y27.8274 
G01 X-4.7788 Y27.8274 
G01 X-4.7788 Y27.5991 
G00 Z2.0000 
G00 X-4.7048 Y24.6917 
G01 Z-0.0250 F254.00 
G01 X-4.6307 Y24.7224 F508.00 
G01 X-4.5505 Y24.7224 
G01 X-4.4764 Y24.6917 
G01 X-4.4197 Y24.6350 
G01 X-4.3890 Y24.5609 
G01 X-4.3890 Y24.4807 
G01 X-4.4197 Y24.4066 
G01 X-4.7788 Y24.0475 
G01 X-4.7788 Y23.4349 
G01 X-4.5071 Y23.1632 
G01 X-4.2843 Y23.1632 
G01 X-4.0126 Y23.4349 
G01 X-4.0126 Y24.1711 
G01 X-3.9819 Y24.2452 
G01 X-3.5921 Y24.6350 
G01 X-3.5354 Y24.6917 
G01 X-3.4613 Y24.7224 
G01 X-2.9913 Y24.7224 
G01 X-2.9172 Y24.6917 
G01 X-2.9138 Y24.6883 
G01 X-2.8605 Y24.6350 
G01 X-2.5274 Y24.3019 
G01 X-2.4707 Y24.2452 
G01 X-2.4400 Y24.1711 
G01 X-2.4400 Y23.3113 
G01 X-2.4707 Y23.2372 
G01 X-2.9172 Y22.7907 
G01 X-2.9913 Y22.7600 
G01 X-3.0715 Y22.7600 
G01 X-3.1456 Y22.7907 
G01 X-3.2023 Y22.8474 
G01 X-3.2330 Y22.9215 
G01 X-3.2330 Y23.0017 
G01 X-3.2023 Y23.0758 
G01 X-2.8432 Y23.4349 
G01 X-2.8432 Y24.0475 
G01 X-3.1149 Y24.3192 
G01 X-3.3377 Y24.3192 
G01 X-3.6094 Y24.0475 
G01 X-3.6094 Y23.3113 
G01 X-3.6401 Y23.2372 
G01 X-3.6968 Y23.1805 
G01 X-4.0299 Y22.8474 
G01 X-4.0866 Y22.7907 
G01 X-4.1586 Y22.7609 
G01 X-4.6307 Y22.7600 
G01 X-4.7048 Y22.7907 
G01 X-4.7615 Y22.8474 
G01 X-5.0946 Y23.1805 
G01 X-5.1479 Y23.2338 
G01 X-5.1513 Y23.2372 
G01 X-5.1820 Y23.3113 
G01 X-5.1820 Y24.1711 
G01 X-5.1513 Y24.2452 
G01 X-5.0946 Y24.3019 
G01 X-4.7048 Y24.6917 
G00 Z2.0000 
G00 X-4.2409 Y25.0988 
G01 Z-0.0250 F254.00 
G01 X-4.3150 Y25.1295 F508.00 
G01 X-4.3717 Y25.1862 
G01 X-4.4024 Y25.2603 
G01 X-4.4024 Y25.3405 
G01 X-4.3717 Y25.4146 
G01 X-4.3150 Y25.4713 
G01 X-4.2409 Y25.5020 
G01 X-3.1149 Y25.5020 
G01 X-2.8432 Y25.7737 
G01 X-2.8432 Y26.6580 
G01 X-4.2409 Y26.6580 
G01 X-4.3150 Y26.6887 
G01 X-4.3717 Y26.7454 
G01 X-4.4024 Y26.8195 
G01 X-4.4024 Y26.8997 
G01 X-4.3717 Y26.9738 
G01 X-4.3150 Y27.0305 
G01 X-4.2409 Y27.0612 
G01 X-2.6015 Y27.0612 
G01 X-2.5274 Y27.0305 
G01 X-2.4707 Y26.9738 
G01 X-2.4400 Y26.8997 
G01 X-2.4400 Y25.6501 
G01 X-2.4707 Y25.5760 
G01 X-2.5274 Y25.5193 
G01 X-2.9172 Y25.1295 
G01 X-2.9913 Y25.0988 
G01 X-3.0715 Y25.0988 
G01 X-4.2409 Y25.0988 
G00 Z2.0000 
G00 X-45.3880 Y2.9521 
G01 Z-0.0250 F254.00 
G01 X-45.3880 Y7.2079 F508.00 
G01 X-45.3728 Y7.2446 
G01 X-45.3446 Y7.2728 
G01 X-45.3079 Y7.2880 
G01 X-41.0521 Y7.2880 
G01 X-41.0154 Y7.2728 
G01 X-40.9872 Y7.2446 
G01 X-40.9720 Y7.2079 
G01 X-40.9720 Y2.9521 
G01 X-40.9872 Y2.9154 
G01 X-41.0154 Y2.8872 
G01 X-41.0521 Y2.8720 
G01 X-45.3079 Y2.8720 
G01 X-45.3446 Y2.8872 
G01 X-45.3728 Y2.9154 
G01 X-45.3880 Y2.9521 
G00 Z2.0000 
G00 X-18.5703 Y45.3475 
G01 Z-0.0250 F254.00 
G01 X-18.4044 Y45.2367 F508.00 
G01 X-18.2633 Y45.0956 
G01 X-18.1525 Y44.9297 
G01 X-18.1000 Y44.8031 
G01 X-18.1000 Y45.4000 
G01 X-18.6969 Y45.4000 
G01 X-18.5703 Y45.3475 
G00 Z2.0000 
G00 X-32.0548 Y44.1500 
G01 Z-0.0250 F254.00 
G01 X-32.1050 Y44.1500 F508.00 
G01 X-32.1406 Y44.1145 
G01 X-32.0548 Y44.1500 
G00 Z2.0000 
G00 X-3.0314 Y34.3025 
G01 Z-0.0250 F254.00 
G01 X-2.9432 Y34.3907 F508.00 
G01 X-2.9432 Y35.1336 
G01 X-3.1196 Y35.1336 
G01 X-3.1196 Y34.3907 
G01 X-3.0314 Y34.3025 
G00 Z2.0000 
G00 X-3.0314 Y29.6249 
G01 Z-0.0250 F254.00 
G01 X-2.9432 Y29.7131 F508.00 
G01 X-2.9432 Y30.4560 
G01 X-3.1196 Y30.4560 
G01 X-3.1196 Y29.7131 
G01 X-3.0314 Y29.6249 
G00 Z2.0000 
G00 X-4.2405 Y24.9988 
G01 Z-0.0250 F254.00 
G01 X-4.3172 Y25.0194 F508.00 
G01 X-4.3860 Y25.0591 
G01 X-4.4421 Y25.1152 
G01 X-4.4818 Y25.1840 
G01 X-4.5024 Y25.2607 
G01 X-4.5024 Y25.3401 
G01 X-4.4818 Y25.4168 
G01 X-4.4421 Y25.4856 
G01 X-4.3860 Y25.5417 
G01 X-4.3172 Y25.5814 
G01 X-4.2405 Y25.6020 
G01 X-3.1563 Y25.6020 
G01 X-2.9432 Y25.8151 
G01 X-2.9432 Y26.5580 
G01 X-4.2405 Y26.5580 
G01 X-4.3172 Y26.5785 
G01 X-4.3860 Y26.6183 
G01 X-4.4421 Y26.6744 
G01 X-4.4818 Y26.7432 
G01 X-4.5024 Y26.8199 
G01 X-4.5024 Y26.8993 
G01 X-4.4818 Y26.9760 
G01 X-4.4421 Y27.0448 
G01 X-4.3860 Y27.1009 
G01 X-4.3172 Y27.1406 
G01 X-4.2405 Y27.1612 
G01 X-2.6019 Y27.1612 
G01 X-2.5252 Y27.1406 
G01 X-2.4564 Y27.1009 
G01 X-2.4003 Y27.0448 
G01 X-2.3606 Y26.9760 
G01 X-2.3400 Y26.8993 
G01 X-2.3400 Y25.6505 
G01 X-2.3606 Y25.5738 
G01 X-2.4003 Y25.5050 
G01 X-2.4564 Y25.4489 
G01 X-2.8462 Y25.0591 
G01 X-2.9150 Y25.0194 
G01 X-2.9917 Y24.9988 
G01 X-3.0711 Y24.9988 
G01 X-4.2405 Y24.9988 
G00 Z2.0000 
G00 X-4.7758 Y24.7621 
G01 Z-0.0250 F254.00 
G01 X-4.7070 Y24.8018 F508.00 
G01 X-4.6303 Y24.8224 
G01 X-4.5509 Y24.8224 
G01 X-4.4742 Y24.8018 
G01 X-4.4054 Y24.7621 
G01 X-4.3493 Y24.7060 
G01 X-4.3095 Y24.6372 
G01 X-4.2890 Y24.5605 
G01 X-4.2890 Y24.4811 
G01 X-4.3095 Y24.4044 
G01 X-4.3493 Y24.3356 
G01 X-4.6788 Y24.0061 
G01 X-4.6788 Y23.4763 
G01 X-4.4657 Y23.2632 
G01 X-4.3257 Y23.2632 
G01 X-4.1126 Y23.4763 
G01 X-4.1126 Y24.1707 
G01 X-4.0920 Y24.2474 
G01 X-4.0523 Y24.3162 
G01 X-3.6625 Y24.7060 
G01 X-3.6064 Y24.7621 
G01 X-3.5376 Y24.8018 
G01 X-3.4609 Y24.8224 
G01 X-2.9917 Y24.8224 
G01 X-2.9150 Y24.8018 
G01 X-2.8462 Y24.7621 
G01 X-2.8393 Y24.7552 
G01 X-2.7901 Y24.7060 
G01 X-2.4072 Y24.3231 
G01 X-2.4003 Y24.3162 
G01 X-2.3606 Y24.2474 
G01 X-2.3400 Y24.1707 
G01 X-2.3400 Y23.3117 
G01 X-2.3606 Y23.2350 
G01 X-2.4003 Y23.1662 
G01 X-2.8462 Y22.7203 
G01 X-2.9150 Y22.6806 
G01 X-2.9917 Y22.6600 
G01 X-3.0711 Y22.6600 
G01 X-3.1478 Y22.6806 
G01 X-3.2166 Y22.7203 
G01 X-3.2727 Y22.7764 
G01 X-3.3124 Y22.8452 
G01 X-3.3330 Y22.9219 
G01 X-3.3330 Y23.0013 
G01 X-3.3124 Y23.0780 
G01 X-3.2727 Y23.1468 
G01 X-2.9432 Y23.4763 
G01 X-2.9432 Y24.0061 
G01 X-3.1563 Y24.2192 
G01 X-3.2963 Y24.2192 
G01 X-3.5094 Y24.0061 
G01 X-3.5094 Y23.3117 
G01 X-3.5300 Y23.2350 
G01 X-3.5697 Y23.1662 
G01 X-3.6258 Y23.1101 
G01 X-4.0156 Y22.7203 
G01 X-4.0844 Y22.6806 
G01 X-4.1578 Y22.6609 
G01 X-4.1611 Y22.6600 
G01 X-4.6303 Y22.6600 
G01 X-4.7070 Y22.6806 
G01 X-4.7758 Y22.7203 
G01 X-4.7827 Y22.7272 
G01 X-5.1656 Y23.1101 
G01 X-5.2148 Y23.1593 
G01 X-5.2217 Y23.1662 
G01 X-5.2614 Y23.2350 
G01 X-5.2820 Y23.3117 
G01 X-5.2820 Y24.1707 
G01 X-5.2614 Y24.2474 
G01 X-5.2217 Y24.3162 
G01 X-5.1656 Y24.3723 
G01 X-4.7758 Y24.7621 
G00 Z2.0000 
G00 X-4.6788 Y27.5995 
G01 Z-0.0250 F254.00 
G01 X-4.6993 Y27.5228 F508.00 
G01 X-4.7391 Y27.4540 
G01 X-4.7952 Y27.3979 
G01 X-4.8640 Y27.3581 
G01 X-4.9407 Y27.3376 
G01 X-5.0201 Y27.3376 
G01 X-5.0968 Y27.3581 
G01 X-5.1656 Y27.3979 
G01 X-5.2217 Y27.4540 
G01 X-5.2614 Y27.5228 
G01 X-5.2820 Y27.5995 
G01 X-5.2820 Y28.0687 
G01 X-5.2614 Y28.1454 
G01 X-5.2217 Y28.2142 
G01 X-5.1656 Y28.2703 
G01 X-5.0968 Y28.3100 
G01 X-5.0201 Y28.3306 
G01 X-2.9432 Y28.3306 
G01 X-2.9432 Y28.4585 
G01 X-2.9226 Y28.5352 
G01 X-2.8829 Y28.6040 
G01 X-2.8268 Y28.6601 
G01 X-2.7580 Y28.6998 
G01 X-2.6813 Y28.7204 
G01 X-2.6019 Y28.7204 
G01 X-2.5252 Y28.6998 
G01 X-2.4564 Y28.6601 
G01 X-2.4003 Y28.6040 
G01 X-2.3606 Y28.5352 
G01 X-2.3400 Y28.4585 
G01 X-2.3400 Y27.5995 
G01 X-2.3606 Y27.5228 
G01 X-2.4003 Y27.4540 
G01 X-2.4564 Y27.3979 
G01 X-2.5252 Y27.3581 
G01 X-2.6019 Y27.3376 
G01 X-2.6813 Y27.3376 
G01 X-2.7580 Y27.3581 
G01 X-2.8268 Y27.3979 
G01 X-2.8829 Y27.4540 
G01 X-2.9226 Y27.5228 
G01 X-2.9432 Y27.5995 
G01 X-2.9432 Y27.7274 
G01 X-4.6788 Y27.7274 
G01 X-4.6788 Y27.5995 
G00 Z2.0000 
G00 X-3.8992 Y29.5485 
G01 Z-0.0250 F254.00 
G01 X-3.9198 Y29.4718 F508.00 
G01 X-3.9595 Y29.4030 
G01 X-4.0156 Y29.3468 
G01 X-4.0844 Y29.3071 
G01 X-4.1611 Y29.2866 
G01 X-4.2405 Y29.2866 
G01 X-4.3172 Y29.3071 
G01 X-4.3860 Y29.3468 
G01 X-4.4421 Y29.4030 
G01 X-4.4818 Y29.4718 
G01 X-4.5024 Y29.5485 
G01 X-4.5024 Y30.4075 
G01 X-4.4818 Y30.4842 
G01 X-4.4421 Y30.5530 
G01 X-4.0523 Y30.9428 
G01 X-3.9962 Y30.9989 
G01 X-3.9274 Y31.0386 
G01 X-3.8507 Y31.0592 
G01 X-2.6019 Y31.0592 
G01 X-2.5252 Y31.0386 
G01 X-2.4564 Y30.9989 
G01 X-2.4003 Y30.9428 
G01 X-2.3606 Y30.8740 
G01 X-2.3400 Y30.7973 
G01 X-2.3400 Y29.5485 
G01 X-2.3606 Y29.4718 
G01 X-2.4003 Y29.4030 
G01 X-2.7901 Y29.0132 
G01 X-2.8462 Y28.9571 
G01 X-2.9150 Y28.9173 
G01 X-2.9917 Y28.8968 
G01 X-3.0711 Y28.8968 
G01 X-3.0744 Y28.8977 
G01 X-3.1478 Y28.9173 
G01 X-3.2151 Y28.9562 
G01 X-3.6064 Y29.3468 
G01 X-3.6625 Y29.4030 
G01 X-3.7022 Y29.4718 
G01 X-3.7228 Y29.5485 
G01 X-3.7228 Y30.4193 
G01 X-3.8992 Y30.2429 
G01 X-3.8992 Y29.5485 
G00 Z2.0000 
G00 X-2.6019 Y31.8388 
G01 Z-0.0250 F254.00 
G01 X-2.5252 Y31.8182 F508.00 
G01 X-2.4564 Y31.7785 
G01 X-2.4003 Y31.7224 
G01 X-2.3606 Y31.6536 
G01 X-2.3400 Y31.5769 
G01 X-2.3400 Y31.4975 
G01 X-2.3606 Y31.4208 
G01 X-2.4003 Y31.3520 
G01 X-2.4564 Y31.2958 
G01 X-2.5252 Y31.2561 
G01 X-2.6019 Y31.2356 
G01 X-4.2405 Y31.2356 
G01 X-4.3172 Y31.2561 
G01 X-4.3860 Y31.2958 
G01 X-4.4421 Y31.3520 
G01 X-4.4818 Y31.4208 
G01 X-4.5024 Y31.4975 
G01 X-4.5024 Y31.9667 
G01 X-4.4818 Y32.0434 
G01 X-4.4421 Y32.1122 
G01 X-4.2375 Y32.3168 
G01 X-4.3860 Y32.4652 
G01 X-4.4421 Y32.5214 
G01 X-4.4818 Y32.5902 
G01 X-4.5024 Y32.6669 
G01 X-4.5024 Y32.7463 
G01 X-4.4818 Y32.8230 
G01 X-4.4421 Y32.8918 
G01 X-4.0523 Y33.2816 
G01 X-3.9962 Y33.3377 
G01 X-3.9274 Y33.3774 
G01 X-3.8507 Y33.3980 
G01 X-2.6019 Y33.3980 
G01 X-2.5252 Y33.3774 
G01 X-2.4564 Y33.3377 
G01 X-2.4003 Y33.2816 
G01 X-2.3606 Y33.2128 
G01 X-2.3400 Y33.1361 
G01 X-2.3400 Y33.0567 
G01 X-2.3606 Y32.9800 
G01 X-2.4003 Y32.9112 
G01 X-2.4564 Y32.8550 
G01 X-2.5252 Y32.8153 
G01 X-2.6019 Y32.7948 
G01 X-3.6861 Y32.7948 
G01 X-3.7743 Y32.7066 
G01 X-3.6861 Y32.6184 
G01 X-2.6019 Y32.6184 
G01 X-2.5252 Y32.5978 
G01 X-2.4564 Y32.5581 
G01 X-2.4003 Y32.5020 
G01 X-2.3606 Y32.4332 
G01 X-2.3400 Y32.3565 
G01 X-2.3400 Y32.2771 
G01 X-2.3606 Y32.2004 
G01 X-2.4003 Y32.1316 
G01 X-2.4564 Y32.0754 
G01 X-2.5252 Y32.0357 
G01 X-2.6019 Y32.0152 
G01 X-3.6861 Y32.0152 
G01 X-3.8625 Y31.8388 
G01 X-2.6019 Y31.8388 
G00 Z2.0000 
G00 X-3.8992 Y34.2261 
G01 Z-0.0250 F254.00 
G01 X-3.9198 Y34.1494 F508.00 
G01 X-3.9595 Y34.0806 
G01 X-4.0156 Y34.0244 
G01 X-4.0844 Y33.9847 
G01 X-4.1611 Y33.9642 
G01 X-4.2405 Y33.9642 
G01 X-4.3172 Y33.9847 
G01 X-4.3860 Y34.0244 
G01 X-4.4421 Y34.0806 
G01 X-4.4818 Y34.1494 
G01 X-4.5024 Y34.2261 
G01 X-4.5024 Y35.0851 
G01 X-4.4818 Y35.1618 
G01 X-4.4421 Y35.2306 
G01 X-4.0523 Y35.6204 
G01 X-3.9962 Y35.6765 
G01 X-3.9274 Y35.7162 
G01 X-3.8507 Y35.7368 
G01 X-2.6019 Y35.7368 
G01 X-2.5252 Y35.7162 
G01 X-2.4564 Y35.6765 
G01 X-2.4003 Y35.6204 
G01 X-2.3606 Y35.5516 
G01 X-2.3400 Y35.4749 
G01 X-2.3400 Y34.2261 
G01 X-2.3606 Y34.1494 
G01 X-2.4003 Y34.0806 
G01 X-2.8462 Y33.6346 
G01 X-2.9150 Y33.5949 
G01 X-2.9917 Y33.5744 
G01 X-3.0711 Y33.5744 
G01 X-3.1478 Y33.5949 
G01 X-3.2166 Y33.6346 
G01 X-3.2727 Y33.6908 
G01 X-3.6064 Y34.0244 
G01 X-3.6625 Y34.0806 
G01 X-3.7022 Y34.1494 
G01 X-3.7228 Y34.2261 
G01 X-3.7228 Y35.0969 
G01 X-3.8992 Y34.9205 
G01 X-3.8992 Y34.2261 
G00 Z2.0000 
G00 X-4.6303 Y36.3030 
G01 Z-0.0250 F254.00 
G01 X-4.7070 Y36.3235 F508.00 
G01 X-4.7758 Y36.3632 
G01 X-4.8319 Y36.4194 
G01 X-4.8716 Y36.4882 
G01 X-4.8922 Y36.5649 
G01 X-4.8922 Y36.6443 
G01 X-4.8716 Y36.7210 
G01 X-4.8319 Y36.7898 
G01 X-4.7758 Y36.8459 
G01 X-4.7070 Y36.8856 
G01 X-4.6303 Y36.9062 
G01 X-4.5024 Y36.9062 
G01 X-4.5024 Y37.0341 
G01 X-4.4818 Y37.1108 
G01 X-4.4421 Y37.1796 
G01 X-4.3860 Y37.2357 
G01 X-4.3172 Y37.2754 
G01 X-4.2405 Y37.2960 
G01 X-4.1611 Y37.2960 
G01 X-4.0844 Y37.2754 
G01 X-4.0156 Y37.2357 
G01 X-3.9595 Y37.1796 
G01 X-3.9198 Y37.1108 
G01 X-3.8992 Y37.0341 
G01 X-3.8992 Y36.9062 
G01 X-3.1563 Y36.9062 
G01 X-2.8268 Y37.2357 
G01 X-2.7580 Y37.2754 
G01 X-2.6813 Y37.2960 
G01 X-2.6019 Y37.2960 
G01 X-2.5252 Y37.2754 
G01 X-2.4564 Y37.2357 
G01 X-2.4003 Y37.1796 
G01 X-2.3606 Y37.1108 
G01 X-2.3400 Y37.0341 
G01 X-2.3400 Y36.9547 
G01 X-2.3606 Y36.8780 
G01 X-2.4003 Y36.8092 
G01 X-2.7901 Y36.4194 
G01 X-2.8393 Y36.3702 
G01 X-2.8462 Y36.3632 
G01 X-2.9150 Y36.3235 
G01 X-2.9917 Y36.3030 
G01 X-3.8992 Y36.3030 
G01 X-3.8992 Y36.1751 
G01 X-3.9198 Y36.0984 
G01 X-3.9595 Y36.0296 
G01 X-4.0156 Y35.9734 
G01 X-4.0844 Y35.9337 
G01 X-4.1611 Y35.9132 
G01 X-4.2405 Y35.9132 
G01 X-4.3172 Y35.9337 
G01 X-4.3860 Y35.9734 
G01 X-4.4421 Y36.0296 
G01 X-4.4818 Y36.0984 
G01 X-4.5024 Y36.1751 
G01 X-4.5024 Y36.3030 
G01 X-4.6303 Y36.3030 
G00 Z2.0000 
G00 X-3.8992 Y37.7343 
G01 Z-0.0250 F254.00 
G01 X-3.9198 Y37.6576 F508.00 
G01 X-3.9595 Y37.5888 
G01 X-4.0156 Y37.5326 
G01 X-4.0844 Y37.4929 
G01 X-4.1611 Y37.4724 
G01 X-4.2405 Y37.4724 
G01 X-4.3172 Y37.4929 
G01 X-4.3860 Y37.5326 
G01 X-4.4421 Y37.5888 
G01 X-4.4818 Y37.6576 
G01 X-4.5024 Y37.7343 
G01 X-4.5024 Y38.2035 
G01 X-4.4818 Y38.2802 
G01 X-4.4421 Y38.3490 
G01 X-4.3860 Y38.4051 
G01 X-4.3172 Y38.4448 
G01 X-4.2405 Y38.4654 
G01 X-2.9432 Y38.4654 
G01 X-2.9432 Y38.5933 
G01 X-2.9226 Y38.6700 
G01 X-2.8829 Y38.7388 
G01 X-2.8268 Y38.7949 
G01 X-2.7580 Y38.8346 
G01 X-2.6813 Y38.8552 
G01 X-2.6019 Y38.8552 
G01 X-2.5252 Y38.8346 
G01 X-2.4564 Y38.7949 
G01 X-2.4003 Y38.7388 
G01 X-2.3606 Y38.6700 
G01 X-2.3400 Y38.5933 
G01 X-2.3400 Y37.7343 
G01 X-2.3606 Y37.6576 
G01 X-2.4003 Y37.5888 
G01 X-2.4564 Y37.5326 
G01 X-2.5252 Y37.4929 
G01 X-2.6019 Y37.4724 
G01 X-2.6813 Y37.4724 
G01 X-2.7580 Y37.4929 
G01 X-2.8268 Y37.5326 
G01 X-2.8829 Y37.5888 
G01 X-2.9226 Y37.6576 
G01 X-2.9432 Y37.7343 
G01 X-2.9432 Y37.8622 
G01 X-3.8992 Y37.8622 
G01 X-3.8992 Y37.7343 
G00 Z2.0000 
G00 X-4.9407 Y37.8622 
G01 Z-0.0250 F254.00 
G01 X-5.4099 Y37.8622 F508.00 
G01 X-5.4866 Y37.8827 
G01 X-5.5554 Y37.9224 
G01 X-5.6115 Y37.9786 
G01 X-5.6512 Y38.0474 
G01 X-5.6718 Y38.1241 
G01 X-5.6718 Y38.2035 
G01 X-5.6512 Y38.2802 
G01 X-5.6115 Y38.3490 
G01 X-5.5554 Y38.4051 
G01 X-5.4866 Y38.4448 
G01 X-5.4099 Y38.4654 
G01 X-4.9407 Y38.4654 
G01 X-4.8640 Y38.4448 
G01 X-4.7952 Y38.4051 
G01 X-4.7391 Y38.3490 
G01 X-4.6993 Y38.2802 
G01 X-4.6788 Y38.2035 
G01 X-4.6788 Y38.1241 
G01 X-4.6993 Y38.0474 
G01 X-4.7391 Y37.9786 
G01 X-4.7952 Y37.9224 
G01 X-4.8640 Y37.8827 
G01 X-4.9407 Y37.8622 
G00 Z2.0000 
G00 X-5.0201 Y39.6348 
G01 Z-0.0250 F254.00 
G01 X-3.9847 Y39.6348 F508.00 
G01 X-4.4738 Y40.3683 
G01 X-4.4992 Y40.4435 
G01 X-4.5043 Y40.5228 
G01 X-4.4888 Y40.6007 
G01 X-4.4536 Y40.6718 
G01 X-4.4011 Y40.7315 
G01 X-4.3351 Y40.7755 
G01 X-4.2598 Y40.8010 
G01 X-4.1806 Y40.8061 
G01 X-4.1027 Y40.7905 
G01 X-4.0315 Y40.7553 
G01 X-3.9719 Y40.7029 
G01 X-3.4212 Y39.8769 
G01 X-2.8705 Y40.7029 
G01 X-2.8109 Y40.7553 
G01 X-2.7397 Y40.7905 
G01 X-2.6618 Y40.8061 
G01 X-2.5826 Y40.8010 
G01 X-2.5073 Y40.7755 
G01 X-2.4413 Y40.7315 
G01 X-2.3888 Y40.6718 
G01 X-2.3536 Y40.6007 
G01 X-2.3381 Y40.5228 
G01 X-2.3432 Y40.4435 
G01 X-2.3686 Y40.3683 
G01 X-2.8577 Y39.6348 
G01 X-2.6019 Y39.6348 
G01 X-2.5252 Y39.6142 
G01 X-2.4564 Y39.5745 
G01 X-2.4003 Y39.5184 
G01 X-2.3606 Y39.4496 
G01 X-2.3400 Y39.3729 
G01 X-2.3400 Y39.2935 
G01 X-2.3606 Y39.2168 
G01 X-2.4003 Y39.1480 
G01 X-2.4564 Y39.0918 
G01 X-2.5252 Y39.0521 
G01 X-2.6019 Y39.0316 
G01 X-3.3913 Y39.0316 
G01 X-3.4010 Y39.0296 
G01 X-3.4212 Y39.0310 
G01 X-3.4414 Y39.0296 
G01 X-3.4511 Y39.0316 
G01 X-5.0201 Y39.0316 
G01 X-5.0968 Y39.0521 
G01 X-5.1656 Y39.0918 
G01 X-5.2217 Y39.1480 
G01 X-5.2614 Y39.2168 
G01 X-5.2820 Y39.2935 
G01 X-5.2820 Y39.3729 
G01 X-5.2614 Y39.4496 
G01 X-5.2217 Y39.5184 
G01 X-5.1656 Y39.5745 
G01 X-5.0968 Y39.6142 
G01 X-5.0201 Y39.6348 
G00 Z2.0000 
G00 X-35.3028 Y51.9702 
G01 Z-0.0250 F254.00 
G01 X-35.3028 Y52.1698 F508.00 
G01 X-35.2639 Y52.3654 
G01 X-35.1875 Y52.5497 
G01 X-35.0767 Y52.7156 
G01 X-34.9356 Y52.8567 
G01 X-34.7697 Y52.9675 
G01 X-34.5854 Y53.0439 
G01 X-34.3898 Y53.0828 
G01 X-34.1902 Y53.0828 
G01 X-33.9946 Y53.0439 
G01 X-33.8103 Y52.9675 
G01 X-33.6444 Y52.8567 
G01 X-33.5033 Y52.7156 
G01 X-33.3925 Y52.5497 
G01 X-33.3161 Y52.3654 
G01 X-33.2772 Y52.1698 
G01 X-33.2772 Y51.9702 
G01 X-33.3161 Y51.7746 
G01 X-33.3925 Y51.5903 
G01 X-33.5033 Y51.4244 
G01 X-33.6444 Y51.2833 
G01 X-33.8103 Y51.1725 
G01 X-33.9946 Y51.0961 
G01 X-34.1902 Y51.0572 
G01 X-34.3898 Y51.0572 
G01 X-34.5854 Y51.0961 
G01 X-34.7697 Y51.1725 
G01 X-34.9356 Y51.2833 
G01 X-35.0767 Y51.4244 
G01 X-35.1875 Y51.5903 
G01 X-35.2639 Y51.7746 
G01 X-35.3028 Y51.9702 
G00 Z2.0000 
G00 X-35.1875 Y50.0097 
G01 Z-0.0250 F254.00 
G01 X-35.0767 Y50.1756 F508.00 
G01 X-34.9356 Y50.3167 
G01 X-34.7697 Y50.4275 
G01 X-34.5854 Y50.5039 
G01 X-34.3898 Y50.5428 
G01 X-34.1902 Y50.5428 
G01 X-33.9946 Y50.5039 
G01 X-33.8103 Y50.4275 
G01 X-33.6444 Y50.3167 
G01 X-33.5033 Y50.1756 
G01 X-33.3925 Y50.0097 
G01 X-33.3161 Y49.8254 
G01 X-33.2772 Y49.6298 
G01 X-33.2772 Y49.4302 
G01 X-33.3161 Y49.2346 
G01 X-33.3925 Y49.0503 
G01 X-33.5033 Y48.8844 
G01 X-33.6444 Y48.7433 
G01 X-33.8103 Y48.6325 
G01 X-33.9946 Y48.5561 
G01 X-34.1902 Y48.5172 
G01 X-34.3898 Y48.5172 
G01 X-34.5854 Y48.5561 
G01 X-34.7697 Y48.6325 
G01 X-34.9356 Y48.7433 
G01 X-35.0767 Y48.8844 
G01 X-35.1875 Y49.0503 
G01 X-35.2288 Y49.1500 
G01 X-37.8550 Y49.1500 
G01 X-39.2096 Y47.7954 
G01 X-39.1816 Y47.7767 
G01 X-39.0405 Y47.6356 
G01 X-38.9297 Y47.4697 
G01 X-38.8533 Y47.2854 
G01 X-38.8144 Y47.0898 
G01 X-38.8144 Y46.8902 
G01 X-38.8533 Y46.6946 
G01 X-38.9297 Y46.5103 
G01 X-39.0405 Y46.3444 
G01 X-39.1816 Y46.2033 
G01 X-39.3475 Y46.0925 
G01 X-39.5318 Y46.0161 
G01 X-39.7274 Y45.9772 
G01 X-41.5526 Y45.9772 
G01 X-41.7482 Y46.0161 
G01 X-41.9325 Y46.0925 
G01 X-42.0984 Y46.2033 
G01 X-42.2395 Y46.3444 
G01 X-42.3503 Y46.5103 
G01 X-42.4267 Y46.6946 
G01 X-42.4656 Y46.8902 
G01 X-42.4656 Y47.0898 
G01 X-42.4267 Y47.2854 
G01 X-42.3503 Y47.4697 
G01 X-42.2395 Y47.6356 
G01 X-42.0984 Y47.7767 
G01 X-41.9325 Y47.8875 
G01 X-41.7482 Y47.9639 
G01 X-41.5526 Y48.0028 
G01 X-39.9922 Y48.0028 
G01 X-38.2801 Y49.7149 
G01 X-38.2149 Y49.7801 
G01 X-38.1351 Y49.8261 
G01 X-38.0461 Y49.8500 
G01 X-35.2537 Y49.8500 
G01 X-35.1875 Y50.0097 
G00 Z2.0000 
G00 X-35.1875 Y44.9297 
G01 Z-0.0250 F254.00 
G01 X-35.0767 Y45.0956 F508.00 
G01 X-34.9356 Y45.2367 
G01 X-34.7697 Y45.3475 
G01 X-34.5854 Y45.4239 
G01 X-34.3898 Y45.4628 
G01 X-34.1902 Y45.4628 
G01 X-33.9946 Y45.4239 
G01 X-33.8719 Y45.3731 
G01 X-33.2149 Y46.0301 
G01 X-33.1351 Y46.0761 
G01 X-33.0461 Y46.1000 
G01 X-19.5410 Y46.1000 
G01 X-19.6956 Y46.2033 
G01 X-19.8367 Y46.3444 
G01 X-19.9475 Y46.5103 
G01 X-20.0054 Y46.6500 
G01 X-33.3346 Y46.6500 
G01 X-33.3925 Y46.5103 
G01 X-33.5033 Y46.3444 
G01 X-33.6444 Y46.2033 
G01 X-33.8103 Y46.0925 
G01 X-33.9946 Y46.0161 
G01 X-34.1902 Y45.9772 
G01 X-34.3898 Y45.9772 
G01 X-34.5854 Y46.0161 
G01 X-34.7697 Y46.0925 
G01 X-34.9356 Y46.2033 
G01 X-35.0767 Y46.3444 
G01 X-35.1875 Y46.5103 
G01 X-35.2639 Y46.6946 
G01 X-35.3028 Y46.8902 
G01 X-35.3028 Y47.0898 
G01 X-35.2639 Y47.2854 
G01 X-35.1875 Y47.4697 
G01 X-35.0767 Y47.6356 
G01 X-34.9356 Y47.7767 
G01 X-34.7697 Y47.8875 
G01 X-34.5854 Y47.9639 
G01 X-34.3898 Y48.0028 
G01 X-34.1902 Y48.0028 
G01 X-33.9946 Y47.9639 
G01 X-33.8103 Y47.8875 
G01 X-33.6444 Y47.7767 
G01 X-33.5033 Y47.6356 
G01 X-33.3925 Y47.4697 
G01 X-33.3429 Y47.3500 
G01 X-19.9971 Y47.3500 
G01 X-19.9475 Y47.4697 
G01 X-19.8367 Y47.6356 
G01 X-19.6956 Y47.7767 
G01 X-19.5297 Y47.8875 
G01 X-19.3454 Y47.9639 
G01 X-19.1498 Y48.0028 
G01 X-18.9502 Y48.0028 
G01 X-18.7546 Y47.9639 
G01 X-18.5703 Y47.8875 
G01 X-18.4044 Y47.7767 
G01 X-18.2633 Y47.6356 
G01 X-18.1525 Y47.4697 
G01 X-18.0761 Y47.2854 
G01 X-18.0372 Y47.0898 
G01 X-18.0372 Y46.8902 
G01 X-18.0761 Y46.6946 
G01 X-18.1525 Y46.5103 
G01 X-18.2633 Y46.3444 
G01 X-18.4044 Y46.2033 
G01 X-18.5590 Y46.1000 
G01 X-17.7039 Y46.1000 
G01 X-17.6149 Y46.0761 
G01 X-17.5351 Y46.0301 
G01 X-17.4699 Y45.9649 
G01 X-17.4239 Y45.8851 
G01 X-17.4000 Y45.7961 
G01 X-17.4000 Y43.6450 
G01 X-7.4825 Y33.7275 
G01 X-7.3463 Y33.7969 
G01 X-7.1757 Y33.8523 
G01 X-6.9985 Y33.8804 
G01 X-6.8191 Y33.8804 
G01 X-6.6419 Y33.8523 
G01 X-6.4713 Y33.7969 
G01 X-6.3114 Y33.7154 
G01 X-6.1663 Y33.6100 
G01 X-6.0394 Y33.4831 
G01 X-5.9340 Y33.3380 
G01 X-5.8525 Y33.1781 
G01 X-5.7971 Y33.0075 
G01 X-5.7690 Y32.8303 
G01 X-5.7690 Y32.6509 
G01 X-5.7971 Y32.4737 
G01 X-5.8525 Y32.3031 
G01 X-5.9340 Y32.1432 
G01 X-6.0394 Y31.9981 
G01 X-6.1663 Y31.8712 
G01 X-6.3114 Y31.7658 
G01 X-6.4713 Y31.6843 
G01 X-6.6419 Y31.6289 
G01 X-6.8191 Y31.6008 
G01 X-6.9985 Y31.6008 
G01 X-7.1757 Y31.6289 
G01 X-7.3463 Y31.6843 
G01 X-7.5062 Y31.7658 
G01 X-7.6513 Y31.8712 
G01 X-7.7782 Y31.9981 
G01 X-7.8836 Y32.1432 
G01 X-7.9651 Y32.3031 
G01 X-8.0205 Y32.4737 
G01 X-8.0486 Y32.6509 
G01 X-8.0486 Y32.8303 
G01 X-8.0205 Y33.0075 
G01 X-7.9651 Y33.1781 
G01 X-7.9509 Y33.2059 
G01 X-17.9649 Y43.2199 
G01 X-18.0301 Y43.2851 
G01 X-18.0761 Y43.3649 
G01 X-18.1000 Y43.4539 
G01 X-18.1000 Y44.0969 
G01 X-18.1525 Y43.9703 
G01 X-18.2633 Y43.8044 
G01 X-18.4044 Y43.6633 
G01 X-18.5703 Y43.5525 
G01 X-18.7546 Y43.4761 
G01 X-18.9502 Y43.4372 
G01 X-19.1498 Y43.4372 
G01 X-19.3454 Y43.4761 
G01 X-19.5297 Y43.5525 
G01 X-19.6956 Y43.6633 
G01 X-19.8367 Y43.8044 
G01 X-19.9475 Y43.9703 
G01 X-20.0239 Y44.1546 
G01 X-20.0628 Y44.3502 
G01 X-20.0628 Y44.5498 
G01 X-20.0239 Y44.7454 
G01 X-19.9475 Y44.9297 
G01 X-19.8367 Y45.0956 
G01 X-19.6956 Y45.2367 
G01 X-19.5297 Y45.3475 
G01 X-19.4031 Y45.4000 
G01 X-23.2192 Y45.4000 
G01 X-23.1646 Y45.3774 
G01 X-23.0487 Y45.2999 
G01 X-22.9501 Y45.2013 
G01 X-22.8726 Y45.0854 
G01 X-22.8192 Y44.9565 
G01 X-22.7920 Y44.8197 
G01 X-22.7920 Y44.6803 
G01 X-22.8192 Y44.5435 
G01 X-22.8726 Y44.4146 
G01 X-22.9501 Y44.2987 
G01 X-23.0487 Y44.2001 
G01 X-23.1646 Y44.1226 
G01 X-23.2935 Y44.0692 
G01 X-23.4303 Y44.0420 
G01 X-23.5697 Y44.0420 
G01 X-23.7065 Y44.0692 
G01 X-23.8354 Y44.1226 
G01 X-23.8764 Y44.1500 
G01 X-31.4452 Y44.1500 
G01 X-31.2703 Y44.0775 
G01 X-31.1044 Y43.9667 
G01 X-30.9633 Y43.8256 
G01 X-30.8525 Y43.6597 
G01 X-30.7761 Y43.4754 
G01 X-30.7372 Y43.2798 
G01 X-30.7372 Y43.0802 
G01 X-30.7761 Y42.8846 
G01 X-30.8525 Y42.7003 
G01 X-30.9633 Y42.5344 
G01 X-31.1044 Y42.3933 
G01 X-31.2703 Y42.2825 
G01 X-31.4546 Y42.2061 
G01 X-31.6502 Y42.1672 
G01 X-31.8498 Y42.1672 
G01 X-32.0454 Y42.2061 
G01 X-32.2297 Y42.2825 
G01 X-32.3956 Y42.3933 
G01 X-32.5367 Y42.5344 
G01 X-32.6475 Y42.7003 
G01 X-32.7239 Y42.8846 
G01 X-32.7628 Y43.0802 
G01 X-32.7628 Y43.2798 
G01 X-32.7239 Y43.4754 
G01 X-32.6845 Y43.5706 
G01 X-33.6014 Y42.6537 
G01 X-33.5033 Y42.5556 
G01 X-33.3925 Y42.3897 
G01 X-33.3161 Y42.2054 
G01 X-33.2772 Y42.0098 
G01 X-33.2772 Y41.8102 
G01 X-33.3161 Y41.6146 
G01 X-33.3925 Y41.4303 
G01 X-33.5033 Y41.2644 
G01 X-33.6444 Y41.1233 
G01 X-33.8103 Y41.0125 
G01 X-33.9946 Y40.9361 
G01 X-34.1902 Y40.8972 
G01 X-34.3898 Y40.8972 
G01 X-34.5854 Y40.9361 
G01 X-34.7697 Y41.0125 
G01 X-34.9356 Y41.1233 
G01 X-35.0767 Y41.2644 
G01 X-35.1875 Y41.4303 
G01 X-35.2639 Y41.6146 
G01 X-35.3028 Y41.8102 
G01 X-35.3028 Y42.0098 
G01 X-35.2639 Y42.2054 
G01 X-35.1875 Y42.3897 
G01 X-35.0767 Y42.5556 
G01 X-34.9356 Y42.6967 
G01 X-34.7697 Y42.8075 
G01 X-34.5854 Y42.8839 
G01 X-34.3898 Y42.9228 
G01 X-34.3222 Y42.9228 
G01 X-32.4649 Y44.7801 
G01 X-32.3851 Y44.8261 
G01 X-32.2961 Y44.8500 
G01 X-24.2020 Y44.8500 
G01 X-24.1808 Y44.9565 
G01 X-24.1274 Y45.0854 
G01 X-24.0499 Y45.2013 
G01 X-23.9513 Y45.2999 
G01 X-23.8354 Y45.3774 
G01 X-23.7808 Y45.4000 
G01 X-32.8550 Y45.4000 
G01 X-33.3728 Y44.8822 
G01 X-33.3161 Y44.7454 
G01 X-33.2772 Y44.5498 
G01 X-33.2772 Y44.3502 
G01 X-33.3161 Y44.1546 
G01 X-33.3925 Y43.9703 
G01 X-33.5033 Y43.8044 
G01 X-33.6444 Y43.6633 
G01 X-33.8103 Y43.5525 
G01 X-33.9946 Y43.4761 
G01 X-34.1902 Y43.4372 
G01 X-34.3898 Y43.4372 
G01 X-34.5854 Y43.4761 
G01 X-34.7697 Y43.5525 
G01 X-34.9356 Y43.6633 
G01 X-35.0767 Y43.8044 
G01 X-35.1875 Y43.9703 
G01 X-35.2620 Y44.1500 
G01 X-38.8552 Y44.1500 
G01 X-38.9297 Y43.9703 
G01 X-39.0405 Y43.8044 
G01 X-39.1816 Y43.6633 
G01 X-39.3475 Y43.5525 
G01 X-39.5318 Y43.4761 
G01 X-39.7274 Y43.4372 
G01 X-41.5526 Y43.4372 
G01 X-41.7482 Y43.4761 
G01 X-41.9325 Y43.5525 
G01 X-42.0984 Y43.6633 
G01 X-42.2395 Y43.8044 
G01 X-42.3503 Y43.9703 
G01 X-42.4267 Y44.1546 
G01 X-42.4656 Y44.3502 
G01 X-42.4656 Y44.5498 
G01 X-42.4267 Y44.7454 
G01 X-42.3503 Y44.9297 
G01 X-42.2395 Y45.0956 
G01 X-42.0984 Y45.2367 
G01 X-41.9325 Y45.3475 
G01 X-41.7482 Y45.4239 
G01 X-41.5526 Y45.4628 
G01 X-39.7274 Y45.4628 
G01 X-39.5318 Y45.4239 
G01 X-39.3475 Y45.3475 
G01 X-39.1816 Y45.2367 
G01 X-39.0405 Y45.0956 
G01 X-38.9297 Y44.9297 
G01 X-38.8966 Y44.8500 
G01 X-35.2206 Y44.8500 
G01 X-35.1875 Y44.9297 
G00 Z2.0000 
G00 X-35.3028 Y39.2702 
G01 Z-0.0250 F254.00 
G01 X-35.3028 Y39.4698 F508.00 
G01 X-35.2639 Y39.6654 
G01 X-35.1875 Y39.8497 
G01 X-35.0767 Y40.0156 
G01 X-34.9356 Y40.1567 
G01 X-34.7697 Y40.2675 
G01 X-34.5854 Y40.3439 
G01 X-34.3898 Y40.3828 
G01 X-34.1902 Y40.3828 
G01 X-33.9946 Y40.3439 
G01 X-33.8103 Y40.2675 
G01 X-33.6444 Y40.1567 
G01 X-33.5033 Y40.0156 
G01 X-33.3925 Y39.8497 
G01 X-33.3161 Y39.6654 
G01 X-33.2772 Y39.4698 
G01 X-33.2772 Y39.2702 
G01 X-33.3161 Y39.0746 
G01 X-33.3925 Y38.8903 
G01 X-33.5033 Y38.7244 
G01 X-33.6444 Y38.5833 
G01 X-33.8103 Y38.4725 
G01 X-33.9946 Y38.3961 
G01 X-34.1902 Y38.3572 
G01 X-34.3898 Y38.3572 
G01 X-34.5854 Y38.3961 
G01 X-34.7697 Y38.4725 
G01 X-34.9356 Y38.5833 
G01 X-35.0767 Y38.7244 
G01 X-35.1875 Y38.8903 
G01 X-35.2639 Y39.0746 
G01 X-35.3028 Y39.2702 
G00 Z2.0000 
G00 X-35.3028 Y36.7302 
G01 Z-0.0250 F254.00 
G01 X-35.3028 Y36.9298 F508.00 
G01 X-35.2639 Y37.1254 
G01 X-35.1875 Y37.3097 
G01 X-35.0767 Y37.4756 
G01 X-34.9356 Y37.6167 
G01 X-34.7697 Y37.7275 
G01 X-34.5854 Y37.8039 
G01 X-34.3898 Y37.8428 
G01 X-34.1902 Y37.8428 
G01 X-33.9946 Y37.8039 
G01 X-33.8103 Y37.7275 
G01 X-33.6444 Y37.6167 
G01 X-33.5033 Y37.4756 
G01 X-33.3925 Y37.3097 
G01 X-33.3161 Y37.1254 
G01 X-33.2772 Y36.9298 
G01 X-33.2772 Y36.7302 
G01 X-33.3161 Y36.5346 
G01 X-33.3925 Y36.3503 
G01 X-33.5033 Y36.1844 
G01 X-33.6444 Y36.0433 
G01 X-33.8103 Y35.9325 
G01 X-33.9946 Y35.8561 
G01 X-34.1902 Y35.8172 
G01 X-34.3898 Y35.8172 
G01 X-34.5854 Y35.8561 
G01 X-34.7697 Y35.9325 
G01 X-34.8014 Y35.9536 
G01 X-37.7199 Y33.0351 
G01 X-37.7851 Y32.9699 
G01 X-37.8649 Y32.9239 
G01 X-37.9539 Y32.9000 
G01 X-38.4588 Y32.9000 
G01 X-38.4588 Y32.2191 
G01 X-38.4938 Y32.0430 
G01 X-38.5625 Y31.8772 
G01 X-38.6622 Y31.7279 
G01 X-38.7891 Y31.6010 
G01 X-38.9384 Y31.5013 
G01 X-39.1042 Y31.4326 
G01 X-39.2803 Y31.3976 
G01 X-39.4597 Y31.3976 
G01 X-39.6358 Y31.4326 
G01 X-39.8016 Y31.5013 
G01 X-39.9509 Y31.6010 
G01 X-40.0778 Y31.7279 
G01 X-40.1775 Y31.8772 
G01 X-40.2462 Y32.0430 
G01 X-40.2812 Y32.2191 
G01 X-40.2812 Y33.8209 
G01 X-40.2462 Y33.9970 
G01 X-40.1775 Y34.1628 
G01 X-40.0778 Y34.3121 
G01 X-39.9509 Y34.4390 
G01 X-39.8016 Y34.5387 
G01 X-39.6358 Y34.6074 
G01 X-39.4597 Y34.6424 
G01 X-39.2803 Y34.6424 
G01 X-39.1042 Y34.6074 
G01 X-38.9384 Y34.5387 
G01 X-38.7891 Y34.4390 
G01 X-38.6622 Y34.3121 
G01 X-38.5625 Y34.1628 
G01 X-38.4938 Y33.9970 
G01 X-38.4588 Y33.8209 
G01 X-38.4588 Y33.6000 
G01 X-38.1450 Y33.6000 
G01 X-35.2482 Y36.4968 
G01 X-35.2639 Y36.5346 
G01 X-35.3028 Y36.7302 
G00 Z2.0000 
G00 X-35.3028 Y34.1902 
G01 Z-0.0250 F254.00 
G01 X-35.3028 Y34.3898 F508.00 
G01 X-35.2639 Y34.5854 
G01 X-35.1875 Y34.7697 
G01 X-35.0767 Y34.9356 
G01 X-34.9356 Y35.0767 
G01 X-34.7697 Y35.1875 
G01 X-34.5854 Y35.2639 
G01 X-34.3898 Y35.3028 
G01 X-34.1902 Y35.3028 
G01 X-33.9946 Y35.2639 
G01 X-33.8103 Y35.1875 
G01 X-33.6444 Y35.0767 
G01 X-33.5033 Y34.9356 
G01 X-33.3925 Y34.7697 
G01 X-33.3161 Y34.5854 
G01 X-33.2772 Y34.3898 
G01 X-33.2772 Y34.1902 
G01 X-33.3161 Y33.9946 
G01 X-33.3925 Y33.8103 
G01 X-33.5033 Y33.6444 
G01 X-33.6444 Y33.5033 
G01 X-33.8103 Y33.3925 
G01 X-33.9946 Y33.3161 
G01 X-34.1902 Y33.2772 
G01 X-34.3898 Y33.2772 
G01 X-34.5854 Y33.3161 
G01 X-34.7697 Y33.3925 
G01 X-34.9356 Y33.5033 
G01 X-35.0767 Y33.6444 
G01 X-35.1875 Y33.8103 
G01 X-35.2639 Y33.9946 
G01 X-35.3028 Y34.1902 
G00 Z2.0000 
G00 X-35.3028 Y31.6502 
G01 Z-0.0250 F254.00 
G01 X-35.3028 Y31.8498 F508.00 
G01 X-35.2639 Y32.0454 
G01 X-35.1875 Y32.2297 
G01 X-35.0767 Y32.3956 
G01 X-34.9356 Y32.5367 
G01 X-34.7697 Y32.6475 
G01 X-34.5854 Y32.7239 
G01 X-34.3898 Y32.7628 
G01 X-34.1902 Y32.7628 
G01 X-33.9946 Y32.7239 
G01 X-33.8103 Y32.6475 
G01 X-33.6444 Y32.5367 
G01 X-33.5033 Y32.3956 
G01 X-33.3925 Y32.2297 
G01 X-33.3161 Y32.0454 
G01 X-33.2772 Y31.8498 
G01 X-33.2772 Y31.6502 
G01 X-33.3161 Y31.4546 
G01 X-33.3581 Y31.3531 
G01 X-32.8550 Y30.8500 
G01 X-19.5238 Y30.8500 
G01 X-19.5297 Y30.8525 
G01 X-19.6956 Y30.9633 
G01 X-19.8367 Y31.1044 
G01 X-19.9475 Y31.2703 
G01 X-20.0239 Y31.4546 
G01 X-20.0628 Y31.6502 
G01 X-20.0628 Y31.8498 
G01 X-20.0239 Y32.0454 
G01 X-19.9475 Y32.2297 
G01 X-19.8367 Y32.3956 
G01 X-19.6956 Y32.5367 
G01 X-19.5297 Y32.6475 
G01 X-19.3454 Y32.7239 
G01 X-19.1498 Y32.7628 
G01 X-18.9502 Y32.7628 
G01 X-18.7546 Y32.7239 
G01 X-18.5703 Y32.6475 
G01 X-18.4044 Y32.5367 
G01 X-18.2633 Y32.3956 
G01 X-18.1525 Y32.2297 
G01 X-18.0761 Y32.0454 
G01 X-18.0372 Y31.8498 
G01 X-18.0372 Y31.6502 
G01 X-18.0761 Y31.4546 
G01 X-18.1525 Y31.2703 
G01 X-18.2633 Y31.1044 
G01 X-18.4044 Y30.9633 
G01 X-18.5703 Y30.8525 
G01 X-18.5762 Y30.8500 
G01 X-9.2039 Y30.8500 
G01 X-9.1149 Y30.8261 
G01 X-9.0351 Y30.7801 
G01 X-8.9699 Y30.7149 
G01 X-7.4685 Y29.2135 
G01 X-7.3463 Y29.2757 
G01 X-7.1757 Y29.3311 
G01 X-6.9985 Y29.3592 
G01 X-6.8191 Y29.3592 
G01 X-6.6419 Y29.3311 
G01 X-6.4713 Y29.2757 
G01 X-6.3114 Y29.1942 
G01 X-6.1663 Y29.0888 
G01 X-6.0394 Y28.9619 
G01 X-5.9340 Y28.8168 
G01 X-5.8525 Y28.6569 
G01 X-5.7971 Y28.4863 
G01 X-5.7690 Y28.3091 
G01 X-5.7690 Y28.1297 
G01 X-5.7971 Y27.9525 
G01 X-5.8525 Y27.7819 
G01 X-5.9340 Y27.6220 
G01 X-6.0394 Y27.4769 
G01 X-6.1663 Y27.3500 
G01 X-6.3114 Y27.2446 
G01 X-6.4713 Y27.1631 
G01 X-6.6419 Y27.1077 
G01 X-6.8191 Y27.0796 
G01 X-6.9985 Y27.0796 
G01 X-7.1757 Y27.1077 
G01 X-7.3463 Y27.1631 
G01 X-7.5062 Y27.2446 
G01 X-7.6513 Y27.3500 
G01 X-7.7782 Y27.4769 
G01 X-7.8836 Y27.6220 
G01 X-7.9651 Y27.7819 
G01 X-8.0205 Y27.9525 
G01 X-8.0486 Y28.1297 
G01 X-8.0486 Y28.3091 
G01 X-8.0205 Y28.4863 
G01 X-7.9651 Y28.6569 
G01 X-7.9438 Y28.6988 
G01 X-9.3950 Y30.1500 
G01 X-18.6728 Y30.1500 
G01 X-18.5703 Y30.1075 
G01 X-18.4044 Y29.9967 
G01 X-18.2633 Y29.8556 
G01 X-18.1525 Y29.6897 
G01 X-18.0761 Y29.5054 
G01 X-18.0372 Y29.3098 
G01 X-18.0372 Y29.1102 
G01 X-18.0761 Y28.9146 
G01 X-18.1525 Y28.7303 
G01 X-18.2633 Y28.5644 
G01 X-18.4044 Y28.4233 
G01 X-18.5703 Y28.3125 
G01 X-18.7546 Y28.2361 
G01 X-18.9502 Y28.1972 
G01 X-19.1498 Y28.1972 
G01 X-19.3454 Y28.2361 
G01 X-19.5297 Y28.3125 
G01 X-19.6956 Y28.4233 
G01 X-19.8367 Y28.5644 
G01 X-19.9475 Y28.7303 
G01 X-20.0239 Y28.9146 
G01 X-20.0628 Y29.1102 
G01 X-20.0628 Y29.3098 
G01 X-20.0239 Y29.5054 
G01 X-19.9475 Y29.6897 
G01 X-19.8367 Y29.8556 
G01 X-19.6956 Y29.9967 
G01 X-19.5297 Y30.1075 
G01 X-19.4272 Y30.1500 
G01 X-33.0461 Y30.1500 
G01 X-33.1351 Y30.1739 
G01 X-33.2149 Y30.2199 
G01 X-33.8366 Y30.8416 
