(.../pcb-gcode-3.6.0.4/pcb-gcode.ulp)
(Copyright 2005 - 2012 by John Johnson)
(See readme.txt for licensing terms.)
(This file generated from the board:)
(.../eagle/eagle/SulaMatik/SulaMatik.brd)
(Current profile is .../pcb-gcode-3.6.0.4/profiles/emc.pp  )
(This file generated 7/15/2014 5:20:46 PM)
(Settings from pcb-machine.h)
(  Tool Size)
(0.1000 )
(Z Axis Settings)
(  High     Up        Down     Drill)
(19.5000 	2.0000 	-0.0250 	-1.5000 )
(spindle on time = 1.0000)
(milling depth = -0.0500)
(text depth = -0.0500)
(tool change at 15.0000 15.0000 19.0000 )
(feed rate xy = F508.00 )
(feed rate z  = F254.00 )
(Settings from pcb-defaults.h)
(isolate min = 0.0500)
(isolate max = 1.0000)
(isolate step = 0.1000)
(Generated top outlines, top drill, bottom outlines, bottom drill, )
(Unit of measure: mm)
( Tool|       Size       |  Min Sub |  Max Sub |   Count )
( T01  3.200mm 0.1260in 0.0000in 0.0000in )
( T02  0.508mm 0.0200in 0.0000in 0.0000in )
( T03  0.700mm 0.0276in 0.0000in 0.0000in )
( T04  0.813mm 0.0320in 0.0000in 0.0000in )
( T05  1.016mm 0.0400in 0.0000in 0.0000in )
( T06  1.118mm 0.0440in 0.0000in 0.0000in )
( T07  1.676mm 0.0660in 0.0000in 0.0000in )
(Metric Mode)
G21
(Absolute Coordinates)
G90
M05
G00 Z19.0000 
G00 X15.0000 Y15.0000 
M06 T01  ; 3.2000 
G01 Z0.0000 F254.00 
M06 T01  ; 3.2000 
G00 Z2.0000 
M03
G04 P1.000000
G00 Z2.000000
G00 X43.1800 Y5.0800 
G01 Z-1.5000 F254.00 
G01 Z2.000000
(R2.0000  P1.000000)
M05
G00 Z19.0000 
M06 T02  ; 0.5080 
G01 Z0.0000 F254.00 
M06 T02  ; 0.5080 
G00 Z2.0000 
M03
G04 P1.000000
G00 Z2.000000
G00 X44.5000 Y31.0000 
G01 Z-1.5000 F254.00 
G01 Z2.000000
(R2.0000  P1.000000)
(G00 Z2.000000)
G00 X23.5000 Y44.7500 
G01 Z-1.500000
G01 Z2.000000
(G00 Z2.000000)
G00 X28.2500 Y24.0000 
G01 Z-1.500000
G01 Z2.000000
M05
G00 Z19.0000 
M06 T03  ; 0.7000 
G01 Z0.0000 F254.00 
M06 T03  ; 0.7000 
G00 Z2.0000 
M03
G04 P1.000000
G00 Z2.000000
G00 X38.9400 Y25.4000 
G01 Z-1.5000 F254.00 
G01 Z2.000000
(R2.0000  P1.000000)
(G00 Z2.000000)
G00 X42.3400 Y25.4000 
G01 Z-1.500000
G01 Z2.000000
M05
G00 Z19.0000 
M06 T04  ; 0.8128 
G01 Z0.0000 F254.00 
M06 T04  ; 0.8128 
G00 Z2.0000 
M03
G04 P1.000000
G00 Z2.000000
G00 X3.8100 Y6.3500 
G01 Z-1.5000 F254.00 
G01 Z2.000000
(R2.0000  P1.000000)
(G00 Z2.000000)
G00 X3.8100 Y13.9700 
G01 Z-1.500000
G01 Z2.000000
(G00 Z2.000000)
G00 X39.3700 Y33.0200 
G01 Z-1.500000
G01 Z2.000000
(G00 Z2.000000)
G00 X41.9100 Y33.0200 
G01 Z-1.500000
G01 Z2.000000
(G00 Z2.000000)
G00 X6.3500 Y6.3500 
G01 Z-1.500000
G01 Z2.000000
(G00 Z2.000000)
G00 X6.3500 Y13.9700 
G01 Z-1.500000
G01 Z2.000000
(G00 Z2.000000)
G00 X8.8900 Y6.3500 
G01 Z-1.500000
G01 Z2.000000
(G00 Z2.000000)
G00 X8.8900 Y13.9700 
G01 Z-1.500000
G01 Z2.000000
(G00 Z2.000000)
G00 X11.4300 Y6.3500 
G01 Z-1.500000
G01 Z2.000000
(G00 Z2.000000)
G00 X11.4300 Y13.9700 
G01 Z-1.500000
G01 Z2.000000
(G00 Z2.000000)
G00 X13.9700 Y6.3500 
G01 Z-1.500000
G01 Z2.000000
(G00 Z2.000000)
G00 X13.9700 Y13.9700 
G01 Z-1.500000
G01 Z2.000000
(G00 Z2.000000)
G00 X16.5100 Y6.3500 
G01 Z-1.500000
G01 Z2.000000
(G00 Z2.000000)
G00 X16.5100 Y13.9700 
G01 Z-1.500000
G01 Z2.000000
(G00 Z2.000000)
G00 X19.0500 Y6.3500 
G01 Z-1.500000
G01 Z2.000000
(G00 Z2.000000)
G00 X19.0500 Y13.9700 
G01 Z-1.500000
G01 Z2.000000
(G00 Z2.000000)
G00 X21.5900 Y6.3500 
G01 Z-1.500000
G01 Z2.000000
(G00 Z2.000000)
G00 X21.5900 Y13.9700 
G01 Z-1.500000
G01 Z2.000000
(G00 Z2.000000)
G00 X24.1300 Y6.3500 
G01 Z-1.500000
G01 Z2.000000
(G00 Z2.000000)
G00 X24.1300 Y13.9700 
G01 Z-1.500000
G01 Z2.000000
(G00 Z2.000000)
G00 X26.6700 Y6.3500 
G01 Z-1.500000
G01 Z2.000000
(G00 Z2.000000)
G00 X26.6700 Y13.9700 
G01 Z-1.500000
G01 Z2.000000
M05
G00 Z19.0000 
M06 T05  ; 1.0160 
G01 Z0.0000 F254.00 
M06 T05  ; 1.0160 
G00 Z2.0000 
M03
G04 P1.000000
G00 Z2.000000
G00 X31.7500 Y40.6400 
G01 Z-1.5000 F254.00 
G01 Z2.000000
(R2.0000  P1.000000)
(G00 Z2.000000)
G00 X31.7500 Y43.1800 
G01 Z-1.500000
G01 Z2.000000
(G00 Z2.000000)
G00 X34.2900 Y31.7500 
G01 Z-1.500000
G01 Z2.000000
(G00 Z2.000000)
G00 X34.2900 Y34.2900 
G01 Z-1.500000
G01 Z2.000000
(G00 Z2.000000)
G00 X34.2900 Y36.8300 
G01 Z-1.500000
G01 Z2.000000
(G00 Z2.000000)
G00 X34.2900 Y39.3700 
G01 Z-1.500000
G01 Z2.000000
(G00 Z2.000000)
G00 X34.2900 Y41.9100 
G01 Z-1.500000
G01 Z2.000000
(G00 Z2.000000)
G00 X34.2900 Y44.4500 
G01 Z-1.500000
G01 Z2.000000
(G00 Z2.000000)
G00 X34.2900 Y46.9900 
G01 Z-1.500000
G01 Z2.000000
(G00 Z2.000000)
G00 X34.2900 Y49.5300 
G01 Z-1.500000
G01 Z2.000000
(G00 Z2.000000)
G00 X34.2900 Y52.0700 
G01 Z-1.500000
G01 Z2.000000
(G00 Z2.000000)
G00 X34.2900 Y24.1300 
G01 Z-1.500000
G01 Z2.000000
(G00 Z2.000000)
G00 X34.2900 Y26.6700 
G01 Z-1.500000
G01 Z2.000000
(G00 Z2.000000)
G00 X34.2900 Y29.2100 
G01 Z-1.500000
G01 Z2.000000
(G00 Z2.000000)
G00 X40.6400 Y39.3700 
G01 Z-1.500000
G01 Z2.000000
(G00 Z2.000000)
G00 X40.6400 Y41.9100 
G01 Z-1.500000
G01 Z2.000000
(G00 Z2.000000)
G00 X40.6400 Y44.4500 
G01 Z-1.500000
G01 Z2.000000
(G00 Z2.000000)
G00 X40.6400 Y46.9900 
G01 Z-1.500000
G01 Z2.000000
(G00 Z2.000000)
G00 X6.9088 Y32.7406 
G01 Z-1.500000
G01 Z2.000000
(G00 Z2.000000)
G00 X6.9088 Y28.2194 
G01 Z-1.500000
G01 Z2.000000
(G00 Z2.000000)
G00 X13.4112 Y32.7406 
G01 Z-1.500000
G01 Z2.000000
(G00 Z2.000000)
G00 X13.4112 Y28.2194 
G01 Z-1.500000
G01 Z2.000000
(G00 Z2.000000)
G00 X19.0500 Y31.7500 
G01 Z-1.500000
G01 Z2.000000
(G00 Z2.000000)
G00 X19.0500 Y34.2900 
G01 Z-1.500000
G01 Z2.000000
(G00 Z2.000000)
G00 X19.0500 Y36.8300 
G01 Z-1.500000
G01 Z2.000000
(G00 Z2.000000)
G00 X19.0500 Y39.3700 
G01 Z-1.500000
G01 Z2.000000
(G00 Z2.000000)
G00 X19.0500 Y41.9100 
G01 Z-1.500000
G01 Z2.000000
(G00 Z2.000000)
G00 X19.0500 Y44.4500 
G01 Z-1.500000
G01 Z2.000000
(G00 Z2.000000)
G00 X19.0500 Y46.9900 
G01 Z-1.500000
G01 Z2.000000
(G00 Z2.000000)
G00 X19.0500 Y49.5300 
G01 Z-1.500000
G01 Z2.000000
(G00 Z2.000000)
G00 X19.0500 Y52.0700 
G01 Z-1.500000
G01 Z2.000000
(G00 Z2.000000)
G00 X19.0500 Y24.1300 
G01 Z-1.500000
G01 Z2.000000
(G00 Z2.000000)
G00 X19.0500 Y26.6700 
G01 Z-1.500000
G01 Z2.000000
(G00 Z2.000000)
G00 X19.0500 Y29.2100 
G01 Z-1.500000
G01 Z2.000000
M05
G00 Z19.0000 
M06 T06  ; 1.1176 
G01 Z0.0000 F254.00 
M06 T06  ; 1.1176 
G00 Z2.0000 
M03
G04 P1.000000
G00 Z2.000000
G00 X5.0800 Y58.4200 
G01 Z-1.5000 F254.00 
G01 Z2.000000
(R2.0000  P1.000000)
(G00 Z2.000000)
G00 X8.8900 Y58.4200 
G01 Z-1.500000
G01 Z2.000000
(G00 Z2.000000)
G00 X1.2700 Y58.4200 
G01 Z-1.500000
G01 Z2.000000
M05
G00 Z19.0000 
M06 T07  ; 1.6764 
G01 Z0.0000 F254.00 
M06 T07  ; 1.6764 
G00 Z2.0000 
M03
G04 P1.000000
G00 Z2.000000
G00 X33.5788 Y5.0800 
G01 Z-1.5000 F254.00 
G01 Z2.000000
(R2.0000  P1.000000)
(G00 Z2.000000)
G00 X37.5412 Y5.0800 
G01 Z-1.500000
G01 Z2.000000
(G00 Z2.000000)
G00 X43.1800 Y53.8988 
G01 Z-1.500000
G01 Z2.000000
(G00 Z2.000000)
G00 X43.1800 Y57.8612 
G01 Z-1.500000
G01 Z2.000000
(G00 Z2.000000)
G00 X45.7200 Y13.2588 
G01 Z-1.500000
G01 Z2.000000
(G00 Z2.000000)
G00 X45.7200 Y17.2212 
G01 Z-1.500000
G01 Z2.000000
(G00 Z2.000000)
G00 X15.7988 Y58.4200 
G01 Z-1.500000
G01 Z2.000000
(G00 Z2.000000)
G00 X19.7612 Y58.4200 
G01 Z-1.500000
G01 Z2.000000
T01 
G00 Z19.5000 
M05
M02
