(.../pcb-gcode-3.6.0.4/pcb-gcode.ulp)
(Copyright 2005 - 2012 by John Johnson)
(See readme.txt for licensing terms.)
(This file generated from the board:)
(.../eagle/eagle/SulaMatik/SulaMatik.brd)
(Current profile is .../pcb-gcode-3.6.0.4/profiles/emc.pp  )
(This file generated 7/10/2014 3:32:54 PM)
(Settings from pcb-machine.h)
(  Tool Size)
(0.1000 )
(Z Axis Settings)
(  High     Up        Down     Drill)
(15.0000 	2.0000 	-0.0250 	-1.5000 )
(spindle on time = 1.0000)
(milling depth = -0.0500)
(text depth = -0.0500)
(tool change at 15.0000 15.0000 15.0000 )
(feed rate xy = F508.00 )
(feed rate z  = F254.00 )
(Settings from pcb-defaults.h)
(isolate min = 0.0500)
(isolate max = 0.3000)
(isolate step = 0.1000)
(Generated top outlines, top drill, bottom outlines, bottom drill, )
(Unit of measure: mm)
(Metric Mode)
G21
(Absolute Coordinates)
G90
G00 X0.0000 Y0.0000 
M03
G04 P1.000000
G00 Z2.0000 
G00 X-37.7428 Y51.9801 
G01 Z-0.0250 F254.00 
G01 X-37.7428 Y52.1599 F508.00 
G01 X-37.7077 Y52.3363 
G01 X-37.6389 Y52.5024 
G01 X-37.5390 Y52.6519 
G01 X-37.4119 Y52.7790 
G01 X-37.2624 Y52.8789 
G01 X-37.0963 Y52.9477 
G01 X-36.9199 Y52.9828 
G01 X-36.7401 Y52.9828 
G01 X-36.5637 Y52.9477 
G01 X-36.3976 Y52.8789 
G01 X-36.2481 Y52.7790 
G01 X-36.1210 Y52.6519 
G01 X-36.0211 Y52.5024 
G01 X-35.9523 Y52.3363 
G01 X-35.9172 Y52.1599 
G01 X-35.9172 Y51.9801 
G01 X-35.9523 Y51.8037 
G01 X-36.0211 Y51.6376 
G01 X-36.1210 Y51.4881 
G01 X-36.2481 Y51.3610 
G01 X-36.3976 Y51.2611 
G01 X-36.5637 Y51.1923 
G01 X-36.7401 Y51.1572 
G01 X-36.9199 Y51.1572 
G01 X-37.0963 Y51.1923 
G01 X-37.2624 Y51.2611 
G01 X-37.4119 Y51.3610 
G01 X-37.5390 Y51.4881 
G01 X-37.6389 Y51.6376 
G01 X-37.7077 Y51.8037 
G01 X-37.7428 Y51.9801 
G00 Z2.0000 
G00 X-37.7428 Y49.4401 
G01 Z-0.0250 F254.00 
G01 X-37.7428 Y49.6199 F508.00 
G01 X-37.7077 Y49.7963 
G01 X-37.6389 Y49.9624 
G01 X-37.5390 Y50.1119 
G01 X-37.4119 Y50.2390 
G01 X-37.2624 Y50.3389 
G01 X-37.0963 Y50.4077 
G01 X-36.9199 Y50.4428 
G01 X-36.7401 Y50.4428 
G01 X-36.5637 Y50.4077 
G01 X-36.3976 Y50.3389 
G01 X-36.2481 Y50.2390 
G01 X-36.1210 Y50.1119 
G01 X-36.0211 Y49.9624 
G01 X-35.9523 Y49.7963 
G01 X-35.9172 Y49.6199 
G01 X-35.9172 Y49.4401 
G01 X-35.9523 Y49.2637 
G01 X-36.0211 Y49.0976 
G01 X-36.1210 Y48.9481 
G01 X-36.2481 Y48.8210 
G01 X-36.3976 Y48.7211 
G01 X-36.5637 Y48.6523 
G01 X-36.7401 Y48.6172 
G01 X-36.9199 Y48.6172 
G01 X-37.0963 Y48.6523 
G01 X-37.2624 Y48.7211 
G01 X-37.4119 Y48.8210 
G01 X-37.5390 Y48.9481 
G01 X-37.6389 Y49.0976 
G01 X-37.7077 Y49.2637 
G01 X-37.7428 Y49.4401 
G00 Z2.0000 
G00 X-37.7428 Y46.9001 
G01 Z-0.0250 F254.00 
G01 X-37.7428 Y47.0799 F508.00 
G01 X-37.7077 Y47.2563 
G01 X-37.6389 Y47.4224 
G01 X-37.5390 Y47.5719 
G01 X-37.4119 Y47.6990 
G01 X-37.2624 Y47.7989 
G01 X-37.0963 Y47.8677 
G01 X-36.9199 Y47.9028 
G01 X-36.7401 Y47.9028 
G01 X-36.5637 Y47.8677 
G01 X-36.3976 Y47.7989 
G01 X-36.2481 Y47.6990 
G01 X-36.1210 Y47.5719 
G01 X-36.0211 Y47.4224 
G01 X-35.9523 Y47.2563 
G01 X-35.9510 Y47.2500 
G01 X-22.4690 Y47.2500 
G01 X-22.4677 Y47.2563 
G01 X-22.3989 Y47.4224 
G01 X-22.2990 Y47.5719 
G01 X-22.1719 Y47.6990 
G01 X-22.0224 Y47.7989 
G01 X-21.8563 Y47.8677 
G01 X-21.6799 Y47.9028 
G01 X-21.5001 Y47.9028 
G01 X-21.3237 Y47.8677 
G01 X-21.1576 Y47.7989 
G01 X-21.0081 Y47.6990 
G01 X-20.8810 Y47.5719 
G01 X-20.7811 Y47.4224 
G01 X-20.7123 Y47.2563 
G01 X-20.6772 Y47.0799 
G01 X-20.6772 Y46.9001 
G01 X-20.7123 Y46.7237 
G01 X-20.7811 Y46.5576 
G01 X-20.8810 Y46.4081 
G01 X-21.0081 Y46.2810 
G01 X-21.1576 Y46.1811 
G01 X-21.3237 Y46.1123 
G01 X-21.5001 Y46.0772 
G01 X-21.6799 Y46.0772 
G01 X-21.8563 Y46.1123 
G01 X-22.0224 Y46.1811 
G01 X-22.1719 Y46.2810 
G01 X-22.2990 Y46.4081 
G01 X-22.3989 Y46.5576 
G01 X-22.4677 Y46.7237 
G01 X-22.4729 Y46.7500 
G01 X-35.9471 Y46.7500 
G01 X-35.9523 Y46.7237 
G01 X-36.0211 Y46.5576 
G01 X-36.1210 Y46.4081 
G01 X-36.2481 Y46.2810 
G01 X-36.3976 Y46.1811 
G01 X-36.5637 Y46.1123 
G01 X-36.7401 Y46.0772 
G01 X-36.9199 Y46.0772 
G01 X-37.0963 Y46.1123 
G01 X-37.2624 Y46.1811 
G01 X-37.4119 Y46.2810 
G01 X-37.5390 Y46.4081 
G01 X-37.6389 Y46.5576 
G01 X-37.7077 Y46.7237 
G01 X-37.7428 Y46.9001 
G00 Z2.0000 
G00 X-37.7428 Y41.8201 
G01 Z-0.0250 F254.00 
G01 X-37.7428 Y41.9999 F508.00 
G01 X-37.7077 Y42.1763 
G01 X-37.6389 Y42.3424 
G01 X-37.5390 Y42.4919 
G01 X-37.4119 Y42.6190 
G01 X-37.2624 Y42.7189 
G01 X-37.0963 Y42.7877 
G01 X-36.9199 Y42.8228 
G01 X-36.7401 Y42.8228 
G01 X-36.5637 Y42.7877 
G01 X-36.3976 Y42.7189 
G01 X-36.2481 Y42.6190 
G01 X-36.1210 Y42.4919 
G01 X-36.0211 Y42.3424 
G01 X-35.9523 Y42.1763 
G01 X-35.9172 Y41.9999 
G01 X-35.9172 Y41.8201 
G01 X-35.9523 Y41.6437 
G01 X-36.0211 Y41.4776 
G01 X-36.1210 Y41.3281 
G01 X-36.2481 Y41.2010 
G01 X-36.3976 Y41.1011 
G01 X-36.5637 Y41.0323 
G01 X-36.7401 Y40.9972 
G01 X-36.9199 Y40.9972 
G01 X-37.0963 Y41.0323 
G01 X-37.2624 Y41.1011 
G01 X-37.4119 Y41.2010 
G01 X-37.5390 Y41.3281 
G01 X-37.6389 Y41.4776 
G01 X-37.7077 Y41.6437 
G01 X-37.7428 Y41.8201 
G00 Z2.0000 
G00 X-37.7428 Y39.2801 
G01 Z-0.0250 F254.00 
G01 X-37.7428 Y39.4599 F508.00 
G01 X-37.7077 Y39.6363 
G01 X-37.6389 Y39.8024 
G01 X-37.5390 Y39.9519 
G01 X-37.4119 Y40.0790 
G01 X-37.2624 Y40.1789 
G01 X-37.0963 Y40.2477 
G01 X-36.9199 Y40.2828 
G01 X-36.7401 Y40.2828 
G01 X-36.5637 Y40.2477 
G01 X-36.3976 Y40.1789 
G01 X-36.2481 Y40.0790 
G01 X-36.1210 Y39.9519 
G01 X-36.0211 Y39.8024 
G01 X-35.9523 Y39.6363 
G01 X-35.9172 Y39.4599 
G01 X-35.9172 Y39.2801 
G01 X-35.9523 Y39.1037 
G01 X-36.0211 Y38.9376 
G01 X-36.1210 Y38.7881 
G01 X-36.2481 Y38.6610 
G01 X-36.3976 Y38.5611 
G01 X-36.5637 Y38.4923 
G01 X-36.7401 Y38.4572 
G01 X-36.9199 Y38.4572 
G01 X-37.0963 Y38.4923 
G01 X-37.2624 Y38.5611 
G01 X-37.4119 Y38.6610 
G01 X-37.5390 Y38.7881 
G01 X-37.6389 Y38.9376 
G01 X-37.7077 Y39.1037 
G01 X-37.7428 Y39.2801 
G00 Z2.0000 
G00 X-37.7428 Y36.7401 
G01 Z-0.0250 F254.00 
G01 X-37.7428 Y36.9199 F508.00 
G01 X-37.7077 Y37.0963 
G01 X-37.6389 Y37.2624 
G01 X-37.5390 Y37.4119 
G01 X-37.4119 Y37.5390 
G01 X-37.2624 Y37.6389 
G01 X-37.0963 Y37.7077 
G01 X-36.9199 Y37.7428 
G01 X-36.7401 Y37.7428 
G01 X-36.5637 Y37.7077 
G01 X-36.3976 Y37.6389 
G01 X-36.2481 Y37.5390 
G01 X-36.1210 Y37.4119 
G01 X-36.0211 Y37.2624 
G01 X-35.9523 Y37.0963 
G01 X-35.9172 Y36.9199 
G01 X-35.9172 Y36.7401 
G01 X-35.9523 Y36.5637 
G01 X-36.0211 Y36.3976 
G01 X-36.1210 Y36.2481 
G01 X-36.2481 Y36.1210 
G01 X-36.3976 Y36.0211 
G01 X-36.5637 Y35.9523 
G01 X-36.7401 Y35.9172 
G01 X-36.9199 Y35.9172 
G01 X-37.0963 Y35.9523 
G01 X-37.2624 Y36.0211 
G01 X-37.4119 Y36.1210 
G01 X-37.5390 Y36.2481 
G01 X-37.6389 Y36.3976 
G01 X-37.7077 Y36.5637 
G01 X-37.7428 Y36.7401 
G00 Z2.0000 
G00 X-37.7428 Y34.2001 
G01 Z-0.0250 F254.00 
G01 X-37.7428 Y34.3799 F508.00 
G01 X-37.7077 Y34.5563 
G01 X-37.6389 Y34.7224 
G01 X-37.5390 Y34.8719 
G01 X-37.4119 Y34.9990 
G01 X-37.2624 Y35.0989 
G01 X-37.0963 Y35.1677 
G01 X-36.9199 Y35.2028 
G01 X-36.7401 Y35.2028 
G01 X-36.5637 Y35.1677 
G01 X-36.3976 Y35.0989 
G01 X-36.2481 Y34.9990 
G01 X-36.1210 Y34.8719 
G01 X-36.0211 Y34.7224 
G01 X-35.9523 Y34.5563 
G01 X-35.9172 Y34.3799 
G01 X-35.9172 Y34.2001 
G01 X-35.9523 Y34.0237 
G01 X-36.0211 Y33.8576 
G01 X-36.1210 Y33.7081 
G01 X-36.2481 Y33.5810 
G01 X-36.3976 Y33.4811 
G01 X-36.5637 Y33.4123 
G01 X-36.7401 Y33.3772 
G01 X-36.9199 Y33.3772 
G01 X-37.0963 Y33.4123 
G01 X-37.2624 Y33.4811 
G01 X-37.4119 Y33.5810 
G01 X-37.5390 Y33.7081 
G01 X-37.6389 Y33.8576 
G01 X-37.7077 Y34.0237 
G01 X-37.7428 Y34.2001 
G00 Z2.0000 
G00 X-37.7428 Y31.6601 
G01 Z-0.0250 F254.00 
G01 X-37.7428 Y31.8399 F508.00 
G01 X-37.7077 Y32.0163 
G01 X-37.6389 Y32.1824 
G01 X-37.5390 Y32.3319 
G01 X-37.4119 Y32.4590 
G01 X-37.2624 Y32.5589 
G01 X-37.0963 Y32.6277 
G01 X-36.9199 Y32.6628 
G01 X-36.7401 Y32.6628 
G01 X-36.5637 Y32.6277 
G01 X-36.3976 Y32.5589 
G01 X-36.2481 Y32.4590 
G01 X-36.1210 Y32.3319 
G01 X-36.0211 Y32.1824 
G01 X-35.9523 Y32.0163 
G01 X-35.9172 Y31.8399 
G01 X-35.9172 Y31.6601 
G01 X-35.9523 Y31.4837 
G01 X-36.0211 Y31.3176 
G01 X-36.1210 Y31.1681 
G01 X-36.2481 Y31.0410 
G01 X-36.3976 Y30.9411 
G01 X-36.5637 Y30.8723 
G01 X-36.7401 Y30.8372 
G01 X-36.9199 Y30.8372 
G01 X-37.0963 Y30.8723 
G01 X-37.2624 Y30.9411 
G01 X-37.4119 Y31.0410 
G01 X-37.5390 Y31.1681 
G01 X-37.6389 Y31.3176 
G01 X-37.7077 Y31.4837 
G01 X-37.7428 Y31.6601 
G00 Z2.0000 
G00 X-37.7428 Y29.1201 
G01 Z-0.0250 F254.00 
G01 X-37.7428 Y29.2999 F508.00 
G01 X-37.7077 Y29.4763 
G01 X-37.6389 Y29.6424 
G01 X-37.5390 Y29.7919 
G01 X-37.4119 Y29.9190 
G01 X-37.2624 Y30.0189 
G01 X-37.0963 Y30.0877 
G01 X-36.9199 Y30.1228 
G01 X-36.7401 Y30.1228 
G01 X-36.5637 Y30.0877 
G01 X-36.3976 Y30.0189 
G01 X-36.2481 Y29.9190 
G01 X-36.1210 Y29.7919 
G01 X-36.0211 Y29.6424 
G01 X-35.9523 Y29.4763 
G01 X-35.9172 Y29.2999 
G01 X-35.9172 Y29.1201 
G01 X-35.9523 Y28.9437 
G01 X-36.0211 Y28.7776 
G01 X-36.1210 Y28.6281 
G01 X-36.2481 Y28.5010 
G01 X-36.3976 Y28.4011 
G01 X-36.5637 Y28.3323 
G01 X-36.7401 Y28.2972 
G01 X-36.9199 Y28.2972 
G01 X-37.0963 Y28.3323 
G01 X-37.2624 Y28.4011 
G01 X-37.4119 Y28.5010 
G01 X-37.5390 Y28.6281 
G01 X-37.6389 Y28.7776 
G01 X-37.7077 Y28.9437 
G01 X-37.7428 Y29.1201 
G00 Z2.0000 
G00 X-37.7428 Y26.5801 
G01 Z-0.0250 F254.00 
G01 X-37.7428 Y26.7599 F508.00 
G01 X-37.7077 Y26.9363 
G01 X-37.6389 Y27.1024 
G01 X-37.5390 Y27.2519 
G01 X-37.4119 Y27.3790 
G01 X-37.2624 Y27.4789 
G01 X-37.0963 Y27.5477 
G01 X-36.9199 Y27.5828 
G01 X-36.7401 Y27.5828 
G01 X-36.5637 Y27.5477 
G01 X-36.3976 Y27.4789 
G01 X-36.2481 Y27.3790 
G01 X-36.1210 Y27.2519 
G01 X-36.0211 Y27.1024 
G01 X-35.9523 Y26.9363 
G01 X-35.9172 Y26.7599 
G01 X-35.9172 Y26.5801 
G01 X-35.9523 Y26.4037 
G01 X-36.0211 Y26.2376 
G01 X-36.1210 Y26.0881 
G01 X-36.2481 Y25.9610 
G01 X-36.3976 Y25.8611 
G01 X-36.5637 Y25.7923 
G01 X-36.7401 Y25.7572 
G01 X-36.9199 Y25.7572 
G01 X-37.0963 Y25.7923 
G01 X-37.2624 Y25.8611 
G01 X-37.4119 Y25.9610 
G01 X-37.5390 Y26.0881 
G01 X-37.6389 Y26.2376 
G01 X-37.7077 Y26.4037 
G01 X-37.7428 Y26.5801 
G00 Z2.0000 
G00 X-37.7428 Y24.0401 
G01 Z-0.0250 F254.00 
G01 X-37.7428 Y24.2199 F508.00 
G01 X-37.7077 Y24.3963 
G01 X-37.6389 Y24.5624 
G01 X-37.5390 Y24.7119 
G01 X-37.4119 Y24.8390 
G01 X-37.2624 Y24.9389 
G01 X-37.0963 Y25.0077 
G01 X-36.9199 Y25.0428 
G01 X-36.7401 Y25.0428 
G01 X-36.5637 Y25.0077 
G01 X-36.3976 Y24.9389 
G01 X-36.2481 Y24.8390 
G01 X-36.1210 Y24.7119 
G01 X-36.0211 Y24.5624 
G01 X-35.9523 Y24.3963 
G01 X-35.9172 Y24.2199 
G01 X-35.9172 Y24.0401 
G01 X-35.9523 Y23.8637 
G01 X-36.0211 Y23.6976 
G01 X-36.1210 Y23.5481 
G01 X-36.2481 Y23.4210 
G01 X-36.3976 Y23.3211 
G01 X-36.5637 Y23.2523 
G01 X-36.7401 Y23.2172 
G01 X-36.9199 Y23.2172 
G01 X-37.0963 Y23.2523 
G01 X-37.2624 Y23.3211 
G01 X-37.4119 Y23.4210 
G01 X-37.5390 Y23.5481 
G01 X-37.6389 Y23.6976 
G01 X-37.7077 Y23.8637 
G01 X-37.7428 Y24.0401 
G00 Z2.0000 
G00 X-22.5028 Y24.0401 
G01 Z-0.0250 F254.00 
G01 X-22.5028 Y24.2199 F508.00 
G01 X-22.4677 Y24.3963 
G01 X-22.3989 Y24.5624 
G01 X-22.2990 Y24.7119 
G01 X-22.1719 Y24.8390 
G01 X-22.0224 Y24.9389 
G01 X-21.8563 Y25.0077 
G01 X-21.6799 Y25.0428 
G01 X-21.5001 Y25.0428 
G01 X-21.3237 Y25.0077 
G01 X-21.1576 Y24.9389 
G01 X-21.0081 Y24.8390 
G01 X-20.8810 Y24.7119 
G01 X-20.7811 Y24.5624 
G01 X-20.7123 Y24.3963 
G01 X-20.6772 Y24.2199 
G01 X-20.6772 Y24.0401 
G01 X-20.7123 Y23.8637 
G01 X-20.7811 Y23.6976 
G01 X-20.8810 Y23.5481 
G01 X-21.0081 Y23.4210 
G01 X-21.1576 Y23.3211 
G01 X-21.3237 Y23.2523 
G01 X-21.5001 Y23.2172 
G01 X-21.6799 Y23.2172 
G01 X-21.8563 Y23.2523 
G01 X-22.0224 Y23.3211 
G01 X-22.1719 Y23.4210 
G01 X-22.2990 Y23.5481 
G01 X-22.3989 Y23.6976 
G01 X-22.4677 Y23.8637 
G01 X-22.5028 Y24.0401 
G00 Z2.0000 
G00 X-22.5028 Y26.5801 
G01 Z-0.0250 F254.00 
G01 X-22.5028 Y26.7599 F508.00 
G01 X-22.4677 Y26.9363 
G01 X-22.3989 Y27.1024 
G01 X-22.2990 Y27.2519 
G01 X-22.1719 Y27.3790 
G01 X-22.0224 Y27.4789 
G01 X-21.8563 Y27.5477 
G01 X-21.6799 Y27.5828 
G01 X-21.5001 Y27.5828 
G01 X-21.3237 Y27.5477 
G01 X-21.1576 Y27.4789 
G01 X-21.0081 Y27.3790 
G01 X-20.8810 Y27.2519 
G01 X-20.7811 Y27.1024 
G01 X-20.7123 Y26.9363 
G01 X-20.6772 Y26.7599 
G01 X-20.6772 Y26.5801 
G01 X-20.7123 Y26.4037 
G01 X-20.7811 Y26.2376 
G01 X-20.8810 Y26.0881 
G01 X-21.0081 Y25.9610 
G01 X-21.1576 Y25.8611 
G01 X-21.3237 Y25.7923 
G01 X-21.5001 Y25.7572 
G01 X-21.6799 Y25.7572 
G01 X-21.8563 Y25.7923 
G01 X-22.0224 Y25.8611 
G01 X-22.1719 Y25.9610 
G01 X-22.2990 Y26.0881 
G01 X-22.3989 Y26.2376 
G01 X-22.4677 Y26.4037 
G01 X-22.5028 Y26.5801 
G00 Z2.0000 
G00 X-22.5028 Y29.1201 
G01 Z-0.0250 F254.00 
G01 X-22.5028 Y29.2999 F508.00 
G01 X-22.4677 Y29.4763 
G01 X-22.3989 Y29.6424 
G01 X-22.2990 Y29.7919 
G01 X-22.1719 Y29.9190 
G01 X-22.0224 Y30.0189 
G01 X-21.8563 Y30.0877 
G01 X-21.6799 Y30.1228 
G01 X-21.5001 Y30.1228 
G01 X-21.3237 Y30.0877 
G01 X-21.1576 Y30.0189 
G01 X-21.0081 Y29.9190 
G01 X-20.8810 Y29.7919 
G01 X-20.7811 Y29.6424 
G01 X-20.7123 Y29.4763 
G01 X-20.6772 Y29.2999 
G01 X-20.6772 Y29.1201 
G01 X-20.7123 Y28.9437 
G01 X-20.7811 Y28.7776 
G01 X-20.8810 Y28.6281 
G01 X-21.0081 Y28.5010 
G01 X-21.1576 Y28.4011 
G01 X-21.3237 Y28.3323 
G01 X-21.5001 Y28.2972 
G01 X-21.6799 Y28.2972 
G01 X-21.8563 Y28.3323 
G01 X-22.0224 Y28.4011 
G01 X-22.1719 Y28.5010 
G01 X-22.2990 Y28.6281 
G01 X-22.3989 Y28.7776 
G01 X-22.4677 Y28.9437 
G01 X-22.5028 Y29.1201 
G00 Z2.0000 
G00 X-22.5028 Y31.6601 
G01 Z-0.0250 F254.00 
G01 X-22.5028 Y31.8399 F508.00 
G01 X-22.4677 Y32.0163 
G01 X-22.3989 Y32.1824 
G01 X-22.2990 Y32.3319 
G01 X-22.1719 Y32.4590 
G01 X-22.0224 Y32.5589 
G01 X-21.8563 Y32.6277 
G01 X-21.6799 Y32.6628 
G01 X-21.5001 Y32.6628 
G01 X-21.3237 Y32.6277 
G01 X-21.1576 Y32.5589 
G01 X-21.0081 Y32.4590 
G01 X-20.8810 Y32.3319 
G01 X-20.7811 Y32.1824 
G01 X-20.7123 Y32.0163 
G01 X-20.6772 Y31.8399 
G01 X-20.6772 Y31.6601 
G01 X-20.7123 Y31.4837 
G01 X-20.7811 Y31.3176 
G01 X-20.8810 Y31.1681 
G01 X-21.0081 Y31.0410 
G01 X-21.1576 Y30.9411 
G01 X-21.3237 Y30.8723 
G01 X-21.5001 Y30.8372 
G01 X-21.6799 Y30.8372 
G01 X-21.8563 Y30.8723 
G01 X-22.0224 Y30.9411 
G01 X-22.1719 Y31.0410 
G01 X-22.2990 Y31.1681 
G01 X-22.3989 Y31.3176 
G01 X-22.4677 Y31.4837 
G01 X-22.5028 Y31.6601 
G00 Z2.0000 
G00 X-22.5028 Y34.2001 
G01 Z-0.0250 F254.00 
G01 X-22.5028 Y34.3799 F508.00 
G01 X-22.4677 Y34.5563 
G01 X-22.3989 Y34.7224 
G01 X-22.2990 Y34.8719 
G01 X-22.1719 Y34.9990 
G01 X-22.0224 Y35.0989 
G01 X-21.8563 Y35.1677 
G01 X-21.6799 Y35.2028 
G01 X-21.5001 Y35.2028 
G01 X-21.3237 Y35.1677 
G01 X-21.1576 Y35.0989 
G01 X-21.0081 Y34.9990 
G01 X-20.8810 Y34.8719 
G01 X-20.7811 Y34.7224 
G01 X-20.7123 Y34.5563 
G01 X-20.6772 Y34.3799 
G01 X-20.6772 Y34.2001 
G01 X-20.7123 Y34.0237 
G01 X-20.7811 Y33.8576 
G01 X-20.8810 Y33.7081 
G01 X-21.0081 Y33.5810 
G01 X-21.1576 Y33.4811 
G01 X-21.3237 Y33.4123 
G01 X-21.5001 Y33.3772 
G01 X-21.6799 Y33.3772 
G01 X-21.8563 Y33.4123 
G01 X-22.0224 Y33.4811 
G01 X-22.1719 Y33.5810 
G01 X-22.2990 Y33.7081 
G01 X-22.3989 Y33.8576 
G01 X-22.4677 Y34.0237 
G01 X-22.5028 Y34.2001 
G00 Z2.0000 
G00 X-22.5028 Y36.7401 
G01 Z-0.0250 F254.00 
G01 X-22.5028 Y36.9199 F508.00 
G01 X-22.4677 Y37.0963 
G01 X-22.3989 Y37.2624 
G01 X-22.2990 Y37.4119 
G01 X-22.1719 Y37.5390 
G01 X-22.0224 Y37.6389 
G01 X-21.8563 Y37.7077 
G01 X-21.6799 Y37.7428 
G01 X-21.5001 Y37.7428 
G01 X-21.3237 Y37.7077 
G01 X-21.1576 Y37.6389 
G01 X-21.0081 Y37.5390 
G01 X-20.8810 Y37.4119 
G01 X-20.7811 Y37.2624 
G01 X-20.7123 Y37.0963 
G01 X-20.6772 Y36.9199 
G01 X-20.6772 Y36.7401 
G01 X-20.7123 Y36.5637 
G01 X-20.7811 Y36.3976 
G01 X-20.8810 Y36.2481 
G01 X-21.0081 Y36.1210 
G01 X-21.1576 Y36.0211 
G01 X-21.3237 Y35.9523 
G01 X-21.5001 Y35.9172 
G01 X-21.6799 Y35.9172 
G01 X-21.8563 Y35.9523 
G01 X-22.0224 Y36.0211 
G01 X-22.1719 Y36.1210 
G01 X-22.2990 Y36.2481 
G01 X-22.3989 Y36.3976 
G01 X-22.4677 Y36.5637 
G01 X-22.5028 Y36.7401 
G00 Z2.0000 
G00 X-22.5028 Y39.2801 
G01 Z-0.0250 F254.00 
G01 X-22.5028 Y39.4599 F508.00 
G01 X-22.4677 Y39.6363 
G01 X-22.3989 Y39.8024 
G01 X-22.2990 Y39.9519 
G01 X-22.1719 Y40.0790 
G01 X-22.0224 Y40.1789 
G01 X-21.8563 Y40.2477 
G01 X-21.6799 Y40.2828 
G01 X-21.5001 Y40.2828 
G01 X-21.3237 Y40.2477 
G01 X-21.1576 Y40.1789 
G01 X-21.0081 Y40.0790 
G01 X-20.8810 Y39.9519 
G01 X-20.7811 Y39.8024 
G01 X-20.7123 Y39.6363 
G01 X-20.6772 Y39.4599 
G01 X-20.6772 Y39.2801 
G01 X-20.7123 Y39.1037 
G01 X-20.7811 Y38.9376 
G01 X-20.8810 Y38.7881 
G01 X-21.0081 Y38.6610 
G01 X-21.1576 Y38.5611 
G01 X-21.3237 Y38.4923 
G01 X-21.5001 Y38.4572 
G01 X-21.6799 Y38.4572 
G01 X-21.8563 Y38.4923 
G01 X-22.0224 Y38.5611 
G01 X-22.1719 Y38.6610 
G01 X-22.2990 Y38.7881 
G01 X-22.3989 Y38.9376 
G01 X-22.4677 Y39.1037 
G01 X-22.5028 Y39.2801 
G00 Z2.0000 
G00 X-22.5028 Y41.8201 
G01 Z-0.0250 F254.00 
G01 X-22.5028 Y41.9999 F508.00 
G01 X-22.4677 Y42.1763 
G01 X-22.3989 Y42.3424 
G01 X-22.2990 Y42.4919 
G01 X-22.1719 Y42.6190 
G01 X-22.0224 Y42.7189 
G01 X-21.8563 Y42.7877 
G01 X-21.6799 Y42.8228 
G01 X-21.5001 Y42.8228 
G01 X-21.3237 Y42.7877 
G01 X-21.1576 Y42.7189 
G01 X-21.0081 Y42.6190 
G01 X-20.8810 Y42.4919 
G01 X-20.7811 Y42.3424 
G01 X-20.7123 Y42.1763 
G01 X-20.6772 Y41.9999 
G01 X-20.6772 Y41.8201 
G01 X-20.7123 Y41.6437 
G01 X-20.7811 Y41.4776 
G01 X-20.8810 Y41.3281 
G01 X-21.0081 Y41.2010 
G01 X-21.1576 Y41.1011 
G01 X-21.3237 Y41.0323 
G01 X-21.5001 Y40.9972 
G01 X-21.6799 Y40.9972 
G01 X-21.8563 Y41.0323 
G01 X-22.0224 Y41.1011 
G01 X-22.1719 Y41.2010 
G01 X-22.2990 Y41.3281 
G01 X-22.3989 Y41.4776 
G01 X-22.4677 Y41.6437 
G01 X-22.5028 Y41.8201 
G00 Z2.0000 
G00 X-22.5028 Y49.4401 
G01 Z-0.0250 F254.00 
G01 X-22.5028 Y49.6199 F508.00 
G01 X-22.4677 Y49.7963 
G01 X-22.3989 Y49.9624 
G01 X-22.2990 Y50.1119 
G01 X-22.1719 Y50.2390 
G01 X-22.0224 Y50.3389 
G01 X-21.8563 Y50.4077 
G01 X-21.6799 Y50.4428 
G01 X-21.5001 Y50.4428 
G01 X-21.3237 Y50.4077 
G01 X-21.1576 Y50.3389 
G01 X-21.0081 Y50.2390 
G01 X-20.8810 Y50.1119 
G01 X-20.7811 Y49.9624 
G01 X-20.7123 Y49.7963 
G01 X-20.6772 Y49.6199 
G01 X-20.6772 Y49.4401 
G01 X-20.7123 Y49.2637 
G01 X-20.7811 Y49.0976 
G01 X-20.8810 Y48.9481 
G01 X-21.0081 Y48.8210 
G01 X-21.1576 Y48.7211 
G01 X-21.3237 Y48.6523 
G01 X-21.5001 Y48.6172 
G01 X-21.6799 Y48.6172 
G01 X-21.8563 Y48.6523 
G01 X-22.0224 Y48.7211 
G01 X-22.1719 Y48.8210 
G01 X-22.2990 Y48.9481 
G01 X-22.3989 Y49.0976 
G01 X-22.4677 Y49.2637 
G01 X-22.5028 Y49.4401 
G00 Z2.0000 
G00 X-22.5028 Y51.9801 
G01 Z-0.0250 F254.00 
G01 X-22.5028 Y52.1599 F508.00 
G01 X-22.4677 Y52.3363 
G01 X-22.3989 Y52.5024 
G01 X-22.2990 Y52.6519 
G01 X-22.1719 Y52.7790 
G01 X-22.0224 Y52.8789 
G01 X-21.8563 Y52.9477 
G01 X-21.6799 Y52.9828 
G01 X-21.5001 Y52.9828 
G01 X-21.3237 Y52.9477 
G01 X-21.1576 Y52.8789 
G01 X-21.0081 Y52.7790 
G01 X-20.8810 Y52.6519 
G01 X-20.7811 Y52.5024 
G01 X-20.7123 Y52.3363 
G01 X-20.6772 Y52.1599 
G01 X-20.6772 Y51.9801 
G01 X-20.7123 Y51.8037 
G01 X-20.7811 Y51.6376 
G01 X-20.8810 Y51.4881 
G01 X-21.0081 Y51.3610 
G01 X-21.1576 Y51.2611 
G01 X-21.3237 Y51.1923 
G01 X-21.5001 Y51.1572 
G01 X-21.6799 Y51.1572 
G01 X-21.8563 Y51.1923 
G01 X-22.0224 Y51.2611 
G01 X-22.1719 Y51.3610 
G01 X-22.2990 Y51.4881 
G01 X-22.3989 Y51.6376 
G01 X-22.4677 Y51.8037 
G01 X-22.5028 Y51.9801 
G00 Z2.0000 
G00 X-35.2028 Y40.5501 
G01 Z-0.0250 F254.00 
G01 X-35.2028 Y40.7299 F508.00 
G01 X-35.1677 Y40.9063 
G01 X-35.0989 Y41.0724 
G01 X-34.9990 Y41.2219 
G01 X-34.8719 Y41.3490 
G01 X-34.7224 Y41.4489 
G01 X-34.5563 Y41.5177 
G01 X-34.3799 Y41.5528 
G01 X-34.2001 Y41.5528 
G01 X-34.0237 Y41.5177 
G01 X-33.8576 Y41.4489 
G01 X-33.7081 Y41.3490 
G01 X-33.5810 Y41.2219 
G01 X-33.4811 Y41.0724 
G01 X-33.4123 Y40.9063 
G01 X-33.3772 Y40.7299 
G01 X-33.3772 Y40.5501 
G01 X-33.4123 Y40.3737 
G01 X-33.4811 Y40.2076 
G01 X-33.5810 Y40.0581 
G01 X-33.7081 Y39.9310 
G01 X-33.8576 Y39.8311 
G01 X-34.0237 Y39.7623 
G01 X-34.2001 Y39.7272 
G01 X-34.3799 Y39.7272 
G01 X-34.5563 Y39.7623 
G01 X-34.7224 Y39.8311 
G01 X-34.8719 Y39.9310 
G01 X-34.9990 Y40.0581 
G01 X-35.0989 Y40.2076 
G01 X-35.1677 Y40.3737 
G01 X-35.2028 Y40.5501 
G00 Z2.0000 
G00 X-35.2028 Y43.0901 
G01 Z-0.0250 F254.00 
G01 X-35.2028 Y43.2699 F508.00 
G01 X-35.1677 Y43.4463 
G01 X-35.0989 Y43.6124 
G01 X-34.9990 Y43.7619 
G01 X-34.8719 Y43.8890 
G01 X-34.7224 Y43.9889 
G01 X-34.5563 Y44.0577 
G01 X-34.3799 Y44.0928 
G01 X-34.2001 Y44.0928 
G01 X-34.0237 Y44.0577 
G01 X-33.8576 Y43.9889 
G01 X-33.7081 Y43.8890 
G01 X-33.5810 Y43.7619 
G01 X-33.4811 Y43.6124 
G01 X-33.4123 Y43.4463 
G01 X-33.3772 Y43.2699 
G01 X-33.3772 Y43.0901 
G01 X-33.4123 Y42.9137 
G01 X-33.4811 Y42.7476 
G01 X-33.5810 Y42.5981 
G01 X-33.7081 Y42.4710 
G01 X-33.8576 Y42.3711 
G01 X-34.0237 Y42.3023 
G01 X-34.2001 Y42.2672 
G01 X-34.3799 Y42.2672 
G01 X-34.5563 Y42.3023 
G01 X-34.7224 Y42.3711 
G01 X-34.8719 Y42.4710 
G01 X-34.9990 Y42.5981 
G01 X-35.0989 Y42.7476 
G01 X-35.1677 Y42.9137 
G01 X-35.2028 Y43.0901 
G00 Z2.0000 
G00 X-38.8985 Y3.7159 
G01 Z-0.0250 F254.00 
G01 X-38.8985 Y6.4441 F508.00 
G01 X-38.8651 Y6.6551 
G01 X-38.7991 Y6.8583 
G01 X-38.7021 Y7.0487 
G01 X-38.5765 Y7.2215 
G01 X-38.4254 Y7.3726 
G01 X-38.2526 Y7.4982 
G01 X-38.0622 Y7.5952 
G01 X-37.8590 Y7.6612 
G01 X-37.6480 Y7.6946 
G01 X-37.4344 Y7.6946 
G01 X-37.2234 Y7.6612 
G01 X-37.0202 Y7.5952 
G01 X-36.8298 Y7.4982 
G01 X-36.6570 Y7.3726 
G01 X-36.5059 Y7.2215 
G01 X-36.3803 Y7.0487 
G01 X-36.2833 Y6.8583 
G01 X-36.2173 Y6.6551 
G01 X-36.1839 Y6.4441 
G01 X-36.1839 Y3.7159 
G01 X-36.2173 Y3.5049 
G01 X-36.2833 Y3.3017 
G01 X-36.3803 Y3.1113 
G01 X-36.5059 Y2.9385 
G01 X-36.6570 Y2.7874 
G01 X-36.8298 Y2.6618 
G01 X-37.0202 Y2.5648 
G01 X-37.2234 Y2.4988 
G01 X-37.4344 Y2.4654 
G01 X-37.6480 Y2.4654 
G01 X-37.8590 Y2.4988 
G01 X-38.0622 Y2.5648 
G01 X-38.2526 Y2.6618 
G01 X-38.4254 Y2.7874 
G01 X-38.5765 Y2.9385 
G01 X-38.7021 Y3.1113 
G01 X-38.7991 Y3.3017 
G01 X-38.8651 Y3.5049 
G01 X-38.8985 Y3.7159 
G00 Z2.0000 
G00 X-14.0192 Y59.0494 
G01 Z-0.0250 F254.00 
G01 X-14.0192 Y59.2130 F508.00 
G01 X-13.9936 Y59.3747 
G01 X-13.9430 Y59.5303 
G01 X-13.8687 Y59.6762 
G01 X-13.7725 Y59.8086 
G01 X-13.6568 Y59.9243 
G01 X-13.5244 Y60.0205 
G01 X-13.3785 Y60.0948 
G01 X-13.2229 Y60.1454 
G01 X-13.0612 Y60.1710 
G01 X-12.8976 Y60.1710 
G01 X-12.7359 Y60.1454 
G01 X-12.5803 Y60.0948 
G01 X-12.4344 Y60.0205 
G01 X-12.3020 Y59.9243 
G01 X-12.1863 Y59.8086 
G01 X-12.0901 Y59.6762 
G01 X-12.0158 Y59.5303 
G01 X-11.9652 Y59.3747 
G01 X-11.9396 Y59.2130 
G01 X-11.9396 Y59.0494 
G01 X-11.9652 Y58.8877 
G01 X-12.0158 Y58.7321 
G01 X-12.0901 Y58.5862 
G01 X-12.1863 Y58.4538 
G01 X-12.3020 Y58.3381 
G01 X-12.4344 Y58.2419 
G01 X-12.5803 Y58.1676 
G01 X-12.7359 Y58.1170 
G01 X-12.8976 Y58.0914 
G01 X-13.0612 Y58.0914 
G01 X-13.2229 Y58.1170 
G01 X-13.3785 Y58.1676 
G01 X-13.5244 Y58.2419 
G01 X-13.6568 Y58.3381 
G01 X-13.7725 Y58.4538 
G01 X-13.8687 Y58.5862 
G01 X-13.9430 Y58.7321 
G01 X-13.9936 Y58.8877 
G01 X-14.0192 Y59.0494 
G00 Z2.0000 
G00 X-18.5404 Y52.5470 
G01 Z-0.0250 F254.00 
G01 X-18.5404 Y52.7106 F508.00 
G01 X-18.5148 Y52.8723 
G01 X-18.4642 Y53.0279 
G01 X-18.3899 Y53.1738 
G01 X-18.2937 Y53.3062 
G01 X-18.1780 Y53.4219 
G01 X-18.0456 Y53.5181 
G01 X-17.8997 Y53.5924 
G01 X-17.7441 Y53.6430 
G01 X-17.5824 Y53.6686 
G01 X-17.4188 Y53.6686 
G01 X-17.2571 Y53.6430 
G01 X-17.1015 Y53.5924 
G01 X-16.9556 Y53.5181 
G01 X-16.8232 Y53.4219 
G01 X-16.7075 Y53.3062 
G01 X-16.6113 Y53.1738 
G01 X-16.5370 Y53.0279 
G01 X-16.4864 Y52.8723 
G01 X-16.4608 Y52.7106 
G01 X-16.4608 Y52.5470 
G01 X-16.4864 Y52.3853 
G01 X-16.5370 Y52.2297 
G01 X-16.6113 Y52.0838 
G01 X-16.7075 Y51.9514 
G01 X-16.8232 Y51.8357 
G01 X-16.9556 Y51.7395 
G01 X-17.1015 Y51.6652 
G01 X-17.2571 Y51.6146 
G01 X-17.4188 Y51.5890 
G01 X-17.5824 Y51.5890 
G01 X-17.7441 Y51.6146 
G01 X-17.8997 Y51.6652 
G01 X-18.0456 Y51.7395 
G01 X-18.1780 Y51.8357 
G01 X-18.2937 Y51.9514 
G01 X-18.3899 Y52.0838 
G01 X-18.4642 Y52.2297 
G01 X-18.5148 Y52.3853 
G01 X-18.5404 Y52.5470 
G00 Z2.0000 
G00 X-18.5404 Y59.0494 
G01 Z-0.0250 F254.00 
G01 X-18.5404 Y59.2130 F508.00 
G01 X-18.5148 Y59.3747 
G01 X-18.4642 Y59.5303 
G01 X-18.3899 Y59.6762 
G01 X-18.2937 Y59.8086 
G01 X-18.1780 Y59.9243 
G01 X-18.0456 Y60.0205 
G01 X-17.8997 Y60.0948 
G01 X-17.7441 Y60.1454 
G01 X-17.5824 Y60.1710 
G01 X-17.4188 Y60.1710 
G01 X-17.2571 Y60.1454 
G01 X-17.1015 Y60.0948 
G01 X-16.9556 Y60.0205 
G01 X-16.8232 Y59.9243 
G01 X-16.7075 Y59.8086 
G01 X-16.6113 Y59.6762 
G01 X-16.5370 Y59.5303 
G01 X-16.4864 Y59.3747 
G01 X-16.4608 Y59.2130 
G01 X-16.4608 Y59.0494 
G01 X-16.4864 Y58.8877 
G01 X-16.5370 Y58.7321 
G01 X-16.6113 Y58.5862 
G01 X-16.7075 Y58.4538 
G01 X-16.8232 Y58.3381 
G01 X-16.9556 Y58.2419 
G01 X-17.1015 Y58.1676 
G01 X-17.2571 Y58.1170 
G01 X-17.4188 Y58.0914 
G01 X-17.5824 Y58.0914 
G01 X-17.7441 Y58.1170 
G01 X-17.8997 Y58.1676 
G01 X-18.0456 Y58.2419 
G01 X-18.1780 Y58.3381 
G01 X-18.2937 Y58.4538 
G01 X-18.3899 Y58.5862 
G01 X-18.4642 Y58.7321 
G01 X-18.5148 Y58.8877 
G01 X-18.5404 Y59.0494 
G00 Z2.0000 
G00 X-0.3064 Y59.3785 
G01 Z-0.0250 F254.00 
G01 X-0.3064 Y57.4615 F508.00 
G01 X-0.3434 Y57.2753 
G01 X-0.4161 Y57.1000 
G01 X-0.5215 Y56.9421 
G01 X-0.6557 Y56.8079 
G01 X-0.8136 Y56.7025 
G01 X-0.9889 Y56.6298 
G01 X-1.1751 Y56.5928 
G01 X-1.3649 Y56.5928 
G01 X-1.5511 Y56.6298 
G01 X-1.7264 Y56.7025 
G01 X-1.8843 Y56.8079 
G01 X-2.0185 Y56.9421 
G01 X-2.1239 Y57.1000 
G01 X-2.1966 Y57.2753 
G01 X-2.2336 Y57.4615 
G01 X-2.2336 Y59.3785 
G01 X-2.1966 Y59.5647 
G01 X-2.1239 Y59.7400 
G01 X-2.0185 Y59.8979 
G01 X-1.8843 Y60.0321 
G01 X-1.7264 Y60.1375 
G01 X-1.5511 Y60.2102 
G01 X-1.3649 Y60.2472 
G01 X-1.1751 Y60.2472 
G01 X-0.9889 Y60.2102 
G01 X-0.8136 Y60.1375 
G01 X-0.6557 Y60.0321 
G01 X-0.5215 Y59.8979 
G01 X-0.4161 Y59.7400 
G01 X-0.3434 Y59.5647 
G01 X-0.3064 Y59.3785 
G00 Z2.0000 
G00 X-4.1164 Y59.3785 
G01 Z-0.0250 F254.00 
G01 X-4.1164 Y57.4615 F508.00 
G01 X-4.1534 Y57.2753 
G01 X-4.2261 Y57.1000 
G01 X-4.3315 Y56.9421 
G01 X-4.4657 Y56.8079 
G01 X-4.6236 Y56.7025 
G01 X-4.7989 Y56.6298 
G01 X-4.9851 Y56.5928 
G01 X-5.1749 Y56.5928 
G01 X-5.3611 Y56.6298 
G01 X-5.5364 Y56.7025 
G01 X-5.6943 Y56.8079 
G01 X-5.8285 Y56.9421 
G01 X-5.9339 Y57.1000 
G01 X-5.9669 Y57.1796 
G01 X-7.0381 Y56.1084 
G01 X-7.1084 Y56.0381 
G01 X-7.2003 Y56.0000 
G01 X-23.7997 Y56.0000 
G01 X-23.8916 Y56.0381 
G01 X-24.6505 Y56.7969 
G01 X-24.7009 Y56.6417 
G01 X-24.7979 Y56.4513 
G01 X-24.9235 Y56.2785 
G01 X-25.0746 Y56.1274 
G01 X-25.2474 Y56.0018 
G01 X-25.4378 Y55.9048 
G01 X-25.6410 Y55.8388 
G01 X-25.8520 Y55.8054 
G01 X-26.0656 Y55.8054 
G01 X-26.2766 Y55.8388 
G01 X-26.4798 Y55.9048 
G01 X-26.6702 Y56.0018 
G01 X-26.8430 Y56.1274 
G01 X-26.9941 Y56.2785 
G01 X-27.1197 Y56.4513 
G01 X-27.2167 Y56.6417 
G01 X-27.2827 Y56.8449 
G01 X-27.3161 Y57.0559 
G01 X-27.3161 Y59.7841 
G01 X-27.2827 Y59.9951 
G01 X-27.2167 Y60.1983 
G01 X-27.1197 Y60.3887 
G01 X-26.9941 Y60.5615 
G01 X-26.8430 Y60.7126 
G01 X-26.6702 Y60.8382 
G01 X-26.4798 Y60.9352 
G01 X-26.2766 Y61.0012 
G01 X-26.0656 Y61.0346 
G01 X-25.8520 Y61.0346 
G01 X-25.6410 Y61.0012 
G01 X-25.4378 Y60.9352 
G01 X-25.2474 Y60.8382 
G01 X-25.0746 Y60.7126 
G01 X-24.9235 Y60.5615 
G01 X-24.7979 Y60.3887 
G01 X-24.7009 Y60.1983 
G01 X-24.6349 Y59.9951 
G01 X-24.6015 Y59.7841 
G01 X-24.6015 Y57.4551 
G01 X-23.6464 Y56.5000 
G01 X-7.3536 Y56.5000 
G01 X-6.0436 Y57.8100 
G01 X-6.0436 Y59.3785 
G01 X-6.0066 Y59.5647 
G01 X-5.9339 Y59.7400 
G01 X-5.8285 Y59.8979 
G01 X-5.6943 Y60.0321 
G01 X-5.5364 Y60.1375 
G01 X-5.3611 Y60.2102 
G01 X-5.1749 Y60.2472 
G01 X-4.9851 Y60.2472 
G01 X-4.7989 Y60.2102 
G01 X-4.6236 Y60.1375 
G01 X-4.4657 Y60.0321 
G01 X-4.3315 Y59.8979 
G01 X-4.2261 Y59.7400 
G01 X-4.1534 Y59.5647 
G01 X-4.1164 Y59.3785 
G00 Z2.0000 
G00 X-7.9264 Y59.3785 
G01 Z-0.0250 F254.00 
G01 X-7.9264 Y57.4615 F508.00 
G01 X-7.9634 Y57.2753 
G01 X-8.0361 Y57.1000 
G01 X-8.1415 Y56.9421 
G01 X-8.2757 Y56.8079 
G01 X-8.4336 Y56.7025 
G01 X-8.6089 Y56.6298 
G01 X-8.7951 Y56.5928 
G01 X-8.9849 Y56.5928 
G01 X-9.1711 Y56.6298 
G01 X-9.3464 Y56.7025 
G01 X-9.5043 Y56.8079 
G01 X-9.6385 Y56.9421 
G01 X-9.7439 Y57.1000 
G01 X-9.8166 Y57.2753 
G01 X-9.8536 Y57.4615 
G01 X-9.8536 Y59.3785 
G01 X-9.8166 Y59.5647 
G01 X-9.7439 Y59.7400 
G01 X-9.6385 Y59.8979 
G01 X-9.5043 Y60.0321 
G01 X-9.3464 Y60.1375 
G01 X-9.1711 Y60.2102 
G01 X-8.9849 Y60.2472 
G01 X-8.7951 Y60.2472 
G01 X-8.6089 Y60.2102 
G01 X-8.4336 Y60.1375 
G01 X-8.2757 Y60.0321 
G01 X-8.1415 Y59.8979 
G01 X-8.0361 Y59.7400 
G01 X-7.9634 Y59.5647 
G01 X-7.9264 Y59.3785 
G00 Z2.0000 
G00 X-13.6128 Y41.0073 
G01 Z-0.0250 F254.00 
G01 X-13.6128 Y42.8127 F508.00 
G01 X-13.5777 Y42.9891 
G01 X-13.5089 Y43.1552 
G01 X-13.4090 Y43.3047 
G01 X-13.2819 Y43.4318 
G01 X-13.1324 Y43.5317 
G01 X-12.9663 Y43.6005 
G01 X-12.7899 Y43.6356 
G01 X-12.6101 Y43.6356 
G01 X-12.4337 Y43.6005 
G01 X-12.2676 Y43.5317 
G01 X-12.1181 Y43.4318 
G01 X-11.9910 Y43.3047 
G01 X-11.8911 Y43.1552 
G01 X-11.8223 Y42.9891 
G01 X-11.7872 Y42.8127 
G01 X-11.7872 Y41.0073 
G01 X-11.8223 Y40.8309 
G01 X-11.8911 Y40.6648 
G01 X-11.9910 Y40.5153 
G01 X-12.1181 Y40.3882 
G01 X-12.2676 Y40.2883 
G01 X-12.4337 Y40.2195 
G01 X-12.6101 Y40.1844 
G01 X-12.7899 Y40.1844 
G01 X-12.9663 Y40.2195 
G01 X-13.1324 Y40.2883 
G01 X-13.2819 Y40.3882 
G01 X-13.4090 Y40.5153 
G01 X-13.5089 Y40.6648 
G01 X-13.5777 Y40.8309 
G01 X-13.6128 Y41.0073 
G00 Z2.0000 
G00 X-11.0728 Y41.0073 
G01 Z-0.0250 F254.00 
G01 X-11.0728 Y42.4692 F508.00 
G01 X-12.3536 Y43.7500 
G01 X-20.9991 Y43.7500 
G01 X-21.0081 Y43.7410 
G01 X-21.1576 Y43.6411 
G01 X-21.3237 Y43.5723 
G01 X-21.5001 Y43.5372 
G01 X-21.6799 Y43.5372 
G01 X-21.8563 Y43.5723 
G01 X-22.0224 Y43.6411 
G01 X-22.1719 Y43.7410 
G01 X-22.2990 Y43.8681 
G01 X-22.3989 Y44.0176 
G01 X-22.4677 Y44.1837 
G01 X-22.5028 Y44.3601 
G01 X-22.5028 Y44.5399 
G01 X-22.4677 Y44.7163 
G01 X-22.3989 Y44.8824 
G01 X-22.2990 Y45.0319 
G01 X-22.1719 Y45.1590 
G01 X-22.0224 Y45.2589 
G01 X-21.8563 Y45.3277 
G01 X-21.6799 Y45.3628 
G01 X-21.5001 Y45.3628 
G01 X-21.3237 Y45.3277 
G01 X-21.1576 Y45.2589 
G01 X-21.0081 Y45.1590 
G01 X-20.8810 Y45.0319 
G01 X-20.7811 Y44.8824 
G01 X-20.7123 Y44.7163 
G01 X-20.6772 Y44.5399 
G01 X-20.6772 Y44.3601 
G01 X-20.6991 Y44.2500 
G01 X-12.2003 Y44.2500 
G01 X-12.1084 Y44.2119 
G01 X-10.9931 Y43.0967 
G01 X-10.9689 Y43.1552 
G01 X-10.8690 Y43.3047 
G01 X-10.7419 Y43.4318 
G01 X-10.5924 Y43.5317 
G01 X-10.4263 Y43.6005 
G01 X-10.2499 Y43.6356 
G01 X-10.0701 Y43.6356 
G01 X-9.8937 Y43.6005 
G01 X-9.7276 Y43.5317 
G01 X-9.5781 Y43.4318 
G01 X-9.4510 Y43.3047 
G01 X-9.3511 Y43.1552 
G01 X-9.2823 Y42.9891 
G01 X-9.2472 Y42.8127 
G01 X-9.2472 Y41.0073 
G01 X-9.2823 Y40.8309 
G01 X-9.3511 Y40.6648 
G01 X-9.4510 Y40.5153 
G01 X-9.5781 Y40.3882 
G01 X-9.7276 Y40.2883 
G01 X-9.8937 Y40.2195 
G01 X-10.0701 Y40.1844 
G01 X-10.2499 Y40.1844 
G01 X-10.4263 Y40.2195 
G01 X-10.5924 Y40.2883 
G01 X-10.7419 Y40.3882 
G01 X-10.8690 Y40.5153 
G01 X-10.9689 Y40.6648 
G01 X-11.0377 Y40.8309 
G01 X-11.0728 Y41.0073 
G00 Z2.0000 
G00 X-8.5328 Y41.0073 
G01 Z-0.0250 F254.00 
G01 X-8.5328 Y42.8127 F508.00 
G01 X-8.4977 Y42.9891 
G01 X-8.4289 Y43.1552 
G01 X-8.3290 Y43.3047 
G01 X-8.2019 Y43.4318 
G01 X-8.0524 Y43.5317 
G01 X-8.0000 Y43.5534 
G01 X-8.0000 Y52.2500 
G01 X-12.0092 Y52.2500 
G01 X-12.0158 Y52.2297 
G01 X-12.0901 Y52.0838 
G01 X-12.1863 Y51.9514 
G01 X-12.3020 Y51.8357 
G01 X-12.4344 Y51.7395 
G01 X-12.5803 Y51.6652 
G01 X-12.7359 Y51.6146 
G01 X-12.8976 Y51.5890 
G01 X-13.0612 Y51.5890 
G01 X-13.2229 Y51.6146 
G01 X-13.3785 Y51.6652 
G01 X-13.4466 Y51.6999 
G01 X-19.6084 Y45.5381 
G01 X-19.7003 Y45.5000 
G01 X-27.1464 Y45.5000 
G01 X-33.2500 Y39.3964 
G01 X-33.2500 Y7.6576 
G01 X-33.0578 Y7.5952 
G01 X-32.8674 Y7.4982 
G01 X-32.6946 Y7.3726 
G01 X-32.5435 Y7.2215 
G01 X-32.4179 Y7.0487 
G01 X-32.3209 Y6.8583 
G01 X-32.2549 Y6.6551 
G01 X-32.2215 Y6.4441 
G01 X-32.2215 Y3.7159 
G01 X-32.2549 Y3.5049 
G01 X-32.3209 Y3.3017 
G01 X-32.4179 Y3.1113 
G01 X-32.5435 Y2.9385 
G01 X-32.6946 Y2.7874 
G01 X-32.8674 Y2.6618 
G01 X-33.0578 Y2.5648 
G01 X-33.2610 Y2.4988 
G01 X-33.4720 Y2.4654 
G01 X-33.6856 Y2.4654 
G01 X-33.8966 Y2.4988 
G01 X-34.0998 Y2.5648 
G01 X-34.2902 Y2.6618 
G01 X-34.4630 Y2.7874 
G01 X-34.6141 Y2.9385 
G01 X-34.7397 Y3.1113 
G01 X-34.8367 Y3.3017 
G01 X-34.9027 Y3.5049 
G01 X-34.9361 Y3.7159 
G01 X-34.9361 Y6.4441 
G01 X-34.9027 Y6.6551 
G01 X-34.8367 Y6.8583 
G01 X-34.7397 Y7.0487 
G01 X-34.6141 Y7.2215 
G01 X-34.4630 Y7.3726 
G01 X-34.2902 Y7.4982 
G01 X-34.0998 Y7.5952 
G01 X-33.8966 Y7.6612 
G01 X-33.7500 Y7.6844 
G01 X-33.7500 Y39.5497 
G01 X-33.7119 Y39.6416 
G01 X-27.8535 Y45.5000 
G01 X-35.3964 Y45.5000 
G01 X-36.0190 Y44.8774 
G01 X-35.9523 Y44.7163 
G01 X-35.9172 Y44.5399 
G01 X-35.9172 Y44.3601 
G01 X-35.9523 Y44.1837 
G01 X-36.0211 Y44.0176 
G01 X-36.1210 Y43.8681 
G01 X-36.2481 Y43.7410 
G01 X-36.3976 Y43.6411 
G01 X-36.5637 Y43.5723 
G01 X-36.7401 Y43.5372 
G01 X-36.9199 Y43.5372 
G01 X-37.0963 Y43.5723 
G01 X-37.2624 Y43.6411 
G01 X-37.4119 Y43.7410 
G01 X-37.5390 Y43.8681 
G01 X-37.6389 Y44.0176 
G01 X-37.7077 Y44.1837 
G01 X-37.7428 Y44.3601 
G01 X-37.7428 Y44.5399 
G01 X-37.7077 Y44.7163 
G01 X-37.6389 Y44.8824 
G01 X-37.5390 Y45.0319 
G01 X-37.4119 Y45.1590 
G01 X-37.2624 Y45.2589 
G01 X-37.0963 Y45.3277 
G01 X-36.9199 Y45.3628 
G01 X-36.7401 Y45.3628 
G01 X-36.5637 Y45.3277 
G01 X-36.3976 Y45.2589 
G01 X-36.3659 Y45.2377 
G01 X-35.7119 Y45.8916 
G01 X-35.6416 Y45.9619 
G01 X-35.5497 Y46.0000 
G01 X-19.8536 Y46.0000 
G01 X-13.8271 Y52.0265 
G01 X-13.8687 Y52.0838 
G01 X-13.9430 Y52.2297 
G01 X-13.9936 Y52.3853 
G01 X-14.0192 Y52.5470 
G01 X-14.0192 Y52.7106 
G01 X-13.9936 Y52.8723 
G01 X-13.9430 Y53.0279 
G01 X-13.8687 Y53.1738 
G01 X-13.7725 Y53.3062 
G01 X-13.6568 Y53.4219 
G01 X-13.5244 Y53.5181 
G01 X-13.3785 Y53.5924 
G01 X-13.2229 Y53.6430 
G01 X-13.0612 Y53.6686 
G01 X-12.8976 Y53.6686 
G01 X-12.7359 Y53.6430 
G01 X-12.5803 Y53.5924 
G01 X-12.4344 Y53.5181 
G01 X-12.3020 Y53.4219 
G01 X-12.1863 Y53.3062 
G01 X-12.0901 Y53.1738 
G01 X-12.0158 Y53.0279 
G01 X-11.9652 Y52.8723 
G01 X-11.9458 Y52.7500 
G01 X-7.7003 Y52.7500 
G01 X-7.6084 Y52.7119 
G01 X-7.5381 Y52.6416 
G01 X-7.5000 Y52.5497 
G01 X-7.5000 Y43.6296 
G01 X-7.3537 Y43.6005 
G01 X-7.1876 Y43.5317 
G01 X-7.0381 Y43.4318 
G01 X-6.9110 Y43.3047 
G01 X-6.8111 Y43.1552 
G01 X-6.7423 Y42.9891 
G01 X-6.7072 Y42.8127 
G01 X-6.7072 Y41.0073 
G01 X-6.7423 Y40.8309 
G01 X-6.8111 Y40.6648 
G01 X-6.9110 Y40.5153 
G01 X-7.0381 Y40.3882 
G01 X-7.1876 Y40.2883 
G01 X-7.3537 Y40.2195 
G01 X-7.5301 Y40.1844 
G01 X-7.7099 Y40.1844 
G01 X-7.8863 Y40.2195 
G01 X-8.0524 Y40.2883 
G01 X-8.2019 Y40.3882 
G01 X-8.3290 Y40.5153 
G01 X-8.4289 Y40.6648 
G01 X-8.4977 Y40.8309 
G01 X-8.5328 Y41.0073 
G00 Z2.0000 
G00 X-28.5639 Y59.7841 
G01 Z-0.0250 F254.00 
G01 X-28.5639 Y57.0559 F508.00 
G01 X-28.5973 Y56.8449 
G01 X-28.6633 Y56.6417 
G01 X-28.7603 Y56.4513 
G01 X-28.8859 Y56.2785 
G01 X-29.0370 Y56.1274 
G01 X-29.2098 Y56.0018 
G01 X-29.4002 Y55.9048 
G01 X-29.6034 Y55.8388 
G01 X-29.8144 Y55.8054 
G01 X-30.0280 Y55.8054 
G01 X-30.2390 Y55.8388 
G01 X-30.4422 Y55.9048 
G01 X-30.6326 Y56.0018 
G01 X-30.8054 Y56.1274 
G01 X-30.9565 Y56.2785 
G01 X-31.0821 Y56.4513 
G01 X-31.1791 Y56.6417 
G01 X-31.2451 Y56.8449 
G01 X-31.2785 Y57.0559 
G01 X-31.2785 Y59.7841 
G01 X-31.2451 Y59.9951 
G01 X-31.1791 Y60.1983 
G01 X-31.0821 Y60.3887 
G01 X-30.9565 Y60.5615 
G01 X-30.8054 Y60.7126 
G01 X-30.6326 Y60.8382 
G01 X-30.4422 Y60.9352 
G01 X-30.2390 Y61.0012 
G01 X-30.0280 Y61.0346 
G01 X-29.8144 Y61.0346 
G01 X-29.6034 Y61.0012 
G01 X-29.4002 Y60.9352 
G01 X-29.2098 Y60.8382 
G01 X-29.0370 Y60.7126 
G01 X-28.8859 Y60.5615 
G01 X-28.7603 Y60.3887 
G01 X-28.6633 Y60.1983 
G01 X-28.5973 Y59.9951 
G01 X-28.5639 Y59.7841 
G00 Z2.0000 
G00 X-27.4812 Y13.1789 
G01 Z-0.0250 F254.00 
G01 X-27.4812 Y14.7611 F508.00 
G01 X-27.4500 Y14.9178 
G01 X-27.3889 Y15.0654 
G01 X-27.3001 Y15.1983 
G01 X-27.1871 Y15.3113 
G01 X-27.0542 Y15.4001 
G01 X-26.9066 Y15.4612 
G01 X-26.7499 Y15.4924 
G01 X-26.5901 Y15.4924 
G01 X-26.4334 Y15.4612 
G01 X-26.2858 Y15.4001 
G01 X-26.1529 Y15.3113 
G01 X-26.0399 Y15.1983 
G01 X-25.9511 Y15.0654 
G01 X-25.8900 Y14.9178 
G01 X-25.8588 Y14.7611 
G01 X-25.8588 Y13.1789 
G01 X-25.8900 Y13.0222 
G01 X-25.9511 Y12.8746 
G01 X-26.0399 Y12.7417 
G01 X-26.1529 Y12.6287 
G01 X-26.2858 Y12.5399 
G01 X-26.4334 Y12.4788 
G01 X-26.5901 Y12.4476 
G01 X-26.7499 Y12.4476 
G01 X-26.9066 Y12.4788 
G01 X-27.0542 Y12.5399 
G01 X-27.1871 Y12.6287 
G01 X-27.3001 Y12.7417 
G01 X-27.3889 Y12.8746 
G01 X-27.4500 Y13.0222 
G01 X-27.4812 Y13.1789 
G00 Z2.0000 
G00 X-24.9412 Y13.1789 
G01 Z-0.0250 F254.00 
G01 X-24.9412 Y14.7611 F508.00 
G01 X-24.9100 Y14.9178 
G01 X-24.8489 Y15.0654 
G01 X-24.7601 Y15.1983 
G01 X-24.6471 Y15.3113 
G01 X-24.5142 Y15.4001 
G01 X-24.3666 Y15.4612 
G01 X-24.2099 Y15.4924 
G01 X-24.0501 Y15.4924 
G01 X-23.8934 Y15.4612 
G01 X-23.7458 Y15.4001 
G01 X-23.6129 Y15.3113 
G01 X-23.4999 Y15.1983 
G01 X-23.4111 Y15.0654 
G01 X-23.3500 Y14.9178 
G01 X-23.3188 Y14.7611 
G01 X-23.3188 Y13.1789 
G01 X-23.3500 Y13.0222 
G01 X-23.4111 Y12.8746 
G01 X-23.4999 Y12.7417 
G01 X-23.6129 Y12.6287 
G01 X-23.7458 Y12.5399 
G01 X-23.8934 Y12.4788 
G01 X-24.0501 Y12.4476 
G01 X-24.2099 Y12.4476 
G01 X-24.3666 Y12.4788 
G01 X-24.5142 Y12.5399 
G01 X-24.6471 Y12.6287 
G01 X-24.7601 Y12.7417 
G01 X-24.8489 Y12.8746 
G01 X-24.9100 Y13.0222 
G01 X-24.9412 Y13.1789 
G00 Z2.0000 
G00 X-22.4012 Y13.1789 
G01 Z-0.0250 F254.00 
G01 X-22.4012 Y14.7611 F508.00 
G01 X-22.3700 Y14.9178 
G01 X-22.3089 Y15.0654 
G01 X-22.2201 Y15.1983 
G01 X-22.1071 Y15.3113 
G01 X-21.9742 Y15.4001 
G01 X-21.8266 Y15.4612 
G01 X-21.6699 Y15.4924 
G01 X-21.5101 Y15.4924 
G01 X-21.3534 Y15.4612 
G01 X-21.2058 Y15.4001 
G01 X-21.0729 Y15.3113 
G01 X-20.9599 Y15.1983 
G01 X-20.8711 Y15.0654 
G01 X-20.8100 Y14.9178 
G01 X-20.7788 Y14.7611 
G01 X-20.7788 Y13.1789 
G01 X-20.8100 Y13.0222 
G01 X-20.8711 Y12.8746 
G01 X-20.9599 Y12.7417 
G01 X-21.0729 Y12.6287 
G01 X-21.2058 Y12.5399 
G01 X-21.3534 Y12.4788 
G01 X-21.5101 Y12.4476 
G01 X-21.6699 Y12.4476 
G01 X-21.8266 Y12.4788 
G01 X-21.9742 Y12.5399 
G01 X-22.1071 Y12.6287 
G01 X-22.2201 Y12.7417 
G01 X-22.3089 Y12.8746 
G01 X-22.3700 Y13.0222 
G01 X-22.4012 Y13.1789 
G00 Z2.0000 
G00 X-19.8612 Y13.1789 
G01 Z-0.0250 F254.00 
G01 X-19.8612 Y14.7611 F508.00 
G01 X-19.8300 Y14.9178 
G01 X-19.7689 Y15.0654 
G01 X-19.6801 Y15.1983 
G01 X-19.5671 Y15.3113 
G01 X-19.4342 Y15.4001 
G01 X-19.2866 Y15.4612 
G01 X-19.1299 Y15.4924 
G01 X-18.9701 Y15.4924 
G01 X-18.8134 Y15.4612 
G01 X-18.6657 Y15.4001 
G01 X-18.5329 Y15.3113 
G01 X-18.4199 Y15.1983 
G01 X-18.3311 Y15.0654 
G01 X-18.2700 Y14.9178 
G01 X-18.2388 Y14.7611 
G01 X-18.2388 Y13.1789 
G01 X-18.2700 Y13.0222 
G01 X-18.3311 Y12.8746 
G01 X-18.4199 Y12.7417 
G01 X-18.5329 Y12.6287 
G01 X-18.6657 Y12.5399 
G01 X-18.8134 Y12.4788 
G01 X-18.9701 Y12.4476 
G01 X-19.1299 Y12.4476 
G01 X-19.2866 Y12.4788 
G01 X-19.4342 Y12.5399 
G01 X-19.5671 Y12.6287 
G01 X-19.6801 Y12.7417 
G01 X-19.7689 Y12.8746 
G01 X-19.8300 Y13.0222 
G01 X-19.8612 Y13.1789 
G00 Z2.0000 
G00 X-17.3212 Y13.1789 
G01 Z-0.0250 F254.00 
G01 X-17.3212 Y14.7611 F508.00 
G01 X-17.2900 Y14.9178 
G01 X-17.2289 Y15.0654 
G01 X-17.1401 Y15.1983 
G01 X-17.0271 Y15.3113 
G01 X-16.8942 Y15.4001 
G01 X-16.7466 Y15.4612 
G01 X-16.5899 Y15.4924 
G01 X-16.4301 Y15.4924 
G01 X-16.2734 Y15.4612 
G01 X-16.1258 Y15.4001 
G01 X-15.9929 Y15.3113 
G01 X-15.8799 Y15.1983 
G01 X-15.7911 Y15.0654 
G01 X-15.7300 Y14.9178 
G01 X-15.6988 Y14.7611 
G01 X-15.6988 Y13.1789 
G01 X-15.7300 Y13.0222 
G01 X-15.7911 Y12.8746 
G01 X-15.8799 Y12.7417 
G01 X-15.9929 Y12.6287 
G01 X-16.1258 Y12.5399 
G01 X-16.2734 Y12.4788 
G01 X-16.4301 Y12.4476 
G01 X-16.5899 Y12.4476 
G01 X-16.7466 Y12.4788 
G01 X-16.8942 Y12.5399 
G01 X-17.0271 Y12.6287 
G01 X-17.1401 Y12.7417 
G01 X-17.2289 Y12.8746 
G01 X-17.2900 Y13.0222 
G01 X-17.3212 Y13.1789 
G00 Z2.0000 
G00 X-14.7812 Y13.1789 
G01 Z-0.0250 F254.00 
G01 X-14.7812 Y14.7611 F508.00 
G01 X-14.7500 Y14.9178 
G01 X-14.6889 Y15.0654 
G01 X-14.6001 Y15.1983 
G01 X-14.4871 Y15.3113 
G01 X-14.3542 Y15.4001 
G01 X-14.2066 Y15.4612 
G01 X-14.0499 Y15.4924 
G01 X-13.8901 Y15.4924 
G01 X-13.7334 Y15.4612 
G01 X-13.5858 Y15.4001 
G01 X-13.4529 Y15.3113 
G01 X-13.3399 Y15.1983 
G01 X-13.2511 Y15.0654 
G01 X-13.1900 Y14.9178 
G01 X-13.1588 Y14.7611 
G01 X-13.1588 Y13.1789 
G01 X-13.1900 Y13.0222 
G01 X-13.2511 Y12.8746 
G01 X-13.3399 Y12.7417 
G01 X-13.4529 Y12.6287 
G01 X-13.5858 Y12.5399 
G01 X-13.7334 Y12.4788 
G01 X-13.8901 Y12.4476 
G01 X-14.0499 Y12.4476 
G01 X-14.2066 Y12.4788 
G01 X-14.3542 Y12.5399 
G01 X-14.4871 Y12.6287 
G01 X-14.6001 Y12.7417 
G01 X-14.6889 Y12.8746 
G01 X-14.7500 Y13.0222 
G01 X-14.7812 Y13.1789 
G00 Z2.0000 
G00 X-12.2412 Y13.1789 
G01 Z-0.0250 F254.00 
G01 X-12.2412 Y14.7611 F508.00 
G01 X-12.2100 Y14.9178 
G01 X-12.1489 Y15.0654 
G01 X-12.0601 Y15.1983 
G01 X-11.9471 Y15.3113 
G01 X-11.8142 Y15.4001 
G01 X-11.6666 Y15.4612 
G01 X-11.5099 Y15.4924 
G01 X-11.3501 Y15.4924 
G01 X-11.1934 Y15.4612 
G01 X-11.0457 Y15.4001 
G01 X-10.9129 Y15.3113 
G01 X-10.7999 Y15.1983 
G01 X-10.7111 Y15.0654 
G01 X-10.6500 Y14.9178 
G01 X-10.6188 Y14.7611 
G01 X-10.6188 Y13.1789 
G01 X-10.6500 Y13.0222 
G01 X-10.7111 Y12.8746 
G01 X-10.7999 Y12.7417 
G01 X-10.9129 Y12.6287 
G01 X-11.0457 Y12.5399 
G01 X-11.1934 Y12.4788 
G01 X-11.3501 Y12.4476 
G01 X-11.5099 Y12.4476 
G01 X-11.6666 Y12.4788 
G01 X-11.8142 Y12.5399 
G01 X-11.9471 Y12.6287 
G01 X-12.0601 Y12.7417 
G01 X-12.1489 Y12.8746 
G01 X-12.2100 Y13.0222 
G01 X-12.2412 Y13.1789 
G00 Z2.0000 
G00 X-9.7012 Y13.1789 
G01 Z-0.0250 F254.00 
G01 X-9.7012 Y14.7611 F508.00 
G01 X-9.6700 Y14.9178 
G01 X-9.6089 Y15.0654 
G01 X-9.5201 Y15.1983 
G01 X-9.4071 Y15.3113 
G01 X-9.2742 Y15.4001 
G01 X-9.1266 Y15.4612 
G01 X-8.9699 Y15.4924 
G01 X-8.8101 Y15.4924 
G01 X-8.6534 Y15.4612 
G01 X-8.5058 Y15.4001 
G01 X-8.3729 Y15.3113 
G01 X-8.2599 Y15.1983 
G01 X-8.1711 Y15.0654 
G01 X-8.1100 Y14.9178 
G01 X-8.0788 Y14.7611 
G01 X-8.0788 Y13.1789 
G01 X-8.1100 Y13.0222 
G01 X-8.1711 Y12.8746 
G01 X-8.2599 Y12.7417 
G01 X-8.3729 Y12.6287 
G01 X-8.5058 Y12.5399 
G01 X-8.6534 Y12.4788 
G01 X-8.8101 Y12.4476 
G01 X-8.9699 Y12.4476 
G01 X-9.1266 Y12.4788 
G01 X-9.2742 Y12.5399 
G01 X-9.4071 Y12.6287 
G01 X-9.5201 Y12.7417 
G01 X-9.6089 Y12.8746 
G01 X-9.6700 Y13.0222 
G01 X-9.7012 Y13.1789 
G00 Z2.0000 
G00 X-7.1612 Y13.1789 
G01 Z-0.0250 F254.00 
G01 X-7.1612 Y14.7611 F508.00 
G01 X-7.1300 Y14.9178 
G01 X-7.0689 Y15.0654 
G01 X-6.9801 Y15.1983 
G01 X-6.8671 Y15.3113 
G01 X-6.7342 Y15.4001 
G01 X-6.5866 Y15.4612 
G01 X-6.4299 Y15.4924 
G01 X-6.2701 Y15.4924 
G01 X-6.1134 Y15.4612 
G01 X-5.9657 Y15.4001 
G01 X-5.8329 Y15.3113 
G01 X-5.7199 Y15.1983 
G01 X-5.6311 Y15.0654 
G01 X-5.5700 Y14.9178 
G01 X-5.5388 Y14.7611 
G01 X-5.5388 Y13.1789 
G01 X-5.5700 Y13.0222 
G01 X-5.6311 Y12.8746 
G01 X-5.7199 Y12.7417 
G01 X-5.8329 Y12.6287 
G01 X-5.9657 Y12.5399 
G01 X-6.1134 Y12.4788 
G01 X-6.2701 Y12.4476 
G01 X-6.4299 Y12.4476 
G01 X-6.5866 Y12.4788 
G01 X-6.7342 Y12.5399 
G01 X-6.8671 Y12.6287 
G01 X-6.9801 Y12.7417 
G01 X-7.0689 Y12.8746 
G01 X-7.1300 Y13.0222 
G01 X-7.1612 Y13.1789 
G00 Z2.0000 
G00 X-4.6212 Y13.1789 
G01 Z-0.0250 F254.00 
G01 X-4.6212 Y14.7611 F508.00 
G01 X-4.5900 Y14.9178 
G01 X-4.5289 Y15.0654 
G01 X-4.4401 Y15.1983 
G01 X-4.3271 Y15.3113 
G01 X-4.1942 Y15.4001 
G01 X-4.0466 Y15.4612 
G01 X-3.8899 Y15.4924 
G01 X-3.7301 Y15.4924 
G01 X-3.5734 Y15.4612 
G01 X-3.4258 Y15.4001 
G01 X-3.2929 Y15.3113 
G01 X-3.1799 Y15.1983 
G01 X-3.0911 Y15.0654 
G01 X-3.0300 Y14.9178 
G01 X-2.9988 Y14.7611 
G01 X-2.9988 Y13.1789 
G01 X-3.0300 Y13.0222 
G01 X-3.0911 Y12.8746 
G01 X-3.1799 Y12.7417 
G01 X-3.2929 Y12.6287 
G01 X-3.4258 Y12.5399 
G01 X-3.5734 Y12.4788 
G01 X-3.7301 Y12.4476 
G01 X-3.8899 Y12.4476 
G01 X-4.0466 Y12.4788 
G01 X-4.1942 Y12.5399 
G01 X-4.3271 Y12.6287 
G01 X-4.4401 Y12.7417 
G01 X-4.5289 Y12.8746 
G01 X-4.5900 Y13.0222 
G01 X-4.6212 Y13.1789 
G00 Z2.0000 
G00 X-4.6212 Y5.5589 
G01 Z-0.0250 F254.00 
G01 X-4.6212 Y7.1411 F508.00 
G01 X-4.5900 Y7.2978 
G01 X-4.5289 Y7.4454 
G01 X-4.4401 Y7.5783 
G01 X-4.3271 Y7.6913 
G01 X-4.1942 Y7.7801 
G01 X-4.0466 Y7.8412 
G01 X-3.8899 Y7.8724 
G01 X-3.7301 Y7.8724 
G01 X-3.5734 Y7.8412 
G01 X-3.4258 Y7.7801 
G01 X-3.2929 Y7.6913 
G01 X-3.1799 Y7.5783 
G01 X-3.0911 Y7.4454 
G01 X-3.0300 Y7.2978 
G01 X-2.9988 Y7.1411 
G01 X-2.9988 Y5.5589 
G01 X-3.0300 Y5.4022 
G01 X-3.0911 Y5.2546 
G01 X-3.1799 Y5.1217 
G01 X-3.2929 Y5.0087 
G01 X-3.4258 Y4.9199 
G01 X-3.5734 Y4.8588 
G01 X-3.7301 Y4.8276 
G01 X-3.8899 Y4.8276 
G01 X-4.0466 Y4.8588 
G01 X-4.1942 Y4.9199 
G01 X-4.3271 Y5.0087 
G01 X-4.4401 Y5.1217 
G01 X-4.5289 Y5.2546 
G01 X-4.5900 Y5.4022 
G01 X-4.6212 Y5.5589 
G00 Z2.0000 
G00 X-7.1612 Y5.5589 
G01 Z-0.0250 F254.00 
G01 X-7.1612 Y7.1411 F508.00 
G01 X-7.1300 Y7.2978 
G01 X-7.0689 Y7.4454 
G01 X-6.9801 Y7.5783 
G01 X-6.8671 Y7.6913 
G01 X-6.7342 Y7.7801 
G01 X-6.5866 Y7.8412 
G01 X-6.4299 Y7.8724 
G01 X-6.2701 Y7.8724 
G01 X-6.1134 Y7.8412 
G01 X-5.9657 Y7.7801 
G01 X-5.8329 Y7.6913 
G01 X-5.7199 Y7.5783 
G01 X-5.6311 Y7.4454 
G01 X-5.5700 Y7.2978 
G01 X-5.5388 Y7.1411 
G01 X-5.5388 Y5.5589 
G01 X-5.5700 Y5.4022 
G01 X-5.6311 Y5.2546 
G01 X-5.7199 Y5.1217 
G01 X-5.8329 Y5.0087 
G01 X-5.9657 Y4.9199 
G01 X-6.1134 Y4.8588 
G01 X-6.2701 Y4.8276 
G01 X-6.4299 Y4.8276 
G01 X-6.5866 Y4.8588 
G01 X-6.7342 Y4.9199 
G01 X-6.8671 Y5.0087 
G01 X-6.9801 Y5.1217 
G01 X-7.0689 Y5.2546 
G01 X-7.1300 Y5.4022 
G01 X-7.1612 Y5.5589 
G00 Z2.0000 
G00 X-9.7012 Y5.5589 
G01 Z-0.0250 F254.00 
G01 X-9.7012 Y7.1411 F508.00 
G01 X-9.6700 Y7.2978 
G01 X-9.6089 Y7.4454 
G01 X-9.5201 Y7.5783 
G01 X-9.4071 Y7.6913 
G01 X-9.2742 Y7.7801 
G01 X-9.1266 Y7.8412 
G01 X-8.9699 Y7.8724 
G01 X-8.8101 Y7.8724 
G01 X-8.6534 Y7.8412 
G01 X-8.5058 Y7.7801 
G01 X-8.3729 Y7.6913 
G01 X-8.2599 Y7.5783 
G01 X-8.1711 Y7.4454 
G01 X-8.1100 Y7.2978 
G01 X-8.0788 Y7.1411 
G01 X-8.0788 Y5.5589 
G01 X-8.1100 Y5.4022 
G01 X-8.1711 Y5.2546 
G01 X-8.2599 Y5.1217 
G01 X-8.3729 Y5.0087 
G01 X-8.5058 Y4.9199 
G01 X-8.6534 Y4.8588 
G01 X-8.8101 Y4.8276 
G01 X-8.9699 Y4.8276 
G01 X-9.1266 Y4.8588 
G01 X-9.2742 Y4.9199 
G01 X-9.4071 Y5.0087 
G01 X-9.5201 Y5.1217 
G01 X-9.6089 Y5.2546 
G01 X-9.6700 Y5.4022 
G01 X-9.7012 Y5.5589 
G00 Z2.0000 
G00 X-12.2412 Y5.5589 
G01 Z-0.0250 F254.00 
G01 X-12.2412 Y7.1411 F508.00 
G01 X-12.2100 Y7.2978 
G01 X-12.1489 Y7.4454 
G01 X-12.0601 Y7.5783 
G01 X-11.9471 Y7.6913 
G01 X-11.8142 Y7.7801 
G01 X-11.6666 Y7.8412 
G01 X-11.5099 Y7.8724 
G01 X-11.3501 Y7.8724 
G01 X-11.1934 Y7.8412 
G01 X-11.0457 Y7.7801 
G01 X-10.9129 Y7.6913 
G01 X-10.7999 Y7.5783 
G01 X-10.7111 Y7.4454 
G01 X-10.6500 Y7.2978 
G01 X-10.6188 Y7.1411 
G01 X-10.6188 Y5.5589 
G01 X-10.6500 Y5.4022 
G01 X-10.7111 Y5.2546 
G01 X-10.7999 Y5.1217 
G01 X-10.9129 Y5.0087 
G01 X-11.0457 Y4.9199 
G01 X-11.1934 Y4.8588 
G01 X-11.3501 Y4.8276 
G01 X-11.5099 Y4.8276 
G01 X-11.6666 Y4.8588 
G01 X-11.8142 Y4.9199 
G01 X-11.9471 Y5.0087 
G01 X-12.0601 Y5.1217 
G01 X-12.1489 Y5.2546 
G01 X-12.2100 Y5.4022 
G01 X-12.2412 Y5.5589 
G00 Z2.0000 
G00 X-14.7812 Y5.5589 
G01 Z-0.0250 F254.00 
G01 X-14.7812 Y7.1411 F508.00 
G01 X-14.7500 Y7.2978 
G01 X-14.6889 Y7.4454 
G01 X-14.6001 Y7.5783 
G01 X-14.4871 Y7.6913 
G01 X-14.3542 Y7.7801 
G01 X-14.2066 Y7.8412 
G01 X-14.0499 Y7.8724 
G01 X-13.8901 Y7.8724 
G01 X-13.7334 Y7.8412 
G01 X-13.5858 Y7.7801 
G01 X-13.4529 Y7.6913 
G01 X-13.3399 Y7.5783 
G01 X-13.2511 Y7.4454 
G01 X-13.1900 Y7.2978 
G01 X-13.1588 Y7.1411 
G01 X-13.1588 Y5.5589 
G01 X-13.1900 Y5.4022 
G01 X-13.2511 Y5.2546 
G01 X-13.3399 Y5.1217 
G01 X-13.4529 Y5.0087 
G01 X-13.5858 Y4.9199 
G01 X-13.7334 Y4.8588 
G01 X-13.8901 Y4.8276 
G01 X-14.0499 Y4.8276 
G01 X-14.2066 Y4.8588 
G01 X-14.3542 Y4.9199 
G01 X-14.4871 Y5.0087 
G01 X-14.6001 Y5.1217 
G01 X-14.6889 Y5.2546 
G01 X-14.7500 Y5.4022 
G01 X-14.7812 Y5.5589 
G00 Z2.0000 
G00 X-17.3212 Y5.5589 
G01 Z-0.0250 F254.00 
G01 X-17.3212 Y7.1411 F508.00 
G01 X-17.2900 Y7.2978 
G01 X-17.2289 Y7.4454 
G01 X-17.1401 Y7.5783 
G01 X-17.0271 Y7.6913 
G01 X-16.8942 Y7.7801 
G01 X-16.7466 Y7.8412 
G01 X-16.5899 Y7.8724 
G01 X-16.4301 Y7.8724 
G01 X-16.2734 Y7.8412 
G01 X-16.1258 Y7.7801 
G01 X-15.9929 Y7.6913 
G01 X-15.8799 Y7.5783 
G01 X-15.7911 Y7.4454 
G01 X-15.7300 Y7.2978 
G01 X-15.6988 Y7.1411 
G01 X-15.6988 Y5.5589 
G01 X-15.7300 Y5.4022 
G01 X-15.7911 Y5.2546 
G01 X-15.8799 Y5.1217 
G01 X-15.9929 Y5.0087 
G01 X-16.1258 Y4.9199 
G01 X-16.2734 Y4.8588 
G01 X-16.4301 Y4.8276 
G01 X-16.5899 Y4.8276 
G01 X-16.7466 Y4.8588 
G01 X-16.8942 Y4.9199 
G01 X-17.0271 Y5.0087 
G01 X-17.1401 Y5.1217 
G01 X-17.2289 Y5.2546 
G01 X-17.2900 Y5.4022 
G01 X-17.3212 Y5.5589 
G00 Z2.0000 
G00 X-19.8612 Y5.5589 
G01 Z-0.0250 F254.00 
G01 X-19.8612 Y7.1411 F508.00 
G01 X-19.8300 Y7.2978 
G01 X-19.7689 Y7.4454 
G01 X-19.6801 Y7.5783 
G01 X-19.5671 Y7.6913 
G01 X-19.4342 Y7.7801 
G01 X-19.2866 Y7.8412 
G01 X-19.1299 Y7.8724 
G01 X-18.9701 Y7.8724 
G01 X-18.8134 Y7.8412 
G01 X-18.6657 Y7.7801 
G01 X-18.5329 Y7.6913 
G01 X-18.4199 Y7.5783 
G01 X-18.3311 Y7.4454 
G01 X-18.2700 Y7.2978 
G01 X-18.2388 Y7.1411 
G01 X-18.2388 Y5.5589 
G01 X-18.2700 Y5.4022 
G01 X-18.3311 Y5.2546 
G01 X-18.4199 Y5.1217 
G01 X-18.5329 Y5.0087 
G01 X-18.6657 Y4.9199 
G01 X-18.8134 Y4.8588 
G01 X-18.9701 Y4.8276 
G01 X-19.1299 Y4.8276 
G01 X-19.2866 Y4.8588 
G01 X-19.4342 Y4.9199 
G01 X-19.5671 Y5.0087 
G01 X-19.6801 Y5.1217 
G01 X-19.7689 Y5.2546 
G01 X-19.8300 Y5.4022 
G01 X-19.8612 Y5.5589 
G00 Z2.0000 
G00 X-22.4012 Y5.5589 
G01 Z-0.0250 F254.00 
G01 X-22.4012 Y7.1411 F508.00 
G01 X-22.3700 Y7.2978 
G01 X-22.3089 Y7.4454 
G01 X-22.2201 Y7.5783 
G01 X-22.1071 Y7.6913 
G01 X-21.9742 Y7.7801 
G01 X-21.8266 Y7.8412 
G01 X-21.6699 Y7.8724 
G01 X-21.5101 Y7.8724 
G01 X-21.3534 Y7.8412 
G01 X-21.2058 Y7.7801 
G01 X-21.0729 Y7.6913 
G01 X-20.9599 Y7.5783 
G01 X-20.8711 Y7.4454 
G01 X-20.8100 Y7.2978 
G01 X-20.7788 Y7.1411 
G01 X-20.7788 Y5.5589 
G01 X-20.8100 Y5.4022 
G01 X-20.8711 Y5.2546 
G01 X-20.9599 Y5.1217 
G01 X-21.0729 Y5.0087 
G01 X-21.2058 Y4.9199 
G01 X-21.3534 Y4.8588 
G01 X-21.5101 Y4.8276 
G01 X-21.6699 Y4.8276 
G01 X-21.8266 Y4.8588 
G01 X-21.9742 Y4.9199 
G01 X-22.1071 Y5.0087 
G01 X-22.2201 Y5.1217 
G01 X-22.3089 Y5.2546 
G01 X-22.3700 Y5.4022 
G01 X-22.4012 Y5.5589 
G00 Z2.0000 
G00 X-24.9412 Y5.5589 
G01 Z-0.0250 F254.00 
G01 X-24.9412 Y7.1411 F508.00 
G01 X-24.9100 Y7.2978 
G01 X-24.8489 Y7.4454 
G01 X-24.7601 Y7.5783 
G01 X-24.6471 Y7.6913 
G01 X-24.5142 Y7.7801 
G01 X-24.3666 Y7.8412 
G01 X-24.2099 Y7.8724 
G01 X-24.0501 Y7.8724 
G01 X-23.8934 Y7.8412 
G01 X-23.7458 Y7.7801 
G01 X-23.6129 Y7.6913 
G01 X-23.4999 Y7.5783 
G01 X-23.4111 Y7.4454 
G01 X-23.3500 Y7.2978 
G01 X-23.3188 Y7.1411 
G01 X-23.3188 Y5.5589 
G01 X-23.3500 Y5.4022 
G01 X-23.4111 Y5.2546 
G01 X-23.4999 Y5.1217 
G01 X-23.6129 Y5.0087 
G01 X-23.7458 Y4.9199 
G01 X-23.8934 Y4.8588 
G01 X-24.0501 Y4.8276 
G01 X-24.2099 Y4.8276 
G01 X-24.3666 Y4.8588 
G01 X-24.5142 Y4.9199 
G01 X-24.6471 Y5.0087 
G01 X-24.7601 Y5.1217 
G01 X-24.8489 Y5.2546 
G01 X-24.9100 Y5.4022 
G01 X-24.9412 Y5.5589 
G00 Z2.0000 
G00 X-27.4812 Y5.5589 
G01 Z-0.0250 F254.00 
G01 X-27.4812 Y7.1411 F508.00 
G01 X-27.4500 Y7.2978 
G01 X-27.3889 Y7.4454 
G01 X-27.3001 Y7.5783 
G01 X-27.1871 Y7.6913 
G01 X-27.0542 Y7.7801 
G01 X-26.9066 Y7.8412 
G01 X-26.7499 Y7.8724 
G01 X-26.5901 Y7.8724 
G01 X-26.4334 Y7.8412 
G01 X-26.2858 Y7.7801 
G01 X-26.1529 Y7.6913 
G01 X-26.0399 Y7.5783 
G01 X-25.9511 Y7.4454 
G01 X-25.8900 Y7.2978 
G01 X-25.8588 Y7.1411 
G01 X-25.8588 Y5.5589 
G01 X-25.8900 Y5.4022 
G01 X-25.9511 Y5.2546 
G01 X-26.0399 Y5.1217 
G01 X-26.1529 Y5.0087 
G01 X-26.2858 Y4.9199 
G01 X-26.4334 Y4.8588 
G01 X-26.5901 Y4.8276 
G01 X-26.7499 Y4.8276 
G01 X-26.9066 Y4.8588 
G01 X-27.0542 Y4.9199 
G01 X-27.1871 Y5.0087 
G01 X-27.3001 Y5.1217 
G01 X-27.3889 Y5.2546 
G01 X-27.4500 Y5.4022 
G01 X-27.4812 Y5.5589 
G00 Z2.0000 
G00 X-45.3880 Y2.9521 
G01 Z-0.0250 F254.00 
G01 X-45.3880 Y7.2079 F508.00 
G01 X-45.3728 Y7.2446 
G01 X-45.3446 Y7.2728 
G01 X-45.3079 Y7.2880 
G01 X-41.0521 Y7.2880 
G01 X-41.0154 Y7.2728 
G01 X-40.9872 Y7.2446 
G01 X-40.9720 Y7.2079 
G01 X-40.9720 Y2.9521 
G01 X-40.9872 Y2.9154 
G01 X-41.0154 Y2.8872 
G01 X-41.0521 Y2.8720 
G01 X-45.3079 Y2.8720 
G01 X-45.3446 Y2.8872 
G01 X-45.3728 Y2.9154 
G01 X-45.3880 Y2.9521 
G00 Z2.0000 
G00 X-45.3880 Y53.7521 
G01 Z-0.0250 F254.00 
G01 X-45.3880 Y58.0079 F508.00 
G01 X-45.3728 Y58.0446 
G01 X-45.3446 Y58.0728 
G01 X-45.3079 Y58.0880 
G01 X-41.0521 Y58.0880 
G01 X-41.0154 Y58.0728 
G01 X-40.9872 Y58.0446 
G01 X-40.9720 Y58.0079 
G01 X-40.9720 Y53.7521 
G01 X-40.9872 Y53.7154 
G01 X-41.0154 Y53.6872 
G01 X-41.0521 Y53.6720 
G01 X-45.3079 Y53.6720 
G01 X-45.3446 Y53.6872 
G01 X-45.3728 Y53.7154 
G01 X-45.3880 Y53.7521 
G00 Z2.0000 
G00 X-27.5812 Y5.5491 
G01 Z-0.0250 F254.00 
G01 X-27.5812 Y7.1509 F508.00 
G01 X-27.5462 Y7.3270 
G01 X-27.4775 Y7.4928 
G01 X-27.3778 Y7.6421 
G01 X-27.2509 Y7.7690 
G01 X-27.1016 Y7.8687 
G01 X-26.9358 Y7.9374 
G01 X-26.7597 Y7.9724 
G01 X-26.5803 Y7.9724 
G01 X-26.4042 Y7.9374 
G01 X-26.2384 Y7.8687 
G01 X-26.0891 Y7.7690 
G01 X-25.9622 Y7.6421 
G01 X-25.8625 Y7.4928 
G01 X-25.7938 Y7.3270 
G01 X-25.7588 Y7.1509 
G01 X-25.7588 Y5.5491 
G01 X-25.7938 Y5.3730 
G01 X-25.8625 Y5.2072 
G01 X-25.9622 Y5.0579 
G01 X-26.0891 Y4.9310 
G01 X-26.2384 Y4.8313 
G01 X-26.4042 Y4.7626 
G01 X-26.5803 Y4.7276 
G01 X-26.7597 Y4.7276 
G01 X-26.9358 Y4.7626 
G01 X-27.1016 Y4.8313 
G01 X-27.2509 Y4.9310 
G01 X-27.3778 Y5.0579 
G01 X-27.4775 Y5.2072 
G01 X-27.5462 Y5.3730 
G01 X-27.5812 Y5.5491 
G00 Z2.0000 
G00 X-25.0412 Y5.5491 
G01 Z-0.0250 F254.00 
G01 X-25.0412 Y7.1509 F508.00 
G01 X-25.0062 Y7.3270 
G01 X-24.9375 Y7.4928 
G01 X-24.8378 Y7.6421 
G01 X-24.7109 Y7.7690 
G01 X-24.5616 Y7.8687 
G01 X-24.3958 Y7.9374 
G01 X-24.2197 Y7.9724 
G01 X-24.0403 Y7.9724 
G01 X-23.8642 Y7.9374 
G01 X-23.6984 Y7.8687 
G01 X-23.5491 Y7.7690 
G01 X-23.4222 Y7.6421 
G01 X-23.3225 Y7.4928 
G01 X-23.2538 Y7.3270 
G01 X-23.2188 Y7.1509 
G01 X-23.2188 Y5.5491 
G01 X-23.2538 Y5.3730 
G01 X-23.3225 Y5.2072 
G01 X-23.4222 Y5.0579 
G01 X-23.5491 Y4.9310 
G01 X-23.6984 Y4.8313 
G01 X-23.8642 Y4.7626 
G01 X-24.0403 Y4.7276 
G01 X-24.2197 Y4.7276 
G01 X-24.3958 Y4.7626 
G01 X-24.5616 Y4.8313 
G01 X-24.7109 Y4.9310 
G01 X-24.8378 Y5.0579 
G01 X-24.9375 Y5.2072 
G01 X-25.0062 Y5.3730 
G01 X-25.0412 Y5.5491 
G00 Z2.0000 
G00 X-22.5012 Y5.5491 
G01 Z-0.0250 F254.00 
G01 X-22.5012 Y7.1509 F508.00 
G01 X-22.4662 Y7.3270 
G01 X-22.3975 Y7.4928 
G01 X-22.2978 Y7.6421 
G01 X-22.1709 Y7.7690 
G01 X-22.0216 Y7.8687 
G01 X-21.8558 Y7.9374 
G01 X-21.6797 Y7.9724 
G01 X-21.5003 Y7.9724 
G01 X-21.3242 Y7.9374 
G01 X-21.1584 Y7.8687 
G01 X-21.0091 Y7.7690 
G01 X-20.8822 Y7.6421 
G01 X-20.7825 Y7.4928 
G01 X-20.7138 Y7.3270 
G01 X-20.6788 Y7.1509 
G01 X-20.6788 Y5.5491 
G01 X-20.7138 Y5.3730 
G01 X-20.7825 Y5.2072 
G01 X-20.8822 Y5.0579 
G01 X-21.0091 Y4.9310 
G01 X-21.1584 Y4.8313 
G01 X-21.3242 Y4.7626 
G01 X-21.5003 Y4.7276 
G01 X-21.6797 Y4.7276 
G01 X-21.8558 Y4.7626 
G01 X-22.0216 Y4.8313 
G01 X-22.1709 Y4.9310 
G01 X-22.2978 Y5.0579 
G01 X-22.3975 Y5.2072 
G01 X-22.4662 Y5.3730 
G01 X-22.5012 Y5.5491 
G00 Z2.0000 
G00 X-19.9612 Y5.5491 
G01 Z-0.0250 F254.00 
G01 X-19.9612 Y7.1509 F508.00 
G01 X-19.9262 Y7.3270 
G01 X-19.8575 Y7.4928 
G01 X-19.7578 Y7.6421 
G01 X-19.6309 Y7.7690 
G01 X-19.4816 Y7.8687 
G01 X-19.3158 Y7.9374 
G01 X-19.1397 Y7.9724 
G01 X-18.9603 Y7.9724 
G01 X-18.7842 Y7.9374 
G01 X-18.6184 Y7.8687 
G01 X-18.4691 Y7.7690 
G01 X-18.3422 Y7.6421 
G01 X-18.2425 Y7.4928 
G01 X-18.1738 Y7.3270 
G01 X-18.1388 Y7.1509 
G01 X-18.1388 Y5.5491 
G01 X-18.1738 Y5.3730 
G01 X-18.2425 Y5.2072 
G01 X-18.3422 Y5.0579 
G01 X-18.4691 Y4.9310 
G01 X-18.6184 Y4.8313 
G01 X-18.7842 Y4.7626 
G01 X-18.9603 Y4.7276 
G01 X-19.1397 Y4.7276 
G01 X-19.3158 Y4.7626 
G01 X-19.4816 Y4.8313 
G01 X-19.6309 Y4.9310 
G01 X-19.7578 Y5.0579 
G01 X-19.8575 Y5.2072 
G01 X-19.9262 Y5.3730 
G01 X-19.9612 Y5.5491 
G00 Z2.0000 
G00 X-17.4212 Y5.5491 
G01 Z-0.0250 F254.00 
G01 X-17.4212 Y7.1509 F508.00 
G01 X-17.3862 Y7.3270 
G01 X-17.3175 Y7.4928 
G01 X-17.2178 Y7.6421 
G01 X-17.0909 Y7.7690 
G01 X-16.9416 Y7.8687 
G01 X-16.7758 Y7.9374 
G01 X-16.5997 Y7.9724 
G01 X-16.4203 Y7.9724 
G01 X-16.2442 Y7.9374 
G01 X-16.0784 Y7.8687 
G01 X-15.9291 Y7.7690 
G01 X-15.8022 Y7.6421 
G01 X-15.7025 Y7.4928 
G01 X-15.6338 Y7.3270 
G01 X-15.5988 Y7.1509 
G01 X-15.5988 Y5.5491 
G01 X-15.6338 Y5.3730 
G01 X-15.7025 Y5.2072 
G01 X-15.8022 Y5.0579 
G01 X-15.9291 Y4.9310 
G01 X-16.0784 Y4.8313 
G01 X-16.2442 Y4.7626 
G01 X-16.4203 Y4.7276 
G01 X-16.5997 Y4.7276 
G01 X-16.7758 Y4.7626 
G01 X-16.9416 Y4.8313 
G01 X-17.0909 Y4.9310 
G01 X-17.2178 Y5.0579 
G01 X-17.3175 Y5.2072 
G01 X-17.3862 Y5.3730 
G01 X-17.4212 Y5.5491 
G00 Z2.0000 
G00 X-14.8812 Y5.5491 
G01 Z-0.0250 F254.00 
G01 X-14.8812 Y7.1509 F508.00 
G01 X-14.8462 Y7.3270 
G01 X-14.7775 Y7.4928 
G01 X-14.6778 Y7.6421 
G01 X-14.5509 Y7.7690 
G01 X-14.4016 Y7.8687 
G01 X-14.2358 Y7.9374 
G01 X-14.0597 Y7.9724 
G01 X-13.8803 Y7.9724 
G01 X-13.7042 Y7.9374 
G01 X-13.5384 Y7.8687 
G01 X-13.3891 Y7.7690 
G01 X-13.2622 Y7.6421 
G01 X-13.1625 Y7.4928 
G01 X-13.0938 Y7.3270 
G01 X-13.0588 Y7.1509 
G01 X-13.0588 Y5.5491 
G01 X-13.0938 Y5.3730 
G01 X-13.1625 Y5.2072 
G01 X-13.2622 Y5.0579 
G01 X-13.3891 Y4.9310 
G01 X-13.5384 Y4.8313 
G01 X-13.7042 Y4.7626 
G01 X-13.8803 Y4.7276 
G01 X-14.0597 Y4.7276 
G01 X-14.2358 Y4.7626 
G01 X-14.4016 Y4.8313 
G01 X-14.5509 Y4.9310 
G01 X-14.6778 Y5.0579 
G01 X-14.7775 Y5.2072 
G01 X-14.8462 Y5.3730 
G01 X-14.8812 Y5.5491 
G00 Z2.0000 
G00 X-12.3412 Y5.5491 
G01 Z-0.0250 F254.00 
G01 X-12.3412 Y7.1509 F508.00 
G01 X-12.3062 Y7.3270 
G01 X-12.2375 Y7.4928 
G01 X-12.1378 Y7.6421 
G01 X-12.0109 Y7.7690 
G01 X-11.8616 Y7.8687 
G01 X-11.6958 Y7.9374 
G01 X-11.5197 Y7.9724 
G01 X-11.3403 Y7.9724 
G01 X-11.1642 Y7.9374 
G01 X-10.9984 Y7.8687 
G01 X-10.8491 Y7.7690 
G01 X-10.7222 Y7.6421 
G01 X-10.6225 Y7.4928 
G01 X-10.5538 Y7.3270 
G01 X-10.5188 Y7.1509 
G01 X-10.5188 Y5.5491 
G01 X-10.5538 Y5.3730 
G01 X-10.6225 Y5.2072 
G01 X-10.7222 Y5.0579 
G01 X-10.8491 Y4.9310 
G01 X-10.9984 Y4.8313 
G01 X-11.1642 Y4.7626 
G01 X-11.3403 Y4.7276 
G01 X-11.5197 Y4.7276 
G01 X-11.6958 Y4.7626 
G01 X-11.8616 Y4.8313 
G01 X-12.0109 Y4.9310 
G01 X-12.1378 Y5.0579 
G01 X-12.2375 Y5.2072 
G01 X-12.3062 Y5.3730 
G01 X-12.3412 Y5.5491 
G00 Z2.0000 
G00 X-9.8012 Y5.5491 
G01 Z-0.0250 F254.00 
G01 X-9.8012 Y7.1509 F508.00 
G01 X-9.7662 Y7.3270 
G01 X-9.6975 Y7.4928 
G01 X-9.5978 Y7.6421 
G01 X-9.4709 Y7.7690 
G01 X-9.3216 Y7.8687 
G01 X-9.1558 Y7.9374 
G01 X-8.9797 Y7.9724 
G01 X-8.8003 Y7.9724 
G01 X-8.6242 Y7.9374 
G01 X-8.4584 Y7.8687 
G01 X-8.3091 Y7.7690 
G01 X-8.1822 Y7.6421 
G01 X-8.0825 Y7.4928 
G01 X-8.0138 Y7.3270 
G01 X-7.9788 Y7.1509 
G01 X-7.9788 Y5.5491 
G01 X-8.0138 Y5.3730 
G01 X-8.0825 Y5.2072 
G01 X-8.1822 Y5.0579 
G01 X-8.3091 Y4.9310 
G01 X-8.4584 Y4.8313 
G01 X-8.6242 Y4.7626 
G01 X-8.8003 Y4.7276 
G01 X-8.9797 Y4.7276 
G01 X-9.1558 Y4.7626 
G01 X-9.3216 Y4.8313 
G01 X-9.4709 Y4.9310 
G01 X-9.5978 Y5.0579 
G01 X-9.6975 Y5.2072 
G01 X-9.7662 Y5.3730 
G01 X-9.8012 Y5.5491 
G00 Z2.0000 
G00 X-7.2612 Y5.5491 
G01 Z-0.0250 F254.00 
G01 X-7.2612 Y7.1509 F508.00 
G01 X-7.2262 Y7.3270 
G01 X-7.1575 Y7.4928 
G01 X-7.0578 Y7.6421 
G01 X-6.9309 Y7.7690 
G01 X-6.7816 Y7.8687 
G01 X-6.6158 Y7.9374 
G01 X-6.4397 Y7.9724 
G01 X-6.2603 Y7.9724 
G01 X-6.0842 Y7.9374 
G01 X-5.9184 Y7.8687 
G01 X-5.7691 Y7.7690 
G01 X-5.6422 Y7.6421 
G01 X-5.5425 Y7.4928 
G01 X-5.4738 Y7.3270 
G01 X-5.4388 Y7.1509 
G01 X-5.4388 Y5.5491 
G01 X-5.4738 Y5.3730 
G01 X-5.5425 Y5.2072 
G01 X-5.6422 Y5.0579 
G01 X-5.7691 Y4.9310 
G01 X-5.9184 Y4.8313 
G01 X-6.0842 Y4.7626 
G01 X-6.2603 Y4.7276 
G01 X-6.4397 Y4.7276 
G01 X-6.6158 Y4.7626 
G01 X-6.7816 Y4.8313 
G01 X-6.9309 Y4.9310 
G01 X-7.0578 Y5.0579 
G01 X-7.1575 Y5.2072 
G01 X-7.2262 Y5.3730 
G01 X-7.2612 Y5.5491 
G00 Z2.0000 
G00 X-4.7212 Y5.5491 
G01 Z-0.0250 F254.00 
G01 X-4.7212 Y7.1509 F508.00 
G01 X-4.6862 Y7.3270 
G01 X-4.6175 Y7.4928 
G01 X-4.5178 Y7.6421 
G01 X-4.3909 Y7.7690 
G01 X-4.2416 Y7.8687 
G01 X-4.0758 Y7.9374 
G01 X-3.8997 Y7.9724 
G01 X-3.7203 Y7.9724 
G01 X-3.5442 Y7.9374 
G01 X-3.3784 Y7.8687 
G01 X-3.2291 Y7.7690 
G01 X-3.1022 Y7.6421 
G01 X-3.0025 Y7.4928 
G01 X-2.9338 Y7.3270 
G01 X-2.8988 Y7.1509 
G01 X-2.8988 Y5.5491 
G01 X-2.9338 Y5.3730 
G01 X-3.0025 Y5.2072 
G01 X-3.1022 Y5.0579 
G01 X-3.2291 Y4.9310 
G01 X-3.3784 Y4.8313 
G01 X-3.5442 Y4.7626 
G01 X-3.7203 Y4.7276 
G01 X-3.8997 Y4.7276 
G01 X-4.0758 Y4.7626 
G01 X-4.2416 Y4.8313 
G01 X-4.3909 Y4.9310 
G01 X-4.5178 Y5.0579 
G01 X-4.6175 Y5.2072 
G01 X-4.6862 Y5.3730 
G01 X-4.7212 Y5.5491 
G00 Z2.0000 
G00 X-4.7212 Y13.1691 
G01 Z-0.0250 F254.00 
G01 X-4.7212 Y14.7709 F508.00 
G01 X-4.6862 Y14.9470 
G01 X-4.6175 Y15.1128 
G01 X-4.5178 Y15.2621 
G01 X-4.3909 Y15.3890 
G01 X-4.2416 Y15.4887 
G01 X-4.0758 Y15.5574 
G01 X-3.8997 Y15.5924 
G01 X-3.7203 Y15.5924 
G01 X-3.5442 Y15.5574 
G01 X-3.3784 Y15.4887 
G01 X-3.2291 Y15.3890 
G01 X-3.1022 Y15.2621 
G01 X-3.0025 Y15.1128 
G01 X-2.9338 Y14.9470 
G01 X-2.8988 Y14.7709 
G01 X-2.8988 Y13.1691 
G01 X-2.9338 Y12.9930 
G01 X-3.0025 Y12.8272 
G01 X-3.1022 Y12.6779 
G01 X-3.2291 Y12.5510 
G01 X-3.3784 Y12.4513 
G01 X-3.5442 Y12.3826 
G01 X-3.7203 Y12.3476 
G01 X-3.8997 Y12.3476 
G01 X-4.0758 Y12.3826 
G01 X-4.2416 Y12.4513 
G01 X-4.3909 Y12.5510 
G01 X-4.5178 Y12.6779 
G01 X-4.6175 Y12.8272 
G01 X-4.6862 Y12.9930 
G01 X-4.7212 Y13.1691 
G00 Z2.0000 
G00 X-7.2612 Y13.1691 
G01 Z-0.0250 F254.00 
G01 X-7.2612 Y14.7709 F508.00 
G01 X-7.2262 Y14.9470 
G01 X-7.1575 Y15.1128 
G01 X-7.0578 Y15.2621 
G01 X-6.9309 Y15.3890 
G01 X-6.7816 Y15.4887 
G01 X-6.6158 Y15.5574 
G01 X-6.4397 Y15.5924 
G01 X-6.2603 Y15.5924 
G01 X-6.0842 Y15.5574 
G01 X-5.9184 Y15.4887 
G01 X-5.7691 Y15.3890 
G01 X-5.6422 Y15.2621 
G01 X-5.5425 Y15.1128 
G01 X-5.4738 Y14.9470 
G01 X-5.4388 Y14.7709 
G01 X-5.4388 Y13.1691 
G01 X-5.4738 Y12.9930 
G01 X-5.5425 Y12.8272 
G01 X-5.6422 Y12.6779 
G01 X-5.7691 Y12.5510 
G01 X-5.9184 Y12.4513 
G01 X-6.0842 Y12.3826 
G01 X-6.2603 Y12.3476 
G01 X-6.4397 Y12.3476 
G01 X-6.6158 Y12.3826 
G01 X-6.7816 Y12.4513 
G01 X-6.9309 Y12.5510 
G01 X-7.0578 Y12.6779 
G01 X-7.1575 Y12.8272 
G01 X-7.2262 Y12.9930 
G01 X-7.2612 Y13.1691 
G00 Z2.0000 
G00 X-9.8012 Y13.1691 
G01 Z-0.0250 F254.00 
G01 X-9.8012 Y14.7709 F508.00 
G01 X-9.7662 Y14.9470 
G01 X-9.6975 Y15.1128 
G01 X-9.5978 Y15.2621 
G01 X-9.4709 Y15.3890 
G01 X-9.3216 Y15.4887 
G01 X-9.1558 Y15.5574 
G01 X-8.9797 Y15.5924 
G01 X-8.8003 Y15.5924 
G01 X-8.6242 Y15.5574 
G01 X-8.4584 Y15.4887 
G01 X-8.3091 Y15.3890 
G01 X-8.1822 Y15.2621 
G01 X-8.0825 Y15.1128 
G01 X-8.0138 Y14.9470 
G01 X-7.9788 Y14.7709 
G01 X-7.9788 Y13.1691 
G01 X-8.0138 Y12.9930 
G01 X-8.0825 Y12.8272 
G01 X-8.1822 Y12.6779 
G01 X-8.3091 Y12.5510 
G01 X-8.4584 Y12.4513 
G01 X-8.6242 Y12.3826 
G01 X-8.8003 Y12.3476 
G01 X-8.9797 Y12.3476 
G01 X-9.1558 Y12.3826 
G01 X-9.3216 Y12.4513 
G01 X-9.4709 Y12.5510 
G01 X-9.5978 Y12.6779 
G01 X-9.6975 Y12.8272 
G01 X-9.7662 Y12.9930 
G01 X-9.8012 Y13.1691 
G00 Z2.0000 
G00 X-12.3412 Y13.1691 
G01 Z-0.0250 F254.00 
G01 X-12.3412 Y14.7709 F508.00 
G01 X-12.3062 Y14.9470 
G01 X-12.2375 Y15.1128 
G01 X-12.1378 Y15.2621 
G01 X-12.0109 Y15.3890 
G01 X-11.8616 Y15.4887 
G01 X-11.6958 Y15.5574 
G01 X-11.5197 Y15.5924 
G01 X-11.3403 Y15.5924 
G01 X-11.1642 Y15.5574 
G01 X-10.9984 Y15.4887 
G01 X-10.8491 Y15.3890 
G01 X-10.7222 Y15.2621 
G01 X-10.6225 Y15.1128 
G01 X-10.5538 Y14.9470 
G01 X-10.5188 Y14.7709 
G01 X-10.5188 Y13.1691 
G01 X-10.5538 Y12.9930 
G01 X-10.6225 Y12.8272 
G01 X-10.7222 Y12.6779 
G01 X-10.8491 Y12.5510 
G01 X-10.9984 Y12.4513 
G01 X-11.1642 Y12.3826 
G01 X-11.3403 Y12.3476 
G01 X-11.5197 Y12.3476 
G01 X-11.6958 Y12.3826 
G01 X-11.8616 Y12.4513 
G01 X-12.0109 Y12.5510 
G01 X-12.1378 Y12.6779 
G01 X-12.2375 Y12.8272 
G01 X-12.3062 Y12.9930 
G01 X-12.3412 Y13.1691 
G00 Z2.0000 
G00 X-14.8812 Y13.1691 
G01 Z-0.0250 F254.00 
G01 X-14.8812 Y14.7709 F508.00 
G01 X-14.8462 Y14.9470 
G01 X-14.7775 Y15.1128 
G01 X-14.6778 Y15.2621 
G01 X-14.5509 Y15.3890 
G01 X-14.4016 Y15.4887 
G01 X-14.2358 Y15.5574 
G01 X-14.0597 Y15.5924 
G01 X-13.8803 Y15.5924 
G01 X-13.7042 Y15.5574 
G01 X-13.5384 Y15.4887 
G01 X-13.3891 Y15.3890 
G01 X-13.2622 Y15.2621 
G01 X-13.1625 Y15.1128 
G01 X-13.0938 Y14.9470 
G01 X-13.0588 Y14.7709 
G01 X-13.0588 Y13.1691 
G01 X-13.0938 Y12.9930 
G01 X-13.1625 Y12.8272 
G01 X-13.2622 Y12.6779 
G01 X-13.3891 Y12.5510 
G01 X-13.5384 Y12.4513 
G01 X-13.7042 Y12.3826 
G01 X-13.8803 Y12.3476 
G01 X-14.0597 Y12.3476 
G01 X-14.2358 Y12.3826 
G01 X-14.4016 Y12.4513 
G01 X-14.5509 Y12.5510 
G01 X-14.6778 Y12.6779 
G01 X-14.7775 Y12.8272 
G01 X-14.8462 Y12.9930 
G01 X-14.8812 Y13.1691 
G00 Z2.0000 
G00 X-17.4212 Y13.1691 
G01 Z-0.0250 F254.00 
G01 X-17.4212 Y14.7709 F508.00 
G01 X-17.3862 Y14.9470 
G01 X-17.3175 Y15.1128 
G01 X-17.2178 Y15.2621 
G01 X-17.0909 Y15.3890 
G01 X-16.9416 Y15.4887 
G01 X-16.7758 Y15.5574 
G01 X-16.5997 Y15.5924 
G01 X-16.4203 Y15.5924 
G01 X-16.2442 Y15.5574 
G01 X-16.0784 Y15.4887 
G01 X-15.9291 Y15.3890 
G01 X-15.8022 Y15.2621 
G01 X-15.7025 Y15.1128 
G01 X-15.6338 Y14.9470 
G01 X-15.5988 Y14.7709 
G01 X-15.5988 Y13.1691 
G01 X-15.6338 Y12.9930 
G01 X-15.7025 Y12.8272 
G01 X-15.8022 Y12.6779 
G01 X-15.9291 Y12.5510 
G01 X-16.0784 Y12.4513 
G01 X-16.2442 Y12.3826 
G01 X-16.4203 Y12.3476 
G01 X-16.5997 Y12.3476 
G01 X-16.7758 Y12.3826 
G01 X-16.9416 Y12.4513 
G01 X-17.0909 Y12.5510 
G01 X-17.2178 Y12.6779 
G01 X-17.3175 Y12.8272 
G01 X-17.3862 Y12.9930 
G01 X-17.4212 Y13.1691 
G00 Z2.0000 
G00 X-19.9612 Y13.1691 
G01 Z-0.0250 F254.00 
G01 X-19.9612 Y14.7709 F508.00 
G01 X-19.9262 Y14.9470 
G01 X-19.8575 Y15.1128 
G01 X-19.7578 Y15.2621 
G01 X-19.6309 Y15.3890 
G01 X-19.4816 Y15.4887 
G01 X-19.3158 Y15.5574 
G01 X-19.1397 Y15.5924 
G01 X-18.9603 Y15.5924 
G01 X-18.7842 Y15.5574 
G01 X-18.6184 Y15.4887 
G01 X-18.4691 Y15.3890 
G01 X-18.3422 Y15.2621 
G01 X-18.2425 Y15.1128 
G01 X-18.1738 Y14.9470 
G01 X-18.1388 Y14.7709 
G01 X-18.1388 Y13.1691 
G01 X-18.1738 Y12.9930 
G01 X-18.2425 Y12.8272 
G01 X-18.3422 Y12.6779 
G01 X-18.4691 Y12.5510 
G01 X-18.6184 Y12.4513 
G01 X-18.7842 Y12.3826 
G01 X-18.9603 Y12.3476 
G01 X-19.1397 Y12.3476 
G01 X-19.3158 Y12.3826 
G01 X-19.4816 Y12.4513 
G01 X-19.6309 Y12.5510 
G01 X-19.7578 Y12.6779 
G01 X-19.8575 Y12.8272 
G01 X-19.9262 Y12.9930 
G01 X-19.9612 Y13.1691 
G00 Z2.0000 
G00 X-22.5012 Y13.1691 
G01 Z-0.0250 F254.00 
G01 X-22.5012 Y14.7709 F508.00 
G01 X-22.4662 Y14.9470 
G01 X-22.3975 Y15.1128 
G01 X-22.2978 Y15.2621 
G01 X-22.1709 Y15.3890 
G01 X-22.0216 Y15.4887 
G01 X-21.8558 Y15.5574 
G01 X-21.6797 Y15.5924 
G01 X-21.5003 Y15.5924 
G01 X-21.3242 Y15.5574 
G01 X-21.1584 Y15.4887 
G01 X-21.0091 Y15.3890 
G01 X-20.8822 Y15.2621 
G01 X-20.7825 Y15.1128 
G01 X-20.7138 Y14.9470 
G01 X-20.6788 Y14.7709 
G01 X-20.6788 Y13.1691 
G01 X-20.7138 Y12.9930 
G01 X-20.7825 Y12.8272 
G01 X-20.8822 Y12.6779 
G01 X-21.0091 Y12.5510 
G01 X-21.1584 Y12.4513 
G01 X-21.3242 Y12.3826 
G01 X-21.5003 Y12.3476 
G01 X-21.6797 Y12.3476 
G01 X-21.8558 Y12.3826 
G01 X-22.0216 Y12.4513 
G01 X-22.1709 Y12.5510 
G01 X-22.2978 Y12.6779 
G01 X-22.3975 Y12.8272 
G01 X-22.4662 Y12.9930 
G01 X-22.5012 Y13.1691 
G00 Z2.0000 
G00 X-25.0412 Y13.1691 
G01 Z-0.0250 F254.00 
G01 X-25.0412 Y14.7709 F508.00 
G01 X-25.0062 Y14.9470 
G01 X-24.9375 Y15.1128 
G01 X-24.8378 Y15.2621 
G01 X-24.7109 Y15.3890 
G01 X-24.5616 Y15.4887 
G01 X-24.3958 Y15.5574 
G01 X-24.2197 Y15.5924 
G01 X-24.0403 Y15.5924 
G01 X-23.8642 Y15.5574 
G01 X-23.6984 Y15.4887 
G01 X-23.5491 Y15.3890 
G01 X-23.4222 Y15.2621 
G01 X-23.3225 Y15.1128 
G01 X-23.2538 Y14.9470 
G01 X-23.2188 Y14.7709 
G01 X-23.2188 Y13.1691 
G01 X-23.2538 Y12.9930 
G01 X-23.3225 Y12.8272 
G01 X-23.4222 Y12.6779 
G01 X-23.5491 Y12.5510 
G01 X-23.6984 Y12.4513 
G01 X-23.8642 Y12.3826 
G01 X-24.0403 Y12.3476 
G01 X-24.2197 Y12.3476 
G01 X-24.3958 Y12.3826 
G01 X-24.5616 Y12.4513 
G01 X-24.7109 Y12.5510 
G01 X-24.8378 Y12.6779 
G01 X-24.9375 Y12.8272 
G01 X-25.0062 Y12.9930 
G01 X-25.0412 Y13.1691 
G00 Z2.0000 
G00 X-27.5812 Y13.1691 
G01 Z-0.0250 F254.00 
G01 X-27.5812 Y14.7709 F508.00 
G01 X-27.5462 Y14.9470 
G01 X-27.4775 Y15.1128 
G01 X-27.3778 Y15.2621 
G01 X-27.2509 Y15.3890 
G01 X-27.1016 Y15.4887 
G01 X-26.9358 Y15.5574 
G01 X-26.7597 Y15.5924 
G01 X-26.5803 Y15.5924 
G01 X-26.4042 Y15.5574 
G01 X-26.2384 Y15.4887 
G01 X-26.0891 Y15.3890 
G01 X-25.9622 Y15.2621 
G01 X-25.8625 Y15.1128 
G01 X-25.7938 Y14.9470 
G01 X-25.7588 Y14.7709 
G01 X-25.7588 Y13.1691 
G01 X-25.7938 Y12.9930 
G01 X-25.8625 Y12.8272 
G01 X-25.9622 Y12.6779 
G01 X-26.0891 Y12.5510 
G01 X-26.2384 Y12.4513 
G01 X-26.4042 Y12.3826 
G01 X-26.5803 Y12.3476 
G01 X-26.7597 Y12.3476 
G01 X-26.9358 Y12.3826 
G01 X-27.1016 Y12.4513 
G01 X-27.2509 Y12.5510 
G01 X-27.3778 Y12.6779 
G01 X-27.4775 Y12.8272 
G01 X-27.5462 Y12.9930 
G01 X-27.5812 Y13.1691 
G00 Z2.0000 
G00 X-24.5015 Y59.7920 
G01 Z-0.0250 F254.00 
G01 X-24.5015 Y57.4965 F508.00 
G01 X-23.6050 Y56.6000 
G01 X-9.3557 Y56.6000 
G01 X-9.4474 Y56.6467 
G01 X-9.5829 Y56.7451 
G01 X-9.7013 Y56.8635 
G01 X-9.7997 Y56.9990 
G01 X-9.8757 Y57.1481 
G01 X-9.9274 Y57.3073 
G01 X-9.9536 Y57.4727 
G01 X-9.9536 Y59.3673 
G01 X-9.9274 Y59.5327 
G01 X-9.8757 Y59.6919 
G01 X-9.7997 Y59.8410 
G01 X-9.7013 Y59.9765 
G01 X-9.5829 Y60.0949 
G01 X-9.4474 Y60.1933 
G01 X-9.2983 Y60.2693 
G01 X-9.1391 Y60.3210 
G01 X-8.9737 Y60.3472 
G01 X-8.8063 Y60.3472 
G01 X-8.6409 Y60.3210 
G01 X-8.4817 Y60.2693 
G01 X-8.3326 Y60.1933 
G01 X-8.1971 Y60.0949 
G01 X-8.0787 Y59.9765 
G01 X-7.9803 Y59.8410 
G01 X-7.9043 Y59.6919 
G01 X-7.8526 Y59.5327 
G01 X-7.8264 Y59.3673 
G01 X-7.8264 Y57.4727 
G01 X-7.8526 Y57.3073 
G01 X-7.9043 Y57.1481 
G01 X-7.9803 Y56.9990 
G01 X-8.0787 Y56.8635 
G01 X-8.1971 Y56.7451 
G01 X-8.3326 Y56.6467 
G01 X-8.4243 Y56.6000 
G01 X-7.3950 Y56.6000 
G01 X-6.1436 Y57.8514 
G01 X-6.1436 Y59.3673 
G01 X-6.1174 Y59.5327 
G01 X-6.0657 Y59.6919 
G01 X-5.9897 Y59.8410 
G01 X-5.8913 Y59.9765 
G01 X-5.7729 Y60.0949 
G01 X-5.6374 Y60.1933 
G01 X-5.4883 Y60.2693 
G01 X-5.3291 Y60.3210 
G01 X-5.1637 Y60.3472 
G01 X-4.9963 Y60.3472 
G01 X-4.8309 Y60.3210 
G01 X-4.6717 Y60.2693 
G01 X-4.5225 Y60.1933 
G01 X-4.3871 Y60.0949 
G01 X-4.2687 Y59.9765 
G01 X-4.1703 Y59.8410 
G01 X-4.0943 Y59.6919 
G01 X-4.0426 Y59.5327 
G01 X-4.0164 Y59.3673 
G01 X-4.0164 Y57.4727 
G01 X-4.0426 Y57.3073 
G01 X-4.0943 Y57.1481 
G01 X-4.1703 Y56.9990 
G01 X-4.2687 Y56.8635 
G01 X-4.3871 Y56.7451 
G01 X-4.5225 Y56.6467 
G01 X-4.6717 Y56.5707 
G01 X-4.8309 Y56.5190 
G01 X-4.9963 Y56.4928 
G01 X-5.1637 Y56.4928 
G01 X-5.3291 Y56.5190 
G01 X-5.4883 Y56.5707 
G01 X-5.6374 Y56.6467 
G01 X-5.7729 Y56.7451 
G01 X-5.8913 Y56.8635 
G01 X-5.9897 Y56.9990 
G01 X-5.9952 Y57.0098 
G01 X-6.9699 Y56.0351 
G01 X-7.0351 Y55.9699 
G01 X-7.1149 Y55.9239 
G01 X-7.2039 Y55.9000 
G01 X-23.7961 Y55.9000 
G01 X-23.8851 Y55.9239 
G01 X-23.9649 Y55.9699 
G01 X-24.6058 Y56.6108 
G01 X-24.6083 Y56.6033 
G01 X-24.7124 Y56.3989 
G01 X-24.8472 Y56.2133 
G01 X-25.0094 Y56.0511 
G01 X-25.1950 Y55.9163 
G01 X-25.3994 Y55.8122 
G01 X-25.6175 Y55.7413 
G01 X-25.8441 Y55.7054 
G01 X-26.0735 Y55.7054 
G01 X-26.3001 Y55.7413 
G01 X-26.5182 Y55.8122 
G01 X-26.7226 Y55.9163 
G01 X-26.9082 Y56.0511 
G01 X-27.0704 Y56.2133 
G01 X-27.2052 Y56.3989 
G01 X-27.3093 Y56.6033 
G01 X-27.3802 Y56.8214 
G01 X-27.4161 Y57.0480 
G01 X-27.4161 Y59.7920 
G01 X-27.3802 Y60.0186 
G01 X-27.3093 Y60.2367 
G01 X-27.2052 Y60.4411 
G01 X-27.0704 Y60.6267 
G01 X-26.9082 Y60.7889 
G01 X-26.7226 Y60.9237 
G01 X-26.5182 Y61.0278 
G01 X-26.3001 Y61.0987 
G01 X-26.0735 Y61.1346 
G01 X-25.8441 Y61.1346 
G01 X-25.6175 Y61.0987 
G01 X-25.3994 Y61.0278 
G01 X-25.1950 Y60.9237 
G01 X-25.0094 Y60.7889 
G01 X-24.8472 Y60.6267 
G01 X-24.7124 Y60.4411 
G01 X-24.6083 Y60.2367 
G01 X-24.5374 Y60.0186 
G01 X-24.5015 Y59.7920 
G00 Z2.0000 
G00 X-28.4639 Y59.7920 
G01 Z-0.0250 F254.00 
G01 X-28.4639 Y57.0480 F508.00 
G01 X-28.4998 Y56.8214 
G01 X-28.5707 Y56.6033 
G01 X-28.6748 Y56.3989 
G01 X-28.8096 Y56.2133 
G01 X-28.9718 Y56.0511 
G01 X-29.1574 Y55.9163 
G01 X-29.3618 Y55.8122 
G01 X-29.5799 Y55.7413 
G01 X-29.8065 Y55.7054 
G01 X-30.0359 Y55.7054 
G01 X-30.2625 Y55.7413 
G01 X-30.4806 Y55.8122 
G01 X-30.6850 Y55.9163 
G01 X-30.8706 Y56.0511 
G01 X-31.0328 Y56.2133 
G01 X-31.1676 Y56.3989 
G01 X-31.2717 Y56.6033 
G01 X-31.3426 Y56.8214 
G01 X-31.3785 Y57.0480 
G01 X-31.3785 Y59.7920 
G01 X-31.3426 Y60.0186 
G01 X-31.2717 Y60.2367 
G01 X-31.1676 Y60.4411 
G01 X-31.0328 Y60.6267 
G01 X-30.8706 Y60.7889 
G01 X-30.6850 Y60.9237 
G01 X-30.4806 Y61.0278 
G01 X-30.2625 Y61.0987 
G01 X-30.0359 Y61.1346 
G01 X-29.8065 Y61.1346 
G01 X-29.5799 Y61.0987 
G01 X-29.3618 Y61.0278 
G01 X-29.1574 Y60.9237 
G01 X-28.9718 Y60.7889 
G01 X-28.8096 Y60.6267 
G01 X-28.6748 Y60.4411 
G01 X-28.5707 Y60.2367 
G01 X-28.4998 Y60.0186 
G01 X-28.4639 Y59.7920 
G00 Z2.0000 
G00 X-0.2064 Y59.3673 
G01 Z-0.0250 F254.00 
G01 X-0.2064 Y57.4727 F508.00 
G01 X-0.2326 Y57.3073 
G01 X-0.2843 Y57.1481 
G01 X-0.3603 Y56.9990 
G01 X-0.4587 Y56.8635 
G01 X-0.5771 Y56.7451 
G01 X-0.7126 Y56.6467 
G01 X-0.8617 Y56.5707 
G01 X-1.0209 Y56.5190 
G01 X-1.1863 Y56.4928 
G01 X-1.3537 Y56.4928 
G01 X-1.5191 Y56.5190 
G01 X-1.6783 Y56.5707 
G01 X-1.8274 Y56.6467 
G01 X-1.9629 Y56.7451 
G01 X-2.0813 Y56.8635 
G01 X-2.1797 Y56.9990 
G01 X-2.2557 Y57.1481 
G01 X-2.3074 Y57.3073 
G01 X-2.3336 Y57.4727 
G01 X-2.3336 Y59.3673 
G01 X-2.3074 Y59.5327 
G01 X-2.2557 Y59.6919 
G01 X-2.1797 Y59.8410 
G01 X-2.0813 Y59.9765 
G01 X-1.9629 Y60.0949 
G01 X-1.8274 Y60.1933 
G01 X-1.6783 Y60.2693 
G01 X-1.5191 Y60.3210 
G01 X-1.3537 Y60.3472 
G01 X-1.1863 Y60.3472 
G01 X-1.0209 Y60.3210 
G01 X-0.8617 Y60.2693 
G01 X-0.7126 Y60.1933 
G01 X-0.5771 Y60.0949 
G01 X-0.4587 Y59.9765 
G01 X-0.3603 Y59.8410 
G01 X-0.2843 Y59.6919 
G01 X-0.2326 Y59.5327 
G01 X-0.2064 Y59.3673 
G00 Z2.0000 
G00 X-18.6404 Y59.0415 
G01 Z-0.0250 F254.00 
G01 X-18.6404 Y59.2209 F508.00 
G01 X-18.6123 Y59.3981 
G01 X-18.5569 Y59.5687 
G01 X-18.4754 Y59.7286 
G01 X-18.3700 Y59.8737 
G01 X-18.2431 Y60.0006 
G01 X-18.0980 Y60.1060 
G01 X-17.9381 Y60.1875 
G01 X-17.7675 Y60.2429 
G01 X-17.5903 Y60.2710 
G01 X-17.4109 Y60.2710 
G01 X-17.2337 Y60.2429 
G01 X-17.0631 Y60.1875 
G01 X-16.9032 Y60.1060 
G01 X-16.7581 Y60.0006 
G01 X-16.6312 Y59.8737 
G01 X-16.5258 Y59.7286 
G01 X-16.4443 Y59.5687 
G01 X-16.3889 Y59.3981 
G01 X-16.3608 Y59.2209 
G01 X-16.3608 Y59.0415 
G01 X-16.3889 Y58.8643 
G01 X-16.4443 Y58.6937 
G01 X-16.5258 Y58.5338 
G01 X-16.6312 Y58.3887 
G01 X-16.7581 Y58.2618 
G01 X-16.9032 Y58.1564 
G01 X-17.0631 Y58.0749 
G01 X-17.2337 Y58.0195 
G01 X-17.4109 Y57.9914 
G01 X-17.5903 Y57.9914 
G01 X-17.7675 Y58.0195 
G01 X-17.9381 Y58.0749 
G01 X-18.0980 Y58.1564 
G01 X-18.2431 Y58.2618 
G01 X-18.3700 Y58.3887 
G01 X-18.4754 Y58.5338 
G01 X-18.5569 Y58.6937 
G01 X-18.6123 Y58.8643 
G01 X-18.6404 Y59.0415 
G00 Z2.0000 
G00 X-18.6404 Y52.5391 
G01 Z-0.0250 F254.00 
G01 X-18.6404 Y52.7185 F508.00 
G01 X-18.6123 Y52.8957 
G01 X-18.5569 Y53.0663 
G01 X-18.4754 Y53.2262 
G01 X-18.3700 Y53.3713 
G01 X-18.2431 Y53.4982 
G01 X-18.0980 Y53.6036 
G01 X-17.9381 Y53.6851 
G01 X-17.7675 Y53.7405 
G01 X-17.5903 Y53.7686 
G01 X-17.4109 Y53.7686 
G01 X-17.2337 Y53.7405 
G01 X-17.0631 Y53.6851 
G01 X-16.9032 Y53.6036 
G01 X-16.7581 Y53.4982 
G01 X-16.6312 Y53.3713 
G01 X-16.5258 Y53.2262 
G01 X-16.4443 Y53.0663 
G01 X-16.3889 Y52.8957 
G01 X-16.3608 Y52.7185 
G01 X-16.3608 Y52.5391 
G01 X-16.3889 Y52.3619 
G01 X-16.4443 Y52.1913 
G01 X-16.5258 Y52.0314 
G01 X-16.6312 Y51.8863 
G01 X-16.7581 Y51.7594 
G01 X-16.9032 Y51.6540 
G01 X-17.0631 Y51.5725 
G01 X-17.2337 Y51.5171 
G01 X-17.4109 Y51.4890 
G01 X-17.5903 Y51.4890 
G01 X-17.7675 Y51.5171 
G01 X-17.9381 Y51.5725 
G01 X-18.0980 Y51.6540 
G01 X-18.2431 Y51.7594 
G01 X-18.3700 Y51.8863 
G01 X-18.4754 Y52.0314 
G01 X-18.5569 Y52.1913 
G01 X-18.6123 Y52.3619 
G01 X-18.6404 Y52.5391 
G00 Z2.0000 
G00 X-14.1192 Y59.0415 
G01 Z-0.0250 F254.00 
G01 X-14.1192 Y59.2209 F508.00 
G01 X-14.0911 Y59.3981 
G01 X-14.0357 Y59.5687 
G01 X-13.9542 Y59.7286 
G01 X-13.8488 Y59.8737 
G01 X-13.7219 Y60.0006 
G01 X-13.5768 Y60.1060 
G01 X-13.4169 Y60.1875 
G01 X-13.2463 Y60.2429 
G01 X-13.0691 Y60.2710 
G01 X-12.8897 Y60.2710 
G01 X-12.7125 Y60.2429 
G01 X-12.5419 Y60.1875 
G01 X-12.3820 Y60.1060 
G01 X-12.2369 Y60.0006 
G01 X-12.1100 Y59.8737 
G01 X-12.0046 Y59.7286 
G01 X-11.9231 Y59.5687 
G01 X-11.8677 Y59.3981 
G01 X-11.8396 Y59.2209 
G01 X-11.8396 Y59.0415 
G01 X-11.8677 Y58.8643 
G01 X-11.9231 Y58.6937 
G01 X-12.0046 Y58.5338 
G01 X-12.1100 Y58.3887 
G01 X-12.2369 Y58.2618 
G01 X-12.3820 Y58.1564 
G01 X-12.5419 Y58.0749 
G01 X-12.7125 Y58.0195 
G01 X-12.8897 Y57.9914 
G01 X-13.0691 Y57.9914 
G01 X-13.2463 Y58.0195 
G01 X-13.4169 Y58.0749 
G01 X-13.5768 Y58.1564 
G01 X-13.7219 Y58.2618 
G01 X-13.8488 Y58.3887 
G01 X-13.9542 Y58.5338 
G01 X-14.0357 Y58.6937 
G01 X-14.0911 Y58.8643 
G01 X-14.1192 Y59.0415 
G00 Z2.0000 
G00 X-38.9985 Y3.7080 
G01 Z-0.0250 F254.00 
G01 X-38.9985 Y6.4520 F508.00 
G01 X-38.9626 Y6.6786 
G01 X-38.8917 Y6.8967 
G01 X-38.7876 Y7.1011 
G01 X-38.6528 Y7.2867 
G01 X-38.4906 Y7.4489 
G01 X-38.3050 Y7.5837 
G01 X-38.1006 Y7.6878 
G01 X-37.8824 Y7.7587 
G01 X-37.6559 Y7.7946 
G01 X-37.4265 Y7.7946 
G01 X-37.1999 Y7.7587 
G01 X-36.9818 Y7.6878 
G01 X-36.7774 Y7.5837 
G01 X-36.5918 Y7.4489 
G01 X-36.4296 Y7.2867 
G01 X-36.2948 Y7.1011 
G01 X-36.1907 Y6.8967 
G01 X-36.1198 Y6.6786 
G01 X-36.0839 Y6.4520 
G01 X-36.0839 Y3.7080 
G01 X-36.1198 Y3.4814 
G01 X-36.1907 Y3.2633 
G01 X-36.2948 Y3.0589 
G01 X-36.4296 Y2.8733 
G01 X-36.5918 Y2.7111 
G01 X-36.7774 Y2.5763 
G01 X-36.9818 Y2.4722 
G01 X-37.1999 Y2.4013 
G01 X-37.4265 Y2.3654 
G01 X-37.6559 Y2.3654 
G01 X-37.8824 Y2.4013 
G01 X-38.1006 Y2.4722 
G01 X-38.3050 Y2.5763 
G01 X-38.4906 Y2.7111 
G01 X-38.6528 Y2.8733 
G01 X-38.7876 Y3.0589 
G01 X-38.8917 Y3.2633 
G01 X-38.9626 Y3.4814 
G01 X-38.9985 Y3.7080 
G00 Z2.0000 
G00 X-35.3028 Y43.0802 
G01 Z-0.0250 F254.00 
G01 X-35.3028 Y43.2798 F508.00 
G01 X-35.2639 Y43.4754 
G01 X-35.1875 Y43.6597 
G01 X-35.0767 Y43.8256 
G01 X-34.9356 Y43.9667 
G01 X-34.7697 Y44.0775 
G01 X-34.5854 Y44.1539 
G01 X-34.3898 Y44.1928 
G01 X-34.1902 Y44.1928 
G01 X-33.9946 Y44.1539 
G01 X-33.8103 Y44.0775 
G01 X-33.6444 Y43.9667 
G01 X-33.5033 Y43.8256 
G01 X-33.3925 Y43.6597 
G01 X-33.3161 Y43.4754 
G01 X-33.2772 Y43.2798 
G01 X-33.2772 Y43.0802 
G01 X-33.3161 Y42.8846 
G01 X-33.3925 Y42.7003 
G01 X-33.5033 Y42.5344 
G01 X-33.6444 Y42.3933 
G01 X-33.8103 Y42.2825 
G01 X-33.9946 Y42.2061 
G01 X-34.1902 Y42.1672 
G01 X-34.3898 Y42.1672 
G01 X-34.5854 Y42.2061 
G01 X-34.7697 Y42.2825 
G01 X-34.9356 Y42.3933 
G01 X-35.0767 Y42.5344 
G01 X-35.1875 Y42.7003 
G01 X-35.2639 Y42.8846 
G01 X-35.3028 Y43.0802 
G00 Z2.0000 
G00 X-35.3028 Y40.5402 
G01 Z-0.0250 F254.00 
G01 X-35.3028 Y40.7398 F508.00 
G01 X-35.2639 Y40.9354 
G01 X-35.1875 Y41.1197 
G01 X-35.0767 Y41.2856 
G01 X-34.9356 Y41.4267 
G01 X-34.7697 Y41.5375 
G01 X-34.5854 Y41.6139 
G01 X-34.3898 Y41.6528 
G01 X-34.1902 Y41.6528 
G01 X-33.9946 Y41.6139 
G01 X-33.8103 Y41.5375 
G01 X-33.6444 Y41.4267 
G01 X-33.5033 Y41.2856 
G01 X-33.3925 Y41.1197 
G01 X-33.3161 Y40.9354 
G01 X-33.2772 Y40.7398 
G01 X-33.2772 Y40.5402 
G01 X-33.3161 Y40.3446 
G01 X-33.3925 Y40.1603 
G01 X-33.5033 Y39.9944 
G01 X-33.6444 Y39.8533 
G01 X-33.8103 Y39.7425 
G01 X-33.9946 Y39.6661 
G01 X-34.1902 Y39.6272 
G01 X-34.3898 Y39.6272 
G01 X-34.5854 Y39.6661 
G01 X-34.7697 Y39.7425 
G01 X-34.9356 Y39.8533 
G01 X-35.0767 Y39.9944 
G01 X-35.1875 Y40.1603 
G01 X-35.2639 Y40.3446 
G01 X-35.3028 Y40.5402 
G00 Z2.0000 
G00 X-22.6028 Y51.9702 
G01 Z-0.0250 F254.00 
G01 X-22.6028 Y52.1698 F508.00 
G01 X-22.5639 Y52.3654 
G01 X-22.4875 Y52.5497 
G01 X-22.3767 Y52.7156 
G01 X-22.2356 Y52.8567 
G01 X-22.0697 Y52.9675 
G01 X-21.8854 Y53.0439 
G01 X-21.6898 Y53.0828 
G01 X-21.4902 Y53.0828 
G01 X-21.2946 Y53.0439 
G01 X-21.1103 Y52.9675 
G01 X-20.9444 Y52.8567 
G01 X-20.8033 Y52.7156 
G01 X-20.6925 Y52.5497 
G01 X-20.6161 Y52.3654 
G01 X-20.5772 Y52.1698 
G01 X-20.5772 Y51.9702 
G01 X-20.6161 Y51.7746 
G01 X-20.6925 Y51.5903 
G01 X-20.8033 Y51.4244 
G01 X-20.9444 Y51.2833 
G01 X-21.1103 Y51.1725 
G01 X-21.2946 Y51.0961 
G01 X-21.4902 Y51.0572 
G01 X-21.6898 Y51.0572 
G01 X-21.8854 Y51.0961 
G01 X-22.0697 Y51.1725 
G01 X-22.2356 Y51.2833 
G01 X-22.3767 Y51.4244 
G01 X-22.4875 Y51.5903 
G01 X-22.5639 Y51.7746 
G01 X-22.6028 Y51.9702 
G00 Z2.0000 
G00 X-22.6028 Y49.4302 
G01 Z-0.0250 F254.00 
G01 X-22.6028 Y49.6298 F508.00 
G01 X-22.5639 Y49.8254 
G01 X-22.4875 Y50.0097 
G01 X-22.3767 Y50.1756 
G01 X-22.2356 Y50.3167 
G01 X-22.0697 Y50.4275 
G01 X-21.8854 Y50.5039 
G01 X-21.6898 Y50.5428 
G01 X-21.4902 Y50.5428 
G01 X-21.2946 Y50.5039 
G01 X-21.1103 Y50.4275 
G01 X-20.9444 Y50.3167 
G01 X-20.8033 Y50.1756 
G01 X-20.6925 Y50.0097 
G01 X-20.6161 Y49.8254 
G01 X-20.5772 Y49.6298 
G01 X-20.5772 Y49.4302 
G01 X-20.6161 Y49.2346 
G01 X-20.6925 Y49.0503 
G01 X-20.8033 Y48.8844 
G01 X-20.9444 Y48.7433 
G01 X-21.1103 Y48.6325 
G01 X-21.2946 Y48.5561 
G01 X-21.4902 Y48.5172 
G01 X-21.6898 Y48.5172 
G01 X-21.8854 Y48.5561 
G01 X-22.0697 Y48.6325 
G01 X-22.2356 Y48.7433 
G01 X-22.3767 Y48.8844 
G01 X-22.4875 Y49.0503 
G01 X-22.5639 Y49.2346 
G01 X-22.6028 Y49.4302 
G00 Z2.0000 
G00 X-22.6028 Y41.8102 
G01 Z-0.0250 F254.00 
G01 X-22.6028 Y42.0098 F508.00 
G01 X-22.5639 Y42.2054 
G01 X-22.4875 Y42.3897 
G01 X-22.3767 Y42.5556 
G01 X-22.2356 Y42.6967 
G01 X-22.0697 Y42.8075 
G01 X-21.8854 Y42.8839 
G01 X-21.6898 Y42.9228 
G01 X-21.4902 Y42.9228 
G01 X-21.2946 Y42.8839 
G01 X-21.1103 Y42.8075 
G01 X-20.9444 Y42.6967 
G01 X-20.8033 Y42.5556 
G01 X-20.6925 Y42.3897 
G01 X-20.6161 Y42.2054 
G01 X-20.5772 Y42.0098 
G01 X-20.5772 Y41.8102 
G01 X-20.6161 Y41.6146 
G01 X-20.6925 Y41.4303 
G01 X-20.8033 Y41.2644 
G01 X-20.9444 Y41.1233 
G01 X-21.1103 Y41.0125 
G01 X-21.2946 Y40.9361 
G01 X-21.4902 Y40.8972 
G01 X-21.6898 Y40.8972 
G01 X-21.8854 Y40.9361 
G01 X-22.0697 Y41.0125 
G01 X-22.2356 Y41.1233 
G01 X-22.3767 Y41.2644 
G01 X-22.4875 Y41.4303 
G01 X-22.5639 Y41.6146 
G01 X-22.6028 Y41.8102 
G00 Z2.0000 
G00 X-22.6028 Y39.2702 
G01 Z-0.0250 F254.00 
G01 X-22.6028 Y39.4698 F508.00 
G01 X-22.5639 Y39.6654 
G01 X-22.4875 Y39.8497 
G01 X-22.3767 Y40.0156 
G01 X-22.2356 Y40.1567 
G01 X-22.0697 Y40.2675 
G01 X-21.8854 Y40.3439 
G01 X-21.6898 Y40.3828 
G01 X-21.4902 Y40.3828 
G01 X-21.2946 Y40.3439 
G01 X-21.1103 Y40.2675 
G01 X-20.9444 Y40.1567 
G01 X-20.8033 Y40.0156 
G01 X-20.6925 Y39.8497 
G01 X-20.6161 Y39.6654 
G01 X-20.5772 Y39.4698 
G01 X-20.5772 Y39.2702 
G01 X-20.6161 Y39.0746 
G01 X-20.6925 Y38.8903 
G01 X-20.8033 Y38.7244 
G01 X-20.9444 Y38.5833 
G01 X-21.1103 Y38.4725 
G01 X-21.2946 Y38.3961 
G01 X-21.4902 Y38.3572 
G01 X-21.6898 Y38.3572 
G01 X-21.8854 Y38.3961 
G01 X-22.0697 Y38.4725 
G01 X-22.2356 Y38.5833 
G01 X-22.3767 Y38.7244 
G01 X-22.4875 Y38.8903 
G01 X-22.5639 Y39.0746 
G01 X-22.6028 Y39.2702 
G00 Z2.0000 
G00 X-22.6028 Y36.7302 
G01 Z-0.0250 F254.00 
G01 X-22.6028 Y36.9298 F508.00 
G01 X-22.5639 Y37.1254 
G01 X-22.4875 Y37.3097 
G01 X-22.3767 Y37.4756 
G01 X-22.2356 Y37.6167 
G01 X-22.0697 Y37.7275 
G01 X-21.8854 Y37.8039 
G01 X-21.6898 Y37.8428 
G01 X-21.4902 Y37.8428 
G01 X-21.2946 Y37.8039 
G01 X-21.1103 Y37.7275 
G01 X-20.9444 Y37.6167 
G01 X-20.8033 Y37.4756 
G01 X-20.6925 Y37.3097 
G01 X-20.6161 Y37.1254 
G01 X-20.5772 Y36.9298 
G01 X-20.5772 Y36.7302 
G01 X-20.6161 Y36.5346 
G01 X-20.6925 Y36.3503 
G01 X-20.8033 Y36.1844 
G01 X-20.9444 Y36.0433 
G01 X-21.1103 Y35.9325 
G01 X-21.2946 Y35.8561 
G01 X-21.4902 Y35.8172 
G01 X-21.6898 Y35.8172 
G01 X-21.8854 Y35.8561 
G01 X-22.0697 Y35.9325 
G01 X-22.2356 Y36.0433 
G01 X-22.3767 Y36.1844 
G01 X-22.4875 Y36.3503 
G01 X-22.5639 Y36.5346 
G01 X-22.6028 Y36.7302 
G00 Z2.0000 
G00 X-22.6028 Y34.1902 
G01 Z-0.0250 F254.00 
G01 X-22.6028 Y34.3898 F508.00 
G01 X-22.5639 Y34.5854 
G01 X-22.4875 Y34.7697 
G01 X-22.3767 Y34.9356 
G01 X-22.2356 Y35.0767 
G01 X-22.0697 Y35.1875 
G01 X-21.8854 Y35.2639 
G01 X-21.6898 Y35.3028 
G01 X-21.4902 Y35.3028 
G01 X-21.2946 Y35.2639 
G01 X-21.1103 Y35.1875 
G01 X-20.9444 Y35.0767 
G01 X-20.8033 Y34.9356 
G01 X-20.6925 Y34.7697 
G01 X-20.6161 Y34.5854 
G01 X-20.5772 Y34.3898 
G01 X-20.5772 Y34.1902 
G01 X-20.6161 Y33.9946 
G01 X-20.6925 Y33.8103 
G01 X-20.8033 Y33.6444 
G01 X-20.9444 Y33.5033 
G01 X-21.1103 Y33.3925 
G01 X-21.2946 Y33.3161 
G01 X-21.4902 Y33.2772 
G01 X-21.6898 Y33.2772 
G01 X-21.8854 Y33.3161 
G01 X-22.0697 Y33.3925 
G01 X-22.2356 Y33.5033 
G01 X-22.3767 Y33.6444 
G01 X-22.4875 Y33.8103 
G01 X-22.5639 Y33.9946 
G01 X-22.6028 Y34.1902 
G00 Z2.0000 
G00 X-22.6028 Y31.6502 
G01 Z-0.0250 F254.00 
G01 X-22.6028 Y31.8498 F508.00 
G01 X-22.5639 Y32.0454 
G01 X-22.4875 Y32.2297 
G01 X-22.3767 Y32.3956 
G01 X-22.2356 Y32.5367 
G01 X-22.0697 Y32.6475 
G01 X-21.8854 Y32.7239 
G01 X-21.6898 Y32.7628 
G01 X-21.4902 Y32.7628 
G01 X-21.2946 Y32.7239 
G01 X-21.1103 Y32.6475 
G01 X-20.9444 Y32.5367 
G01 X-20.8033 Y32.3956 
G01 X-20.6925 Y32.2297 
G01 X-20.6161 Y32.0454 
G01 X-20.5772 Y31.8498 
G01 X-20.5772 Y31.6502 
G01 X-20.6161 Y31.4546 
G01 X-20.6925 Y31.2703 
G01 X-20.8033 Y31.1044 
G01 X-20.9444 Y30.9633 
G01 X-21.1103 Y30.8525 
G01 X-21.2946 Y30.7761 
G01 X-21.4902 Y30.7372 
G01 X-21.6898 Y30.7372 
G01 X-21.8854 Y30.7761 
G01 X-22.0697 Y30.8525 
G01 X-22.2356 Y30.9633 
G01 X-22.3767 Y31.1044 
G01 X-22.4875 Y31.2703 
G01 X-22.5639 Y31.4546 
G01 X-22.6028 Y31.6502 
G00 Z2.0000 
G00 X-22.6028 Y29.1102 
G01 Z-0.0250 F254.00 
G01 X-22.6028 Y29.3098 F508.00 
G01 X-22.5639 Y29.5054 
G01 X-22.4875 Y29.6897 
G01 X-22.3767 Y29.8556 
G01 X-22.2356 Y29.9967 
G01 X-22.0697 Y30.1075 
G01 X-21.8854 Y30.1839 
G01 X-21.6898 Y30.2228 
G01 X-21.4902 Y30.2228 
G01 X-21.2946 Y30.1839 
G01 X-21.1103 Y30.1075 
G01 X-20.9444 Y29.9967 
G01 X-20.8033 Y29.8556 
G01 X-20.6925 Y29.6897 
G01 X-20.6161 Y29.5054 
G01 X-20.5772 Y29.3098 
G01 X-20.5772 Y29.1102 
G01 X-20.6161 Y28.9146 
G01 X-20.6925 Y28.7303 
G01 X-20.8033 Y28.5644 
G01 X-20.9444 Y28.4233 
G01 X-21.1103 Y28.3125 
G01 X-21.2946 Y28.2361 
G01 X-21.4902 Y28.1972 
G01 X-21.6898 Y28.1972 
G01 X-21.8854 Y28.2361 
G01 X-22.0697 Y28.3125 
G01 X-22.2356 Y28.4233 
G01 X-22.3767 Y28.5644 
G01 X-22.4875 Y28.7303 
G01 X-22.5639 Y28.9146 
G01 X-22.6028 Y29.1102 
G00 Z2.0000 
G00 X-22.6028 Y26.5702 
G01 Z-0.0250 F254.00 
G01 X-22.6028 Y26.7698 F508.00 
G01 X-22.5639 Y26.9654 
G01 X-22.4875 Y27.1497 
G01 X-22.3767 Y27.3156 
G01 X-22.2356 Y27.4567 
G01 X-22.0697 Y27.5675 
G01 X-21.8854 Y27.6439 
G01 X-21.6898 Y27.6828 
G01 X-21.4902 Y27.6828 
G01 X-21.2946 Y27.6439 
G01 X-21.1103 Y27.5675 
G01 X-20.9444 Y27.4567 
G01 X-20.8033 Y27.3156 
G01 X-20.6925 Y27.1497 
G01 X-20.6161 Y26.9654 
G01 X-20.5772 Y26.7698 
G01 X-20.5772 Y26.5702 
G01 X-20.6161 Y26.3746 
G01 X-20.6925 Y26.1903 
G01 X-20.8033 Y26.0244 
G01 X-20.9444 Y25.8833 
G01 X-21.1103 Y25.7725 
G01 X-21.2946 Y25.6961 
G01 X-21.4902 Y25.6572 
G01 X-21.6898 Y25.6572 
G01 X-21.8854 Y25.6961 
G01 X-22.0697 Y25.7725 
G01 X-22.2356 Y25.8833 
G01 X-22.3767 Y26.0244 
G01 X-22.4875 Y26.1903 
G01 X-22.5639 Y26.3746 
G01 X-22.6028 Y26.5702 
G00 Z2.0000 
G00 X-22.6028 Y24.0302 
G01 Z-0.0250 F254.00 
G01 X-22.6028 Y24.2298 F508.00 
G01 X-22.5639 Y24.4254 
G01 X-22.4875 Y24.6097 
G01 X-22.3767 Y24.7756 
G01 X-22.2356 Y24.9167 
G01 X-22.0697 Y25.0275 
G01 X-21.8854 Y25.1039 
G01 X-21.6898 Y25.1428 
G01 X-21.4902 Y25.1428 
G01 X-21.2946 Y25.1039 
G01 X-21.1103 Y25.0275 
G01 X-20.9444 Y24.9167 
G01 X-20.8033 Y24.7756 
G01 X-20.6925 Y24.6097 
G01 X-20.6161 Y24.4254 
G01 X-20.5772 Y24.2298 
G01 X-20.5772 Y24.0302 
G01 X-20.6161 Y23.8346 
G01 X-20.6925 Y23.6503 
G01 X-20.8033 Y23.4844 
G01 X-20.9444 Y23.3433 
G01 X-21.1103 Y23.2325 
G01 X-21.2946 Y23.1561 
G01 X-21.4902 Y23.1172 
G01 X-21.6898 Y23.1172 
G01 X-21.8854 Y23.1561 
G01 X-22.0697 Y23.2325 
G01 X-22.2356 Y23.3433 
G01 X-22.3767 Y23.4844 
G01 X-22.4875 Y23.6503 
G01 X-22.5639 Y23.8346 
G01 X-22.6028 Y24.0302 
G00 Z2.0000 
G00 X-37.8428 Y24.0302 
G01 Z-0.0250 F254.00 
G01 X-37.8428 Y24.2298 F508.00 
G01 X-37.8039 Y24.4254 
G01 X-37.7275 Y24.6097 
G01 X-37.6167 Y24.7756 
G01 X-37.4756 Y24.9167 
G01 X-37.3097 Y25.0275 
G01 X-37.1254 Y25.1039 
G01 X-36.9298 Y25.1428 
G01 X-36.7302 Y25.1428 
G01 X-36.5346 Y25.1039 
G01 X-36.3503 Y25.0275 
G01 X-36.1844 Y24.9167 
G01 X-36.0433 Y24.7756 
G01 X-35.9325 Y24.6097 
G01 X-35.8561 Y24.4254 
G01 X-35.8172 Y24.2298 
G01 X-35.8172 Y24.0302 
G01 X-35.8561 Y23.8346 
G01 X-35.9325 Y23.6503 
G01 X-36.0433 Y23.4844 
G01 X-36.1844 Y23.3433 
G01 X-36.3503 Y23.2325 
G01 X-36.5346 Y23.1561 
G01 X-36.7302 Y23.1172 
G01 X-36.9298 Y23.1172 
G01 X-37.1254 Y23.1561 
G01 X-37.3097 Y23.2325 
G01 X-37.4756 Y23.3433 
G01 X-37.6167 Y23.4844 
G01 X-37.7275 Y23.6503 
G01 X-37.8039 Y23.8346 
G01 X-37.8428 Y24.0302 
G00 Z2.0000 
G00 X-37.8428 Y26.5702 
G01 Z-0.0250 F254.00 
G01 X-37.8428 Y26.7698 F508.00 
G01 X-37.8039 Y26.9654 
G01 X-37.7275 Y27.1497 
G01 X-37.6167 Y27.3156 
G01 X-37.4756 Y27.4567 
G01 X-37.3097 Y27.5675 
G01 X-37.1254 Y27.6439 
G01 X-36.9298 Y27.6828 
G01 X-36.7302 Y27.6828 
G01 X-36.5346 Y27.6439 
G01 X-36.3503 Y27.5675 
G01 X-36.1844 Y27.4567 
G01 X-36.0433 Y27.3156 
G01 X-35.9325 Y27.1497 
G01 X-35.8561 Y26.9654 
G01 X-35.8172 Y26.7698 
G01 X-35.8172 Y26.5702 
G01 X-35.8561 Y26.3746 
G01 X-35.9325 Y26.1903 
G01 X-36.0433 Y26.0244 
G01 X-36.1844 Y25.8833 
G01 X-36.3503 Y25.7725 
G01 X-36.5346 Y25.6961 
G01 X-36.7302 Y25.6572 
G01 X-36.9298 Y25.6572 
G01 X-37.1254 Y25.6961 
G01 X-37.3097 Y25.7725 
G01 X-37.4756 Y25.8833 
G01 X-37.6167 Y26.0244 
G01 X-37.7275 Y26.1903 
G01 X-37.8039 Y26.3746 
G01 X-37.8428 Y26.5702 
G00 Z2.0000 
G00 X-37.8428 Y29.1102 
G01 Z-0.0250 F254.00 
G01 X-37.8428 Y29.3098 F508.00 
G01 X-37.8039 Y29.5054 
G01 X-37.7275 Y29.6897 
G01 X-37.6167 Y29.8556 
G01 X-37.4756 Y29.9967 
G01 X-37.3097 Y30.1075 
G01 X-37.1254 Y30.1839 
G01 X-36.9298 Y30.2228 
G01 X-36.7302 Y30.2228 
G01 X-36.5346 Y30.1839 
G01 X-36.3503 Y30.1075 
G01 X-36.1844 Y29.9967 
G01 X-36.0433 Y29.8556 
G01 X-35.9325 Y29.6897 
G01 X-35.8561 Y29.5054 
G01 X-35.8172 Y29.3098 
G01 X-35.8172 Y29.1102 
G01 X-35.8561 Y28.9146 
G01 X-35.9325 Y28.7303 
G01 X-36.0433 Y28.5644 
G01 X-36.1844 Y28.4233 
G01 X-36.3503 Y28.3125 
G01 X-36.5346 Y28.2361 
G01 X-36.7302 Y28.1972 
G01 X-36.9298 Y28.1972 
G01 X-37.1254 Y28.2361 
G01 X-37.3097 Y28.3125 
G01 X-37.4756 Y28.4233 
G01 X-37.6167 Y28.5644 
G01 X-37.7275 Y28.7303 
G01 X-37.8039 Y28.9146 
G01 X-37.8428 Y29.1102 
G00 Z2.0000 
G00 X-37.8428 Y31.6502 
G01 Z-0.0250 F254.00 
G01 X-37.8428 Y31.8498 F508.00 
G01 X-37.8039 Y32.0454 
G01 X-37.7275 Y32.2297 
G01 X-37.6167 Y32.3956 
G01 X-37.4756 Y32.5367 
G01 X-37.3097 Y32.6475 
G01 X-37.1254 Y32.7239 
G01 X-36.9298 Y32.7628 
G01 X-36.7302 Y32.7628 
G01 X-36.5346 Y32.7239 
G01 X-36.3503 Y32.6475 
G01 X-36.1844 Y32.5367 
G01 X-36.0433 Y32.3956 
G01 X-35.9325 Y32.2297 
G01 X-35.8561 Y32.0454 
G01 X-35.8172 Y31.8498 
G01 X-35.8172 Y31.6502 
G01 X-35.8561 Y31.4546 
G01 X-35.9325 Y31.2703 
G01 X-36.0433 Y31.1044 
G01 X-36.1844 Y30.9633 
G01 X-36.3503 Y30.8525 
G01 X-36.5346 Y30.7761 
G01 X-36.7302 Y30.7372 
G01 X-36.9298 Y30.7372 
G01 X-37.1254 Y30.7761 
G01 X-37.3097 Y30.8525 
G01 X-37.4756 Y30.9633 
G01 X-37.6167 Y31.1044 
G01 X-37.7275 Y31.2703 
G01 X-37.8039 Y31.4546 
G01 X-37.8428 Y31.6502 
G00 Z2.0000 
G00 X-37.8428 Y34.1902 
G01 Z-0.0250 F254.00 
G01 X-37.8428 Y34.3898 F508.00 
G01 X-37.8039 Y34.5854 
G01 X-37.7275 Y34.7697 
G01 X-37.6167 Y34.9356 
G01 X-37.4756 Y35.0767 
G01 X-37.3097 Y35.1875 
G01 X-37.1254 Y35.2639 
G01 X-36.9298 Y35.3028 
G01 X-36.7302 Y35.3028 
G01 X-36.5346 Y35.2639 
G01 X-36.3503 Y35.1875 
G01 X-36.1844 Y35.0767 
G01 X-36.0433 Y34.9356 
G01 X-35.9325 Y34.7697 
G01 X-35.8561 Y34.5854 
G01 X-35.8172 Y34.3898 
G01 X-35.8172 Y34.1902 
G01 X-35.8561 Y33.9946 
G01 X-35.9325 Y33.8103 
G01 X-36.0433 Y33.6444 
G01 X-36.1844 Y33.5033 
G01 X-36.3503 Y33.3925 
G01 X-36.5346 Y33.3161 
G01 X-36.7302 Y33.2772 
G01 X-36.9298 Y33.2772 
G01 X-37.1254 Y33.3161 
G01 X-37.3097 Y33.3925 
G01 X-37.4756 Y33.5033 
G01 X-37.6167 Y33.6444 
G01 X-37.7275 Y33.8103 
G01 X-37.8039 Y33.9946 
G01 X-37.8428 Y34.1902 
G00 Z2.0000 
G00 X-37.8428 Y36.7302 
G01 Z-0.0250 F254.00 
G01 X-37.8428 Y36.9298 F508.00 
G01 X-37.8039 Y37.1254 
G01 X-37.7275 Y37.3097 
G01 X-37.6167 Y37.4756 
G01 X-37.4756 Y37.6167 
G01 X-37.3097 Y37.7275 
G01 X-37.1254 Y37.8039 
G01 X-36.9298 Y37.8428 
G01 X-36.7302 Y37.8428 
G01 X-36.5346 Y37.8039 
G01 X-36.3503 Y37.7275 
G01 X-36.1844 Y37.6167 
G01 X-36.0433 Y37.4756 
G01 X-35.9325 Y37.3097 
G01 X-35.8561 Y37.1254 
G01 X-35.8172 Y36.9298 
G01 X-35.8172 Y36.7302 
G01 X-35.8561 Y36.5346 
G01 X-35.9325 Y36.3503 
G01 X-36.0433 Y36.1844 
G01 X-36.1844 Y36.0433 
G01 X-36.3503 Y35.9325 
G01 X-36.5346 Y35.8561 
G01 X-36.7302 Y35.8172 
G01 X-36.9298 Y35.8172 
G01 X-37.1254 Y35.8561 
G01 X-37.3097 Y35.9325 
G01 X-37.4756 Y36.0433 
G01 X-37.6167 Y36.1844 
G01 X-37.7275 Y36.3503 
G01 X-37.8039 Y36.5346 
G01 X-37.8428 Y36.7302 
G00 Z2.0000 
G00 X-37.8428 Y39.2702 
G01 Z-0.0250 F254.00 
G01 X-37.8428 Y39.4698 F508.00 
G01 X-37.8039 Y39.6654 
G01 X-37.7275 Y39.8497 
G01 X-37.6167 Y40.0156 
G01 X-37.4756 Y40.1567 
G01 X-37.3097 Y40.2675 
G01 X-37.1254 Y40.3439 
G01 X-36.9298 Y40.3828 
G01 X-36.7302 Y40.3828 
G01 X-36.5346 Y40.3439 
G01 X-36.3503 Y40.2675 
G01 X-36.1844 Y40.1567 
G01 X-36.0433 Y40.0156 
G01 X-35.9325 Y39.8497 
G01 X-35.8561 Y39.6654 
G01 X-35.8172 Y39.4698 
G01 X-35.8172 Y39.2702 
G01 X-35.8561 Y39.0746 
G01 X-35.9325 Y38.8903 
G01 X-36.0433 Y38.7244 
G01 X-36.1844 Y38.5833 
G01 X-36.3503 Y38.4725 
G01 X-36.5346 Y38.3961 
G01 X-36.7302 Y38.3572 
G01 X-36.9298 Y38.3572 
G01 X-37.1254 Y38.3961 
G01 X-37.3097 Y38.4725 
G01 X-37.4756 Y38.5833 
G01 X-37.6167 Y38.7244 
G01 X-37.7275 Y38.8903 
G01 X-37.8039 Y39.0746 
G01 X-37.8428 Y39.2702 
G00 Z2.0000 
G00 X-37.8428 Y41.8102 
G01 Z-0.0250 F254.00 
G01 X-37.8428 Y42.0098 F508.00 
G01 X-37.8039 Y42.2054 
G01 X-37.7275 Y42.3897 
G01 X-37.6167 Y42.5556 
G01 X-37.4756 Y42.6967 
G01 X-37.3097 Y42.8075 
G01 X-37.1254 Y42.8839 
G01 X-36.9298 Y42.9228 
G01 X-36.7302 Y42.9228 
G01 X-36.5346 Y42.8839 
G01 X-36.3503 Y42.8075 
G01 X-36.1844 Y42.6967 
G01 X-36.0433 Y42.5556 
G01 X-35.9325 Y42.3897 
G01 X-35.8561 Y42.2054 
G01 X-35.8172 Y42.0098 
G01 X-35.8172 Y41.8102 
G01 X-35.8561 Y41.6146 
G01 X-35.9325 Y41.4303 
G01 X-36.0433 Y41.2644 
G01 X-36.1844 Y41.1233 
G01 X-36.3503 Y41.0125 
G01 X-36.5346 Y40.9361 
G01 X-36.7302 Y40.8972 
G01 X-36.9298 Y40.8972 
G01 X-37.1254 Y40.9361 
G01 X-37.3097 Y41.0125 
G01 X-37.4756 Y41.1233 
G01 X-37.6167 Y41.2644 
G01 X-37.7275 Y41.4303 
G01 X-37.8039 Y41.6146 
G01 X-37.8428 Y41.8102 
G00 Z2.0000 
G00 X-37.8428 Y44.3502 
G01 Z-0.0250 F254.00 
G01 X-37.8428 Y44.5498 F508.00 
G01 X-37.8039 Y44.7454 
G01 X-37.7275 Y44.9297 
G01 X-37.6167 Y45.0956 
G01 X-37.4756 Y45.2367 
G01 X-37.3097 Y45.3475 
G01 X-37.1254 Y45.4239 
G01 X-36.9298 Y45.4628 
G01 X-36.7302 Y45.4628 
G01 X-36.5346 Y45.4239 
G01 X-36.3836 Y45.3613 
G01 X-35.7801 Y45.9649 
G01 X-35.7149 Y46.0301 
G01 X-35.6351 Y46.0761 
G01 X-35.5461 Y46.1000 
G01 X-22.0810 Y46.1000 
G01 X-22.2356 Y46.2033 
G01 X-22.3767 Y46.3444 
G01 X-22.4875 Y46.5103 
G01 X-22.5454 Y46.6500 
G01 X-35.8746 Y46.6500 
G01 X-35.9325 Y46.5103 
G01 X-36.0433 Y46.3444 
G01 X-36.1844 Y46.2033 
G01 X-36.3503 Y46.0925 
G01 X-36.5346 Y46.0161 
G01 X-36.7302 Y45.9772 
G01 X-36.9298 Y45.9772 
G01 X-37.1254 Y46.0161 
G01 X-37.3097 Y46.0925 
G01 X-37.4756 Y46.2033 
G01 X-37.6167 Y46.3444 
G01 X-37.7275 Y46.5103 
G01 X-37.8039 Y46.6946 
G01 X-37.8428 Y46.8902 
G01 X-37.8428 Y47.0898 
G01 X-37.8039 Y47.2854 
G01 X-37.7275 Y47.4697 
G01 X-37.6167 Y47.6356 
G01 X-37.4756 Y47.7767 
G01 X-37.3097 Y47.8875 
G01 X-37.1254 Y47.9639 
G01 X-36.9298 Y48.0028 
G01 X-36.7302 Y48.0028 
G01 X-36.5346 Y47.9639 
G01 X-36.3503 Y47.8875 
G01 X-36.1844 Y47.7767 
G01 X-36.0433 Y47.6356 
G01 X-35.9325 Y47.4697 
G01 X-35.8829 Y47.3500 
G01 X-22.5371 Y47.3500 
G01 X-22.4875 Y47.4697 
G01 X-22.3767 Y47.6356 
G01 X-22.2356 Y47.7767 
G01 X-22.0697 Y47.8875 
G01 X-21.8854 Y47.9639 
G01 X-21.6898 Y48.0028 
G01 X-21.4902 Y48.0028 
G01 X-21.2946 Y47.9639 
G01 X-21.1103 Y47.8875 
G01 X-20.9444 Y47.7767 
G01 X-20.8033 Y47.6356 
G01 X-20.6925 Y47.4697 
G01 X-20.6161 Y47.2854 
G01 X-20.5772 Y47.0898 
G01 X-20.5772 Y46.8902 
G01 X-20.6161 Y46.6946 
G01 X-20.6925 Y46.5103 
G01 X-20.8033 Y46.3444 
G01 X-20.9444 Y46.2033 
G01 X-21.0990 Y46.1000 
G01 X-19.8950 Y46.1000 
G01 X-13.9574 Y52.0376 
G01 X-14.0357 Y52.1913 
G01 X-14.0911 Y52.3619 
G01 X-14.1192 Y52.5391 
G01 X-14.1192 Y52.7185 
G01 X-14.0911 Y52.8957 
G01 X-14.0357 Y53.0663 
G01 X-13.9542 Y53.2262 
G01 X-13.8488 Y53.3713 
G01 X-13.7219 Y53.4982 
G01 X-13.5768 Y53.6036 
G01 X-13.4169 Y53.6851 
G01 X-13.2463 Y53.7405 
G01 X-13.0691 Y53.7686 
G01 X-12.8897 Y53.7686 
G01 X-12.7125 Y53.7405 
G01 X-12.5419 Y53.6851 
G01 X-12.3820 Y53.6036 
G01 X-12.2369 Y53.4982 
G01 X-12.1100 Y53.3713 
G01 X-12.0046 Y53.2262 
G01 X-11.9231 Y53.0663 
G01 X-11.8677 Y52.8957 
G01 X-11.8604 Y52.8500 
G01 X-7.7039 Y52.8500 
G01 X-7.6149 Y52.8261 
G01 X-7.5351 Y52.7801 
G01 X-7.4699 Y52.7149 
G01 X-7.4239 Y52.6351 
G01 X-7.4000 Y52.5461 
G01 X-7.4000 Y43.7117 
G01 X-7.3246 Y43.6967 
G01 X-7.1403 Y43.6203 
G01 X-6.9744 Y43.5095 
G01 X-6.8333 Y43.3684 
G01 X-6.7225 Y43.2025 
G01 X-6.6461 Y43.0182 
G01 X-6.6072 Y42.8226 
G01 X-6.6072 Y40.9974 
G01 X-6.6461 Y40.8018 
G01 X-6.7225 Y40.6175 
G01 X-6.8333 Y40.4516 
G01 X-6.9744 Y40.3105 
G01 X-7.1403 Y40.1997 
G01 X-7.3246 Y40.1233 
G01 X-7.5202 Y40.0844 
G01 X-7.7198 Y40.0844 
G01 X-7.9154 Y40.1233 
G01 X-8.0997 Y40.1997 
G01 X-8.2656 Y40.3105 
G01 X-8.4067 Y40.4516 
G01 X-8.5175 Y40.6175 
G01 X-8.5939 Y40.8018 
G01 X-8.6328 Y40.9974 
G01 X-8.6328 Y42.8226 
G01 X-8.5939 Y43.0182 
G01 X-8.5175 Y43.2025 
G01 X-8.4067 Y43.3684 
G01 X-8.2656 Y43.5095 
G01 X-8.1000 Y43.6202 
G01 X-8.1000 Y52.1500 
G01 X-11.9441 Y52.1500 
G01 X-12.0046 Y52.0314 
G01 X-12.1100 Y51.8863 
G01 X-12.2369 Y51.7594 
G01 X-12.3820 Y51.6540 
G01 X-12.5419 Y51.5725 
G01 X-12.7125 Y51.5171 
G01 X-12.8897 Y51.4890 
G01 X-13.0691 Y51.4890 
G01 X-13.2463 Y51.5171 
G01 X-13.4169 Y51.5725 
G01 X-13.4273 Y51.5778 
G01 X-19.5351 Y45.4699 
G01 X-19.6149 Y45.4239 
G01 X-19.7039 Y45.4000 
G01 X-21.2369 Y45.4000 
G01 X-21.1103 Y45.3475 
G01 X-20.9444 Y45.2367 
G01 X-20.8033 Y45.0956 
G01 X-20.6925 Y44.9297 
G01 X-20.6161 Y44.7454 
G01 X-20.5772 Y44.5498 
G01 X-20.5772 Y44.3502 
G01 X-12.2039 Y44.3500 
G01 X-12.1149 Y44.3261 
G01 X-12.0351 Y44.2801 
G01 X-11.0175 Y43.2625 
G01 X-10.9467 Y43.3684 
G01 X-10.8056 Y43.5095 
G01 X-10.6397 Y43.6203 
G01 X-10.4554 Y43.6967 
G01 X-10.2598 Y43.7356 
G01 X-10.0602 Y43.7356 
G01 X-9.8646 Y43.6967 
G01 X-9.6803 Y43.6203 
G01 X-9.5144 Y43.5095 
G01 X-9.3733 Y43.3684 
G01 X-9.2625 Y43.2025 
G01 X-9.1861 Y43.0182 
G01 X-9.1472 Y42.8226 
G01 X-9.1472 Y40.9974 
G01 X-9.1861 Y40.8018 
G01 X-9.2625 Y40.6175 
G01 X-9.3733 Y40.4516 
G01 X-9.5144 Y40.3105 
G01 X-9.6803 Y40.1997 
G01 X-9.8646 Y40.1233 
G01 X-10.0602 Y40.0844 
G01 X-10.2598 Y40.0844 
G01 X-10.4554 Y40.1233 
G01 X-10.6397 Y40.1997 
G01 X-10.8056 Y40.3105 
G01 X-10.9467 Y40.4516 
G01 X-11.0575 Y40.6175 
G01 X-11.1339 Y40.8018 
G01 X-11.1728 Y40.9974 
G01 X-11.1728 Y42.4278 
G01 X-11.7169 Y42.9719 
G01 X-11.6872 Y42.8226 
G01 X-11.6872 Y40.9974 
G01 X-11.7261 Y40.8018 
G01 X-11.8025 Y40.6175 
G01 X-11.9133 Y40.4516 
G01 X-12.0544 Y40.3105 
G01 X-12.2203 Y40.1997 
G01 X-12.4046 Y40.1233 
G01 X-12.6002 Y40.0844 
G01 X-12.7998 Y40.0844 
G01 X-12.9954 Y40.1233 
G01 X-13.1797 Y40.1997 
G01 X-13.3456 Y40.3105 
G01 X-13.4867 Y40.4516 
G01 X-13.5975 Y40.6175 
G01 X-13.6739 Y40.8018 
G01 X-13.7128 Y40.9974 
G01 X-13.7128 Y42.8226 
G01 X-13.6739 Y43.0182 
G01 X-13.5975 Y43.2025 
G01 X-13.4867 Y43.3684 
G01 X-13.3456 Y43.5095 
G01 X-13.1797 Y43.6203 
G01 X-13.1081 Y43.6500 
G01 X-20.9643 Y43.6500 
G01 X-21.1103 Y43.5525 
G01 X-21.2946 Y43.4761 
G01 X-21.4902 Y43.4372 
G01 X-21.6898 Y43.4372 
G01 X-21.8854 Y43.4761 
