(.../pcb-gcode-3.6.0.4/pcb-gcode.ulp)
(Copyright 2005 - 2012 by John Johnson)
(See readme.txt for licensing terms.)
(This file generated from the board:)
(.../eagle/eagle/cncWTest/modbus.brd)
(Current profile is .../pcb-gcode-3.6.0.4/profiles/emc.pp  )
(This file generated 6/27/2014 11:10:19 AM)
(Settings from pcb-machine.h)
(  Tool Size)
(0.2000 )
(Z Axis Settings)
(  High     Up        Down     Drill)
(12.7000 	2.5400 	-0.1500 	-0.8128 )
(spindle on time = 3.0000)
(milling depth = -0.1500)
(text depth = -0.1270)
(tool change at 12.7000 15.2400 25.4000 )
(feed rate xy = F508.00 )
(feed rate z  = F254.00 )
(Settings from pcb-defaults.h)
(isolate min = 0.0154)
(isolate max = 0.5080)
(isolate step = 0.1270)
(Generated top outlines, top drill, bottom outlines, bottom drill, )
(Unit of measure: mm)
( Tool|       Size       |  Min Sub |  Max Sub |   Count )
( T01  0.610mm 0.0240in 0.0000in 0.0000in )
( T02  0.813mm 0.0320in 0.0000in 0.0000in )
(Metric Mode)
G21
(Absolute Coordinates)
G90
M05
G00 Z25.4000 
G00 X12.7000 Y15.2400 
M06 T01  ; 0.6096 
G01 Z0.0000 F254.00 
M06 T01  ; 0.6096 
G00 Z2.5400 
M03
G04 P3.000000
G00 Z2.540000
G00 X31.7500 Y5.0800 
G01 Z-0.8128 F254.00 
G01 Z2.540000
(R2.5400  P1.000000)
(G00 Z2.540000)
G00 X16.5100 Y6.3500 
G01 Z-0.812800
G01 Z2.540000
(G00 Z2.540000)
G00 X19.0500 Y12.7000 
G01 Z-0.812800
G01 Z2.540000
M05
G00 Z25.4000 
M06 T02  ; 0.8128 
G01 Z0.0000 F254.00 
M06 T02  ; 0.8128 
G00 Z2.5400 
M03
G04 P3.000000
G00 Z2.540000
G00 X31.7500 Y12.7000 
G01 Z-0.8128 F254.00 
G01 Z2.540000
(R2.5400  P1.000000)
(G00 Z2.540000)
G00 X31.7500 Y20.3200 
G01 Z-0.812800
G01 Z2.540000
(G00 Z2.540000)
G00 X7.6200 Y10.1600 
G01 Z-0.812800
G01 Z2.540000
(G00 Z2.540000)
G00 X7.6200 Y12.7000 
G01 Z-0.812800
G01 Z2.540000
(G00 Z2.540000)
G00 X7.6200 Y15.2400 
G01 Z-0.812800
G01 Z2.540000
(G00 Z2.540000)
G00 X7.6200 Y17.7800 
G01 Z-0.812800
G01 Z2.540000
(G00 Z2.540000)
G00 X7.6200 Y20.3200 
G01 Z-0.812800
G01 Z2.540000
(G00 Z2.540000)
G00 X7.6200 Y22.8600 
G01 Z-0.812800
G01 Z2.540000
(G00 Z2.540000)
G00 X24.1300 Y12.7000 
G01 Z-0.812800
G01 Z2.540000
(G00 Z2.540000)
G00 X24.1300 Y20.3200 
G01 Z-0.812800
G01 Z2.540000
(G00 Z2.540000)
G00 X26.6700 Y12.7000 
G01 Z-0.812800
G01 Z2.540000
(G00 Z2.540000)
G00 X26.6700 Y20.3200 
G01 Z-0.812800
G01 Z2.540000
(G00 Z2.540000)
G00 X29.2100 Y12.7000 
G01 Z-0.812800
G01 Z2.540000
(G00 Z2.540000)
G00 X29.2100 Y20.3200 
G01 Z-0.812800
G01 Z2.540000
T01 
G00 Z12.7000 
M05
M02
