(.../pcb-gcode-3.6.0.4/pcb-gcode.ulp)
(Copyright 2005 - 2012 by John Johnson)
(See readme.txt for licensing terms.)
(This file generated from the board:)
(.../eagle/eagle/cncWTest/modbus.brd)
(Current profile is .../pcb-gcode-3.6.0.4/profiles/emc.pp  )
(This file generated 7/12/2014 4:12:22 PM)
(Settings from pcb-machine.h)
(  Tool Size)
(0.1000 )
(Z Axis Settings)
(  High     Up        Down     Drill)
(19.5000 	2.0000 	-0.0250 	-1.5000 )
(spindle on time = 1.0000)
(milling depth = -0.0500)
(text depth = -0.0500)
(tool change at 15.0000 15.0000 19.0000 )
(feed rate xy = F508.00 )
(feed rate z  = F254.00 )
(Settings from pcb-defaults.h)
(isolate min = 0.0500)
(isolate max = 1.0000)
(isolate step = 0.1000)
(Generated top outlines, top drill, bottom outlines, bottom drill, )
(Unit of measure: mm)
(Metric Mode)
G21
(Absolute Coordinates)
G90
G00 X0.0000 Y0.0000 
M03
G04 P1.000000
G00 Z2.0000 
G00 X-6.8847 Y15.7496 
G01 Z-0.0250 F254.00 
G01 X-8.1468 Y15.7496 F508.00 
G01 X-8.7881 Y15.1084 
G01 X-8.8584 Y15.0381 
G01 X-8.9503 Y15.0000 
G01 X-22.7997 Y15.0000 
G01 X-22.8916 Y15.0381 
G01 X-23.6103 Y15.7568 
G01 X-23.7572 Y15.6099 
G01 X-24.5028 Y15.6099 
G01 X-25.0301 Y16.1372 
G01 X-25.0301 Y16.8828 
G01 X-24.5028 Y17.4101 
G01 X-23.7572 Y17.4101 
G01 X-23.2299 Y16.8828 
G01 X-23.2299 Y16.1372 
G01 X-23.2568 Y16.1103 
G01 X-22.6464 Y15.5000 
G01 X-9.1036 Y15.5000 
G01 X-8.7166 Y15.8869 
G01 X-8.7651 Y15.9194 
G01 X-8.8710 Y16.0253 
G01 X-8.9543 Y16.1498 
G01 X-9.0116 Y16.2882 
G01 X-9.0408 Y16.4351 
G01 X-9.0408 Y16.5849 
G01 X-9.0116 Y16.7318 
G01 X-8.9543 Y16.8702 
G01 X-8.8710 Y16.9947 
G01 X-8.7651 Y17.1006 
G01 X-8.6406 Y17.1839 
G01 X-8.5022 Y17.2412 
G01 X-8.3553 Y17.2704 
G01 X-6.8847 Y17.2704 
G01 X-6.7378 Y17.2412 
G01 X-6.5994 Y17.1839 
G01 X-6.4749 Y17.1006 
G01 X-6.3690 Y16.9947 
G01 X-6.2857 Y16.8702 
G01 X-6.2284 Y16.7318 
G01 X-6.1992 Y16.5849 
G01 X-6.1992 Y16.4351 
G01 X-6.2284 Y16.2882 
G01 X-6.2857 Y16.1498 
G01 X-6.3690 Y16.0253 
G01 X-6.4749 Y15.9194 
G01 X-6.5994 Y15.8361 
G01 X-6.7378 Y15.7788 
G01 X-6.8847 Y15.7496 
G00 Z2.0000 
G00 X-8.3553 Y13.2096 
G01 Z-0.0250 F254.00 
G01 X-8.5022 Y13.2388 F508.00 
G01 X-8.6406 Y13.2961 
G01 X-8.7651 Y13.3794 
G01 X-8.8710 Y13.4853 
G01 X-8.9543 Y13.6098 
G01 X-9.0116 Y13.7482 
G01 X-9.0408 Y13.8951 
G01 X-9.0408 Y14.0449 
G01 X-9.0116 Y14.1918 
G01 X-8.9543 Y14.3302 
G01 X-8.8710 Y14.4547 
G01 X-8.7651 Y14.5606 
G01 X-8.6406 Y14.6439 
G01 X-8.5022 Y14.7012 
G01 X-8.3553 Y14.7304 
G01 X-6.8847 Y14.7304 
G01 X-6.7378 Y14.7012 
G01 X-6.5994 Y14.6439 
G01 X-6.4749 Y14.5606 
G01 X-6.3690 Y14.4547 
G01 X-6.2857 Y14.3302 
G01 X-6.2284 Y14.1918 
G01 X-6.1992 Y14.0449 
G01 X-6.1992 Y13.8951 
G01 X-6.2284 Y13.7482 
G01 X-6.2857 Y13.6098 
G01 X-6.3690 Y13.4853 
G01 X-6.4749 Y13.3794 
G01 X-6.5994 Y13.2961 
G01 X-6.6653 Y13.2689 
G01 X-5.6084 Y12.2119 
G01 X-5.5381 Y12.1416 
G01 X-5.5000 Y12.0497 
G01 X-5.5000 Y9.9503 
G01 X-5.5381 Y9.8584 
G01 X-5.6084 Y9.7881 
G01 X-5.7003 Y9.7500 
G01 X-17.8964 Y9.7500 
G01 X-18.2668 Y9.3797 
G01 X-18.1499 Y9.2628 
G01 X-18.1499 Y8.5172 
G01 X-18.6772 Y7.9899 
G01 X-19.4228 Y7.9899 
G01 X-19.9501 Y8.5172 
G01 X-19.9501 Y9.2628 
G01 X-19.4228 Y9.7901 
G01 X-18.6772 Y9.7901 
G01 X-18.6203 Y9.7332 
G01 X-18.1416 Y10.2119 
G01 X-18.0497 Y10.2500 
G01 X-6.0000 Y10.2500 
G01 X-6.0000 Y11.8964 
G01 X-7.3132 Y13.2096 
G01 X-8.3553 Y13.2096 
G00 Z2.0000 
G00 X-6.8847 Y10.6696 
G01 Z-0.0250 F254.00 
G01 X-8.3553 Y10.6696 F508.00 
G01 X-8.5022 Y10.6988 
G01 X-8.6406 Y10.7561 
G01 X-8.7651 Y10.8394 
G01 X-8.8710 Y10.9453 
G01 X-8.9543 Y11.0698 
G01 X-9.0116 Y11.2082 
G01 X-9.0408 Y11.3551 
G01 X-9.0408 Y11.5049 
G01 X-9.0116 Y11.6518 
G01 X-8.9543 Y11.7902 
G01 X-8.8710 Y11.9147 
G01 X-8.7858 Y12.0000 
G01 X-23.1464 Y12.0000 
G01 X-25.8268 Y9.3197 
G01 X-25.7699 Y9.2628 
G01 X-25.7699 Y8.5172 
G01 X-26.2972 Y7.9899 
G01 X-27.0428 Y7.9899 
G01 X-27.5701 Y8.5172 
G01 X-27.5701 Y9.2628 
G01 X-27.0428 Y9.7901 
G01 X-26.2972 Y9.7901 
G01 X-26.1803 Y9.6732 
G01 X-23.3916 Y12.4619 
G01 X-23.2997 Y12.5000 
G01 X-8.4503 Y12.5000 
G01 X-8.3584 Y12.4619 
G01 X-8.2881 Y12.3916 
G01 X-8.0868 Y12.1904 
G01 X-6.8847 Y12.1904 
G01 X-6.7378 Y12.1612 
G01 X-6.5994 Y12.1039 
G01 X-6.4749 Y12.0206 
G01 X-6.3690 Y11.9147 
G01 X-6.2857 Y11.7902 
G01 X-6.2284 Y11.6518 
G01 X-6.1992 Y11.5049 
G01 X-6.1992 Y11.3551 
G01 X-6.2284 Y11.2082 
G01 X-6.2857 Y11.0698 
G01 X-6.3690 Y10.9453 
G01 X-6.4749 Y10.8394 
G01 X-6.5994 Y10.7561 
G01 X-6.7378 Y10.6988 
G01 X-6.8847 Y10.6696 
G00 Z2.0000 
G00 X-6.8847 Y8.1296 
G01 Z-0.0250 F254.00 
G01 X-8.3553 Y8.1296 F508.00 
G01 X-8.5022 Y8.1588 
G01 X-8.6406 Y8.2161 
G01 X-8.7651 Y8.2994 
G01 X-8.8710 Y8.4053 
G01 X-8.9543 Y8.5298 
G01 X-9.0116 Y8.6682 
G01 X-9.0408 Y8.8151 
G01 X-9.0408 Y8.9649 
G01 X-9.0116 Y9.1118 
G01 X-8.9543 Y9.2502 
G01 X-8.8710 Y9.3747 
G01 X-8.7651 Y9.4806 
G01 X-8.6406 Y9.5639 
G01 X-8.5022 Y9.6212 
G01 X-8.3553 Y9.6504 
G01 X-6.8847 Y9.6504 
G01 X-6.7378 Y9.6212 
G01 X-6.5994 Y9.5639 
G01 X-6.5038 Y9.5000 
G01 X-5.6036 Y9.5000 
G01 X-5.2500 Y9.8536 
G01 X-5.2500 Y17.5000 
G01 X-17.8964 Y17.5000 
G01 X-18.3318 Y17.0647 
G01 X-18.1499 Y16.8828 
G01 X-18.1499 Y16.1372 
G01 X-18.6772 Y15.6099 
G01 X-19.4228 Y15.6099 
G01 X-19.9501 Y16.1372 
G01 X-19.9501 Y16.8828 
G01 X-19.4228 Y17.4101 
G01 X-18.6935 Y17.4101 
G01 X-18.1416 Y17.9619 
G01 X-18.0497 Y18.0000 
G01 X-4.9503 Y18.0000 
G01 X-4.8584 Y17.9619 
G01 X-4.7881 Y17.8916 
G01 X-4.7500 Y17.7997 
G01 X-4.7500 Y9.7003 
G01 X-4.7881 Y9.6084 
G01 X-4.8584 Y9.5381 
G01 X-5.3584 Y9.0381 
G01 X-5.4503 Y9.0000 
G01 X-6.2062 Y9.0000 
G01 X-6.1992 Y8.9649 
G01 X-6.1992 Y8.8151 
G01 X-6.2284 Y8.6682 
G01 X-6.2857 Y8.5298 
G01 X-6.3690 Y8.4053 
G01 X-6.4749 Y8.2994 
G01 X-6.5994 Y8.2161 
G01 X-6.7378 Y8.1588 
G01 X-6.8847 Y8.1296 
G00 Z2.0000 
G00 X-6.8847 Y5.5896 
G01 Z-0.0250 F254.00 
G01 X-8.3553 Y5.5896 F508.00 
G01 X-8.5022 Y5.6188 
G01 X-8.6406 Y5.6761 
G01 X-8.7651 Y5.7594 
G01 X-8.8710 Y5.8653 
G01 X-8.9543 Y5.9898 
G01 X-9.0116 Y6.1282 
G01 X-9.0408 Y6.2751 
G01 X-9.0408 Y6.4249 
G01 X-9.0116 Y6.5718 
G01 X-8.9543 Y6.7102 
G01 X-8.8710 Y6.8347 
G01 X-8.7651 Y6.9406 
G01 X-8.6406 Y7.0239 
G01 X-8.5022 Y7.0812 
G01 X-8.3553 Y7.1104 
G01 X-6.8847 Y7.1104 
G01 X-6.7378 Y7.0812 
G01 X-6.5994 Y7.0239 
G01 X-6.4749 Y6.9406 
G01 X-6.3690 Y6.8347 
G01 X-6.2857 Y6.7102 
G01 X-6.2284 Y6.5718 
G01 X-6.1992 Y6.4249 
G01 X-6.1992 Y6.2751 
G01 X-6.2284 Y6.1282 
G01 X-6.2857 Y5.9898 
G01 X-6.3690 Y5.8653 
G01 X-6.4749 Y5.7594 
G01 X-6.5994 Y5.6761 
G01 X-6.7378 Y5.6188 
G01 X-6.8847 Y5.5896 
G00 Z2.0000 
G00 X-22.4901 Y16.1372 
G01 Z-0.0250 F254.00 
G01 X-22.4901 Y16.8828 F508.00 
G01 X-21.9628 Y17.4101 
G01 X-21.2172 Y17.4101 
G01 X-21.2053 Y17.3982 
G01 X-19.8916 Y18.7119 
G01 X-19.7997 Y18.7500 
G01 X-8.9792 Y18.7500 
G01 X-9.0116 Y18.8282 
G01 X-9.0408 Y18.9751 
G01 X-9.0408 Y19.1249 
G01 X-9.0116 Y19.2718 
G01 X-8.9543 Y19.4102 
G01 X-8.8710 Y19.5347 
G01 X-8.7651 Y19.6406 
G01 X-8.6406 Y19.7239 
G01 X-8.5022 Y19.7812 
G01 X-8.3553 Y19.8104 
G01 X-6.8847 Y19.8104 
G01 X-6.7378 Y19.7812 
G01 X-6.5994 Y19.7239 
G01 X-6.4749 Y19.6406 
G01 X-6.3690 Y19.5347 
G01 X-6.2857 Y19.4102 
G01 X-6.2284 Y19.2718 
G01 X-6.1992 Y19.1249 
G01 X-6.1992 Y18.9751 
G01 X-6.2284 Y18.8282 
G01 X-6.2857 Y18.6898 
G01 X-6.3690 Y18.5653 
G01 X-6.4749 Y18.4594 
G01 X-6.5994 Y18.3761 
G01 X-6.7378 Y18.3188 
G01 X-6.8847 Y18.2896 
G01 X-8.1068 Y18.2896 
G01 X-8.2003 Y18.2500 
G01 X-19.6464 Y18.2500 
G01 X-20.8518 Y17.0447 
G01 X-20.6899 Y16.8828 
G01 X-20.6899 Y16.1372 
G01 X-21.2172 Y15.6099 
G01 X-21.9628 Y15.6099 
G01 X-22.4901 Y16.1372 
G00 Z2.0000 
G00 X-27.5701 Y16.1372 
G01 Z-0.0250 F254.00 
G01 X-27.5701 Y16.8828 F508.00 
G01 X-27.0428 Y17.4101 
G01 X-26.2972 Y17.4101 
G01 X-25.7699 Y16.8828 
G01 X-25.7699 Y16.1372 
G01 X-26.2972 Y15.6099 
G01 X-27.0428 Y15.6099 
G01 X-27.5701 Y16.1372 
G00 Z2.0000 
G00 X-25.0301 Y8.5172 
G01 Z-0.0250 F254.00 
G01 X-25.0301 Y9.2628 F508.00 
G01 X-24.5028 Y9.7901 
G01 X-23.7572 Y9.7901 
G01 X-23.2299 Y9.2628 
G01 X-23.2299 Y8.5172 
G01 X-23.7572 Y7.9899 
G01 X-24.5028 Y7.9899 
G01 X-25.0301 Y8.5172 
G00 Z2.0000 
G00 X-22.4901 Y8.5172 
G01 Z-0.0250 F254.00 
G01 X-22.4901 Y9.2628 F508.00 
G01 X-21.9628 Y9.7901 
G01 X-21.2172 Y9.7901 
G01 X-21.1403 Y9.7132 
G01 X-19.8916 Y10.9619 
G01 X-19.7997 Y11.0000 
G01 X-13.8536 Y11.0000 
G01 X-13.8189 Y11.0347 
G01 X-13.8346 Y11.0727 
G01 X-13.8580 Y11.1901 
G01 X-13.8580 Y11.3099 
G01 X-13.8346 Y11.4273 
G01 X-13.7888 Y11.5380 
G01 X-13.7223 Y11.6376 
G01 X-13.6376 Y11.7223 
G01 X-13.5380 Y11.7888 
G01 X-13.4273 Y11.8346 
G01 X-13.3099 Y11.8580 
G01 X-13.1901 Y11.8580 
G01 X-13.0727 Y11.8346 
G01 X-12.9620 Y11.7888 
G01 X-12.8624 Y11.7223 
G01 X-12.7777 Y11.6376 
G01 X-12.7112 Y11.5380 
G01 X-12.6654 Y11.4273 
G01 X-12.6420 Y11.3099 
G01 X-12.6420 Y11.1901 
G01 X-12.6654 Y11.0727 
G01 X-12.7112 Y10.9620 
G01 X-12.7777 Y10.8624 
G01 X-12.8624 Y10.7777 
G01 X-12.9620 Y10.7112 
G01 X-13.0727 Y10.6654 
G01 X-13.1901 Y10.6420 
G01 X-13.3099 Y10.6420 
G01 X-13.4273 Y10.6654 
G01 X-13.4653 Y10.6811 
G01 X-13.5381 Y10.6084 
G01 X-13.6084 Y10.5381 
G01 X-13.7003 Y10.5000 
G01 X-19.6464 Y10.5000 
G01 X-20.7868 Y9.3597 
G01 X-20.6899 Y9.2628 
G01 X-20.6899 Y8.5172 
G01 X-21.2172 Y7.9899 
G01 X-21.9628 Y7.9899 
G01 X-22.4901 Y8.5172 
G00 Z2.0000 
G00 X-3.3900 Y22.7763 
G01 Z-0.0250 F254.00 
G01 X-3.3900 Y22.9437 F508.00 
G01 X-3.3573 Y23.1079 
G01 X-3.2933 Y23.2626 
G01 X-3.2002 Y23.4018 
G01 X-3.0818 Y23.5202 
G01 X-2.9426 Y23.6133 
G01 X-2.7879 Y23.6773 
G01 X-2.6237 Y23.7100 
G01 X-2.4563 Y23.7100 
G01 X-2.2921 Y23.6773 
G01 X-2.1374 Y23.6133 
G01 X-1.9982 Y23.5202 
G01 X-1.8798 Y23.4018 
G01 X-1.7867 Y23.2626 
G01 X-1.7227 Y23.1079 
G01 X-1.6900 Y22.9437 
G01 X-1.6900 Y22.7763 
G01 X-1.7227 Y22.6121 
G01 X-1.7867 Y22.4574 
G01 X-1.8798 Y22.3182 
G01 X-1.9982 Y22.1998 
G01 X-2.1374 Y22.1067 
G01 X-2.2921 Y22.0427 
G01 X-2.4563 Y22.0100 
G01 X-2.6237 Y22.0100 
G01 X-2.7879 Y22.0427 
G01 X-2.9426 Y22.1067 
G01 X-3.0818 Y22.1998 
G01 X-3.2002 Y22.3182 
G01 X-3.2933 Y22.4574 
G01 X-3.3573 Y22.6121 
G01 X-3.3900 Y22.7763 
G00 Z2.0000 
G00 X-28.7900 Y22.7763 
G01 Z-0.0250 F254.00 
G01 X-28.7900 Y22.9437 F508.00 
G01 X-28.7573 Y23.1079 
G01 X-28.6933 Y23.2626 
G01 X-28.6002 Y23.4018 
G01 X-28.4818 Y23.5202 
G01 X-28.3426 Y23.6133 
G01 X-28.1879 Y23.6773 
G01 X-28.0237 Y23.7100 
G01 X-27.8563 Y23.7100 
G01 X-27.6921 Y23.6773 
G01 X-27.5374 Y23.6133 
G01 X-27.3982 Y23.5202 
G01 X-27.2798 Y23.4018 
G01 X-27.1867 Y23.2626 
G01 X-27.1227 Y23.1079 
G01 X-27.0900 Y22.9437 
G01 X-27.0900 Y22.7763 
G01 X-27.1227 Y22.6121 
G01 X-27.1867 Y22.4574 
G01 X-27.2798 Y22.3182 
G01 X-27.3982 Y22.1998 
G01 X-27.5374 Y22.1067 
G01 X-27.6921 Y22.0427 
G01 X-27.8563 Y22.0100 
G01 X-28.0237 Y22.0100 
G01 X-28.1879 Y22.0427 
G01 X-28.3426 Y22.1067 
G01 X-28.4818 Y22.1998 
G01 X-28.6002 Y22.3182 
G01 X-28.6933 Y22.4574 
G01 X-28.7573 Y22.6121 
G01 X-28.7900 Y22.7763 
G00 Z2.0000 
G00 X-28.7900 Y2.4563 
G01 Z-0.0250 F254.00 
G01 X-28.7900 Y2.6237 F508.00 
G01 X-28.7573 Y2.7879 
G01 X-28.6933 Y2.9426 
G01 X-28.6002 Y3.0818 
G01 X-28.4818 Y3.2002 
G01 X-28.3426 Y3.2933 
G01 X-28.1879 Y3.3573 
G01 X-28.0237 Y3.3900 
G01 X-27.8563 Y3.3900 
G01 X-27.6921 Y3.3573 
G01 X-27.5374 Y3.2933 
G01 X-27.3982 Y3.2002 
G01 X-27.2798 Y3.0818 
G01 X-27.1867 Y2.9426 
G01 X-27.1227 Y2.7879 
G01 X-27.0900 Y2.6237 
G01 X-27.0900 Y2.4563 
G01 X-27.1227 Y2.2921 
G01 X-27.1867 Y2.1374 
G01 X-27.2798 Y1.9982 
G01 X-27.3982 Y1.8798 
G01 X-27.5374 Y1.7867 
G01 X-27.6921 Y1.7227 
G01 X-27.8563 Y1.6900 
G01 X-28.0237 Y1.6900 
G01 X-28.1879 Y1.7227 
G01 X-28.3426 Y1.7867 
G01 X-28.4818 Y1.8798 
G01 X-28.6002 Y1.9982 
G01 X-28.6933 Y2.1374 
G01 X-28.7573 Y2.2921 
G01 X-28.7900 Y2.4563 
G00 Z2.0000 
G00 X-3.3900 Y2.4563 
G01 Z-0.0250 F254.00 
G01 X-3.3900 Y2.6237 F508.00 
G01 X-3.3573 Y2.7879 
G01 X-3.2933 Y2.9426 
G01 X-3.2002 Y3.0818 
G01 X-3.0818 Y3.2002 
G01 X-2.9426 Y3.2933 
G01 X-2.7879 Y3.3573 
G01 X-2.6237 Y3.3900 
G01 X-2.4563 Y3.3900 
G01 X-2.2921 Y3.3573 
G01 X-2.1374 Y3.2933 
G01 X-1.9982 Y3.2002 
G01 X-1.8798 Y3.0818 
G01 X-1.7867 Y2.9426 
G01 X-1.7227 Y2.7879 
G01 X-1.6900 Y2.6237 
G01 X-1.6900 Y2.4563 
G01 X-1.7227 Y2.2921 
G01 X-1.7867 Y2.1374 
G01 X-1.8798 Y1.9982 
G01 X-1.9982 Y1.8798 
G01 X-2.1374 Y1.7867 
G01 X-2.2921 Y1.7227 
G01 X-2.4563 Y1.6900 
G01 X-2.6237 Y1.6900 
G01 X-2.7879 Y1.7227 
G01 X-2.9426 Y1.7867 
G01 X-3.0818 Y1.8798 
G01 X-3.2002 Y1.9982 
G01 X-3.2933 Y2.1374 
G01 X-3.3573 Y2.2921 
G01 X-3.3900 Y2.4563 
G00 Z2.0000 
G00 X-6.8749 Y5.4896 
G01 Z-0.0250 F254.00 
G01 X-8.3651 Y5.4896 F508.00 
G01 X-8.5314 Y5.5227 
G01 X-8.6880 Y5.5875 
G01 X-8.8289 Y5.6817 
G01 X-8.9487 Y5.8015 
G01 X-9.0429 Y5.9424 
G01 X-9.1077 Y6.0990 
G01 X-9.1408 Y6.2653 
G01 X-9.1408 Y6.4347 
G01 X-9.1077 Y6.6010 
G01 X-9.0429 Y6.7576 
G01 X-8.9487 Y6.8985 
G01 X-8.8289 Y7.0183 
G01 X-8.6880 Y7.1125 
G01 X-8.5314 Y7.1773 
G01 X-8.3651 Y7.2104 
G01 X-6.8749 Y7.2104 
G01 X-6.7086 Y7.1773 
G01 X-6.5520 Y7.1125 
G01 X-6.4111 Y7.0183 
G01 X-6.2913 Y6.8985 
G01 X-6.1971 Y6.7576 
G01 X-6.1323 Y6.6010 
G01 X-6.0992 Y6.4347 
G01 X-6.0992 Y6.2653 
G01 X-6.1323 Y6.0990 
G01 X-6.1971 Y5.9424 
G01 X-6.2913 Y5.8015 
G01 X-6.4111 Y5.6817 
G01 X-6.5520 Y5.5875 
G01 X-6.7086 Y5.5227 
G01 X-6.8749 Y5.4896 
G00 Z2.0000 
G00 X-22.5901 Y16.0957 
G01 Z-0.0250 F254.00 
G01 X-22.5901 Y16.9243 F508.00 
G01 X-22.0043 Y17.5101 
G01 X-21.2349 Y17.5101 
G01 X-19.9649 Y18.7801 
G01 X-19.8851 Y18.8261 
G01 X-19.7961 Y18.8500 
G01 X-9.1179 Y18.8500 
G01 X-9.1408 Y18.9653 
G01 X-9.1408 Y19.1347 
G01 X-9.1077 Y19.3010 
G01 X-9.0429 Y19.4576 
G01 X-8.9487 Y19.5985 
G01 X-8.8289 Y19.7183 
G01 X-8.6880 Y19.8125 
G01 X-8.5314 Y19.8773 
G01 X-8.3651 Y19.9104 
G01 X-6.8749 Y19.9104 
G01 X-6.7086 Y19.8773 
G01 X-6.5520 Y19.8125 
G01 X-6.4111 Y19.7183 
G01 X-6.2913 Y19.5985 
G01 X-6.1971 Y19.4576 
G01 X-6.1323 Y19.3010 
G01 X-6.0992 Y19.1347 
G01 X-6.0992 Y18.9653 
G01 X-6.1323 Y18.7990 
G01 X-6.1971 Y18.6424 
G01 X-6.2913 Y18.5015 
G01 X-6.4111 Y18.3817 
G01 X-6.5520 Y18.2875 
G01 X-6.7086 Y18.2227 
G01 X-6.8749 Y18.1896 
G01 X-8.0876 Y18.1896 
G01 X-8.1149 Y18.1739 
G01 X-8.2039 Y18.1500 
G01 X-19.6050 Y18.1500 
G01 X-20.7103 Y17.0447 
G01 X-20.5899 Y16.9243 
G01 X-20.5899 Y16.0957 
G01 X-21.0857 Y15.6000 
G01 X-19.5543 Y15.6000 
G01 X-20.0501 Y16.0957 
G01 X-20.0501 Y16.9243 
G01 X-19.4643 Y17.5101 
G01 X-18.7349 Y17.5101 
G01 X-18.2149 Y18.0301 
G01 X-18.1351 Y18.0761 
G01 X-18.0461 Y18.1000 
G01 X-4.9539 Y18.1000 
G01 X-4.8649 Y18.0761 
G01 X-4.7851 Y18.0301 
G01 X-4.7199 Y17.9649 
G01 X-4.6739 Y17.8851 
G01 X-4.6500 Y17.7961 
G01 X-4.6500 Y9.7039 
G01 X-4.6739 Y9.6149 
G01 X-4.7199 Y9.5351 
G01 X-4.7851 Y9.4699 
G01 X-5.2851 Y8.9699 
G01 X-5.3649 Y8.9239 
G01 X-5.4539 Y8.9000 
G01 X-6.0992 Y8.9000 
G01 X-6.0992 Y8.8053 
G01 X-6.1323 Y8.6390 
G01 X-6.1971 Y8.4824 
G01 X-6.2913 Y8.3415 
G01 X-6.4111 Y8.2217 
G01 X-6.5520 Y8.1275 
G01 X-6.7086 Y8.0627 
G01 X-6.8749 Y8.0296 
G01 X-8.3651 Y8.0296 
G01 X-8.5314 Y8.0627 
G01 X-8.6880 Y8.1275 
G01 X-8.8289 Y8.2217 
G01 X-8.9487 Y8.3415 
G01 X-9.0429 Y8.4824 
G01 X-9.1077 Y8.6390 
G01 X-9.1408 Y8.8053 
G01 X-9.1408 Y8.9747 
G01 X-9.1077 Y9.1410 
G01 X-9.0429 Y9.2976 
G01 X-8.9487 Y9.4385 
G01 X-8.8289 Y9.5583 
G01 X-8.6917 Y9.6500 
G01 X-17.8550 Y9.6500 
G01 X-18.1253 Y9.3797 
G01 X-18.0499 Y9.3043 
G01 X-18.0499 Y8.4757 
G01 X-18.6357 Y7.8899 
G01 X-19.4643 Y7.8899 
G01 X-20.0501 Y8.4757 
G01 X-20.0501 Y9.3043 
G01 X-19.4643 Y9.8901 
G01 X-18.6357 Y9.8901 
G01 X-18.6203 Y9.8747 
G01 X-18.2149 Y10.2801 
G01 X-18.1351 Y10.3261 
G01 X-18.0461 Y10.3500 
G01 X-6.1000 Y10.3500 
G01 X-6.1000 Y11.3413 
G01 X-6.1323 Y11.1790 
G01 X-6.1971 Y11.0224 
G01 X-6.2913 Y10.8815 
G01 X-6.4111 Y10.7617 
G01 X-6.5520 Y10.6675 
G01 X-6.7086 Y10.6027 
G01 X-6.8749 Y10.5696 
G01 X-8.3651 Y10.5696 
G01 X-8.5314 Y10.6027 
G01 X-8.6880 Y10.6675 
G01 X-8.8289 Y10.7617 
G01 X-8.9487 Y10.8815 
G01 X-9.0429 Y11.0224 
G01 X-9.1077 Y11.1790 
G01 X-9.1408 Y11.3453 
G01 X-9.1408 Y11.5147 
G01 X-9.1077 Y11.6810 
G01 X-9.0429 Y11.8376 
G01 X-9.0011 Y11.9000 
G01 X-12.9692 Y11.9000 
G01 X-12.9146 Y11.8774 
G01 X-12.7987 Y11.7999 
G01 X-12.7001 Y11.7013 
G01 X-12.6226 Y11.5854 
G01 X-12.5692 Y11.4565 
G01 X-12.5420 Y11.3197 
G01 X-12.5420 Y11.1803 
G01 X-12.5692 Y11.0435 
G01 X-12.6226 Y10.9146 
G01 X-12.7001 Y10.7987 
G01 X-12.7987 Y10.7001 
G01 X-12.9146 Y10.6226 
G01 X-13.0435 Y10.5692 
G01 X-13.1803 Y10.5420 
G01 X-13.3197 Y10.5420 
G01 X-13.4392 Y10.5658 
G01 X-13.4699 Y10.5351 
G01 X-13.5351 Y10.4699 
G01 X-13.6149 Y10.4239 
G01 X-13.7039 Y10.4000 
G01 X-19.6050 Y10.4000 
G01 X-20.6453 Y9.3597 
G01 X-20.5899 Y9.3043 
G01 X-20.5899 Y8.4757 
G01 X-21.1757 Y7.8899 
G01 X-22.0043 Y7.8899 
G01 X-22.5901 Y8.4757 
G01 X-22.5901 Y9.3043 
G01 X-22.0043 Y9.8901 
G01 X-21.1757 Y9.8901 
G01 X-21.1403 Y9.8547 
G01 X-19.9649 Y11.0301 
G01 X-19.8851 Y11.0761 
G01 X-19.7961 Y11.1000 
G01 X-13.9420 Y11.1000 
G01 X-13.9580 Y11.1803 
G01 X-13.9580 Y11.3197 
G01 X-13.9308 Y11.4565 
G01 X-13.8774 Y11.5854 
G01 X-13.7999 Y11.7013 
G01 X-13.7013 Y11.7999 
G01 X-13.5854 Y11.8774 
G01 X-13.5308 Y11.9000 
G01 X-23.1050 Y11.9000 
G01 X-25.6853 Y9.3197 
G01 X-25.6699 Y9.3043 
G01 X-25.6699 Y8.4757 
G01 X-26.2557 Y7.8899 
G01 X-27.0843 Y7.8899 
G01 X-27.6701 Y8.4757 
G01 X-27.6701 Y9.3043 
G01 X-27.0843 Y9.8901 
G01 X-26.2557 Y9.8901 
G01 X-26.1803 Y9.8147 
G01 X-23.4649 Y12.5301 
G01 X-23.3851 Y12.5761 
G01 X-23.2961 Y12.6000 
G01 X-8.4539 Y12.6000 
G01 X-8.3649 Y12.5761 
G01 X-8.2851 Y12.5301 
G01 X-8.2199 Y12.4649 
G01 X-8.0454 Y12.2904 
G01 X-6.8749 Y12.2904 
G01 X-6.7086 Y12.2573 
G01 X-6.5520 Y12.1925 
G01 X-6.4111 Y12.0983 
G01 X-6.2913 Y11.9785 
G01 X-6.1971 Y11.8376 
G01 X-6.1323 Y11.6810 
G01 X-6.1000 Y11.5187 
G01 X-6.1000 Y11.8550 
G01 X-7.3546 Y13.1096 
G01 X-8.3651 Y13.1096 
G01 X-8.5314 Y13.1427 
G01 X-8.6880 Y13.2075 
G01 X-8.8289 Y13.3017 
G01 X-8.9487 Y13.4215 
G01 X-9.0429 Y13.5624 
G01 X-9.1077 Y13.7190 
G01 X-9.1408 Y13.8853 
G01 X-9.1408 Y14.0547 
G01 X-9.1077 Y14.2210 
G01 X-9.0429 Y14.3776 
G01 X-8.9487 Y14.5185 
G01 X-8.8289 Y14.6383 
G01 X-8.6880 Y14.7325 
G01 X-8.5314 Y14.7973 
G01 X-8.3651 Y14.8304 
G01 X-6.8749 Y14.8304 
G01 X-6.7086 Y14.7973 
G01 X-6.5520 Y14.7325 
G01 X-6.4111 Y14.6383 
G01 X-6.2913 Y14.5185 
G01 X-6.1971 Y14.3776 
G01 X-6.1323 Y14.2210 
G01 X-6.0992 Y14.0547 
G01 X-6.0992 Y13.8853 
G01 X-6.1323 Y13.7190 
G01 X-6.1971 Y13.5624 
G01 X-6.2913 Y13.4215 
G01 X-6.4111 Y13.3017 
G01 X-6.4984 Y13.2434 
G01 X-5.5351 Y12.2801 
G01 X-5.4699 Y12.2149 
G01 X-5.4239 Y12.1351 
G01 X-5.4000 Y12.0461 
G01 X-5.4000 Y9.9539 
G01 X-5.4239 Y9.8649 
G01 X-5.4699 Y9.7851 
G01 X-5.5351 Y9.7199 
G01 X-5.6149 Y9.6739 
G01 X-5.7039 Y9.6500 
G01 X-6.5483 Y9.6500 
G01 X-6.4735 Y9.6000 
G01 X-5.6450 Y9.6000 
G01 X-5.3500 Y9.8950 
G01 X-5.3500 Y17.4000 
G01 X-17.8550 Y17.4000 
G01 X-18.1903 Y17.0647 
G01 X-18.0499 Y16.9243 
G01 X-18.0499 Y16.0957 
G01 X-18.5457 Y15.6000 
G01 X-9.1450 Y15.6000 
G01 X-8.8661 Y15.8789 
G01 X-8.9487 Y15.9615 
G01 X-9.0429 Y16.1024 
G01 X-9.1077 Y16.2590 
G01 X-9.1408 Y16.4253 
G01 X-9.1408 Y16.5947 
G01 X-9.1077 Y16.7610 
G01 X-9.0429 Y16.9176 
G01 X-8.9487 Y17.0585 
G01 X-8.8289 Y17.1783 
G01 X-8.6880 Y17.2725 
G01 X-8.5314 Y17.3373 
G01 X-8.3651 Y17.3704 
G01 X-6.8749 Y17.3704 
G01 X-6.7086 Y17.3373 
G01 X-6.5520 Y17.2725 
G01 X-6.4111 Y17.1783 
G01 X-6.2913 Y17.0585 
G01 X-6.1971 Y16.9176 
G01 X-6.1323 Y16.7610 
G01 X-6.0992 Y16.5947 
G01 X-6.0992 Y16.4253 
G01 X-6.1323 Y16.2590 
G01 X-6.1971 Y16.1024 
G01 X-6.2913 Y15.9615 
G01 X-6.4111 Y15.8417 
G01 X-6.5520 Y15.7475 
G01 X-6.7086 Y15.6827 
G01 X-6.8749 Y15.6496 
G01 X-8.1054 Y15.6496 
G01 X-8.7199 Y15.0351 
G01 X-8.7851 Y14.9699 
G01 X-8.8649 Y14.9239 
G01 X-8.9539 Y14.9000 
G01 X-22.7961 Y14.9000 
G01 X-22.8851 Y14.9239 
G01 X-22.9649 Y14.9699 
G01 X-23.6103 Y15.6153 
G01 X-23.7157 Y15.5099 
G01 X-24.5443 Y15.5099 
G01 X-25.1301 Y16.0957 
G01 X-25.1301 Y16.9243 
G01 X-24.5443 Y17.5101 
G01 X-23.7157 Y17.5101 
G01 X-23.1299 Y16.9243 
G01 X-23.1299 Y16.1249 
G01 X-22.6050 Y15.6000 
G01 X-22.0943 Y15.6000 
G01 X-22.5901 Y16.0957 
G00 Z2.0000 
G00 X-27.6701 Y16.0957 
G01 Z-0.0250 F254.00 
G01 X-27.6701 Y16.9243 F508.00 
G01 X-27.0843 Y17.5101 
G01 X-26.2557 Y17.5101 
G01 X-25.6699 Y16.9243 
G01 X-25.6699 Y16.0957 
G01 X-26.2557 Y15.5099 
G01 X-27.0843 Y15.5099 
G01 X-27.6701 Y16.0957 
G00 Z2.0000 
G00 X-25.1301 Y8.4757 
G01 Z-0.0250 F254.00 
G01 X-25.1301 Y9.3043 F508.00 
G01 X-24.5443 Y9.8901 
G01 X-23.7157 Y9.8901 
G01 X-23.1299 Y9.3043 
G01 X-23.1299 Y8.4757 
G01 X-23.7157 Y7.8899 
G01 X-24.5443 Y7.8899 
G01 X-25.1301 Y8.4757 
G00 Z2.0000 
G00 X-3.4900 Y22.7664 
G01 Z-0.0250 F254.00 
G01 X-3.4900 Y22.9536 F508.00 
G01 X-3.4535 Y23.1371 
G01 X-3.3819 Y23.3100 
G01 X-3.2779 Y23.4656 
G01 X-3.1456 Y23.5979 
G01 X-2.9900 Y23.7019 
G01 X-2.8171 Y23.7735 
G01 X-2.6336 Y23.8100 
G01 X-2.4464 Y23.8100 
G01 X-2.2629 Y23.7735 
G01 X-2.0900 Y23.7019 
G01 X-1.9344 Y23.5979 
G01 X-1.8021 Y23.4656 
G01 X-1.6981 Y23.3100 
G01 X-1.6265 Y23.1371 
G01 X-1.5900 Y22.9536 
G01 X-1.5900 Y22.7664 
G01 X-1.6265 Y22.5829 
G01 X-1.6981 Y22.4100 
G01 X-1.8021 Y22.2544 
G01 X-1.9344 Y22.1221 
G01 X-2.0900 Y22.0181 
G01 X-2.2629 Y21.9465 
G01 X-2.4464 Y21.9100 
G01 X-2.6336 Y21.9100 
G01 X-2.8171 Y21.9465 
G01 X-2.9900 Y22.0181 
G01 X-3.1456 Y22.1221 
G01 X-3.2779 Y22.2544 
G01 X-3.3819 Y22.4100 
G01 X-3.4535 Y22.5829 
G01 X-3.4900 Y22.7664 
G00 Z2.0000 
G00 X-28.8900 Y22.7664 
G01 Z-0.0250 F254.00 
G01 X-28.8900 Y22.9536 F508.00 
G01 X-28.8535 Y23.1371 
G01 X-28.7819 Y23.3100 
G01 X-28.6779 Y23.4656 
G01 X-28.5456 Y23.5979 
G01 X-28.3900 Y23.7019 
G01 X-28.2171 Y23.7735 
G01 X-28.0336 Y23.8100 
G01 X-27.8464 Y23.8100 
G01 X-27.6629 Y23.7735 
G01 X-27.4900 Y23.7019 
G01 X-27.3344 Y23.5979 
G01 X-27.2021 Y23.4656 
G01 X-27.0981 Y23.3100 
G01 X-27.0265 Y23.1371 
G01 X-26.9900 Y22.9536 
G01 X-26.9900 Y22.7664 
G01 X-27.0265 Y22.5829 
G01 X-27.0981 Y22.4100 
G01 X-27.2021 Y22.2544 
G01 X-27.3344 Y22.1221 
G01 X-27.4900 Y22.0181 
G01 X-27.6629 Y21.9465 
G01 X-27.8464 Y21.9100 
G01 X-28.0336 Y21.9100 
G01 X-28.2171 Y21.9465 
G01 X-28.3900 Y22.0181 
G01 X-28.5456 Y22.1221 
G01 X-28.6779 Y22.2544 
G01 X-28.7819 Y22.4100 
G01 X-28.8535 Y22.5829 
G01 X-28.8900 Y22.7664 
G00 Z2.0000 
G00 X-28.8900 Y2.4464 
G01 Z-0.0250 F254.00 
G01 X-28.8900 Y2.6336 F508.00 
G01 X-28.8535 Y2.8171 
G01 X-28.7819 Y2.9900 
G01 X-28.6779 Y3.1456 
G01 X-28.5456 Y3.2779 
G01 X-28.3900 Y3.3819 
G01 X-28.2171 Y3.4535 
G01 X-28.0336 Y3.4900 
G01 X-27.8464 Y3.4900 
G01 X-27.6629 Y3.4535 
G01 X-27.4900 Y3.3819 
G01 X-27.3344 Y3.2779 
G01 X-27.2021 Y3.1456 
G01 X-27.0981 Y2.9900 
G01 X-27.0265 Y2.8171 
G01 X-26.9900 Y2.6336 
G01 X-26.9900 Y2.4464 
G01 X-27.0265 Y2.2629 
G01 X-27.0981 Y2.0900 
G01 X-27.2021 Y1.9344 
G01 X-27.3344 Y1.8021 
G01 X-27.4900 Y1.6981 
G01 X-27.6629 Y1.6265 
G01 X-27.8464 Y1.5900 
G01 X-28.0336 Y1.5900 
G01 X-28.2171 Y1.6265 
G01 X-28.3900 Y1.6981 
G01 X-28.5456 Y1.8021 
G01 X-28.6779 Y1.9344 
G01 X-28.7819 Y2.0900 
G01 X-28.8535 Y2.2629 
G01 X-28.8900 Y2.4464 
G00 Z2.0000 
G00 X-3.4900 Y2.4464 
G01 Z-0.0250 F254.00 
G01 X-3.4900 Y2.6336 F508.00 
G01 X-3.4535 Y2.8171 
G01 X-3.3819 Y2.9900 
G01 X-3.2779 Y3.1456 
G01 X-3.1456 Y3.2779 
G01 X-2.9900 Y3.3819 
G01 X-2.8171 Y3.4535 
G01 X-2.6336 Y3.4900 
G01 X-2.4464 Y3.4900 
G01 X-2.2629 Y3.4535 
G01 X-2.0900 Y3.3819 
G01 X-1.9344 Y3.2779 
G01 X-1.8021 Y3.1456 
G01 X-1.6981 Y2.9900 
G01 X-1.6265 Y2.8171 
G01 X-1.5900 Y2.6336 
G01 X-1.5900 Y2.4464 
G01 X-1.6265 Y2.2629 
G01 X-1.6981 Y2.0900 
G01 X-1.8021 Y1.9344 
G01 X-1.9344 Y1.8021 
G01 X-2.0900 Y1.6981 
G01 X-2.2629 Y1.6265 
G01 X-2.4464 Y1.5900 
G01 X-2.6336 Y1.5900 
G01 X-2.8171 Y1.6265 
G01 X-2.9900 Y1.6981 
G01 X-3.1456 Y1.8021 
G01 X-3.2779 Y1.9344 
G01 X-3.3819 Y2.0900 
G01 X-3.4535 Y2.2629 
G01 X-3.4900 Y2.4464 
G00 Z2.0000 
G00 X-6.2000 Y10.8382 
G01 Z-0.0250 F254.00 
G01 X-6.2136 Y10.8178 F508.00 
G01 X-6.3474 Y10.6840 
G01 X-6.5047 Y10.5789 
G01 X-6.6795 Y10.5065 
G01 X-6.8650 Y10.4696 
G01 X-8.3750 Y10.4696 
G01 X-8.5605 Y10.5065 
G01 X-8.7353 Y10.5789 
G01 X-8.8926 Y10.6840 
G01 X-9.0264 Y10.8178 
G01 X-9.1315 Y10.9751 
G01 X-9.2039 Y11.1499 
G01 X-9.2408 Y11.3354 
G01 X-9.2408 Y11.5246 
G01 X-9.2039 Y11.7101 
G01 X-9.1667 Y11.8000 
G01 X-12.6573 Y11.8000 
G01 X-12.6224 Y11.7651 
G01 X-12.5340 Y11.6327 
G01 X-12.4731 Y11.4857 
G01 X-12.4420 Y11.3296 
G01 X-12.4420 Y11.1704 
G01 X-12.4731 Y11.0143 
G01 X-12.5340 Y10.8673 
G01 X-12.6224 Y10.7349 
G01 X-12.7349 Y10.6224 
G01 X-12.8673 Y10.5340 
G01 X-13.0143 Y10.4731 
G01 X-13.1302 Y10.4500 
G01 X-6.2000 Y10.4500 
G01 X-6.2000 Y10.8382 
G00 Z2.0000 
G00 X-13.4063 Y10.4573 
G01 Z-0.0250 F254.00 
G01 X-13.4136 Y10.4500 F508.00 
G01 X-13.3698 Y10.4500 
G01 X-13.4063 Y10.4573 
G00 Z2.0000 
G00 X-9.0075 Y15.8789 
G01 Z-0.0250 F254.00 
G01 X-9.0264 Y15.8978 F508.00 
G01 X-9.1315 Y16.0551 
G01 X-9.2039 Y16.2299 
G01 X-9.2408 Y16.4154 
G01 X-9.2408 Y16.6046 
G01 X-9.2039 Y16.7901 
G01 X-9.1315 Y16.9649 
G01 X-9.0264 Y17.1222 
G01 X-8.8926 Y17.2560 
G01 X-8.8267 Y17.3000 
G01 X-17.8136 Y17.3000 
G01 X-18.0489 Y17.0647 
G01 X-17.9499 Y16.9657 
G01 X-17.9499 Y16.0543 
G01 X-18.3042 Y15.7000 
G01 X-9.1864 Y15.7000 
G01 X-9.0075 Y15.8789 
G00 Z2.0000 
G00 X-20.1501 Y16.0543 
G01 Z-0.0250 F254.00 
G01 X-20.1501 Y16.9657 F508.00 
G01 X-19.5057 Y17.6101 
G01 X-18.7763 Y17.6101 
G01 X-18.3364 Y18.0500 
G01 X-19.5636 Y18.0500 
G01 X-20.5689 Y17.0447 
G01 X-20.4899 Y16.9657 
G01 X-20.4899 Y16.0543 
G01 X-20.8442 Y15.7000 
G01 X-19.7958 Y15.7000 
G01 X-20.1501 Y16.0543 
G00 Z2.0000 
G00 X-25.2301 Y8.4343 
G01 Z-0.0250 F254.00 
G01 X-25.2301 Y9.3457 F508.00 
G01 X-24.5857 Y9.9901 
G01 X-23.6743 Y9.9901 
G01 X-23.0299 Y9.3457 
G01 X-23.0299 Y8.4343 
G01 X-23.6743 Y7.7899 
G01 X-24.5857 Y7.7899 
G01 X-25.2301 Y8.4343 
G00 Z2.0000 
G00 X-27.7701 Y16.0543 
G01 Z-0.0250 F254.00 
G01 X-27.7701 Y16.9657 F508.00 
G01 X-27.1257 Y17.6101 
G01 X-26.2143 Y17.6101 
G01 X-25.5699 Y16.9657 
G01 X-25.5699 Y16.0543 
G01 X-26.2143 Y15.4099 
G01 X-27.1257 Y15.4099 
G01 X-27.7701 Y16.0543 
G00 Z2.0000 
G00 X-6.8650 Y5.3896 
G01 Z-0.0250 F254.00 
G01 X-8.3750 Y5.3896 F508.00 
G01 X-8.5605 Y5.4265 
G01 X-8.7353 Y5.4989 
G01 X-8.8926 Y5.6040 
G01 X-9.0264 Y5.7378 
G01 X-9.1315 Y5.8951 
G01 X-9.2039 Y6.0699 
G01 X-9.2408 Y6.2554 
G01 X-9.2408 Y6.4446 
G01 X-9.2039 Y6.6301 
G01 X-9.1315 Y6.8049 
G01 X-9.0264 Y6.9622 
G01 X-8.8926 Y7.0960 
G01 X-8.7353 Y7.2011 
G01 X-8.5605 Y7.2735 
G01 X-8.3750 Y7.3104 
G01 X-6.8650 Y7.3104 
G01 X-6.6795 Y7.2735 
G01 X-6.5047 Y7.2011 
G01 X-6.3474 Y7.0960 
G01 X-6.2136 Y6.9622 
G01 X-6.1085 Y6.8049 
G01 X-6.0361 Y6.6301 
G01 X-5.9992 Y6.4446 
G01 X-5.9992 Y6.2554 
G01 X-6.0361 Y6.0699 
G01 X-6.1085 Y5.8951 
G01 X-6.2136 Y5.7378 
G01 X-6.3474 Y5.6040 
G01 X-6.5047 Y5.4989 
G01 X-6.6795 Y5.4265 
G01 X-6.8650 Y5.3896 
G00 Z2.0000 
G00 X-8.3750 Y13.0096 
G01 Z-0.0250 F254.00 
G01 X-8.5605 Y13.0465 F508.00 
G01 X-8.7353 Y13.1189 
G01 X-8.8926 Y13.2240 
G01 X-9.0264 Y13.3578 
G01 X-9.1315 Y13.5151 
G01 X-9.2039 Y13.6899 
G01 X-9.2408 Y13.8754 
G01 X-9.2408 Y14.0646 
G01 X-9.2039 Y14.2501 
G01 X-9.1315 Y14.4249 
G01 X-9.0264 Y14.5822 
G01 X-8.8926 Y14.7160 
G01 X-8.7353 Y14.8211 
G01 X-8.5605 Y14.8935 
G01 X-8.3750 Y14.9304 
G01 X-6.8650 Y14.9304 
G01 X-6.6795 Y14.8935 
G01 X-6.5047 Y14.8211 
G01 X-6.3474 Y14.7160 
G01 X-6.2136 Y14.5822 
G01 X-6.1085 Y14.4249 
G01 X-6.0361 Y14.2501 
G01 X-5.9992 Y14.0646 
G01 X-5.9992 Y13.8754 
G01 X-6.0361 Y13.6899 
G01 X-6.1085 Y13.5151 
G01 X-6.2136 Y13.3578 
G01 X-6.3425 Y13.2289 
G01 X-5.4737 Y12.3601 
G01 X-5.4500 Y12.3364 
G01 X-5.4500 Y17.3000 
G01 X-6.4133 Y17.3000 
G01 X-6.3474 Y17.2560 
G01 X-6.2136 Y17.1222 
G01 X-6.1085 Y16.9649 
G01 X-6.0361 Y16.7901 
G01 X-5.9992 Y16.6046 
G01 X-5.9992 Y16.4154 
G01 X-6.0361 Y16.2299 
G01 X-6.1085 Y16.0551 
G01 X-6.2136 Y15.8978 
G01 X-6.3474 Y15.7640 
G01 X-6.5047 Y15.6589 
G01 X-6.6795 Y15.5865 
G01 X-6.8650 Y15.5496 
G01 X-8.0640 Y15.5496 
G01 X-8.6399 Y14.9737 
G01 X-8.7237 Y14.8899 
G01 X-8.8263 Y14.8307 
G01 X-8.9408 Y14.8000 
G01 X-22.8092 Y14.8000 
G01 X-22.9237 Y14.8307 
G01 X-23.0263 Y14.8899 
G01 X-23.6103 Y15.4739 
G01 X-23.6743 Y15.4099 
G01 X-24.5857 Y15.4099 
G01 X-25.2301 Y16.0543 
G01 X-25.2301 Y16.9657 
G01 X-24.5857 Y17.6101 
G01 X-23.6743 Y17.6101 
G01 X-23.0299 Y16.9657 
G01 X-23.0299 Y16.1663 
G01 X-22.5636 Y15.7000 
G01 X-22.3358 Y15.7000 
G01 X-22.6901 Y16.0543 
G01 X-22.6901 Y16.9657 
G01 X-22.0457 Y17.6101 
G01 X-21.2763 Y17.6101 
G01 X-20.0263 Y18.8601 
G01 X-19.9237 Y18.9193 
G01 X-19.8092 Y18.9500 
G01 X-9.2397 Y18.9500 
G01 X-9.2408 Y18.9554 
G01 X-9.2408 Y19.1446 
G01 X-9.2039 Y19.3301 
G01 X-9.1315 Y19.5049 
G01 X-9.0264 Y19.6622 
G01 X-8.8926 Y19.7960 
G01 X-8.7353 Y19.9011 
G01 X-8.5605 Y19.9735 
G01 X-8.3750 Y20.0104 
G01 X-6.8650 Y20.0104 
G01 X-6.6795 Y19.9735 
G01 X-6.5047 Y19.9011 
G01 X-6.3474 Y19.7960 
G01 X-6.2136 Y19.6622 
G01 X-6.1085 Y19.5049 
G01 X-6.0361 Y19.3301 
G01 X-5.9992 Y19.1446 
G01 X-5.9992 Y18.9554 
G01 X-6.0361 Y18.7699 
G01 X-6.1085 Y18.5951 
G01 X-6.2136 Y18.4378 
G01 X-6.3474 Y18.3040 
G01 X-6.5030 Y18.2000 
G01 X-4.9408 Y18.2000 
G01 X-4.8263 Y18.1693 
G01 X-4.7237 Y18.1101 
G01 X-4.6399 Y18.0263 
G01 X-4.5807 Y17.9237 
G01 X-4.5500 Y17.8092 
G01 X-4.5500 Y9.6908 
G01 X-4.5807 Y9.5763 
G01 X-4.6399 Y9.4737 
G01 X-4.7237 Y9.3899 
G01 X-5.2237 Y8.8899 
G01 X-5.3263 Y8.8307 
G01 X-5.4408 Y8.8000 
G01 X-5.9992 Y8.8000 
G01 X-5.9992 Y8.7954 
G01 X-6.0361 Y8.6099 
G01 X-6.1085 Y8.4351 
G01 X-6.2136 Y8.2778 
G01 X-6.3474 Y8.1440 
G01 X-6.5047 Y8.0389 
G01 X-6.6795 Y7.9665 
G01 X-6.8650 Y7.9296 
G01 X-8.3750 Y7.9296 
G01 X-8.5605 Y7.9665 
G01 X-8.7353 Y8.0389 
G01 X-8.8926 Y8.1440 
G01 X-9.0264 Y8.2778 
G01 X-9.1315 Y8.4351 
G01 X-9.2039 Y8.6099 
G01 X-9.2408 Y8.7954 
G01 X-9.2408 Y8.9846 
G01 X-9.2039 Y9.1701 
G01 X-9.1315 Y9.3449 
G01 X-9.0264 Y9.5022 
G01 X-8.9786 Y9.5500 
G01 X-17.8136 Y9.5500 
G01 X-17.9839 Y9.3797 
G01 X-17.9499 Y9.3457 
G01 X-17.9499 Y8.4343 
G01 X-18.5943 Y7.7899 
G01 X-19.5057 Y7.7899 
G01 X-20.1501 Y8.4343 
G01 X-20.1501 Y9.3457 
G01 X-19.5057 Y9.9901 
G01 X-18.6463 Y9.9901 
G01 X-18.3364 Y10.3000 
G01 X-19.5636 Y10.3000 
G01 X-20.5039 Y9.3597 
G01 X-20.4899 Y9.3457 
G01 X-20.4899 Y8.4343 
G01 X-21.1343 Y7.7899 
G01 X-22.0457 Y7.7899 
G01 X-22.6901 Y8.4343 
G01 X-22.6901 Y9.3457 
G01 X-22.0457 Y9.9901 
G01 X-21.1463 Y9.9901 
G01 X-20.0263 Y11.1101 
G01 X-19.9237 Y11.1693 
G01 X-19.8092 Y11.2000 
G01 X-14.0580 Y11.2000 
G01 X-14.0580 Y11.3296 
G01 X-14.0269 Y11.4857 
G01 X-13.9660 Y11.6327 
G01 X-13.8776 Y11.7651 
G01 X-13.8427 Y11.8000 
G01 X-23.0636 Y11.8000 
G01 X-25.5699 Y9.2937 
G01 X-25.5699 Y8.4343 
G01 X-26.2143 Y7.7899 
G01 X-27.1257 Y7.7899 
G01 X-27.7701 Y8.4343 
G01 X-27.7701 Y9.3457 
G01 X-27.1257 Y9.9901 
G01 X-26.2143 Y9.9901 
G01 X-26.1803 Y9.9561 
G01 X-23.5263 Y12.6101 
G01 X-23.4237 Y12.6693 
G01 X-23.3092 Y12.7000 
G01 X-8.4408 Y12.7000 
G01 X-8.3263 Y12.6693 
G01 X-8.2237 Y12.6101 
G01 X-8.1399 Y12.5263 
G01 X-8.0040 Y12.3904 
G01 X-6.8650 Y12.3904 
G01 X-6.7549 Y12.3685 
G01 X-7.3960 Y13.0096 
G01 X-8.3750 Y13.0096 
G00 Z2.0000 
G00 X-3.5900 Y22.7774 
G01 Z-0.0250 F254.00 
G01 X-3.5900 Y22.9426 F508.00 
G01 X-3.5641 Y23.1059 
G01 X-3.5131 Y23.2631 
G01 X-3.4380 Y23.4103 
G01 X-3.3409 Y23.5440 
G01 X-3.2240 Y23.6609 
G01 X-3.0903 Y23.7580 
G01 X-2.9431 Y23.8331 
G01 X-2.7859 Y23.8841 
G01 X-2.6226 Y23.9100 
G01 X-2.4574 Y23.9100 
G01 X-2.2941 Y23.8841 
G01 X-2.1369 Y23.8331 
G01 X-1.9897 Y23.7580 
G01 X-1.8560 Y23.6609 
G01 X-1.7391 Y23.5440 
G01 X-1.6420 Y23.4103 
G01 X-1.5669 Y23.2631 
G01 X-1.5159 Y23.1059 
G01 X-1.4900 Y22.9426 
G01 X-1.4900 Y22.7774 
G01 X-1.5159 Y22.6141 
G01 X-1.5669 Y22.4569 
G01 X-1.6420 Y22.3097 
G01 X-1.7391 Y22.1760 
G01 X-1.8560 Y22.0591 
G01 X-1.9897 Y21.9620 
G01 X-2.1369 Y21.8869 
G01 X-2.2941 Y21.8359 
G01 X-2.4574 Y21.8100 
G01 X-2.6226 Y21.8100 
G01 X-2.7859 Y21.8359 
G01 X-2.9431 Y21.8869 
G01 X-3.0903 Y21.9620 
G01 X-3.2240 Y22.0591 
G01 X-3.3409 Y22.1760 
G01 X-3.4380 Y22.3097 
G01 X-3.5131 Y22.4569 
G01 X-3.5641 Y22.6141 
G01 X-3.5900 Y22.7774 
G00 Z2.0000 
G00 X-28.9900 Y22.7774 
G01 Z-0.0250 F254.00 
G01 X-28.9900 Y22.9426 F508.00 
G01 X-28.9641 Y23.1059 
G01 X-28.9131 Y23.2631 
G01 X-28.8380 Y23.4103 
G01 X-28.7409 Y23.5440 
G01 X-28.6240 Y23.6609 
G01 X-28.4903 Y23.7580 
G01 X-28.3431 Y23.8331 
G01 X-28.1859 Y23.8841 
G01 X-28.0226 Y23.9100 
G01 X-27.8574 Y23.9100 
G01 X-27.6941 Y23.8841 
G01 X-27.5369 Y23.8331 
G01 X-27.3897 Y23.7580 
G01 X-27.2560 Y23.6609 
G01 X-27.1391 Y23.5440 
G01 X-27.0420 Y23.4103 
G01 X-26.9669 Y23.2631 
G01 X-26.9159 Y23.1059 
G01 X-26.8900 Y22.9426 
G01 X-26.8900 Y22.7774 
G01 X-26.9159 Y22.6141 
G01 X-26.9669 Y22.4569 
G01 X-27.0420 Y22.3097 
G01 X-27.1391 Y22.1760 
G01 X-27.2560 Y22.0591 
G01 X-27.3897 Y21.9620 
G01 X-27.5369 Y21.8869 
G01 X-27.6941 Y21.8359 
G01 X-27.8574 Y21.8100 
G01 X-28.0226 Y21.8100 
G01 X-28.1859 Y21.8359 
G01 X-28.3431 Y21.8869 
G01 X-28.4903 Y21.9620 
G01 X-28.6240 Y22.0591 
G01 X-28.7409 Y22.1760 
G01 X-28.8380 Y22.3097 
G01 X-28.9131 Y22.4569 
G01 X-28.9641 Y22.6141 
G01 X-28.9900 Y22.7774 
G00 Z2.0000 
G00 X-28.9900 Y2.4574 
G01 Z-0.0250 F254.00 
G01 X-28.9900 Y2.6226 F508.00 
G01 X-28.9641 Y2.7859 
G01 X-28.9131 Y2.9431 
G01 X-28.8380 Y3.0903 
G01 X-28.7409 Y3.2240 
G01 X-28.6240 Y3.3409 
G01 X-28.4903 Y3.4380 
G01 X-28.3431 Y3.5131 
G01 X-28.1859 Y3.5641 
G01 X-28.0226 Y3.5900 
G01 X-27.8574 Y3.5900 
G01 X-27.6941 Y3.5641 
G01 X-27.5369 Y3.5131 
G01 X-27.3897 Y3.4380 
G01 X-27.2560 Y3.3409 
G01 X-27.1391 Y3.2240 
G01 X-27.0420 Y3.0903 
G01 X-26.9669 Y2.9431 
G01 X-26.9159 Y2.7859 
G01 X-26.8900 Y2.6226 
G01 X-26.8900 Y2.4574 
G01 X-26.9159 Y2.2941 
G01 X-26.9669 Y2.1369 
G01 X-27.0420 Y1.9897 
G01 X-27.1391 Y1.8560 
G01 X-27.2560 Y1.7391 
G01 X-27.3897 Y1.6420 
G01 X-27.5369 Y1.5669 
G01 X-27.6941 Y1.5159 
G01 X-27.8574 Y1.4900 
G01 X-28.0226 Y1.4900 
G01 X-28.1859 Y1.5159 
G01 X-28.3431 Y1.5669 
G01 X-28.4903 Y1.6420 
G01 X-28.6240 Y1.7391 
G01 X-28.7409 Y1.8560 
G01 X-28.8380 Y1.9897 
G01 X-28.9131 Y2.1369 
G01 X-28.9641 Y2.2941 
G01 X-28.9900 Y2.4574 
G00 Z2.0000 
G00 X-3.5900 Y2.4574 
G01 Z-0.0250 F254.00 
G01 X-3.5900 Y2.6226 F508.00 
G01 X-3.5641 Y2.7859 
G01 X-3.5131 Y2.9431 
G01 X-3.4380 Y3.0903 
G01 X-3.3409 Y3.2240 
G01 X-3.2240 Y3.3409 
G01 X-3.0903 Y3.4380 
G01 X-2.9431 Y3.5131 
G01 X-2.7859 Y3.5641 
G01 X-2.6226 Y3.5900 
G01 X-2.4574 Y3.5900 
G01 X-2.2941 Y3.5641 
G01 X-2.1369 Y3.5131 
G01 X-1.9897 Y3.4380 
G01 X-1.8560 Y3.3409 
G01 X-1.7391 Y3.2240 
G01 X-1.6420 Y3.0903 
G01 X-1.5669 Y2.9431 
G01 X-1.5159 Y2.7859 
G01 X-1.4900 Y2.6226 
G01 X-1.4900 Y2.4574 
G01 X-1.5159 Y2.2941 
G01 X-1.5669 Y2.1369 
G01 X-1.6420 Y1.9897 
G01 X-1.7391 Y1.8560 
G01 X-1.8560 Y1.7391 
G01 X-1.9897 Y1.6420 
G01 X-2.1369 Y1.5669 
G01 X-2.2941 Y1.5159 
G01 X-2.4574 Y1.4900 
G01 X-2.6226 Y1.4900 
G01 X-2.7859 Y1.5159 
G01 X-2.9431 Y1.5669 
G01 X-3.0903 Y1.6420 
G01 X-3.2240 Y1.7391 
G01 X-3.3409 Y1.8560 
G01 X-3.4380 Y1.9897 
G01 X-3.5131 Y2.1369 
G01 X-3.5641 Y2.2941 
G01 X-3.5900 Y2.4574 
G00 Z2.0000 
G00 X-9.1395 Y15.8883 
G01 Z-0.0250 F254.00 
G01 X-9.1873 Y15.9542 F508.00 
G01 X-9.2631 Y16.1029 
G01 X-9.3147 Y16.2617 
G01 X-9.3408 Y16.4265 
G01 X-9.3408 Y16.5935 
G01 X-9.3147 Y16.7583 
G01 X-9.2631 Y16.9170 
G01 X-9.1873 Y17.0658 
G01 X-9.0898 Y17.2000 
G01 X-17.7722 Y17.2000 
G01 X-17.9075 Y17.0647 
G01 X-17.8499 Y17.0071 
G01 X-17.8499 Y16.0129 
G01 X-18.0628 Y15.8000 
G01 X-9.2278 Y15.8000 
G01 X-9.1395 Y15.8883 
G00 Z2.0000 
G00 X-20.2501 Y16.0129 
G01 Z-0.0250 F254.00 
G01 X-20.2501 Y17.0071 F508.00 
G01 X-19.5471 Y17.7101 
G01 X-18.8177 Y17.7101 
G01 X-18.5778 Y17.9500 
G01 X-19.5222 Y17.9500 
G01 X-20.4275 Y17.0447 
G01 X-20.3899 Y17.0071 
G01 X-20.3899 Y16.0129 
G01 X-20.6028 Y15.8000 
G01 X-20.0372 Y15.8000 
G01 X-20.2501 Y16.0129 
G00 Z2.0000 
G00 X-5.5500 Y17.2000 
G01 Z-0.0250 F254.00 
G01 X-6.1502 Y17.2000 F508.00 
G01 X-6.0527 Y17.0658 
G01 X-5.9769 Y16.9170 
G01 X-5.9253 Y16.7583 
G01 X-5.8992 Y16.5935 
G01 X-5.8992 Y16.4265 
G01 X-5.9253 Y16.2617 
G01 X-5.9769 Y16.1029 
G01 X-6.0527 Y15.9542 
G01 X-6.1508 Y15.8192 
G01 X-6.2688 Y15.7012 
G01 X-6.4038 Y15.6031 
G01 X-6.5525 Y15.5273 
G01 X-6.7113 Y15.4757 
G01 X-6.8761 Y15.4496 
G01 X-8.0226 Y15.4496 
G01 X-8.4565 Y15.0157 
G01 X-8.3639 Y15.0304 
G01 X-6.8761 Y15.0304 
G01 X-6.7113 Y15.0043 
G01 X-6.5525 Y14.9527 
G01 X-6.4038 Y14.8769 
G01 X-6.2688 Y14.7788 
G01 X-6.1508 Y14.6608 
G01 X-6.0527 Y14.5258 
G01 X-5.9769 Y14.3771 
G01 X-5.9253 Y14.2183 
G01 X-5.8992 Y14.0535 
G01 X-5.8992 Y13.8865 
G01 X-5.9253 Y13.7217 
G01 X-5.9769 Y13.5629 
G01 X-6.0527 Y13.4142 
G01 X-6.1508 Y13.2792 
G01 X-6.2011 Y13.2289 
G01 X-5.5500 Y12.5778 
G01 X-5.5500 Y17.2000 
G00 Z2.0000 
G00 X-8.9712 Y10.6212 
G01 Z-0.0250 F254.00 
G01 X-9.0892 Y10.7392 F508.00 
G01 X-9.1873 Y10.8742 
G01 X-9.2631 Y11.0229 
G01 X-9.3147 Y11.1817 
G01 X-9.3408 Y11.3465 
G01 X-9.3408 Y11.5135 
G01 X-9.3147 Y11.6783 
G01 X-9.3076 Y11.7000 
G01 X-12.4586 Y11.7000 
G01 X-12.4453 Y11.6801 
G01 X-12.3769 Y11.5149 
G01 X-12.3420 Y11.3394 
G01 X-12.3420 Y11.1606 
G01 X-12.3769 Y10.9851 
G01 X-12.4453 Y10.8199 
G01 X-12.5447 Y10.6712 
G01 X-12.6659 Y10.5500 
G01 X-8.8732 Y10.5500 
G01 X-8.9712 Y10.6212 
G00 Z2.0000 
G00 X-6.3000 Y10.5985 
G01 Z-0.0250 F254.00 
G01 X-6.3668 Y10.5500 F508.00 
G01 X-6.3000 Y10.5500 
G01 X-6.3000 Y10.5985 
G00 Z2.0000 
G00 X-20.2501 Y8.3929 
G01 Z-0.0250 F254.00 
G01 X-20.2501 Y9.3871 F508.00 
G01 X-19.5471 Y10.0901 
G01 X-18.6877 Y10.0901 
G01 X-18.5778 Y10.2000 
G01 X-19.5222 Y10.2000 
G01 X-20.3899 Y9.3323 
G01 X-20.3899 Y8.3929 
G01 X-21.0929 Y7.6899 
G01 X-22.0871 Y7.6899 
G01 X-22.7901 Y8.3929 
G01 X-22.7901 Y9.3871 
G01 X-22.0871 Y10.0901 
G01 X-21.1877 Y10.0901 
G01 X-20.0877 Y11.1901 
G01 X-19.9623 Y11.2625 
G01 X-19.8224 Y11.3000 
G01 X-14.1580 Y11.3000 
G01 X-14.1580 Y11.3394 
G01 X-14.1231 Y11.5149 
G01 X-14.0547 Y11.6801 
G01 X-14.0414 Y11.7000 
G01 X-23.0222 Y11.7000 
G01 X-25.4699 Y9.2523 
G01 X-25.4699 Y8.3929 
G01 X-26.1729 Y7.6899 
G01 X-27.1671 Y7.6899 
G01 X-27.8701 Y8.3929 
G01 X-27.8701 Y9.3871 
G01 X-27.1671 Y10.0901 
G01 X-26.1877 Y10.0901 
G01 X-23.5877 Y12.6901 
G01 X-23.4623 Y12.7625 
G01 X-23.3224 Y12.8000 
G01 X-8.4276 Y12.8000 
G01 X-8.2877 Y12.7625 
G01 X-8.1623 Y12.6901 
G01 X-8.0599 Y12.5877 
G01 X-7.9626 Y12.4904 
G01 X-7.0182 Y12.4904 
G01 X-7.4374 Y12.9096 
G01 X-8.3639 Y12.9096 
G01 X-8.5287 Y12.9357 
G01 X-8.6875 Y12.9873 
G01 X-8.8362 Y13.0631 
G01 X-8.9712 Y13.1612 
G01 X-9.0892 Y13.2792 
G01 X-9.1873 Y13.4142 
G01 X-9.2631 Y13.5629 
G01 X-9.3147 Y13.7217 
G01 X-9.3408 Y13.8865 
G01 X-9.3408 Y14.0535 
G01 X-9.3147 Y14.2183 
G01 X-9.2631 Y14.3771 
G01 X-9.1873 Y14.5258 
G01 X-9.0892 Y14.6608 
G01 X-9.0500 Y14.7000 
G01 X-22.8224 Y14.7000 
G01 X-22.9623 Y14.7375 
G01 X-23.0877 Y14.8099 
G01 X-23.6103 Y15.3325 
G01 X-23.6329 Y15.3099 
G01 X-24.6271 Y15.3099 
G01 X-25.3301 Y16.0129 
G01 X-25.3301 Y17.0071 
G01 X-24.6271 Y17.7101 
G01 X-23.6329 Y17.7101 
G01 X-22.9299 Y17.0071 
G01 X-22.9299 Y16.2077 
G01 X-22.7901 Y16.0679 
G01 X-22.7901 Y17.0071 
G01 X-22.0871 Y17.7101 
G01 X-21.3177 Y17.7101 
G01 X-20.0877 Y18.9401 
G01 X-19.9623 Y19.0125 
G01 X-19.8224 Y19.0500 
G01 X-9.3408 Y19.0500 
G01 X-9.3408 Y19.1335 
G01 X-9.3147 Y19.2983 
G01 X-9.2631 Y19.4571 
G01 X-9.1873 Y19.6058 
G01 X-9.0892 Y19.7408 
G01 X-8.9712 Y19.8588 
G01 X-8.8362 Y19.9569 
G01 X-8.6875 Y20.0327 
G01 X-8.5287 Y20.0843 
G01 X-8.3639 Y20.1104 
G01 X-6.8761 Y20.1104 
G01 X-6.7113 Y20.0843 
G01 X-6.5525 Y20.0327 
G01 X-6.4038 Y19.9569 
G01 X-6.2688 Y19.8588 
G01 X-6.1508 Y19.7408 
G01 X-6.0527 Y19.6058 
G01 X-5.9769 Y19.4571 
G01 X-5.9253 Y19.2983 
G01 X-5.8992 Y19.1335 
G01 X-5.8992 Y18.9665 
G01 X-5.9253 Y18.8017 
G01 X-5.9769 Y18.6429 
G01 X-6.0527 Y18.4942 
G01 X-6.1508 Y18.3592 
G01 X-6.2100 Y18.3000 
G01 X-4.9276 Y18.3000 
G01 X-4.7877 Y18.2625 
G01 X-4.6623 Y18.1901 
G01 X-4.5599 Y18.0877 
G01 X-4.4875 Y17.9623 
G01 X-4.4500 Y17.8224 
G01 X-4.4500 Y9.6776 
G01 X-4.4875 Y9.5377 
G01 X-4.5599 Y9.4123 
G01 X-4.6623 Y9.3099 
G01 X-5.1623 Y8.8099 
G01 X-5.2877 Y8.7375 
G01 X-5.4276 Y8.7000 
G01 X-5.9161 Y8.7000 
G01 X-5.9253 Y8.6417 
G01 X-5.9769 Y8.4829 
G01 X-6.0527 Y8.3342 
G01 X-6.1508 Y8.1992 
G01 X-6.2688 Y8.0812 
G01 X-6.4038 Y7.9831 
G01 X-6.5525 Y7.9073 
G01 X-6.7113 Y7.8557 
G01 X-6.8761 Y7.8296 
G01 X-8.3639 Y7.8296 
G01 X-8.5287 Y7.8557 
G01 X-8.6875 Y7.9073 
G01 X-8.8362 Y7.9831 
G01 X-8.9712 Y8.0812 
G01 X-9.0892 Y8.1992 
G01 X-9.1873 Y8.3342 
G01 X-9.2631 Y8.4829 
G01 X-9.3147 Y8.6417 
G01 X-9.3408 Y8.8065 
G01 X-9.3408 Y8.9735 
G01 X-9.3147 Y9.1383 
G01 X-9.2631 Y9.2971 
G01 X-9.1873 Y9.4458 
G01 X-9.1843 Y9.4500 
G01 X-17.7722 Y9.4500 
G01 X-17.8499 Y9.3723 
G01 X-17.8499 Y8.3929 
G01 X-18.5529 Y7.6899 
G01 X-19.5471 Y7.6899 
G01 X-20.2501 Y8.3929 
G00 Z2.0000 
G00 X-25.3301 Y8.3929 
G01 Z-0.0250 F254.00 
G01 X-25.3301 Y9.3871 F508.00 
G01 X-24.6271 Y10.0901 
G01 X-23.6329 Y10.0901 
G01 X-22.9299 Y9.3871 
G01 X-22.9299 Y8.3929 
G01 X-23.6329 Y7.6899 
G01 X-24.6271 Y7.6899 
G01 X-25.3301 Y8.3929 
G00 Z2.0000 
G00 X-27.8701 Y16.0129 
G01 Z-0.0250 F254.00 
G01 X-27.8701 Y17.0071 F508.00 
G01 X-27.1671 Y17.7101 
G01 X-26.1729 Y17.7101 
G01 X-25.4699 Y17.0071 
G01 X-25.4699 Y16.0129 
G01 X-26.1729 Y15.3099 
G01 X-27.1671 Y15.3099 
G01 X-27.8701 Y16.0129 
G00 Z2.0000 
G00 X-6.8761 Y5.2896 
G01 Z-0.0250 F254.00 
G01 X-8.3639 Y5.2896 F508.00 
G01 X-8.5287 Y5.3157 
G01 X-8.6875 Y5.3673 
G01 X-8.8362 Y5.4431 
G01 X-8.9712 Y5.5412 
G01 X-9.0892 Y5.6592 
G01 X-9.1873 Y5.7942 
G01 X-9.2631 Y5.9429 
G01 X-9.3147 Y6.1017 
G01 X-9.3408 Y6.2665 
G01 X-9.3408 Y6.4335 
G01 X-9.3147 Y6.5983 
G01 X-9.2631 Y6.7571 
G01 X-9.1873 Y6.9058 
G01 X-9.0892 Y7.0408 
G01 X-8.9712 Y7.1588 
G01 X-8.8362 Y7.2569 
G01 X-8.6875 Y7.3327 
G01 X-8.5287 Y7.3843 
G01 X-8.3639 Y7.4104 
G01 X-6.8761 Y7.4104 
G01 X-6.7113 Y7.3843 
G01 X-6.5525 Y7.3327 
G01 X-6.4038 Y7.2569 
G01 X-6.2688 Y7.1588 
G01 X-6.1508 Y7.0408 
G01 X-6.0527 Y6.9058 
G01 X-5.9769 Y6.7571 
G01 X-5.9253 Y6.5983 
G01 X-5.8992 Y6.4335 
G01 X-5.8992 Y6.2665 
G01 X-5.9253 Y6.1017 
G01 X-5.9769 Y5.9429 
G01 X-6.0527 Y5.7942 
G01 X-6.1508 Y5.6592 
G01 X-6.2688 Y5.5412 
G01 X-6.4038 Y5.4431 
G01 X-6.5525 Y5.3673 
G01 X-6.7113 Y5.3157 
G01 X-6.8761 Y5.2896 
G00 Z2.0000 
G00 X-3.6900 Y22.7695 
G01 Z-0.0250 F254.00 
G01 X-3.6900 Y22.9505 F508.00 
G01 X-3.6617 Y23.1293 
G01 X-3.6057 Y23.3014 
G01 X-3.5236 Y23.4627 
G01 X-3.4172 Y23.6092 
G01 X-3.2892 Y23.7372 
G01 X-3.1427 Y23.8436 
G01 X-2.9814 Y23.9257 
G01 X-2.8093 Y23.9817 
G01 X-2.6305 Y24.0100 
G01 X-2.4495 Y24.0100 
G01 X-2.2707 Y23.9817 
G01 X-2.0985 Y23.9257 
G01 X-1.9373 Y23.8436 
G01 X-1.7908 Y23.7372 
G01 X-1.6628 Y23.6092 
G01 X-1.5564 Y23.4627 
G01 X-1.4743 Y23.3014 
G01 X-1.4183 Y23.1293 
G01 X-1.3900 Y22.9505 
G01 X-1.3900 Y22.7695 
G01 X-1.4183 Y22.5907 
G01 X-1.4743 Y22.4185 
G01 X-1.5564 Y22.2573 
G01 X-1.6628 Y22.1108 
G01 X-1.7908 Y21.9828 
G01 X-1.9373 Y21.8764 
G01 X-2.0985 Y21.7943 
G01 X-2.2707 Y21.7383 
G01 X-2.4495 Y21.7100 
G01 X-2.6305 Y21.7100 
G01 X-2.8093 Y21.7383 
G01 X-2.9814 Y21.7943 
G01 X-3.1427 Y21.8764 
G01 X-3.2892 Y21.9828 
G01 X-3.4172 Y22.1108 
G01 X-3.5236 Y22.2573 
G01 X-3.6057 Y22.4185 
G01 X-3.6617 Y22.5907 
G01 X-3.6900 Y22.7695 
G00 Z2.0000 
G00 X-29.0900 Y22.7695 
G01 Z-0.0250 F254.00 
G01 X-29.0900 Y22.9505 F508.00 
G01 X-29.0617 Y23.1293 
G01 X-29.0057 Y23.3014 
G01 X-28.9236 Y23.4627 
G01 X-28.8172 Y23.6092 
G01 X-28.6892 Y23.7372 
G01 X-28.5427 Y23.8436 
G01 X-28.3814 Y23.9257 
G01 X-28.2093 Y23.9817 
G01 X-28.0305 Y24.0100 
G01 X-27.8495 Y24.0100 
G01 X-27.6707 Y23.9817 
G01 X-27.4986 Y23.9257 
G01 X-27.3373 Y23.8436 
G01 X-27.1908 Y23.7372 
G01 X-27.0628 Y23.6092 
G01 X-26.9564 Y23.4627 
G01 X-26.8743 Y23.3014 
G01 X-26.8183 Y23.1293 
G01 X-26.7900 Y22.9505 
G01 X-26.7900 Y22.7695 
G01 X-26.8183 Y22.5907 
G01 X-26.8743 Y22.4185 
G01 X-26.9564 Y22.2573 
G01 X-27.0628 Y22.1108 
G01 X-27.1908 Y21.9828 
G01 X-27.3373 Y21.8764 
G01 X-27.4986 Y21.7943 
G01 X-27.6707 Y21.7383 
G01 X-27.8495 Y21.7100 
G01 X-28.0305 Y21.7100 
G01 X-28.2093 Y21.7383 
G01 X-28.3814 Y21.7943 
G01 X-28.5427 Y21.8764 
G01 X-28.6892 Y21.9828 
G01 X-28.8172 Y22.1108 
G01 X-28.9236 Y22.2573 
G01 X-29.0057 Y22.4185 
G01 X-29.0617 Y22.5907 
G01 X-29.0900 Y22.7695 
G00 Z2.0000 
G00 X-29.0900 Y2.4495 
G01 Z-0.0250 F254.00 
G01 X-29.0900 Y2.6305 F508.00 
G01 X-29.0617 Y2.8093 
G01 X-29.0057 Y2.9814 
G01 X-28.9236 Y3.1427 
G01 X-28.8172 Y3.2892 
G01 X-28.6892 Y3.4172 
G01 X-28.5427 Y3.5236 
G01 X-28.3814 Y3.6057 
G01 X-28.2093 Y3.6617 
G01 X-28.0305 Y3.6900 
G01 X-27.8495 Y3.6900 
G01 X-27.6707 Y3.6617 
G01 X-27.4986 Y3.6057 
G01 X-27.3373 Y3.5236 
G01 X-27.1908 Y3.4172 
G01 X-27.0628 Y3.2892 
G01 X-26.9564 Y3.1427 
G01 X-26.8743 Y2.9814 
G01 X-26.8183 Y2.8093 
G01 X-26.7900 Y2.6305 
G01 X-26.7900 Y2.4495 
G01 X-26.8183 Y2.2707 
G01 X-26.8743 Y2.0985 
G01 X-26.9564 Y1.9373 
G01 X-27.0628 Y1.7908 
G01 X-27.1908 Y1.6628 
G01 X-27.3373 Y1.5564 
G01 X-27.4986 Y1.4743 
G01 X-27.6707 Y1.4183 
G01 X-27.8495 Y1.3900 
G01 X-28.0305 Y1.3900 
G01 X-28.2093 Y1.4183 
G01 X-28.3814 Y1.4743 
G01 X-28.5427 Y1.5564 
G01 X-28.6892 Y1.6628 
G01 X-28.8172 Y1.7908 
G01 X-28.9236 Y1.9373 
G01 X-29.0057 Y2.0985 
G01 X-29.0617 Y2.2707 
G01 X-29.0900 Y2.4495 
G00 Z2.0000 
G00 X-3.6900 Y2.4495 
G01 Z-0.0250 F254.00 
G01 X-3.6900 Y2.6305 F508.00 
G01 X-3.6617 Y2.8093 
G01 X-3.6057 Y2.9814 
G01 X-3.5236 Y3.1427 
G01 X-3.4172 Y3.2892 
G01 X-3.2892 Y3.4172 
G01 X-3.1427 Y3.5236 
G01 X-2.9814 Y3.6057 
G01 X-2.8093 Y3.6617 
G01 X-2.6305 Y3.6900 
G01 X-2.4495 Y3.6900 
G01 X-2.2707 Y3.6617 
G01 X-2.0985 Y3.6057 
G01 X-1.9373 Y3.5236 
G01 X-1.7908 Y3.4172 
G01 X-1.6628 Y3.2892 
G01 X-1.5564 Y3.1427 
G01 X-1.4743 Y2.9814 
G01 X-1.4183 Y2.8093 
G01 X-1.3900 Y2.6305 
G01 X-1.3900 Y2.4495 
G01 X-1.4183 Y2.2707 
G01 X-1.4743 Y2.0985 
G01 X-1.5564 Y1.9373 
G01 X-1.6628 Y1.7908 
G01 X-1.7908 Y1.6628 
G01 X-1.9373 Y1.5564 
G01 X-2.0985 Y1.4743 
G01 X-2.2707 Y1.4183 
G01 X-2.4495 Y1.3900 
G01 X-2.6305 Y1.3900 
G01 X-2.8093 Y1.4183 
G01 X-2.9814 Y1.4743 
G01 X-3.1427 Y1.5564 
G01 X-3.2892 Y1.6628 
G01 X-3.4172 Y1.7908 
G01 X-3.5236 Y1.9373 
G01 X-3.6057 Y2.0985 
G01 X-3.6617 Y2.2707 
G01 X-3.6900 Y2.4495 
G00 Z2.0000 
G00 X-23.5915 Y10.1901 
G01 Z-0.0250 F254.00 
G01 X-22.8600 Y9.4586 F508.00 
G01 X-22.1285 Y10.1901 
G01 X-21.2291 Y10.1901 
G01 X-20.1644 Y11.2549 
G01 X-20.0579 Y11.3260 
G01 X-19.9396 Y11.3750 
G01 X-19.8140 Y11.4000 
G01 X-14.2479 Y11.4000 
G01 X-14.2193 Y11.5440 
G01 X-14.1961 Y11.6000 
G01 X-22.9808 Y11.6000 
G01 X-24.3907 Y10.1901 
G01 X-23.5915 Y10.1901 
G00 Z2.0000 
G00 X-18.8591 Y17.8101 
G01 Z-0.0250 F254.00 
G01 X-18.8192 Y17.8500 F508.00 
G01 X-19.4808 Y17.8500 
G01 X-19.5207 Y17.8101 
G01 X-18.8591 Y17.8101 
G00 Z2.0000 
G00 X-8.1675 Y12.8096 
G01 Z-0.0250 F254.00 
G01 X-8.0856 Y12.7549 F508.00 
G01 X-7.9951 Y12.6644 
G01 X-7.9212 Y12.5904 
G01 X-7.2596 Y12.5904 
G01 X-7.4788 Y12.8096 
G01 X-8.1675 Y12.8096 
G00 Z2.0000 
G00 X-5.6500 Y17.1000 
G01 Z-0.0250 F254.00 
G01 X-5.9579 Y17.1000 F508.00 
G01 X-5.8842 Y16.9554 
G01 X-5.8278 Y16.7817 
G01 X-5.7992 Y16.6013 
G01 X-5.7992 Y16.4187 
G01 X-5.8278 Y16.2383 
G01 X-5.8842 Y16.0646 
G01 X-5.9671 Y15.9018 
G01 X-6.0745 Y15.7541 
G01 X-6.2037 Y15.6249 
G01 X-6.3514 Y15.5175 
G01 X-6.5142 Y15.4346 
G01 X-6.6879 Y15.3782 
G01 X-6.8683 Y15.3496 
G01 X-7.9812 Y15.3496 
G01 X-8.2004 Y15.1304 
G01 X-6.8683 Y15.1304 
G01 X-6.6879 Y15.1018 
G01 X-6.5142 Y15.0454 
G01 X-6.3514 Y14.9625 
G01 X-6.2037 Y14.8551 
G01 X-6.0745 Y14.7259 
G01 X-5.9671 Y14.5782 
G01 X-5.8842 Y14.4154 
G01 X-5.8278 Y14.2417 
G01 X-5.7992 Y14.0613 
G01 X-5.7992 Y13.8787 
G01 X-5.8278 Y13.6983 
G01 X-5.8842 Y13.5246 
G01 X-5.9671 Y13.3618 
G01 X-6.0620 Y13.2312 
G01 X-5.6500 Y12.8192 
G01 X-5.6500 Y17.1000 
G00 Z2.0000 
G00 X-9.1655 Y10.6741 
G01 Z-0.0250 F254.00 
G01 X-9.2729 Y10.8218 F508.00 
G01 X-9.3558 Y10.9846 
G01 X-9.4122 Y11.1583 
G01 X-9.4408 Y11.3387 
G01 X-9.4408 Y11.5213 
G01 X-9.4283 Y11.6000 
G01 X-12.3039 Y11.6000 
G01 X-12.2807 Y11.5440 
G01 X-12.2420 Y11.3493 
G01 X-12.2420 Y11.1507 
G01 X-12.2807 Y10.9560 
G01 X-12.3567 Y10.7725 
G01 X-12.4386 Y10.6500 
G01 X-9.1414 Y10.6500 
G01 X-9.1655 Y10.6741 
G00 Z2.0000 
G00 X-9.2729 Y15.9018 
G01 Z-0.0250 F254.00 
G01 X-9.3558 Y16.0646 F508.00 
G01 X-9.4122 Y16.2383 
G01 X-9.4408 Y16.4187 
G01 X-9.4408 Y16.6013 
G01 X-9.4122 Y16.7817 
G01 X-9.3558 Y16.9554 
G01 X-9.2821 Y17.1000 
G01 X-17.7308 Y17.1000 
G01 X-17.7661 Y17.0647 
G01 X-17.7499 Y17.0485 
G01 X-17.7499 Y15.9715 
G01 X-17.8214 Y15.9000 
G01 X-9.2715 Y15.9000 
G00 Z2.0000 
G00 X-20.3200 Y15.9414 
G01 Z-0.0250 F254.00 
G01 X-20.3614 Y15.9000 F508.00 
G01 X-20.2786 Y15.9000 
G01 X-20.3200 Y15.9414 
G00 Z2.0000 
G00 X-27.9701 Y15.9715 
G01 Z-0.0250 F254.00 
G01 X-27.9701 Y17.0485 F508.00 
G01 X-27.2085 Y17.8101 
G01 X-26.1315 Y17.8101 
G01 X-25.4000 Y17.0786 
G01 X-24.6685 Y17.8101 
G01 X-23.5915 Y17.8101 
G01 X-22.8600 Y17.0786 
G01 X-22.1285 Y17.8101 
G01 X-21.3591 Y17.8101 
G01 X-20.1644 Y19.0049 
G01 X-20.0579 Y19.0760 
G01 X-19.9396 Y19.1250 
G01 X-19.8140 Y19.1500 
G01 X-9.4394 Y19.1500 
G01 X-9.4122 Y19.3217 
G01 X-9.3558 Y19.4954 
G01 X-9.2729 Y19.6582 
G01 X-9.1655 Y19.8059 
G01 X-9.0363 Y19.9351 
G01 X-8.8886 Y20.0425 
G01 X-8.7258 Y20.1254 
G01 X-8.5521 Y20.1818 
G01 X-8.3717 Y20.2104 
G01 X-6.8683 Y20.2104 
G01 X-6.6879 Y20.1818 
G01 X-6.5142 Y20.1254 
G01 X-6.3514 Y20.0425 
G01 X-6.2037 Y19.9351 
G01 X-6.0745 Y19.8059 
G01 X-5.9671 Y19.6582 
G01 X-5.8842 Y19.4954 
G01 X-5.8278 Y19.3217 
G01 X-5.7992 Y19.1413 
G01 X-5.7992 Y18.9587 
G01 X-5.8278 Y18.7783 
G01 X-5.8842 Y18.6046 
G01 X-5.9671 Y18.4418 
G01 X-5.9975 Y18.4000 
G01 X-4.9360 Y18.4000 
G01 X-4.8104 Y18.3750 
G01 X-4.6921 Y18.3260 
G01 X-4.5856 Y18.2549 
G01 X-4.4951 Y18.1644 
G01 X-4.4240 Y18.0579 
G01 X-4.3750 Y17.9396 
G01 X-4.3500 Y17.8140 
G01 X-4.3500 Y9.6860 
G01 X-4.3750 Y9.5604 
G01 X-4.4240 Y9.4421 
G01 X-4.4951 Y9.3356 
G01 X-4.5856 Y9.2451 
G01 X-5.0856 Y8.7451 
G01 X-5.1921 Y8.6740 
G01 X-5.3104 Y8.6250 
G01 X-5.4360 Y8.6000 
G01 X-5.8337 Y8.6000 
G01 X-5.8842 Y8.4446 
G01 X-5.9671 Y8.2818 
G01 X-6.0745 Y8.1341 
G01 X-6.2037 Y8.0049 
G01 X-6.3514 Y7.8975 
G01 X-6.5142 Y7.8146 
G01 X-6.6879 Y7.7582 
G01 X-6.8683 Y7.7296 
G01 X-8.3717 Y7.7296 
G01 X-8.5521 Y7.7582 
G01 X-8.7258 Y7.8146 
G01 X-8.8886 Y7.8975 
G01 X-9.0363 Y8.0049 
G01 X-9.1655 Y8.1341 
G01 X-9.2729 Y8.2818 
G01 X-9.3558 Y8.4446 
G01 X-9.4122 Y8.6183 
G01 X-9.4408 Y8.7987 
G01 X-9.4408 Y8.9813 
G01 X-9.4122 Y9.1617 
G01 X-9.3558 Y9.3354 
G01 X-9.3484 Y9.3500 
G01 X-17.7308 Y9.3500 
G01 X-17.7499 Y9.3309 
G01 X-17.7499 Y8.3515 
G01 X-18.5115 Y7.5899 
G01 X-19.5885 Y7.5899 
G01 X-20.3200 Y8.3214 
G01 X-21.0515 Y7.5899 
G01 X-22.1285 Y7.5899 
G01 X-22.8600 Y8.3214 
G01 X-23.5915 Y7.5899 
G01 X-24.6685 Y7.5899 
G01 X-25.4000 Y8.3214 
G01 X-26.1315 Y7.5899 
G01 X-27.2085 Y7.5899 
G01 X-27.9701 Y8.3515 
G01 X-27.9701 Y9.4285 
G01 X-27.2085 Y10.1901 
G01 X-26.2291 Y10.1901 
G01 X-23.6644 Y12.7549 
G01 X-23.5579 Y12.8260 
G01 X-23.4396 Y12.8750 
G01 X-23.3140 Y12.9000 
G01 X-8.7364 Y12.9000 
G01 X-8.8886 Y12.9775 
G01 X-9.0363 Y13.0849 
G01 X-9.1655 Y13.2141 
G01 X-9.2729 Y13.3618 
G01 X-9.3558 Y13.5246 
G01 X-9.4122 Y13.6983 
G01 X-9.4408 Y13.8787 
G01 X-9.4408 Y14.0613 
G01 X-9.4122 Y14.2417 
G01 X-9.3558 Y14.4154 
G01 X-9.2729 Y14.5782 
G01 X-9.2570 Y14.6000 
G01 X-22.8140 Y14.6000 
G01 X-22.9396 Y14.6250 
G01 X-23.0579 Y14.6740 
G01 X-23.1644 Y14.7451 
G01 X-23.6291 Y15.2099 
G01 X-24.6685 Y15.2099 
G01 X-25.4000 Y15.9414 
G01 X-26.1315 Y15.2099 
G01 X-27.2085 Y15.2099 
G01 X-27.9701 Y15.9715 
G00 Z2.0000 
G00 X-6.8683 Y5.1896 
G01 Z-0.0250 F254.00 
G01 X-8.3717 Y5.1896 F508.00 
G01 X-8.5521 Y5.2182 
G01 X-8.7258 Y5.2746 
G01 X-8.8886 Y5.3575 
G01 X-9.0363 Y5.4649 
G01 X-9.1655 Y5.5941 
G01 X-9.2729 Y5.7418 
G01 X-9.3558 Y5.9046 
G01 X-9.4122 Y6.0783 
G01 X-9.4408 Y6.2587 
G01 X-9.4408 Y6.4413 
G01 X-9.4122 Y6.6217 
G01 X-9.3558 Y6.7954 
G01 X-9.2729 Y6.9582 
G01 X-9.1655 Y7.1059 
G01 X-9.0363 Y7.2351 
G01 X-8.8886 Y7.3425 
G01 X-8.7258 Y7.4254 
G01 X-8.5521 Y7.4818 
G01 X-8.3717 Y7.5104 
G01 X-6.8683 Y7.5104 
G01 X-6.6879 Y7.4818 
G01 X-6.5142 Y7.4254 
G01 X-6.3514 Y7.3425 
G01 X-6.2037 Y7.2351 
G01 X-6.0745 Y7.1059 
G01 X-5.9671 Y6.9582 
G01 X-5.8842 Y6.7954 
G01 X-5.8278 Y6.6217 
G01 X-5.7992 Y6.4413 
G01 X-5.7992 Y6.2587 
G01 X-5.8278 Y6.0783 
G01 X-5.8842 Y5.9046 
G01 X-5.9671 Y5.7418 
G01 X-6.0745 Y5.5941 
G01 X-6.2037 Y5.4649 
G01 X-6.3514 Y5.3575 
G01 X-6.5142 Y5.2746 
G01 X-6.6879 Y5.2182 
G01 X-6.8683 Y5.1896 
G00 Z2.0000 
G00 X-3.7900 Y22.7616 
G01 Z-0.0250 F254.00 
G01 X-3.7900 Y22.9584 F508.00 
G01 X-3.7592 Y23.1527 
G01 X-3.6984 Y23.3398 
G01 X-3.6091 Y23.5151 
G01 X-3.4934 Y23.6743 
G01 X-3.3543 Y23.8134 
G01 X-3.1951 Y23.9291 
G01 X-3.0198 Y24.0184 
G01 X-2.8327 Y24.0792 
G01 X-2.6384 Y24.1100 
G01 X-2.4416 Y24.1100 
G01 X-2.2473 Y24.0792 
G01 X-2.0602 Y24.0184 
G01 X-1.8849 Y23.9291 
G01 X-1.7257 Y23.8134 
G01 X-1.5866 Y23.6743 
G01 X-1.4709 Y23.5151 
G01 X-1.3816 Y23.3398 
G01 X-1.3208 Y23.1527 
G01 X-1.2900 Y22.9584 
G01 X-1.2900 Y22.7616 
G01 X-1.3208 Y22.5673 
G01 X-1.3816 Y22.3802 
G01 X-1.4709 Y22.2049 
G01 X-1.5866 Y22.0457 
G01 X-1.7257 Y21.9066 
G01 X-1.8849 Y21.7909 
G01 X-2.0602 Y21.7016 
G01 X-2.2473 Y21.6408 
G01 X-2.4416 Y21.6100 
G01 X-2.6384 Y21.6100 
G01 X-2.8327 Y21.6408 
G01 X-3.0198 Y21.7016 
G01 X-3.1951 Y21.7909 
G01 X-3.3543 Y21.9066 
G01 X-3.4934 Y22.0457 
G01 X-3.6091 Y22.2049 
G01 X-3.6984 Y22.3802 
G01 X-3.7592 Y22.5673 
G01 X-3.7900 Y22.7616 
G00 Z2.0000 
G00 X-29.1900 Y22.7616 
G01 Z-0.0250 F254.00 
G01 X-29.1900 Y22.9584 F508.00 
G01 X-29.1592 Y23.1527 
G01 X-29.0984 Y23.3398 
G01 X-29.0091 Y23.5151 
G01 X-28.8934 Y23.6743 
G01 X-28.7543 Y23.8134 
G01 X-28.5951 Y23.9291 
G01 X-28.4198 Y24.0184 
G01 X-28.2327 Y24.0792 
G01 X-28.0384 Y24.1100 
G01 X-27.8416 Y24.1100 
G01 X-27.6473 Y24.0792 
G01 X-27.4602 Y24.0184 
G01 X-27.2849 Y23.9291 
G01 X-27.1257 Y23.8134 
G01 X-26.9866 Y23.6743 
G01 X-26.8709 Y23.5151 
G01 X-26.7816 Y23.3398 
G01 X-26.7208 Y23.1527 
G01 X-26.6900 Y22.9584 
G01 X-26.6900 Y22.7616 
G01 X-26.7208 Y22.5673 
G01 X-26.7816 Y22.3802 
G01 X-26.8709 Y22.2049 
G01 X-26.9866 Y22.0457 
G01 X-27.1257 Y21.9066 
G01 X-27.2849 Y21.7909 
G01 X-27.4602 Y21.7016 
G01 X-27.6473 Y21.6408 
G01 X-27.8416 Y21.6100 
G01 X-28.0384 Y21.6100 
G01 X-28.2327 Y21.6408 
G01 X-28.4198 Y21.7016 
G01 X-28.5951 Y21.7909 
G01 X-28.7543 Y21.9066 
G01 X-28.8934 Y22.0457 
G01 X-29.0091 Y22.2049 
G01 X-29.0984 Y22.3802 
G01 X-29.1592 Y22.5673 
G01 X-29.1900 Y22.7616 
G00 Z2.0000 
G00 X-29.1900 Y2.4416 
G01 Z-0.0250 F254.00 
G01 X-29.1900 Y2.6384 F508.00 
G01 X-29.1592 Y2.8327 
G01 X-29.0984 Y3.0198 
G01 X-29.0091 Y3.1951 
G01 X-28.8934 Y3.3543 
G01 X-28.7543 Y3.4934 
G01 X-28.5951 Y3.6091 
G01 X-28.4198 Y3.6984 
G01 X-28.2327 Y3.7592 
G01 X-28.0384 Y3.7900 
G01 X-27.8416 Y3.7900 
G01 X-27.6473 Y3.7592 
G01 X-27.4602 Y3.6984 
G01 X-27.2849 Y3.6091 
G01 X-27.1257 Y3.4934 
G01 X-26.9866 Y3.3543 
G01 X-26.8709 Y3.1951 
G01 X-26.7816 Y3.0198 
G01 X-26.7208 Y2.8327 
G01 X-26.6900 Y2.6384 
G01 X-26.6900 Y2.4416 
G01 X-26.7208 Y2.2473 
G01 X-26.7816 Y2.0602 
G01 X-26.8709 Y1.8849 
G01 X-26.9866 Y1.7257 
G01 X-27.1257 Y1.5866 
G01 X-27.2849 Y1.4709 
G01 X-27.4602 Y1.3816 
G01 X-27.6473 Y1.3208 
G01 X-27.8416 Y1.2900 
G01 X-28.0384 Y1.2900 
G01 X-28.2327 Y1.3208 
G01 X-28.4198 Y1.3816 
G01 X-28.5951 Y1.4709 
G01 X-28.7543 Y1.5866 
G01 X-28.8934 Y1.7257 
G01 X-29.0091 Y1.8849 
G01 X-29.0984 Y2.0602 
G01 X-29.1592 Y2.2473 
G01 X-29.1900 Y2.4416 
G00 Z2.0000 
G00 X-3.7900 Y2.4416 
G01 Z-0.0250 F254.00 
G01 X-3.7900 Y2.6384 F508.00 
G01 X-3.7592 Y2.8327 
G01 X-3.6984 Y3.0198 
G01 X-3.6091 Y3.1951 
G01 X-3.4934 Y3.3543 
G01 X-3.3543 Y3.4934 
G01 X-3.1951 Y3.6091 
G01 X-3.0198 Y3.6984 
G01 X-2.8327 Y3.7592 
G01 X-2.6384 Y3.7900 
G01 X-2.4416 Y3.7900 
G01 X-2.2473 Y3.7592 
G01 X-2.0602 Y3.6984 
G01 X-1.8849 Y3.6091 
G01 X-1.7257 Y3.4934 
G01 X-1.5866 Y3.3543 
G01 X-1.4709 Y3.1951 
G01 X-1.3816 Y3.0198 
G01 X-1.3208 Y2.8327 
G01 X-1.2900 Y2.6384 
G01 X-1.2900 Y2.4416 
G01 X-1.3208 Y2.2473 
G01 X-1.3816 Y2.0602 
G01 X-1.4709 Y1.8849 
G01 X-1.5866 Y1.7257 
G01 X-1.7257 Y1.5866 
G01 X-1.8849 Y1.4709 
G01 X-2.0602 Y1.3816 
G01 X-2.2473 Y1.3208 
G01 X-2.4416 Y1.2900 
G01 X-2.6384 Y1.2900 
G01 X-2.8327 Y1.3208 
G01 X-3.0198 Y1.3816 
G01 X-3.1951 Y1.4709 
G01 X-3.3543 Y1.5866 
G01 X-3.4934 Y1.7257 
G01 X-3.6091 Y1.8849 
G01 X-3.6984 Y2.0602 
G01 X-3.7592 Y2.2473 
G01 X-3.7900 Y2.4416 
G00 Z2.0000 
G00 X-5.7915 Y16.9938 
G01 Z-0.0250 F254.00 
G01 X-5.7500 Y16.8660 F508.00 
G01 X-5.7500 Y17.0000 
G01 X-5.7947 Y17.0000 
G01 X-5.7915 Y16.9938 
G00 Z2.0000 
G00 X-6.8604 Y15.2304 
G01 Z-0.0250 F254.00 
G01 X-6.6645 Y15.1994 F508.00 
G01 X-6.4758 Y15.1381 
G01 X-6.2990 Y15.0480 
G01 X-6.1385 Y14.9314 
G01 X-5.9982 Y14.7911 
G01 X-5.8816 Y14.6306 
G01 X-5.7915 Y14.4538 
G01 X-5.7500 Y14.3260 
G01 X-5.7500 Y16.1540 
G01 X-5.7915 Y16.0262 
G01 X-5.8816 Y15.8494 
G01 X-5.9982 Y15.6889 
G01 X-6.1385 Y15.5486 
G01 X-6.2990 Y15.4320 
G01 X-6.4758 Y15.3419 
G01 X-6.6645 Y15.2806 
G01 X-6.8604 Y15.2496 
G01 X-7.9397 Y15.2496 
G01 X-7.9589 Y15.2304 
G01 X-6.8604 Y15.2304 
G00 Z2.0000 
G00 X-9.3584 Y10.7694 
G01 Z-0.0250 F254.00 
G01 X-9.4485 Y10.9462 F508.00 
G01 X-9.5098 Y11.1349 
G01 X-9.5408 Y11.3308 
G01 X-9.5408 Y11.5000 
G01 X-12.1678 Y11.5000 
G01 X-12.1420 Y11.3372 
G01 X-12.1420 Y11.1628 
G01 X-12.1693 Y10.9905 
G01 X-12.2232 Y10.8247 
G01 X-12.2612 Y10.7500 
G01 X-9.3443 Y10.7500 
G01 X-9.3584 Y10.7694 
G00 Z2.0000 
G00 X-9.4485 Y16.0262 
G01 Z-0.0250 F254.00 
G01 X-9.5098 Y16.2149 F508.00 
G01 X-9.5408 Y16.4108 
G01 X-9.5408 Y16.6092 
G01 X-9.5098 Y16.8051 
G01 X-9.4485 Y16.9938 
G01 X-9.4453 Y17.0000 
G01 X-17.6499 Y17.0000 
G01 X-17.6499 Y16.0000 
G01 X-9.4351 Y16.0000 
G01 X-9.4485 Y16.0262 
G00 Z2.0000 
G00 X-23.5501 Y10.2901 
G01 Z-0.0250 F254.00 
G01 X-22.8600 Y9.6000 F508.00 
G01 X-22.1699 Y10.2901 
G01 X-21.2706 Y10.2901 
G01 X-20.2281 Y11.3326 
G01 X-20.1053 Y11.4146 
G01 X-19.9688 Y11.4712 
G01 X-19.8239 Y11.5000 
G01 X-14.3322 Y11.5000 
G01 X-22.9393 Y11.5000 
G01 X-24.1492 Y10.2901 
G01 X-23.5501 Y10.2901 
G00 Z2.0000 
G00 X-7.8989 Y12.7096 
G01 Z-0.0250 F254.00 
G01 X-7.8797 Y12.6904 F508.00 
G01 X-7.5011 Y12.6904 
G01 X-7.5203 Y12.7096 
G01 X-7.8989 Y12.7096 
G00 Z2.0000 
G00 X-5.7500 Y13.6140 
G01 Z-0.0250 F254.00 
G01 X-5.7915 Y13.4862 F508.00 
G01 X-5.8816 Y13.3094 
G01 X-5.9309 Y13.2416 
G01 X-5.7500 Y13.0607 
G01 X-5.7500 Y13.6140 
G00 Z2.0000 
G00 X-28.0701 Y15.9301 
G01 Z-0.0250 F254.00 
G01 X-28.0701 Y17.0899 F508.00 
G01 X-27.2499 Y17.9101 
G01 X-26.0901 Y17.9101 
G01 X-25.4000 Y17.2200 
G01 X-24.7099 Y17.9101 
G01 X-23.5501 Y17.9101 
G01 X-22.8600 Y17.2200 
G01 X-22.1699 Y17.9101 
G01 X-21.4006 Y17.9101 
G01 X-20.2281 Y19.0826 
G01 X-20.1053 Y19.1646 
G01 X-19.9688 Y19.2212 
G01 X-19.8239 Y19.2500 
G01 X-9.5248 Y19.2500 
G01 X-9.5098 Y19.3451 
G01 X-9.4485 Y19.5338 
G01 X-9.3584 Y19.7106 
G01 X-9.2418 Y19.8711 
G01 X-9.1015 Y20.0114 
G01 X-8.9410 Y20.1280 
G01 X-8.7642 Y20.2181 
G01 X-8.5755 Y20.2794 
G01 X-8.3796 Y20.3104 
G01 X-6.8604 Y20.3104 
G01 X-6.6645 Y20.2794 
G01 X-6.4758 Y20.2181 
G01 X-6.2990 Y20.1280 
G01 X-6.1385 Y20.0114 
G01 X-5.9982 Y19.8711 
G01 X-5.8816 Y19.7106 
G01 X-5.7915 Y19.5338 
G01 X-5.7302 Y19.3451 
G01 X-5.6992 Y19.1492 
G01 X-5.6992 Y18.9508 
G01 X-5.7302 Y18.7549 
G01 X-5.7915 Y18.5662 
G01 X-5.8253 Y18.5000 
G01 X-4.9261 Y18.5000 
G01 X-4.7812 Y18.4712 
G01 X-4.6447 Y18.4146 
G01 X-4.5219 Y18.3326 
G01 X-4.4174 Y18.2281 
G01 X-4.3354 Y18.1053 
G01 X-4.2788 Y17.9688 
G01 X-4.2500 Y17.8239 
G01 X-4.2500 Y9.6761 
G01 X-4.2788 Y9.5312 
G01 X-4.3354 Y9.3947 
G01 X-4.4174 Y9.2719 
G01 X-4.5219 Y9.1674 
G01 X-5.0219 Y8.6674 
G01 X-5.1447 Y8.5854 
G01 X-5.2812 Y8.5288 
G01 X-5.4261 Y8.5000 
G01 X-5.7611 Y8.5000 
G01 X-5.7915 Y8.4062 
G01 X-5.8816 Y8.2294 
G01 X-5.9982 Y8.0689 
G01 X-6.1385 Y7.9286 
G01 X-6.2990 Y7.8120 
G01 X-6.4758 Y7.7219 
G01 X-6.6645 Y7.6606 
G01 X-6.8604 Y7.6296 
G01 X-8.3796 Y7.6296 
G01 X-8.5755 Y7.6606 
G01 X-8.7642 Y7.7219 
G01 X-8.9410 Y7.8120 
G01 X-9.1015 Y7.9286 
G01 X-9.2418 Y8.0689 
G01 X-9.3584 Y8.2294 
G01 X-9.4485 Y8.4062 
G01 X-9.5098 Y8.5949 
G01 X-9.5408 Y8.7908 
G01 X-9.5408 Y8.9892 
G01 X-9.5098 Y9.1851 
G01 X-9.4887 Y9.2500 
G01 X-17.6499 Y9.2500 
G01 X-17.6499 Y8.3101 
G01 X-18.4701 Y7.4899 
G01 X-19.6299 Y7.4899 
G01 X-20.3200 Y8.1800 
G01 X-21.0101 Y7.4899 
G01 X-22.1699 Y7.4899 
G01 X-22.8600 Y8.1800 
G01 X-23.5501 Y7.4899 
G01 X-24.7099 Y7.4899 
G01 X-25.4000 Y8.1800 
G01 X-26.0901 Y7.4899 
G01 X-27.2499 Y7.4899 
G01 X-28.0701 Y8.3101 
G01 X-28.0701 Y9.4699 
G01 X-27.2499 Y10.2901 
G01 X-26.2706 Y10.2901 
G01 X-23.7281 Y12.8326 
G01 X-23.6053 Y12.9146 
G01 X-23.4688 Y12.9712 
G01 X-23.3239 Y13.0000 
G01 X-9.0896 Y13.0000 
G01 X-9.1015 Y13.0086 
G01 X-9.2418 Y13.1489 
G01 X-9.3584 Y13.3094 
G01 X-9.4485 Y13.4862 
G01 X-9.5098 Y13.6749 
G01 X-9.5408 Y13.8708 
G01 X-9.5408 Y14.0692 
G01 X-9.5098 Y14.2651 
G01 X-9.4485 Y14.4538 
G01 X-9.4249 Y14.5000 
G01 X-22.8239 Y14.5000 
G01 X-22.9688 Y14.5288 
G01 X-23.1053 Y14.5854 
G01 X-23.2281 Y14.6674 
G01 X-23.6706 Y15.1099 
G01 X-24.7099 Y15.1099 
G01 X-25.4000 Y15.8000 
G01 X-26.0901 Y15.1099 
G01 X-27.2499 Y15.1099 
G01 X-28.0701 Y15.9301 
G00 Z2.0000 
G00 X-6.8604 Y5.0896 
G01 Z-0.0250 F254.00 
G01 X-8.3796 Y5.0896 F508.00 
G01 X-8.5755 Y5.1206 
G01 X-8.7642 Y5.1819 
G01 X-8.9410 Y5.2720 
G01 X-9.1015 Y5.3886 
G01 X-9.2418 Y5.5289 
G01 X-9.3584 Y5.6894 
G01 X-9.4485 Y5.8662 
G01 X-9.5098 Y6.0549 
G01 X-9.5408 Y6.2508 
G01 X-9.5408 Y6.4492 
G01 X-9.5098 Y6.6451 
G01 X-9.4485 Y6.8338 
G01 X-9.3584 Y7.0106 
G01 X-9.2418 Y7.1711 
G01 X-9.1015 Y7.3114 
G01 X-8.9410 Y7.4280 
G01 X-8.7642 Y7.5181 
G01 X-8.5755 Y7.5794 
G01 X-8.3796 Y7.6104 
G01 X-6.8604 Y7.6104 
G01 X-6.6645 Y7.5794 
G01 X-6.4758 Y7.5181 
G01 X-6.2990 Y7.4280 
G01 X-6.1385 Y7.3114 
G01 X-5.9982 Y7.1711 
G01 X-5.8816 Y7.0106 
G01 X-5.7915 Y6.8338 
G01 X-5.7302 Y6.6451 
G01 X-5.6992 Y6.4492 
G01 X-5.6992 Y6.2508 
G01 X-5.7302 Y6.0549 
G01 X-5.7915 Y5.8662 
G01 X-5.8816 Y5.6894 
G01 X-5.9982 Y5.5289 
G01 X-6.1385 Y5.3886 
G01 X-6.2990 Y5.2720 
G01 X-6.4758 Y5.1819 
G01 X-6.6645 Y5.1206 
G01 X-6.8604 Y5.0896 
G00 Z2.0000 
G00 X-3.8900 Y22.7538 
G01 Z-0.0250 F254.00 
G01 X-3.8900 Y22.9662 F508.00 
G01 X-3.8568 Y23.1761 
G01 X-3.7911 Y23.3782 
G01 X-3.6946 Y23.5676 
G01 X-3.5697 Y23.7395 
G01 X-3.4195 Y23.8897 
G01 X-3.2476 Y24.0146 
G01 X-3.0582 Y24.1111 
G01 X-2.8561 Y24.1768 
G01 X-2.6462 Y24.2100 
G01 X-2.4338 Y24.2100 
G01 X-2.2239 Y24.1768 
G01 X-2.0218 Y24.1111 
G01 X-1.8324 Y24.0146 
G01 X-1.6605 Y23.8897 
G01 X-1.5103 Y23.7395 
G01 X-1.3854 Y23.5676 
G01 X-1.2889 Y23.3782 
G01 X-1.2232 Y23.1761 
G01 X-1.1900 Y22.9662 
G01 X-1.1900 Y22.7538 
G01 X-1.2232 Y22.5439 
G01 X-1.2889 Y22.3418 
G01 X-1.3854 Y22.1524 
G01 X-1.5103 Y21.9805 
G01 X-1.6605 Y21.8303 
G01 X-1.8324 Y21.7054 
G01 X-2.0218 Y21.6089 
G01 X-2.2239 Y21.5432 
G01 X-2.4338 Y21.5100 
G01 X-2.6462 Y21.5100 
G01 X-2.8561 Y21.5432 
G01 X-3.0582 Y21.6089 
G01 X-3.2476 Y21.7054 
G01 X-3.4195 Y21.8303 
G01 X-3.5697 Y21.9805 
G01 X-3.6946 Y22.1524 
G01 X-3.7911 Y22.3418 
G01 X-3.8568 Y22.5439 
G01 X-3.8900 Y22.7538 
G00 Z2.0000 
G00 X-29.2900 Y22.7538 
G01 Z-0.0250 F254.00 
G01 X-29.2900 Y22.9662 F508.00 
G01 X-29.2568 Y23.1761 
G01 X-29.1911 Y23.3782 
G01 X-29.0946 Y23.5676 
G01 X-28.9697 Y23.7395 
G01 X-28.8195 Y23.8897 
G01 X-28.6476 Y24.0146 
G01 X-28.4582 Y24.1111 
G01 X-28.2561 Y24.1768 
G01 X-28.0462 Y24.2100 
G01 X-27.8338 Y24.2100 
G01 X-27.6239 Y24.1768 
G01 X-27.4218 Y24.1111 
G01 X-27.2324 Y24.0146 
G01 X-27.0605 Y23.8897 
G01 X-26.9103 Y23.7395 
G01 X-26.7854 Y23.5676 
G01 X-26.6889 Y23.3782 
G01 X-26.6232 Y23.1761 
G01 X-26.5900 Y22.9662 
G01 X-26.5900 Y22.7538 
G01 X-26.6232 Y22.5439 
G01 X-26.6889 Y22.3418 
G01 X-26.7854 Y22.1524 
G01 X-26.9103 Y21.9805 
G01 X-27.0605 Y21.8303 
G01 X-27.2324 Y21.7054 
G01 X-27.4218 Y21.6089 
G01 X-27.6239 Y21.5432 
G01 X-27.8338 Y21.5100 
G01 X-28.0462 Y21.5100 
G01 X-28.2561 Y21.5432 
G01 X-28.4582 Y21.6089 
G01 X-28.6476 Y21.7054 
G01 X-28.8195 Y21.8303 
G01 X-28.9697 Y21.9805 
G01 X-29.0946 Y22.1524 
G01 X-29.1911 Y22.3418 
G01 X-29.2568 Y22.5439 
G01 X-29.2900 Y22.7538 
G00 Z2.0000 
G00 X-29.2900 Y2.4338 
G01 Z-0.0250 F254.00 
G01 X-29.2900 Y2.6462 F508.00 
G01 X-29.2568 Y2.8561 
G01 X-29.1911 Y3.0582 
G01 X-29.0946 Y3.2476 
G01 X-28.9697 Y3.4195 
G01 X-28.8195 Y3.5697 
G01 X-28.6476 Y3.6946 
G01 X-28.4582 Y3.7911 
G01 X-28.2561 Y3.8568 
G01 X-28.0462 Y3.8900 
G01 X-27.8338 Y3.8900 
G01 X-27.6239 Y3.8568 
G01 X-27.4218 Y3.7911 
G01 X-27.2324 Y3.6946 
G01 X-27.0605 Y3.5697 
G01 X-26.9103 Y3.4195 
G01 X-26.7854 Y3.2476 
G01 X-26.6889 Y3.0582 
G01 X-26.6232 Y2.8561 
G01 X-26.5900 Y2.6462 
G01 X-26.5900 Y2.4338 
G01 X-26.6232 Y2.2239 
G01 X-26.6889 Y2.0218 
G01 X-26.7854 Y1.8324 
G01 X-26.9103 Y1.6605 
G01 X-27.0605 Y1.5103 
G01 X-27.2324 Y1.3854 
G01 X-27.4218 Y1.2889 
G01 X-27.6239 Y1.2232 
G01 X-27.8338 Y1.1900 
G01 X-28.0462 Y1.1900 
G01 X-28.2561 Y1.2232 
G01 X-28.4582 Y1.2889 
G01 X-28.6476 Y1.3854 
G01 X-28.8195 Y1.5103 
G01 X-28.9697 Y1.6605 
G01 X-29.0946 Y1.8324 
G01 X-29.1911 Y2.0218 
G01 X-29.2568 Y2.2239 
G01 X-29.2900 Y2.4338 
G00 Z2.0000 
G00 X-3.8900 Y2.4338 
G01 Z-0.0250 F254.00 
G01 X-3.8900 Y2.6462 F508.00 
G01 X-3.8568 Y2.8561 
G01 X-3.7911 Y3.0582 
G01 X-3.6946 Y3.2476 
G01 X-3.5697 Y3.4195 
G01 X-3.4195 Y3.5697 
G01 X-3.2476 Y3.6946 
G01 X-3.0582 Y3.7911 
G01 X-2.8561 Y3.8568 
G01 X-2.6462 Y3.8900 
G01 X-2.4338 Y3.8900 
G01 X-2.2239 Y3.8568 
G01 X-2.0218 Y3.7911 
G01 X-1.8324 Y3.6946 
G01 X-1.6605 Y3.5697 
G01 X-1.5103 Y3.4195 
G01 X-1.3854 Y3.2476 
G01 X-1.2889 Y3.0582 
G01 X-1.2232 Y2.8561 
G01 X-1.1900 Y2.6462 
G01 X-1.1900 Y2.4338 
G01 X-1.2232 Y2.2239 
G01 X-1.2889 Y2.0218 
G01 X-1.3854 Y1.8324 
G01 X-1.5103 Y1.6605 
G01 X-1.6605 Y1.5103 
G01 X-1.8324 Y1.3854 
G01 X-2.0218 Y1.2889 
G01 X-2.2239 Y1.2232 
G01 X-2.4338 Y1.1900 
G01 X-2.6462 Y1.1900 
G01 X-2.8561 Y1.2232 
G01 X-3.0582 Y1.2889 
G01 X-3.2476 Y1.3854 
G01 X-3.4195 Y1.5103 
G01 X-3.5697 Y1.6605 
G01 X-3.6946 Y1.8324 
G01 X-3.7911 Y2.0218 
G01 X-3.8568 Y2.2239 
G01 X-3.8900 Y2.4338 
G00 Z2.0000 
G00 X-5.9219 Y15.6238 
G01 Z-0.0250 F254.00 
G01 X-6.0734 Y15.4723 F508.00 
G01 X-6.2466 Y15.3465 
G01 X-6.4374 Y15.2493 
G01 X-6.4659 Y15.2400 
G01 X-6.4374 Y15.2307 
G01 X-6.2466 Y15.1335 
G01 X-6.0734 Y15.0077 
G01 X-5.9219 Y14.8562 
G01 X-5.8500 Y14.7572 
G01 X-5.8500 Y15.7228 
G01 X-5.9219 Y15.6238 
G00 Z2.0000 
G00 X-9.5411 Y10.9078 
G01 Z-0.0250 F254.00 
G01 X-9.6073 Y11.1114 F508.00 
G01 X-9.6408 Y11.3229 
G01 X-9.6408 Y11.4000 
G01 X-12.0507 Y11.4000 
G01 X-12.0420 Y11.3451 
G01 X-12.0420 Y11.1549 
G01 X-12.0717 Y10.9671 
G01 X-12.1098 Y10.8500 
G01 X-9.5117 Y10.8500 
G01 X-9.5411 Y10.9078 
G00 Z2.0000 
G00 X-9.6073 Y16.1914 
G01 Z-0.0250 F254.00 
G01 X-9.6408 Y16.4029 F508.00 
G01 X-9.6408 Y16.6171 
G01 X-9.6073 Y16.8286 
G01 X-9.5841 Y16.9000 
G01 X-17.5499 Y16.9000 
G01 X-17.5499 Y16.1000 
G01 X-9.5776 Y16.1000 
G01 X-9.6073 Y16.1914 
G00 Z2.0000 
G00 X-23.5086 Y10.3901 
G01 Z-0.0250 F254.00 
G01 X-22.8600 Y9.7415 F508.00 
G01 X-22.2114 Y10.3901 
G01 X-21.3120 Y10.3901 
G01 X-20.3021 Y11.4000 
G01 X-22.8979 Y11.4000 
G01 X-23.9078 Y10.3901 
G01 X-23.5086 Y10.3901 
G00 Z2.0000 
G00 X-28.1701 Y15.8886 
G01 Z-0.0250 F254.00 
G01 X-28.1701 Y17.1314 F508.00 
G01 X-27.2914 Y18.0101 
G01 X-26.0486 Y18.0101 
G01 X-25.4000 Y17.3615 
G01 X-24.7514 Y18.0101 
G01 X-23.5086 Y18.0101 
G01 X-22.8600 Y17.3615 
G01 X-22.2114 Y18.0101 
G01 X-21.4420 Y18.0101 
G01 X-20.2918 Y19.1602 
G01 X-20.1526 Y19.2533 
G01 X-19.9979 Y19.3173 
G01 X-19.8337 Y19.3500 
G01 X-9.6102 Y19.3500 
G01 X-9.6073 Y19.3686 
G01 X-9.5411 Y19.5722 
G01 X-9.4439 Y19.7630 
G01 X-9.3181 Y19.9362 
G01 X-9.1666 Y20.0877 
G01 X-8.9934 Y20.2135 
G01 X-8.8026 Y20.3107 
G01 X-8.5990 Y20.3769 
G01 X-8.3875 Y20.4104 
G01 X-6.8525 Y20.4104 
G01 X-6.6410 Y20.3769 
G01 X-6.4374 Y20.3107 
G01 X-6.2466 Y20.2135 
G01 X-6.0734 Y20.0877 
G01 X-5.9219 Y19.9362 
G01 X-5.7961 Y19.7630 
G01 X-5.6989 Y19.5722 
G01 X-5.6327 Y19.3686 
G01 X-5.5992 Y19.1571 
G01 X-5.5992 Y18.9429 
G01 X-5.6327 Y18.7314 
G01 X-5.6754 Y18.6000 
G01 X-4.9163 Y18.6000 
G01 X-4.7521 Y18.5673 
G01 X-4.5974 Y18.5033 
G01 X-4.4582 Y18.4102 
G01 X-4.3398 Y18.2918 
G01 X-4.2467 Y18.1526 
G01 X-4.1827 Y17.9979 
G01 X-4.1500 Y17.8337 
G01 X-4.1500 Y9.6663 
G01 X-4.1827 Y9.5021 
G01 X-4.2467 Y9.3474 
G01 X-4.3398 Y9.2082 
G01 X-4.4582 Y9.0898 
G01 X-4.9582 Y8.5898 
G01 X-5.0974 Y8.4967 
G01 X-5.2521 Y8.4327 
G01 X-5.4163 Y8.4000 
G01 X-5.6884 Y8.4000 
G01 X-5.6989 Y8.3678 
G01 X-5.7961 Y8.1770 
G01 X-5.9219 Y8.0038 
G01 X-6.0734 Y7.8523 
G01 X-6.2466 Y7.7265 
G01 X-6.4374 Y7.6293 
G01 X-6.4659 Y7.6200 
G01 X-6.4374 Y7.6107 
G01 X-6.2466 Y7.5135 
G01 X-6.0734 Y7.3877 
G01 X-5.9219 Y7.2362 
G01 X-5.7961 Y7.0630 
G01 X-5.6989 Y6.8722 
G01 X-5.6327 Y6.6686 
G01 X-5.5992 Y6.4571 
G01 X-5.5992 Y6.2429 
G01 X-5.6327 Y6.0314 
G01 X-5.6989 Y5.8278 
G01 X-5.7961 Y5.6370 
G01 X-5.9219 Y5.4638 
G01 X-6.0734 Y5.3123 
G01 X-6.2466 Y5.1865 
G01 X-6.4374 Y5.0893 
G01 X-6.6410 Y5.0231 
G01 X-6.8525 Y4.9896 
G01 X-8.3875 Y4.9896 
G01 X-8.5990 Y5.0231 
G01 X-8.8026 Y5.0893 
G01 X-8.9934 Y5.1865 
G01 X-9.1666 Y5.3123 
G01 X-9.3181 Y5.4638 
G01 X-9.4439 Y5.6370 
G01 X-9.5411 Y5.8278 
G01 X-9.6073 Y6.0314 
G01 X-9.6408 Y6.2429 
G01 X-9.6408 Y6.4571 
G01 X-9.6073 Y6.6686 
G01 X-9.5411 Y6.8722 
G01 X-9.4439 Y7.0630 
G01 X-9.3181 Y7.2362 
G01 X-9.1666 Y7.3877 
G01 X-8.9934 Y7.5135 
G01 X-8.8026 Y7.6107 
G01 X-8.7741 Y7.6200 
G01 X-8.8026 Y7.6293 
G01 X-8.9934 Y7.7265 
G01 X-9.1666 Y7.8523 
G01 X-9.3181 Y8.0038 
G01 X-9.4439 Y8.1770 
G01 X-9.5411 Y8.3678 
G01 X-9.6073 Y8.5714 
G01 X-9.6408 Y8.7829 
G01 X-9.6408 Y8.9971 
G01 X-9.6166 Y9.1500 
G01 X-17.5499 Y9.1500 
G01 X-17.5499 Y8.2686 
G01 X-18.4286 Y7.3899 
G01 X-19.6714 Y7.3899 
G01 X-20.3200 Y8.0385 
G01 X-20.9686 Y7.3899 
G01 X-22.2114 Y7.3899 
G01 X-22.8600 Y8.0385 
G01 X-23.5086 Y7.3899 
G01 X-24.7514 Y7.3899 
G01 X-25.4000 Y8.0385 
G01 X-26.0486 Y7.3899 
G01 X-27.2914 Y7.3899 
G01 X-28.1701 Y8.2686 
G01 X-28.1701 Y9.5114 
G01 X-27.2914 Y10.3901 
G01 X-26.3120 Y10.3901 
G01 X-23.7918 Y12.9102 
G01 X-23.6526 Y13.0033 
G01 X-23.4979 Y13.0673 
G01 X-23.3337 Y13.1000 
G01 X-9.3299 Y13.1000 
G01 X-9.4439 Y13.2570 
G01 X-9.5411 Y13.4478 
G01 X-9.6073 Y13.6514 
G01 X-9.6408 Y13.8629 
G01 X-9.6408 Y14.0771 
G01 X-9.6073 Y14.2886 
G01 X-9.5711 Y14.4000 
G01 X-22.8337 Y14.4000 
G01 X-22.9979 Y14.4327 
G01 X-23.1526 Y14.4967 
G01 X-23.2918 Y14.5898 
G01 X-23.7120 Y15.0099 
G01 X-24.7514 Y15.0099 
G01 X-25.4000 Y15.6585 
G01 X-26.0486 Y15.0099 
G01 X-27.2914 Y15.0099 
G01 X-28.1701 Y15.8886 
G00 Z2.0000 
G00 X-3.9900 Y22.7459 
G01 Z-0.0250 F254.00 
G01 X-3.9900 Y22.9741 F508.00 
G01 X-3.9543 Y23.1995 
G01 X-3.8838 Y23.4166 
G01 X-3.7802 Y23.6200 
G01 X-3.6460 Y23.8046 
G01 X-3.4846 Y23.9660 
G01 X-3.3000 Y24.1002 
G01 X-3.0966 Y24.2038 
G01 X-2.8795 Y24.2743 
G01 X-2.6541 Y24.3100 
G01 X-2.4259 Y24.3100 
G01 X-2.2005 Y24.2743 
G01 X-1.9834 Y24.2038 
G01 X-1.7800 Y24.1002 
G01 X-1.5954 Y23.9660 
G01 X-1.4340 Y23.8046 
G01 X-1.2998 Y23.6200 
G01 X-1.1962 Y23.4166 
G01 X-1.1257 Y23.1995 
G01 X-1.0900 Y22.9741 
G01 X-1.0900 Y22.7459 
G01 X-1.1257 Y22.5205 
G01 X-1.1962 Y22.3034 
G01 X-1.2998 Y22.1000 
G01 X-1.4340 Y21.9154 
G01 X-1.5954 Y21.7540 
G01 X-1.7800 Y21.6198 
G01 X-1.9834 Y21.5162 
G01 X-2.2005 Y21.4457 
G01 X-2.4259 Y21.4100 
G01 X-2.6541 Y21.4100 
G01 X-2.8795 Y21.4457 
G01 X-3.0966 Y21.5162 
G01 X-3.3000 Y21.6198 
G01 X-3.4846 Y21.7540 
G01 X-3.6460 Y21.9154 
G01 X-3.7802 Y22.1000 
G01 X-3.8838 Y22.3034 
G01 X-3.9543 Y22.5205 
G01 X-3.9900 Y22.7459 
G00 Z2.0000 
G00 X-29.3900 Y22.7459 
G01 Z-0.0250 F254.00 
G01 X-29.3900 Y22.9741 F508.00 
G01 X-29.3543 Y23.1995 
G01 X-29.2838 Y23.4166 
G01 X-29.1802 Y23.6200 
G01 X-29.0460 Y23.8046 
G01 X-28.8846 Y23.9660 
G01 X-28.7000 Y24.1002 
G01 X-28.4966 Y24.2038 
G01 X-28.2795 Y24.2743 
G01 X-28.0541 Y24.3100 
G01 X-27.8259 Y24.3100 
G01 X-27.6005 Y24.2743 
G01 X-27.3834 Y24.2038 
G01 X-27.1800 Y24.1002 
G01 X-26.9954 Y23.9660 
G01 X-26.8340 Y23.8046 
G01 X-26.6998 Y23.6200 
G01 X-26.5962 Y23.4166 
G01 X-26.5257 Y23.1995 
G01 X-26.4900 Y22.9741 
G01 X-26.4900 Y22.7459 
G01 X-26.5257 Y22.5205 
G01 X-26.5962 Y22.3034 
G01 X-26.6998 Y22.1000 
G01 X-26.8340 Y21.9154 
G01 X-26.9954 Y21.7540 
G01 X-27.1800 Y21.6198 
G01 X-27.3834 Y21.5162 
G01 X-27.6005 Y21.4457 
G01 X-27.8259 Y21.4100 
G01 X-28.0541 Y21.4100 
G01 X-28.2795 Y21.4457 
G01 X-28.4966 Y21.5162 
G01 X-28.7000 Y21.6198 
G01 X-28.8846 Y21.7540 
G01 X-29.0460 Y21.9154 
G01 X-29.1802 Y22.1000 
G01 X-29.2838 Y22.3034 
G01 X-29.3543 Y22.5205 
G01 X-29.3900 Y22.7459 
G00 Z2.0000 
G00 X-29.3900 Y2.4259 
G01 Z-0.0250 F254.00 
G01 X-29.3900 Y2.6541 F508.00 
G01 X-29.3543 Y2.8795 
G01 X-29.2838 Y3.0966 
G01 X-29.1802 Y3.3000 
G01 X-29.0460 Y3.4846 
G01 X-28.8846 Y3.6460 
G01 X-28.7000 Y3.7802 
G01 X-28.4966 Y3.8838 
G01 X-28.2795 Y3.9543 
G01 X-28.0541 Y3.9900 
G01 X-27.8259 Y3.9900 
G01 X-27.6005 Y3.9543 
G01 X-27.3834 Y3.8838 
G01 X-27.1800 Y3.7802 
G01 X-26.9954 Y3.6460 
G01 X-26.8340 Y3.4846 
G01 X-26.6998 Y3.3000 
G01 X-26.5962 Y3.0966 
G01 X-26.5257 Y2.8795 
G01 X-26.4900 Y2.6541 
G01 X-26.4900 Y2.4259 
G01 X-26.5257 Y2.2005 
G01 X-26.5962 Y1.9834 
G01 X-26.6998 Y1.7800 
G01 X-26.8340 Y1.5954 
G01 X-26.9954 Y1.4340 
G01 X-27.1800 Y1.2998 
G01 X-27.3834 Y1.1962 
G01 X-27.6005 Y1.1257 
G01 X-27.8259 Y1.0900 
G01 X-28.0541 Y1.0900 
G01 X-28.2795 Y1.1257 
G01 X-28.4966 Y1.1962 
G01 X-28.7000 Y1.2998 
G01 X-28.8846 Y1.4340 
G01 X-29.0460 Y1.5954 
G01 X-29.1802 Y1.7800 
G01 X-29.2838 Y1.9834 
G01 X-29.3543 Y2.2005 
G01 X-29.3900 Y2.4259 
G00 Z2.0000 
G00 X-3.9900 Y2.4259 
G01 Z-0.0250 F254.00 
G01 X-3.9900 Y2.6541 F508.00 
G01 X-3.9543 Y2.8795 
G01 X-3.8838 Y3.0966 
G01 X-3.7802 Y3.3000 
G01 X-3.6460 Y3.4846 
G01 X-3.4846 Y3.6460 
G01 X-3.3000 Y3.7802 
G01 X-3.0966 Y3.8838 
G01 X-2.8795 Y3.9543 
G01 X-2.6541 Y3.9900 
G01 X-2.4259 Y3.9900 
G01 X-2.2005 Y3.9543 
G01 X-1.9834 Y3.8838 
G01 X-1.7800 Y3.7802 
G01 X-1.5954 Y3.6460 
G01 X-1.4340 Y3.4846 
G01 X-1.2998 Y3.3000 
G01 X-1.1962 Y3.0966 
G01 X-1.1257 Y2.8795 
G01 X-1.0900 Y2.6541 
G01 X-1.0900 Y2.4259 
G01 X-1.1257 Y2.2005 
G01 X-1.1962 Y1.9834 
G01 X-1.2998 Y1.7800 
G01 X-1.4340 Y1.5954 
G01 X-1.5954 Y1.4340 
G01 X-1.7800 Y1.2998 
G01 X-1.9834 Y1.1962 
G01 X-2.2005 Y1.1257 
G01 X-2.4259 Y1.0900 
G01 X-2.6541 Y1.0900 
G01 X-2.8795 Y1.1257 
G01 X-3.0966 Y1.1962 
G01 X-3.3000 Y1.2998 
G01 X-3.4846 Y1.4340 
G01 X-3.6460 Y1.5954 
G01 X-3.7802 Y1.7800 
G01 X-3.8838 Y1.9834 
G01 X-3.9543 Y2.2005 
G01 X-3.9900 Y2.4259 
G00 Z2.0000 
G00 X-6.0082 Y15.3961 
G01 Z-0.0250 F254.00 
G01 X-6.1942 Y15.2610 F508.00 
G01 X-6.2353 Y15.2400 
G01 X-6.1942 Y15.2190 
G01 X-6.0082 Y15.0839 
G01 X-5.9500 Y15.0257 
G01 X-5.9500 Y15.4543 
G01 X-6.0082 Y15.3961 
G00 Z2.0000 
G00 X-23.4672 Y10.4901 
G01 Z-0.0250 F254.00 
G01 X-22.8600 Y9.8829 F508.00 
G01 X-22.2528 Y10.4901 
G01 X-21.3534 Y10.4901 
G01 X-20.5435 Y11.3000 
G01 X-22.8565 Y11.3000 
G01 X-23.6664 Y10.4901 
G01 X-23.4672 Y10.4901 
G00 Z2.0000 
G00 X-9.7408 Y16.3951 
G01 Z-0.0250 F254.00 
G01 X-9.7408 Y16.6249 F508.00 
G01 X-9.7131 Y16.8000 
G01 X-17.4499 Y16.8000 
G01 X-17.4499 Y16.2000 
G01 X-9.7099 Y16.2000 
G01 X-9.7408 Y16.3951 
G00 Z2.0000 
G00 X-9.7048 Y11.0880 
G01 Z-0.0250 F254.00 
G01 X-9.7384 Y11.3000 F508.00 
G01 X-11.9420 Y11.3000 
G01 X-11.9420 Y11.1471 
G01 X-11.9732 Y10.9500 
G01 X-9.6600 Y10.9500 
G01 X-9.7048 Y11.0880 
G00 Z2.0000 
G00 X-6.8447 Y4.8896 
G01 Z-0.0250 F254.00 
G01 X-8.3953 Y4.8896 F508.00 
G01 X-8.6224 Y4.9256 
G01 X-8.8410 Y4.9966 
G01 X-9.0458 Y5.1010 
G01 X-9.2318 Y5.2361 
G01 X-9.3943 Y5.3986 
G01 X-9.5294 Y5.5846 
G01 X-9.6338 Y5.7894 
G01 X-9.7048 Y6.0080 
G01 X-9.7408 Y6.2351 
G01 X-9.7408 Y6.4649 
G01 X-9.7048 Y6.6920 
G01 X-9.6338 Y6.9106 
G01 X-9.5294 Y7.1154 
G01 X-9.3943 Y7.3014 
G01 X-9.2318 Y7.4639 
G01 X-9.0458 Y7.5990 
G01 X-9.0047 Y7.6200 
G01 X-9.0458 Y7.6410 
G01 X-9.2318 Y7.7761 
G01 X-9.3943 Y7.9386 
G01 X-9.5294 Y8.1246 
G01 X-9.6338 Y8.3294 
G01 X-9.7048 Y8.5480 
G01 X-9.7408 Y8.7751 
G01 X-9.7408 Y9.0049 
G01 X-9.7337 Y9.0500 
G01 X-17.4499 Y9.0500 
G01 X-17.4499 Y8.2272 
G01 X-18.3872 Y7.2899 
G01 X-19.7128 Y7.2899 
G01 X-20.3200 Y7.8971 
G01 X-20.9272 Y7.2899 
G01 X-22.2528 Y7.2899 
G01 X-22.8600 Y7.8971 
G01 X-23.4672 Y7.2899 
G01 X-24.7928 Y7.2899 
G01 X-25.4000 Y7.8971 
G01 X-26.0072 Y7.2899 
G01 X-27.3328 Y7.2899 
G01 X-28.2701 Y8.2272 
G01 X-28.2701 Y9.5528 
G01 X-27.3328 Y10.4901 
G01 X-26.3534 Y10.4901 
G01 X-23.8556 Y12.9879 
G01 X-23.7000 Y13.0919 
G01 X-23.5271 Y13.1635 
G01 X-23.3436 Y13.2000 
G01 X-9.5261 Y13.2000 
G01 X-9.5294 Y13.2046 
G01 X-9.6338 Y13.4094 
G01 X-9.7048 Y13.6280 
G01 X-9.7408 Y13.8551 
G01 X-9.7408 Y14.0849 
G01 X-9.7067 Y14.3000 
G01 X-22.8436 Y14.3000 
G01 X-23.0271 Y14.3365 
G01 X-23.2000 Y14.4081 
G01 X-23.3556 Y14.5121 
G01 X-23.7534 Y14.9099 
G01 X-24.7928 Y14.9099 
G01 X-25.4000 Y15.5171 
G01 X-26.0072 Y14.9099 
G01 X-27.3328 Y14.9099 
G01 X-28.2701 Y15.8472 
G01 X-28.2701 Y17.1728 
G01 X-27.3328 Y18.1101 
G01 X-26.0072 Y18.1101 
G01 X-25.4000 Y17.5029 
G01 X-24.7928 Y18.1101 
G01 X-23.4672 Y18.1101 
G01 X-22.8600 Y17.5029 
G01 X-22.2528 Y18.1101 
G01 X-21.4834 Y18.1101 
G01 X-20.3556 Y19.2379 
G01 X-20.2000 Y19.3419 
G01 X-20.0271 Y19.4135 
G01 X-19.8436 Y19.4500 
G01 X-9.6860 Y19.4500 
G01 X-9.6338 Y19.6106 
G01 X-9.5294 Y19.8154 
G01 X-9.3943 Y20.0014 
G01 X-9.2318 Y20.1639 
G01 X-9.0458 Y20.2990 
G01 X-8.8410 Y20.4034 
G01 X-8.6224 Y20.4744 
G01 X-8.3953 Y20.5104 
G01 X-6.8447 Y20.5104 
G01 X-6.6176 Y20.4744 
G01 X-6.3990 Y20.4034 
G01 X-6.1942 Y20.2990 
G01 X-6.0082 Y20.1639 
G01 X-5.8457 Y20.0014 
G01 X-5.7106 Y19.8154 
G01 X-5.6062 Y19.6106 
G01 X-5.5352 Y19.3920 
G01 X-5.4992 Y19.1649 
G01 X-5.4992 Y18.9351 
G01 X-5.5352 Y18.7080 
G01 X-5.5378 Y18.7000 
G01 X-4.9064 Y18.7000 
G01 X-4.7229 Y18.6635 
G01 X-4.5500 Y18.5919 
G01 X-4.3944 Y18.4879 
G01 X-4.2621 Y18.3556 
G01 X-4.1581 Y18.2000 
G01 X-4.0865 Y18.0271 
G01 X-4.0500 Y17.8436 
G01 X-4.0500 Y9.6564 
G01 X-4.0865 Y9.4729 
G01 X-4.1581 Y9.3000 
G01 X-4.2621 Y9.1444 
G01 X-4.3944 Y9.0121 
G01 X-4.8944 Y8.5121 
G01 X-5.0500 Y8.4081 
G01 X-5.2229 Y8.3365 
G01 X-5.4064 Y8.3000 
G01 X-5.6212 Y8.3000 
G01 X-5.7106 Y8.1246 
G01 X-5.8457 Y7.9386 
G01 X-6.0082 Y7.7761 
G01 X-6.1942 Y7.6410 
G01 X-6.2353 Y7.6200 
G01 X-6.1942 Y7.5990 
G01 X-6.0082 Y7.4639 
G01 X-5.8457 Y7.3014 
G01 X-5.7106 Y7.1154 
G01 X-5.6062 Y6.9106 
G01 X-5.5352 Y6.6920 
G01 X-5.4992 Y6.4649 
G01 X-5.4992 Y6.2351 
G01 X-5.5352 Y6.0080 
G01 X-5.6062 Y5.7894 
G01 X-5.7106 Y5.5846 
G01 X-5.8457 Y5.3986 
G01 X-6.0082 Y5.2361 
G01 X-6.1942 Y5.1010 
G01 X-6.3990 Y4.9966 
G01 X-6.6176 Y4.9256 
G01 X-6.8447 Y4.8896 
G00 Z2.0000 
G00 X-4.0900 Y22.7380 
G01 Z-0.0250 F254.00 
G01 X-4.0900 Y22.9820 F508.00 
G01 X-4.0518 Y23.2230 
G01 X-3.9764 Y23.4550 
G01 X-3.8657 Y23.6724 
G01 X-3.7223 Y23.8698 
G01 X-3.5498 Y24.0423 
G01 X-3.3524 Y24.1857 
G01 X-3.1350 Y24.2964 
G01 X-2.9030 Y24.3718 
G01 X-2.6620 Y24.4100 
G01 X-2.4180 Y24.4100 
G01 X-2.1770 Y24.3718 
G01 X-1.9450 Y24.2964 
G01 X-1.7276 Y24.1857 
G01 X-1.5302 Y24.0423 
G01 X-1.3577 Y23.8698 
G01 X-1.2143 Y23.6724 
G01 X-1.1036 Y23.4550 
G01 X-1.0282 Y23.2230 
G01 X-0.9900 Y22.9820 
G01 X-0.9900 Y22.7380 
G01 X-1.0282 Y22.4970 
G01 X-1.1036 Y22.2650 
G01 X-1.2143 Y22.0476 
G01 X-1.3577 Y21.8502 
G01 X-1.5302 Y21.6777 
G01 X-1.7276 Y21.5343 
G01 X-1.9450 Y21.4236 
G01 X-2.1770 Y21.3482 
G01 X-2.4180 Y21.3100 
G01 X-2.6620 Y21.3100 
G01 X-2.9030 Y21.3482 
G01 X-3.1350 Y21.4236 
G01 X-3.3524 Y21.5343 
G01 X-3.5498 Y21.6777 
G01 X-3.7223 Y21.8502 
G01 X-3.8657 Y22.0476 
G01 X-3.9764 Y22.2650 
G01 X-4.0518 Y22.4970 
G01 X-4.0900 Y22.7380 
G00 Z2.0000 
G00 X-29.4900 Y22.7380 
G01 Z-0.0250 F254.00 
G01 X-29.4900 Y22.9820 F508.00 
G01 X-29.4518 Y23.2230 
G01 X-29.3764 Y23.4550 
G01 X-29.2657 Y23.6724 
G01 X-29.1223 Y23.8698 
G01 X-28.9498 Y24.0423 
G01 X-28.7524 Y24.1857 
G01 X-28.5350 Y24.2964 
G01 X-28.3030 Y24.3718 
G01 X-28.0620 Y24.4100 
G01 X-27.8180 Y24.4100 
G01 X-27.5770 Y24.3718 
G01 X-27.3450 Y24.2964 
G01 X-27.1276 Y24.1857 
G01 X-26.9302 Y24.0423 
G01 X-26.7577 Y23.8698 
G01 X-26.6143 Y23.6724 
G01 X-26.5036 Y23.4550 
G01 X-26.4282 Y23.2230 
G01 X-26.3900 Y22.9820 
G01 X-26.3900 Y22.7380 
G01 X-26.4282 Y22.4970 
G01 X-26.5036 Y22.2650 
G01 X-26.6143 Y22.0476 
G01 X-26.7577 Y21.8502 
G01 X-26.9302 Y21.6777 
G01 X-27.1276 Y21.5343 
G01 X-27.3450 Y21.4236 
G01 X-27.5770 Y21.3482 
G01 X-27.8180 Y21.3100 
G01 X-28.0620 Y21.3100 
G01 X-28.3030 Y21.3482 
G01 X-28.5350 Y21.4236 
G01 X-28.7524 Y21.5343 
G01 X-28.9498 Y21.6777 
G01 X-29.1223 Y21.8502 
G01 X-29.2657 Y22.0476 
G01 X-29.3764 Y22.2650 
G01 X-29.4518 Y22.4970 
G01 X-29.4900 Y22.7380 
G00 Z2.0000 
G00 X-29.4900 Y2.4180 
G01 Z-0.0250 F254.00 
G01 X-29.4900 Y2.6620 F508.00 
G01 X-29.4518 Y2.9030 
G01 X-29.3764 Y3.1350 
G01 X-29.2657 Y3.3524 
G01 X-29.1223 Y3.5498 
G01 X-28.9498 Y3.7223 
G01 X-28.7524 Y3.8657 
G01 X-28.5350 Y3.9764 
G01 X-28.3030 Y4.0518 
G01 X-28.0620 Y4.0900 
G01 X-27.8180 Y4.0900 
G01 X-27.5770 Y4.0518 
G01 X-27.3450 Y3.9764 
G01 X-27.1276 Y3.8657 
G01 X-26.9302 Y3.7223 
G01 X-26.7577 Y3.5498 
G01 X-26.6143 Y3.3524 
G01 X-26.5036 Y3.1350 
G01 X-26.4282 Y2.9030 
G01 X-26.3900 Y2.6620 
G01 X-26.3900 Y2.4180 
G01 X-26.4282 Y2.1770 
G01 X-26.5036 Y1.9450 
G01 X-26.6143 Y1.7276 
G01 X-26.7577 Y1.5302 
G01 X-26.9302 Y1.3577 
G01 X-27.1276 Y1.2143 
G01 X-27.3450 Y1.1036 
G01 X-27.5770 Y1.0282 
G01 X-27.8180 Y0.9900 
G01 X-28.0620 Y0.9900 
G01 X-28.3030 Y1.0282 
G01 X-28.5350 Y1.1036 
G01 X-28.7524 Y1.2143 
G01 X-28.9498 Y1.3577 
G01 X-29.1223 Y1.5302 
G01 X-29.2657 Y1.7276 
G01 X-29.3764 Y1.9450 
G01 X-29.4518 Y2.1770 
G01 X-29.4900 Y2.4180 
G00 Z2.0000 
G00 X-4.0900 Y2.4180 
G01 Z-0.0250 F254.00 
G01 X-4.0900 Y2.6620 F508.00 
G01 X-4.0518 Y2.9030 
G01 X-3.9764 Y3.1350 
G01 X-3.8657 Y3.3524 
G01 X-3.7223 Y3.5498 
G01 X-3.5498 Y3.7223 
G01 X-3.3524 Y3.8657 
G01 X-3.1350 Y3.9764 
G01 X-2.9030 Y4.0518 
G01 X-2.6620 Y4.0900 
G01 X-2.4180 Y4.0900 
G01 X-2.1770 Y4.0518 
G01 X-1.9450 Y3.9764 
G01 X-1.7276 Y3.8657 
G01 X-1.5302 Y3.7223 
G01 X-1.3577 Y3.5498 
G01 X-1.2143 Y3.3524 
G01 X-1.1036 Y3.1350 
G01 X-1.0282 Y2.9030 
G01 X-0.9900 Y2.6620 
G01 X-0.9900 Y2.4180 
G01 X-1.0282 Y2.1770 
G01 X-1.1036 Y1.9450 
G01 X-1.2143 Y1.7276 
G01 X-1.3577 Y1.5302 
G01 X-1.5302 Y1.3577 
G01 X-1.7276 Y1.2143 
G01 X-1.9450 Y1.1036 
G01 X-2.1770 Y1.0282 
G01 X-2.4180 Y0.9900 
G01 X-2.6620 Y0.9900 
G01 X-2.9030 Y1.0282 
G01 X-3.1350 Y1.1036 
G01 X-3.3524 Y1.2143 
G01 X-3.5498 Y1.3577 
G01 X-3.7223 Y1.5302 
G01 X-3.8657 Y1.7276 
G01 X-3.9764 Y1.9450 
G01 X-4.0518 Y2.1770 
G01 X-4.0900 Y2.4180 
G00 Z2.0000 
G00 X-9.8024 Y11.0646 
G01 Z-0.0250 F254.00 
G01 X-9.8238 Y11.2000 F508.00 
G01 X-11.8420 Y11.2000 
G01 X-11.8420 Y11.1392 
G01 X-11.8561 Y11.0500 
G01 X-9.7976 Y11.0500 
G01 X-9.8024 Y11.0646 
G00 Z2.0000 
G00 X-9.8408 Y16.3872 
G01 Z-0.0250 F254.00 
G01 X-9.8408 Y16.6328 F508.00 
G01 X-9.8302 Y16.7000 
G01 X-17.3499 Y16.7000 
G01 X-17.3499 Y16.3000 
G01 X-9.8270 Y16.3000 
G01 X-9.8408 Y16.3872 
G00 Z2.0000 
G00 X-22.8600 Y10.0243 
G01 Z-0.0250 F254.00 
G01 X-22.2942 Y10.5901 F508.00 
G01 X-21.3948 Y10.5901 
G01 X-20.7849 Y11.2000 
G01 X-22.8151 Y11.2000 
G01 X-23.4254 Y10.5897 
G01 X-22.8600 Y10.0243 
G00 Z2.0000 
G00 X-6.0529 Y15.2400 
G01 Z-0.0250 F254.00 
G01 X-6.0500 Y15.2379 F508.00 
G01 X-6.0500 Y15.2421 
G01 X-6.0529 Y15.2400 
G00 Z2.0000 
G00 X-6.8368 Y4.7896 
G01 Z-0.0250 F254.00 
G01 X-8.4032 Y4.7896 F508.00 
G01 X-8.6458 Y4.8280 
G01 X-8.8794 Y4.9039 
G01 X-9.0982 Y5.0154 
G01 X-9.2969 Y5.1598 
G01 X-9.4706 Y5.3335 
G01 X-9.6150 Y5.5322 
G01 X-9.7265 Y5.7510 
G01 X-9.8024 Y5.9846 
G01 X-9.8408 Y6.2272 
G01 X-9.8408 Y6.4728 
G01 X-9.8024 Y6.7154 
G01 X-9.7265 Y6.9490 
G01 X-9.6150 Y7.1678 
G01 X-9.4706 Y7.3665 
G01 X-9.2969 Y7.5402 
G01 X-9.1871 Y7.6200 
G01 X-9.2969 Y7.6998 
G01 X-9.4706 Y7.8735 
G01 X-9.6150 Y8.0722 
G01 X-9.7265 Y8.2910 
G01 X-9.8024 Y8.5246 
G01 X-9.8408 Y8.7672 
G01 X-9.8408 Y8.9500 
G01 X-17.3499 Y8.9500 
G01 X-17.3499 Y8.1858 
G01 X-18.3458 Y7.1899 
G01 X-19.7542 Y7.1899 
G01 X-20.3200 Y7.7557 
G01 X-20.8858 Y7.1899 
G01 X-22.2942 Y7.1899 
G01 X-22.8600 Y7.7557 
G01 X-23.4258 Y7.1899 
G01 X-24.8342 Y7.1899 
G01 X-25.4000 Y7.7557 
G01 X-25.9658 Y7.1899 
G01 X-27.3742 Y7.1899 
G01 X-28.3701 Y8.1858 
G01 X-28.3701 Y9.5942 
G01 X-27.3742 Y10.5901 
G01 X-26.3948 Y10.5901 
G01 X-23.9340 Y13.0509 
G01 X-23.8003 Y13.1480 
G01 X-23.6531 Y13.2231 
G01 X-23.4959 Y13.2741 
G01 X-23.3326 Y13.3000 
G01 X-9.6903 Y13.3000 
G01 X-9.7265 Y13.3710 
G01 X-9.8024 Y13.6046 
G01 X-9.8408 Y13.8472 
G01 X-9.8408 Y14.0928 
G01 X-9.8238 Y14.2000 
G01 X-22.8326 Y14.2000 
G01 X-22.9959 Y14.2259 
G01 X-23.1531 Y14.2769 
G01 X-23.3003 Y14.3520 
G01 X-23.4340 Y14.4491 
G01 X-23.7948 Y14.8099 
G01 X-24.8342 Y14.8099 
G01 X-25.4000 Y15.3757 
G01 X-25.9658 Y14.8099 
G01 X-27.3742 Y14.8099 
G01 X-28.3701 Y15.8058 
G01 X-28.3701 Y17.2142 
G01 X-27.3742 Y18.2101 
G01 X-25.9658 Y18.2101 
G01 X-25.4000 Y17.6443 
G01 X-24.8342 Y18.2101 
G01 X-23.4258 Y18.2101 
G01 X-22.8600 Y17.6443 
G01 X-22.2942 Y18.2101 
G01 X-21.5248 Y18.2101 
G01 X-20.4340 Y19.3009 
G01 X-20.3003 Y19.3980 
G01 X-20.1531 Y19.4731 
G01 X-19.9959 Y19.5241 
G01 X-19.8326 Y19.5500 
G01 X-9.7586 Y19.5500 
G01 X-9.7265 Y19.6490 
G01 X-9.6150 Y19.8678 
G01 X-9.4706 Y20.0665 
G01 X-9.2969 Y20.2402 
G01 X-9.0982 Y20.3846 
G01 X-8.8794 Y20.4961 
G01 X-8.6458 Y20.5720 
G01 X-8.4032 Y20.6104 
G01 X-6.8368 Y20.6104 
G01 X-6.5942 Y20.5720 
G01 X-6.3606 Y20.4961 
G01 X-6.1418 Y20.3846 
G01 X-5.9431 Y20.2402 
G01 X-5.7694 Y20.0665 
G01 X-5.6250 Y19.8678 
G01 X-5.5135 Y19.6490 
G01 X-5.4376 Y19.4154 
G01 X-5.3992 Y19.1728 
G01 X-5.3992 Y18.9272 
G01 X-5.4193 Y18.8000 
G01 X-4.9174 Y18.8000 
G01 X-4.7541 Y18.7741 
G01 X-4.5969 Y18.7231 
G01 X-4.4497 Y18.6480 
G01 X-4.3160 Y18.5509 
G01 X-4.1991 Y18.4340 
G01 X-4.1020 Y18.3003 
G01 X-4.0269 Y18.1531 
G01 X-3.9759 Y17.9959 
G01 X-3.9500 Y17.8326 
G01 X-3.9500 Y9.6674 
G01 X-3.9759 Y9.5041 
G01 X-4.0269 Y9.3469 
G01 X-4.1020 Y9.1997 
G01 X-4.1991 Y9.0660 
G01 X-4.3160 Y8.9491 
G01 X-4.8160 Y8.4491 
G01 X-4.9497 Y8.3520 
G01 X-5.0969 Y8.2769 
G01 X-5.2541 Y8.2259 
G01 X-5.4174 Y8.2000 
G01 X-5.5599 Y8.2000 
G01 X-5.6250 Y8.0722 
G01 X-5.7694 Y7.8735 
G01 X-5.9431 Y7.6998 
G01 X-6.0529 Y7.6200 
G01 X-5.9431 Y7.5402 
G01 X-5.7694 Y7.3665 
G01 X-5.6250 Y7.1678 
G01 X-5.5135 Y6.9490 
G01 X-5.4376 Y6.7154 
G01 X-5.3992 Y6.4728 
G01 X-5.3992 Y6.2272 
G01 X-5.4376 Y5.9846 
G01 X-5.5135 Y5.7510 
G01 X-5.6250 Y5.5322 
G01 X-5.7694 Y5.3335 
G01 X-5.9431 Y5.1598 
G01 X-6.1418 Y5.0154 
G01 X-6.3606 Y4.9039 
G01 X-6.5942 Y4.8280 
G01 X-6.8368 Y4.7896 
G00 Z2.0000 
G00 X-4.1900 Y22.7519 
G01 Z-0.0250 F254.00 
G01 X-4.1900 Y22.9681 F508.00 
G01 X-4.1618 Y23.1826 
G01 X-4.1058 Y23.3915 
G01 X-4.0230 Y23.5913 
G01 X-3.9149 Y23.7787 
G01 X-3.7832 Y23.9503 
G01 X-3.6303 Y24.1032 
G01 X-3.4587 Y24.2349 
G01 X-3.2713 Y24.3430 
G01 X-3.0715 Y24.4258 
G01 X-2.8626 Y24.4818 
G01 X-2.6481 Y24.5100 
G01 X-2.4319 Y24.5100 
G01 X-2.2174 Y24.4818 
G01 X-2.0085 Y24.4258 
G01 X-1.8087 Y24.3430 
G01 X-1.6213 Y24.2349 
G01 X-1.4497 Y24.1032 
G01 X-1.2968 Y23.9503 
G01 X-1.1651 Y23.7787 
G01 X-1.0570 Y23.5913 
G01 X-0.9742 Y23.3915 
G01 X-0.9182 Y23.1826 
G01 X-0.8900 Y22.9681 
G01 X-0.8900 Y22.7519 
G01 X-0.9182 Y22.5374 
G01 X-0.9742 Y22.3285 
G01 X-1.0570 Y22.1287 
G01 X-1.1651 Y21.9413 
G01 X-1.2968 Y21.7697 
G01 X-1.4497 Y21.6168 
G01 X-1.6213 Y21.4851 
G01 X-1.8087 Y21.3770 
G01 X-2.0085 Y21.2942 
G01 X-2.2174 Y21.2382 
G01 X-2.4319 Y21.2100 
G01 X-2.6481 Y21.2100 
G01 X-2.8626 Y21.2382 
G01 X-3.0715 Y21.2942 
G01 X-3.2713 Y21.3770 
G01 X-3.4587 Y21.4851 
G01 X-3.6303 Y21.6168 
G01 X-3.7832 Y21.7697 
G01 X-3.9149 Y21.9413 
G01 X-4.0230 Y22.1287 
G01 X-4.1058 Y22.3285 
G01 X-4.1618 Y22.5374 
G01 X-4.1900 Y22.7519 
G00 Z2.0000 
G00 X-29.5900 Y22.7519 
G01 Z-0.0250 F254.00 
G01 X-29.5900 Y22.9681 F508.00 
G01 X-29.5618 Y23.1826 
G01 X-29.5058 Y23.3915 
G01 X-29.4230 Y23.5913 
G01 X-29.3149 Y23.7787 
G01 X-29.1832 Y23.9503 
G01 X-29.0303 Y24.1032 
G01 X-28.8587 Y24.2349 
G01 X-28.6713 Y24.3430 
G01 X-28.4715 Y24.4258 
G01 X-28.2626 Y24.4818 
G01 X-28.0481 Y24.5100 
G01 X-27.8319 Y24.5100 
G01 X-27.6174 Y24.4818 
G01 X-27.4085 Y24.4258 
G01 X-27.2087 Y24.3430 
G01 X-27.0213 Y24.2349 
G01 X-26.8497 Y24.1032 
G01 X-26.6968 Y23.9503 
G01 X-26.5651 Y23.7787 
G01 X-26.4570 Y23.5913 
G01 X-26.3742 Y23.3915 
G01 X-26.3182 Y23.1826 
G01 X-26.2900 Y22.9681 
G01 X-26.2900 Y22.7519 
G01 X-26.3182 Y22.5374 
G01 X-26.3742 Y22.3285 
G01 X-26.4570 Y22.1287 
G01 X-26.5651 Y21.9413 
G01 X-26.6968 Y21.7697 
G01 X-26.8497 Y21.6168 
G01 X-27.0213 Y21.4851 
G01 X-27.2087 Y21.3770 
G01 X-27.4085 Y21.2942 
G01 X-27.6174 Y21.2382 
G01 X-27.8319 Y21.2100 
G01 X-28.0481 Y21.2100 
G01 X-28.2626 Y21.2382 
G01 X-28.4715 Y21.2942 
G01 X-28.6713 Y21.3770 
G01 X-28.8587 Y21.4851 
G01 X-29.0303 Y21.6168 
G01 X-29.1832 Y21.7697 
G01 X-29.3149 Y21.9413 
G01 X-29.4230 Y22.1287 
G01 X-29.5058 Y22.3285 
G01 X-29.5618 Y22.5374 
G01 X-29.5900 Y22.7519 
G00 Z2.0000 
G00 X-29.5900 Y2.4319 
G01 Z-0.0250 F254.00 
G01 X-29.5900 Y2.6481 F508.00 
G01 X-29.5618 Y2.8626 
G01 X-29.5058 Y3.0715 
G01 X-29.4230 Y3.2713 
G01 X-29.3149 Y3.4587 
G01 X-29.1832 Y3.6303 
G01 X-29.0303 Y3.7832 
G01 X-28.8587 Y3.9149 
G01 X-28.6713 Y4.0230 
G01 X-28.4715 Y4.1058 
G01 X-28.2626 Y4.1618 
G01 X-28.0481 Y4.1900 
G01 X-27.8319 Y4.1900 
G01 X-27.6174 Y4.1618 
G01 X-27.4085 Y4.1058 
G01 X-27.2087 Y4.0230 
G01 X-27.0213 Y3.9149 
G01 X-26.8497 Y3.7832 
G01 X-26.6968 Y3.6303 
G01 X-26.5651 Y3.4587 
G01 X-26.4570 Y3.2713 
G01 X-26.3742 Y3.0715 
G01 X-26.3182 Y2.8626 
G01 X-26.2900 Y2.6481 
G01 X-26.2900 Y2.4319 
G01 X-26.3182 Y2.2174 
G01 X-26.3742 Y2.0085 
G01 X-26.4570 Y1.8087 
G01 X-26.5651 Y1.6213 
G01 X-26.6968 Y1.4497 
G01 X-26.8497 Y1.2968 
G01 X-27.0213 Y1.1651 
G01 X-27.2087 Y1.0570 
G01 X-27.4085 Y0.9742 
G01 X-27.6174 Y0.9182 
G01 X-27.8319 Y0.8900 
G01 X-28.0481 Y0.8900 
G01 X-28.2626 Y0.9182 
G01 X-28.4715 Y0.9742 
G01 X-28.6713 Y1.0570 
G01 X-28.8587 Y1.1651 
G01 X-29.0303 Y1.2968 
G01 X-29.1832 Y1.4497 
G01 X-29.3149 Y1.6213 
G01 X-29.4230 Y1.8087 
G01 X-29.5058 Y2.0085 
G01 X-29.5618 Y2.2174 
G01 X-29.5900 Y2.4319 
G00 Z2.0000 
G00 X-4.1900 Y2.4319 
G01 Z-0.0250 F254.00 
G01 X-4.1900 Y2.6481 F508.00 
G01 X-4.1618 Y2.8626 
G01 X-4.1058 Y3.0715 
G01 X-4.0230 Y3.2713 
G01 X-3.9149 Y3.4587 
G01 X-3.7832 Y3.6303 
G01 X-3.6303 Y3.7832 
G01 X-3.4587 Y3.9149 
G01 X-3.2713 Y4.0230 
G01 X-3.0715 Y4.1058 
G01 X-2.8626 Y4.1618 
G01 X-2.6481 Y4.1900 
G01 X-2.4319 Y4.1900 
G01 X-2.2174 Y4.1618 
G01 X-2.0085 Y4.1058 
G01 X-1.8087 Y4.0230 
G01 X-1.6213 Y3.9149 
G01 X-1.4497 Y3.7832 
G01 X-1.2968 Y3.6303 
G01 X-1.1651 Y3.4587 
G01 X-1.0570 Y3.2713 
G01 X-0.9742 Y3.0715 
G01 X-0.9182 Y2.8626 
G01 X-0.8900 Y2.6481 
G01 X-0.8900 Y2.4319 
G01 X-0.9182 Y2.2174 
G01 X-0.9742 Y2.0085 
G01 X-1.0570 Y1.8087 
G01 X-1.1651 Y1.6213 
G01 X-1.2968 Y1.4497 
G01 X-1.4497 Y1.2968 
G01 X-1.6213 Y1.1651 
G01 X-1.8087 Y1.0570 
G01 X-2.0085 Y0.9742 
G01 X-2.2174 Y0.9182 
G01 X-2.4319 Y0.8900 
G01 X-2.6481 Y0.8900 
G01 X-2.8626 Y0.9182 
G01 X-3.0715 Y0.9742 
G01 X-3.2713 Y1.0570 
G01 X-3.4587 Y1.1651 
G01 X-3.6303 Y1.2968 
G01 X-3.7832 Y1.4497 
G01 X-3.9149 Y1.6213 
G01 X-4.0230 Y1.8087 
G01 X-4.1058 Y2.0085 
G01 X-4.1618 Y2.2174 
G01 X-4.1900 Y2.4319 
G00 Z2.0000 
G00 X-22.8600 Y10.1657 
G01 Z-0.0250 F254.00 
G01 X-22.3356 Y10.6901 F508.00 
G01 X-21.4362 Y10.6901 
G01 X-21.0263 Y11.1000 
G01 X-22.7737 Y11.1000 
G01 X-23.2840 Y10.5897 
G01 X-22.8600 Y10.1657 
G00 Z2.0000 
G00 X-9.9408 Y16.4012 
G01 Z-0.0250 F254.00 
G01 X-9.9408 Y16.6000 F508.00 
G01 X-17.2499 Y16.6000 
G01 X-17.2499 Y16.4000 
G01 X-9.9406 Y16.4000 
G00 Z2.0000 
G00 X-17.2499 Y8.1444 
G01 Z-0.0250 F254.00 
G01 X-18.3044 Y7.0899 F508.00 
G01 X-19.7956 Y7.0899 
G01 X-20.3200 Y7.6143 
G01 X-20.8444 Y7.0899 
G01 X-22.3356 Y7.0899 
G01 X-22.8600 Y7.6143 
G01 X-23.3844 Y7.0899 
G01 X-24.8756 Y7.0899 
G01 X-25.4000 Y7.6143 
G01 X-25.9244 Y7.0899 
G01 X-27.4156 Y7.0899 
G01 X-28.4701 Y8.1444 
G01 X-28.4701 Y9.6356 
G01 X-27.4156 Y10.6901 
G01 X-26.4362 Y10.6901 
G01 X-23.9992 Y13.1272 
G01 X-23.8527 Y13.2336 
G01 X-23.6914 Y13.3157 
G01 X-23.5193 Y13.3717 
G01 X-23.3405 Y13.4000 
G01 X-9.8415 Y13.4000 
G01 X-9.8561 Y13.4351 
G01 X-9.9124 Y13.6454 
G01 X-9.9408 Y13.8612 
G01 X-9.9408 Y14.0788 
G01 X-9.9380 Y14.1000 
G01 X-22.8405 Y14.1000 
G01 X-23.0193 Y14.1283 
G01 X-23.1914 Y14.1843 
G01 X-23.3527 Y14.2664 
G01 X-23.4992 Y14.3728 
G01 X-23.8362 Y14.7099 
G01 X-24.8756 Y14.7099 
G01 X-25.4000 Y15.2343 
G01 X-25.9244 Y14.7099 
G01 X-27.4156 Y14.7099 
G01 X-28.4701 Y15.7644 
G01 X-28.4701 Y17.2556 
G01 X-27.4156 Y18.3101 
G01 X-25.9244 Y18.3101 
G01 X-25.4000 Y17.7857 
G01 X-24.8756 Y18.3101 
G01 X-23.3844 Y18.3101 
G01 X-22.8600 Y17.7857 
G01 X-22.3356 Y18.3101 
G01 X-21.5662 Y18.3101 
G01 X-20.4992 Y19.3772 
G01 X-20.3527 Y19.4836 
G01 X-20.1914 Y19.5657 
G01 X-20.0193 Y19.6217 
G01 X-19.8405 Y19.6500 
G01 X-9.8291 Y19.6500 
G01 X-9.7728 Y19.7859 
G01 X-9.6639 Y19.9744 
G01 X-9.5314 Y20.1471 
G01 X-9.3775 Y20.3010 
G01 X-9.2048 Y20.4335 
G01 X-9.0164 Y20.5424 
G01 X-8.8153 Y20.6257 
G01 X-8.6050 Y20.6820 
G01 X-8.3892 Y20.7104 
G01 X-6.8508 Y20.7104 
G01 X-6.6350 Y20.6820 
G01 X-6.4247 Y20.6257 
G01 X-6.2236 Y20.5424 
G01 X-6.0352 Y20.4335 
G01 X-5.8625 Y20.3010 
G01 X-5.7086 Y20.1471 
G01 X-5.5761 Y19.9744 
G01 X-5.4672 Y19.7859 
G01 X-5.3839 Y19.5849 
G01 X-5.3276 Y19.3746 
G01 X-5.2992 Y19.1588 
G01 X-5.2992 Y18.9412 
G01 X-5.3046 Y18.9000 
G01 X-4.9095 Y18.9000 
G01 X-4.7307 Y18.8717 
G01 X-4.5586 Y18.8157 
G01 X-4.3973 Y18.7336 
G01 X-4.2508 Y18.6272 
G01 X-4.1228 Y18.4992 
G01 X-4.0164 Y18.3527 
G01 X-3.9343 Y18.1914 
G01 X-3.8783 Y18.0193 
G01 X-3.8500 Y17.8405 
G01 X-3.8500 Y9.6595 
G01 X-3.8783 Y9.4807 
G01 X-3.9343 Y9.3086 
G01 X-4.0164 Y9.1473 
G01 X-4.1228 Y9.0008 
G01 X-4.2508 Y8.8728 
G01 X-4.7508 Y8.3728 
G01 X-4.8973 Y8.2664 
G01 X-5.0586 Y8.1843 
G01 X-5.2307 Y8.1283 
G01 X-5.4095 Y8.1000 
G01 X-5.4984 Y8.1000 
G01 X-5.5761 Y7.9656 
G01 X-5.7086 Y7.7929 
G01 X-5.8625 Y7.6390 
G01 X-5.8872 Y7.6200 
G01 X-5.8625 Y7.6010 
G01 X-5.7086 Y7.4471 
G01 X-5.5761 Y7.2744 
G01 X-5.4672 Y7.0860 
G01 X-5.3839 Y6.8849 
G01 X-5.3276 Y6.6746 
G01 X-5.2992 Y6.4588 
G01 X-5.2992 Y6.2412 
G01 X-5.3276 Y6.0254 
G01 X-5.3839 Y5.8151 
G01 X-5.4672 Y5.6140 
G01 X-5.5761 Y5.4256 
G01 X-5.7086 Y5.2529 
G01 X-5.8625 Y5.0990 
G01 X-6.0352 Y4.9665 
G01 X-6.2236 Y4.8576 
G01 X-6.4247 Y4.7743 
G01 X-6.6350 Y4.7180 
G01 X-6.8508 Y4.6896 
G01 X-8.3892 Y4.6896 
G01 X-8.6050 Y4.7180 
G01 X-8.8153 Y4.7743 
G01 X-9.0164 Y4.8576 
G01 X-9.2048 Y4.9665 
G01 X-9.3775 Y5.0990 
G01 X-9.5314 Y5.2529 
G01 X-9.6639 Y5.4256 
G01 X-9.7728 Y5.6140 
G01 X-9.8561 Y5.8151 
G01 X-9.9124 Y6.0254 
G01 X-9.9408 Y6.2412 
G01 X-9.9408 Y6.4588 
G01 X-9.9124 Y6.6746 
G01 X-9.8561 Y6.8849 
G01 X-9.7728 Y7.0860 
G01 X-9.6639 Y7.2744 
G01 X-9.5314 Y7.4471 
G01 X-9.3775 Y7.6010 
G01 X-9.3528 Y7.6200 
G01 X-9.3775 Y7.6390 
G01 X-9.5314 Y7.7929 
G01 X-9.6639 Y7.9656 
G01 X-9.7728 Y8.1540 
G01 X-9.8561 Y8.3551 
G01 X-9.9124 Y8.5654 
G01 X-9.9408 Y8.7812 
G01 X-9.9408 Y8.8500 
G01 X-17.2499 Y8.8500 
G01 X-17.2499 Y8.1444 
G00 Z2.0000 
G00 X-4.2900 Y22.7453 
G01 Z-0.0250 F254.00 
G01 X-4.2900 Y22.9747 F508.00 
G01 X-4.2601 Y23.2021 
G01 X-4.2007 Y23.4237 
G01 X-4.1129 Y23.6357 
G01 X-3.9982 Y23.8343 
G01 X-3.8585 Y24.0163 
G01 X-3.6963 Y24.1785 
G01 X-3.5143 Y24.3182 
G01 X-3.3157 Y24.4329 
G01 X-3.1037 Y24.5207 
G01 X-2.8821 Y24.5801 
G01 X-2.6547 Y24.6100 
G01 X-2.4253 Y24.6100 
G01 X-2.1979 Y24.5801 
G01 X-1.9763 Y24.5207 
G01 X-1.7643 Y24.4329 
G01 X-1.5657 Y24.3182 
G01 X-1.3837 Y24.1785 
G01 X-1.2215 Y24.0163 
G01 X-1.0818 Y23.8343 
G01 X-0.9671 Y23.6357 
G01 X-0.8793 Y23.4237 
G01 X-0.8199 Y23.2021 
G01 X-0.7900 Y22.9747 
G01 X-0.7900 Y22.7453 
G01 X-0.8199 Y22.5179 
G01 X-0.8793 Y22.2963 
G01 X-0.9671 Y22.0843 
G01 X-1.0818 Y21.8857 
G01 X-1.2215 Y21.7037 
G01 X-1.3837 Y21.5415 
G01 X-1.5657 Y21.4018 
G01 X-1.7643 Y21.2871 
G01 X-1.9763 Y21.1993 
G01 X-2.1979 Y21.1399 
G01 X-2.4253 Y21.1100 
G01 X-2.6547 Y21.1100 
G01 X-2.8821 Y21.1399 
G01 X-3.1037 Y21.1993 
G01 X-3.3157 Y21.2871 
G01 X-3.5143 Y21.4018 
G01 X-3.6963 Y21.5415 
G01 X-3.8585 Y21.7037 
G01 X-3.9982 Y21.8857 
G01 X-4.1129 Y22.0843 
G01 X-4.2007 Y22.2963 
G01 X-4.2601 Y22.5179 
G01 X-4.2900 Y22.7453 
G00 Z2.0000 
G00 X-29.6900 Y22.7453 
G01 Z-0.0250 F254.00 
G01 X-29.6900 Y22.9747 F508.00 
G01 X-29.6601 Y23.2021 
G01 X-29.6007 Y23.4237 
G01 X-29.5129 Y23.6357 
G01 X-29.3982 Y23.8343 
G01 X-29.2585 Y24.0163 
G01 X-29.0963 Y24.1785 
G01 X-28.9143 Y24.3182 
G01 X-28.7157 Y24.4329 
G01 X-28.5037 Y24.5207 
G01 X-28.2821 Y24.5801 
G01 X-28.0547 Y24.6100 
G01 X-27.8253 Y24.6100 
G01 X-27.5979 Y24.5801 
G01 X-27.3763 Y24.5207 
G01 X-27.1643 Y24.4329 
G01 X-26.9657 Y24.3182 
G01 X-26.7837 Y24.1785 
G01 X-26.6215 Y24.0163 
G01 X-26.4818 Y23.8343 
G01 X-26.3671 Y23.6357 
G01 X-26.2793 Y23.4237 
G01 X-26.2199 Y23.2021 
G01 X-26.1900 Y22.9747 
G01 X-26.1900 Y22.7453 
G01 X-26.2199 Y22.5179 
G01 X-26.2793 Y22.2963 
G01 X-26.3671 Y22.0843 
G01 X-26.4818 Y21.8857 
G01 X-26.6215 Y21.7037 
G01 X-26.7837 Y21.5415 
G01 X-26.9657 Y21.4018 
G01 X-27.1643 Y21.2871 
G01 X-27.3763 Y21.1993 
G01 X-27.5979 Y21.1399 
G01 X-27.8253 Y21.1100 
G01 X-28.0547 Y21.1100 
G01 X-28.2821 Y21.1399 
G01 X-28.5037 Y21.1993 
G01 X-28.7157 Y21.2871 
G01 X-28.9143 Y21.4018 
G01 X-29.0963 Y21.5415 
G01 X-29.2585 Y21.7037 
G01 X-29.3982 Y21.8857 
G01 X-29.5129 Y22.0843 
G01 X-29.6007 Y22.2963 
G01 X-29.6601 Y22.5179 
G01 X-29.6900 Y22.7453 
G00 Z2.0000 
G00 X-29.6900 Y2.4253 
G01 Z-0.0250 F254.00 
G01 X-29.6900 Y2.6547 F508.00 
G01 X-29.6601 Y2.8821 
G01 X-29.6007 Y3.1037 
G01 X-29.5129 Y3.3157 
G01 X-29.3982 Y3.5143 
G01 X-29.2585 Y3.6963 
G01 X-29.0963 Y3.8585 
G01 X-28.9143 Y3.9982 
G01 X-28.7157 Y4.1129 
G01 X-28.5037 Y4.2007 
G01 X-28.2821 Y4.2601 
G01 X-28.0547 Y4.2900 
G01 X-27.8253 Y4.2900 
G01 X-27.5979 Y4.2601 
G01 X-27.3763 Y4.2007 
G01 X-27.1643 Y4.1129 
G01 X-26.9657 Y3.9982 
G01 X-26.7837 Y3.8585 
G01 X-26.6215 Y3.6963 
G01 X-26.4818 Y3.5143 
G01 X-26.3671 Y3.3157 
G01 X-26.2793 Y3.1037 
G01 X-26.2199 Y2.8821 
G01 X-26.1900 Y2.6547 
G01 X-26.1900 Y2.4253 
G01 X-26.2199 Y2.1979 
G01 X-26.2793 Y1.9763 
G01 X-26.3671 Y1.7643 
G01 X-26.4818 Y1.5657 
G01 X-26.6215 Y1.3837 
G01 X-26.7837 Y1.2215 
G01 X-26.9657 Y1.0818 
G01 X-27.1643 Y0.9671 
G01 X-27.3763 Y0.8793 
G01 X-27.5979 Y0.8199 
G01 X-27.8253 Y0.7900 
G01 X-28.0547 Y0.7900 
G01 X-28.2821 Y0.8199 
G01 X-28.5037 Y0.8793 
G01 X-28.7157 Y0.9671 
G01 X-28.9143 Y1.0818 
G01 X-29.0963 Y1.2215 
G01 X-29.2585 Y1.3837 
G01 X-29.3982 Y1.5657 
G01 X-29.5129 Y1.7643 
G01 X-29.6007 Y1.9763 
G01 X-29.6601 Y2.1979 
G01 X-29.6900 Y2.4253 
G00 Z2.0000 
G00 X-4.2900 Y2.4253 
G01 Z-0.0250 F254.00 
G01 X-4.2900 Y2.6547 F508.00 
G01 X-4.2601 Y2.8821 
G01 X-4.2007 Y3.1037 
G01 X-4.1129 Y3.3157 
G01 X-3.9982 Y3.5143 
G01 X-3.8585 Y3.6963 
G01 X-3.6963 Y3.8585 
G01 X-3.5143 Y3.9982 
G01 X-3.3157 Y4.1129 
G01 X-3.1037 Y4.2007 
G01 X-2.8821 Y4.2601 
G01 X-2.6547 Y4.2900 
G01 X-2.4253 Y4.2900 
G01 X-2.1979 Y4.2601 
G01 X-1.9763 Y4.2007 
G01 X-1.7643 Y4.1129 
G01 X-1.5657 Y3.9982 
G01 X-1.3837 Y3.8585 
G01 X-1.2215 Y3.6963 
G01 X-1.0818 Y3.5143 
G01 X-0.9671 Y3.3157 
G01 X-0.8793 Y3.1037 
G01 X-0.8199 Y2.8821 
G01 X-0.7900 Y2.6547 
G01 X-0.7900 Y2.4253 
G01 X-0.8199 Y2.1979 
G01 X-0.8793 Y1.9763 
G01 X-0.9671 Y1.7643 
G01 X-1.0818 Y1.5657 
G01 X-1.2215 Y1.3837 
G01 X-1.3837 Y1.2215 
G01 X-1.5657 Y1.0818 
G01 X-1.7643 Y0.9671 
G01 X-1.9763 Y0.8793 
G01 X-2.1979 Y0.8199 
G01 X-2.4253 Y0.7900 
G01 X-2.6547 Y0.7900 
G01 X-2.8821 Y0.8199 
G01 X-3.1037 Y0.8793 
G01 X-3.3157 Y0.9671 
G01 X-3.5143 Y1.0818 
G01 X-3.6963 Y1.2215 
G01 X-3.8585 Y1.3837 
G01 X-3.9982 Y1.5657 
G01 X-4.1129 Y1.7643 
G01 X-4.2007 Y1.9763 
G01 X-4.2601 Y2.1979 
G01 X-4.2900 Y2.4253 
G00 Z2.0000 
G00 X-22.8600 Y10.3071 
G01 Z-0.0250 F254.00 
G01 X-22.3770 Y10.7901 F508.00 
G01 X-21.4777 Y10.7901 
