(.../pcb-gcode-3.6.0.4/pcb-gcode.ulp)
(Copyright 2005 - 2012 by John Johnson)
(See readme.txt for licensing terms.)
(This file generated from the board:)
(.../eagle/eagle/cncWTest/modbus.brd)
(Current profile is .../pcb-gcode-3.6.0.4/profiles/emc.pp  )
(This file generated 6/27/2014 11:10:14 AM)
(Settings from pcb-machine.h)
(  Tool Size)
(0.2000 )
(Z Axis Settings)
(  High     Up        Down     Drill)
(12.7000 	2.5400 	-0.1500 	-0.8128 )
(spindle on time = 3.0000)
(milling depth = -0.1500)
(text depth = -0.1270)
(tool change at 12.7000 15.2400 25.4000 )
(feed rate xy = F508.00 )
(feed rate z  = F254.00 )
(Settings from pcb-defaults.h)
(isolate min = 0.0154)
(isolate max = 0.5080)
(isolate step = 0.1270)
(Generated top outlines, top drill, bottom outlines, bottom drill, )
(Unit of measure: mm)
(Metric Mode)
G21
(Absolute Coordinates)
G90
G00 X0.0000 Y0.0000 
M03
G04 P3.000000
G00 Z2.5400 
G00 X-30.9580 Y6.7423 
G01 Z-0.1500 F254.00 
G01 X-30.8723 Y6.8280 F508.00 
G01 X-30.7715 Y6.8954 
G01 X-30.6595 Y6.9417 
G01 X-30.5406 Y6.9654 
G01 X-16.6116 Y6.9654 
G01 X-16.5714 Y6.9734 
G01 X-16.4486 Y6.9734 
G01 X-16.3282 Y6.9494 
G01 X-16.2147 Y6.9024 
G01 X-16.1126 Y6.8342 
G01 X-16.0258 Y6.7474 
G01 X-15.9576 Y6.6453 
G01 X-15.9106 Y6.5318 
G01 X-15.8866 Y6.4114 
G01 X-15.8866 Y6.2886 
G01 X-15.9106 Y6.1682 
G01 X-15.9576 Y6.0547 
G01 X-16.0258 Y5.9526 
G01 X-16.1126 Y5.8658 
G01 X-16.2147 Y5.7976 
G01 X-16.3282 Y5.7506 
G01 X-16.4486 Y5.7266 
G01 X-16.5714 Y5.7266 
G01 X-16.6116 Y5.7346 
G01 X-30.2251 Y5.7346 
G01 X-31.2430 Y4.7167 
G01 X-31.2658 Y4.6826 
G01 X-31.3526 Y4.5958 
G01 X-31.4547 Y4.5276 
G01 X-31.5682 Y4.4806 
G01 X-31.6886 Y4.4566 
G01 X-31.8114 Y4.4566 
G01 X-31.9318 Y4.4806 
G01 X-32.0453 Y4.5276 
G01 X-32.1474 Y4.5958 
G01 X-32.2342 Y4.6826 
G01 X-32.3024 Y4.7847 
G01 X-32.3494 Y4.8982 
G01 X-32.3734 Y5.0186 
G01 X-32.3734 Y5.1414 
G01 X-32.3494 Y5.2618 
G01 X-32.3024 Y5.3753 
G01 X-32.2342 Y5.4774 
G01 X-32.1474 Y5.5642 
G01 X-32.1133 Y5.5870 
G01 X-30.9580 Y6.7423 
G00 Z2.5400 
G00 X-6.8832 Y22.0842 
G01 Z-0.1500 F254.00 
G01 X-8.3568 Y22.0842 F508.00 
G01 X-8.5067 Y22.1140 
G01 X-8.6479 Y22.1725 
G01 X-8.7749 Y22.2574 
G01 X-8.8830 Y22.3655 
G01 X-8.9679 Y22.4925 
G01 X-9.0264 Y22.6337 
G01 X-9.0562 Y22.7836 
G01 X-9.0562 Y22.9364 
G01 X-9.0264 Y23.0863 
G01 X-8.9679 Y23.2275 
G01 X-8.8830 Y23.3545 
G01 X-8.7749 Y23.4626 
G01 X-8.6479 Y23.5475 
G01 X-8.5067 Y23.6060 
G01 X-8.3568 Y23.6358 
G01 X-6.8832 Y23.6358 
G01 X-6.7333 Y23.6060 
G01 X-6.5921 Y23.5475 
G01 X-6.4651 Y23.4626 
G01 X-6.3570 Y23.3545 
G01 X-6.2721 Y23.2275 
G01 X-6.2136 Y23.0863 
G01 X-6.1838 Y22.9364 
G01 X-6.1838 Y22.7836 
G01 X-6.2136 Y22.6337 
G01 X-6.2721 Y22.4925 
G01 X-6.3570 Y22.3655 
G01 X-6.4651 Y22.2574 
G01 X-6.5921 Y22.1725 
G01 X-6.7333 Y22.1140 
G01 X-6.8832 Y22.0842 
G00 Z2.5400 
G00 X-6.8832 Y19.5442 
G01 Z-0.1500 F254.00 
G01 X-8.3568 Y19.5442 F508.00 
G01 X-8.5067 Y19.5740 
G01 X-8.6479 Y19.6325 
G01 X-8.7558 Y19.7046 
G01 X-21.6506 Y19.7046 
G01 X-21.7695 Y19.7282 
G01 X-21.8815 Y19.7746 
G01 X-21.9823 Y19.8420 
G01 X-24.3849 Y22.2446 
G01 X-26.4151 Y22.2446 
G01 X-28.2945 Y20.3652 
G01 X-28.2945 Y19.9408 
G01 X-28.8308 Y19.4045 
G01 X-29.5892 Y19.4045 
G01 X-30.1255 Y19.9408 
G01 X-30.1255 Y20.6992 
G01 X-29.5892 Y21.2355 
G01 X-29.1648 Y21.2355 
G01 X-27.0623 Y23.3380 
G01 X-26.9615 Y23.4054 
G01 X-26.8495 Y23.4517 
G01 X-26.7306 Y23.4754 
G01 X-24.0694 Y23.4754 
G01 X-23.9505 Y23.4517 
G01 X-23.8385 Y23.4054 
G01 X-23.7377 Y23.3380 
G01 X-23.6520 Y23.2523 
G01 X-21.3351 Y20.9354 
G01 X-8.7558 Y20.9354 
G01 X-8.6479 Y21.0075 
G01 X-8.5067 Y21.0660 
G01 X-8.3568 Y21.0958 
G01 X-6.8832 Y21.0958 
G01 X-6.7333 Y21.0660 
G01 X-6.5921 Y21.0075 
G01 X-6.4651 Y20.9226 
G01 X-6.3570 Y20.8145 
G01 X-6.2721 Y20.6875 
G01 X-6.2136 Y20.5463 
G01 X-6.1838 Y20.3964 
G01 X-6.1838 Y20.2436 
G01 X-6.2136 Y20.0937 
G01 X-6.2721 Y19.9525 
G01 X-6.3570 Y19.8255 
G01 X-6.4651 Y19.7174 
G01 X-6.5921 Y19.6325 
G01 X-6.7333 Y19.5740 
G01 X-6.8832 Y19.5442 
G00 Z2.5400 
G00 X-6.8832 Y17.0042 
G01 Z-0.1500 F254.00 
G01 X-8.3568 Y17.0042 F508.00 
G01 X-8.5067 Y17.0340 
G01 X-8.6479 Y17.0925 
G01 X-8.7558 Y17.1646 
G01 X-18.7951 Y17.1646 
G01 X-23.2145 Y12.7452 
G01 X-23.2145 Y12.3208 
G01 X-23.7508 Y11.7845 
G01 X-24.5092 Y11.7845 
G01 X-25.0455 Y12.3208 
G01 X-25.0455 Y13.0792 
G01 X-24.5092 Y13.6155 
G01 X-24.0848 Y13.6155 
G01 X-19.4423 Y18.2580 
G01 X-19.3415 Y18.3254 
G01 X-19.2295 Y18.3717 
G01 X-19.1106 Y18.3954 
G01 X-8.7558 Y18.3954 
G01 X-8.6479 Y18.4675 
G01 X-8.5067 Y18.5260 
G01 X-8.3568 Y18.5558 
G01 X-6.8832 Y18.5558 
G01 X-6.7333 Y18.5260 
G01 X-6.5921 Y18.4675 
G01 X-6.4651 Y18.3826 
G01 X-6.3570 Y18.2745 
G01 X-6.2721 Y18.1475 
G01 X-6.2136 Y18.0063 
G01 X-6.1838 Y17.8564 
G01 X-6.1838 Y17.7036 
G01 X-6.2136 Y17.5537 
G01 X-6.2721 Y17.4125 
G01 X-6.3570 Y17.2855 
G01 X-6.4651 Y17.1774 
G01 X-6.5921 Y17.0925 
G01 X-6.7333 Y17.0340 
G01 X-6.8832 Y17.0042 
G00 Z2.5400 
G00 X-6.8832 Y14.4642 
G01 Z-0.1500 F254.00 
G01 X-8.3568 Y14.4642 F508.00 
G01 X-8.5067 Y14.4940 
G01 X-8.6479 Y14.5525 
G01 X-8.7558 Y14.6246 
G01 X-18.7951 Y14.6246 
G01 X-23.6520 Y9.7677 
G01 X-23.7377 Y9.6820 
G01 X-23.8385 Y9.6146 
G01 X-23.9505 Y9.5683 
G01 X-24.0694 Y9.5446 
G01 X-29.2706 Y9.5446 
G01 X-29.3895 Y9.5683 
G01 X-29.5015 Y9.6146 
G01 X-29.6023 Y9.6820 
G01 X-31.7048 Y11.7845 
G01 X-32.1292 Y11.7845 
G01 X-32.6655 Y12.3208 
G01 X-32.6655 Y13.0792 
G01 X-32.1292 Y13.6155 
G01 X-31.3708 Y13.6155 
G01 X-30.8345 Y13.0792 
G01 X-30.8345 Y12.6548 
G01 X-28.9551 Y10.7754 
G01 X-24.3849 Y10.7754 
G01 X-19.4423 Y15.7180 
G01 X-19.3415 Y15.7854 
G01 X-19.2295 Y15.8317 
G01 X-19.1106 Y15.8554 
G01 X-8.7558 Y15.8554 
G01 X-8.6479 Y15.9275 
G01 X-8.5067 Y15.9860 
G01 X-8.3568 Y16.0158 
G01 X-6.8832 Y16.0158 
G01 X-6.7333 Y15.9860 
G01 X-6.5921 Y15.9275 
G01 X-6.4651 Y15.8426 
G01 X-6.3570 Y15.7345 
G01 X-6.2721 Y15.6075 
G01 X-6.2136 Y15.4663 
G01 X-6.1838 Y15.3164 
G01 X-6.1838 Y15.1636 
G01 X-6.2136 Y15.0137 
G01 X-6.2721 Y14.8725 
G01 X-6.3570 Y14.7455 
G01 X-6.4651 Y14.6374 
G01 X-6.5921 Y14.5525 
G01 X-6.7333 Y14.4940 
G01 X-6.8832 Y14.4642 
G00 Z2.5400 
G00 X-6.8832 Y11.9242 
G01 Z-0.1500 F254.00 
G01 X-8.3568 Y11.9242 F508.00 
G01 X-8.5067 Y11.9540 
G01 X-8.6479 Y12.0125 
G01 X-8.7558 Y12.0846 
G01 X-18.7951 Y12.0846 
G01 X-22.4677 Y8.4120 
G01 X-22.5685 Y8.3446 
G01 X-22.6805 Y8.2983 
G01 X-22.7994 Y8.2746 
G01 X-34.3506 Y8.2746 
G01 X-34.4695 Y8.2983 
G01 X-34.5815 Y8.3446 
G01 X-34.6823 Y8.4120 
G01 X-34.7680 Y8.4977 
G01 X-34.8354 Y8.5985 
G01 X-34.8817 Y8.7105 
G01 X-34.9054 Y8.8294 
G01 X-34.9054 Y12.7606 
G01 X-34.8817 Y12.8795 
G01 X-34.8354 Y12.9915 
G01 X-34.7680 Y13.0923 
G01 X-34.6823 Y13.1780 
G01 X-32.1423 Y15.7180 
G01 X-32.0415 Y15.7854 
G01 X-31.9295 Y15.8317 
G01 X-31.8106 Y15.8554 
G01 X-29.4649 Y15.8554 
G01 X-25.0455 Y20.2748 
G01 X-25.0455 Y20.6992 
G01 X-24.5092 Y21.2355 
G01 X-23.7508 Y21.2355 
G01 X-23.2145 Y20.6992 
G01 X-23.2145 Y19.9408 
G01 X-23.7508 Y19.4045 
G01 X-24.1752 Y19.4045 
G01 X-28.7320 Y14.8477 
G01 X-28.8177 Y14.7620 
G01 X-28.9185 Y14.6946 
G01 X-29.0305 Y14.6483 
G01 X-29.1494 Y14.6246 
G01 X-31.4951 Y14.6246 
G01 X-33.6746 Y12.4451 
G01 X-33.6746 Y9.5054 
G01 X-23.1149 Y9.5054 
G01 X-19.5570 Y13.0633 
G01 X-19.5342 Y13.0974 
G01 X-19.4474 Y13.1842 
G01 X-19.3453 Y13.2524 
G01 X-19.2318 Y13.2994 
G01 X-19.1114 Y13.3234 
G01 X-18.9886 Y13.3234 
G01 X-18.9484 Y13.3154 
G01 X-8.7558 Y13.3154 
G01 X-8.6479 Y13.3875 
G01 X-8.5067 Y13.4460 
G01 X-8.3568 Y13.4758 
G01 X-6.8832 Y13.4758 
G01 X-6.7333 Y13.4460 
G01 X-6.5921 Y13.3875 
G01 X-6.4651 Y13.3026 
G01 X-6.3570 Y13.1945 
G01 X-6.2721 Y13.0675 
G01 X-6.2136 Y12.9263 
G01 X-6.1838 Y12.7764 
G01 X-6.1838 Y12.6236 
G01 X-6.2136 Y12.4737 
G01 X-6.2721 Y12.3325 
G01 X-6.3570 Y12.2055 
G01 X-6.4651 Y12.0974 
G01 X-6.5921 Y12.0125 
G01 X-6.7333 Y11.9540 
G01 X-6.8832 Y11.9242 
G00 Z2.5400 
G00 X-6.8832 Y9.3842 
G01 Z-0.1500 F254.00 
G01 X-8.3568 Y9.3842 F508.00 
G01 X-8.5067 Y9.4140 
G01 X-8.6479 Y9.4725 
G01 X-8.7749 Y9.5574 
G01 X-8.8830 Y9.6655 
G01 X-8.9679 Y9.7925 
G01 X-9.0264 Y9.9337 
G01 X-9.0562 Y10.0836 
G01 X-9.0562 Y10.2364 
G01 X-9.0264 Y10.3863 
G01 X-8.9679 Y10.5275 
G01 X-8.8830 Y10.6545 
G01 X-8.7749 Y10.7626 
G01 X-8.6479 Y10.8475 
G01 X-8.5067 Y10.9060 
G01 X-8.3568 Y10.9358 
G01 X-6.8832 Y10.9358 
G01 X-6.7333 Y10.9060 
G01 X-6.5921 Y10.8475 
G01 X-6.4651 Y10.7626 
G01 X-6.3570 Y10.6545 
G01 X-6.2721 Y10.5275 
G01 X-6.2136 Y10.3863 
G01 X-6.1838 Y10.2364 
G01 X-6.1838 Y10.0836 
G01 X-6.2136 Y9.9337 
G01 X-6.2721 Y9.7925 
G01 X-6.3570 Y9.6655 
G01 X-6.4651 Y9.5574 
G01 X-6.5921 Y9.4725 
G01 X-6.7333 Y9.4140 
G01 X-6.8832 Y9.3842 
G00 Z2.5400 
G00 X-27.5855 Y19.9408 
G01 Z-0.1500 F254.00 
G01 X-27.5855 Y20.6992 F508.00 
G01 X-27.0492 Y21.2355 
G01 X-26.2908 Y21.2355 
G01 X-25.7545 Y20.6992 
G01 X-25.7545 Y19.9408 
G01 X-26.2908 Y19.4045 
G01 X-27.0492 Y19.4045 
G01 X-27.5855 Y19.9408 
G00 Z2.5400 
G00 X-32.6655 Y19.9408 
G01 Z-0.1500 F254.00 
G01 X-32.6655 Y20.6992 F508.00 
G01 X-32.1292 Y21.2355 
G01 X-31.3708 Y21.2355 
G01 X-30.8345 Y20.6992 
G01 X-30.8345 Y19.9408 
G01 X-31.3708 Y19.4045 
G01 X-32.1292 Y19.4045 
G01 X-32.6655 Y19.9408 
G00 Z2.5400 
G00 X-30.1255 Y12.3208 
G01 Z-0.1500 F254.00 
G01 X-30.1255 Y13.0792 F508.00 
G01 X-29.5892 Y13.6155 
G01 X-28.8308 Y13.6155 
G01 X-28.2945 Y13.0792 
G01 X-28.2945 Y12.3208 
G01 X-28.8308 Y11.7845 
G01 X-29.5892 Y11.7845 
G01 X-30.1255 Y12.3208 
G00 Z2.5400 
G00 X-27.5855 Y12.3208 
G01 Z-0.1500 F254.00 
G01 X-27.5855 Y13.0792 F508.00 
G01 X-27.0492 Y13.6155 
G01 X-26.2908 Y13.6155 
G01 X-25.7545 Y13.0792 
G01 X-25.7545 Y12.3208 
G01 X-26.2908 Y11.7845 
G01 X-27.0492 Y11.7845 
G01 X-27.5855 Y12.3208 
G00 Z2.5400 
G00 X-31.0567 Y6.8233 
G01 Z-0.1500 F254.00 
G01 X-30.9533 Y6.9267 F508.00 
G01 X-30.8317 Y7.0079 
G01 X-30.6966 Y7.0639 
G01 X-30.5531 Y7.0924 
G01 X-16.6241 Y7.0924 
G01 X-16.5839 Y7.1004 
G01 X-16.4361 Y7.1004 
G01 X-16.2911 Y7.0716 
G01 X-16.1546 Y7.0150 
G01 X-16.0316 Y6.9329 
G01 X-15.9271 Y6.8284 
G01 X-15.8450 Y6.7054 
G01 X-15.7884 Y6.5689 
G01 X-15.7596 Y6.4239 
G01 X-15.7596 Y6.2761 
G01 X-15.7884 Y6.1311 
G01 X-15.8450 Y5.9946 
G01 X-15.9271 Y5.8716 
G01 X-16.0316 Y5.7671 
G01 X-16.1546 Y5.6850 
G01 X-16.2911 Y5.6284 
G01 X-16.4361 Y5.5996 
G01 X-16.5839 Y5.5996 
G01 X-16.6241 Y5.6076 
G01 X-30.1725 Y5.6076 
G01 X-31.1443 Y4.6357 
G01 X-31.1671 Y4.6016 
G01 X-31.2716 Y4.4971 
G01 X-31.3946 Y4.4150 
G01 X-31.5311 Y4.3584 
G01 X-31.6761 Y4.3296 
G01 X-31.8239 Y4.3296 
G01 X-31.9689 Y4.3584 
G01 X-32.1054 Y4.4150 
G01 X-32.2283 Y4.4971 
G01 X-32.3329 Y4.6016 
G01 X-32.4150 Y4.7245 
G01 X-32.4716 Y4.8611 
G01 X-32.5004 Y5.0061 
G01 X-32.5004 Y5.1539 
G01 X-32.4716 Y5.2989 
G01 X-32.4150 Y5.4354 
G01 X-32.3329 Y5.5583 
G01 X-32.2283 Y5.6629 
G01 X-32.1942 Y5.6857 
G01 X-31.0567 Y6.8233 
G00 Z2.5400 
G00 X-6.8707 Y21.9572 
G01 Z-0.1500 F254.00 
G01 X-8.3693 Y21.9572 F508.00 
G01 X-8.5437 Y21.9919 
G01 X-8.7080 Y22.0600 
G01 X-8.8559 Y22.1588 
G01 X-8.9816 Y22.2845 
G01 X-9.0804 Y22.4324 
G01 X-9.1485 Y22.5967 
G01 X-9.1832 Y22.7711 
G01 X-9.1832 Y22.9489 
G01 X-9.1485 Y23.1233 
G01 X-9.0804 Y23.2876 
G01 X-8.9816 Y23.4355 
G01 X-8.8559 Y23.5612 
G01 X-8.7080 Y23.6600 
G01 X-8.5437 Y23.7281 
G01 X-8.3693 Y23.7628 
G01 X-6.8707 Y23.7628 
G01 X-6.6963 Y23.7281 
G01 X-6.5320 Y23.6600 
G01 X-6.3841 Y23.5612 
G01 X-6.2584 Y23.4355 
G01 X-6.1596 Y23.2876 
G01 X-6.0915 Y23.1233 
G01 X-6.0568 Y22.9489 
G01 X-6.0568 Y22.7711 
G01 X-6.0915 Y22.5967 
G01 X-6.1596 Y22.4324 
G01 X-6.2584 Y22.2845 
G01 X-6.3841 Y22.1588 
G01 X-6.5320 Y22.0600 
G01 X-6.6963 Y21.9919 
G01 X-6.8707 Y21.9572 
G00 Z2.5400 
G00 X-6.8707 Y19.4172 
G01 Z-0.1500 F254.00 
G01 X-8.3693 Y19.4172 F508.00 
G01 X-8.5437 Y19.4519 
G01 X-8.7080 Y19.5200 
G01 X-8.7943 Y19.5776 
G01 X-21.6631 Y19.5776 
G01 X-21.8066 Y19.6061 
G01 X-21.9417 Y19.6621 
G01 X-22.0633 Y19.7433 
G01 X-24.4375 Y22.1176 
G01 X-26.3625 Y22.1176 
G01 X-28.1675 Y20.3126 
G01 X-28.1675 Y19.8882 
G01 X-28.7782 Y19.2775 
G01 X-29.6418 Y19.2775 
G01 X-30.2525 Y19.8882 
G01 X-30.2525 Y20.7518 
G01 X-29.6418 Y21.3625 
G01 X-29.2174 Y21.3625 
G01 X-27.1433 Y23.4367 
G01 X-27.0217 Y23.5179 
G01 X-26.8865 Y23.5739 
G01 X-26.7431 Y23.6024 
G01 X-24.0569 Y23.6024 
G01 X-23.9134 Y23.5739 
G01 X-23.7783 Y23.5179 
G01 X-23.6567 Y23.4367 
G01 X-23.5533 Y23.3332 
G01 X-21.2825 Y21.0624 
G01 X-8.7943 Y21.0624 
G01 X-8.7080 Y21.1200 
G01 X-8.5437 Y21.1881 
G01 X-8.3693 Y21.2228 
G01 X-6.8707 Y21.2228 
G01 X-6.6963 Y21.1881 
G01 X-6.5320 Y21.1200 
G01 X-6.3841 Y21.0212 
G01 X-6.2584 Y20.8955 
G01 X-6.1596 Y20.7476 
G01 X-6.0915 Y20.5833 
G01 X-6.0568 Y20.4089 
G01 X-6.0568 Y20.2311 
G01 X-6.0915 Y20.0567 
G01 X-6.1596 Y19.8924 
G01 X-6.2584 Y19.7445 
G01 X-6.3841 Y19.6188 
G01 X-6.5320 Y19.5200 
G01 X-6.6963 Y19.4519 
G01 X-6.8707 Y19.4172 
G00 Z2.5400 
G00 X-6.8707 Y16.8772 
G01 Z-0.1500 F254.00 
G01 X-8.3693 Y16.8772 F508.00 
G01 X-8.5437 Y16.9119 
G01 X-8.7080 Y16.9800 
G01 X-8.7943 Y17.0376 
G01 X-18.7425 Y17.0376 
G01 X-23.0875 Y12.6926 
G01 X-23.0875 Y12.2682 
G01 X-23.6982 Y11.6575 
G01 X-24.5618 Y11.6575 
G01 X-25.1725 Y12.2682 
G01 X-25.1725 Y13.1318 
G01 X-24.5618 Y13.7425 
G01 X-24.1374 Y13.7425 
G01 X-19.5233 Y18.3567 
G01 X-19.4017 Y18.4379 
G01 X-19.2666 Y18.4939 
G01 X-19.1231 Y18.5224 
G01 X-8.7943 Y18.5224 
G01 X-8.7080 Y18.5800 
G01 X-8.5437 Y18.6481 
G01 X-8.3693 Y18.6828 
G01 X-6.8707 Y18.6828 
G01 X-6.6963 Y18.6481 
G01 X-6.5320 Y18.5800 
G01 X-6.3841 Y18.4812 
G01 X-6.2584 Y18.3555 
G01 X-6.1596 Y18.2076 
G01 X-6.0915 Y18.0433 
G01 X-6.0568 Y17.8689 
G01 X-6.0568 Y17.6911 
G01 X-6.0915 Y17.5167 
G01 X-6.1596 Y17.3524 
G01 X-6.2584 Y17.2045 
G01 X-6.3841 Y17.0787 
G01 X-6.5320 Y16.9800 
G01 X-6.6963 Y16.9119 
G01 X-6.8707 Y16.8772 
G00 Z2.5400 
G00 X-6.8707 Y14.3372 
G01 Z-0.1500 F254.00 
G01 X-8.3693 Y14.3372 F508.00 
G01 X-8.5437 Y14.3719 
G01 X-8.7080 Y14.4400 
G01 X-8.7943 Y14.4976 
G01 X-18.7425 Y14.4976 
G01 X-23.5533 Y9.6867 
G01 X-23.6077 Y9.6324 
G01 X-23.1675 Y9.6324 
G01 X-19.6557 Y13.1442 
G01 X-19.6329 Y13.1784 
G01 X-19.5283 Y13.2829 
G01 X-19.4054 Y13.3650 
G01 X-19.2689 Y13.4216 
G01 X-19.1239 Y13.4504 
G01 X-18.9761 Y13.4504 
G01 X-18.9359 Y13.4424 
G01 X-8.7943 Y13.4424 
G01 X-8.7080 Y13.5000 
G01 X-8.5437 Y13.5681 
G01 X-8.3693 Y13.6028 
G01 X-6.8707 Y13.6028 
G01 X-6.6963 Y13.5681 
G01 X-6.5320 Y13.5000 
G01 X-6.3841 Y13.4012 
G01 X-6.2584 Y13.2755 
G01 X-6.1596 Y13.1276 
G01 X-6.0915 Y12.9633 
G01 X-6.0568 Y12.7889 
G01 X-6.0568 Y12.6111 
G01 X-6.0915 Y12.4367 
G01 X-6.1596 Y12.2724 
G01 X-6.2584 Y12.1245 
G01 X-6.3841 Y11.9988 
G01 X-6.5320 Y11.9000 
G01 X-6.6963 Y11.8319 
G01 X-6.8707 Y11.7972 
G01 X-8.3693 Y11.7972 
G01 X-8.5437 Y11.8319 
G01 X-8.7080 Y11.9000 
G01 X-8.7943 Y11.9576 
G01 X-18.7425 Y11.9576 
G01 X-22.3867 Y8.3133 
G01 X-22.5083 Y8.2321 
G01 X-22.6434 Y8.1761 
G01 X-22.7869 Y8.1476 
G01 X-34.3631 Y8.1476 
G01 X-34.5066 Y8.1761 
G01 X-34.6417 Y8.2321 
G01 X-34.7632 Y8.3133 
G01 X-34.8667 Y8.4167 
G01 X-34.9479 Y8.5383 
G01 X-35.0039 Y8.6734 
G01 X-35.0324 Y8.8169 
G01 X-35.0324 Y12.7731 
G01 X-35.0039 Y12.9166 
G01 X-34.9479 Y13.0517 
G01 X-34.8667 Y13.1733 
G01 X-34.7632 Y13.2767 
G01 X-32.2233 Y15.8167 
G01 X-32.1017 Y15.8979 
G01 X-31.9666 Y15.9539 
G01 X-31.8231 Y15.9824 
G01 X-29.5175 Y15.9824 
G01 X-25.1725 Y20.3274 
G01 X-25.1725 Y20.7518 
G01 X-24.5618 Y21.3625 
G01 X-23.6982 Y21.3625 
G01 X-23.0875 Y20.7518 
G01 X-23.0875 Y19.8882 
G01 X-23.6982 Y19.2775 
G01 X-24.1226 Y19.2775 
G01 X-28.6333 Y14.7667 
G01 X-28.7367 Y14.6633 
G01 X-28.8583 Y14.5821 
G01 X-28.9934 Y14.5261 
G01 X-29.1369 Y14.4976 
G01 X-31.4425 Y14.4976 
G01 X-33.5476 Y12.3925 
G01 X-33.5476 Y9.6324 
G01 X-29.7323 Y9.6324 
G01 X-31.7574 Y11.6575 
G01 X-32.1818 Y11.6575 
G01 X-32.7925 Y12.2682 
G01 X-32.7925 Y13.1318 
G01 X-32.1818 Y13.7425 
G01 X-31.3182 Y13.7425 
G01 X-30.7075 Y13.1318 
G01 X-30.7075 Y12.7074 
G01 X-28.9025 Y10.9024 
G01 X-24.4375 Y10.9024 
G01 X-19.5233 Y15.8167 
G01 X-19.4017 Y15.8979 
G01 X-19.2666 Y15.9539 
G01 X-19.1231 Y15.9824 
G01 X-8.7943 Y15.9824 
G01 X-8.7080 Y16.0400 
G01 X-8.5437 Y16.1081 
G01 X-8.3693 Y16.1428 
G01 X-6.8707 Y16.1428 
G01 X-6.6963 Y16.1081 
G01 X-6.5320 Y16.0400 
G01 X-6.3841 Y15.9412 
G01 X-6.2584 Y15.8155 
G01 X-6.1596 Y15.6676 
G01 X-6.0915 Y15.5033 
G01 X-6.0568 Y15.3289 
G01 X-6.0568 Y15.1511 
G01 X-6.0915 Y14.9767 
G01 X-6.1596 Y14.8124 
G01 X-6.2584 Y14.6645 
G01 X-6.3841 Y14.5388 
G01 X-6.5320 Y14.4400 
G01 X-6.6963 Y14.3719 
G01 X-6.8707 Y14.3372 
G00 Z2.5400 
G00 X-6.8707 Y9.2572 
G01 Z-0.1500 F254.00 
G01 X-8.3693 Y9.2572 F508.00 
G01 X-8.5437 Y9.2919 
G01 X-8.7080 Y9.3600 
G01 X-8.8559 Y9.4588 
G01 X-8.9816 Y9.5845 
G01 X-9.0804 Y9.7324 
G01 X-9.1485 Y9.8967 
G01 X-9.1832 Y10.0711 
G01 X-9.1832 Y10.2489 
G01 X-9.1485 Y10.4233 
G01 X-9.0804 Y10.5876 
G01 X-8.9816 Y10.7355 
G01 X-8.8559 Y10.8612 
G01 X-8.7080 Y10.9600 
G01 X-8.5437 Y11.0281 
G01 X-8.3693 Y11.0628 
G01 X-6.8707 Y11.0628 
G01 X-6.6963 Y11.0281 
G01 X-6.5320 Y10.9600 
G01 X-6.3841 Y10.8612 
G01 X-6.2584 Y10.7355 
G01 X-6.1596 Y10.5876 
G01 X-6.0915 Y10.4233 
G01 X-6.0568 Y10.2489 
G01 X-6.0568 Y10.0711 
G01 X-6.0915 Y9.8967 
G01 X-6.1596 Y9.7324 
G01 X-6.2584 Y9.5845 
G01 X-6.3841 Y9.4588 
G01 X-6.5320 Y9.3600 
G01 X-6.6963 Y9.2919 
G01 X-6.8707 Y9.2572 
G00 Z2.5400 
G00 X-27.7125 Y19.8882 
G01 Z-0.1500 F254.00 
G01 X-27.7125 Y20.7518 F508.00 
G01 X-27.1018 Y21.3625 
G01 X-26.2382 Y21.3625 
G01 X-25.6275 Y20.7518 
G01 X-25.6275 Y19.8882 
G01 X-26.2382 Y19.2775 
G01 X-27.1018 Y19.2775 
G01 X-27.7125 Y19.8882 
G00 Z2.5400 
G00 X-32.7925 Y19.8882 
G01 Z-0.1500 F254.00 
G01 X-32.7925 Y20.7518 F508.00 
G01 X-32.1818 Y21.3625 
G01 X-31.3182 Y21.3625 
G01 X-30.7075 Y20.7518 
G01 X-30.7075 Y19.8882 
G01 X-31.3182 Y19.2775 
G01 X-32.1818 Y19.2775 
G01 X-32.7925 Y19.8882 
G00 Z2.5400 
G00 X-30.2525 Y12.2682 
G01 Z-0.1500 F254.00 
G01 X-30.2525 Y13.1318 F508.00 
G01 X-29.6418 Y13.7425 
G01 X-28.7782 Y13.7425 
G01 X-28.1675 Y13.1318 
G01 X-28.1675 Y12.2682 
G01 X-28.7782 Y11.6575 
G01 X-29.6418 Y11.6575 
G01 X-30.2525 Y12.2682 
G00 Z2.5400 
G00 X-27.7125 Y12.2682 
G01 Z-0.1500 F254.00 
G01 X-27.7125 Y13.1318 F508.00 
G01 X-27.1018 Y13.7425 
G01 X-26.2382 Y13.7425 
G01 X-25.6275 Y13.1318 
G01 X-25.6275 Y12.2682 
G01 X-26.2382 Y11.6575 
G01 X-27.1018 Y11.6575 
G01 X-27.7125 Y12.2682 
G00 Z2.5400 
G00 X-32.2344 Y11.5305 
G01 Z-0.1500 F254.00 
G01 X-32.9195 Y12.2156 F508.00 
G01 X-32.9195 Y12.8410 
G01 X-33.4206 Y12.3399 
G01 X-33.4206 Y9.7594 
G01 X-30.0389 Y9.7594 
G01 X-31.8100 Y11.5305 
G01 X-32.2344 Y11.5305 
G00 Z2.5400 
G00 X-26.1856 Y21.4895 
G01 Z-0.1500 F254.00 
G01 X-25.5005 Y20.8044 F508.00 
G01 X-25.5005 Y20.1790 
G01 X-25.2995 Y20.3800 
G01 X-25.2995 Y20.8044 
G01 X-24.6144 Y21.4895 
G01 X-23.9890 Y21.4895 
G01 X-24.4901 Y21.9906 
G01 X-26.3099 Y21.9906 
G01 X-26.8110 Y21.4895 
G01 X-26.1856 Y21.4895 
G00 Z2.5400 
G00 X-31.1553 Y6.9042 
G01 Z-0.1500 F254.00 
G01 X-31.0342 Y7.0253 F508.00 
G01 X-30.8918 Y7.1204 
G01 X-30.7336 Y7.1860 
G01 X-30.5656 Y7.2194 
G01 X-16.6366 Y7.2194 
G01 X-16.5964 Y7.2274 
G01 X-16.4236 Y7.2274 
G01 X-16.2541 Y7.1937 
G01 X-16.0944 Y7.1275 
G01 X-15.9507 Y7.0315 
G01 X-15.8285 Y6.9093 
G01 X-15.7325 Y6.7656 
G01 X-15.6663 Y6.6059 
G01 X-15.6326 Y6.4364 
G01 X-15.6326 Y6.2636 
G01 X-15.6663 Y6.0941 
G01 X-15.7325 Y5.9344 
G01 X-15.8285 Y5.7907 
G01 X-15.9507 Y5.6685 
G01 X-16.0944 Y5.5725 
G01 X-16.2541 Y5.5063 
G01 X-16.4236 Y5.4726 
G01 X-16.5964 Y5.4726 
G01 X-16.6366 Y5.4806 
G01 X-30.1199 Y5.4806 
G01 X-31.0457 Y4.5548 
G01 X-31.0685 Y4.5207 
G01 X-31.1907 Y4.3985 
G01 X-31.3344 Y4.3025 
G01 X-31.4941 Y4.2363 
G01 X-31.6636 Y4.2026 
G01 X-31.8364 Y4.2026 
G01 X-32.0059 Y4.2363 
G01 X-32.1656 Y4.3025 
G01 X-32.3093 Y4.3985 
G01 X-32.4315 Y4.5207 
G01 X-32.5275 Y4.6644 
G01 X-32.5937 Y4.8241 
G01 X-32.6274 Y4.9936 
G01 X-32.6274 Y5.1664 
G01 X-32.5937 Y5.3359 
G01 X-32.5275 Y5.4956 
G01 X-32.4315 Y5.6393 
G01 X-32.3093 Y5.7615 
G01 X-32.2752 Y5.7843 
G01 X-31.1553 Y6.9042 
G00 Z2.5400 
G00 X-6.8582 Y21.8302 
G01 Z-0.1500 F254.00 
G01 X-8.3818 Y21.8302 F508.00 
G01 X-8.5808 Y21.8698 
G01 X-8.7682 Y21.9474 
G01 X-8.9369 Y22.0601 
G01 X-9.0803 Y22.2035 
G01 X-9.1930 Y22.3722 
G01 X-9.2706 Y22.5596 
G01 X-9.3102 Y22.7586 
G01 X-9.3102 Y22.9614 
G01 X-9.2706 Y23.1604 
G01 X-9.1930 Y23.3478 
G01 X-9.0803 Y23.5165 
G01 X-8.9369 Y23.6599 
G01 X-8.7682 Y23.7726 
G01 X-8.5808 Y23.8502 
G01 X-8.3818 Y23.8898 
G01 X-6.8582 Y23.8898 
G01 X-6.6592 Y23.8502 
G01 X-6.4718 Y23.7726 
G01 X-6.3031 Y23.6599 
G01 X-6.1597 Y23.5165 
G01 X-6.0470 Y23.3478 
G01 X-5.9694 Y23.1604 
G01 X-5.9298 Y22.9614 
G01 X-5.9298 Y22.7586 
G01 X-5.9694 Y22.5596 
G01 X-6.0470 Y22.3722 
G01 X-6.1597 Y22.2035 
G01 X-6.3031 Y22.0601 
G01 X-6.4718 Y21.9474 
G01 X-6.6592 Y21.8698 
G01 X-6.8582 Y21.8302 
G00 Z2.5400 
G00 X-6.8582 Y19.2902 
G01 Z-0.1500 F254.00 
G01 X-8.3818 Y19.2902 F508.00 
G01 X-8.5808 Y19.3298 
G01 X-8.7682 Y19.4074 
G01 X-8.8328 Y19.4506 
G01 X-21.6756 Y19.4506 
G01 X-21.8436 Y19.4840 
G01 X-22.0018 Y19.5495 
G01 X-22.1442 Y19.6447 
G01 X-22.9605 Y20.4610 
G01 X-22.9605 Y19.8356 
G01 X-23.6456 Y19.1505 
G01 X-24.0700 Y19.1505 
G01 X-28.5347 Y14.6858 
G01 X-28.6558 Y14.5647 
G01 X-28.7982 Y14.4695 
G01 X-28.9564 Y14.4040 
G01 X-29.1244 Y14.3706 
G01 X-31.3899 Y14.3706 
G01 X-31.8910 Y13.8695 
G01 X-31.2656 Y13.8695 
G01 X-30.5805 Y13.1844 
G01 X-30.5805 Y12.7600 
G01 X-30.3795 Y12.5590 
G01 X-30.3795 Y13.1844 
G01 X-29.6944 Y13.8695 
G01 X-28.7256 Y13.8695 
G01 X-28.0405 Y13.1844 
G01 X-28.0405 Y12.2156 
G01 X-28.7256 Y11.5305 
G01 X-29.3510 Y11.5305 
G01 X-28.8499 Y11.0294 
G01 X-24.4901 Y11.0294 
G01 X-23.9890 Y11.5305 
G01 X-24.6144 Y11.5305 
G01 X-25.2995 Y12.2156 
G01 X-25.2995 Y13.1844 
G01 X-24.6144 Y13.8695 
G01 X-24.1900 Y13.8695 
G01 X-19.6042 Y18.4553 
G01 X-19.4618 Y18.5505 
G01 X-19.3036 Y18.6160 
G01 X-19.1356 Y18.6494 
G01 X-8.8328 Y18.6494 
G01 X-8.7682 Y18.6926 
G01 X-8.5808 Y18.7702 
G01 X-8.3818 Y18.8098 
G01 X-6.8582 Y18.8098 
G01 X-6.6592 Y18.7702 
G01 X-6.4718 Y18.6926 
G01 X-6.3031 Y18.5799 
G01 X-6.1597 Y18.4365 
G01 X-6.0470 Y18.2678 
G01 X-5.9694 Y18.0804 
G01 X-5.9298 Y17.8814 
G01 X-5.9298 Y17.6786 
G01 X-5.9694 Y17.4796 
G01 X-6.0470 Y17.2922 
G01 X-6.1597 Y17.1235 
G01 X-6.3031 Y16.9801 
G01 X-6.4718 Y16.8674 
G01 X-6.6592 Y16.7898 
G01 X-6.8582 Y16.7502 
G01 X-8.3818 Y16.7502 
G01 X-8.5808 Y16.7898 
G01 X-8.7682 Y16.8674 
G01 X-8.8328 Y16.9106 
G01 X-18.6899 Y16.9106 
G01 X-22.9605 Y12.6400 
G01 X-22.9605 Y12.5590 
G01 X-19.6042 Y15.9153 
G01 X-19.4618 Y16.0105 
G01 X-19.3036 Y16.0760 
G01 X-19.1356 Y16.1094 
G01 X-8.8328 Y16.1094 
G01 X-8.7682 Y16.1526 
G01 X-8.5808 Y16.2302 
G01 X-8.3818 Y16.2698 
G01 X-6.8582 Y16.2698 
G01 X-6.6592 Y16.2302 
G01 X-6.4718 Y16.1526 
G01 X-6.3031 Y16.0399 
G01 X-6.1597 Y15.8965 
G01 X-6.0470 Y15.7278 
G01 X-5.9694 Y15.5404 
G01 X-5.9298 Y15.3414 
G01 X-5.9298 Y15.1386 
G01 X-5.9694 Y14.9396 
G01 X-6.0470 Y14.7522 
G01 X-6.1597 Y14.5835 
G01 X-6.3031 Y14.4401 
G01 X-6.4718 Y14.3274 
G01 X-6.6592 Y14.2498 
G01 X-6.8582 Y14.2102 
G01 X-8.3818 Y14.2102 
G01 X-8.5808 Y14.2498 
G01 X-8.7682 Y14.3274 
G01 X-8.8328 Y14.3706 
G01 X-18.6899 Y14.3706 
G01 X-23.3011 Y9.7594 
G01 X-23.2201 Y9.7594 
G01 X-19.7543 Y13.2252 
G01 X-19.7315 Y13.2593 
G01 X-19.6093 Y13.3815 
G01 X-19.4656 Y13.4775 
G01 X-19.3059 Y13.5437 
G01 X-19.1364 Y13.5774 
G01 X-18.9636 Y13.5774 
G01 X-18.9234 Y13.5694 
G01 X-8.8328 Y13.5694 
G01 X-8.7682 Y13.6126 
G01 X-8.5808 Y13.6902 
G01 X-8.3818 Y13.7298 
G01 X-6.8582 Y13.7298 
G01 X-6.6592 Y13.6902 
G01 X-6.4718 Y13.6126 
G01 X-6.3031 Y13.4999 
G01 X-6.1597 Y13.3565 
G01 X-6.0470 Y13.1878 
G01 X-5.9694 Y13.0004 
G01 X-5.9298 Y12.8014 
G01 X-5.9298 Y12.5986 
G01 X-5.9694 Y12.3996 
G01 X-6.0470 Y12.2122 
G01 X-6.1597 Y12.0435 
G01 X-6.3031 Y11.9001 
G01 X-6.4718 Y11.7874 
G01 X-6.6592 Y11.7098 
G01 X-6.8582 Y11.6702 
G01 X-8.3818 Y11.6702 
G01 X-8.5808 Y11.7098 
G01 X-8.7682 Y11.7874 
G01 X-8.8328 Y11.8306 
G01 X-18.6899 Y11.8306 
G01 X-22.3058 Y8.2147 
G01 X-22.4482 Y8.1195 
G01 X-22.6064 Y8.0540 
G01 X-22.7744 Y8.0206 
G01 X-34.3756 Y8.0206 
G01 X-34.5436 Y8.0540 
G01 X-34.7018 Y8.1195 
G01 X-34.8442 Y8.2147 
G01 X-34.9653 Y8.3358 
G01 X-35.0605 Y8.4782 
G01 X-35.1260 Y8.6364 
G01 X-35.1594 Y8.8044 
G01 X-35.1594 Y12.7856 
G01 X-35.1260 Y12.9536 
G01 X-35.0605 Y13.1118 
G01 X-34.9653 Y13.2542 
G01 X-34.8442 Y13.3753 
G01 X-32.3042 Y15.9153 
G01 X-32.1618 Y16.0105 
G01 X-32.0036 Y16.0760 
G01 X-31.8356 Y16.1094 
G01 X-29.5701 Y16.1094 
G01 X-26.5290 Y19.1505 
G01 X-27.1544 Y19.1505 
G01 X-27.8395 Y19.8356 
G01 X-27.8395 Y20.4610 
G01 X-28.0405 Y20.2600 
G01 X-28.0405 Y19.8356 
G01 X-28.7256 Y19.1505 
G01 X-29.6944 Y19.1505 
G01 X-30.3795 Y19.8356 
G01 X-30.3795 Y20.8044 
G01 X-29.6944 Y21.4895 
G01 X-29.2700 Y21.4895 
G01 X-27.2242 Y23.5353 
G01 X-27.0818 Y23.6304 
G01 X-26.9236 Y23.6960 
G01 X-26.7556 Y23.7294 
G01 X-24.0444 Y23.7294 
G01 X-23.8764 Y23.6960 
G01 X-23.7182 Y23.6304 
G01 X-23.5758 Y23.5353 
G01 X-23.4547 Y23.4142 
G01 X-21.2299 Y21.1894 
G01 X-8.8328 Y21.1894 
G01 X-8.7682 Y21.2326 
G01 X-8.5808 Y21.3102 
G01 X-8.3818 Y21.3498 
G01 X-6.8582 Y21.3498 
G01 X-6.6592 Y21.3102 
G01 X-6.4718 Y21.2326 
G01 X-6.3031 Y21.1199 
G01 X-6.1597 Y20.9765 
G01 X-6.0470 Y20.8078 
G01 X-5.9694 Y20.6204 
G01 X-5.9298 Y20.4214 
G01 X-5.9298 Y20.2186 
G01 X-5.9694 Y20.0196 
G01 X-6.0470 Y19.8322 
G01 X-6.1597 Y19.6635 
G01 X-6.3031 Y19.5201 
G01 X-6.4718 Y19.4074 
G01 X-6.6592 Y19.3298 
G01 X-6.8582 Y19.2902 
G00 Z2.5400 
G00 X-6.8582 Y9.1302 
G01 Z-0.1500 F254.00 
G01 X-8.3818 Y9.1302 F508.00 
G01 X-8.5808 Y9.1698 
G01 X-8.7682 Y9.2474 
G01 X-8.9369 Y9.3601 
G01 X-9.0803 Y9.5035 
G01 X-9.1930 Y9.6722 
G01 X-9.2706 Y9.8596 
G01 X-9.3102 Y10.0586 
G01 X-9.3102 Y10.2614 
G01 X-9.2706 Y10.4604 
G01 X-9.1930 Y10.6478 
G01 X-9.0803 Y10.8165 
G01 X-8.9369 Y10.9599 
G01 X-8.7682 Y11.0726 
G01 X-8.5808 Y11.1502 
G01 X-8.3818 Y11.1898 
G01 X-6.8582 Y11.1898 
G01 X-6.6592 Y11.1502 
G01 X-6.4718 Y11.0726 
G01 X-6.3031 Y10.9599 
G01 X-6.1597 Y10.8165 
G01 X-6.0470 Y10.6478 
G01 X-5.9694 Y10.4604 
G01 X-5.9298 Y10.2614 
G01 X-5.9298 Y10.0586 
G01 X-5.9694 Y9.8596 
G01 X-6.0470 Y9.6722 
G01 X-6.1597 Y9.5035 
G01 X-6.3031 Y9.3601 
G01 X-6.4718 Y9.2474 
G01 X-6.6592 Y9.1698 
G01 X-6.8582 Y9.1302 
G00 Z2.5400 
G00 X-32.9195 Y19.8356 
G01 Z-0.1500 F254.00 
G01 X-32.9195 Y20.8044 F508.00 
G01 X-32.2344 Y21.4895 
G01 X-31.2656 Y21.4895 
G01 X-30.5805 Y20.8044 
G01 X-30.5805 Y19.8356 
G01 X-31.2656 Y19.1505 
G01 X-32.2344 Y19.1505 
G01 X-32.9195 Y19.8356 
G00 Z2.5400 
G00 X-27.8395 Y12.2156 
G01 Z-0.1500 F254.00 
G01 X-27.8395 Y13.1844 F508.00 
G01 X-27.1544 Y13.8695 
G01 X-26.1856 Y13.8695 
G01 X-25.5005 Y13.1844 
G01 X-25.5005 Y12.2156 
G01 X-26.1856 Y11.5305 
G01 X-27.1544 Y11.5305 
G01 X-27.8395 Y12.2156 
G00 Z2.5400 
G00 X-32.2870 Y11.4035 
G01 Z-0.1500 F254.00 
G01 X-33.0465 Y12.1630 F508.00 
G01 X-33.0465 Y12.5344 
G01 X-33.2936 Y12.2873 
G01 X-33.2936 Y9.8864 
G01 X-30.3455 Y9.8864 
G01 X-31.8626 Y11.4035 
G01 X-32.2870 Y11.4035 
G00 Z2.5400 
G00 X-24.6670 Y11.4035 
G01 Z-0.1500 F254.00 
G01 X-25.4000 Y12.1365 F508.00 
G01 X-26.1330 Y11.4035 
G01 X-27.2070 Y11.4035 
G01 X-27.9400 Y12.1365 
G01 X-28.6730 Y11.4035 
G01 X-29.0444 Y11.4035 
G01 X-28.7973 Y11.1564 
G01 X-24.5427 Y11.1564 
G01 X-24.2956 Y11.4035 
G01 X-24.6670 Y11.4035 
G00 Z2.5400 
G00 X-26.1330 Y21.6165 
G01 Z-0.1500 F254.00 
G01 X-25.4000 Y20.8835 F508.00 
G01 X-24.6670 Y21.6165 
G01 X-24.2956 Y21.6165 
G01 X-24.5427 Y21.8636 
G01 X-26.2573 Y21.8636 
G01 X-26.5044 Y21.6165 
G01 X-26.1330 Y21.6165 
G00 Z2.5400 
G00 X-31.2540 Y6.9852 
G01 Z-0.1500 F254.00 
G01 X-31.1152 Y7.1240 F508.00 
G01 X-30.9520 Y7.2330 
G01 X-30.7706 Y7.3081 
G01 X-30.5781 Y7.3464 
G01 X-16.6491 Y7.3464 
G01 X-16.6089 Y7.3544 
G01 X-16.4111 Y7.3544 
G01 X-16.2170 Y7.3158 
G01 X-16.0342 Y7.2401 
G01 X-15.8697 Y7.1302 
G01 X-15.7298 Y6.9903 
G01 X-15.6199 Y6.8258 
G01 X-15.5442 Y6.6430 
G01 X-15.5056 Y6.4489 
G01 X-15.5056 Y6.2511 
G01 X-15.5442 Y6.0570 
G01 X-15.6199 Y5.8742 
G01 X-15.7298 Y5.7097 
G01 X-15.8697 Y5.5698 
G01 X-16.0342 Y5.4599 
G01 X-16.2170 Y5.3842 
G01 X-16.4111 Y5.3456 
G01 X-16.6089 Y5.3456 
G01 X-16.6491 Y5.3536 
G01 X-30.0673 Y5.3536 
G01 X-30.9471 Y4.4738 
G01 X-30.9698 Y4.4397 
G01 X-31.1097 Y4.2998 
G01 X-31.2742 Y4.1899 
G01 X-31.4570 Y4.1142 
G01 X-31.6511 Y4.0756 
G01 X-31.8489 Y4.0756 
G01 X-32.0430 Y4.1142 
G01 X-32.2258 Y4.1899 
G01 X-32.3903 Y4.2998 
G01 X-32.5302 Y4.4397 
G01 X-32.6401 Y4.6042 
G01 X-32.7158 Y4.7870 
G01 X-32.7544 Y4.9811 
G01 X-32.7544 Y5.1789 
G01 X-32.7158 Y5.3730 
G01 X-32.6401 Y5.5558 
G01 X-32.5302 Y5.7203 
G01 X-32.3903 Y5.8602 
G01 X-32.3562 Y5.8829 
G01 X-31.2540 Y6.9852 
G00 Z2.5400 
G00 X-6.8686 Y21.7032 
G01 Z-0.1500 F254.00 
G01 X-8.3714 Y21.7032 F508.00 
G01 X-8.5513 Y21.7317 
G01 X-8.7245 Y21.7880 
G01 X-8.8867 Y21.8706 
G01 X-9.0340 Y21.9776 
G01 X-9.1628 Y22.1064 
G01 X-9.2698 Y22.2537 
G01 X-9.3524 Y22.4159 
G01 X-9.4087 Y22.5891 
G01 X-9.4372 Y22.7690 
G01 X-9.4372 Y22.9510 
G01 X-9.4087 Y23.1309 
G01 X-9.3524 Y23.3041 
G01 X-9.2698 Y23.4663 
G01 X-9.1628 Y23.6136 
G01 X-9.0340 Y23.7424 
G01 X-8.8867 Y23.8494 
G01 X-8.7245 Y23.9320 
G01 X-8.5513 Y23.9883 
G01 X-8.3714 Y24.0168 
G01 X-6.8686 Y24.0168 
G01 X-6.6887 Y23.9883 
G01 X-6.5155 Y23.9320 
G01 X-6.3533 Y23.8494 
G01 X-6.2060 Y23.7424 
G01 X-6.0772 Y23.6136 
G01 X-5.9702 Y23.4663 
G01 X-5.8876 Y23.3041 
G01 X-5.8313 Y23.1309 
G01 X-5.8028 Y22.9510 
G01 X-5.8028 Y22.7690 
G01 X-5.8313 Y22.5891 
G01 X-5.8876 Y22.4159 
G01 X-5.9702 Y22.2537 
G01 X-6.0772 Y22.1064 
G01 X-6.2060 Y21.9776 
G01 X-6.3533 Y21.8706 
G01 X-6.5155 Y21.7880 
G01 X-6.6887 Y21.7317 
G01 X-6.8686 Y21.7032 
G00 Z2.5400 
G00 X-6.8686 Y19.1632 
G01 Z-0.1500 F254.00 
G01 X-8.3714 Y19.1632 F508.00 
G01 X-8.5513 Y19.1917 
G01 X-8.7245 Y19.2479 
G01 X-8.8729 Y19.3236 
G01 X-21.6881 Y19.3236 
G01 X-21.8806 Y19.3619 
G01 X-22.0620 Y19.4370 
G01 X-22.2252 Y19.5460 
G01 X-22.8335 Y20.1544 
G01 X-22.8335 Y19.7830 
G01 X-23.5930 Y19.0235 
G01 X-24.0174 Y19.0235 
G01 X-28.4360 Y14.6048 
G01 X-28.5748 Y14.4660 
G01 X-28.7380 Y14.3570 
G01 X-28.9194 Y14.2819 
G01 X-29.1119 Y14.2436 
G01 X-31.3373 Y14.2436 
G01 X-31.5844 Y13.9965 
G01 X-31.2130 Y13.9965 
G01 X-30.4800 Y13.2635 
G01 X-29.7470 Y13.9965 
G01 X-28.6730 Y13.9965 
G01 X-27.9400 Y13.2635 
G01 X-27.2070 Y13.9965 
G01 X-26.1330 Y13.9965 
G01 X-25.4000 Y13.2635 
G01 X-24.6670 Y13.9965 
G01 X-24.2426 Y13.9965 
G01 X-19.6852 Y18.5540 
G01 X-19.5220 Y18.6630 
G01 X-19.3406 Y18.7381 
G01 X-19.1481 Y18.7764 
G01 X-8.8729 Y18.7764 
G01 X-8.7245 Y18.8520 
G01 X-8.5513 Y18.9083 
G01 X-8.3714 Y18.9368 
G01 X-6.8686 Y18.9368 
G01 X-6.6887 Y18.9083 
G01 X-6.5155 Y18.8520 
G01 X-6.3533 Y18.7694 
G01 X-6.2060 Y18.6624 
G01 X-6.0772 Y18.5336 
G01 X-5.9702 Y18.3863 
G01 X-5.8876 Y18.2241 
G01 X-5.8313 Y18.0509 
G01 X-5.8028 Y17.8710 
G01 X-5.8028 Y17.6890 
G01 X-5.8313 Y17.5091 
G01 X-5.8876 Y17.3359 
G01 X-5.9702 Y17.1737 
G01 X-6.0772 Y17.0264 
G01 X-6.2060 Y16.8976 
G01 X-6.3533 Y16.7906 
G01 X-6.5155 Y16.7080 
G01 X-6.6887 Y16.6517 
G01 X-6.8686 Y16.6232 
G01 X-8.3714 Y16.6232 
G01 X-8.5513 Y16.6517 
G01 X-8.7245 Y16.7080 
G01 X-8.8729 Y16.7836 
G01 X-18.6373 Y16.7836 
G01 X-19.1935 Y16.2274 
G01 X-19.1481 Y16.2364 
G01 X-8.8729 Y16.2364 
G01 X-8.7245 Y16.3120 
G01 X-8.5513 Y16.3683 
G01 X-8.3714 Y16.3968 
G01 X-6.8686 Y16.3968 
G01 X-6.6887 Y16.3683 
G01 X-6.5155 Y16.3120 
G01 X-6.3533 Y16.2294 
G01 X-6.2060 Y16.1224 
G01 X-6.0772 Y15.9936 
G01 X-5.9702 Y15.8463 
G01 X-5.8876 Y15.6841 
G01 X-5.8313 Y15.5109 
G01 X-5.8028 Y15.3310 
G01 X-5.8028 Y15.1490 
G01 X-5.8313 Y14.9691 
G01 X-5.8876 Y14.7959 
G01 X-5.9702 Y14.6337 
G01 X-6.0772 Y14.4864 
G01 X-6.2060 Y14.3576 
G01 X-6.3533 Y14.2506 
G01 X-6.5155 Y14.1680 
G01 X-6.6887 Y14.1117 
G01 X-6.8686 Y14.0832 
G01 X-8.3714 Y14.0832 
G01 X-8.5513 Y14.1117 
G01 X-8.7245 Y14.1680 
G01 X-8.8729 Y14.2436 
G01 X-18.6373 Y14.2436 
G01 X-19.1833 Y13.6976 
G01 X-19.1489 Y13.7044 
G01 X-18.9511 Y13.7044 
G01 X-18.9109 Y13.6964 
G01 X-8.8729 Y13.6964 
G01 X-8.7245 Y13.7720 
G01 X-8.5513 Y13.8283 
G01 X-8.3714 Y13.8568 
G01 X-6.8686 Y13.8568 
G01 X-6.6887 Y13.8283 
G01 X-6.5155 Y13.7720 
G01 X-6.3533 Y13.6894 
G01 X-6.2060 Y13.5824 
G01 X-6.0772 Y13.4536 
G01 X-5.9702 Y13.3063 
G01 X-5.8876 Y13.1441 
G01 X-5.8313 Y12.9709 
G01 X-5.8028 Y12.7910 
G01 X-5.8028 Y12.6090 
G01 X-5.8313 Y12.4291 
G01 X-5.8876 Y12.2559 
G01 X-5.9702 Y12.0937 
G01 X-6.0772 Y11.9464 
G01 X-6.2060 Y11.8176 
G01 X-6.3533 Y11.7106 
G01 X-6.5155 Y11.6280 
G01 X-6.6887 Y11.5717 
G01 X-6.8686 Y11.5432 
G01 X-8.3714 Y11.5432 
G01 X-8.5513 Y11.5717 
G01 X-8.7245 Y11.6280 
G01 X-8.8729 Y11.7036 
G01 X-18.6373 Y11.7036 
G01 X-22.2248 Y8.1160 
G01 X-22.3880 Y8.0070 
G01 X-22.5694 Y7.9319 
G01 X-22.7619 Y7.8936 
G01 X-34.3881 Y7.8936 
G01 X-34.5806 Y7.9319 
G01 X-34.7620 Y8.0070 
G01 X-34.9252 Y8.1160 
G01 X-35.0640 Y8.2548 
G01 X-35.1730 Y8.4180 
G01 X-35.2481 Y8.5994 
G01 X-35.2864 Y8.7919 
G01 X-35.2864 Y12.7981 
G01 X-35.2481 Y12.9906 
G01 X-35.1730 Y13.1720 
G01 X-35.0640 Y13.3352 
G01 X-34.9252 Y13.4740 
G01 X-32.3852 Y16.0140 
G01 X-32.2220 Y16.1230 
G01 X-32.0406 Y16.1981 
G01 X-31.8481 Y16.2364 
G01 X-29.6227 Y16.2364 
G01 X-26.8356 Y19.0235 
G01 X-27.2070 Y19.0235 
G01 X-27.9400 Y19.7565 
G01 X-28.6730 Y19.0235 
G01 X-29.7470 Y19.0235 
G01 X-30.4800 Y19.7565 
G01 X-31.2130 Y19.0235 
G01 X-32.2870 Y19.0235 
G01 X-33.0465 Y19.7830 
G01 X-33.0465 Y20.8570 
G01 X-32.2870 Y21.6165 
G01 X-31.2130 Y21.6165 
G01 X-30.4800 Y20.8835 
G01 X-29.7470 Y21.6165 
G01 X-29.3226 Y21.6165 
G01 X-27.3052 Y23.6340 
G01 X-27.1420 Y23.7430 
G01 X-26.9606 Y23.8181 
G01 X-26.7681 Y23.8564 
G01 X-24.0319 Y23.8564 
G01 X-23.8394 Y23.8181 
G01 X-23.6580 Y23.7430 
G01 X-23.4948 Y23.6340 
G01 X-23.3560 Y23.4952 
G01 X-21.1773 Y21.3164 
G01 X-8.8729 Y21.3164 
G01 X-8.7245 Y21.3920 
G01 X-8.5513 Y21.4483 
G01 X-8.3714 Y21.4768 
G01 X-6.8686 Y21.4768 
G01 X-6.6887 Y21.4483 
G01 X-6.5155 Y21.3920 
G01 X-6.3533 Y21.3094 
G01 X-6.2060 Y21.2024 
G01 X-6.0772 Y21.0736 
G01 X-5.9702 Y20.9263 
G01 X-5.8876 Y20.7641 
G01 X-5.8313 Y20.5909 
G01 X-5.8028 Y20.4110 
G01 X-5.8028 Y20.2290 
G01 X-5.8313 Y20.0491 
G01 X-5.8876 Y19.8759 
G01 X-5.9702 Y19.7137 
G01 X-6.0772 Y19.5664 
G01 X-6.2060 Y19.4376 
G01 X-6.3533 Y19.3306 
G01 X-6.5155 Y19.2479 
G01 X-6.6887 Y19.1917 
G01 X-6.8686 Y19.1632 
G00 Z2.5400 
G00 X-6.8686 Y9.0032 
G01 Z-0.1500 F254.00 
G01 X-8.3714 Y9.0032 F508.00 
G01 X-8.5513 Y9.0317 
G01 X-8.7245 Y9.0880 
G01 X-8.8867 Y9.1706 
G01 X-9.0340 Y9.2776 
G01 X-9.1628 Y9.4064 
G01 X-9.2698 Y9.5537 
G01 X-9.3524 Y9.7159 
G01 X-9.4087 Y9.8891 
G01 X-9.4372 Y10.0690 
G01 X-9.4372 Y10.2510 
G01 X-9.4087 Y10.4309 
G01 X-9.3524 Y10.6041 
G01 X-9.2698 Y10.7663 
G01 X-9.1628 Y10.9136 
G01 X-9.0340 Y11.0424 
G01 X-8.8867 Y11.1494 
G01 X-8.7245 Y11.2320 
G01 X-8.5513 Y11.2883 
G01 X-8.3714 Y11.3168 
G01 X-6.8686 Y11.3168 
G01 X-6.6887 Y11.2883 
G01 X-6.5155 Y11.2320 
G01 X-6.3533 Y11.1494 
G01 X-6.2060 Y11.0424 
G01 X-6.0772 Y10.9136 
G01 X-5.9702 Y10.7663 
G01 X-5.8876 Y10.6041 
G01 X-5.8313 Y10.4309 
G01 X-5.8028 Y10.2510 
G01 X-5.8028 Y10.0690 
G01 X-5.8313 Y9.8891 
G01 X-5.8876 Y9.7159 
G01 X-5.9702 Y9.5537 
G01 X-6.0772 Y9.4064 
G01 X-6.2060 Y9.2776 
G01 X-6.3533 Y9.1706 
G01 X-6.5155 Y9.0880 
G01 X-6.6887 Y9.0317 
G01 X-6.8686 Y9.0032 
G00 Z2.5400 
G00 X-30.4800 Y13.4431 
G01 Z-0.1500 F254.00 
G01 X-29.8065 Y14.1166 F508.00 
G01 X-31.1535 Y14.1166 
G01 X-30.4800 Y13.4431 
G00 Z2.5400 
G00 X-8.9034 Y13.8234 
G01 Z-0.1500 F254.00 
G01 X-8.7732 Y13.8897 F508.00 
G01 X-8.5810 Y13.9522 
G01 X-8.4685 Y13.9700 
G01 X-8.5810 Y13.9878 
G01 X-8.7732 Y14.0503 
G01 X-8.9034 Y14.1166 
G01 X-18.5847 Y14.1166 
G01 X-18.8779 Y13.8234 
G01 X-8.9034 Y13.8234 
G00 Z2.5400 
G00 X-25.4000 Y11.9569 
G01 Z-0.1500 F254.00 
G01 X-26.0735 Y11.2834 F508.00 
G01 X-24.7265 Y11.2834 
G01 X-25.4000 Y11.9569 
G00 Z2.5400 
G00 X-27.9400 Y11.9569 
G01 Z-0.1500 F254.00 
G01 X-28.6135 Y11.2834 F508.00 
G01 X-27.2665 Y11.2834 
G01 X-27.9400 Y11.9569 
G00 Z2.5400 
G00 X-32.3396 Y11.2765 
G01 Z-0.1500 F254.00 
G01 X-33.1666 Y12.1035 F508.00 
G01 X-33.1666 Y10.0134 
G01 X-30.6521 Y10.0134 
G01 X-31.9152 Y11.2765 
G01 X-32.3396 Y11.2765 
G00 Z2.5400 
G00 X-8.9034 Y16.3634 
G01 Z-0.1500 F254.00 
G01 X-8.7732 Y16.4297 F508.00 
G01 X-8.5810 Y16.4922 
G01 X-8.4685 Y16.5100 
G01 X-8.5810 Y16.5278 
G01 X-8.7732 Y16.5903 
G01 X-8.9034 Y16.6566 
G01 X-18.5847 Y16.6566 
G01 X-18.8779 Y16.3634 
G01 X-8.9034 Y16.3634 
G00 Z2.5400 
G00 X-24.7196 Y14.1235 
G01 Z-0.1500 F254.00 
G01 X-24.2952 Y14.1235 F508.00 
G01 X-19.7818 Y18.6369 
G01 X-19.6388 Y18.7408 
G01 X-19.4812 Y18.8211 
G01 X-19.3131 Y18.8757 
G01 X-19.1384 Y18.9034 
G01 X-8.9034 Y18.9034 
G01 X-8.7732 Y18.9697 
G01 X-8.5810 Y19.0322 
G01 X-8.4685 Y19.0500 
G01 X-8.5810 Y19.0678 
G01 X-8.7732 Y19.1303 
G01 X-8.9034 Y19.1966 
G01 X-21.6784 Y19.1966 
G01 X-21.8531 Y19.2243 
G01 X-22.0212 Y19.2789 
G01 X-22.1788 Y19.3592 
G01 X-22.3218 Y19.4631 
G01 X-22.7065 Y19.8478 
G01 X-22.7065 Y19.7304 
G01 X-23.5404 Y18.8965 
G01 X-23.9648 Y18.8965 
G01 X-28.3531 Y14.5082 
G01 X-28.4782 Y14.3831 
G01 X-28.6212 Y14.2792 
G01 X-28.7788 Y14.1989 
G01 X-28.9469 Y14.1443 
G01 X-29.0781 Y14.1235 
G01 X-28.6204 Y14.1235 
G01 X-27.9400 Y13.4431 
G01 X-27.2596 Y14.1235 
G01 X-26.0804 Y14.1235 
G01 X-25.4000 Y13.4431 
G01 X-24.7196 Y14.1235 
G00 Z2.5400 
G00 X-25.4000 Y21.0631 
G01 Z-0.1500 F254.00 
G01 X-24.7265 Y21.7366 F508.00 
G01 X-26.0735 Y21.7366 
G01 X-25.4000 Y21.0631 
G00 Z2.5400 
G00 X-31.3369 Y7.0818 
G01 Z-0.1500 F254.00 
G01 X-31.2118 Y7.2069 F508.00 
G01 X-31.0688 Y7.3108 
G01 X-30.9112 Y7.3911 
G01 X-30.7431 Y7.4457 
G01 X-30.5684 Y7.4734 
G01 X-16.6496 Y7.4734 
G01 X-16.5990 Y7.4814 
G01 X-16.4210 Y7.4814 
G01 X-16.2451 Y7.4535 
G01 X-16.0757 Y7.3985 
G01 X-15.9170 Y7.3177 
G01 X-15.7729 Y7.2130 
G01 X-15.6470 Y7.0871 
G01 X-15.5423 Y6.9430 
G01 X-15.4615 Y6.7843 
G01 X-15.4065 Y6.6149 
G01 X-15.3786 Y6.4390 
G01 X-15.3786 Y6.2610 
G01 X-15.4065 Y6.0851 
G01 X-15.4615 Y5.9157 
G01 X-15.5423 Y5.7570 
G01 X-15.6470 Y5.6129 
G01 X-15.7729 Y5.4870 
G01 X-15.9170 Y5.3823 
G01 X-16.0757 Y5.3015 
G01 X-16.2451 Y5.2465 
G01 X-16.4210 Y5.2186 
G01 X-16.5990 Y5.2186 
G01 X-16.6496 Y5.2266 
G01 X-30.0147 Y5.2266 
G01 X-30.8570 Y4.3843 
G01 X-30.8870 Y4.3429 
G01 X-31.0129 Y4.2170 
G01 X-31.1570 Y4.1123 
G01 X-31.3157 Y4.0315 
G01 X-31.4851 Y3.9765 
G01 X-31.6610 Y3.9486 
G01 X-31.8390 Y3.9486 
G01 X-32.0149 Y3.9765 
G01 X-32.1843 Y4.0315 
G01 X-32.3430 Y4.1123 
G01 X-32.4871 Y4.2170 
G01 X-32.6130 Y4.3429 
G01 X-32.7177 Y4.4870 
G01 X-32.7985 Y4.6457 
G01 X-32.8535 Y4.8151 
G01 X-32.8814 Y4.9910 
G01 X-32.8814 Y5.1690 
G01 X-32.8535 Y5.3449 
G01 X-32.7985 Y5.5143 
G01 X-32.7177 Y5.6730 
G01 X-32.6130 Y5.8171 
G01 X-32.4871 Y5.9430 
G01 X-32.4457 Y5.9730 
G01 X-31.3369 Y7.0818 
G00 Z2.5400 
G00 X-8.7732 Y21.5097 
G01 Z-0.1500 F254.00 
G01 X-8.5810 Y21.5722 F508.00 
G01 X-8.4685 Y21.5900 
G01 X-8.5810 Y21.6078 
G01 X-8.7732 Y21.6703 
G01 X-8.9533 Y21.7620 
G01 X-9.1167 Y21.8808 
G01 X-9.2596 Y22.0237 
G01 X-9.3784 Y22.1871 
G01 X-9.4701 Y22.3672 
G01 X-9.5326 Y22.5594 
G01 X-9.5642 Y22.7590 
G01 X-9.5642 Y22.9610 
G01 X-9.5326 Y23.1606 
G01 X-9.4701 Y23.3528 
G01 X-9.3784 Y23.5329 
G01 X-9.2596 Y23.6963 
G01 X-9.1167 Y23.8392 
G01 X-8.9533 Y23.9580 
G01 X-8.7732 Y24.0497 
G01 X-8.5810 Y24.1122 
G01 X-8.3814 Y24.1438 
G01 X-6.8586 Y24.1438 
G01 X-6.6590 Y24.1122 
G01 X-6.4668 Y24.0497 
G01 X-6.2867 Y23.9580 
G01 X-6.1233 Y23.8392 
G01 X-5.9804 Y23.6963 
G01 X-5.8616 Y23.5329 
G01 X-5.7699 Y23.3528 
G01 X-5.7074 Y23.1606 
G01 X-5.6758 Y22.9610 
G01 X-5.6758 Y22.7590 
G01 X-5.7074 Y22.5594 
G01 X-5.7699 Y22.3672 
G01 X-5.8616 Y22.1871 
G01 X-5.9804 Y22.0237 
G01 X-6.1233 Y21.8808 
G01 X-6.2867 Y21.7620 
G01 X-6.4668 Y21.6703 
G01 X-6.6590 Y21.6078 
G01 X-6.7715 Y21.5900 
G01 X-6.6590 Y21.5722 
G01 X-6.4668 Y21.5097 
G01 X-6.2867 Y21.4180 
G01 X-6.1233 Y21.2992 
G01 X-5.9804 Y21.1563 
G01 X-5.8616 Y20.9929 
G01 X-5.7699 Y20.8128 
G01 X-5.7074 Y20.6206 
G01 X-5.6758 Y20.4210 
G01 X-5.6758 Y20.2190 
G01 X-5.7074 Y20.0194 
G01 X-5.7699 Y19.8272 
G01 X-5.8616 Y19.6471 
G01 X-5.9804 Y19.4837 
G01 X-6.1233 Y19.3408 
G01 X-6.2867 Y19.2220 
G01 X-6.4668 Y19.1303 
G01 X-6.6590 Y19.0678 
G01 X-6.7715 Y19.0500 
G01 X-6.6590 Y19.0322 
G01 X-6.4668 Y18.9697 
G01 X-6.2867 Y18.8780 
G01 X-6.1233 Y18.7592 
G01 X-5.9804 Y18.6163 
G01 X-5.8616 Y18.4529 
G01 X-5.7699 Y18.2728 
G01 X-5.7074 Y18.0806 
G01 X-5.6758 Y17.8810 
G01 X-5.6758 Y17.6790 
G01 X-5.7074 Y17.4794 
G01 X-5.7699 Y17.2872 
G01 X-5.8616 Y17.1071 
G01 X-5.9804 Y16.9437 
G01 X-6.1233 Y16.8008 
G01 X-6.2867 Y16.6820 
G01 X-6.4668 Y16.5903 
G01 X-6.6590 Y16.5278 
G01 X-6.7715 Y16.5100 
G01 X-6.6590 Y16.4922 
G01 X-6.4668 Y16.4297 
G01 X-6.2867 Y16.3380 
G01 X-6.1233 Y16.2192 
G01 X-5.9804 Y16.0763 
G01 X-5.8616 Y15.9129 
G01 X-5.7699 Y15.7328 
G01 X-5.7074 Y15.5406 
G01 X-5.6758 Y15.3410 
G01 X-5.6758 Y15.1390 
G01 X-5.7074 Y14.9394 
G01 X-5.7699 Y14.7472 
G01 X-5.8616 Y14.5671 
G01 X-5.9804 Y14.4037 
G01 X-6.1233 Y14.2608 
G01 X-6.2867 Y14.1420 
G01 X-6.4668 Y14.0503 
G01 X-6.6590 Y13.9878 
G01 X-6.7715 Y13.9700 
G01 X-6.6590 Y13.9522 
G01 X-6.4668 Y13.8897 
G01 X-6.2867 Y13.7980 
G01 X-6.1233 Y13.6792 
G01 X-5.9804 Y13.5363 
G01 X-5.8616 Y13.3729 
G01 X-5.7699 Y13.1928 
G01 X-5.7074 Y13.0006 
G01 X-5.6758 Y12.8010 
G01 X-5.6758 Y12.5990 
G01 X-5.7074 Y12.3994 
G01 X-5.7699 Y12.2072 
G01 X-5.8616 Y12.0271 
G01 X-5.9804 Y11.8637 
G01 X-6.1233 Y11.7208 
G01 X-6.2867 Y11.6020 
G01 X-6.4668 Y11.5103 
G01 X-6.6590 Y11.4478 
G01 X-6.7715 Y11.4300 
G01 X-6.6590 Y11.4122 
G01 X-6.4668 Y11.3497 
G01 X-6.2867 Y11.2580 
G01 X-6.1233 Y11.1392 
G01 X-5.9804 Y10.9963 
G01 X-5.8616 Y10.8329 
G01 X-5.7699 Y10.6528 
G01 X-5.7074 Y10.4606 
G01 X-5.6758 Y10.2610 
G01 X-5.6758 Y10.0590 
G01 X-5.7074 Y9.8594 
G01 X-5.7699 Y9.6672 
G01 X-5.8616 Y9.4871 
G01 X-5.9804 Y9.3237 
G01 X-6.1233 Y9.1808 
G01 X-6.2867 Y9.0620 
G01 X-6.4668 Y8.9703 
G01 X-6.6590 Y8.9078 
G01 X-6.8586 Y8.8762 
G01 X-8.3814 Y8.8762 
G01 X-8.5810 Y8.9078 
G01 X-8.7732 Y8.9703 
G01 X-8.9533 Y9.0620 
G01 X-9.1167 Y9.1808 
G01 X-9.2596 Y9.3237 
G01 X-9.3784 Y9.4871 
G01 X-9.4701 Y9.6672 
G01 X-9.5326 Y9.8594 
G01 X-9.5642 Y10.0590 
G01 X-9.5642 Y10.2610 
G01 X-9.5326 Y10.4606 
G01 X-9.4701 Y10.6528 
G01 X-9.3784 Y10.8329 
G01 X-9.2596 Y10.9963 
G01 X-9.1167 Y11.1392 
G01 X-8.9533 Y11.2580 
G01 X-8.7732 Y11.3497 
G01 X-8.5810 Y11.4122 
G01 X-8.4685 Y11.4300 
G01 X-8.5810 Y11.4478 
G01 X-8.7732 Y11.5103 
G01 X-8.9034 Y11.5766 
G01 X-18.5847 Y11.5766 
G01 X-22.1282 Y8.0331 
G01 X-22.2712 Y7.9292 
G01 X-22.4288 Y7.8489 
G01 X-22.5969 Y7.7943 
G01 X-22.7716 Y7.7666 
G01 X-34.3784 Y7.7666 
G01 X-34.5531 Y7.7943 
G01 X-34.7212 Y7.8489 
G01 X-34.8788 Y7.9292 
G01 X-35.0218 Y8.0331 
G01 X-35.1469 Y8.1582 
G01 X-35.2508 Y8.3012 
G01 X-35.3311 Y8.4588 
G01 X-35.3857 Y8.6269 
G01 X-35.4134 Y8.8016 
G01 X-35.4134 Y12.7884 
G01 X-35.3857 Y12.9631 
G01 X-35.3311 Y13.1312 
G01 X-35.2508 Y13.2888 
G01 X-35.1469 Y13.4318 
G01 X-35.0218 Y13.5569 
G01 X-32.4818 Y16.0969 
G01 X-32.3388 Y16.2008 
G01 X-32.1812 Y16.2811 
G01 X-32.0131 Y16.3357 
G01 X-31.8384 Y16.3634 
G01 X-29.6753 Y16.3634 
G01 X-27.1422 Y18.8965 
G01 X-27.2596 Y18.8965 
G01 X-27.9400 Y19.5769 
G01 X-28.6204 Y18.8965 
G01 X-29.7996 Y18.8965 
G01 X-30.4800 Y19.5769 
G01 X-31.1604 Y18.8965 
G01 X-32.3396 Y18.8965 
G01 X-33.1735 Y19.7304 
G01 X-33.1735 Y20.9096 
G01 X-32.3396 Y21.7435 
G01 X-31.1604 Y21.7435 
G01 X-30.4800 Y21.0631 
G01 X-29.7996 Y21.7435 
G01 X-29.3752 Y21.7435 
G01 X-27.4018 Y23.7169 
G01 X-27.2588 Y23.8208 
G01 X-27.1012 Y23.9011 
G01 X-26.9331 Y23.9557 
G01 X-26.7584 Y23.9834 
G01 X-24.0416 Y23.9834 
G01 X-23.8669 Y23.9557 
G01 X-23.6988 Y23.9011 
G01 X-23.5412 Y23.8208 
G01 X-23.3982 Y23.7169 
G01 X-23.2731 Y23.5918 
G01 X-21.1247 Y21.4434 
G01 X-8.9034 Y21.4434 
G01 X-8.7732 Y21.5097 
G00 Z2.5400 
G00 Z2.540000
G00 X-31.7500 Y5.0800 
G01 Z-0.2794 F254.00 
G01 Z2.540000
(R2.5400  P1.000000)
(G00 Z2.540000)
G00 X-16.5100 Y6.3500 
G01 Z-0.812800
G01 Z2.540000
(G00 Z2.540000)
G00 X-19.0500 Y12.7000 
G01 Z-0.812800
G01 Z2.540000
(G00 Z2.540000)
G00 X-7.6200 Y10.1600 
G01 Z-0.812800
G01 Z2.540000
(G00 Z2.540000)
G00 X-7.6200 Y12.7000 
G01 Z-0.812800
G01 Z2.540000
(G00 Z2.540000)
G00 X-7.6200 Y15.2400 
G01 Z-0.812800
G01 Z2.540000
(G00 Z2.540000)
G00 X-7.6200 Y17.7800 
G01 Z-0.812800
G01 Z2.540000
(G00 Z2.540000)
G00 X-7.6200 Y20.3200 
G01 Z-0.812800
G01 Z2.540000
(G00 Z2.540000)
G00 X-7.6200 Y22.8600 
G01 Z-0.812800
G01 Z2.540000
(G00 Z2.540000)
G00 X-24.1300 Y12.7000 
G01 Z-0.812800
G01 Z2.540000
(G00 Z2.540000)
G00 X-26.6700 Y12.7000 
G01 Z-0.812800
G01 Z2.540000
(G00 Z2.540000)
G00 X-29.2100 Y12.7000 
G01 Z-0.812800
G01 Z2.540000
(G00 Z2.540000)
G00 X-31.7500 Y12.7000 
G01 Z-0.812800
G01 Z2.540000
(G00 Z2.540000)
G00 X-31.7500 Y20.3200 
G01 Z-0.812800
G01 Z2.540000
(G00 Z2.540000)
G00 X-29.2100 Y20.3200 
G01 Z-0.812800
G01 Z2.540000
(G00 Z2.540000)
G00 X-26.6700 Y20.3200 
G01 Z-0.812800
G01 Z2.540000
(G00 Z2.540000)
G00 X-24.1300 Y20.3200 
G01 Z-0.812800
G01 Z2.540000
G00 Z12.7000 
M05
M02
