(.../pcb-gcode-3.6.0.4/pcb-gcode.ulp)
(Copyright 2005 - 2012 by John Johnson)
(See readme.txt for licensing terms.)
(This file generated from the board:)
(.../eagle/eagle/cncWTest/modbus.brd)
(Current profile is .../pcb-gcode-3.6.0.4/profiles/emc.pp  )
(This file generated 6/29/2014 1:06:40 AM)
(Settings from pcb-machine.h)
(  Tool Size)
(0.1000 )
(Z Axis Settings)
(  High     Up        Down     Drill)
(15.0000 	2.0000 	-0.1000 	-1.0000 )
(spindle on time = 1.0000)
(milling depth = -0.1000)
(text depth = -0.5000)
(tool change at 15.0000 15.0000 15.0000 )
(feed rate xy = F508.00 )
(feed rate z  = F254.00 )
(Settings from pcb-defaults.h)
(isolate min = 0.0200)
(isolate max = 0.3000)
(isolate step = 0.1000)
(Generated top outlines, top drill, bottom outlines, bottom drill, )
(Unit of measure: mm)
(Metric Mode)
G21
(Absolute Coordinates)
G90
G00 X0.0000 Y0.0000 
M03
G04 P1.000000
G00 Z2.0000 
G00 X-6.8877 Y15.7796 
G01 Z-0.1000 F254.00 
G01 X-8.1593 Y15.7796 F508.00 
G01 X-8.8135 Y15.1254 
G01 X-8.8754 Y15.0635 
G01 X-8.9562 Y15.0300 
G01 X-22.7938 Y15.0300 
G01 X-22.8746 Y15.0635 
G01 X-23.6103 Y15.7992 
G01 X-23.7696 Y15.6399 
G01 X-24.4904 Y15.6399 
G01 X-25.0001 Y16.1496 
G01 X-25.0001 Y16.8704 
G01 X-24.4904 Y17.3801 
G01 X-23.7696 Y17.3801 
G01 X-23.2599 Y16.8704 
G01 X-23.2599 Y16.1496 
G01 X-23.2992 Y16.1103 
G01 X-22.6589 Y15.4700 
G01 X-9.0911 Y15.4700 
G01 X-8.6695 Y15.8916 
G01 X-8.7460 Y15.9427 
G01 X-8.8477 Y16.0444 
G01 X-8.9277 Y16.1640 
G01 X-8.9827 Y16.2969 
G01 X-9.0108 Y16.4381 
G01 X-9.0108 Y16.5819 
G01 X-8.9827 Y16.7231 
G01 X-8.9277 Y16.8560 
G01 X-8.8477 Y16.9756 
G01 X-8.7460 Y17.0773 
G01 X-8.6264 Y17.1573 
G01 X-8.4935 Y17.2123 
G01 X-8.3523 Y17.2404 
G01 X-6.8877 Y17.2404 
G01 X-6.7465 Y17.2123 
G01 X-6.6136 Y17.1573 
G01 X-6.4940 Y17.0773 
G01 X-6.3923 Y16.9756 
G01 X-6.3123 Y16.8560 
G01 X-6.2573 Y16.7231 
G01 X-6.2292 Y16.5819 
G01 X-6.2292 Y16.4381 
G01 X-6.2573 Y16.2969 
G01 X-6.3123 Y16.1640 
G01 X-6.3923 Y16.0444 
G01 X-6.4940 Y15.9427 
G01 X-6.6136 Y15.8627 
G01 X-6.7465 Y15.8077 
G01 X-6.8877 Y15.7796 
G00 Z2.0000 
G00 X-8.3523 Y13.2396 
G01 Z-0.1000 F254.00 
G01 X-8.4935 Y13.2677 F508.00 
G01 X-8.6264 Y13.3227 
G01 X-8.7460 Y13.4027 
G01 X-8.8477 Y13.5044 
G01 X-8.9277 Y13.6240 
G01 X-8.9827 Y13.7569 
G01 X-9.0108 Y13.8981 
G01 X-9.0108 Y14.0419 
G01 X-8.9827 Y14.1831 
G01 X-8.9277 Y14.3160 
G01 X-8.8477 Y14.4356 
G01 X-8.7460 Y14.5373 
G01 X-8.6264 Y14.6173 
G01 X-8.4935 Y14.6723 
G01 X-8.3523 Y14.7004 
G01 X-6.8877 Y14.7004 
G01 X-6.7465 Y14.6723 
G01 X-6.6136 Y14.6173 
G01 X-6.4940 Y14.5373 
G01 X-6.3923 Y14.4356 
G01 X-6.3123 Y14.3160 
G01 X-6.2573 Y14.1831 
G01 X-6.2292 Y14.0419 
G01 X-6.2292 Y13.8981 
G01 X-6.2573 Y13.7569 
G01 X-6.3123 Y13.6240 
G01 X-6.3923 Y13.5044 
G01 X-6.4940 Y13.4027 
G01 X-6.6136 Y13.3227 
G01 X-6.7183 Y13.2794 
G01 X-5.6254 Y12.1865 
G01 X-5.5635 Y12.1246 
G01 X-5.5300 Y12.0438 
G01 X-5.5300 Y9.9562 
G01 X-5.5635 Y9.8754 
G01 X-5.6254 Y9.8135 
G01 X-5.7062 Y9.7800 
G01 X-17.9089 Y9.7800 
G01 X-18.3092 Y9.3797 
G01 X-18.1799 Y9.2504 
G01 X-18.1799 Y8.5296 
G01 X-18.6896 Y8.0199 
G01 X-19.4104 Y8.0199 
G01 X-19.9201 Y8.5296 
G01 X-19.9201 Y9.2504 
G01 X-19.4104 Y9.7601 
G01 X-18.6896 Y9.7601 
G01 X-18.6203 Y9.6908 
G01 X-18.1246 Y10.1865 
G01 X-18.0438 Y10.2200 
G01 X-5.9700 Y10.2200 
G01 X-5.9700 Y11.9089 
G01 X-7.3007 Y13.2396 
G01 X-8.3523 Y13.2396 
G00 Z2.0000 
G00 X-6.8877 Y10.6996 
G01 Z-0.1000 F254.00 
G01 X-8.3523 Y10.6996 F508.00 
G01 X-8.4935 Y10.7277 
G01 X-8.6264 Y10.7827 
G01 X-8.7460 Y10.8627 
G01 X-8.8477 Y10.9644 
G01 X-8.9277 Y11.0840 
G01 X-8.9827 Y11.2169 
G01 X-9.0108 Y11.3581 
G01 X-9.0108 Y11.5019 
G01 X-8.9827 Y11.6431 
G01 X-8.9277 Y11.7760 
G01 X-8.8477 Y11.8956 
G01 X-8.7460 Y11.9973 
G01 X-8.6971 Y12.0300 
G01 X-23.1589 Y12.0300 
G01 X-25.8692 Y9.3197 
G01 X-25.7999 Y9.2504 
G01 X-25.7999 Y8.5296 
G01 X-26.3096 Y8.0199 
G01 X-27.0304 Y8.0199 
G01 X-27.5401 Y8.5296 
G01 X-27.5401 Y9.2504 
G01 X-27.0304 Y9.7601 
G01 X-26.3096 Y9.7601 
G01 X-26.1803 Y9.6308 
G01 X-23.3746 Y12.4365 
G01 X-23.2938 Y12.4700 
G01 X-8.4562 Y12.4700 
G01 X-8.3754 Y12.4365 
G01 X-8.3135 Y12.3746 
G01 X-8.0993 Y12.1604 
G01 X-6.8877 Y12.1604 
G01 X-6.7465 Y12.1323 
G01 X-6.6136 Y12.0773 
G01 X-6.4940 Y11.9973 
G01 X-6.3923 Y11.8956 
G01 X-6.3123 Y11.7760 
G01 X-6.2573 Y11.6431 
G01 X-6.2292 Y11.5019 
G01 X-6.2292 Y11.3581 
G01 X-6.2573 Y11.2169 
G01 X-6.3123 Y11.0840 
G01 X-6.3923 Y10.9644 
G01 X-6.4940 Y10.8627 
G01 X-6.6136 Y10.7827 
G01 X-6.7465 Y10.7277 
G01 X-6.8877 Y10.6996 
G00 Z2.0000 
G00 X-6.8877 Y8.1596 
G01 Z-0.1000 F254.00 
G01 X-8.3523 Y8.1596 F508.00 
G01 X-8.4935 Y8.1877 
G01 X-8.6264 Y8.2427 
G01 X-8.7460 Y8.3227 
G01 X-8.8477 Y8.4244 
G01 X-8.9277 Y8.5440 
G01 X-8.9827 Y8.6769 
G01 X-9.0108 Y8.8181 
G01 X-9.0108 Y8.9619 
G01 X-8.9827 Y9.1030 
G01 X-8.9277 Y9.2360 
G01 X-8.8477 Y9.3556 
G01 X-8.7460 Y9.4573 
G01 X-8.6264 Y9.5373 
G01 X-8.4935 Y9.5923 
G01 X-8.3523 Y9.6204 
G01 X-6.8877 Y9.6204 
G01 X-6.7465 Y9.5923 
G01 X-6.6136 Y9.5373 
G01 X-6.5129 Y9.4700 
G01 X-5.5911 Y9.4700 
G01 X-5.2200 Y9.8411 
G01 X-5.2200 Y17.5300 
G01 X-17.9089 Y17.5300 
G01 X-18.3742 Y17.0647 
G01 X-18.1799 Y16.8704 
G01 X-18.1799 Y16.1496 
G01 X-18.6896 Y15.6399 
G01 X-19.4104 Y15.6399 
G01 X-19.9201 Y16.1496 
G01 X-19.9201 Y16.8704 
G01 X-19.4104 Y17.3801 
G01 X-18.6896 Y17.3801 
G01 X-18.6853 Y17.3758 
G01 X-18.1246 Y17.9365 
G01 X-18.0438 Y17.9700 
G01 X-4.9562 Y17.9700 
G01 X-4.8754 Y17.9365 
G01 X-4.8135 Y17.8746 
G01 X-4.7800 Y17.7938 
G01 X-4.7800 Y9.7062 
G01 X-4.8135 Y9.6254 
G01 X-4.8754 Y9.5635 
G01 X-5.3754 Y9.0635 
G01 X-5.4562 Y9.0300 
G01 X-6.2427 Y9.0300 
G01 X-6.2292 Y8.9619 
G01 X-6.2292 Y8.8181 
G01 X-6.2573 Y8.6769 
G01 X-6.3123 Y8.5440 
G01 X-6.3923 Y8.4244 
G01 X-6.4940 Y8.3227 
G01 X-6.6136 Y8.2427 
G01 X-6.7465 Y8.1877 
G01 X-6.8877 Y8.1596 
G00 Z2.0000 
G00 X-6.8877 Y5.6196 
G01 Z-0.1000 F254.00 
G01 X-8.3523 Y5.6196 F508.00 
G01 X-8.4935 Y5.6477 
G01 X-8.6264 Y5.7027 
G01 X-8.7460 Y5.7827 
G01 X-8.8477 Y5.8844 
G01 X-8.9277 Y6.0040 
G01 X-8.9827 Y6.1369 
G01 X-9.0108 Y6.2781 
G01 X-9.0108 Y6.4219 
G01 X-8.9827 Y6.5631 
G01 X-8.9277 Y6.6960 
G01 X-8.8477 Y6.8156 
G01 X-8.7460 Y6.9173 
G01 X-8.6264 Y6.9973 
G01 X-8.4935 Y7.0523 
G01 X-8.3523 Y7.0804 
G01 X-6.8877 Y7.0804 
G01 X-6.7465 Y7.0523 
G01 X-6.6136 Y6.9973 
G01 X-6.4940 Y6.9173 
G01 X-6.3923 Y6.8156 
G01 X-6.3123 Y6.6960 
G01 X-6.2573 Y6.5631 
G01 X-6.2292 Y6.4219 
G01 X-6.2292 Y6.2781 
G01 X-6.2573 Y6.1369 
G01 X-6.3123 Y6.0040 
G01 X-6.3923 Y5.8844 
G01 X-6.4940 Y5.7827 
G01 X-6.6136 Y5.7027 
G01 X-6.7465 Y5.6477 
G01 X-6.8877 Y5.6196 
G00 Z2.0000 
G00 X-22.4601 Y16.1496 
G01 Z-0.1000 F254.00 
G01 X-22.4601 Y16.8704 F508.00 
G01 X-21.9504 Y17.3801 
G01 X-21.2296 Y17.3801 
G01 X-21.2053 Y17.3558 
G01 X-19.8746 Y18.6865 
G01 X-19.7938 Y18.7200 
G01 X-8.9343 Y18.7200 
G01 X-8.9827 Y18.8369 
G01 X-9.0108 Y18.9781 
G01 X-9.0108 Y19.1219 
G01 X-8.9827 Y19.2630 
G01 X-8.9277 Y19.3960 
G01 X-8.8477 Y19.5156 
G01 X-8.7460 Y19.6173 
G01 X-8.6264 Y19.6973 
G01 X-8.4935 Y19.7523 
G01 X-8.3523 Y19.7804 
G01 X-6.8877 Y19.7804 
G01 X-6.7465 Y19.7523 
G01 X-6.6136 Y19.6973 
G01 X-6.4940 Y19.6173 
G01 X-6.3923 Y19.5156 
G01 X-6.3123 Y19.3960 
G01 X-6.2573 Y19.2630 
G01 X-6.2292 Y19.1219 
G01 X-6.2292 Y18.9781 
G01 X-6.2573 Y18.8369 
G01 X-6.3123 Y18.7040 
G01 X-6.3923 Y18.5844 
G01 X-6.4940 Y18.4827 
G01 X-6.6136 Y18.4027 
G01 X-6.7465 Y18.3477 
G01 X-6.8877 Y18.3196 
G01 X-8.1193 Y18.3196 
G01 X-8.1254 Y18.3135 
G01 X-8.2062 Y18.2800 
G01 X-19.6589 Y18.2800 
G01 X-20.8942 Y17.0447 
G01 X-20.7199 Y16.8704 
G01 X-20.7199 Y16.1496 
G01 X-21.2296 Y15.6399 
G01 X-21.9504 Y15.6399 
G01 X-22.4601 Y16.1496 
G00 Z2.0000 
G00 X-27.5401 Y16.1496 
G01 Z-0.1000 F254.00 
G01 X-27.5401 Y16.8704 F508.00 
G01 X-27.0304 Y17.3801 
G01 X-26.3096 Y17.3801 
G01 X-25.7999 Y16.8704 
G01 X-25.7999 Y16.1496 
G01 X-26.3096 Y15.6399 
G01 X-27.0304 Y15.6399 
G01 X-27.5401 Y16.1496 
G00 Z2.0000 
G00 X-25.0001 Y8.5296 
G01 Z-0.1000 F254.00 
G01 X-25.0001 Y9.2504 F508.00 
G01 X-24.4904 Y9.7601 
G01 X-23.7696 Y9.7601 
G01 X-23.2599 Y9.2504 
G01 X-23.2599 Y8.5296 
G01 X-23.7696 Y8.0199 
G01 X-24.4904 Y8.0199 
G01 X-25.0001 Y8.5296 
G00 Z2.0000 
G00 X-22.4601 Y8.5296 
G01 Z-0.1000 F254.00 
G01 X-22.4601 Y9.2504 F508.00 
G01 X-21.9504 Y9.7601 
G01 X-21.2296 Y9.7601 
G01 X-21.1403 Y9.6708 
G01 X-19.8746 Y10.9365 
G01 X-19.7938 Y10.9700 
G01 X-13.8411 Y10.9700 
G01 X-13.7870 Y11.0241 
G01 X-13.7886 Y11.0269 
G01 X-13.8280 Y11.1739 
G01 X-13.8280 Y11.3261 
G01 X-13.7886 Y11.4731 
G01 X-13.7125 Y11.6049 
G01 X-13.6049 Y11.7125 
G01 X-13.4731 Y11.7886 
G01 X-13.3261 Y11.8280 
G01 X-13.1739 Y11.8280 
G01 X-13.0269 Y11.7886 
G01 X-12.8951 Y11.7125 
G01 X-12.7875 Y11.6049 
G01 X-12.7114 Y11.4731 
G01 X-12.6720 Y11.3261 
G01 X-12.6720 Y11.1739 
G01 X-12.7114 Y11.0269 
G01 X-12.7875 Y10.8951 
G01 X-12.8951 Y10.7875 
G01 X-13.0269 Y10.7114 
G01 X-13.1739 Y10.6720 
G01 X-13.3261 Y10.6720 
G01 X-13.4731 Y10.7114 
G01 X-13.4759 Y10.7130 
G01 X-13.5635 Y10.6254 
G01 X-13.6254 Y10.5635 
G01 X-13.7062 Y10.5300 
G01 X-19.6589 Y10.5300 
G01 X-20.8292 Y9.3597 
G01 X-20.7199 Y9.2504 
G01 X-20.7199 Y8.5296 
G01 X-21.2296 Y8.0199 
G01 X-21.9504 Y8.0199 
G01 X-22.4601 Y8.5296 
G00 Z2.0000 
G00 X-6.8778 Y10.5996 
G01 Z-0.1000 F254.00 
G01 X-8.3622 Y10.5996 F508.00 
G01 X-8.5226 Y10.6315 
G01 X-8.6737 Y10.6941 
G01 X-8.8097 Y10.7850 
G01 X-8.9254 Y10.9007 
G01 X-9.0163 Y11.0367 
G01 X-9.0789 Y11.1878 
G01 X-9.1108 Y11.3482 
G01 X-9.1108 Y11.5118 
G01 X-9.0789 Y11.6722 
G01 X-9.0163 Y11.8233 
G01 X-8.9450 Y11.9300 
G01 X-23.1175 Y11.9300 
G01 X-25.7278 Y9.3197 
G01 X-25.6999 Y9.2918 
G01 X-25.6999 Y8.4882 
G01 X-26.2682 Y7.9199 
G01 X-27.0718 Y7.9199 
G01 X-27.6401 Y8.4882 
G01 X-27.6401 Y9.2918 
G01 X-27.0718 Y9.8601 
G01 X-26.2682 Y9.8601 
G01 X-26.1803 Y9.7722 
G01 X-23.4465 Y12.5061 
G01 X-23.3735 Y12.5482 
G01 X-23.2921 Y12.5700 
G01 X-8.4579 Y12.5700 
G01 X-8.3765 Y12.5482 
G01 X-8.3035 Y12.5061 
G01 X-8.2439 Y12.4465 
G01 X-8.0579 Y12.2604 
G01 X-6.8778 Y12.2604 
G01 X-6.7174 Y12.2285 
G01 X-6.5663 Y12.1659 
G01 X-6.4303 Y12.0750 
G01 X-6.3146 Y11.9593 
G01 X-6.2237 Y11.8233 
G01 X-6.1611 Y11.6722 
G01 X-6.1292 Y11.5118 
G01 X-6.1292 Y11.3482 
G01 X-6.1611 Y11.1878 
G01 X-6.2237 Y11.0367 
G01 X-6.3146 Y10.9007 
G01 X-6.4303 Y10.7850 
G01 X-6.5663 Y10.6941 
G01 X-6.7174 Y10.6315 
G01 X-6.8778 Y10.5996 
G00 Z2.0000 
G00 X-6.8778 Y5.5196 
G01 Z-0.1000 F254.00 
G01 X-8.3622 Y5.5196 F508.00 
G01 X-8.5226 Y5.5515 
G01 X-8.6737 Y5.6141 
G01 X-8.8097 Y5.7050 
G01 X-8.9254 Y5.8207 
G01 X-9.0163 Y5.9567 
G01 X-9.0789 Y6.1078 
G01 X-9.1108 Y6.2682 
G01 X-9.1108 Y6.4318 
G01 X-9.0789 Y6.5922 
G01 X-9.0163 Y6.7433 
G01 X-8.9254 Y6.8793 
G01 X-8.8097 Y6.9950 
G01 X-8.6737 Y7.0859 
G01 X-8.5226 Y7.1485 
G01 X-8.3622 Y7.1804 
G01 X-6.8778 Y7.1804 
G01 X-6.7174 Y7.1485 
G01 X-6.5663 Y7.0859 
G01 X-6.4303 Y6.9950 
G01 X-6.3146 Y6.8793 
G01 X-6.2237 Y6.7433 
G01 X-6.1611 Y6.5922 
G01 X-6.1292 Y6.4318 
G01 X-6.1292 Y6.2682 
G01 X-6.1611 Y6.1078 
G01 X-6.2237 Y5.9567 
G01 X-6.3146 Y5.8207 
G01 X-6.4303 Y5.7050 
G01 X-6.5663 Y5.6141 
G01 X-6.7174 Y5.5515 
G01 X-6.8778 Y5.5196 
G00 Z2.0000 
G00 X-22.5601 Y16.1082 
G01 Z-0.1000 F254.00 
G01 X-22.5601 Y16.9118 F508.00 
G01 X-21.9918 Y17.4801 
G01 X-21.2224 Y17.4801 
G01 X-19.9465 Y18.7561 
G01 X-19.8735 Y18.7982 
G01 X-19.7921 Y18.8200 
G01 X-9.0813 Y18.8200 
G01 X-9.1108 Y18.9682 
G01 X-9.1108 Y19.1318 
G01 X-9.0789 Y19.2922 
G01 X-9.0163 Y19.4433 
G01 X-8.9254 Y19.5793 
G01 X-8.8097 Y19.6950 
G01 X-8.6737 Y19.7859 
G01 X-8.5226 Y19.8485 
G01 X-8.3622 Y19.8804 
G01 X-6.8778 Y19.8804 
G01 X-6.7174 Y19.8485 
G01 X-6.5663 Y19.7859 
G01 X-6.4303 Y19.6950 
G01 X-6.3146 Y19.5793 
G01 X-6.2237 Y19.4433 
G01 X-6.1611 Y19.2922 
G01 X-6.1292 Y19.1318 
G01 X-6.1292 Y18.9682 
G01 X-6.1611 Y18.8078 
G01 X-6.2237 Y18.6567 
G01 X-6.3146 Y18.5206 
G01 X-6.4303 Y18.4050 
G01 X-6.5663 Y18.3141 
G01 X-6.7174 Y18.2515 
G01 X-6.8778 Y18.2196 
G01 X-8.0957 Y18.2196 
G01 X-8.1265 Y18.2018 
G01 X-8.2079 Y18.1800 
G01 X-19.6175 Y18.1800 
G01 X-20.7528 Y17.0447 
G01 X-20.6199 Y16.9118 
G01 X-20.6199 Y16.1082 
G01 X-21.1581 Y15.5700 
G01 X-19.4819 Y15.5700 
G01 X-20.0201 Y16.1082 
G01 X-20.0201 Y16.9118 
G01 X-19.4518 Y17.4801 
G01 X-18.7224 Y17.4801 
G01 X-18.1965 Y18.0061 
G01 X-18.1235 Y18.0482 
G01 X-18.0421 Y18.0700 
G01 X-4.9579 Y18.0700 
G01 X-4.8765 Y18.0482 
G01 X-4.8035 Y18.0061 
G01 X-4.7439 Y17.9465 
G01 X-4.7018 Y17.8735 
G01 X-4.6800 Y17.7921 
G01 X-4.6800 Y9.7079 
G01 X-4.7018 Y9.6265 
G01 X-4.7439 Y9.5535 
G01 X-4.8035 Y9.4939 
G01 X-5.3035 Y8.9939 
G01 X-5.3765 Y8.9518 
G01 X-5.4579 Y8.9300 
G01 X-6.1292 Y8.9300 
G01 X-6.1292 Y8.8082 
G01 X-6.1611 Y8.6478 
G01 X-6.2237 Y8.4967 
G01 X-6.3146 Y8.3606 
G01 X-6.4303 Y8.2450 
G01 X-6.5663 Y8.1541 
G01 X-6.7174 Y8.0915 
G01 X-6.8778 Y8.0596 
G01 X-8.3622 Y8.0596 
G01 X-8.5226 Y8.0915 
G01 X-8.6737 Y8.1541 
G01 X-8.8097 Y8.2450 
G01 X-8.9254 Y8.3606 
G01 X-9.0163 Y8.4967 
G01 X-9.0789 Y8.6478 
G01 X-9.1108 Y8.8082 
G01 X-9.1108 Y8.9718 
G01 X-9.0789 Y9.1322 
G01 X-9.0163 Y9.2833 
G01 X-8.9254 Y9.4193 
G01 X-8.8097 Y9.5350 
G01 X-8.6737 Y9.6259 
G01 X-8.5431 Y9.6800 
G01 X-17.8675 Y9.6800 
G01 X-18.1678 Y9.3797 
G01 X-18.0799 Y9.2918 
G01 X-18.0799 Y8.4882 
G01 X-18.6482 Y7.9199 
G01 X-19.4518 Y7.9199 
G01 X-20.0201 Y8.4882 
G01 X-20.0201 Y9.2918 
G01 X-19.4518 Y9.8601 
G01 X-18.6482 Y9.8601 
G01 X-18.6203 Y9.8322 
G01 X-18.1965 Y10.2561 
G01 X-18.1235 Y10.2982 
G01 X-18.0421 Y10.3200 
G01 X-6.0700 Y10.3200 
G01 X-6.0700 Y11.8674 
G01 X-7.3421 Y13.1396 
G01 X-8.3622 Y13.1396 
G01 X-8.5226 Y13.1715 
G01 X-8.6737 Y13.2341 
G01 X-8.8097 Y13.3250 
G01 X-8.9254 Y13.4406 
G01 X-9.0163 Y13.5767 
G01 X-9.0789 Y13.7278 
G01 X-9.1108 Y13.8882 
G01 X-9.1108 Y14.0518 
G01 X-9.0789 Y14.2122 
G01 X-9.0163 Y14.3633 
G01 X-8.9254 Y14.4993 
G01 X-8.8097 Y14.6150 
G01 X-8.6737 Y14.7059 
G01 X-8.5226 Y14.7685 
G01 X-8.3622 Y14.8004 
G01 X-6.8778 Y14.8004 
G01 X-6.7174 Y14.7685 
G01 X-6.5663 Y14.7059 
G01 X-6.4303 Y14.6150 
G01 X-6.3146 Y14.4993 
G01 X-6.2237 Y14.3633 
G01 X-6.1611 Y14.2122 
G01 X-6.1292 Y14.0518 
G01 X-6.1292 Y13.8882 
G01 X-6.1611 Y13.7278 
G01 X-6.2237 Y13.5767 
G01 X-6.3146 Y13.4406 
G01 X-6.4303 Y13.3250 
G01 X-6.5455 Y13.2480 
G01 X-5.5535 Y12.2561 
G01 X-5.4939 Y12.1965 
G01 X-5.4518 Y12.1235 
G01 X-5.4300 Y12.0421 
G01 X-5.4300 Y9.9579 
G01 X-5.4518 Y9.8765 
G01 X-5.4939 Y9.8035 
G01 X-5.5535 Y9.7439 
G01 X-5.6265 Y9.7018 
G01 X-5.7079 Y9.6800 
G01 X-6.6969 Y9.6800 
G01 X-6.5663 Y9.6259 
G01 X-6.4826 Y9.5700 
G01 X-5.6325 Y9.5700 
G01 X-5.3200 Y9.8825 
G01 X-5.3200 Y17.4300 
G01 X-17.8675 Y17.4300 
G01 X-18.2328 Y17.0647 
G01 X-18.0799 Y16.9118 
G01 X-18.0799 Y16.1082 
G01 X-18.6181 Y15.5700 
G01 X-9.1325 Y15.5700 
G01 X-8.8237 Y15.8789 
G01 X-8.9254 Y15.9807 
G01 X-9.0163 Y16.1167 
G01 X-9.0789 Y16.2678 
G01 X-9.1108 Y16.4282 
G01 X-9.1108 Y16.5918 
G01 X-9.0789 Y16.7522 
G01 X-9.0163 Y16.9033 
G01 X-8.9254 Y17.0393 
G01 X-8.8097 Y17.1550 
G01 X-8.6737 Y17.2459 
G01 X-8.5226 Y17.3085 
G01 X-8.3622 Y17.3404 
G01 X-6.8778 Y17.3404 
G01 X-6.7174 Y17.3085 
G01 X-6.5663 Y17.2459 
G01 X-6.4303 Y17.1550 
G01 X-6.3146 Y17.0393 
G01 X-6.2237 Y16.9033 
G01 X-6.1611 Y16.7522 
G01 X-6.1292 Y16.5918 
G01 X-6.1292 Y16.4282 
G01 X-6.1611 Y16.2678 
G01 X-6.2237 Y16.1167 
G01 X-6.3146 Y15.9807 
G01 X-6.4303 Y15.8650 
G01 X-6.5663 Y15.7741 
G01 X-6.7174 Y15.7115 
G01 X-6.8778 Y15.6796 
G01 X-8.1179 Y15.6796 
G01 X-8.7439 Y15.0535 
G01 X-8.8035 Y14.9939 
G01 X-8.8765 Y14.9518 
G01 X-8.9579 Y14.9300 
G01 X-22.7921 Y14.9300 
G01 X-22.8735 Y14.9518 
G01 X-22.9465 Y14.9939 
G01 X-23.6103 Y15.6578 
G01 X-23.7282 Y15.5399 
G01 X-24.5318 Y15.5399 
G01 X-25.1001 Y16.1082 
G01 X-25.1001 Y16.9118 
G01 X-24.5318 Y17.4801 
G01 X-23.7282 Y17.4801 
G01 X-23.1599 Y16.9118 
G01 X-23.1599 Y16.1124 
G01 X-22.6175 Y15.5700 
G01 X-22.0219 Y15.5700 
G01 X-22.5601 Y16.1082 
G00 Z2.0000 
G00 X-27.6401 Y16.1082 
G01 Z-0.1000 F254.00 
G01 X-27.6401 Y16.9118 F508.00 
G01 X-27.0718 Y17.4801 
G01 X-26.2682 Y17.4801 
G01 X-25.6999 Y16.9118 
G01 X-25.6999 Y16.1082 
G01 X-26.2682 Y15.5399 
G01 X-27.0718 Y15.5399 
G01 X-27.6401 Y16.1082 
G00 Z2.0000 
G00 X-25.1001 Y8.4882 
G01 Z-0.1000 F254.00 
G01 X-25.1001 Y9.2918 F508.00 
G01 X-24.5318 Y9.8601 
G01 X-23.7282 Y9.8601 
G01 X-23.1599 Y9.2918 
G01 X-23.1599 Y8.4882 
G01 X-23.7282 Y7.9199 
G01 X-24.5318 Y7.9199 
G01 X-25.1001 Y8.4882 
G00 Z2.0000 
G00 X-22.5601 Y8.4882 
G01 Z-0.1000 F254.00 
G01 X-22.5601 Y9.2918 F508.00 
G01 X-21.9918 Y9.8601 
G01 X-21.1882 Y9.8601 
G01 X-21.1403 Y9.8122 
G01 X-19.9465 Y11.0061 
G01 X-19.8735 Y11.0482 
G01 X-19.7921 Y11.0700 
G01 X-13.9055 Y11.0700 
G01 X-13.9280 Y11.1832 
G01 X-13.9280 Y11.3168 
G01 X-13.9019 Y11.4478 
G01 X-13.8508 Y11.5712 
G01 X-13.7766 Y11.6822 
G01 X-13.6822 Y11.7766 
G01 X-13.5712 Y11.8508 
G01 X-13.4478 Y11.9019 
G01 X-13.3168 Y11.9280 
G01 X-13.1832 Y11.9280 
G01 X-13.0522 Y11.9019 
G01 X-12.9288 Y11.8508 
G01 X-12.8178 Y11.7766 
G01 X-12.7234 Y11.6822 
G01 X-12.6492 Y11.5712 
G01 X-12.5981 Y11.4478 
G01 X-12.5720 Y11.3168 
G01 X-12.5720 Y11.1832 
G01 X-12.5981 Y11.0522 
G01 X-12.6492 Y10.9288 
G01 X-12.7234 Y10.8178 
G01 X-12.8178 Y10.7234 
G01 X-12.9288 Y10.6492 
G01 X-13.0522 Y10.5981 
G01 X-13.1832 Y10.5720 
G01 X-13.3168 Y10.5720 
G01 X-13.4478 Y10.5981 
G01 X-13.4939 Y10.5535 
G01 X-13.5535 Y10.4939 
G01 X-13.6265 Y10.4518 
G01 X-13.7079 Y10.4300 
G01 X-19.6175 Y10.4300 
G01 X-20.6878 Y9.3597 
G01 X-20.6199 Y9.2918 
G01 X-20.6199 Y8.4882 
G01 X-21.1882 Y7.9199 
G01 X-21.9918 Y7.9199 
G01 X-22.5601 Y8.4882 
G00 Z2.0000 
G00 X-6.1700 Y10.9371 
G01 Z-0.1000 F254.00 
G01 X-6.2369 Y10.8369 F508.00 
G01 X-6.3665 Y10.7073 
G01 X-6.5189 Y10.6055 
G01 X-6.6882 Y10.5354 
G01 X-6.8680 Y10.4996 
G01 X-8.3720 Y10.4996 
G01 X-8.5518 Y10.5354 
G01 X-8.7211 Y10.6055 
G01 X-8.8735 Y10.7073 
G01 X-9.0031 Y10.8369 
G01 X-9.1049 Y10.9893 
G01 X-9.1750 Y11.1586 
G01 X-9.2108 Y11.3384 
G01 X-9.2108 Y11.5216 
G01 X-9.1750 Y11.7014 
G01 X-9.1218 Y11.8300 
G01 X-12.7297 Y11.8300 
G01 X-12.6457 Y11.7459 
G01 X-12.5605 Y11.6185 
G01 X-12.5019 Y11.4769 
G01 X-12.4720 Y11.3266 
G01 X-12.4720 Y11.1734 
G01 X-12.5019 Y11.0231 
G01 X-12.5605 Y10.8815 
G01 X-12.6457 Y10.7541 
G01 X-12.7541 Y10.6457 
G01 X-12.8815 Y10.5605 
G01 X-13.0231 Y10.5019 
G01 X-13.1734 Y10.4720 
G01 X-13.3266 Y10.4720 
G01 X-13.4162 Y10.4898 
G01 X-13.4860 Y10.4200 
G01 X-6.1700 Y10.4200 
G01 X-6.1700 Y10.9371 
G00 Z2.0000 
G00 X-8.9651 Y15.8789 
G01 Z-0.1000 F254.00 
G01 X-9.0031 Y15.9169 F508.00 
G01 X-9.1049 Y16.0693 
G01 X-9.1750 Y16.2386 
G01 X-9.2108 Y16.4184 
G01 X-9.2108 Y16.6016 
G01 X-9.1750 Y16.7814 
G01 X-9.1049 Y16.9507 
G01 X-9.0031 Y17.1031 
G01 X-8.8735 Y17.2327 
G01 X-8.7279 Y17.3300 
G01 X-17.8260 Y17.3300 
G01 X-18.0913 Y17.0647 
G01 X-17.9799 Y16.9532 
G01 X-17.9799 Y16.0668 
G01 X-18.3767 Y15.6700 
G01 X-9.1740 Y15.6700 
G01 X-8.9651 Y15.8789 
G00 Z2.0000 
G00 X-20.1201 Y16.0668 
G01 Z-0.1000 F254.00 
G01 X-20.1201 Y16.9532 F508.00 
G01 X-19.4932 Y17.5801 
G01 X-18.7639 Y17.5801 
G01 X-18.2640 Y18.0800 
G01 X-19.5760 Y18.0800 
G01 X-20.6113 Y17.0447 
G01 X-20.5199 Y16.9532 
G01 X-20.5199 Y16.0668 
G01 X-20.9167 Y15.6700 
G01 X-19.7233 Y15.6700 
G01 X-20.1201 Y16.0668 
G00 Z2.0000 
G00 X-6.8680 Y5.4196 
G01 Z-0.1000 F254.00 
G01 X-8.3720 Y5.4196 F508.00 
G01 X-8.5518 Y5.4554 
G01 X-8.7211 Y5.5255 
G01 X-8.8735 Y5.6273 
G01 X-9.0031 Y5.7569 
G01 X-9.1049 Y5.9093 
G01 X-9.1750 Y6.0786 
G01 X-9.2108 Y6.2584 
G01 X-9.2108 Y6.4416 
G01 X-9.1750 Y6.6214 
G01 X-9.1049 Y6.7907 
G01 X-9.0031 Y6.9431 
G01 X-8.8735 Y7.0727 
G01 X-8.7211 Y7.1745 
G01 X-8.5518 Y7.2446 
G01 X-8.3720 Y7.2804 
G01 X-6.8680 Y7.2804 
G01 X-6.6882 Y7.2446 
G01 X-6.5189 Y7.1745 
G01 X-6.3665 Y7.0727 
G01 X-6.2369 Y6.9431 
G01 X-6.1351 Y6.7907 
G01 X-6.0650 Y6.6214 
G01 X-6.0292 Y6.4416 
G01 X-6.0292 Y6.2584 
G01 X-6.0650 Y6.0786 
G01 X-6.1351 Y5.9093 
G01 X-6.2369 Y5.7569 
G01 X-6.3665 Y5.6273 
G01 X-6.5189 Y5.5255 
G01 X-6.6882 Y5.4554 
G01 X-6.8680 Y5.4196 
G00 Z2.0000 
G00 X-27.7401 Y16.0668 
G01 Z-0.1000 F254.00 
G01 X-27.7401 Y16.9532 F508.00 
G01 X-27.1132 Y17.5801 
G01 X-26.2268 Y17.5801 
G01 X-25.5999 Y16.9532 
G01 X-25.5999 Y16.0668 
G01 X-26.2268 Y15.4399 
G01 X-27.1132 Y15.4399 
G01 X-27.7401 Y16.0668 
G00 Z2.0000 
G00 X-27.7401 Y8.4467 
G01 Z-0.1000 F254.00 
G01 X-27.7401 Y9.3332 F508.00 
G01 X-27.1132 Y9.9601 
G01 X-26.2268 Y9.9601 
G01 X-26.1803 Y9.9137 
G01 X-23.5079 Y12.5861 
G01 X-23.4121 Y12.6414 
G01 X-23.3053 Y12.6700 
G01 X-8.4447 Y12.6700 
G01 X-8.3379 Y12.6414 
G01 X-8.2421 Y12.5861 
G01 X-8.1639 Y12.5079 
G01 X-8.0164 Y12.3604 
G01 X-6.8680 Y12.3604 
G01 X-6.6882 Y12.3246 
G01 X-6.6547 Y12.3108 
G01 X-7.3836 Y13.0396 
G01 X-8.3720 Y13.0396 
G01 X-8.5518 Y13.0754 
G01 X-8.7211 Y13.1455 
G01 X-8.8735 Y13.2473 
G01 X-9.0031 Y13.3769 
G01 X-9.1049 Y13.5293 
G01 X-9.1750 Y13.6986 
G01 X-9.2108 Y13.8784 
G01 X-9.2108 Y14.0616 
G01 X-9.1750 Y14.2414 
G01 X-9.1049 Y14.4107 
G01 X-9.0031 Y14.5631 
G01 X-8.8735 Y14.6927 
G01 X-8.7211 Y14.7945 
G01 X-8.5518 Y14.8646 
G01 X-8.3720 Y14.9004 
G01 X-6.8680 Y14.9004 
G01 X-6.6882 Y14.8646 
G01 X-6.5189 Y14.7945 
G01 X-6.3665 Y14.6927 
G01 X-6.2369 Y14.5631 
G01 X-6.1351 Y14.4107 
G01 X-6.0650 Y14.2414 
G01 X-6.0292 Y14.0616 
G01 X-6.0292 Y13.8784 
G01 X-6.0650 Y13.6986 
G01 X-6.1351 Y13.5293 
G01 X-6.2369 Y13.3769 
G01 X-6.3665 Y13.2473 
G01 X-6.3886 Y13.2326 
G01 X-5.4921 Y12.3361 
G01 X-5.4200 Y12.2640 
G01 X-5.4200 Y17.3300 
G01 X-6.5121 Y17.3300 
G01 X-6.3665 Y17.2327 
G01 X-6.2369 Y17.1031 
G01 X-6.1351 Y16.9507 
G01 X-6.0650 Y16.7814 
G01 X-6.0292 Y16.6016 
G01 X-6.0292 Y16.4184 
G01 X-6.0650 Y16.2386 
G01 X-6.1351 Y16.0693 
G01 X-6.2369 Y15.9169 
G01 X-6.3665 Y15.7873 
G01 X-6.5189 Y15.6855 
G01 X-6.6882 Y15.6154 
G01 X-6.8680 Y15.5796 
G01 X-8.0764 Y15.5796 
G01 X-8.6639 Y14.9921 
G01 X-8.7421 Y14.9139 
G01 X-8.8379 Y14.8586 
G01 X-8.9447 Y14.8300 
G01 X-22.8053 Y14.8300 
G01 X-22.9121 Y14.8586 
G01 X-23.0079 Y14.9139 
G01 X-23.6103 Y15.5163 
G01 X-23.6867 Y15.4399 
G01 X-24.5732 Y15.4399 
G01 X-25.2001 Y16.0668 
G01 X-25.2001 Y16.9532 
G01 X-24.5732 Y17.5801 
G01 X-23.6867 Y17.5801 
G01 X-23.0599 Y16.9532 
G01 X-23.0599 Y16.1539 
G01 X-22.5760 Y15.6700 
G01 X-22.2633 Y15.6700 
G01 X-22.6601 Y16.0668 
G01 X-22.6601 Y16.9532 
G01 X-22.0332 Y17.5801 
G01 X-21.2639 Y17.5801 
G01 X-20.0079 Y18.8361 
G01 X-19.9121 Y18.8914 
G01 X-19.8053 Y18.9200 
G01 X-9.2032 Y18.9200 
G01 X-9.2108 Y18.9584 
G01 X-9.2108 Y19.1416 
G01 X-9.1750 Y19.3214 
G01 X-9.1049 Y19.4907 
G01 X-9.0031 Y19.6431 
G01 X-8.8735 Y19.7727 
G01 X-8.7211 Y19.8745 
G01 X-8.5518 Y19.9446 
G01 X-8.3720 Y19.9804 
G01 X-6.8680 Y19.9804 
G01 X-6.6882 Y19.9446 
G01 X-6.5189 Y19.8745 
G01 X-6.3665 Y19.7727 
G01 X-6.2369 Y19.6431 
G01 X-6.1351 Y19.4907 
G01 X-6.0650 Y19.3214 
G01 X-6.0292 Y19.1416 
G01 X-6.0292 Y18.9584 
G01 X-6.0650 Y18.7786 
G01 X-6.1351 Y18.6093 
G01 X-6.2369 Y18.4569 
G01 X-6.3665 Y18.3273 
G01 X-6.5189 Y18.2255 
G01 X-6.6529 Y18.1700 
G01 X-4.9447 Y18.1700 
G01 X-4.8379 Y18.1414 
G01 X-4.7421 Y18.0861 
G01 X-4.6639 Y18.0079 
G01 X-4.6086 Y17.9121 
G01 X-4.5800 Y17.8053 
G01 X-4.5800 Y9.6947 
G01 X-4.6086 Y9.5879 
G01 X-4.6639 Y9.4921 
G01 X-4.7421 Y9.4139 
G01 X-5.2421 Y8.9139 
G01 X-5.3379 Y8.8586 
G01 X-5.4447 Y8.8300 
G01 X-6.0292 Y8.8300 
G01 X-6.0292 Y8.7984 
G01 X-6.0650 Y8.6186 
G01 X-6.1351 Y8.4493 
G01 X-6.2369 Y8.2969 
G01 X-6.3665 Y8.1673 
G01 X-6.5189 Y8.0655 
G01 X-6.6882 Y7.9954 
G01 X-6.8680 Y7.9596 
G01 X-8.3720 Y7.9596 
G01 X-8.5518 Y7.9954 
G01 X-8.7211 Y8.0655 
G01 X-8.8735 Y8.1673 
G01 X-9.0031 Y8.2969 
G01 X-9.1049 Y8.4493 
G01 X-9.1750 Y8.6186 
G01 X-9.2108 Y8.7984 
G01 X-9.2108 Y8.9816 
G01 X-9.1750 Y9.1614 
G01 X-9.1049 Y9.3307 
G01 X-9.0031 Y9.4831 
G01 X-8.9062 Y9.5800 
G01 X-17.8260 Y9.5800 
G01 X-18.0263 Y9.3797 
G01 X-17.9799 Y9.3332 
G01 X-17.9799 Y8.4467 
G01 X-18.6068 Y7.8199 
G01 X-19.4932 Y7.8199 
G01 X-20.1201 Y8.4467 
G01 X-20.1201 Y9.3332 
G01 X-19.4932 Y9.9601 
G01 X-18.6339 Y9.9601 
G01 X-18.2640 Y10.3300 
G01 X-19.5760 Y10.3300 
G01 X-20.5463 Y9.3597 
G01 X-20.5199 Y9.3332 
G01 X-20.5199 Y8.4467 
G01 X-21.1468 Y7.8199 
G01 X-22.0332 Y7.8199 
G01 X-22.6601 Y8.4467 
G01 X-22.6601 Y9.3332 
G01 X-22.0332 Y9.9601 
G01 X-21.1468 Y9.9601 
G01 X-21.1403 Y9.9537 
G01 X-20.0079 Y11.0861 
G01 X-19.9121 Y11.1414 
G01 X-19.8053 Y11.1700 
G01 X-14.0273 Y11.1700 
G01 X-14.0280 Y11.1734 
G01 X-14.0280 Y11.3266 
G01 X-13.9981 Y11.4769 
G01 X-13.9395 Y11.6185 
G01 X-13.8543 Y11.7459 
G01 X-13.7703 Y11.8300 
G01 X-23.0760 Y11.8300 
G01 X-25.5999 Y9.3061 
G01 X-25.5999 Y8.4467 
G01 X-26.2268 Y7.8199 
G01 X-27.1132 Y7.8199 
G01 X-27.7401 Y8.4467 
G00 Z2.0000 
G00 X-25.2001 Y8.4467 
G01 Z-0.1000 F254.00 
G01 X-25.2001 Y9.3332 F508.00 
G01 X-24.5732 Y9.9601 
G01 X-23.6867 Y9.9601 
G01 X-23.0599 Y9.3332 
G01 X-23.0599 Y8.4467 
G01 X-23.6867 Y7.8199 
G01 X-24.5732 Y7.8199 
G01 X-25.2001 Y8.4467 
G00 Z2.0000 
G00 X-9.1014 Y15.8840 
G01 Z-0.1000 F254.00 
G01 X-9.1935 Y16.0219 F508.00 
G01 X-9.2712 Y16.2094 
G01 X-9.3108 Y16.4085 
G01 X-9.3108 Y16.6115 
G01 X-9.2712 Y16.8106 
G01 X-9.1935 Y16.9981 
G01 X-9.0808 Y17.1668 
G01 X-9.0176 Y17.2300 
G01 X-17.7846 Y17.2300 
G01 X-17.9499 Y17.0647 
G01 X-17.8799 Y16.9947 
G01 X-17.8799 Y16.0253 
G01 X-18.1352 Y15.7700 
G01 X-9.2154 Y15.7700 
G01 X-9.1014 Y15.8840 
G00 Z2.0000 
G00 X-20.2201 Y16.0253 
G01 Z-0.1000 F254.00 
G01 X-20.2201 Y16.9947 F508.00 
G01 X-19.5347 Y17.6801 
G01 X-18.8053 Y17.6801 
G01 X-18.5054 Y17.9800 
G01 X-19.5346 Y17.9800 
G01 X-20.4699 Y17.0447 
G01 X-20.4199 Y16.9947 
G01 X-20.4199 Y16.0253 
G01 X-20.6752 Y15.7700 
G01 X-19.9648 Y15.7700 
G01 X-20.2201 Y16.0253 
G00 Z2.0000 
G00 X-5.5200 Y17.2300 
G01 Z-0.1000 F254.00 
G01 X-6.2224 Y17.2300 F508.00 
G01 X-6.1592 Y17.1668 
G01 X-6.0465 Y16.9981 
G01 X-5.9688 Y16.8106 
G01 X-5.9292 Y16.6115 
G01 X-5.9292 Y16.4085 
G01 X-5.9688 Y16.2094 
G01 X-6.0465 Y16.0219 
G01 X-6.1592 Y15.8532 
G01 X-6.3028 Y15.7096 
G01 X-6.4715 Y15.5969 
G01 X-6.6590 Y15.5192 
G01 X-6.8581 Y15.4796 
G01 X-8.0350 Y15.4796 
G01 X-8.5471 Y14.9675 
G01 X-8.3819 Y15.0004 
G01 X-6.8581 Y15.0004 
G01 X-6.6590 Y14.9608 
G01 X-6.4715 Y14.8831 
G01 X-6.3028 Y14.7704 
G01 X-6.1592 Y14.6268 
G01 X-6.0465 Y14.4581 
G01 X-5.9688 Y14.2706 
G01 X-5.9292 Y14.0715 
G01 X-5.9292 Y13.8685 
G01 X-5.9688 Y13.6694 
G01 X-6.0465 Y13.4819 
G01 X-6.1592 Y13.3132 
G01 X-6.2435 Y13.2289 
G01 X-5.5200 Y12.5054 
G01 X-5.5200 Y17.2300 
G00 Z2.0000 
G00 X-8.9372 Y10.6296 
G01 Z-0.1000 F254.00 
G01 X-9.0808 Y10.7732 F508.00 
G01 X-9.1935 Y10.9419 
G01 X-9.2712 Y11.1294 
G01 X-9.3108 Y11.3285 
G01 X-9.3108 Y11.5315 
G01 X-9.2713 Y11.7300 
G01 X-12.5148 Y11.7300 
G01 X-12.4719 Y11.6659 
G01 X-12.4057 Y11.5061 
G01 X-12.3720 Y11.3365 
G01 X-12.3720 Y11.1635 
G01 X-12.4057 Y10.9939 
G01 X-12.4719 Y10.8341 
G01 X-12.5680 Y10.6903 
G01 X-12.6903 Y10.5680 
G01 X-12.7622 Y10.5200 
G01 X-8.7731 Y10.5200 
G01 X-8.9372 Y10.6296 
G00 Z2.0000 
G00 X-6.2700 Y10.6624 
G01 Z-0.1000 F254.00 
G01 X-6.3028 Y10.6296 F508.00 
G01 X-6.4668 Y10.5200 
G01 X-6.2700 Y10.5200 
G01 X-6.2700 Y10.6624 
G00 Z2.0000 
G00 X-20.2201 Y8.4053 
G01 Z-0.1000 F254.00 
G01 X-20.2201 Y9.3747 F508.00 
G01 X-19.5347 Y10.0601 
G01 X-18.6753 Y10.0601 
G01 X-18.5054 Y10.2300 
G01 X-19.5346 Y10.2300 
G01 X-20.4199 Y9.3447 
G01 X-20.4199 Y8.4053 
G01 X-21.1053 Y7.7199 
G01 X-22.0747 Y7.7199 
G01 X-22.7601 Y8.4053 
G01 X-22.7601 Y9.3747 
G01 X-22.0747 Y10.0601 
G01 X-21.1753 Y10.0601 
G01 X-20.0693 Y11.1661 
G01 X-19.9507 Y11.2346 
G01 X-19.8185 Y11.2700 
G01 X-14.1280 Y11.2700 
G01 X-14.1280 Y11.3365 
G01 X-14.0943 Y11.5061 
G01 X-14.0281 Y11.6659 
G01 X-13.9852 Y11.7300 
G01 X-23.0346 Y11.7300 
G01 X-25.4999 Y9.2647 
G01 X-25.4999 Y8.4053 
G01 X-26.1853 Y7.7199 
G01 X-27.1547 Y7.7199 
G01 X-27.8401 Y8.4053 
G01 X-27.8401 Y9.3747 
G01 X-27.1547 Y10.0601 
G01 X-26.1853 Y10.0601 
G01 X-26.1803 Y10.0551 
G01 X-23.5693 Y12.6661 
G01 X-23.4507 Y12.7346 
G01 X-23.3185 Y12.7700 
G01 X-8.4315 Y12.7700 
G01 X-8.2993 Y12.7346 
G01 X-8.1807 Y12.6661 
G01 X-8.0839 Y12.5693 
G01 X-7.9750 Y12.4604 
G01 X-6.9458 Y12.4604 
G01 X-7.4250 Y12.9396 
G01 X-8.3819 Y12.9396 
G01 X-8.5810 Y12.9792 
G01 X-8.7685 Y13.0569 
G01 X-8.9372 Y13.1696 
G01 X-9.0808 Y13.3132 
G01 X-9.1935 Y13.4819 
G01 X-9.2712 Y13.6694 
G01 X-9.3108 Y13.8685 
G01 X-9.3108 Y14.0715 
G01 X-9.2712 Y14.2706 
G01 X-9.1935 Y14.4581 
G01 X-9.0808 Y14.6268 
G01 X-8.9776 Y14.7300 
G01 X-22.8185 Y14.7300 
G01 X-22.9507 Y14.7654 
G01 X-23.0693 Y14.8339 
G01 X-23.6103 Y15.3749 
G01 X-23.6453 Y15.3399 
G01 X-24.6147 Y15.3399 
G01 X-25.3001 Y16.0253 
G01 X-25.3001 Y16.9947 
G01 X-24.6147 Y17.6801 
G01 X-23.6453 Y17.6801 
G01 X-22.9599 Y16.9947 
G01 X-22.9599 Y16.1953 
G01 X-22.5346 Y15.7700 
G01 X-22.5048 Y15.7700 
G01 X-22.7601 Y16.0253 
G01 X-22.7601 Y16.9947 
G01 X-22.0747 Y17.6801 
G01 X-21.3053 Y17.6801 
G01 X-20.0693 Y18.9161 
G01 X-19.9507 Y18.9846 
G01 X-19.8185 Y19.0200 
G01 X-9.3108 Y19.0200 
G01 X-9.3108 Y19.1515 
G01 X-9.2712 Y19.3506 
G01 X-9.1935 Y19.5381 
G01 X-9.0808 Y19.7068 
G01 X-8.9372 Y19.8504 
G01 X-8.7685 Y19.9631 
G01 X-8.5810 Y20.0408 
G01 X-8.3819 Y20.0804 
G01 X-6.8581 Y20.0804 
G01 X-6.6590 Y20.0408 
G01 X-6.4715 Y19.9631 
G01 X-6.3028 Y19.8504 
G01 X-6.1592 Y19.7068 
G01 X-6.0465 Y19.5381 
G01 X-5.9688 Y19.3506 
G01 X-5.9292 Y19.1515 
G01 X-5.9292 Y18.9485 
G01 X-5.9688 Y18.7494 
G01 X-6.0465 Y18.5619 
G01 X-6.1592 Y18.3932 
G01 X-6.2824 Y18.2700 
G01 X-4.9315 Y18.2700 
G01 X-4.7993 Y18.2346 
G01 X-4.6807 Y18.1661 
G01 X-4.5839 Y18.0693 
G01 X-4.5154 Y17.9507 
G01 X-4.4800 Y17.8185 
G01 X-4.4800 Y9.6815 
G01 X-4.5154 Y9.5493 
G01 X-4.5839 Y9.4307 
G01 X-4.6807 Y9.3339 
G01 X-5.1807 Y8.8339 
G01 X-5.2993 Y8.7654 
G01 X-5.4315 Y8.7300 
G01 X-5.9408 Y8.7300 
G01 X-5.9688 Y8.5894 
G01 X-6.0465 Y8.4019 
G01 X-6.1592 Y8.2332 
G01 X-6.3028 Y8.0896 
G01 X-6.4715 Y7.9769 
G01 X-6.6590 Y7.8992 
G01 X-6.8581 Y7.8596 
G01 X-8.3819 Y7.8596 
G01 X-8.5810 Y7.8992 
G01 X-8.7685 Y7.9769 
G01 X-8.9372 Y8.0896 
G01 X-9.0808 Y8.2332 
G01 X-9.1935 Y8.4019 
G01 X-9.2712 Y8.5894 
G01 X-9.3108 Y8.7885 
G01 X-9.3108 Y8.9915 
G01 X-9.2712 Y9.1906 
G01 X-9.1935 Y9.3781 
G01 X-9.1254 Y9.4800 
G01 X-17.7846 Y9.4800 
G01 X-17.8849 Y9.3797 
G01 X-17.8799 Y9.3747 
G01 X-17.8799 Y8.4053 
G01 X-18.5653 Y7.7199 
G01 X-19.5347 Y7.7199 
G01 X-20.2201 Y8.4053 
G00 Z2.0000 
G00 X-25.3001 Y8.4053 
G01 Z-0.1000 F254.00 
G01 X-25.3001 Y9.3747 F508.00 
G01 X-24.6147 Y10.0601 
G01 X-23.6453 Y10.0601 
G01 X-22.9599 Y9.3747 
G01 X-22.9599 Y8.4053 
G01 X-23.6453 Y7.7199 
G01 X-24.6147 Y7.7199 
G01 X-25.3001 Y8.4053 
G00 Z2.0000 
G00 X-27.8401 Y16.0253 
G01 Z-0.1000 F254.00 
G01 X-27.8401 Y16.9947 F508.00 
G01 X-27.1547 Y17.6801 
G01 X-26.1853 Y17.6801 
G01 X-25.4999 Y16.9947 
G01 X-25.4999 Y16.0253 
G01 X-26.1853 Y15.3399 
G01 X-27.1547 Y15.3399 
G01 X-27.8401 Y16.0253 
G00 Z2.0000 
G00 X-6.8581 Y5.3196 
G01 Z-0.1000 F254.00 
G01 X-8.3819 Y5.3196 F508.00 
G01 X-8.5810 Y5.3592 
G01 X-8.7685 Y5.4369 
G01 X-8.9372 Y5.5496 
G01 X-9.0808 Y5.6932 
G01 X-9.1935 Y5.8619 
G01 X-9.2712 Y6.0494 
G01 X-9.3108 Y6.2485 
G01 X-9.3108 Y6.4515 
G01 X-9.2712 Y6.6506 
G01 X-9.1935 Y6.8381 
G01 X-9.0808 Y7.0068 
G01 X-8.9372 Y7.1504 
G01 X-8.7685 Y7.2631 
G01 X-8.5810 Y7.3408 
G01 X-8.3819 Y7.3804 
G01 X-6.8581 Y7.3804 
G01 X-6.6590 Y7.3408 
G01 X-6.4715 Y7.2631 
G01 X-6.3028 Y7.1504 
G01 X-6.1592 Y7.0068 
G01 X-6.0465 Y6.8381 
G01 X-5.9688 Y6.6506 
G01 X-5.9292 Y6.4515 
G01 X-5.9292 Y6.2485 
G01 X-5.9688 Y6.0494 
G01 X-6.0465 Y5.8619 
G01 X-6.1592 Y5.6932 
G01 X-6.3028 Y5.5496 
G01 X-6.4715 Y5.4369 
G01 X-6.6590 Y5.3592 
G01 X-6.8581 Y5.3196 
G00 Z2.0000 
G82 X-13.2500 Y11.2500 Z-0.2000 F254.00 R2.0000 P1.000000
G82 X-7.6200 Y6.3500 
G82 X-7.6200 Y8.8900 
G82 X-7.6200 Y11.4300 
G82 X-7.6200 Y13.9700 
G82 X-7.6200 Y16.5100 
G82 X-7.6200 Y19.0500 
G82 X-19.0500 Y8.8900 
G82 X-21.5900 Y8.8900 
G82 X-24.1300 Y8.8900 
G82 X-26.6700 Y8.8900 
G82 X-26.6700 Y16.5100 
G82 X-24.1300 Y16.5100 
G82 X-21.5900 Y16.5100 
G82 X-19.0500 Y16.5100 
G00 Z15.0000 
M05
M02
