(.../pcb-gcode-3.6.0.4/pcb-gcode.ulp)
(Copyright 2005 - 2012 by John Johnson)
(See readme.txt for licensing terms.)
(This file generated from the board:)
(.../eagle/eagle/cncWTest/modbus.brd)
(Current profile is .../pcb-gcode-3.6.0.4/profiles/emc.pp  )
(This file generated 6/29/2014 1:06:27 AM)
(Settings from pcb-machine.h)
(  Tool Size)
(0.1000 )
(Z Axis Settings)
(  High     Up        Down     Drill)
(15.0000 	2.0000 	-0.1000 	-1.0000 )
(spindle on time = 1.0000)
(milling depth = -0.1000)
(text depth = -0.5000)
(tool change at 15.0000 15.0000 15.0000 )
(feed rate xy = F508.00 )
(feed rate z  = F254.00 )
(Settings from pcb-defaults.h)
(isolate min = 0.0200)
(isolate max = 0.3000)
(isolate step = 0.1000)
(Generated top outlines, top drill, bottom outlines, bottom drill, )
(Unit of measure: mm)
(Metric Mode)
G21
(Absolute Coordinates)
G90
G00 X0.0000 Y0.0000 
M03
G04 P1.000000
G00 Z2.0000 
G00 X2.2530 Y14.2225 
G01 Z-0.1000 F254.00 
G01 X2.2530 Y14.8292 F508.00 
G01 X2.4385 Y15.0148 
G01 X2.8597 Y15.0148 
G01 X3.0453 Y14.8292 
G01 X3.0453 Y14.2225 
G01 X2.2530 Y14.2225 
G00 Z2.0000 
G00 X2.7097 Y17.4968 
G01 Z-0.1000 F254.00 
G01 X2.3136 Y17.8929 F508.00 
G01 X2.7097 Y18.2891 
G01 X2.7741 Y18.2891 
G01 X2.7741 Y17.4968 
G01 X2.7097 Y17.4968 
G00 Z2.0000 
G00 X3.2520 Y21.5634 
G01 Z-0.1000 F254.00 
G01 X3.4021 Y21.5634 F508.00 
G01 X3.5876 Y21.3779 
G01 X3.5876 Y20.7711 
G01 X3.0665 Y20.7711 
G01 X3.0665 Y21.3779 
G01 X3.2520 Y21.5634 
G00 Z2.0000 
G00 X2.2530 Y20.7711 
G01 Z-0.1000 F254.00 
G01 X2.2530 Y21.3779 F508.00 
G01 X2.4385 Y21.5634 
G01 X2.5886 Y21.5634 
G01 X2.7741 Y21.3779 
G01 X2.7741 Y20.7711 
G01 X2.2530 Y20.7711 
G00 Z2.0000 
G00 X2.0777 Y20.4787 
G01 Z-0.1000 F254.00 
G01 X3.7629 Y20.4787 F508.00 
G01 X3.8166 Y20.5010 
G01 X3.8577 Y20.5421 
G01 X3.8800 Y20.5958 
G01 X3.8800 Y21.4675 
G01 X3.8577 Y21.5212 
G01 X3.5455 Y21.8335 
G01 X3.4917 Y21.8558 
G01 X3.1624 Y21.8558 
G01 X3.1087 Y21.8335 
G01 X3.0675 Y21.7924 
G01 X2.9203 Y21.6452 
G01 X2.7320 Y21.8335 
G01 X2.6782 Y21.8558 
G01 X2.3489 Y21.8558 
G01 X2.2952 Y21.8335 
G01 X1.9829 Y21.5212 
G01 X1.9606 Y21.4675 
G01 X1.9606 Y20.5958 
G01 X1.9829 Y20.5421 
G01 X2.0240 Y20.5010 
G01 X2.0777 Y20.4787 
G00 Z2.0000 
G00 X3.7629 Y17.2044 
G01 Z-0.1000 F254.00 
G01 X3.8166 Y17.2267 F508.00 
G01 X3.8577 Y17.2678 
G01 X3.8800 Y17.3215 
G01 X3.8800 Y17.3797 
G01 X3.8577 Y17.4334 
G01 X3.8166 Y17.4745 
G01 X3.7629 Y17.4968 
G01 X3.0665 Y17.4968 
G01 X3.0665 Y18.2891 
G01 X3.7629 Y18.2891 
G01 X3.8166 Y18.3113 
G01 X3.8577 Y18.3525 
G01 X3.8800 Y18.4062 
G01 X3.8800 Y18.4643 
G01 X3.8577 Y18.5181 
G01 X3.8166 Y18.5592 
G01 X3.7629 Y18.5815 
G01 X2.6201 Y18.5815 
G01 X2.5663 Y18.5592 
G01 X1.9829 Y17.9757 
G01 X1.9606 Y17.9220 
G01 X1.9606 Y17.8638 
G01 X1.9829 Y17.8101 
G01 X2.0240 Y17.7690 
G01 X2.5663 Y17.2267 
G01 X2.6201 Y17.2044 
G01 X2.9494 Y17.2044 
G01 X3.7629 Y17.2044 
G00 Z2.0000 
G00 X3.7629 Y13.9301 
G01 Z-0.1000 F254.00 
G01 X3.8166 Y13.9524 F508.00 
G01 X3.8577 Y13.9935 
G01 X3.8800 Y14.0472 
G01 X3.8800 Y14.1054 
G01 X3.8577 Y14.1591 
G01 X3.8166 Y14.2002 
G01 X3.7629 Y14.2225 
G01 X3.3377 Y14.2225 
G01 X3.3377 Y14.5581 
G01 X3.8577 Y15.0781 
G01 X3.8800 Y15.1319 
G01 X3.8800 Y15.1900 
G01 X3.8577 Y15.2438 
G01 X3.8166 Y15.2849 
G01 X3.7629 Y15.3072 
G01 X3.7047 Y15.3072 
G01 X3.6510 Y15.2849 
G01 X3.3222 Y14.9561 
G01 X3.3154 Y14.9726 
G01 X3.2743 Y15.0137 
G01 X3.0031 Y15.2849 
G01 X2.9494 Y15.3072 
G01 X2.3489 Y15.3072 
G01 X2.2952 Y15.2849 
G01 X1.9829 Y14.9726 
G01 X1.9606 Y14.9189 
G01 X1.9606 Y14.0472 
G01 X1.9829 Y13.9935 
G01 X2.0240 Y13.9524 
G01 X2.0777 Y13.9301 
G01 X3.2206 Y13.9301 
G01 X3.7629 Y13.9301 
G00 Z2.0000 
G00 X2.0777 Y7.6739 
G01 Z-0.1000 F254.00 
G01 X2.0240 Y7.6516 F508.00 
G01 X1.9829 Y7.6105 
G01 X1.9606 Y7.5568 
G01 X1.9606 Y7.4986 
G01 X1.9829 Y7.4449 
G01 X2.0240 Y7.4037 
G01 X2.0777 Y7.3815 
G01 X3.2206 Y7.3815 
G01 X3.2743 Y7.4037 
G01 X3.8166 Y7.9461 
G01 X3.8577 Y7.9872 
G01 X3.8800 Y8.0409 
G01 X3.8800 Y8.0991 
G01 X3.8577 Y8.1528 
G01 X3.2743 Y8.7363 
G01 X3.2221 Y8.7579 
G01 X2.0777 Y8.7585 
G01 X2.0240 Y8.7363 
G01 X1.9829 Y8.6951 
G01 X1.9606 Y8.6414 
G01 X1.9606 Y8.5832 
G01 X1.9829 Y8.5295 
G01 X2.0240 Y8.4884 
G01 X2.0777 Y8.4661 
G01 X3.1309 Y8.4661 
G01 X3.5270 Y8.0700 
G01 X3.1309 Y7.6739 
G01 X2.0777 Y7.6739 
G00 Z2.0000 
G00 X2.2530 Y7.0043 
G01 Z-0.1000 F254.00 
G01 X2.2308 Y7.0580 F508.00 
G01 X2.1896 Y7.0991 
G01 X2.1359 Y7.1214 
G01 X2.0777 Y7.1214 
G01 X2.0240 Y7.0991 
G01 X1.9829 Y7.0580 
G01 X1.9606 Y7.0043 
G01 X1.9606 Y5.8614 
G01 X1.9829 Y5.8077 
G01 X2.0240 Y5.7666 
G01 X2.0777 Y5.7443 
G01 X2.8966 Y5.7443 
G01 X2.9017 Y5.7426 
G01 X2.9255 Y5.7443 
G01 X2.9494 Y5.7443 
G01 X2.9543 Y5.7464 
G01 X2.9597 Y5.7467 
G01 X2.9810 Y5.7574 
G01 X3.0031 Y5.7666 
G01 X3.0069 Y5.7704 
G01 X3.0117 Y5.7728 
G01 X3.0273 Y5.7908 
G01 X3.0442 Y5.8077 
G01 X3.0463 Y5.8126 
G01 X3.0498 Y5.8167 
G01 X3.0574 Y5.8394 
G01 X3.0665 Y5.8614 
G01 X3.0665 Y5.8668 
G01 X3.0682 Y5.8719 
G01 X3.0665 Y5.8957 
G01 X3.0665 Y5.9196 
G01 X3.0645 Y5.9245 
G01 X3.0641 Y5.9299 
G01 X3.0534 Y5.9513 
G01 X3.0442 Y5.9733 
G01 X3.0405 Y5.9771 
G01 X2.7953 Y6.4674 
G01 X2.7953 Y6.6434 
G01 X2.9809 Y6.8290 
G01 X3.4021 Y6.8290 
G01 X3.5876 Y6.6434 
G01 X3.5876 Y6.2222 
G01 X3.3387 Y5.9733 
G01 X3.3164 Y5.9196 
G01 X3.3164 Y5.8614 
G01 X3.3387 Y5.8077 
G01 X3.3798 Y5.7666 
G01 X3.4336 Y5.7443 
G01 X3.4917 Y5.7443 
G01 X3.5455 Y5.7666 
G01 X3.8577 Y6.0789 
G01 X3.8800 Y6.1326 
G01 X3.8800 Y6.7331 
G01 X3.8577 Y6.7868 
G01 X3.5455 Y7.0991 
G01 X3.4917 Y7.1214 
G01 X2.8912 Y7.1214 
G01 X2.8375 Y7.0991 
G01 X2.7964 Y7.0580 
G01 X2.5252 Y6.7868 
G01 X2.5029 Y6.7331 
G01 X2.5029 Y6.4566 
G01 X2.5012 Y6.4515 
G01 X2.5029 Y6.4276 
G01 X2.5029 Y6.4038 
G01 X2.5050 Y6.3988 
G01 X2.5054 Y6.3935 
G01 X2.5161 Y6.3721 
G01 X2.5252 Y6.3500 
G01 X2.5290 Y6.3462 
G01 X2.6838 Y6.0367 
G01 X2.2530 Y6.0367 
G01 X2.2530 Y7.0043 
G00 Z2.0000 
G00 X2.5019 Y3.6180 
G01 Z-0.1000 F254.00 
G01 X2.5242 Y3.6718 F508.00 
G01 X2.5242 Y3.7299 
G01 X2.5019 Y3.7837 
G01 X2.4608 Y3.8248 
G01 X2.4071 Y3.8471 
G01 X2.3489 Y3.8471 
G01 X2.2952 Y3.8248 
G01 X1.9853 Y3.5149 
G01 X1.9606 Y3.4588 
G01 X1.9606 Y2.8583 
G01 X1.9829 Y2.8045 
G01 X2.2540 Y2.5334 
G01 X2.2952 Y2.4923 
G01 X2.3489 Y2.4700 
G01 X3.4917 Y2.4700 
G01 X3.5455 Y2.4923 
G01 X3.8166 Y2.7634 
G01 X3.8577 Y2.8045 
G01 X3.8800 Y2.8583 
G01 X3.8800 Y3.4588 
G01 X3.8584 Y3.5110 
G01 X3.5455 Y3.8248 
G01 X3.4932 Y3.8464 
G01 X2.8912 Y3.8471 
G01 X2.8375 Y3.8248 
G01 X2.7964 Y3.7837 
G01 X2.7741 Y3.7299 
G01 X2.7741 Y3.1294 
G01 X2.7964 Y3.0757 
G01 X2.8375 Y3.0346 
G01 X2.8912 Y3.0123 
G01 X2.9494 Y3.0123 
G01 X3.0031 Y3.0346 
G01 X3.0442 Y3.0757 
G01 X3.0665 Y3.1294 
G01 X3.0665 Y3.5547 
G01 X3.4021 Y3.5547 
G01 X3.5876 Y3.3691 
G01 X3.5876 Y2.9479 
G01 X3.4021 Y2.7624 
G01 X2.4385 Y2.7624 
G01 X2.2530 Y2.9479 
G01 X2.2530 Y3.3691 
G01 X2.5019 Y3.6180 
G00 Z2.0000 
G00 X3.7629 Y11.1981 
G01 Z-0.1000 F254.00 
G01 X3.8166 Y11.2204 F508.00 
G01 X3.8577 Y11.2615 
G01 X3.8800 Y11.3152 
G01 X3.8800 Y11.3734 
G01 X3.8577 Y11.4271 
G01 X3.8166 Y11.4683 
G01 X3.7629 Y11.4905 
G01 X2.2530 Y11.4905 
G01 X2.2530 Y11.9157 
G01 X2.2308 Y11.9695 
G01 X2.1896 Y12.0106 
G01 X2.1359 Y12.0328 
G01 X2.0777 Y12.0328 
G01 X2.0240 Y12.0106 
G01 X1.9829 Y11.9695 
G01 X1.9606 Y11.9157 
G01 X1.9606 Y10.7729 
G01 X1.9829 Y10.7192 
G01 X2.0240 Y10.6780 
G01 X2.0777 Y10.6558 
G01 X2.1359 Y10.6558 
G01 X2.1896 Y10.6780 
G01 X2.2308 Y10.7192 
G01 X2.2530 Y10.7729 
G01 X2.2530 Y11.1981 
G01 X3.7629 Y11.1981 
G00 Z2.0000 
G00 X13.5839 Y13.2700 
G01 Z-0.1000 F254.00 
G01 X12.1561 Y13.2700 F508.00 
G01 X12.1303 Y13.2593 
G01 X12.1107 Y13.2397 
G01 X12.1000 Y13.2139 
G01 X12.1000 Y12.1861 
G01 X12.1107 Y12.1603 
G01 X12.1303 Y12.1407 
G01 X12.1561 Y12.1300 
G01 X13.0300 Y12.1300 
G01 X13.0300 Y11.7894 
G01 X13.0269 Y11.7886 
G01 X12.8951 Y11.7125 
G01 X12.7875 Y11.6049 
G01 X12.7114 Y11.4731 
G01 X12.6720 Y11.3261 
G01 X12.6720 Y11.1739 
G01 X12.7114 Y11.0269 
G01 X12.7875 Y10.8951 
G01 X12.8951 Y10.7875 
G01 X13.0269 Y10.7114 
G01 X13.1739 Y10.6720 
G01 X13.3261 Y10.6720 
G01 X13.4731 Y10.7114 
G01 X13.6049 Y10.7875 
G01 X13.7125 Y10.8951 
G01 X13.7886 Y11.0269 
G01 X13.8280 Y11.1739 
G01 X13.8280 Y11.3261 
G01 X13.7886 Y11.4731 
G01 X13.7125 Y11.6049 
G01 X13.6049 Y11.7125 
G01 X13.4731 Y11.7886 
G01 X13.4700 Y11.7894 
G01 X13.4700 Y12.1300 
G01 X13.5839 Y12.1300 
G01 X13.6097 Y12.1407 
G01 X13.6293 Y12.1603 
G01 X13.6400 Y12.1861 
G01 X13.6400 Y13.2139 
G01 X13.6293 Y13.2397 
G01 X13.6097 Y13.2593 
G01 X13.5839 Y13.2700 
G00 Z2.0000 
G00 X22.4601 Y8.5296 
G01 Z-0.1000 F254.00 
G01 X22.4601 Y8.7800 F508.00 
G01 X23.2599 Y8.7800 
G01 X23.2599 Y8.5296 
G01 X23.7696 Y8.0199 
G01 X24.0300 Y8.0199 
G01 X24.0300 Y6.4500 
G01 X23.5161 Y6.4500 
G01 X23.4903 Y6.4393 
G01 X23.4707 Y6.4197 
G01 X23.4600 Y6.3939 
G01 X23.4600 Y5.5661 
G01 X23.4707 Y5.5403 
G01 X23.4903 Y5.5207 
G01 X23.5161 Y5.5100 
G01 X24.7439 Y5.5100 
G01 X24.7697 Y5.5207 
G01 X24.7893 Y5.5403 
G01 X24.8000 Y5.5661 
G01 X24.8000 Y6.3939 
G01 X24.7893 Y6.4197 
G01 X24.7697 Y6.4393 
G01 X24.7439 Y6.4500 
G01 X24.4700 Y6.4500 
G01 X24.4700 Y8.0199 
G01 X24.4904 Y8.0199 
G01 X25.0001 Y8.5296 
G01 X25.0001 Y9.2504 
G01 X24.4904 Y9.7601 
G01 X23.7696 Y9.7601 
G01 X23.2599 Y9.2504 
G01 X23.2599 Y9.2200 
G01 X22.4601 Y9.2200 
G01 X22.4601 Y9.2504 
G01 X21.9504 Y9.7601 
G01 X21.2296 Y9.7601 
G01 X20.7199 Y9.2504 
G01 X20.7199 Y8.5296 
G01 X21.2296 Y8.0199 
G01 X21.9504 Y8.0199 
G01 X22.4601 Y8.5296 
G00 Z2.0000 
G00 X27.5401 Y16.1496 
G01 Z-0.1000 F254.00 
G01 X27.5401 Y16.8704 F508.00 
G01 X27.0304 Y17.3801 
G01 X26.9700 Y17.3801 
G01 X26.9700 Y21.0438 
G01 X26.9365 Y21.1246 
G01 X25.6865 Y22.3746 
G01 X25.6246 Y22.4365 
G01 X25.5438 Y22.4700 
G01 X18.4500 Y22.4700 
G01 X18.4500 Y22.9039 
G01 X18.4393 Y22.9297 
G01 X18.4197 Y22.9493 
G01 X18.3939 Y22.9600 
G01 X17.1661 Y22.9600 
G01 X17.1403 Y22.9493 
G01 X17.1207 Y22.9297 
G01 X17.1100 Y22.9039 
G01 X17.1100 Y22.7200 
G01 X14.6400 Y22.7200 
G01 X14.6400 Y22.9039 
G01 X14.6293 Y22.9297 
G01 X14.6097 Y22.9493 
G01 X14.5839 Y22.9600 
G01 X13.3561 Y22.9600 
G01 X13.3303 Y22.9493 
G01 X13.3107 Y22.9297 
G01 X13.3000 Y22.9039 
G01 X13.3000 Y22.1111 
G01 X10.8135 Y19.6246 
G01 X10.7800 Y19.5438 
G01 X10.7800 Y5.4700 
G01 X7.9700 Y5.4700 
G01 X7.9700 Y5.6196 
G01 X8.3523 Y5.6196 
G01 X8.4935 Y5.6477 
G01 X8.6264 Y5.7027 
G01 X8.7460 Y5.7827 
G01 X8.8477 Y5.8844 
G01 X8.9277 Y6.0040 
G01 X8.9827 Y6.1369 
G01 X9.0108 Y6.2781 
G01 X9.0108 Y6.4219 
G01 X8.9827 Y6.5631 
G01 X8.9277 Y6.6960 
G01 X8.8477 Y6.8156 
G01 X8.7460 Y6.9173 
G01 X8.6264 Y6.9973 
G01 X8.4935 Y7.0523 
G01 X8.3523 Y7.0804 
G01 X6.8877 Y7.0804 
G01 X6.7465 Y7.0523 
G01 X6.6136 Y6.9973 
G01 X6.4940 Y6.9173 
G01 X6.3923 Y6.8156 
G01 X6.3123 Y6.6960 
G01 X6.2573 Y6.5631 
G01 X6.2292 Y6.4219 
G01 X6.2292 Y6.2781 
G01 X6.2573 Y6.1369 
G01 X6.3123 Y6.0040 
G01 X6.3923 Y5.8844 
G01 X6.4940 Y5.7827 
G01 X6.6136 Y5.7027 
G01 X6.7465 Y5.6477 
G01 X6.8877 Y5.6196 
G01 X7.5300 Y5.6196 
G01 X7.5300 Y5.2062 
G01 X7.5635 Y5.1254 
G01 X7.6254 Y5.0635 
G01 X7.7062 Y5.0300 
G01 X10.9800 Y5.0300 
G01 X10.9800 Y4.4661 
G01 X10.9907 Y4.4403 
G01 X11.0103 Y4.4207 
G01 X11.0361 Y4.4100 
G01 X12.2639 Y4.4100 
G01 X12.2896 Y4.4207 
G01 X12.3093 Y4.4403 
G01 X12.3200 Y4.4661 
G01 X12.3200 Y5.6939 
G01 X12.3093 Y5.7197 
G01 X12.2896 Y5.7393 
G01 X12.2639 Y5.7500 
G01 X11.2200 Y5.7500 
G01 X11.2200 Y19.4089 
G01 X13.8311 Y22.0200 
G01 X14.5839 Y22.0200 
G01 X14.6097 Y22.0307 
G01 X14.6293 Y22.0503 
G01 X14.6400 Y22.0761 
G01 X14.6400 Y22.2800 
G01 X15.0300 Y22.2800 
G01 X15.0300 Y14.2200 
G01 X14.3561 Y14.2200 
G01 X14.3303 Y14.2093 
G01 X14.3107 Y14.1897 
G01 X14.3000 Y14.1639 
G01 X14.3000 Y13.1361 
G01 X14.3107 Y13.1103 
G01 X14.3303 Y13.0907 
G01 X14.3561 Y13.0800 
G01 X15.7839 Y13.0800 
G01 X15.8097 Y13.0907 
G01 X15.8293 Y13.1103 
G01 X15.8400 Y13.1361 
G01 X15.8400 Y14.1639 
G01 X15.8293 Y14.1897 
G01 X15.8097 Y14.2093 
G01 X15.7839 Y14.2200 
G01 X15.4700 Y14.2200 
G01 X15.4700 Y22.2800 
G01 X17.1100 Y22.2800 
G01 X17.1100 Y22.0761 
G01 X17.1207 Y22.0503 
G01 X17.1403 Y22.0307 
G01 X17.1661 Y22.0200 
G01 X18.3939 Y22.0200 
G01 X18.4181 Y22.0300 
G01 X25.4089 Y22.0300 
G01 X26.5300 Y20.9089 
G01 X26.5300 Y17.3801 
G01 X26.3096 Y17.3801 
G01 X25.7999 Y16.8704 
G01 X25.7999 Y16.1496 
G01 X26.3096 Y15.6399 
G01 X27.0304 Y15.6399 
G01 X27.5401 Y16.1496 
G00 Z2.0000 
G00 X22.4601 Y16.1496 
G01 Z-0.1000 F254.00 
G01 X22.4601 Y16.8704 F508.00 
G01 X21.9504 Y17.3801 
G01 X21.7200 Y17.3801 
G01 X21.7200 Y19.5438 
G01 X21.6865 Y19.6246 
G01 X21.6246 Y19.6865 
G01 X21.1600 Y20.1511 
G01 X21.1600 Y20.9339 
G01 X21.1493 Y20.9596 
G01 X21.1297 Y20.9793 
G01 X21.1039 Y20.9900 
G01 X20.2761 Y20.9900 
G01 X20.2503 Y20.9793 
G01 X20.2307 Y20.9596 
G01 X20.2200 Y20.9339 
G01 X20.2200 Y20.7200 
G01 X18.4500 Y20.7200 
G01 X18.4500 Y21.1039 
G01 X18.4393 Y21.1297 
G01 X18.4197 Y21.1493 
G01 X18.3939 Y21.1600 
G01 X17.1661 Y21.1600 
G01 X17.1403 Y21.1493 
G01 X17.1207 Y21.1297 
G01 X17.1100 Y21.1039 
G01 X17.1100 Y20.2761 
G01 X17.1207 Y20.2503 
G01 X17.1403 Y20.2307 
G01 X17.1661 Y20.2200 
G01 X18.3939 Y20.2200 
G01 X18.4197 Y20.2307 
G01 X18.4393 Y20.2503 
G01 X18.4500 Y20.2761 
G01 X18.4500 Y20.2800 
G01 X20.2200 Y20.2800 
G01 X20.2200 Y19.7061 
G01 X20.2307 Y19.6803 
G01 X20.2503 Y19.6607 
G01 X20.2761 Y19.6500 
G01 X21.0389 Y19.6500 
G01 X21.2800 Y19.4089 
G01 X21.2800 Y17.3801 
G01 X21.2296 Y17.3801 
G01 X20.7199 Y16.8704 
G01 X20.7199 Y16.1496 
G01 X21.2296 Y15.6399 
G01 X21.9504 Y15.6399 
G01 X22.4601 Y16.1496 
G00 Z2.0000 
G00 X19.7061 Y5.5100 
G01 Z-0.1000 F254.00 
G01 X20.9339 Y5.5100 F508.00 
G01 X20.9596 Y5.5207 
G01 X20.9793 Y5.5403 
G01 X20.9900 Y5.5661 
G01 X20.9900 Y6.3939 
G01 X20.9793 Y6.4197 
G01 X20.9596 Y6.4393 
G01 X20.9339 Y6.4500 
G01 X20.1111 Y6.4500 
G01 X19.4700 Y7.0911 
G01 X19.4700 Y8.0795 
G01 X19.9201 Y8.5296 
G01 X19.9201 Y9.2504 
G01 X19.4104 Y9.7601 
G01 X18.6896 Y9.7601 
G01 X18.1799 Y9.2504 
G01 X18.1799 Y8.5296 
G01 X18.6896 Y8.0199 
G01 X19.0300 Y8.0199 
G01 X19.0300 Y6.9562 
G01 X19.0635 Y6.8754 
G01 X19.1254 Y6.8135 
G01 X19.6500 Y6.2889 
G01 X19.6500 Y5.5661 
G01 X19.6607 Y5.5403 
G01 X19.6803 Y5.5207 
G01 X19.7061 Y5.5100 
G00 Z2.0000 
G00 X26.2400 Y19.7061 
G01 Z-0.1000 F254.00 
G01 X26.2400 Y20.9339 F508.00 
G01 X26.2293 Y20.9596 
G01 X26.2096 Y20.9793 
G01 X26.1839 Y20.9900 
G01 X25.3561 Y20.9900 
G01 X25.3303 Y20.9793 
G01 X25.3107 Y20.9596 
G01 X25.3000 Y20.9339 
G01 X25.3000 Y20.4700 
G01 X22.9600 Y20.4700 
G01 X22.9600 Y20.9339 
G01 X22.9493 Y20.9596 
G01 X22.9297 Y20.9793 
G01 X22.9039 Y20.9900 
G01 X22.0761 Y20.9900 
G01 X22.0503 Y20.9793 
G01 X22.0307 Y20.9596 
G01 X22.0200 Y20.9339 
G01 X22.0200 Y19.7061 
G01 X22.0307 Y19.6803 
G01 X22.0503 Y19.6607 
G01 X22.0761 Y19.6500 
G01 X22.9039 Y19.6500 
G01 X22.9297 Y19.6607 
G01 X22.9493 Y19.6803 
G01 X22.9600 Y19.7061 
G01 X22.9600 Y20.0300 
G01 X24.0300 Y20.0300 
G01 X24.0300 Y17.3801 
G01 X23.7696 Y17.3801 
G01 X23.2599 Y16.8704 
G01 X23.2599 Y16.1496 
G01 X23.7696 Y15.6399 
G01 X24.4904 Y15.6399 
G01 X25.0001 Y16.1496 
G01 X25.0001 Y16.8704 
G01 X24.4904 Y17.3801 
G01 X24.4700 Y17.3801 
G01 X24.4700 Y20.0300 
G01 X25.3000 Y20.0300 
G01 X25.3000 Y19.7061 
G01 X25.3107 Y19.6803 
G01 X25.3303 Y19.6607 
G01 X25.3561 Y19.6500 
G01 X26.1839 Y19.6500 
G01 X26.2096 Y19.6607 
G01 X26.2293 Y19.6803 
G01 X26.2400 Y19.7061 
G00 Z2.0000 
G00 X28.0400 Y20.2711 
G01 Z-0.1000 F254.00 
G01 X28.0400 Y20.9339 F508.00 
G01 X28.0293 Y20.9596 
G01 X28.0097 Y20.9793 
G01 X27.9839 Y20.9900 
G01 X27.1561 Y20.9900 
G01 X27.1303 Y20.9793 
G01 X27.1107 Y20.9596 
G01 X27.1000 Y20.9339 
G01 X27.1000 Y19.7061 
G01 X27.1107 Y19.6803 
G01 X27.1303 Y19.6607 
G01 X27.1561 Y19.6500 
G01 X27.7800 Y19.6500 
G01 X27.7800 Y16.0911 
G01 X27.1589 Y15.4700 
G01 X19.4700 Y15.4700 
G01 X19.4700 Y15.6995 
G01 X19.9201 Y16.1496 
G01 X19.9201 Y16.8704 
G01 X19.4104 Y17.3801 
G01 X18.6896 Y17.3801 
G01 X18.1799 Y16.8704 
G01 X18.1799 Y16.1496 
G01 X18.6896 Y15.6399 
G01 X19.0300 Y15.6399 
G01 X19.0300 Y15.3411 
G01 X17.5635 Y13.8746 
G01 X17.5300 Y13.7938 
G01 X17.5300 Y5.9700 
G01 X17.1800 Y5.9700 
G01 X17.1800 Y6.3939 
G01 X17.1693 Y6.4197 
G01 X17.1497 Y6.4393 
G01 X17.1239 Y6.4500 
G01 X15.8961 Y6.4500 
G01 X15.8703 Y6.4393 
G01 X15.8507 Y6.4197 
G01 X15.8400 Y6.3939 
G01 X15.8400 Y5.5661 
G01 X15.8507 Y5.5403 
G01 X15.8703 Y5.5207 
G01 X15.8961 Y5.5100 
G01 X17.1239 Y5.5100 
G01 X17.1497 Y5.5207 
G01 X17.1590 Y5.5300 
G01 X19.0300 Y5.5300 
G01 X19.0300 Y5.2062 
G01 X19.0635 Y5.1254 
G01 X19.6500 Y4.5389 
G01 X19.6500 Y3.7661 
G01 X19.6607 Y3.7403 
G01 X19.6803 Y3.7207 
G01 X19.7061 Y3.7100 
G01 X20.9339 Y3.7100 
G01 X20.9596 Y3.7207 
G01 X20.9793 Y3.7403 
G01 X20.9900 Y3.7661 
G01 X20.9900 Y4.0300 
G01 X23.4600 Y4.0300 
G01 X23.4600 Y3.7661 
G01 X23.4707 Y3.7403 
G01 X23.4903 Y3.7207 
G01 X23.5161 Y3.7100 
G01 X24.7439 Y3.7100 
G01 X24.7697 Y3.7207 
G01 X24.7893 Y3.7403 
G01 X24.8000 Y3.7661 
G01 X24.8000 Y4.5939 
G01 X24.7893 Y4.6197 
G01 X24.7697 Y4.6393 
G01 X24.7439 Y4.6500 
G01 X23.5161 Y4.6500 
G01 X23.4903 Y4.6393 
G01 X23.4707 Y4.6197 
G01 X23.4600 Y4.5939 
G01 X23.4600 Y4.4700 
G01 X20.9900 Y4.4700 
G01 X20.9900 Y4.5939 
G01 X20.9793 Y4.6197 
G01 X20.9596 Y4.6393 
G01 X20.9339 Y4.6500 
G01 X20.1611 Y4.6500 
G01 X19.4700 Y5.3411 
G01 X19.4700 Y5.7938 
G01 X19.4365 Y5.8746 
G01 X19.3746 Y5.9365 
G01 X19.2938 Y5.9700 
G01 X17.9700 Y5.9700 
G01 X17.9700 Y13.6589 
G01 X19.3411 Y15.0300 
G01 X27.2938 Y15.0300 
G01 X27.3746 Y15.0635 
G01 X27.4365 Y15.1254 
G01 X28.1865 Y15.8754 
G01 X28.2200 Y15.9562 
G01 X28.2200 Y20.0438 
G01 X28.1865 Y20.1246 
G01 X28.1246 Y20.1865 
G01 X28.0400 Y20.2711 
G00 Z2.0000 
G00 X27.2839 Y6.4500 
G01 Z-0.1000 F254.00 
G01 X26.9700 Y6.4500 F508.00 
G01 X26.9700 Y8.0199 
G01 X27.0304 Y8.0199 
G01 X27.5401 Y8.5296 
G01 X27.5401 Y9.2504 
G01 X27.0304 Y9.7601 
G01 X26.3096 Y9.7601 
G01 X25.7999 Y9.2504 
G01 X25.7999 Y8.5296 
G01 X26.3096 Y8.0199 
G01 X26.5300 Y8.0199 
G01 X26.5300 Y6.4500 
G01 X26.0561 Y6.4500 
G01 X26.0303 Y6.4393 
G01 X26.0107 Y6.4197 
G01 X26.0000 Y6.3939 
G01 X26.0000 Y5.5661 
G01 X26.0107 Y5.5403 
G01 X26.0303 Y5.5207 
G01 X26.0561 Y5.5100 
G01 X27.2839 Y5.5100 
G01 X27.3097 Y5.5207 
G01 X27.3293 Y5.5403 
G01 X27.3400 Y5.5661 
G01 X27.3400 Y6.3939 
G01 X27.3293 Y6.4197 
G01 X27.3097 Y6.4393 
G01 X27.2839 Y6.4500 
G00 Z2.0000 
G00 X14.5839 Y20.2200 
G01 Z-0.1000 F254.00 
G01 X14.6097 Y20.2307 F508.00 
G01 X14.6293 Y20.2503 
G01 X14.6400 Y20.2761 
G01 X14.6400 Y21.1039 
G01 X14.6293 Y21.1297 
G01 X14.6097 Y21.1493 
G01 X14.5839 Y21.1600 
G01 X13.3561 Y21.1600 
G01 X13.3303 Y21.1493 
G01 X13.3107 Y21.1297 
G01 X13.3000 Y21.1039 
G01 X13.3000 Y20.3611 
G01 X11.6254 Y18.6865 
G01 X11.5635 Y18.6246 
G01 X11.5300 Y18.5438 
G01 X11.5300 Y11.2062 
G01 X11.5635 Y11.1254 
G01 X12.9389 Y9.7500 
G01 X12.5635 Y9.3746 
G01 X12.5300 Y9.2938 
G01 X12.5300 Y2.7062 
G01 X12.5635 Y2.6254 
G01 X12.6254 Y2.5635 
G01 X12.7062 Y2.5300 
G01 X25.2938 Y2.5300 
G01 X25.3746 Y2.5635 
G01 X25.4365 Y2.6254 
G01 X26.5211 Y3.7100 
G01 X27.2839 Y3.7100 
G01 X27.3097 Y3.7207 
G01 X27.3293 Y3.7403 
G01 X27.3400 Y3.7661 
G01 X27.3400 Y4.5939 
G01 X27.3293 Y4.6197 
G01 X27.3097 Y4.6393 
G01 X27.2839 Y4.6500 
G01 X26.0561 Y4.6500 
G01 X26.0303 Y4.6393 
G01 X26.0107 Y4.6197 
G01 X26.0000 Y4.5939 
G01 X26.0000 Y3.8111 
G01 X25.1589 Y2.9700 
G01 X12.9700 Y2.9700 
G01 X12.9700 Y9.1589 
G01 X13.3746 Y9.5635 
G01 X13.4365 Y9.6254 
G01 X14.9911 Y11.1800 
G01 X15.7839 Y11.1800 
G01 X15.8097 Y11.1907 
G01 X15.8293 Y11.2103 
G01 X15.8400 Y11.2361 
G01 X15.8400 Y12.2639 
G01 X15.8293 Y12.2896 
G01 X15.8097 Y12.3093 
G01 X15.7839 Y12.3200 
G01 X14.3561 Y12.3200 
G01 X14.3303 Y12.3093 
G01 X14.3107 Y12.2896 
G01 X14.3000 Y12.2639 
G01 X14.3000 Y11.2361 
G01 X14.3107 Y11.2103 
G01 X14.3303 Y11.1907 
G01 X14.3561 Y11.1800 
G01 X14.3689 Y11.1800 
G01 X13.2500 Y10.0611 
G01 X11.9700 Y11.3411 
G01 X11.9700 Y18.4089 
G01 X13.7811 Y20.2200 
G01 X14.5839 Y20.2200 
G00 Z2.0000 
G00 X6.8877 Y8.1596 
G01 Z-0.1000 F254.00 
G01 X8.3523 Y8.1596 F508.00 
G01 X8.4935 Y8.1877 
G01 X8.6264 Y8.2427 
G01 X8.7460 Y8.3227 
G01 X8.8477 Y8.4244 
G01 X8.9277 Y8.5440 
G01 X8.9827 Y8.6769 
G01 X9.0108 Y8.8181 
G01 X9.0108 Y8.9619 
G01 X8.9827 Y9.1030 
G01 X8.9277 Y9.2360 
G01 X8.8477 Y9.3556 
G01 X8.7460 Y9.4573 
G01 X8.6264 Y9.5373 
G01 X8.4935 Y9.5923 
G01 X8.3523 Y9.6204 
G01 X6.8877 Y9.6204 
G01 X6.7465 Y9.5923 
G01 X6.6136 Y9.5373 
G01 X6.4940 Y9.4573 
G01 X6.3923 Y9.3556 
G01 X6.3123 Y9.2360 
G01 X6.2573 Y9.1030 
G01 X6.2292 Y8.9619 
G01 X6.2292 Y8.8181 
G01 X6.2573 Y8.6769 
G01 X6.3123 Y8.5440 
G01 X6.3923 Y8.4244 
G01 X6.4940 Y8.3227 
G01 X6.6136 Y8.2427 
G01 X6.7465 Y8.1877 
G01 X6.8877 Y8.1596 
G00 Z2.0000 
G00 X6.8877 Y10.6996 
G01 Z-0.1000 F254.00 
G01 X8.3523 Y10.6996 F508.00 
G01 X8.4935 Y10.7277 
G01 X8.6264 Y10.7827 
G01 X8.7460 Y10.8627 
G01 X8.8477 Y10.9644 
G01 X8.9277 Y11.0840 
G01 X8.9827 Y11.2169 
G01 X9.0108 Y11.3581 
G01 X9.0108 Y11.5019 
G01 X8.9827 Y11.6431 
G01 X8.9277 Y11.7760 
G01 X8.8477 Y11.8956 
G01 X8.7460 Y11.9973 
G01 X8.6264 Y12.0773 
G01 X8.4935 Y12.1323 
G01 X8.3523 Y12.1604 
G01 X6.8877 Y12.1604 
G01 X6.7465 Y12.1323 
G01 X6.6136 Y12.0773 
G01 X6.4940 Y11.9973 
G01 X6.3923 Y11.8956 
G01 X6.3123 Y11.7760 
G01 X6.2573 Y11.6431 
G01 X6.2292 Y11.5019 
G01 X6.2292 Y11.3581 
G01 X6.2573 Y11.2169 
G01 X6.3123 Y11.0840 
G01 X6.3923 Y10.9644 
G01 X6.4940 Y10.8627 
G01 X6.6136 Y10.7827 
G01 X6.7465 Y10.7277 
G01 X6.8877 Y10.6996 
G00 Z2.0000 
G00 X6.8877 Y13.2396 
G01 Z-0.1000 F254.00 
G01 X8.3523 Y13.2396 F508.00 
G01 X8.4935 Y13.2677 
G01 X8.6264 Y13.3227 
G01 X8.7460 Y13.4027 
G01 X8.8477 Y13.5044 
G01 X8.9277 Y13.6240 
G01 X8.9827 Y13.7569 
G01 X9.0108 Y13.8981 
G01 X9.0108 Y14.0419 
G01 X8.9827 Y14.1831 
G01 X8.9277 Y14.3160 
G01 X8.8477 Y14.4356 
G01 X8.7460 Y14.5373 
G01 X8.6264 Y14.6173 
G01 X8.4935 Y14.6723 
G01 X8.3523 Y14.7004 
G01 X6.8877 Y14.7004 
G01 X6.7465 Y14.6723 
G01 X6.6136 Y14.6173 
G01 X6.4940 Y14.5373 
G01 X6.3923 Y14.4356 
G01 X6.3123 Y14.3160 
G01 X6.2573 Y14.1831 
G01 X6.2292 Y14.0419 
G01 X6.2292 Y13.8981 
G01 X6.2573 Y13.7569 
G01 X6.3123 Y13.6240 
G01 X6.3923 Y13.5044 
G01 X6.4940 Y13.4027 
G01 X6.6136 Y13.3227 
G01 X6.7465 Y13.2677 
G01 X6.8877 Y13.2396 
G00 Z2.0000 
G00 X6.8877 Y15.7796 
G01 Z-0.1000 F254.00 
G01 X8.3523 Y15.7796 F508.00 
G01 X8.4935 Y15.8077 
G01 X8.6264 Y15.8627 
G01 X8.7460 Y15.9427 
G01 X8.8477 Y16.0444 
G01 X8.9277 Y16.1640 
G01 X8.9827 Y16.2969 
G01 X9.0108 Y16.4381 
G01 X9.0108 Y16.5819 
G01 X8.9827 Y16.7231 
G01 X8.9277 Y16.8560 
G01 X8.8477 Y16.9756 
G01 X8.7460 Y17.0773 
G01 X8.6264 Y17.1573 
G01 X8.4935 Y17.2123 
G01 X8.3523 Y17.2404 
G01 X6.8877 Y17.2404 
G01 X6.7465 Y17.2123 
G01 X6.6136 Y17.1573 
G01 X6.4940 Y17.0773 
G01 X6.3923 Y16.9756 
G01 X6.3123 Y16.8560 
G01 X6.2573 Y16.7231 
G01 X6.2292 Y16.5819 
G01 X6.2292 Y16.4381 
G01 X6.2573 Y16.2969 
G01 X6.3123 Y16.1640 
G01 X6.3923 Y16.0444 
G01 X6.4940 Y15.9427 
G01 X6.6136 Y15.8627 
G01 X6.7465 Y15.8077 
G01 X6.8877 Y15.7796 
G00 Z2.0000 
G00 X6.8877 Y18.3196 
G01 Z-0.1000 F254.00 
G01 X8.3523 Y18.3196 F508.00 
G01 X8.4935 Y18.3477 
G01 X8.6264 Y18.4027 
G01 X8.7460 Y18.4827 
G01 X8.8477 Y18.5844 
G01 X8.9277 Y18.7040 
G01 X8.9827 Y18.8369 
G01 X9.0108 Y18.9781 
G01 X9.0108 Y19.1219 
G01 X8.9827 Y19.2630 
G01 X8.9277 Y19.3960 
G01 X8.8477 Y19.5156 
G01 X8.7460 Y19.6173 
G01 X8.6264 Y19.6973 
G01 X8.4935 Y19.7523 
G01 X8.3523 Y19.7804 
G01 X6.8877 Y19.7804 
G01 X6.7465 Y19.7523 
G01 X6.6136 Y19.6973 
G01 X6.4940 Y19.6173 
G01 X6.3923 Y19.5156 
G01 X6.3123 Y19.3960 
G01 X6.2573 Y19.2630 
G01 X6.2292 Y19.1219 
G01 X6.2292 Y18.9781 
G01 X6.2573 Y18.8369 
G01 X6.3123 Y18.7040 
G01 X6.3923 Y18.5844 
G01 X6.4940 Y18.4827 
G01 X6.6136 Y18.4027 
G01 X6.7465 Y18.3477 
G01 X6.8877 Y18.3196 
G00 Z2.0000 
G00 X17.1239 Y4.6500 
G01 Z-0.1000 F254.00 
G01 X16.7200 Y4.6500 F508.00 
G01 X16.7200 Y5.0438 
G01 X16.6865 Y5.1246 
G01 X16.6246 Y5.1865 
G01 X16.5438 Y5.2200 
G01 X14.4200 Y5.2200 
G01 X14.4200 Y5.6939 
G01 X14.4093 Y5.7197 
G01 X14.3897 Y5.7393 
G01 X14.3639 Y5.7500 
G01 X13.1361 Y5.7500 
G01 X13.1103 Y5.7393 
G01 X13.0907 Y5.7197 
G01 X13.0800 Y5.6939 
G01 X13.0800 Y4.4661 
G01 X13.0907 Y4.4403 
G01 X13.1103 Y4.4207 
G01 X13.1361 Y4.4100 
G01 X14.3639 Y4.4100 
G01 X14.3897 Y4.4207 
G01 X14.4093 Y4.4403 
G01 X14.4200 Y4.4661 
G01 X14.4200 Y4.7800 
G01 X16.2800 Y4.7800 
G01 X16.2800 Y4.6500 
G01 X15.8961 Y4.6500 
G01 X15.8703 Y4.6393 
G01 X15.8507 Y4.6197 
G01 X15.8400 Y4.5939 
G01 X15.8400 Y3.7661 
G01 X15.8507 Y3.7403 
G01 X15.8703 Y3.7207 
G01 X15.8961 Y3.7100 
G01 X17.1239 Y3.7100 
G01 X17.1497 Y3.7207 
G01 X17.1693 Y3.7403 
G01 X17.1800 Y3.7661 
G01 X17.1800 Y4.5939 
G01 X17.1693 Y4.6197 
G01 X17.1497 Y4.6393 
G01 X17.1239 Y4.6500 
G00 Z2.0000 
G00 X2.3530 Y20.8711 
G01 Z-0.1000 F254.00 
G01 X2.3530 Y21.3364 F508.00 
G01 X2.4800 Y21.4634 
G01 X2.5472 Y21.4634 
G01 X2.6741 Y21.3364 
G01 X2.6741 Y20.8711 
G01 X2.3530 Y20.8711 
G00 Z2.0000 
G00 X3.2934 Y21.4634 
G01 Z-0.1000 F254.00 
G01 X3.3607 Y21.4634 F508.00 
G01 X3.4876 Y21.3364 
G01 X3.4876 Y20.8711 
G01 X3.1665 Y20.8711 
G01 X3.1665 Y21.3364 
G01 X3.2934 Y21.4634 
G00 Z2.0000 
G00 X2.4550 Y17.8929 
G01 Z-0.1000 F254.00 
G01 X2.6741 Y18.1121 F508.00 
G01 X2.6741 Y17.6738 
G01 X2.4550 Y17.8929 
G00 Z2.0000 
G00 X2.3530 Y14.3225 
G01 Z-0.1000 F254.00 
G01 X2.3530 Y14.7878 F508.00 
G01 X2.4800 Y14.9148 
G01 X2.8183 Y14.9148 
G01 X2.9453 Y14.7878 
G01 X2.9453 Y14.3225 
G01 X2.3530 Y14.3225 
G00 Z2.0000 
G00 X27.0737 Y19.5759 
G01 Z-0.1000 F254.00 
G01 X27.1362 Y19.5500 F508.00 
G01 X27.6800 Y19.5500 
G01 X27.6800 Y16.1325 
G01 X27.1175 Y15.5700 
G01 X27.1019 Y15.5700 
G01 X27.6401 Y16.1082 
G01 X27.6401 Y16.9118 
G01 X27.0718 Y17.4801 
G01 X27.0700 Y19.5796 
G01 X27.0737 Y19.5759 
G00 Z2.0000 
G00 X25.2000 Y19.9300 
G01 Z-0.1000 F254.00 
G01 X25.2000 Y19.6862 F508.00 
G01 X25.2259 Y19.6237 
G01 X25.2737 Y19.5759 
G01 X25.3362 Y19.5500 
G01 X26.2038 Y19.5500 
G01 X26.2663 Y19.5759 
G01 X26.3141 Y19.6237 
G01 X26.3400 Y19.6862 
G01 X26.3400 Y20.9538 
G01 X26.3374 Y20.9600 
G01 X26.4300 Y20.8675 
G01 X26.4300 Y17.4801 
G01 X26.2682 Y17.4801 
G01 X25.6999 Y16.9118 
G01 X25.6999 Y16.1082 
G01 X26.2381 Y15.5700 
G01 X24.5619 Y15.5700 
G01 X25.1001 Y16.1082 
G01 X25.1001 Y16.9118 
G01 X24.5700 Y17.4419 
G01 X24.5700 Y19.9300 
G01 X25.2000 Y19.9300 
G00 Z2.0000 
G00 X6.8778 Y18.2196 
G01 Z-0.1000 F254.00 
G01 X8.3622 Y18.2196 F508.00 
G01 X8.5226 Y18.2515 
G01 X8.6737 Y18.3141 
G01 X8.8097 Y18.4050 
G01 X8.9254 Y18.5206 
G01 X9.0163 Y18.6567 
G01 X9.0789 Y18.8078 
G01 X9.1108 Y18.9682 
G01 X9.1108 Y19.1318 
G01 X9.0789 Y19.2922 
G01 X9.0163 Y19.4433 
G01 X8.9254 Y19.5793 
G01 X8.8097 Y19.6950 
G01 X8.6737 Y19.7859 
G01 X8.5226 Y19.8485 
G01 X8.3622 Y19.8804 
G01 X6.8778 Y19.8804 
G01 X6.7174 Y19.8485 
G01 X6.5663 Y19.7859 
G01 X6.4303 Y19.6950 
G01 X6.3146 Y19.5793 
G01 X6.2237 Y19.4433 
G01 X6.1611 Y19.2922 
G01 X6.1292 Y19.1318 
G01 X6.1292 Y18.9682 
G01 X6.1611 Y18.8078 
G01 X6.2237 Y18.6567 
G01 X6.3146 Y18.5206 
G01 X6.4303 Y18.4050 
G01 X6.5663 Y18.3141 
G01 X6.7174 Y18.2515 
G01 X6.8778 Y18.2196 
G00 Z2.0000 
G00 X6.8778 Y15.6796 
G01 Z-0.1000 F254.00 
G01 X8.3622 Y15.6796 F508.00 
G01 X8.5226 Y15.7115 
G01 X8.6737 Y15.7741 
G01 X8.8097 Y15.8650 
G01 X8.9254 Y15.9807 
G01 X9.0163 Y16.1167 
G01 X9.0789 Y16.2678 
G01 X9.1108 Y16.4282 
G01 X9.1108 Y16.5918 
G01 X9.0789 Y16.7522 
G01 X9.0163 Y16.9033 
G01 X8.9254 Y17.0393 
G01 X8.8097 Y17.1550 
G01 X8.6737 Y17.2459 
G01 X8.5226 Y17.3085 
G01 X8.3622 Y17.3404 
G01 X6.8778 Y17.3404 
G01 X6.7174 Y17.3085 
G01 X6.5663 Y17.2459 
G01 X6.4303 Y17.1550 
G01 X6.3146 Y17.0393 
G01 X6.2237 Y16.9033 
G01 X6.1611 Y16.7522 
G01 X6.1292 Y16.5918 
G01 X6.1292 Y16.4282 
G01 X6.1611 Y16.2678 
G01 X6.2237 Y16.1167 
G01 X6.3146 Y15.9807 
G01 X6.4303 Y15.8650 
G01 X6.5663 Y15.7741 
G01 X6.7174 Y15.7115 
G01 X6.8778 Y15.6796 
G00 Z2.0000 
G00 X6.8778 Y13.1396 
G01 Z-0.1000 F254.00 
G01 X8.3622 Y13.1396 F508.00 
G01 X8.5226 Y13.1715 
G01 X8.6737 Y13.2341 
G01 X8.8097 Y13.3250 
G01 X8.9254 Y13.4406 
G01 X9.0163 Y13.5767 
G01 X9.0789 Y13.7278 
G01 X9.1108 Y13.8882 
G01 X9.1108 Y14.0518 
G01 X9.0789 Y14.2122 
G01 X9.0163 Y14.3633 
G01 X8.9254 Y14.4993 
G01 X8.8097 Y14.6150 
G01 X8.6737 Y14.7059 
G01 X8.5226 Y14.7685 
G01 X8.3622 Y14.8004 
G01 X6.8778 Y14.8004 
G01 X6.7174 Y14.7685 
G01 X6.5663 Y14.7059 
G01 X6.4303 Y14.6150 
G01 X6.3146 Y14.4993 
G01 X6.2237 Y14.3633 
G01 X6.1611 Y14.2122 
G01 X6.1292 Y14.0518 
G01 X6.1292 Y13.8882 
G01 X6.1611 Y13.7278 
G01 X6.2237 Y13.5767 
G01 X6.3146 Y13.4406 
G01 X6.4303 Y13.3250 
G01 X6.5663 Y13.2341 
G01 X6.7174 Y13.1715 
G01 X6.8778 Y13.1396 
G00 Z2.0000 
G00 X6.8778 Y10.5996 
G01 Z-0.1000 F254.00 
G01 X8.3622 Y10.5996 F508.00 
G01 X8.5226 Y10.6315 
G01 X8.6737 Y10.6941 
G01 X8.8097 Y10.7850 
G01 X8.9254 Y10.9007 
G01 X9.0163 Y11.0367 
G01 X9.0789 Y11.1878 
G01 X9.1108 Y11.3482 
G01 X9.1108 Y11.5118 
G01 X9.0789 Y11.6722 
G01 X9.0163 Y11.8233 
G01 X8.9254 Y11.9593 
G01 X8.8097 Y12.0750 
G01 X8.6737 Y12.1659 
G01 X8.5226 Y12.2285 
G01 X8.3622 Y12.2604 
G01 X6.8778 Y12.2604 
G01 X6.7174 Y12.2285 
G01 X6.5663 Y12.1659 
G01 X6.4303 Y12.0750 
G01 X6.3146 Y11.9593 
G01 X6.2237 Y11.8233 
G01 X6.1611 Y11.6722 
G01 X6.1292 Y11.5118 
G01 X6.1292 Y11.3482 
G01 X6.1611 Y11.1878 
G01 X6.2237 Y11.0367 
G01 X6.3146 Y10.9007 
G01 X6.4303 Y10.7850 
G01 X6.5663 Y10.6941 
G01 X6.7174 Y10.6315 
G01 X6.8778 Y10.5996 
G00 Z2.0000 
G00 X6.8778 Y8.0596 
G01 Z-0.1000 F254.00 
G01 X8.3622 Y8.0596 F508.00 
G01 X8.5226 Y8.0915 
G01 X8.6737 Y8.1541 
G01 X8.8097 Y8.2450 
G01 X8.9254 Y8.3606 
G01 X9.0163 Y8.4967 
G01 X9.0789 Y8.6478 
G01 X9.1108 Y8.8082 
G01 X9.1108 Y8.9718 
G01 X9.0789 Y9.1322 
G01 X9.0163 Y9.2833 
G01 X8.9254 Y9.4193 
G01 X8.8097 Y9.5350 
G01 X8.6737 Y9.6259 
G01 X8.5226 Y9.6885 
G01 X8.3622 Y9.7204 
G01 X6.8778 Y9.7204 
G01 X6.7174 Y9.6885 
G01 X6.5663 Y9.6259 
G01 X6.4303 Y9.5350 
G01 X6.3146 Y9.4193 
G01 X6.2237 Y9.2833 
G01 X6.1611 Y9.1322 
G01 X6.1292 Y8.9718 
G01 X6.1292 Y8.8082 
G01 X6.1611 Y8.6478 
G01 X6.2237 Y8.4967 
G01 X6.3146 Y8.3606 
G01 X6.4303 Y8.2450 
G01 X6.5663 Y8.1541 
G01 X6.7174 Y8.0915 
G01 X6.8778 Y8.0596 
G00 Z2.0000 
G00 X14.6038 Y20.1200 
G01 Z-0.1000 F254.00 
G01 X14.6663 Y20.1459 F508.00 
G01 X14.7141 Y20.1937 
G01 X14.7400 Y20.2562 
G01 X14.7400 Y21.1238 
G01 X14.7141 Y21.1863 
G01 X14.6663 Y21.2341 
G01 X14.6038 Y21.2600 
G01 X13.3362 Y21.2600 
G01 X13.2737 Y21.2341 
G01 X13.2259 Y21.1863 
G01 X13.2000 Y21.1238 
G01 X13.2000 Y20.4025 
G01 X11.5535 Y18.7561 
G01 X11.4939 Y18.6965 
G01 X11.4518 Y18.6235 
G01 X11.4300 Y18.5421 
G01 X11.4300 Y11.2079 
G01 X11.4518 Y11.1265 
G01 X11.4939 Y11.0535 
G01 X12.7975 Y9.7500 
G01 X12.4939 Y9.4465 
G01 X12.4518 Y9.3735 
G01 X12.4300 Y9.2921 
G01 X12.4300 Y2.7079 
G01 X12.4518 Y2.6265 
G01 X12.4939 Y2.5535 
G01 X12.5535 Y2.4939 
G01 X12.6265 Y2.4518 
G01 X12.7079 Y2.4300 
G01 X25.2921 Y2.4300 
G01 X25.3735 Y2.4518 
G01 X25.4465 Y2.4939 
G01 X25.5061 Y2.5535 
G01 X26.5625 Y3.6100 
G01 X27.3038 Y3.6100 
G01 X27.3663 Y3.6359 
G01 X27.4141 Y3.6837 
G01 X27.4400 Y3.7462 
G01 X27.4400 Y4.6138 
G01 X27.4141 Y4.6763 
G01 X27.3663 Y4.7241 
G01 X27.3038 Y4.7500 
G01 X26.0362 Y4.7500 
G01 X25.9737 Y4.7241 
G01 X25.9259 Y4.6763 
G01 X25.9000 Y4.6138 
G01 X25.9000 Y3.8525 
G01 X25.1175 Y3.0700 
G01 X13.0700 Y3.0700 
G01 X13.0700 Y4.3291 
G01 X13.1162 Y4.3100 
G01 X14.3838 Y4.3100 
G01 X14.4463 Y4.3359 
G01 X14.4941 Y4.3837 
G01 X14.5200 Y4.4462 
G01 X14.5200 Y4.6800 
G01 X15.7696 Y4.6800 
G01 X15.7659 Y4.6763 
G01 X15.7400 Y4.6138 
G01 X15.7400 Y3.7462 
G01 X15.7659 Y3.6837 
G01 X15.8137 Y3.6359 
G01 X15.8762 Y3.6100 
G01 X17.1438 Y3.6100 
G01 X17.2063 Y3.6359 
G01 X17.2541 Y3.6837 
G01 X17.2800 Y3.7462 
G01 X17.2800 Y4.6138 
G01 X17.2541 Y4.6763 
G01 X17.2063 Y4.7241 
G01 X17.1438 Y4.7500 
G01 X16.8200 Y4.7500 
G01 X16.8200 Y5.0421 
G01 X16.7982 Y5.1235 
G01 X16.7561 Y5.1965 
G01 X16.6965 Y5.2561 
G01 X16.6235 Y5.2982 
G01 X16.5421 Y5.3200 
G01 X14.5200 Y5.3200 
G01 X14.5200 Y5.7138 
G01 X14.4941 Y5.7763 
G01 X14.4463 Y5.8241 
G01 X14.3838 Y5.8500 
G01 X13.1162 Y5.8500 
G01 X13.0700 Y5.8309 
G01 X13.0700 Y9.1174 
G01 X13.4465 Y9.4939 
G01 X13.5061 Y9.5535 
G01 X15.0325 Y11.0800 
G01 X15.8038 Y11.0800 
G01 X15.8663 Y11.1059 
G01 X15.9141 Y11.1537 
G01 X15.9400 Y11.2162 
G01 X15.9400 Y12.2838 
G01 X15.9141 Y12.3463 
G01 X15.8663 Y12.3941 
G01 X15.8038 Y12.4200 
G01 X14.3362 Y12.4200 
G01 X14.2737 Y12.3941 
G01 X14.2259 Y12.3463 
G01 X14.2000 Y12.2838 
G01 X14.2000 Y11.2162 
G01 X14.2186 Y11.1712 
G01 X13.2500 Y10.2025 
G01 X12.0700 Y11.3825 
G01 X12.0700 Y12.0596 
G01 X12.0737 Y12.0559 
G01 X12.1362 Y12.0300 
G01 X12.9300 Y12.0300 
G01 X12.9300 Y11.8513 
G01 X12.8178 Y11.7766 
G01 X12.7234 Y11.6822 
G01 X12.6492 Y11.5712 
G01 X12.5981 Y11.4478 
G01 X12.5720 Y11.3168 
G01 X12.5720 Y11.1832 
G01 X12.5981 Y11.0522 
G01 X12.6492 Y10.9288 
G01 X12.7234 Y10.8178 
G01 X12.8178 Y10.7234 
G01 X12.9288 Y10.6492 
G01 X13.0522 Y10.5981 
G01 X13.1832 Y10.5720 
G01 X13.3168 Y10.5720 
G01 X13.4478 Y10.5981 
G01 X13.5712 Y10.6492 
G01 X13.6822 Y10.7234 
G01 X13.7766 Y10.8178 
G01 X13.8508 Y10.9288 
G01 X13.9019 Y11.0522 
G01 X13.9280 Y11.1832 
G01 X13.9280 Y11.3168 
G01 X13.9019 Y11.4478 
G01 X13.8508 Y11.5712 
G01 X13.7766 Y11.6822 
G01 X13.6822 Y11.7766 
G01 X13.5712 Y11.8508 
G01 X13.5700 Y12.0300 
G01 X13.6038 Y12.0300 
G01 X13.6663 Y12.0559 
G01 X13.7141 Y12.1037 
G01 X13.7400 Y12.1662 
G01 X13.7400 Y13.2338 
G01 X13.7141 Y13.2963 
G01 X13.6663 Y13.3441 
G01 X13.6038 Y13.3700 
G01 X12.1362 Y13.3700 
G01 X12.0737 Y13.3441 
G01 X12.0700 Y13.3404 
G01 X12.0700 Y18.3675 
G01 X13.8225 Y20.1200 
G01 X14.6038 Y20.1200 
G00 Z2.0000 
G00 X27.6401 Y8.4882 
G01 Z-0.1000 F254.00 
G01 X27.6401 Y9.2918 F508.00 
G01 X27.0718 Y9.8601 
G01 X26.2682 Y9.8601 
G01 X25.6999 Y9.2918 
G01 X25.6999 Y8.4882 
G01 X26.2682 Y7.9199 
G01 X26.4300 Y7.9199 
G01 X26.4300 Y6.5500 
G01 X26.0362 Y6.5500 
G01 X25.9737 Y6.5241 
G01 X25.9259 Y6.4763 
G01 X25.9000 Y6.4138 
G01 X25.9000 Y5.5462 
G01 X25.9259 Y5.4837 
G01 X25.9737 Y5.4359 
G01 X26.0362 Y5.4100 
G01 X27.3038 Y5.4100 
G01 X27.3663 Y5.4359 
G01 X27.4141 Y5.4837 
G01 X27.4400 Y5.5462 
G01 X27.4400 Y6.4138 
G01 X27.4141 Y6.4763 
G01 X27.3663 Y6.5241 
G01 X27.3038 Y6.5500 
G01 X27.0700 Y6.5500 
G01 X27.0700 Y7.9199 
G01 X27.6401 Y8.4882 
G00 Z2.0000 
G00 X25.1001 Y8.4882 
G01 Z-0.1000 F254.00 
G01 X25.1001 Y9.2918 F508.00 
G01 X24.5318 Y9.8601 
G01 X23.7282 Y9.8601 
G01 X23.1881 Y9.3200 
G01 X22.5319 Y9.3200 
G01 X21.9918 Y9.8601 
G01 X21.1882 Y9.8601 
G01 X20.6199 Y9.2918 
G01 X20.6199 Y8.4882 
G01 X21.1882 Y7.9199 
G01 X21.9918 Y7.9199 
G01 X22.5601 Y8.4882 
G01 X22.5601 Y8.6800 
G01 X23.1599 Y8.6800 
G01 X23.1599 Y8.4882 
G01 X23.7282 Y7.9199 
G01 X23.9300 Y7.9199 
G01 X23.9300 Y6.5500 
G01 X23.4962 Y6.5500 
G01 X23.4337 Y6.5241 
G01 X23.3859 Y6.4763 
G01 X23.3600 Y6.4138 
G01 X23.3600 Y5.5462 
G01 X23.3859 Y5.4837 
G01 X23.4337 Y5.4359 
G01 X23.4962 Y5.4100 
G01 X24.7638 Y5.4100 
G01 X24.8263 Y5.4359 
G01 X24.8741 Y5.4837 
G01 X24.9000 Y5.5462 
G01 X24.9000 Y6.4138 
G01 X24.8741 Y6.4763 
G01 X24.8263 Y6.5241 
G01 X24.7638 Y6.5500 
G01 X24.5700 Y6.5500 
G01 X24.5700 Y7.9581 
G01 X25.1001 Y8.4882 
G00 Z2.0000 
G00 X20.0201 Y8.4882 
G01 Z-0.1000 F254.00 
G01 X20.0201 Y9.2918 F508.00 
G01 X19.4518 Y9.8601 
G01 X18.6482 Y9.8601 
G01 X18.0799 Y9.2918 
G01 X18.0799 Y8.4882 
G01 X18.6482 Y7.9199 
G01 X18.9300 Y7.9199 
G01 X18.9300 Y6.9579 
G01 X18.9518 Y6.8765 
G01 X18.9939 Y6.8035 
G01 X19.0535 Y6.7439 
G01 X19.5500 Y6.2475 
G01 X19.5500 Y5.8668 
G01 X19.5482 Y5.8735 
G01 X19.5061 Y5.9465 
G01 X19.4465 Y6.0061 
G01 X19.3735 Y6.0482 
G01 X19.2921 Y6.0700 
G01 X18.0700 Y6.0700 
G01 X18.0700 Y13.6174 
G01 X19.3825 Y14.9300 
G01 X27.2921 Y14.9300 
G01 X27.3735 Y14.9518 
G01 X27.4465 Y14.9939 
G01 X27.5061 Y15.0535 
G01 X28.2561 Y15.8035 
G01 X28.2982 Y15.8765 
G01 X28.3200 Y15.9579 
G01 X28.3200 Y20.0421 
G01 X28.2982 Y20.1235 
G01 X28.2561 Y20.1965 
G01 X28.1965 Y20.2561 
G01 X28.1400 Y20.3125 
G01 X28.1400 Y20.9538 
G01 X28.1141 Y21.0163 
G01 X28.0663 Y21.0641 
G01 X28.0038 Y21.0900 
G01 X27.1362 Y21.0900 
G01 X27.0737 Y21.0641 
G01 X27.0661 Y21.0565 
G01 X27.0482 Y21.1235 
G01 X27.0061 Y21.1965 
G01 X25.7561 Y22.4465 
G01 X25.6965 Y22.5061 
G01 X25.6235 Y22.5482 
G01 X25.5421 Y22.5700 
G01 X18.5500 Y22.5700 
G01 X18.5500 Y22.9238 
G01 X18.5241 Y22.9863 
G01 X18.4763 Y23.0341 
G01 X18.4138 Y23.0600 
G01 X17.1462 Y23.0600 
G01 X17.0837 Y23.0341 
G01 X17.0359 Y22.9863 
G01 X17.0100 Y22.9238 
G01 X17.0100 Y22.8200 
G01 X14.7400 Y22.8200 
G01 X14.7400 Y22.9238 
G01 X14.7141 Y22.9863 
G01 X14.6663 Y23.0341 
G01 X14.6038 Y23.0600 
G01 X13.3362 Y23.0600 
G01 X13.2737 Y23.0341 
G01 X13.2259 Y22.9863 
G01 X13.2000 Y22.9238 
G01 X13.2000 Y22.1525 
G01 X10.7439 Y19.6965 
G01 X10.7018 Y19.6235 
G01 X10.6800 Y19.5421 
G01 X10.6800 Y5.5700 
G01 X8.5672 Y5.5700 
G01 X8.6737 Y5.6141 
G01 X8.8097 Y5.7050 
G01 X8.9254 Y5.8207 
G01 X9.0163 Y5.9567 
G01 X9.0789 Y6.1078 
G01 X9.1108 Y6.2682 
G01 X9.1108 Y6.4318 
G01 X9.0789 Y6.5922 
G01 X9.0163 Y6.7433 
G01 X8.9254 Y6.8793 
G01 X8.8097 Y6.9950 
G01 X8.6737 Y7.0859 
G01 X8.5226 Y7.1485 
G01 X8.3622 Y7.1804 
G01 X6.8778 Y7.1804 
G01 X6.7174 Y7.1485 
G01 X6.5663 Y7.0859 
G01 X6.4303 Y6.9950 
G01 X6.3146 Y6.8793 
G01 X6.2237 Y6.7433 
G01 X6.1611 Y6.5922 
G01 X6.1292 Y6.4318 
G01 X6.1292 Y6.2682 
G01 X6.1611 Y6.1078 
G01 X6.2237 Y5.9567 
G01 X6.3146 Y5.8207 
G01 X6.4303 Y5.7050 
G01 X6.5663 Y5.6141 
G01 X6.7174 Y5.5515 
G01 X6.8778 Y5.5196 
G01 X7.4300 Y5.5196 
G01 X7.4300 Y5.2079 
G01 X7.4518 Y5.1265 
G01 X7.4939 Y5.0535 
G01 X7.5535 Y4.9939 
G01 X7.6265 Y4.9518 
G01 X7.7079 Y4.9300 
G01 X10.8800 Y4.9300 
G01 X10.8800 Y4.4462 
G01 X10.9059 Y4.3837 
G01 X10.9537 Y4.3359 
G01 X11.0162 Y4.3100 
G01 X12.2838 Y4.3100 
G01 X12.3463 Y4.3359 
G01 X12.3941 Y4.3837 
G01 X12.4200 Y4.4462 
G01 X12.4200 Y5.7138 
G01 X12.3941 Y5.7763 
G01 X12.3463 Y5.8241 
G01 X12.2838 Y5.8500 
G01 X11.3200 Y5.8500 
G01 X11.3200 Y19.3675 
G01 X13.8725 Y21.9200 
G01 X14.6038 Y21.9200 
G01 X14.6663 Y21.9459 
G01 X14.7141 Y21.9937 
G01 X14.7400 Y22.0562 
G01 X14.7400 Y22.1800 
G01 X14.9300 Y22.1800 
G01 X14.9300 Y14.3200 
G01 X14.3362 Y14.3200 
G01 X14.2737 Y14.2941 
G01 X14.2259 Y14.2463 
G01 X14.2000 Y14.1838 
G01 X14.2000 Y13.1162 
G01 X14.2259 Y13.0537 
G01 X14.2737 Y13.0059 
G01 X14.3362 Y12.9800 
G01 X15.8038 Y12.9800 
G01 X15.8663 Y13.0059 
G01 X15.9141 Y13.0537 
G01 X15.9400 Y13.1162 
G01 X15.9400 Y14.1838 
G01 X15.9141 Y14.2463 
G01 X15.8663 Y14.2941 
G01 X15.8038 Y14.3200 
G01 X15.5700 Y14.3200 
G01 X15.5700 Y22.1800 
G01 X17.0100 Y22.1800 
G01 X17.0100 Y22.0562 
G01 X17.0359 Y21.9937 
G01 X17.0837 Y21.9459 
G01 X17.1462 Y21.9200 
G01 X18.4138 Y21.9200 
G01 X18.4380 Y21.9300 
G01 X25.3675 Y21.9300 
G01 X26.2100 Y21.0874 
G01 X26.2038 Y21.0900 
G01 X25.3362 Y21.0900 
G01 X25.2737 Y21.0641 
G01 X25.2259 Y21.0163 
G01 X25.2000 Y20.9538 
G01 X25.2000 Y20.5700 
G01 X23.0600 Y20.5700 
G01 X23.0600 Y20.9538 
G01 X23.0341 Y21.0163 
G01 X22.9863 Y21.0641 
G01 X22.9238 Y21.0900 
G01 X22.0562 Y21.0900 
G01 X21.9937 Y21.0641 
G01 X21.9459 Y21.0163 
G01 X21.9200 Y20.9538 
G01 X21.9200 Y19.6862 
G01 X21.9459 Y19.6237 
G01 X21.9937 Y19.5759 
G01 X22.0562 Y19.5500 
G01 X22.9238 Y19.5500 
G01 X22.9863 Y19.5759 
G01 X23.0341 Y19.6237 
G01 X23.0600 Y19.6862 
G01 X23.0600 Y19.9300 
G01 X23.9300 Y19.9300 
G01 X23.9300 Y17.4801 
G01 X23.7282 Y17.4801 
G01 X23.1599 Y16.9118 
G01 X23.1599 Y16.1082 
G01 X23.6981 Y15.5700 
G01 X22.0219 Y15.5700 
G01 X22.5601 Y16.1082 
G01 X22.5601 Y16.9118 
G01 X21.9918 Y17.4801 
G01 X21.8200 Y17.4801 
G01 X21.8200 Y19.5421 
G01 X21.7982 Y19.6235 
G01 X21.7561 Y19.6965 
G01 X21.6965 Y19.7561 
G01 X21.2600 Y20.1925 
G01 X21.2600 Y20.9538 
G01 X21.2341 Y21.0163 
G01 X21.1863 Y21.0641 
G01 X21.1238 Y21.0900 
G01 X20.2562 Y21.0900 
G01 X20.1937 Y21.0641 
G01 X20.1459 Y21.0163 
G01 X20.1200 Y20.9538 
G01 X20.1200 Y20.8200 
G01 X18.5500 Y20.8200 
G01 X18.5500 Y21.1238 
G01 X18.5241 Y21.1863 
G01 X18.4763 Y21.2341 
G01 X18.4138 Y21.2600 
G01 X17.1462 Y21.2600 
G01 X17.0837 Y21.2341 
G01 X17.0359 Y21.1863 
G01 X17.0100 Y21.1238 
G01 X17.0100 Y20.2562 
G01 X17.0359 Y20.1937 
G01 X17.0837 Y20.1459 
G01 X17.1462 Y20.1200 
G01 X18.4138 Y20.1200 
G01 X18.4763 Y20.1459 
G01 X18.5104 Y20.1800 
G01 X20.1200 Y20.1800 
G01 X20.1200 Y19.6862 
G01 X20.1459 Y19.6237 
G01 X20.1937 Y19.5759 
G01 X20.2562 Y19.5500 
G01 X20.9975 Y19.5500 
G01 X21.1800 Y19.3675 
G01 X21.1800 Y17.4719 
G01 X20.6199 Y16.9118 
G01 X20.6199 Y16.1082 
G01 X21.1581 Y15.5700 
G01 X19.5700 Y15.5700 
G01 X19.5700 Y15.6581 
G01 X20.0201 Y16.1082 
G01 X20.0201 Y16.9118 
G01 X19.4518 Y17.4801 
G01 X18.6482 Y17.4801 
G01 X18.0799 Y16.9118 
G01 X18.0799 Y16.1082 
G01 X18.6482 Y15.5399 
G01 X18.9300 Y15.5399 
G01 X18.9300 Y15.3825 
G01 X17.4939 Y13.9465 
G01 X17.4518 Y13.8735 
G01 X17.4300 Y13.7921 
G01 X17.4300 Y6.0700 
G01 X17.2800 Y6.0700 
G01 X17.2800 Y6.4138 
G01 X17.2541 Y6.4763 
G01 X17.2063 Y6.5241 
G01 X17.1438 Y6.5500 
G01 X15.8762 Y6.5500 
G01 X15.8137 Y6.5241 
G01 X15.7659 Y6.4763 
G01 X15.7400 Y6.4138 
G01 X15.7400 Y5.5462 
G01 X15.7659 Y5.4837 
G01 X15.8137 Y5.4359 
G01 X15.8762 Y5.4100 
G01 X17.1438 Y5.4100 
G01 X17.1921 Y5.4300 
G01 X18.9300 Y5.4300 
G01 X18.9300 Y5.2079 
G01 X18.9518 Y5.1265 
G01 X18.9939 Y5.0535 
G01 X19.5500 Y4.4975 
G01 X19.5500 Y3.7462 
G01 X19.5759 Y3.6837 
G01 X19.6237 Y3.6359 
G01 X19.6862 Y3.6100 
G01 X20.9538 Y3.6100 
G01 X21.0163 Y3.6359 
G01 X21.0641 Y3.6837 
G01 X21.0900 Y3.7462 
G01 X21.0900 Y3.9300 
G01 X23.3600 Y3.9300 
G01 X23.3600 Y3.7462 
G01 X23.3859 Y3.6837 
G01 X23.4337 Y3.6359 
G01 X23.4962 Y3.6100 
G01 X24.7638 Y3.6100 
G01 X24.8263 Y3.6359 
G01 X24.8741 Y3.6837 
G01 X24.9000 Y3.7462 
G01 X24.9000 Y4.6138 
G01 X24.8741 Y4.6763 
G01 X24.8263 Y4.7241 
G01 X24.7638 Y4.7500 
G01 X23.4962 Y4.7500 
G01 X23.4337 Y4.7241 
G01 X23.3859 Y4.6763 
G01 X23.3600 Y4.6138 
G01 X23.3600 Y4.5700 
G01 X21.0900 Y4.5700 
G01 X21.0900 Y4.6138 
G01 X21.0641 Y4.6763 
G01 X21.0163 Y4.7241 
G01 X20.9538 Y4.7500 
G01 X20.2025 Y4.7500 
G01 X19.5700 Y5.3825 
G01 X19.5700 Y5.4979 
G01 X19.5759 Y5.4837 
G01 X19.6237 Y5.4359 
G01 X19.6862 Y5.4100 
G01 X20.9538 Y5.4100 
G01 X21.0163 Y5.4359 
G01 X21.0641 Y5.4837 
G01 X21.0900 Y5.5462 
G01 X21.0900 Y6.4138 
G01 X21.0641 Y6.4763 
G01 X21.0163 Y6.5241 
G01 X20.9538 Y6.5500 
G01 X20.1525 Y6.5500 
G01 X19.5700 Y7.1325 
G01 X19.5700 Y8.0381 
G01 X20.0201 Y8.4882 
G00 Z2.0000 
G00 X3.7828 Y11.0981 
G01 Z-0.1000 F254.00 
G01 X3.8733 Y11.1356 F508.00 
G01 X3.9425 Y11.2048 
G01 X3.9800 Y11.2953 
G01 X3.9800 Y11.3933 
G01 X3.9425 Y11.4838 
G01 X3.8733 Y11.5530 
G01 X3.7828 Y11.5905 
G01 X2.3530 Y11.5905 
G01 X2.3530 Y11.9356 
G01 X2.3155 Y12.0261 
G01 X2.2463 Y12.0954 
G01 X2.1558 Y12.1328 
G01 X2.0578 Y12.1328 
G01 X1.9674 Y12.0954 
G01 X1.8981 Y12.0261 
G01 X1.8606 Y11.9356 
G01 X1.8606 Y10.7530 
G01 X1.8981 Y10.6625 
G01 X1.9674 Y10.5933 
G01 X2.0578 Y10.5558 
G01 X2.1558 Y10.5558 
G01 X2.2463 Y10.5933 
G01 X2.3155 Y10.6625 
G01 X2.3530 Y10.7530 
G01 X2.3530 Y11.0981 
G01 X3.7828 Y11.0981 
G00 Z2.0000 
G00 X2.5867 Y3.5614 
G01 Z-0.1000 F254.00 
G01 X2.6242 Y3.6519 F508.00 
G01 X2.6242 Y3.7498 
G01 X2.5867 Y3.8403 
G01 X2.5174 Y3.9096 
G01 X2.4269 Y3.9471 
G01 X2.3290 Y3.9471 
G01 X2.2385 Y3.9096 
G01 X1.9033 Y3.5744 
G01 X1.8981 Y3.5692 
G01 X1.8606 Y3.4787 
G01 X1.8606 Y2.8384 
G01 X1.8981 Y2.7479 
G01 X2.1693 Y2.4767 
G01 X2.2385 Y2.4075 
G01 X2.3290 Y2.3700 
G01 X3.5116 Y2.3700 
G01 X3.6021 Y2.4075 
G01 X3.8733 Y2.6786 
G01 X3.9425 Y2.7479 
G01 X3.9800 Y2.8384 
G01 X3.9800 Y3.4787 
G01 X3.9436 Y3.5666 
G01 X3.9425 Y3.5692 
G01 X3.6714 Y3.8403 
G01 X3.6021 Y3.9096 
G01 X3.5116 Y3.9471 
G01 X2.8713 Y3.9471 
G01 X2.7808 Y3.9096 
G01 X2.7116 Y3.8403 
G01 X2.6741 Y3.7498 
G01 X2.6741 Y3.1096 
G01 X2.7116 Y3.0191 
G01 X2.7808 Y2.9498 
G01 X2.8713 Y2.9123 
G01 X2.9693 Y2.9123 
G01 X3.0598 Y2.9498 
G01 X3.1290 Y3.0191 
G01 X3.1665 Y3.1096 
G01 X3.1665 Y3.4547 
G01 X3.3607 Y3.4547 
G01 X3.4876 Y3.3277 
G01 X3.4876 Y2.9893 
G01 X3.3607 Y2.8624 
G01 X2.4800 Y2.8624 
G01 X2.3530 Y2.9893 
G01 X2.3530 Y3.3277 
G01 X2.5867 Y3.5614 
G00 Z2.0000 
G00 X2.3530 Y7.0241 
G01 Z-0.1000 F254.00 
G01 X2.3155 Y7.1146 F508.00 
G01 X2.2463 Y7.1839 
G01 X2.1558 Y7.2214 
G01 X2.0578 Y7.2214 
G01 X1.9674 Y7.1839 
G01 X1.8981 Y7.1146 
G01 X1.8606 Y7.0241 
G01 X1.8606 Y5.8415 
G01 X1.8981 Y5.7511 
G01 X1.9674 Y5.6818 
G01 X2.0578 Y5.6443 
G01 X2.8803 Y5.6443 
G01 X2.8889 Y5.6415 
G01 X2.9291 Y5.6443 
G01 X2.9693 Y5.6443 
G01 X2.9776 Y5.6478 
G01 X2.9866 Y5.6484 
G01 X3.0226 Y5.6664 
G01 X3.0598 Y5.6818 
G01 X3.0661 Y5.6882 
G01 X3.0742 Y5.6922 
G01 X3.1006 Y5.7226 
G01 X3.1290 Y5.7511 
G01 X3.1325 Y5.7594 
G01 X3.1384 Y5.7662 
G01 X3.1511 Y5.8044 
G01 X3.1665 Y5.8415 
G01 X3.1665 Y5.8506 
G01 X3.1694 Y5.8591 
G01 X3.1665 Y5.8993 
G01 X3.1665 Y5.9395 
G01 X3.1631 Y5.9478 
G01 X3.1624 Y5.9568 
G01 X3.1444 Y5.9928 
G01 X3.1290 Y6.0300 
G01 X3.1226 Y6.0363 
G01 X2.8953 Y6.4910 
G01 X2.8953 Y6.6020 
G01 X3.0223 Y6.7290 
G01 X3.3607 Y6.7290 
G01 X3.4876 Y6.6020 
G01 X3.4876 Y6.2637 
G01 X3.2539 Y6.0300 
G01 X3.2164 Y5.9395 
G01 X3.2164 Y5.8415 
G01 X3.2539 Y5.7511 
G01 X3.3232 Y5.6818 
G01 X3.4137 Y5.6443 
G01 X3.5116 Y5.6443 
G01 X3.6021 Y5.6818 
G01 X3.9425 Y6.0222 
G01 X3.9800 Y6.1127 
G01 X3.9800 Y6.7530 
G01 X3.9425 Y6.8435 
G01 X3.9373 Y6.8487 
G01 X3.6714 Y7.1146 
G01 X3.6073 Y7.1786 
G01 X3.6021 Y7.1839 
G01 X3.5116 Y7.2214 
G01 X2.8713 Y7.2214 
G01 X2.7808 Y7.1839 
G01 X2.7116 Y7.1146 
G01 X2.4404 Y6.8435 
G01 X2.4029 Y6.7530 
G01 X2.4029 Y6.4728 
G01 X2.4001 Y6.4642 
G01 X2.4029 Y6.4241 
G01 X2.4029 Y6.3839 
G01 X2.4064 Y6.3755 
G01 X2.4070 Y6.3665 
G01 X2.4250 Y6.3305 
G01 X2.4404 Y6.2934 
G01 X2.4468 Y6.2870 
G01 X2.5219 Y6.1367 
G01 X2.3530 Y6.1367 
G01 X2.3530 Y7.0241 
G00 Z2.0000 
G00 X2.0578 Y7.7739 
G01 Z-0.1000 F254.00 
G01 X1.9674 Y7.7364 F508.00 
G01 X1.8981 Y7.6671 
G01 X1.8606 Y7.5766 
G01 X1.8606 Y7.4787 
G01 X1.8981 Y7.3882 
G01 X1.9674 Y7.3190 
G01 X2.0578 Y7.2815 
G01 X3.2404 Y7.2815 
G01 X3.3309 Y7.3190 
G01 X3.8733 Y7.8613 
G01 X3.9425 Y7.9305 
G01 X3.9800 Y8.0210 
G01 X3.9800 Y8.1190 
G01 X3.9425 Y8.2095 
G01 X3.4002 Y8.7518 
G01 X3.3309 Y8.8210 
G01 X3.2404 Y8.8585 
G01 X2.0578 Y8.8585 
G01 X1.9674 Y8.8210 
G01 X1.8981 Y8.7518 
G01 X1.8606 Y8.6613 
G01 X1.8606 Y8.5634 
G01 X1.8981 Y8.4729 
G01 X1.9674 Y8.4036 
G01 X2.0578 Y8.3661 
G01 X3.0895 Y8.3661 
G01 X3.3856 Y8.0700 
G01 X3.0895 Y7.7739 
G01 X2.0578 Y7.7739 
G00 Z2.0000 
G00 X3.7828 Y13.8301 
G01 Z-0.1000 F254.00 
G01 X3.8733 Y13.8676 F508.00 
G01 X3.9425 Y13.9368 
G01 X3.9800 Y14.0273 
G01 X3.9800 Y14.1253 
G01 X3.9425 Y14.2158 
G01 X3.8733 Y14.2850 
G01 X3.7828 Y14.3225 
G01 X3.4377 Y14.3225 
G01 X3.4377 Y14.5166 
G01 X3.9425 Y15.0215 
G01 X3.9800 Y15.1120 
G01 X3.9800 Y15.2099 
G01 X3.9425 Y15.3004 
G01 X3.8733 Y15.3697 
G01 X3.7828 Y15.4072 
G01 X3.6848 Y15.4072 
G01 X3.5943 Y15.3697 
G01 X3.3271 Y15.1024 
G01 X3.0598 Y15.3697 
G01 X2.9693 Y15.4072 
G01 X2.3290 Y15.4072 
G01 X2.2385 Y15.3697 
G01 X2.1693 Y15.3004 
G01 X1.8981 Y15.0292 
G01 X1.8970 Y15.0267 
G01 X1.8606 Y14.9388 
G01 X1.8606 Y14.0273 
G01 X1.8981 Y13.9368 
G01 X1.9674 Y13.8676 
G01 X2.0578 Y13.8301 
G01 X3.2404 Y13.8301 
G01 X3.7828 Y13.8301 
G00 Z2.0000 
G00 X3.7828 Y17.1044 
G01 Z-0.1000 F254.00 
G01 X3.8733 Y17.1419 F508.00 
G01 X3.9425 Y17.2111 
G01 X3.9800 Y17.3016 
G01 X3.9800 Y17.3996 
G01 X3.9425 Y17.4901 
G01 X3.8733 Y17.5593 
G01 X3.7828 Y17.5968 
G01 X3.1665 Y17.5968 
G01 X3.1665 Y18.1891 
G01 X3.7828 Y18.1891 
G01 X3.8733 Y18.2265 
G01 X3.9425 Y18.2958 
G01 X3.9800 Y18.3863 
G01 X3.9800 Y18.4842 
G01 X3.9425 Y18.5747 
G01 X3.8733 Y18.6440 
G01 X3.7828 Y18.6815 
G01 X2.6002 Y18.6815 
G01 X2.5097 Y18.6440 
G01 X2.4404 Y18.5747 
G01 X1.8981 Y18.0324 
G01 X1.8606 Y17.9419 
G01 X1.8606 Y17.8440 
G01 X1.8981 Y17.7535 
G01 X1.9674 Y17.6842 
G01 X2.5097 Y17.1419 
G01 X2.6002 Y17.1044 
G01 X2.9693 Y17.1044 
G01 X3.7828 Y17.1044 
G00 Z2.0000 
G00 X2.0578 Y20.3787 
G01 Z-0.1000 F254.00 
G01 X3.7828 Y20.3787 F508.00 
G01 X3.8733 Y20.4162 
G01 X3.9425 Y20.4855 
G01 X3.9800 Y20.5759 
G01 X3.9800 Y21.4874 
G01 X3.9425 Y21.5779 
G01 X3.9373 Y21.5831 
G01 X3.6714 Y21.8490 
G01 X3.6073 Y21.9130 
G01 X3.6021 Y21.9183 
G01 X3.5116 Y21.9558 
G01 X3.1425 Y21.9558 
G01 X3.0520 Y21.9183 
G01 X2.9828 Y21.8490 
G01 X2.9203 Y21.7866 
G01 X2.7886 Y21.9183 
G01 X2.6981 Y21.9558 
G01 X2.3290 Y21.9558 
G01 X2.2385 Y21.9183 
G01 X2.1693 Y21.8490 
G01 X1.8981 Y21.5779 
G01 X1.8970 Y21.5753 
G01 X1.8606 Y21.4874 
G01 X1.8606 Y20.5759 
G01 X1.8981 Y20.4855 
G01 X1.9674 Y20.4162 
G01 X2.0578 Y20.3787 
G00 Z2.0000 
G00 X14.6055 Y21.8200 
G01 Z-0.1000 F254.00 
G01 X14.6742 Y21.8384 F508.00 
G01 X14.7358 Y21.8739 
G01 X14.7861 Y21.9242 
G01 X14.8216 Y21.9858 
G01 X14.8300 Y22.0171 
G01 X14.8300 Y21.1629 
G01 X14.8216 Y21.1942 
G01 X14.7861 Y21.2558 
G01 X14.7358 Y21.3061 
G01 X14.6742 Y21.3416 
G01 X14.6055 Y21.3600 
G01 X13.4540 Y21.3600 
G01 X13.9140 Y21.8200 
G01 X14.6055 Y21.8200 
G00 Z2.0000 
G00 X14.6200 Y5.7155 
G01 Z-0.1000 F254.00 
G01 X14.6016 Y5.7842 F508.00 
G01 X14.5661 Y5.8458 
G01 X14.5158 Y5.8961 
G01 X14.4542 Y5.9316 
G01 X14.3855 Y5.9500 
G01 X13.1700 Y5.9500 
G01 X13.1700 Y9.0760 
G01 X13.5079 Y9.4139 
G01 X13.5861 Y9.4921 
G01 X15.0740 Y10.9800 
G01 X15.8055 Y10.9800 
G01 X15.8742 Y10.9984 
G01 X15.9358 Y11.0339 
G01 X15.9861 Y11.0842 
G01 X16.0216 Y11.1458 
G01 X16.0400 Y11.2145 
G01 X16.0400 Y12.2855 
G01 X16.0216 Y12.3542 
G01 X15.9861 Y12.4158 
G01 X15.9358 Y12.4661 
G01 X15.8742 Y12.5016 
G01 X15.8055 Y12.5200 
G01 X14.3345 Y12.5200 
G01 X14.2658 Y12.5016 
G01 X14.2042 Y12.4661 
G01 X14.1539 Y12.4158 
G01 X14.1184 Y12.3542 
G01 X14.1000 Y12.2855 
G01 X14.1000 Y11.2145 
G01 X14.1043 Y11.1983 
G01 X14.0152 Y11.1092 
G01 X14.0280 Y11.1734 
G01 X14.0280 Y11.3266 
G01 X13.9981 Y11.4769 
G01 X13.9395 Y11.6185 
G01 X13.8543 Y11.7459 
G01 X13.7459 Y11.8543 
G01 X13.6700 Y11.9051 
G01 X13.6700 Y11.9473 
G01 X13.6742 Y11.9484 
G01 X13.7358 Y11.9839 
G01 X13.7861 Y12.0342 
G01 X13.8216 Y12.0958 
G01 X13.8400 Y12.1645 
G01 X13.8400 Y13.2355 
G01 X13.8216 Y13.3042 
G01 X13.7861 Y13.3658 
G01 X13.7358 Y13.4161 
G01 X13.6742 Y13.4516 
G01 X13.6055 Y13.4700 
G01 X12.1700 Y13.4700 
G01 X12.1700 Y18.3260 
G01 X13.8640 Y20.0200 
G01 X14.6055 Y20.0200 
G01 X14.6742 Y20.0384 
G01 X14.7358 Y20.0739 
G01 X14.7861 Y20.1242 
G01 X14.8216 Y20.1858 
G01 X14.8300 Y20.2171 
G01 X14.8300 Y14.4200 
G01 X14.3345 Y14.4200 
G01 X14.2658 Y14.4016 
G01 X14.2042 Y14.3661 
G01 X14.1539 Y14.3158 
G01 X14.1184 Y14.2542 
G01 X14.1000 Y14.1855 
G01 X14.1000 Y13.1145 
G01 X14.1184 Y13.0458 
G01 X14.1539 Y12.9842 
G01 X14.2042 Y12.9339 
G01 X14.2658 Y12.8984 
G01 X14.3345 Y12.8800 
G01 X15.8055 Y12.8800 
G01 X15.8742 Y12.8984 
G01 X15.9358 Y12.9339 
G01 X15.9861 Y12.9842 
G01 X16.0216 Y13.0458 
G01 X16.0400 Y13.1145 
G01 X16.0400 Y14.1855 
G01 X16.0216 Y14.2542 
G01 X15.9861 Y14.3158 
G01 X15.9358 Y14.3661 
G01 X15.8742 Y14.4016 
G01 X15.8055 Y14.4200 
G01 X15.6700 Y14.4200 
G01 X15.6700 Y22.0800 
G01 X16.9100 Y22.0800 
G01 X16.9100 Y22.0545 
G01 X16.9284 Y21.9858 
G01 X16.9639 Y21.9242 
G01 X17.0142 Y21.8739 
G01 X17.0758 Y21.8384 
G01 X17.1444 Y21.8200 
G01 X18.4155 Y21.8200 
G01 X18.4529 Y21.8300 
G01 X25.3260 Y21.8300 
G01 X25.9660 Y21.1900 
G01 X25.3345 Y21.1900 
G01 X25.2658 Y21.1716 
G01 X25.2042 Y21.1361 
G01 X25.1539 Y21.0858 
G01 X25.1184 Y21.0242 
G01 X25.1000 Y20.9555 
G01 X25.1000 Y20.6700 
G01 X23.1600 Y20.6700 
G01 X23.1600 Y20.9555 
G01 X23.1416 Y21.0242 
G01 X23.1060 Y21.0858 
G01 X23.0558 Y21.1361 
G01 X22.9942 Y21.1716 
G01 X22.9255 Y21.1900 
G01 X22.0545 Y21.1900 
G01 X21.9858 Y21.1716 
G01 X21.9242 Y21.1361 
G01 X21.8739 Y21.0858 
G01 X21.8384 Y21.0242 
G01 X21.8200 Y20.9555 
G01 X21.8200 Y19.7740 
G01 X21.7579 Y19.8361 
G01 X21.3600 Y20.2340 
G01 X21.3600 Y20.9555 
G01 X21.3416 Y21.0242 
G01 X21.3061 Y21.0858 
G01 X21.2558 Y21.1361 
G01 X21.1942 Y21.1716 
G01 X21.1255 Y21.1900 
G01 X20.2545 Y21.1900 
G01 X20.1858 Y21.1716 
G01 X20.1242 Y21.1361 
G01 X20.0739 Y21.0858 
G01 X20.0384 Y21.0242 
G01 X20.0200 Y20.9555 
G01 X20.0200 Y20.9200 
G01 X18.6500 Y20.9200 
G01 X18.6500 Y21.1255 
G01 X18.6316 Y21.1942 
G01 X18.5961 Y21.2558 
G01 X18.5458 Y21.3061 
G01 X18.4842 Y21.3416 
G01 X18.4155 Y21.3600 
G01 X17.1444 Y21.3600 
G01 X17.0758 Y21.3416 
G01 X17.0142 Y21.3061 
G01 X16.9639 Y21.2558 
G01 X16.9284 Y21.1942 
G01 X16.9100 Y21.1255 
G01 X16.9100 Y20.2545 
G01 X16.9284 Y20.1858 
G01 X16.9639 Y20.1242 
G01 X17.0142 Y20.0739 
G01 X17.0758 Y20.0384 
G01 X17.1444 Y20.0200 
G01 X18.4155 Y20.0200 
G01 X18.4842 Y20.0384 
G01 X18.5458 Y20.0739 
G01 X18.5518 Y20.0800 
G01 X20.0200 Y20.0800 
G01 X20.0200 Y19.6845 
G01 X20.0384 Y19.6158 
G01 X20.0739 Y19.5542 
G01 X20.1242 Y19.5039 
G01 X20.1858 Y19.4684 
G01 X20.2545 Y19.4500 
G01 X20.9560 Y19.4500 
G01 X21.0800 Y19.3260 
G01 X21.0800 Y17.5133 
G01 X20.5199 Y16.9532 
G01 X20.5199 Y16.0668 
G01 X20.9167 Y15.6700 
G01 X19.7233 Y15.6700 
G01 X20.1201 Y16.0668 
G01 X20.1201 Y16.9532 
G01 X19.4932 Y17.5801 
G01 X18.6068 Y17.5801 
G01 X17.9799 Y16.9532 
G01 X17.9799 Y16.0668 
G01 X18.6068 Y15.4399 
G01 X18.8300 Y15.4399 
G01 X18.8300 Y15.4240 
G01 X17.4139 Y14.0079 
G01 X17.3586 Y13.9121 
G01 X17.3300 Y13.8053 
G01 X17.3300 Y6.5389 
G01 X17.3261 Y6.5458 
G01 X17.2758 Y6.5960 
G01 X17.2142 Y6.6316 
G01 X17.1455 Y6.6500 
G01 X15.8745 Y6.6500 
G01 X15.8058 Y6.6316 
G01 X15.7442 Y6.5960 
G01 X15.6939 Y6.5458 
G01 X15.6584 Y6.4842 
G01 X15.6400 Y6.4155 
G01 X15.6400 Y5.5445 
G01 X15.6584 Y5.4758 
G01 X15.6906 Y5.4200 
G01 X14.6200 Y5.4200 
G01 X14.6200 Y5.7155 
G00 Z2.0000 
G00 X12.8300 Y11.9300 
G01 Z-0.1000 F254.00 
G01 X12.8300 Y11.9051 F508.00 
G01 X12.7541 Y11.8543 
G01 X12.6457 Y11.7459 
G01 X12.5605 Y11.6185 
G01 X12.5019 Y11.4769 
G01 X12.4720 Y11.3266 
G01 X12.4720 Y11.1734 
G01 X12.4848 Y11.1092 
G01 X12.1700 Y11.4240 
G01 X12.1700 Y11.9300 
G01 X12.8300 Y11.9300 
G00 Z2.0000 
G00 X13.1734 Y10.4720 
G01 Z-0.1000 F254.00 
G01 X13.3266 Y10.4720 F508.00 
G01 X13.3908 Y10.4848 
G01 X13.2500 Y10.3440 
G01 X13.1092 Y10.4848 
G01 X13.1734 Y10.4720 
G00 Z2.0000 
G00 X12.4139 Y9.5079 
G01 Z-0.1000 F254.00 
G01 X12.3586 Y9.4121 F508.00 
G01 X12.3300 Y9.3053 
G01 X12.3300 Y5.9381 
G01 X12.2855 Y5.9500 
G01 X11.4200 Y5.9500 
G01 X11.4200 Y10.9860 
G01 X12.6560 Y9.7500 
G01 X12.4139 Y9.5079 
G00 Z2.0000 
G00 X11.4200 Y19.3260 
G01 Z-0.1000 F254.00 
G01 X13.1000 Y21.0060 F508.00 
G01 X13.1000 Y20.4440 
G01 X11.4921 Y18.8361 
G01 X11.4200 Y18.7640 
G01 X11.4200 Y19.3260 
G00 Z2.0000 
G00 X25.1000 Y19.8300 
G01 Z-0.1000 F254.00 
G01 X25.1000 Y19.6845 F508.00 
G01 X25.1184 Y19.6158 
G01 X25.1539 Y19.5542 
G01 X25.2042 Y19.5039 
G01 X25.2658 Y19.4684 
G01 X25.3345 Y19.4500 
G01 X26.2055 Y19.4500 
G01 X26.2742 Y19.4684 
G01 X26.3300 Y19.5006 
G01 X26.3300 Y17.5801 
G01 X26.2268 Y17.5801 
G01 X25.5999 Y16.9532 
G01 X25.5999 Y16.0668 
G01 X25.9967 Y15.6700 
G01 X24.8033 Y15.6700 
G01 X25.2001 Y16.0668 
G01 X25.2001 Y16.9532 
G01 X24.6700 Y17.4833 
G01 X24.6700 Y19.8300 
G01 X25.1000 Y19.8300 
G00 Z2.0000 
G00 X23.1600 Y19.6845 
G01 Z-0.1000 F254.00 
G01 X23.1600 Y19.8300 F508.00 
G01 X23.8300 Y19.8300 
G01 X23.8300 Y17.5801 
G01 X23.6867 Y17.5801 
G01 X23.0599 Y16.9532 
G01 X23.0599 Y16.0668 
G01 X23.4567 Y15.6700 
G01 X22.2633 Y15.6700 
G01 X22.6601 Y16.0668 
G01 X22.6601 Y16.9532 
G01 X22.0332 Y17.5801 
G01 X21.9200 Y17.5801 
G01 X21.9200 Y19.5082 
G01 X21.9242 Y19.5039 
G01 X21.9858 Y19.4684 
G01 X22.0545 Y19.4500 
G01 X22.9255 Y19.4500 
G01 X22.9942 Y19.4684 
G01 X23.0558 Y19.5039 
G01 X23.1060 Y19.5542 
G01 X23.1416 Y19.6158 
G01 X23.1600 Y19.6845 
G00 Z2.0000 
G00 X19.4500 Y6.2060 
G01 Z-0.1000 F254.00 
G01 X19.4500 Y6.1195 F508.00 
G01 X19.4121 Y6.1414 
G01 X19.3053 Y6.1700 
G01 X18.1700 Y6.1700 
G01 X18.1700 Y8.2567 
G01 X18.6068 Y7.8199 
G01 X18.8300 Y7.8199 
G01 X18.8300 Y6.9447 
G01 X18.8586 Y6.8379 
G01 X18.9139 Y6.7421 
G01 X18.9921 Y6.6639 
G01 X19.4500 Y6.2060 
G00 Z2.0000 
G00 X27.5800 Y19.4500 
G01 Z-0.1000 F254.00 
G01 X27.5800 Y17.1133 F508.00 
G01 X27.1700 Y17.5233 
G01 X27.1700 Y19.4500 
G01 X27.5800 Y19.4500 
G00 Z2.0000 
G00 X2.9953 Y6.5146 
G01 Z-0.1000 F254.00 
G01 X2.9953 Y6.5606 F508.00 
G01 X3.0637 Y6.6290 
G01 X3.3192 Y6.6290 
G01 X3.3876 Y6.5606 
G01 X3.3876 Y6.3051 
G01 X3.1959 Y6.1134 
G01 X2.9953 Y6.5146 
G00 Z2.0000 
G00 X2.4530 Y7.0208 
G01 Z-0.1000 F254.00 
G01 X2.4294 Y7.1088 F508.00 
G01 X2.3875 Y7.1815 
G01 X2.6370 Y7.1815 
G01 X2.4530 Y6.9975 
G01 X2.4530 Y7.0208 
G00 Z2.0000 
G00 X2.5214 Y2.9624 
G01 Z-0.1000 F254.00 
G01 X2.4530 Y3.0308 F508.00 
G01 X2.4530 Y3.2863 
G01 X2.5741 Y3.4074 
G01 X2.5741 Y3.1129 
G01 X2.5977 Y3.0249 
G01 X2.6338 Y2.9624 
G01 X2.5214 Y2.9624 
G00 Z2.0000 
G00 X3.3876 Y3.2863 
G01 Z-0.1000 F254.00 
G01 X3.3876 Y3.0308 F508.00 
G01 X3.3192 Y2.9624 
G01 X3.2068 Y2.9624 
G01 X3.2429 Y3.0249 
G01 X3.2665 Y3.1129 
G01 X3.2665 Y3.3547 
G01 X3.3192 Y3.3547 
G01 X3.3876 Y3.2863 
G00 Z2.0000 
G00 X2.4530 Y14.4225 
G01 Z-0.1000 F254.00 
G01 X2.4530 Y14.7464 F508.00 
G01 X2.5214 Y14.8148 
G01 X2.7769 Y14.8148 
G01 X2.8453 Y14.7464 
G01 X2.8453 Y14.4225 
G01 X2.4530 Y14.4225 
G00 Z2.0000 
G00 X3.3271 Y21.3556 
G01 Z-0.1000 F254.00 
G01 X3.3876 Y21.2950 F508.00 
G01 X3.3876 Y20.9711 
G01 X3.2665 Y20.9711 
G01 X3.2665 Y21.2950 
G01 X3.3271 Y21.3556 
G00 Z2.0000 
G00 X2.4530 Y20.9711 
G01 Z-0.1000 F254.00 
G01 X2.4530 Y21.2950 F508.00 
G01 X2.5136 Y21.3556 
G01 X2.5741 Y21.2950 
G01 X2.5741 Y20.9711 
G01 X2.4530 Y20.9711 
G00 Z2.0000 
G00 X2.0612 Y20.2787 
G01 Z-0.1000 F254.00 
G01 X3.7794 Y20.2787 F508.00 
G01 X3.8674 Y20.3023 
G01 X3.9464 Y20.3479 
G01 X4.0108 Y20.4123 
G01 X4.0564 Y20.4913 
G01 X4.0800 Y20.5793 
G01 X4.0800 Y21.4840 
G01 X4.0734 Y21.5086 
G01 X4.0564 Y21.5720 
G01 X4.0108 Y21.6510 
G01 X3.6752 Y21.9866 
G01 X3.5963 Y22.0322 
G01 X3.5082 Y22.0558 
G01 X3.1459 Y22.0558 
G01 X3.0578 Y22.0322 
G01 X2.9789 Y21.9866 
G01 X2.9203 Y21.9280 
G01 X2.8617 Y21.9866 
G01 X2.7828 Y22.0322 
G01 X2.6947 Y22.0558 
G01 X2.3324 Y22.0558 
G01 X2.2443 Y22.0322 
G01 X2.1654 Y21.9866 
G01 X1.8298 Y21.6510 
G01 X1.7842 Y21.5720 
G01 X1.7667 Y21.5066 
G01 X1.7606 Y21.4840 
G01 X1.7606 Y20.5793 
G01 X1.7842 Y20.4913 
G01 X1.8298 Y20.4123 
G01 X1.8942 Y20.3479 
G01 X1.9732 Y20.3023 
G01 X2.0612 Y20.2787 
G00 Z2.0000 
G00 X3.7794 Y17.0044 
G01 Z-0.1000 F254.00 
G01 X3.8674 Y17.0280 F508.00 
G01 X3.9464 Y17.0736 
G01 X4.0108 Y17.1380 
G01 X4.0564 Y17.2170 
G01 X4.0800 Y17.3050 
G01 X4.0800 Y17.3962 
G01 X4.0564 Y17.4842 
G01 X4.0108 Y17.5632 
G01 X3.9464 Y17.6276 
G01 X3.8674 Y17.6732 
G01 X3.7794 Y17.6968 
G01 X3.2665 Y17.6968 
G01 X3.2665 Y18.0891 
G01 X3.7794 Y18.0891 
G01 X3.8674 Y18.1127 
G01 X3.9464 Y18.1582 
G01 X4.0108 Y18.2227 
G01 X4.0564 Y18.3016 
G01 X4.0800 Y18.3897 
G01 X4.0800 Y18.4808 
G01 X4.0564 Y18.5689 
G01 X4.0108 Y18.6478 
G01 X3.9464 Y18.7123 
G01 X3.8674 Y18.7579 
G01 X3.7794 Y18.7815 
G01 X2.6036 Y18.7815 
G01 X2.5155 Y18.7579 
G01 X2.4366 Y18.7123 
G01 X1.8298 Y18.1055 
G01 X1.8005 Y18.0548 
G01 X1.7842 Y18.0266 
G01 X1.7616 Y17.9423 
G01 X1.7606 Y17.9385 
G01 X1.7606 Y17.8474 
G01 X1.7842 Y17.7593 
G01 X1.8298 Y17.6804 
G01 X1.8942 Y17.6159 
G01 X2.4366 Y17.0736 
G01 X2.5155 Y17.0280 
G01 X2.6036 Y17.0044 
G01 X2.9659 Y17.0044 
G01 X3.7794 Y17.0044 
G00 Z2.0000 
G00 X3.7794 Y13.7301 
G01 Z-0.1000 F254.00 
G01 X3.8674 Y13.7537 F508.00 
G01 X3.9464 Y13.7993 
G01 X4.0108 Y13.8637 
G01 X4.0564 Y13.9427 
G01 X4.0800 Y14.0307 
G01 X4.0800 Y14.1219 
G01 X4.0564 Y14.2099 
G01 X4.0108 Y14.2889 
G01 X3.9464 Y14.3533 
G01 X3.8674 Y14.3989 
G01 X3.7794 Y14.4225 
G01 X3.5377 Y14.4225 
G01 X3.5377 Y14.4752 
G01 X4.0108 Y14.9484 
G01 X4.0564 Y15.0273 
G01 X4.0800 Y15.1154 
G01 X4.0800 Y15.2065 
G01 X4.0564 Y15.2946 
G01 X4.0108 Y15.3735 
G01 X3.9464 Y15.4380 
G01 X3.8674 Y15.4836 
G01 X3.7794 Y15.5072 
G01 X3.6882 Y15.5072 
G01 X3.6002 Y15.4836 
G01 X3.5212 Y15.4380 
G01 X3.3271 Y15.2438 
G01 X3.1329 Y15.4380 
G01 X3.0539 Y15.4836 
G01 X2.9659 Y15.5072 
G01 X2.3324 Y15.5072 
G01 X2.2443 Y15.4836 
G01 X2.1654 Y15.4380 
G01 X1.8298 Y15.1024 
G01 X1.7842 Y15.0234 
G01 X1.7667 Y14.9580 
G01 X1.7606 Y14.9354 
G01 X1.7606 Y14.0307 
G01 X1.7842 Y13.9427 
G01 X1.8298 Y13.8637 
G01 X1.8942 Y13.7993 
G01 X1.9732 Y13.7537 
G01 X2.0612 Y13.7301 
G01 X3.2370 Y13.7301 
G01 X3.7794 Y13.7301 
G00 Z2.0000 
G00 X2.5905 Y3.9779 
G01 Z-0.1000 F254.00 
G01 X2.5116 Y4.0235 F508.00 
G01 X2.4236 Y4.0471 
G01 X2.3324 Y4.0471 
G01 X2.2443 Y4.0235 
G01 X2.1654 Y3.9779 
G01 X1.8298 Y3.6423 
G01 X1.7842 Y3.5633 
G01 X1.7672 Y3.4999 
G01 X1.7606 Y3.4753 
G01 X1.7606 Y2.8418 
G01 X1.7842 Y2.7537 
G01 X1.8298 Y2.6748 
G01 X2.1009 Y2.4036 
G01 X2.1654 Y2.3392 
G01 X2.2443 Y2.2936 
G01 X2.3324 Y2.2700 
G01 X3.5082 Y2.2700 
G01 X3.5963 Y2.2936 
G01 X3.6752 Y2.3392 
G01 X3.9464 Y2.6103 
G01 X4.0108 Y2.6748 
G01 X4.0564 Y2.7537 
G01 X4.0800 Y2.8418 
G01 X4.0800 Y3.4753 
G01 X4.0739 Y3.4979 
G01 X4.0564 Y3.5633 
G01 X4.0108 Y3.6423 
G01 X3.6752 Y3.9779 
G01 X3.5980 Y4.0225 
G01 X3.5082 Y4.0471 
G01 X2.8747 Y4.0471 
G01 X2.7867 Y4.0235 
G01 X2.7077 Y3.9779 
G01 X2.6491 Y3.9193 
G01 X2.5905 Y3.9779 
G00 Z2.0000 
G00 X1.8298 Y7.1877 
G01 Z-0.1000 F254.00 
G01 X1.7842 Y7.1088 F508.00 
G01 X1.7606 Y7.0208 
G01 X1.7606 Y5.8449 
G01 X1.7842 Y5.7569 
G01 X1.8298 Y5.6779 
G01 X1.8942 Y5.6135 
G01 X1.9732 Y5.5679 
G01 X2.0612 Y5.5443 
G01 X2.9099 Y5.5443 
G01 X2.9451 Y5.5422 
G01 X2.9554 Y5.5443 
G01 X2.9659 Y5.5443 
G01 X2.9999 Y5.5534 
G01 X3.0344 Y5.5605 
G01 X3.0438 Y5.5652 
G01 X3.0539 Y5.5679 
G01 X3.0844 Y5.5855 
G01 X3.1159 Y5.6012 
G01 X3.1238 Y5.6082 
G01 X3.1329 Y5.6135 
G01 X3.1577 Y5.6383 
G01 X3.1841 Y5.6617 
G01 X3.1899 Y5.6705 
G01 X3.2501 Y5.6135 
G01 X3.3290 Y5.5679 
G01 X3.4171 Y5.5443 
G01 X3.5082 Y5.5443 
G01 X3.5963 Y5.5679 
G01 X3.6752 Y5.6135 
G01 X4.0108 Y5.9491 
G01 X4.0564 Y6.0280 
G01 X4.0800 Y6.1161 
G01 X4.0800 Y6.7496 
G01 X4.0734 Y6.7742 
G01 X4.0564 Y6.8376 
G01 X4.0108 Y6.9166 
G01 X3.6752 Y7.2522 
G01 X3.5963 Y7.2978 
G01 X3.5082 Y7.3214 
G01 X3.4748 Y7.3214 
G01 X3.9464 Y7.7930 
G01 X4.0108 Y7.8574 
G01 X4.0564 Y7.9364 
G01 X4.0800 Y8.0244 
G01 X4.0800 Y8.1156 
G01 X4.0790 Y8.1193 
G01 X4.0564 Y8.2036 
G01 X4.0401 Y8.2319 
G01 X4.0108 Y8.2826 
G01 X3.4040 Y8.8894 
G01 X3.3268 Y8.9339 
G01 X3.2370 Y8.9585 
G01 X2.0612 Y8.9585 
G01 X1.9732 Y8.9349 
G01 X1.8942 Y8.8894 
G01 X1.8298 Y8.8249 
G01 X1.7842 Y8.7460 
G01 X1.7606 Y8.6579 
G01 X1.7606 Y8.5667 
G01 X1.7842 Y8.4787 
G01 X1.8298 Y8.3998 
G01 X1.8942 Y8.3353 
G01 X1.9732 Y8.2897 
G01 X2.0612 Y8.2661 
G01 X3.0481 Y8.2661 
G01 X3.2442 Y8.0700 
G01 X3.0481 Y7.8739 
G01 X2.0612 Y7.8739 
G01 X1.9732 Y7.8503 
G01 X1.8942 Y7.8047 
G01 X1.8298 Y7.7402 
G01 X1.7842 Y7.6613 
G01 X1.7606 Y7.5732 
G01 X1.7606 Y7.4821 
G01 X1.7842 Y7.3940 
G01 X1.8298 Y7.3151 
G01 X1.8935 Y7.2514 
G01 X1.8298 Y7.1877 
G00 Z2.0000 
G00 X3.7794 Y10.9981 
G01 Z-0.1000 F254.00 
G01 X3.8674 Y11.0217 F508.00 
G01 X3.9464 Y11.0673 
G01 X4.0108 Y11.1317 
G01 X4.0564 Y11.2107 
G01 X4.0800 Y11.2987 
G01 X4.0800 Y11.3899 
G01 X4.0564 Y11.4779 
G01 X4.0108 Y11.5569 
G01 X3.9464 Y11.6213 
G01 X3.8674 Y11.6669 
G01 X3.7794 Y11.6905 
G01 X2.4530 Y11.6905 
G01 X2.4530 Y11.9322 
G01 X2.4294 Y12.0203 
G01 X2.3838 Y12.0992 
G01 X2.3194 Y12.1637 
G01 X2.2404 Y12.2092 
G01 X2.1524 Y12.2328 
G01 X2.0612 Y12.2328 
G01 X1.9732 Y12.2092 
G01 X1.8942 Y12.1637 
G01 X1.8298 Y12.0992 
G01 X1.7842 Y12.0203 
G01 X1.7606 Y11.9322 
G01 X1.7606 Y10.7564 
G01 X1.7842 Y10.6684 
G01 X1.8298 Y10.5894 
G01 X1.8942 Y10.5250 
G01 X1.9732 Y10.4794 
G01 X2.0612 Y10.4558 
G01 X2.1524 Y10.4558 
G01 X2.2404 Y10.4794 
G01 X2.3194 Y10.5250 
G01 X2.3838 Y10.5894 
G01 X2.4294 Y10.6684 
G01 X2.4530 Y10.7564 
G01 X2.4530 Y10.9981 
G01 X3.7794 Y10.9981 
G00 Z2.0000 
G00 X23.4945 Y5.3100 
G01 Z-0.1000 F254.00 
G01 X24.7655 Y5.3100 F508.00 
G01 X24.8342 Y5.3284 
G01 X24.8958 Y5.3639 
G01 X24.9460 Y5.4142 
G01 X24.9816 Y5.4758 
G01 X25.0000 Y5.5445 
G01 X25.0000 Y6.4155 
G01 X24.9816 Y6.4842 
G01 X24.9460 Y6.5458 
G01 X24.8958 Y6.5960 
G01 X24.8342 Y6.6316 
G01 X24.7655 Y6.6500 
G01 X24.6700 Y6.6500 
G01 X24.6700 Y7.9167 
G01 X25.2001 Y8.4467 
G01 X25.2001 Y9.3332 
G01 X24.5732 Y9.9601 
G01 X23.6867 Y9.9601 
G01 X23.1467 Y9.4200 
G01 X22.5733 Y9.4200 
G01 X22.0332 Y9.9601 
G01 X21.1468 Y9.9601 
G01 X20.5199 Y9.3332 
G01 X20.5199 Y8.4467 
G01 X21.1468 Y7.8199 
G01 X22.0332 Y7.8199 
G01 X22.6601 Y8.4467 
G01 X22.6601 Y8.5800 
G01 X23.0599 Y8.5800 
G01 X23.0599 Y8.4467 
G01 X23.6867 Y7.8199 
G01 X23.8300 Y7.8199 
G01 X23.8300 Y6.6500 
G01 X23.4945 Y6.6500 
G01 X23.4258 Y6.6316 
G01 X23.3642 Y6.5960 
G01 X23.3139 Y6.5458 
G01 X23.2784 Y6.4842 
G01 X23.2600 Y6.4155 
G01 X23.2600 Y5.5445 
G01 X23.2784 Y5.4758 
G01 X23.3139 Y5.4142 
G01 X23.3642 Y5.3639 
G01 X23.4258 Y5.3284 
G01 X23.4945 Y5.3100 
G00 Z2.0000 
G00 X27.7401 Y8.4467 
G01 Z-0.1000 F254.00 
G01 X27.7401 Y9.3332 F508.00 
G01 X27.1132 Y9.9601 
G01 X26.2268 Y9.9601 
G01 X25.5999 Y9.3332 
G01 X25.5999 Y8.4467 
G01 X26.2268 Y7.8199 
G01 X26.3300 Y7.8199 
G01 X26.3300 Y6.6500 
G01 X26.0344 Y6.6500 
G01 X25.9658 Y6.6316 
G01 X25.9042 Y6.5960 
G01 X25.8539 Y6.5458 
G01 X25.8184 Y6.4842 
G01 X25.8000 Y6.4155 
G01 X25.8000 Y5.5445 
G01 X25.8184 Y5.4758 
G01 X25.8539 Y5.4142 
G01 X25.9042 Y5.3639 
G01 X25.9658 Y5.3284 
G01 X26.0344 Y5.3100 
G01 X27.3055 Y5.3100 
G01 X27.3742 Y5.3284 
G01 X27.4358 Y5.3639 
G01 X27.4861 Y5.4142 
G01 X27.5216 Y5.4758 
G01 X27.5400 Y5.5445 
G01 X27.5400 Y6.4155 
G01 X27.5216 Y6.4842 
G01 X27.4861 Y6.5458 
G01 X27.4358 Y6.5960 
G01 X27.3742 Y6.6316 
G01 X27.3055 Y6.6500 
G01 X27.1700 Y6.6500 
G01 X27.1700 Y7.8767 
G01 X27.7401 Y8.4467 
G00 Z2.0000 
G00 X6.8680 Y7.9596 
G01 Z-0.1000 F254.00 
G01 X8.3720 Y7.9596 F508.00 
G01 X8.5518 Y7.9954 
G01 X8.7211 Y8.0655 
G01 X8.8735 Y8.1673 
G01 X9.0031 Y8.2969 
G01 X9.1049 Y8.4493 
G01 X9.1750 Y8.6186 
G01 X9.2108 Y8.7984 
G01 X9.2108 Y8.9816 
G01 X9.1750 Y9.1614 
G01 X9.1049 Y9.3307 
G01 X9.0031 Y9.4831 
G01 X8.8735 Y9.6127 
G01 X8.7211 Y9.7145 
G01 X8.5518 Y9.7846 
G01 X8.3720 Y9.8204 
G01 X6.8680 Y9.8204 
G01 X6.6882 Y9.7846 
G01 X6.5189 Y9.7145 
G01 X6.3665 Y9.6127 
G01 X6.2369 Y9.4831 
G01 X6.1351 Y9.3307 
G01 X6.0650 Y9.1614 
G01 X6.0292 Y8.9816 
G01 X6.0292 Y8.7984 
G01 X6.0650 Y8.6186 
G01 X6.1351 Y8.4493 
G01 X6.2369 Y8.2969 
G01 X6.3665 Y8.1673 
G01 X6.5189 Y8.0655 
G01 X6.6882 Y7.9954 
G01 X6.8680 Y7.9596 
G00 Z2.0000 
G00 X6.8680 Y10.4996 
G01 Z-0.1000 F254.00 
G01 X8.3720 Y10.4996 F508.00 
G01 X8.5518 Y10.5354 
G01 X8.7211 Y10.6055 
G01 X8.8735 Y10.7073 
G01 X9.0031 Y10.8369 
G01 X9.1049 Y10.9893 
G01 X9.1750 Y11.1586 
G01 X9.2108 Y11.3384 
G01 X9.2108 Y11.5216 
G01 X9.1750 Y11.7014 
G01 X9.1049 Y11.8707 
G01 X9.0031 Y12.0231 
G01 X8.8735 Y12.1527 
G01 X8.7211 Y12.2545 
G01 X8.5518 Y12.3246 
G01 X8.3720 Y12.3604 
G01 X6.8680 Y12.3604 
G01 X6.6882 Y12.3246 
G01 X6.5189 Y12.2545 
G01 X6.3665 Y12.1527 
G01 X6.2369 Y12.0231 
G01 X6.1351 Y11.8707 
G01 X6.0650 Y11.7014 
G01 X6.0292 Y11.5216 
G01 X6.0292 Y11.3384 
G01 X6.0650 Y11.1586 
G01 X6.1351 Y10.9893 
G01 X6.2369 Y10.8369 
G01 X6.3665 Y10.7073 
G01 X6.5189 Y10.6055 
G01 X6.6882 Y10.5354 
G01 X6.8680 Y10.4996 
G00 Z2.0000 
G00 X6.8680 Y13.0396 
G01 Z-0.1000 F254.00 
G01 X8.3720 Y13.0396 F508.00 
G01 X8.5518 Y13.0754 
G01 X8.7211 Y13.1455 
G01 X8.8735 Y13.2473 
G01 X9.0031 Y13.3769 
G01 X9.1049 Y13.5293 
G01 X9.1750 Y13.6986 
G01 X9.2108 Y13.8784 
G01 X9.2108 Y14.0616 
G01 X9.1750 Y14.2414 
G01 X9.1049 Y14.4107 
G01 X9.0031 Y14.5631 
G01 X8.8735 Y14.6927 
G01 X8.7211 Y14.7945 
G01 X8.5518 Y14.8646 
G01 X8.3720 Y14.9004 
G01 X6.8680 Y14.9004 
G01 X6.6882 Y14.8646 
G01 X6.5189 Y14.7945 
G01 X6.3665 Y14.6927 
G01 X6.2369 Y14.5631 
G01 X6.1351 Y14.4107 
G01 X6.0650 Y14.2414 
G01 X6.0292 Y14.0616 
G01 X6.0292 Y13.8784 
G01 X6.0650 Y13.6986 
G01 X6.1351 Y13.5293 
G01 X6.2369 Y13.3769 
G01 X6.3665 Y13.2473 
G01 X6.5189 Y13.1455 
G01 X6.6882 Y13.0754 
G01 X6.8680 Y13.0396 
G00 Z2.0000 
G00 X6.8680 Y15.5796 
G01 Z-0.1000 F254.00 
G01 X8.3720 Y15.5796 F508.00 
G01 X8.5518 Y15.6154 
G01 X8.7211 Y15.6855 
G01 X8.8735 Y15.7873 
G01 X9.0031 Y15.9169 
G01 X9.1049 Y16.0693 
G01 X9.1750 Y16.2386 
G01 X9.2108 Y16.4184 
G01 X9.2108 Y16.6016 
G01 X9.1750 Y16.7814 
G01 X9.1049 Y16.9507 
G01 X9.0031 Y17.1031 
G01 X8.8735 Y17.2327 
G01 X8.7211 Y17.3345 
G01 X8.5518 Y17.4046 
G01 X8.3720 Y17.4404 
G01 X6.8680 Y17.4404 
G01 X6.6882 Y17.4046 
G01 X6.5189 Y17.3345 
G01 X6.3665 Y17.2327 
G01 X6.2369 Y17.1031 
G01 X6.1351 Y16.9507 
G01 X6.0650 Y16.7814 
G01 X6.0292 Y16.6016 
G01 X6.0292 Y16.4184 
G01 X6.0650 Y16.2386 
G01 X6.1351 Y16.0693 
G01 X6.2369 Y15.9169 
G01 X6.3665 Y15.7873 
G01 X6.5189 Y15.6855 
G01 X6.6882 Y15.6154 
G01 X6.8680 Y15.5796 
G00 Z2.0000 
G00 X6.8680 Y18.1196 
G01 Z-0.1000 F254.00 
G01 X8.3720 Y18.1196 F508.00 
G01 X8.5518 Y18.1554 
G01 X8.7211 Y18.2255 
G01 X8.8735 Y18.3273 
G01 X9.0031 Y18.4569 
G01 X9.1049 Y18.6093 
G01 X9.1750 Y18.7786 
G01 X9.2108 Y18.9584 
G01 X9.2108 Y19.1416 
G01 X9.1750 Y19.3214 
G01 X9.1049 Y19.4907 
G01 X9.0031 Y19.6431 
G01 X8.8735 Y19.7727 
G01 X8.7211 Y19.8745 
G01 X8.5518 Y19.9446 
G01 X8.3720 Y19.9804 
G01 X6.8680 Y19.9804 
G01 X6.6882 Y19.9446 
G01 X6.5189 Y19.8745 
G01 X6.3665 Y19.7727 
G01 X6.2369 Y19.6431 
G01 X6.1351 Y19.4907 
G01 X6.0650 Y19.3214 
G01 X6.0292 Y19.1416 
G01 X6.0292 Y18.9584 
G01 X6.0650 Y18.7786 
G01 X6.1351 Y18.6093 
G01 X6.2369 Y18.4569 
G01 X6.3665 Y18.3273 
G01 X6.5189 Y18.2255 
G01 X6.6882 Y18.1554 
G01 X6.8680 Y18.1196 
G00 Z2.0000 
G00 X17.1455 Y4.8500 
G01 Z-0.1000 F254.00 
G01 X16.9200 Y4.8500 F508.00 
G01 X16.9200 Y5.0553 
G01 X16.8914 Y5.1621 
G01 X16.8361 Y5.2579 
G01 X16.7840 Y5.3100 
G01 X17.1455 Y5.3100 
G01 X17.2142 Y5.3284 
G01 X17.2170 Y5.3300 
G01 X18.8300 Y5.3300 
G01 X18.8300 Y5.1947 
G01 X18.8586 Y5.0879 
G01 X18.9139 Y4.9921 
G01 X19.4500 Y4.4560 
G01 X19.4500 Y3.7445 
G01 X19.4684 Y3.6758 
G01 X19.5039 Y3.6142 
G01 X19.5542 Y3.5639 
G01 X19.6158 Y3.5284 
G01 X19.6845 Y3.5100 
G01 X20.9555 Y3.5100 
G01 X21.0242 Y3.5284 
G01 X21.0858 Y3.5639 
G01 X21.1361 Y3.6142 
G01 X21.1716 Y3.6758 
G01 X21.1900 Y3.7445 
G01 X21.1900 Y3.8300 
G01 X23.2600 Y3.8300 
G01 X23.2600 Y3.7445 
G01 X23.2784 Y3.6758 
G01 X23.3139 Y3.6142 
G01 X23.3642 Y3.5639 
G01 X23.4258 Y3.5284 
G01 X23.4945 Y3.5100 
G01 X24.7655 Y3.5100 
G01 X24.8342 Y3.5284 
G01 X24.8958 Y3.5639 
G01 X24.9460 Y3.6142 
G01 X24.9816 Y3.6758 
G01 X25.0000 Y3.7445 
G01 X25.0000 Y4.6155 
G01 X24.9816 Y4.6842 
G01 X24.9460 Y4.7458 
G01 X24.8958 Y4.7961 
G01 X24.8342 Y4.8316 
G01 X24.7655 Y4.8500 
G01 X23.4945 Y4.8500 
G01 X23.4258 Y4.8316 
G01 X23.3642 Y4.7961 
G01 X23.3139 Y4.7458 
G01 X23.2784 Y4.6842 
G01 X23.2746 Y4.6700 
G01 X21.1754 Y4.6700 
G01 X21.1716 Y4.6842 
G01 X21.1361 Y4.7458 
G01 X21.0858 Y4.7961 
G01 X21.0242 Y4.8316 
G01 X20.9555 Y4.8500 
G01 X20.2440 Y4.8500 
G01 X19.7840 Y5.3100 
G01 X20.9555 Y5.3100 
G01 X21.0242 Y5.3284 
G01 X21.0858 Y5.3639 
G01 X21.1361 Y5.4142 
G01 X21.1716 Y5.4758 
G01 X21.1900 Y5.5445 
G01 X21.1900 Y6.4155 
G01 X21.1716 Y6.4842 
G01 X21.1361 Y6.5458 
G01 X21.0858 Y6.5960 
G01 X21.0242 Y6.6316 
G01 X20.9555 Y6.6500 
G01 X20.1940 Y6.6500 
G01 X19.6700 Y7.1740 
G01 X19.6700 Y7.9967 
G01 X20.1201 Y8.4467 
G01 X20.1201 Y9.3332 
G01 X19.4932 Y9.9601 
G01 X18.6068 Y9.9601 
G01 X18.1700 Y9.5233 
G01 X18.1700 Y13.5760 
G01 X19.4240 Y14.8300 
G01 X27.3053 Y14.8300 
G01 X27.4121 Y14.8586 
G01 X27.5079 Y14.9139 
G01 X27.5861 Y14.9921 
G01 X28.3361 Y15.7421 
G01 X28.3914 Y15.8379 
G01 X28.4200 Y15.9447 
G01 X28.4200 Y20.0553 
G01 X28.3914 Y20.1621 
G01 X28.3361 Y20.2579 
G01 X28.2579 Y20.3361 
G01 X28.2400 Y20.3540 
G01 X28.2400 Y20.9555 
G01 X28.2216 Y21.0242 
G01 X28.1861 Y21.0858 
G01 X28.1358 Y21.1361 
G01 X28.0742 Y21.1716 
G01 X28.0055 Y21.1900 
G01 X27.1345 Y21.1900 
G01 X27.1265 Y21.1879 
G01 X27.0861 Y21.2579 
G01 X25.8361 Y22.5079 
G01 X25.7579 Y22.5861 
G01 X25.6621 Y22.6414 
G01 X25.5553 Y22.6700 
G01 X18.6500 Y22.6700 
G01 X18.6500 Y22.9255 
G01 X18.6316 Y22.9942 
G01 X18.5961 Y23.0558 
G01 X18.5458 Y23.1060 
G01 X18.4842 Y23.1416 
G01 X18.4155 Y23.1600 
G01 X17.1444 Y23.1600 
G01 X17.0758 Y23.1416 
G01 X17.0142 Y23.1060 
G01 X16.9639 Y23.0558 
G01 X16.9284 Y22.9942 
G01 X16.9100 Y22.9255 
G01 X16.9100 Y22.9200 
G01 X14.8400 Y22.9200 
G01 X14.8400 Y22.9255 
G01 X14.8216 Y22.9942 
G01 X14.7861 Y23.0558 
G01 X14.7358 Y23.1060 
G01 X14.6742 Y23.1416 
G01 X14.6055 Y23.1600 
G01 X13.3345 Y23.1600 
G01 X13.2658 Y23.1416 
G01 X13.2042 Y23.1060 
G01 X13.1539 Y23.0558 
G01 X13.1184 Y22.9942 
G01 X13.1000 Y22.9255 
G01 X13.1000 Y22.1940 
G01 X10.6639 Y19.7579 
G01 X10.6086 Y19.6621 
G01 X10.5800 Y19.5553 
G01 X10.5800 Y5.6700 
G01 X8.9162 Y5.6700 
G01 X9.0031 Y5.7569 
G01 X9.1049 Y5.9093 
G01 X9.1750 Y6.0786 
G01 X9.2108 Y6.2584 
G01 X9.2108 Y6.4416 
G01 X9.1750 Y6.6214 
G01 X9.1049 Y6.7907 
G01 X9.0031 Y6.9431 
G01 X8.8735 Y7.0727 
G01 X8.7211 Y7.1745 
G01 X8.5518 Y7.2446 
G01 X8.3720 Y7.2804 
G01 X6.8680 Y7.2804 
G01 X6.6882 Y7.2446 
G01 X6.5189 Y7.1745 
G01 X6.3665 Y7.0727 
G01 X6.2369 Y6.9431 
G01 X6.1351 Y6.7907 
G01 X6.0650 Y6.6214 
G01 X6.0292 Y6.4416 
G01 X6.0292 Y6.2584 
G01 X6.0650 Y6.0786 
G01 X6.1351 Y5.9093 
G01 X6.2369 Y5.7569 
G01 X6.3665 Y5.6273 
G01 X6.5189 Y5.5255 
G01 X6.6882 Y5.4554 
G01 X6.8680 Y5.4196 
G01 X7.3300 Y5.4196 
G01 X7.3300 Y5.1947 
G01 X7.3586 Y5.0879 
G01 X7.4139 Y4.9921 
G01 X7.4921 Y4.9139 
G01 X7.5879 Y4.8586 
G01 X7.6947 Y4.8300 
G01 X10.7800 Y4.8300 
G01 X10.7800 Y4.4444 
G01 X10.7984 Y4.3758 
G01 X10.8339 Y4.3142 
G01 X10.8842 Y4.2639 
G01 X10.9458 Y4.2284 
G01 X11.0145 Y4.2100 
G01 X12.2855 Y4.2100 
G01 X12.3300 Y4.2219 
G01 X12.3300 Y2.6947 
G01 X12.3586 Y2.5879 
G01 X12.4139 Y2.4921 
G01 X12.4921 Y2.4139 
G01 X12.5879 Y2.3586 
G01 X12.6947 Y2.3300 
G01 X25.3053 Y2.3300 
G01 X25.4121 Y2.3586 
G01 X25.5079 Y2.4139 
G01 X25.5861 Y2.4921 
G01 X26.6040 Y3.5100 
G01 X27.3055 Y3.5100 
G01 X27.3742 Y3.5284 
G01 X27.4358 Y3.5639 
G01 X27.4861 Y3.6142 
G01 X27.5216 Y3.6758 
G01 X27.5400 Y3.7445 
G01 X27.5400 Y4.6155 
G01 X27.5216 Y4.6842 
G01 X27.4861 Y4.7458 
G01 X27.4358 Y4.7961 
G01 X27.3742 Y4.8316 
G01 X27.3055 Y4.8500 
G01 X26.0344 Y4.8500 
G01 X25.9658 Y4.8316 
G01 X25.9042 Y4.7961 
G01 X25.8539 Y4.7458 
G01 X25.8184 Y4.6842 
G01 X25.8000 Y4.6155 
G01 X25.8000 Y3.8940 
G01 X25.0760 Y3.1700 
G01 X13.1700 Y3.1700 
G01 X13.1700 Y4.2100 
G01 X14.3855 Y4.2100 
G01 X14.4542 Y4.2284 
G01 X14.5158 Y4.2639 
G01 X14.5661 Y4.3142 
G01 X14.6016 Y4.3758 
G01 X14.6200 Y4.4444 
G01 X14.6200 Y4.5800 
G01 X15.6400 Y4.5800 
G01 X15.6400 Y3.7445 
G01 X15.6584 Y3.6758 
G01 X15.6939 Y3.6142 
G01 X15.7442 Y3.5639 
G01 X15.8058 Y3.5284 
G01 X15.8745 Y3.5100 
G01 X17.1455 Y3.5100 
G01 X17.2142 Y3.5284 
G01 X17.2758 Y3.5639 
G01 X17.3261 Y3.6142 
G01 X17.3616 Y3.6758 
G01 X17.3800 Y3.7445 
G01 X17.3800 Y4.6155 
G01 X17.3616 Y4.6842 
G01 X17.3261 Y4.7458 
G01 X17.2758 Y4.7961 
G01 X17.2142 Y4.8316 
G01 X17.1455 Y4.8500 
G00 Z2.0000 
G00 X2.5530 Y14.5225 
G01 Z-0.1000 F254.00 
G01 X2.5530 Y14.7050 F508.00 
G01 X2.5628 Y14.7148 
G01 X2.7355 Y14.7148 
G01 X2.7453 Y14.7050 
G01 X2.7453 Y14.5225 
G01 X2.5530 Y14.5225 
G00 Z2.0000 
G00 X3.1017 Y6.5255 
G01 Z-0.1000 F254.00 
G01 X3.1051 Y6.5290 F508.00 
G01 X3.2778 Y6.5290 
G01 X3.2876 Y6.5192 
G01 X3.2876 Y6.3465 
G01 X3.2233 Y6.2822 
G01 X3.1017 Y6.5255 
G00 Z2.0000 
G00 X27.4800 Y19.3500 
G01 Z-0.1000 F254.00 
G01 X27.4800 Y17.3548 F508.00 
G01 X27.2700 Y17.5648 
G01 X27.2700 Y19.3500 
G01 X27.4800 Y19.3500 
G00 Z2.0000 
G00 X11.5200 Y19.2846 
G01 Z-0.1000 F254.00 
G01 X13.0000 Y20.7646 F508.00 
G01 X13.0000 Y20.4854 
G01 X11.5200 Y19.0054 
G01 X11.5200 Y19.2846 
G00 Z2.0000 
G00 X14.7200 Y5.7287 
G01 Z-0.1000 F254.00 
G01 X14.6948 Y5.8228 F508.00 
G01 X14.6461 Y5.9072 
G01 X14.5772 Y5.9761 
G01 X14.4928 Y6.0248 
G01 X14.3987 Y6.0500 
G01 X13.2700 Y6.0500 
G01 X13.2700 Y9.0346 
G01 X13.5693 Y9.3339 
G01 X13.6661 Y9.4307 
G01 X15.1154 Y10.8800 
G01 X15.8187 Y10.8800 
G01 X15.9128 Y10.9052 
G01 X15.9972 Y10.9539 
G01 X16.0661 Y11.0228 
G01 X16.1148 Y11.1072 
G01 X16.1400 Y11.2013 
G01 X16.1400 Y12.2987 
G01 X16.1148 Y12.3928 
G01 X16.0661 Y12.4772 
G01 X15.9972 Y12.5461 
G01 X15.9128 Y12.5948 
G01 X15.8187 Y12.6200 
G01 X14.3213 Y12.6200 
G01 X14.2272 Y12.5948 
G01 X14.1428 Y12.5461 
G01 X14.0739 Y12.4772 
G01 X14.0252 Y12.3928 
G01 X14.0000 Y12.2987 
G01 X14.0000 Y11.7079 
G01 X13.9320 Y11.8097 
G01 X13.8175 Y11.9242 
G01 X13.8661 Y11.9728 
G01 X13.9148 Y12.0572 
G01 X13.9400 Y12.1513 
G01 X13.9400 Y13.2487 
G01 X13.9148 Y13.3428 
G01 X13.8661 Y13.4272 
G01 X13.7972 Y13.4961 
G01 X13.7128 Y13.5448 
G01 X13.6187 Y13.5700 
G01 X12.2700 Y13.5700 
G01 X12.2700 Y18.2846 
G01 X13.9054 Y19.9200 
G01 X14.6187 Y19.9200 
G01 X14.7128 Y19.9452 
G01 X14.7300 Y19.9551 
G01 X14.7300 Y14.5200 
G01 X14.3213 Y14.5200 
G01 X14.2272 Y14.4948 
G01 X14.1428 Y14.4461 
G01 X14.0739 Y14.3772 
G01 X14.0252 Y14.2928 
G01 X14.0000 Y14.1987 
G01 X14.0000 Y13.1013 
G01 X14.0252 Y13.0072 
G01 X14.0739 Y12.9228 
G01 X14.1428 Y12.8539 
G01 X14.2272 Y12.8052 
G01 X14.3213 Y12.7800 
G01 X15.8187 Y12.7800 
G01 X15.9128 Y12.8052 
G01 X15.9972 Y12.8539 
G01 X16.0661 Y12.9228 
G01 X16.1148 Y13.0072 
G01 X16.1400 Y13.1013 
G01 X16.1400 Y14.1987 
G01 X16.1148 Y14.2928 
G01 X16.0661 Y14.3772 
G01 X15.9972 Y14.4461 
G01 X15.9128 Y14.4948 
G01 X15.8187 Y14.5200 
G01 X15.7700 Y14.5200 
G01 X15.7700 Y21.9800 
G01 X16.8264 Y21.9800 
G01 X16.8352 Y21.9472 
G01 X16.8839 Y21.8628 
G01 X16.9528 Y21.7939 
G01 X17.0372 Y21.7452 
G01 X17.1313 Y21.7200 
G01 X18.4287 Y21.7200 
G01 X18.4660 Y21.7300 
G01 X25.2846 Y21.7300 
G01 X25.7246 Y21.2900 
G01 X25.3213 Y21.2900 
G01 X25.2272 Y21.2648 
G01 X25.1428 Y21.2161 
G01 X25.0739 Y21.1472 
G01 X25.0252 Y21.0628 
G01 X25.0000 Y20.9687 
G01 X25.0000 Y20.7700 
G01 X23.2600 Y20.7700 
G01 X23.2600 Y20.9687 
G01 X23.2348 Y21.0628 
G01 X23.1861 Y21.1472 
G01 X23.1172 Y21.2161 
G01 X23.0328 Y21.2648 
G01 X22.9387 Y21.2900 
G01 X22.0413 Y21.2900 
G01 X21.9472 Y21.2648 
G01 X21.8628 Y21.2161 
G01 X21.7939 Y21.1472 
G01 X21.7452 Y21.0628 
G01 X21.7200 Y20.9687 
G01 X21.7200 Y20.0154 
G01 X21.4600 Y20.2754 
G01 X21.4600 Y20.9687 
G01 X21.4348 Y21.0628 
G01 X21.3861 Y21.1472 
G01 X21.3172 Y21.2161 
G01 X21.2328 Y21.2648 
G01 X21.1387 Y21.2900 
G01 X20.2413 Y21.2900 
G01 X20.1472 Y21.2648 
G01 X20.0628 Y21.2161 
G01 X19.9939 Y21.1472 
G01 X19.9452 Y21.0628 
G01 X19.9337 Y21.0200 
G01 X18.7500 Y21.0200 
G01 X18.7500 Y21.1387 
G01 X18.7248 Y21.2328 
G01 X18.6761 Y21.3172 
G01 X18.6072 Y21.3861 
G01 X18.5228 Y21.4348 
G01 X18.4287 Y21.4600 
G01 X17.1313 Y21.4600 
G01 X17.0372 Y21.4348 
G01 X16.9528 Y21.3861 
G01 X16.8839 Y21.3172 
G01 X16.8352 Y21.2328 
G01 X16.8100 Y21.1387 
G01 X16.8100 Y20.2413 
G01 X16.8352 Y20.1472 
G01 X16.8839 Y20.0628 
G01 X16.9528 Y19.9939 
G01 X17.0372 Y19.9452 
G01 X17.1313 Y19.9200 
G01 X18.4287 Y19.9200 
G01 X18.5228 Y19.9452 
G01 X18.5831 Y19.9800 
G01 X19.9200 Y19.9800 
G01 X19.9200 Y19.6713 
G01 X19.9452 Y19.5772 
G01 X19.9939 Y19.4928 
G01 X20.0628 Y19.4239 
G01 X20.1472 Y19.3752 
G01 X20.2413 Y19.3500 
G01 X20.9146 Y19.3500 
G01 X20.9800 Y19.2846 
G01 X20.9800 Y17.5548 
G01 X20.4199 Y16.9947 
G01 X20.4199 Y16.0253 
G01 X20.6752 Y15.7700 
G01 X19.9648 Y15.7700 
G01 X20.2201 Y16.0253 
G01 X20.2201 Y16.9947 
G01 X19.5347 Y17.6801 
G01 X18.5653 Y17.6801 
G01 X17.8799 Y16.9947 
G01 X17.8799 Y16.0253 
G01 X18.5653 Y15.3399 
G01 X18.6045 Y15.3399 
G01 X17.3339 Y14.0693 
G01 X17.2654 Y13.9507 
G01 X17.2300 Y13.8185 
G01 X17.2300 Y6.7309 
G01 X17.1587 Y6.7500 
G01 X15.8613 Y6.7500 
G01 X15.7672 Y6.7248 
G01 X15.6828 Y6.6761 
G01 X15.6139 Y6.6072 
G01 X15.5652 Y6.5228 
G01 X15.5400 Y6.4287 
G01 X15.5400 Y5.5313 
G01 X15.5430 Y5.5200 
G01 X14.7200 Y5.5200 
G01 X14.7200 Y5.7287 
G00 Z2.0000 
G00 X19.2446 Y6.2700 
G01 Z-0.1000 F254.00 
G01 X18.2700 Y6.2700 F508.00 
G01 X18.2700 Y8.0152 
G01 X18.5653 Y7.7199 
G01 X18.7300 Y7.7199 
G01 X18.7300 Y6.9315 
G01 X18.7654 Y6.7993 
G01 X18.8339 Y6.6807 
G01 X18.9307 Y6.5839 
G01 X19.2446 Y6.2700 
G00 Z2.0000 
G00 X23.6453 Y17.6801 
G01 Z-0.1000 F254.00 
G01 X22.9599 Y16.9947 F508.00 
G01 X22.9599 Y16.0253 
G01 X23.2152 Y15.7700 
G01 X22.5048 Y15.7700 
G01 X22.7601 Y16.0253 
G01 X22.7601 Y16.9947 
G01 X22.0747 Y17.6801 
G01 X22.0200 Y17.6801 
G01 X22.0200 Y19.3557 
G01 X22.0413 Y19.3500 
G01 X22.9387 Y19.3500 
G01 X23.0328 Y19.3752 
G01 X23.1172 Y19.4239 
G01 X23.1861 Y19.4928 
G01 X23.2348 Y19.5772 
G01 X23.2600 Y19.6713 
G01 X23.2600 Y19.7300 
G01 X23.7300 Y19.7300 
G01 X23.7300 Y17.6801 
G01 X23.6453 Y17.6801 
G00 Z2.0000 
G00 X25.0000 Y19.7300 
G01 Z-0.1000 F254.00 
G01 X25.0000 Y19.6713 F508.00 
G01 X25.0252 Y19.5772 
G01 X25.0739 Y19.4928 
G01 X25.1428 Y19.4239 
G01 X25.2272 Y19.3752 
G01 X25.3213 Y19.3500 
G01 X26.2187 Y19.3500 
G01 X26.2300 Y19.3530 
G01 X26.2300 Y17.6801 
G01 X26.1853 Y17.6801 
G01 X25.4999 Y16.9947 
G01 X25.4999 Y16.0253 
G01 X25.7552 Y15.7700 
G01 X25.0448 Y15.7700 
G01 X25.3001 Y16.0253 
G01 X25.3001 Y16.9947 
G01 X24.7700 Y17.5248 
G01 X24.7700 Y19.7300 
G01 X25.0000 Y19.7300 
G00 Z2.0000 
G00 X12.3339 Y9.5693 
G01 Z-0.1000 F254.00 
G01 X12.2654 Y9.4507 F508.00 
G01 X12.2300 Y9.3185 
G01 X12.2300 Y6.0500 
G01 X11.5200 Y6.0500 
G01 X11.5200 Y10.7446 
G01 X12.5146 Y9.7500 
G01 X12.3339 Y9.5693 
G00 Z2.0000 
G00 X12.5883 Y11.8300 
G01 Z-0.1000 F254.00 
G01 X12.5680 Y11.8097 F508.00 
G01 X12.4719 Y11.6659 
G01 X12.4057 Y11.5061 
G01 X12.3765 Y11.3589 
G01 X12.2700 Y11.4654 
G01 X12.2700 Y11.8300 
G01 X12.5883 Y11.8300 
G00 Z2.0000 
G00 X14.6187 Y21.7200 
G01 Z-0.1000 F254.00 
G01 X14.7128 Y21.7452 F508.00 
G01 X14.7300 Y21.7551 
G01 X14.7300 Y21.4249 
G01 X14.7128 Y21.4348 
G01 X14.6187 Y21.4600 
G01 X13.6954 Y21.4600 
G01 X13.9554 Y21.7200 
G01 X14.6187 Y21.7200 
G00 Z2.0000 
G00 X6.8581 Y18.0196 
G01 Z-0.1000 F254.00 
G01 X8.3819 Y18.0196 F508.00 
G01 X8.5810 Y18.0592 
G01 X8.7685 Y18.1369 
G01 X8.9372 Y18.2496 
G01 X9.0808 Y18.3932 
G01 X9.1935 Y18.5619 
G01 X9.2712 Y18.7494 
G01 X9.3108 Y18.9485 
G01 X9.3108 Y19.1515 
G01 X9.2712 Y19.3506 
G01 X9.1935 Y19.5381 
G01 X9.0808 Y19.7068 
G01 X8.9372 Y19.8504 
G01 X8.7685 Y19.9631 
G01 X8.5810 Y20.0408 
G01 X8.3819 Y20.0804 
G01 X6.8581 Y20.0804 
G01 X6.6590 Y20.0408 
G01 X6.4715 Y19.9631 
G01 X6.3028 Y19.8504 
G01 X6.1592 Y19.7068 
G01 X6.0465 Y19.5381 
G01 X5.9688 Y19.3506 
G01 X5.9292 Y19.1515 
G01 X5.9292 Y18.9485 
G01 X5.9688 Y18.7494 
G01 X6.0465 Y18.5619 
G01 X6.1592 Y18.3932 
G01 X6.3028 Y18.2496 
G01 X6.4715 Y18.1369 
G01 X6.6590 Y18.0592 
G01 X6.8581 Y18.0196 
G00 Z2.0000 
G00 X6.8581 Y15.4796 
G01 Z-0.1000 F254.00 
G01 X8.3819 Y15.4796 F508.00 
G01 X8.5810 Y15.5192 
G01 X8.7685 Y15.5969 
G01 X8.9372 Y15.7096 
G01 X9.0808 Y15.8532 
G01 X9.1935 Y16.0219 
G01 X9.2712 Y16.2094 
G01 X9.3108 Y16.4085 
G01 X9.3108 Y16.6115 
G01 X9.2712 Y16.8106 
G01 X9.1935 Y16.9981 
G01 X9.0808 Y17.1668 
G01 X8.9372 Y17.3104 
G01 X8.7685 Y17.4231 
G01 X8.5810 Y17.5008 
G01 X8.3819 Y17.5404 
G01 X6.8581 Y17.5404 
G01 X6.6590 Y17.5008 
G01 X6.4715 Y17.4231 
G01 X6.3028 Y17.3104 
G01 X6.1592 Y17.1668 
G01 X6.0465 Y16.9981 
G01 X5.9688 Y16.8106 
G01 X5.9292 Y16.6115 
G01 X5.9292 Y16.4085 
G01 X5.9688 Y16.2094 
G01 X6.0465 Y16.0219 
G01 X6.1592 Y15.8532 
G01 X6.3028 Y15.7096 
G01 X6.4715 Y15.5969 
G01 X6.6590 Y15.5192 
G01 X6.8581 Y15.4796 
G00 Z2.0000 
G00 X6.8581 Y12.9396 
G01 Z-0.1000 F254.00 
G01 X8.3819 Y12.9396 F508.00 
G01 X8.5810 Y12.9792 
G01 X8.7685 Y13.0569 
G01 X8.9372 Y13.1696 
G01 X9.0808 Y13.3132 
G01 X9.1935 Y13.4819 
G01 X9.2712 Y13.6694 
G01 X9.3108 Y13.8685 
G01 X9.3108 Y14.0715 
G01 X9.2712 Y14.2706 
G01 X9.1935 Y14.4581 
G01 X9.0808 Y14.6268 
G01 X8.9372 Y14.7704 
G01 X8.7685 Y14.8831 
G01 X8.5810 Y14.9608 
G01 X8.3819 Y15.0004 
G01 X6.8581 Y15.0004 
G01 X6.6590 Y14.9608 
G01 X6.4715 Y14.8831 
G01 X6.3028 Y14.7704 
G01 X6.1592 Y14.6268 
G01 X6.0465 Y14.4581 
G01 X5.9688 Y14.2706 
G01 X5.9292 Y14.0715 
G01 X5.9292 Y13.8685 
G01 X5.9688 Y13.6694 
G01 X6.0465 Y13.4819 
G01 X6.1592 Y13.3132 
G01 X6.3028 Y13.1696 
G01 X6.4715 Y13.0569 
G01 X6.6590 Y12.9792 
G01 X6.8581 Y12.9396 
G00 Z2.0000 
G00 X6.8581 Y10.3996 
G01 Z-0.1000 F254.00 
G01 X8.3819 Y10.3996 F508.00 
G01 X8.5810 Y10.4392 
G01 X8.7685 Y10.5169 
G01 X8.9372 Y10.6296 
G01 X9.0808 Y10.7732 
G01 X9.1935 Y10.9419 
G01 X9.2712 Y11.1294 
G01 X9.3108 Y11.3285 
G01 X9.3108 Y11.5315 
G01 X9.2712 Y11.7306 
G01 X9.1935 Y11.9181 
G01 X9.0808 Y12.0868 
G01 X8.9372 Y12.2304 
G01 X8.7685 Y12.3431 
G01 X8.5810 Y12.4208 
G01 X8.3819 Y12.4604 
G01 X6.8581 Y12.4604 
G01 X6.6590 Y12.4208 
G01 X6.4715 Y12.3431 
G01 X6.3028 Y12.2304 
G01 X6.1592 Y12.0868 
G01 X6.0465 Y11.9181 
G01 X5.9688 Y11.7306 
G01 X5.9292 Y11.5315 
G01 X5.9292 Y11.3285 
G01 X5.9688 Y11.1294 
G01 X6.0465 Y10.9419 
G01 X6.1592 Y10.7732 
G01 X6.3028 Y10.6296 
G01 X6.4715 Y10.5169 
G01 X6.6590 Y10.4392 
G01 X6.8581 Y10.3996 
G00 Z2.0000 
G00 X6.8581 Y7.8596 
G01 Z-0.1000 F254.00 
G01 X8.3819 Y7.8596 F508.00 
G01 X8.5810 Y7.8992 
G01 X8.7685 Y7.9769 
G01 X8.9372 Y8.0896 
G01 X9.0808 Y8.2332 
G01 X9.1935 Y8.4019 
G01 X9.2712 Y8.5894 
G01 X9.3108 Y8.7885 
G01 X9.3108 Y8.9915 
G01 X9.2712 Y9.1906 
G01 X9.1935 Y9.3781 
G01 X9.0808 Y9.5468 
G01 X8.9372 Y9.6904 
G01 X8.7685 Y9.8031 
G01 X8.5810 Y9.8808 
G01 X8.3819 Y9.9204 
G01 X6.8581 Y9.9204 
G01 X6.6590 Y9.8808 
G01 X6.4715 Y9.8031 
G01 X6.3028 Y9.6904 
G01 X6.1592 Y9.5468 
G01 X6.0465 Y9.3781 
G01 X5.9688 Y9.1906 
G01 X5.9292 Y8.9915 
G01 X5.9292 Y8.7885 
G01 X5.9688 Y8.5894 
G01 X6.0465 Y8.4019 
G01 X6.1592 Y8.2332 
G01 X6.3028 Y8.0896 
G01 X6.4715 Y7.9769 
G01 X6.6590 Y7.8992 
G01 X6.8581 Y7.8596 
G00 Z2.0000 
G00 X27.3187 Y4.9500 
G01 Z-0.1000 F254.00 
G01 X26.0213 Y4.9500 F508.00 
G01 X25.9272 Y4.9248 
G01 X25.8428 Y4.8761 
G01 X25.7739 Y4.8072 
G01 X25.7252 Y4.7228 
G01 X25.7000 Y4.6287 
G01 X25.7000 Y3.9354 
G01 X25.0346 Y3.2700 
G01 X13.2700 Y3.2700 
G01 X13.2700 Y4.1100 
G01 X14.3987 Y4.1100 
G01 X14.4928 Y4.1352 
G01 X14.5772 Y4.1839 
G01 X14.6461 Y4.2528 
G01 X14.6948 Y4.3372 
G01 X14.7200 Y4.4313 
G01 X14.7200 Y4.4800 
G01 X15.5400 Y4.4800 
G01 X15.5400 Y3.7313 
G01 X15.5652 Y3.6372 
G01 X15.6139 Y3.5528 
G01 X15.6828 Y3.4839 
G01 X15.7672 Y3.4352 
G01 X15.8613 Y3.4100 
G01 X17.1587 Y3.4100 
G01 X17.2528 Y3.4352 
G01 X17.3372 Y3.4839 
G01 X17.4061 Y3.5528 
G01 X17.4548 Y3.6372 
G01 X17.4800 Y3.7313 
G01 X17.4800 Y4.6287 
G01 X17.4548 Y4.7228 
G01 X17.4061 Y4.8072 
G01 X17.3372 Y4.8761 
G01 X17.2528 Y4.9248 
G01 X17.1587 Y4.9500 
G01 X17.0200 Y4.9500 
G01 X17.0200 Y5.0685 
G01 X16.9846 Y5.2007 
G01 X16.9792 Y5.2100 
G01 X17.1587 Y5.2100 
G01 X17.2333 Y5.2300 
G01 X18.7300 Y5.2300 
G01 X18.7300 Y5.1815 
G01 X18.7654 Y5.0493 
G01 X18.8339 Y4.9307 
G01 X19.3500 Y4.4146 
G01 X19.3500 Y3.7313 
G01 X19.3752 Y3.6372 
G01 X19.4239 Y3.5528 
G01 X19.4928 Y3.4839 
G01 X19.5772 Y3.4352 
G01 X19.6713 Y3.4100 
G01 X20.9687 Y3.4100 
G01 X21.0628 Y3.4352 
G01 X21.1472 Y3.4839 
G01 X21.2161 Y3.5528 
G01 X21.2648 Y3.6372 
G01 X21.2897 Y3.7300 
G01 X23.1603 Y3.7300 
G01 X23.1852 Y3.6372 
G01 X23.2339 Y3.5528 
G01 X23.3028 Y3.4839 
G01 X23.3872 Y3.4352 
G01 X23.4813 Y3.4100 
G01 X24.7787 Y3.4100 
G01 X24.8728 Y3.4352 
G01 X24.9572 Y3.4839 
G01 X25.0261 Y3.5528 
G01 X25.0748 Y3.6372 
G01 X25.1000 Y3.7313 
G01 X25.1000 Y4.6287 
G01 X25.0748 Y4.7228 
G01 X25.0261 Y4.8072 
G01 X24.9572 Y4.8761 
G01 X24.8728 Y4.9248 
G01 X24.7787 Y4.9500 
G01 X23.4813 Y4.9500 
G01 X23.3872 Y4.9248 
G01 X23.3028 Y4.8761 
G01 X23.2339 Y4.8072 
G01 X23.2125 Y4.7700 
G01 X21.2375 Y4.7700 
G01 X21.2161 Y4.8072 
G01 X21.1472 Y4.8761 
G01 X21.0628 Y4.9248 
G01 X20.9687 Y4.9500 
G01 X20.2854 Y4.9500 
G01 X20.0254 Y5.2100 
G01 X20.9687 Y5.2100 
G01 X21.0628 Y5.2352 
G01 X21.1472 Y5.2839 
G01 X21.2161 Y5.3528 
G01 X21.2648 Y5.4372 
G01 X21.2900 Y5.5313 
G01 X21.2900 Y6.4287 
G01 X21.2648 Y6.5228 
G01 X21.2161 Y6.6072 
G01 X21.1472 Y6.6761 
G01 X21.0628 Y6.7248 
G01 X20.9687 Y6.7500 
G01 X20.2354 Y6.7500 
G01 X19.7700 Y7.2154 
G01 X19.7700 Y7.9552 
G01 X20.2201 Y8.4053 
G01 X20.2201 Y9.3747 
G01 X19.5347 Y10.0601 
G01 X18.5653 Y10.0601 
G01 X18.2700 Y9.7648 
G01 X18.2700 Y13.5346 
G01 X19.4654 Y14.7300 
G01 X27.3185 Y14.7300 
G01 X27.4507 Y14.7654 
G01 X27.5693 Y14.8339 
G01 X27.6661 Y14.9307 
G01 X28.4161 Y15.6807 
G01 X28.4846 Y15.7993 
G01 X28.5200 Y15.9315 
G01 X28.5200 Y20.0685 
G01 X28.4846 Y20.2007 
G01 X28.4161 Y20.3193 
G01 X28.3400 Y20.3954 
G01 X28.3400 Y20.9687 
G01 X28.3148 Y21.0628 
G01 X28.2661 Y21.1472 
G01 X28.1972 Y21.2161 
G01 X28.1128 Y21.2648 
G01 X28.0187 Y21.2900 
G01 X27.1830 Y21.2900 
G01 X27.1661 Y21.3193 
G01 X25.9161 Y22.5693 
G01 X25.8193 Y22.6661 
G01 X25.7007 Y22.7346 
G01 X25.5685 Y22.7700 
G01 X18.7500 Y22.7700 
G01 X18.7500 Y22.9387 
G01 X18.7248 Y23.0328 
G01 X18.6761 Y23.1172 
G01 X18.6072 Y23.1861 
G01 X18.5228 Y23.2348 
G01 X18.4287 Y23.2600 
G01 X17.1313 Y23.2600 
G01 X17.0372 Y23.2348 
G01 X16.9528 Y23.1861 
G01 X16.8839 Y23.1172 
G01 X16.8352 Y23.0328 
G01 X16.8318 Y23.0200 
G01 X14.9182 Y23.0200 
G01 X14.9148 Y23.0328 
G01 X14.8661 Y23.1172 
G01 X14.7972 Y23.1861 
G01 X14.7128 Y23.2348 
G01 X14.6187 Y23.2600 
G01 X13.3213 Y23.2600 
G01 X13.2272 Y23.2348 
G01 X13.1428 Y23.1861 
G01 X13.0739 Y23.1172 
G01 X13.0252 Y23.0328 
G01 X13.0000 Y22.9387 
G01 X13.0000 Y22.2354 
G01 X10.5839 Y19.8193 
G01 X10.5154 Y19.7007 
G01 X10.4800 Y19.5685 
G01 X10.4800 Y5.7700 
G01 X9.1321 Y5.7700 
G01 X9.1935 Y5.8619 
G01 X9.2712 Y6.0494 
G01 X9.3108 Y6.2485 
G01 X9.3108 Y6.4515 
G01 X9.2712 Y6.6506 
G01 X9.1935 Y6.8381 
G01 X9.0808 Y7.0068 
G01 X8.9372 Y7.1504 
G01 X8.7685 Y7.2631 
G01 X8.5810 Y7.3408 
G01 X8.3819 Y7.3804 
G01 X6.8581 Y7.3804 
G01 X6.6590 Y7.3408 
G01 X6.4715 Y7.2631 
G01 X6.3028 Y7.1504 
G01 X6.1592 Y7.0068 
G01 X6.0465 Y6.8381 
G01 X5.9688 Y6.6506 
G01 X5.9292 Y6.4515 
G01 X5.9292 Y6.2485 
G01 X5.9688 Y6.0494 
G01 X6.0465 Y5.8619 
G01 X6.1592 Y5.6932 
G01 X6.3028 Y5.5496 
G01 X6.4715 Y5.4369 
G01 X6.6590 Y5.3592 
G01 X6.8581 Y5.3196 
G01 X7.2300 Y5.3196 
G01 X7.2300 Y5.1815 
G01 X7.2654 Y5.0493 
G01 X7.3339 Y4.9307 
G01 X7.4307 Y4.8339 
G01 X7.5493 Y4.7654 
G01 X7.6815 Y4.7300 
G01 X10.6800 Y4.7300 
G01 X10.6800 Y4.4313 
G01 X10.7052 Y4.3372 
G01 X10.7539 Y4.2528 
G01 X10.8228 Y4.1839 
G01 X10.9072 Y4.1352 
G01 X11.0013 Y4.1100 
G01 X12.2300 Y4.1100 
G01 X12.2300 Y2.6815 
G01 X12.2654 Y2.5493 
G01 X12.3339 Y2.4307 
G01 X12.4307 Y2.3339 
G01 X12.5493 Y2.2654 
G01 X12.6815 Y2.2300 
G01 X25.3185 Y2.2300 
G01 X25.4507 Y2.2654 
G01 X25.5693 Y2.3339 
G01 X25.6661 Y2.4307 
G01 X26.6454 Y3.4100 
G01 X27.3187 Y3.4100 
G01 X27.4128 Y3.4352 
G01 X27.4972 Y3.4839 
G01 X27.5661 Y3.5528 
G01 X27.6148 Y3.6372 
G01 X27.6400 Y3.7313 
G01 X27.6400 Y4.6287 
G01 X27.6148 Y4.7228 
G01 X27.5661 Y4.8072 
G01 X27.4972 Y4.8761 
G01 X27.4128 Y4.9248 
G01 X27.3187 Y4.9500 
G00 Z2.0000 
G00 X27.8401 Y8.4053 
G01 Z-0.1000 F254.00 
G01 X27.8401 Y9.3747 F508.00 
G01 X27.1547 Y10.0601 
G01 X26.1853 Y10.0601 
G01 X25.4999 Y9.3747 
G01 X25.4999 Y8.4053 
G01 X26.1853 Y7.7199 
G01 X26.2300 Y7.7199 
G01 X26.2300 Y6.7500 
G01 X26.0213 Y6.7500 
G01 X25.9272 Y6.7248 
G01 X25.8428 Y6.6761 
G01 X25.7739 Y6.6072 
G01 X25.7252 Y6.5228 
G01 X25.7000 Y6.4287 
G01 X25.7000 Y5.5313 
G01 X25.7252 Y5.4372 
G01 X25.7739 Y5.3528 
G01 X25.8428 Y5.2839 
G01 X25.9272 Y5.2352 
G01 X26.0213 Y5.2100 
G01 X27.3187 Y5.2100 
G01 X27.4128 Y5.2352 
G01 X27.4972 Y5.2839 
G01 X27.5661 Y5.3528 
G01 X27.6148 Y5.4372 
G01 X27.6400 Y5.5313 
G01 X27.6400 Y6.4287 
G01 X27.6148 Y6.5228 
G01 X27.5661 Y6.6072 
G01 X27.4972 Y6.6761 
G01 X27.4128 Y6.7248 
G01 X27.3187 Y6.7500 
G01 X27.2700 Y6.7500 
G01 X27.2700 Y7.8352 
G01 X27.8401 Y8.4053 
G00 Z2.0000 
G00 X23.4813 Y5.2100 
G01 Z-0.1000 F254.00 
G01 X24.7787 Y5.2100 F508.00 
G01 X24.8728 Y5.2352 
G01 X24.9572 Y5.2839 
G01 X25.0261 Y5.3528 
G01 X25.0748 Y5.4372 
G01 X25.1000 Y5.5313 
G01 X25.1000 Y6.4287 
G01 X25.0748 Y6.5228 
G01 X25.0261 Y6.6072 
G01 X24.9572 Y6.6761 
G01 X24.8728 Y6.7248 
G01 X24.7787 Y6.7500 
G01 X24.7700 Y6.7500 
G01 X24.7700 Y7.8752 
G01 X25.3001 Y8.4053 
G01 X25.3001 Y9.3747 
G01 X24.6147 Y10.0601 
G01 X23.6453 Y10.0601 
G01 X23.1052 Y9.5200 
G01 X22.6148 Y9.5200 
G01 X22.0747 Y10.0601 
G01 X21.1053 Y10.0601 
G01 X20.4199 Y9.3747 
G01 X20.4199 Y8.4053 
G01 X21.1053 Y7.7199 
G01 X22.0747 Y7.7199 
G01 X22.7601 Y8.4053 
G01 X22.7601 Y8.4800 
G01 X22.9599 Y8.4800 
G01 X22.9599 Y8.4053 
G01 X23.6453 Y7.7199 
G01 X23.7300 Y7.7199 
G01 X23.7300 Y6.7500 
G01 X23.4813 Y6.7500 
G01 X23.3872 Y6.7248 
G01 X23.3028 Y6.6761 
G01 X23.2339 Y6.6072 
G01 X23.1852 Y6.5228 
G01 X23.1600 Y6.4287 
G01 X23.1600 Y5.5313 
G01 X23.1852 Y5.4372 
G01 X23.2339 Y5.3528 
G01 X23.3028 Y5.2839 
G01 X23.3872 Y5.2352 
G01 X23.4813 Y5.2100 
G00 Z2.0000 
G00 X3.7925 Y10.8981 
G01 Z-0.1000 F254.00 
G01 X3.9060 Y10.9285 F508.00 
G01 X4.0078 Y10.9873 
G01 X4.0908 Y11.0703 
G01 X4.1496 Y11.1721 
G01 X4.1800 Y11.2856 
G01 X4.1800 Y11.4031 
G01 X4.1496 Y11.5165 
G01 X4.0908 Y11.6183 
G01 X4.0078 Y11.7014 
G01 X3.9060 Y11.7601 
G01 X3.7925 Y11.7905 
G01 X2.5530 Y11.7905 
G01 X2.5530 Y11.9454 
G01 X2.5226 Y12.0589 
G01 X2.4639 Y12.1606 
G01 X2.3808 Y12.2437 
G01 X2.2790 Y12.3024 
G01 X2.1656 Y12.3328 
G01 X2.0481 Y12.3328 
G01 X1.9346 Y12.3024 
G01 X1.8328 Y12.2437 
G01 X1.7498 Y12.1606 
G01 X1.6910 Y12.0589 
G01 X1.6606 Y11.9454 
G01 X1.6606 Y10.7432 
G01 X1.6910 Y10.6298 
G01 X1.7498 Y10.5280 
G01 X1.8328 Y10.4449 
G01 X1.9346 Y10.3862 
G01 X2.0481 Y10.3558 
G01 X2.1656 Y10.3558 
G01 X2.2790 Y10.3862 
G01 X2.3808 Y10.4449 
G01 X2.4639 Y10.5280 
G01 X2.5226 Y10.6298 
G01 X2.5530 Y10.7432 
G01 X2.5530 Y10.8981 
G01 X3.7925 Y10.8981 
G00 Z2.0000 
G00 X1.7498 Y7.2491 
G01 Z-0.1000 F254.00 
G01 X1.6910 Y7.1474 F508.00 
G01 X1.6606 Y7.0339 
G01 X1.6606 Y5.8318 
G01 X1.6910 Y5.7183 
G01 X1.7498 Y5.6165 
G01 X1.8328 Y5.5335 
G01 X1.9346 Y5.4747 
G01 X2.0481 Y5.4443 
G01 X2.9069 Y5.4443 
G01 X2.9522 Y5.4416 
G01 X2.9655 Y5.4443 
G01 X2.9790 Y5.4443 
G01 X3.0229 Y5.4561 
G01 X3.0673 Y5.4652 
G01 X3.0794 Y5.4712 
G01 X3.0925 Y5.4747 
G01 X3.1318 Y5.4974 
G01 X3.1724 Y5.5177 
G01 X3.1825 Y5.5267 
G01 X3.1915 Y5.5318 
G01 X3.2904 Y5.4747 
G01 X3.4039 Y5.4443 
G01 X3.5214 Y5.4443 
G01 X3.6349 Y5.4747 
G01 X3.7366 Y5.5335 
G01 X4.0908 Y5.8877 
G01 X4.1496 Y5.9894 
G01 X4.1800 Y6.1029 
G01 X4.1800 Y6.7628 
G01 X4.1496 Y6.8762 
G01 X4.0908 Y6.9780 
G01 X4.0078 Y7.0611 
G01 X3.8197 Y7.2491 
G01 X3.7366 Y7.3322 
G01 X3.6671 Y7.3723 
G01 X4.0896 Y7.7947 
G01 X4.0926 Y7.7991 
G01 X4.1496 Y7.8978 
G01 X4.1795 Y8.0095 
G01 X4.1800 Y8.1287 
G01 X4.1509 Y8.2374 
G01 X4.1496 Y8.2422 
G01 X4.0908 Y8.3440 
G01 X4.0078 Y8.4270 
G01 X3.5485 Y8.8863 
G01 X3.4654 Y8.9694 
G01 X3.3637 Y9.0281 
G01 X3.2502 Y9.0585 
G01 X2.0481 Y9.0585 
G01 X1.9346 Y9.0281 
G01 X1.8328 Y8.9694 
G01 X1.7498 Y8.8863 
G01 X1.6910 Y8.7846 
G01 X1.6606 Y8.6711 
G01 X1.6606 Y8.5536 
G01 X1.6910 Y8.4401 
G01 X1.7498 Y8.3384 
G01 X1.8328 Y8.2553 
G01 X1.9346 Y8.1965 
G01 X2.0481 Y8.1661 
G01 X3.0067 Y8.1661 
G01 X3.1028 Y8.0700 
G01 X3.0066 Y7.9739 
G01 X2.0481 Y7.9739 
G01 X1.9346 Y7.9435 
G01 X1.8328 Y7.8847 
G01 X1.7498 Y7.8016 
G01 X1.6910 Y7.6999 
G01 X1.6606 Y7.5864 
G01 X1.6606 Y7.4689 
G01 X1.6910 Y7.3554 
G01 X1.7498 Y7.2537 
G01 X1.7498 Y7.2491 
G00 Z2.0000 
G00 X2.5502 Y4.1166 
G01 Z-0.1000 F254.00 
G01 X2.4367 Y4.1471 F508.00 
G01 X2.3192 Y4.1471 
G01 X2.2057 Y4.1166 
G01 X2.1040 Y4.0579 
G01 X1.8328 Y3.7867 
G01 X1.7498 Y3.7037 
G01 X1.6910 Y3.6019 
G01 X1.6606 Y3.4884 
G01 X1.6606 Y2.8286 
G01 X1.6910 Y2.7151 
G01 X1.7498 Y2.6134 
G01 X2.0209 Y2.3422 
G01 X2.1040 Y2.2591 
G01 X2.2057 Y2.2004 
G01 X2.3192 Y2.1700 
G01 X3.5214 Y2.1700 
G01 X3.6349 Y2.2004 
G01 X3.7366 Y2.2591 
G01 X4.0078 Y2.5303 
G01 X4.0908 Y2.6134 
G01 X4.1496 Y2.7151 
G01 X4.1800 Y2.8286 
G01 X4.1800 Y3.4884 
G01 X4.1496 Y3.6019 
G01 X4.0908 Y3.7037 
G01 X4.0078 Y3.7867 
G01 X3.8197 Y3.9748 
G01 X3.7366 Y4.0579 
G01 X3.6349 Y4.1166 
G01 X3.5505 Y4.1393 
G01 X3.5214 Y4.1471 
G01 X2.8616 Y4.1471 
G01 X2.7481 Y4.1166 
G01 X2.6491 Y4.0595 
G01 X2.5502 Y4.1166 
G00 Z2.0000 
G00 X3.7925 Y13.6301 
G01 Z-0.1000 F254.00 
G01 X3.9060 Y13.6605 F508.00 
G01 X4.0078 Y13.7192 
G01 X4.0908 Y13.8023 
G01 X4.1496 Y13.9041 
G01 X4.1800 Y14.0175 
G01 X4.1800 Y14.1350 
G01 X4.1496 Y14.2485 
G01 X4.0908 Y14.3503 
G01 X4.0078 Y14.4333 
G01 X3.9060 Y14.4921 
G01 X3.7925 Y14.5225 
G01 X3.7264 Y14.5225 
G01 X4.0908 Y14.8870 
G01 X4.1496 Y14.9887 
G01 X4.1800 Y15.1022 
G01 X4.1800 Y15.2197 
G01 X4.1496 Y15.3332 
G01 X4.0908 Y15.4349 
G01 X4.0078 Y15.5180 
G01 X3.9060 Y15.5767 
G01 X3.7925 Y15.6072 
G01 X3.6751 Y15.6072 
G01 X3.5616 Y15.5767 
G01 X3.4598 Y15.5180 
G01 X3.3271 Y15.3852 
G01 X3.1943 Y15.5180 
G01 X3.0925 Y15.5767 
G01 X2.9790 Y15.6072 
G01 X2.3192 Y15.6072 
G01 X2.2901 Y15.5993 
G01 X2.2057 Y15.5767 
G01 X2.1040 Y15.5180 
G01 X2.0209 Y15.4349 
G01 X1.8328 Y15.2468 
G01 X1.7498 Y15.1638 
G01 X1.6910 Y15.0620 
G01 X1.6606 Y14.9485 
G01 X1.6606 Y14.0175 
G01 X1.6910 Y13.9041 
G01 X1.7498 Y13.8023 
G01 X1.8328 Y13.7192 
G01 X1.9346 Y13.6605 
G01 X2.0481 Y13.6301 
G01 X3.2502 Y13.6301 
G01 X3.7925 Y13.6301 
G00 Z2.0000 
G00 X3.7925 Y16.9044 
G01 Z-0.1000 F254.00 
G01 X3.9060 Y16.9348 F508.00 
G01 X4.0078 Y16.9936 
G01 X4.0908 Y17.0766 
G01 X4.1496 Y17.1784 
G01 X4.1800 Y17.2919 
G01 X4.1800 Y17.4093 
G01 X4.1496 Y17.5228 
G01 X4.0908 Y17.6246 
G01 X4.0078 Y17.7077 
G01 X3.9060 Y17.7664 
G01 X3.7925 Y17.7968 
G01 X3.3665 Y17.7968 
G01 X3.3665 Y17.9891 
G01 X3.7925 Y17.9891 
G01 X3.9060 Y18.0195 
G01 X4.0078 Y18.0782 
G01 X4.0908 Y18.1613 
G01 X4.1496 Y18.2630 
G01 X4.1800 Y18.3765 
G01 X4.1800 Y18.4940 
G01 X4.1496 Y18.6075 
G01 X4.0908 Y18.7092 
G01 X4.0078 Y18.7923 
G01 X3.9060 Y18.8511 
G01 X3.7925 Y18.8815 
G01 X2.5904 Y18.8815 
G01 X2.4769 Y18.8511 
G01 X2.3752 Y18.7923 
G01 X2.2921 Y18.7092 
G01 X1.8328 Y18.2500 
G01 X1.7498 Y18.1669 
G01 X1.6923 Y18.0674 
G01 X1.6897 Y18.0603 
G01 X1.6606 Y17.9517 
G01 X1.6606 Y17.8342 
G01 X1.6910 Y17.7207 
G01 X1.7480 Y17.6220 
G01 X1.7498 Y17.6190 
G01 X2.3752 Y16.9936 
G01 X2.4769 Y16.9348 
G01 X2.5904 Y16.9044 
G01 X2.9790 Y16.9044 
G01 X3.7925 Y16.9044 
G00 Z2.0000 
G00 X2.0481 Y20.1787 
G01 Z-0.1000 F254.00 
G01 X3.7925 Y20.1787 F508.00 
G01 X3.9060 Y20.2091 
G01 X4.0078 Y20.2679 
G01 X4.0908 Y20.3509 
G01 X4.1496 Y20.4527 
G01 X4.1800 Y20.5662 
G01 X4.1800 Y21.4972 
G01 X4.1496 Y21.6106 
G01 X4.0908 Y21.7124 
G01 X4.0078 Y21.7955 
G01 X3.8197 Y21.9835 
G01 X3.7366 Y22.0666 
G01 X3.6349 Y22.1254 
G01 X3.5531 Y22.1473 
G01 X3.5214 Y22.1558 
G01 X3.1327 Y22.1558 
G01 X3.0192 Y22.1254 
G01 X2.9203 Y22.0682 
G01 X2.8214 Y22.1254 
G01 X2.7079 Y22.1558 
G01 X2.3192 Y22.1558 
G01 X2.2901 Y22.1480 
G01 X2.2057 Y22.1254 
G01 X2.1040 Y22.0666 
G01 X2.0209 Y21.9836 
G01 X1.8328 Y21.7955 
G01 X1.7498 Y21.7124 
G01 X1.6910 Y21.6106 
G01 X1.6606 Y21.4972 
G01 X1.6606 Y20.5662 
G01 X1.6910 Y20.4527 
G01 X1.7498 Y20.3509 
G01 X1.8328 Y20.2679 
G01 X1.9346 Y20.2091 
G01 X2.0481 Y20.1787 
G00 Z2.0000 
G82 X13.2500 Y11.2500 Z-0.2000 F254.00 R2.0000 P1.000000
G82 X7.6200 Y6.3500 
G82 X7.6200 Y8.8900 
G82 X7.6200 Y11.4300 
G82 X7.6200 Y13.9700 
G82 X7.6200 Y16.5100 
G82 X7.6200 Y19.0500 
G82 X19.0500 Y8.8900 
G82 X21.5900 Y8.8900 
G82 X24.1300 Y8.8900 
G82 X26.6700 Y8.8900 
G82 X26.6700 Y16.5100 
G82 X24.1300 Y16.5100 
G82 X21.5900 Y16.5100 
G82 X19.0500 Y16.5100 
G00 Z15.0000 
M05
M02
