(.../pcb-gcode-3.6.0.4/pcb-gcode.ulp)
(Copyright 2005 - 2012 by John Johnson)
(See readme.txt for licensing terms.)
(This file generated from the board:)
(.../eagle/eagle/cncWTest/modbus.brd)
(Current profile is .../pcb-gcode-3.6.0.4/profiles/emc.pp  )
(This file generated 6/27/2014 11:10:09 AM)
(Settings from pcb-machine.h)
(  Tool Size)
(0.2000 )
(Z Axis Settings)
(  High     Up        Down     Drill)
(12.7000 	2.5400 	-0.1500 	-0.8128 )
(spindle on time = 3.0000)
(milling depth = -0.1500)
(text depth = -0.1270)
(tool change at 12.7000 15.2400 25.4000 )
(feed rate xy = F508.00 )
(feed rate z  = F254.00 )
(Settings from pcb-defaults.h)
(isolate min = 0.0154)
(isolate max = 0.5080)
(isolate step = 0.1270)
(Generated top outlines, top drill, bottom outlines, bottom drill, )
(Unit of measure: mm)
(Metric Mode)
G21
(Absolute Coordinates)
G90
G00 X0.0000 Y0.0000 
M03
G04 P3.000000
G00 Z2.5400 
G00 X13.4170 Y5.4146 
G01 Z-0.1500 F254.00 
G01 X14.1090 Y5.4146 F508.00 
G01 X14.1384 Y5.4116 
G01 X14.1695 Y5.4146 
G01 X14.8630 Y5.4146 
G01 X14.9054 Y5.4322 
G01 X14.9378 Y5.4646 
G01 X14.9554 Y5.5070 
G01 X14.9554 Y5.7346 
G01 X16.4084 Y5.7346 
G01 X16.4486 Y5.7266 
G01 X16.5714 Y5.7266 
G01 X16.6918 Y5.7506 
G01 X16.8053 Y5.7976 
G01 X16.9074 Y5.8658 
G01 X16.9942 Y5.9526 
G01 X17.0624 Y6.0547 
G01 X17.1094 Y6.1682 
G01 X17.1334 Y6.2886 
G01 X17.1334 Y6.4114 
G01 X17.1094 Y6.5318 
G01 X17.0624 Y6.6453 
G01 X16.9942 Y6.7474 
G01 X16.9074 Y6.8342 
G01 X16.8053 Y6.9024 
G01 X16.6918 Y6.9494 
G01 X16.5714 Y6.9734 
G01 X16.4486 Y6.9734 
G01 X16.4084 Y6.9654 
G01 X14.5854 Y6.9654 
G01 X14.5854 Y27.2246 
G01 X14.7630 Y27.2246 
G01 X14.8054 Y27.2422 
G01 X14.8378 Y27.2746 
G01 X14.8554 Y27.3170 
G01 X14.8554 Y27.6037 
G01 X14.8854 Y27.6485 
G01 X14.9317 Y27.7605 
G01 X14.9554 Y27.8794 
G01 X14.9554 Y28.0006 
G01 X14.9317 Y28.1195 
G01 X14.8854 Y28.2315 
G01 X14.8554 Y28.2763 
G01 X14.8554 Y28.5630 
G01 X14.8378 Y28.6054 
G01 X14.8054 Y28.6378 
G01 X14.7630 Y28.6554 
G01 X13.9170 Y28.6554 
G01 X13.8746 Y28.6378 
G01 X13.8422 Y28.6054 
G01 X13.8246 Y28.5630 
G01 X13.8246 Y28.5385 
G01 X13.7905 Y28.5317 
G01 X13.6785 Y28.4854 
G01 X13.5777 Y28.4180 
G01 X13.4920 Y28.3323 
G01 X13.4246 Y28.2315 
G01 X13.3783 Y28.1195 
G01 X13.3546 Y28.0006 
G01 X13.3546 Y6.6078 
G01 X13.3422 Y6.5954 
G01 X13.3246 Y6.5530 
G01 X13.3246 Y5.5070 
G01 X13.3422 Y5.4646 
G01 X13.3746 Y5.4322 
G01 X13.4170 Y5.4146 
G00 Z2.5400 
G00 X30.1255 Y12.3208 
G01 Z-0.1500 F254.00 
G01 X30.1255 Y13.0792 F508.00 
G01 X29.5892 Y13.6155 
G01 X28.8308 Y13.6155 
G01 X28.5307 Y13.3154 
G01 X27.3493 Y13.3154 
G01 X27.0492 Y13.6155 
G01 X26.2908 Y13.6155 
G01 X25.7545 Y13.0792 
G01 X25.7545 Y12.3208 
G01 X26.0546 Y12.0207 
G01 X26.0546 Y3.1554 
G01 X19.3049 Y3.1554 
G01 X17.1554 Y5.3049 
G01 X17.1554 Y5.6030 
G01 X17.1378 Y5.6454 
G01 X17.1054 Y5.6778 
G01 X17.0630 Y5.6954 
G01 X15.6170 Y5.6954 
G01 X15.5746 Y5.6778 
G01 X15.5422 Y5.6454 
G01 X15.5246 Y5.6030 
G01 X15.5246 Y4.5570 
G01 X15.5422 Y4.5146 
G01 X15.5746 Y4.4822 
G01 X15.6170 Y4.4646 
G01 X16.2551 Y4.4646 
G01 X18.5720 Y2.1477 
G01 X18.6577 Y2.0620 
G01 X18.7585 Y1.9946 
G01 X18.8705 Y1.9483 
G01 X18.9894 Y1.9246 
G01 X26.7306 Y1.9246 
G01 X26.8495 Y1.9483 
G01 X26.9615 Y1.9946 
G01 X27.0623 Y2.0620 
G01 X27.1480 Y2.1477 
G01 X27.2154 Y2.2485 
G01 X27.2617 Y2.3605 
G01 X27.2854 Y2.4794 
G01 X27.2854 Y4.3646 
G01 X27.4630 Y4.3646 
G01 X27.5054 Y4.3822 
G01 X27.5378 Y4.4146 
G01 X27.5554 Y4.4570 
G01 X27.5554 Y4.7437 
G01 X27.5854 Y4.7885 
G01 X27.6317 Y4.9005 
G01 X27.6554 Y5.0194 
G01 X27.6554 Y5.1406 
G01 X27.6317 Y5.2595 
G01 X27.5854 Y5.3715 
G01 X27.5554 Y5.4163 
G01 X27.5554 Y5.7030 
G01 X27.5378 Y5.7454 
G01 X27.5054 Y5.7778 
G01 X27.4630 Y5.7954 
G01 X27.2854 Y5.7954 
G01 X27.2854 Y12.0207 
G01 X27.3493 Y12.0846 
G01 X28.5307 Y12.0846 
G01 X28.8308 Y11.7845 
G01 X29.5892 Y11.7845 
G01 X30.1255 Y12.3208 
G00 Z2.5400 
G00 X32.6655 Y12.3208 
G01 Z-0.1500 F254.00 
G01 X32.6655 Y13.0792 F508.00 
G01 X32.1292 Y13.6155 
G01 X31.3708 Y13.6155 
G01 X30.8345 Y13.0792 
G01 X30.8345 Y12.3208 
G01 X31.1346 Y12.0207 
G01 X31.1346 Y8.8294 
G01 X31.1583 Y8.7105 
G01 X31.2046 Y8.5985 
G01 X31.2720 Y8.4977 
G01 X31.3577 Y8.4120 
G01 X34.5836 Y5.1861 
G01 X34.5746 Y5.1406 
G01 X34.5746 Y5.0194 
G01 X34.5983 Y4.9005 
G01 X34.6446 Y4.7885 
G01 X34.6746 Y4.7437 
G01 X34.6746 Y4.4570 
G01 X34.6922 Y4.4146 
G01 X34.7246 Y4.3822 
G01 X34.7670 Y4.3646 
G01 X35.6130 Y4.3646 
G01 X35.6554 Y4.3822 
G01 X35.6878 Y4.4146 
G01 X35.7054 Y4.4570 
G01 X35.7054 Y4.4815 
G01 X35.7395 Y4.4882 
G01 X35.8515 Y4.5346 
G01 X35.9523 Y4.6020 
G01 X36.0380 Y4.6877 
G01 X36.1054 Y4.7885 
G01 X36.1517 Y4.9005 
G01 X36.1754 Y5.0194 
G01 X36.1754 Y5.1406 
G01 X36.1517 Y5.2595 
G01 X36.1054 Y5.3715 
G01 X36.0380 Y5.4723 
G01 X35.9523 Y5.5580 
G01 X32.3654 Y9.1449 
G01 X32.3654 Y12.0207 
G01 X32.6655 Y12.3208 
G00 Z2.5400 
G00 X30.1255 Y19.9408 
G01 Z-0.1500 F254.00 
G01 X30.1255 Y20.6992 F508.00 
G01 X29.8254 Y20.9993 
G01 X29.8254 Y27.3246 
G01 X32.8746 Y27.3246 
G01 X32.8746 Y27.3170 
G01 X32.8922 Y27.2746 
G01 X32.9246 Y27.2422 
G01 X32.9670 Y27.2246 
G01 X33.8130 Y27.2246 
G01 X33.8554 Y27.2422 
G01 X33.8878 Y27.2746 
G01 X33.9054 Y27.3170 
G01 X33.9054 Y27.6037 
G01 X33.9354 Y27.6485 
G01 X33.9817 Y27.7605 
G01 X34.0054 Y27.8794 
G01 X34.0054 Y28.0006 
G01 X33.9817 Y28.1195 
G01 X33.9354 Y28.2315 
G01 X33.9054 Y28.2763 
G01 X33.9054 Y28.5630 
G01 X33.8878 Y28.6054 
G01 X33.8554 Y28.6378 
G01 X33.8130 Y28.6554 
G01 X32.9670 Y28.6554 
G01 X32.9246 Y28.6378 
G01 X32.8922 Y28.6054 
G01 X32.8746 Y28.5630 
G01 X32.8746 Y28.5554 
G01 X29.3554 Y28.5554 
G01 X29.3554 Y28.5630 
G01 X29.3378 Y28.6054 
G01 X29.3054 Y28.6378 
G01 X29.2630 Y28.6554 
G01 X28.4170 Y28.6554 
G01 X28.3746 Y28.6378 
G01 X28.3422 Y28.6054 
G01 X28.3246 Y28.5630 
G01 X28.3246 Y28.2763 
G01 X28.2946 Y28.2315 
G01 X28.2483 Y28.1195 
G01 X28.2246 Y28.0006 
G01 X28.2246 Y27.8794 
G01 X28.2483 Y27.7605 
G01 X28.2946 Y27.6485 
G01 X28.3246 Y27.6037 
G01 X28.3246 Y27.3170 
G01 X28.3422 Y27.2746 
G01 X28.3746 Y27.2422 
G01 X28.4170 Y27.2246 
G01 X28.5946 Y27.2246 
G01 X28.5946 Y20.9993 
G01 X28.2945 Y20.6992 
G01 X28.2945 Y19.9408 
G01 X28.8308 Y19.4045 
G01 X29.5892 Y19.4045 
G01 X30.1255 Y19.9408 
G00 Z2.5400 
G00 X25.0455 Y19.9408 
G01 Z-0.1500 F254.00 
G01 X25.0455 Y20.6992 F508.00 
G01 X24.5092 Y21.2355 
G01 X23.7508 Y21.2355 
G01 X23.2145 Y20.6992 
G01 X23.2145 Y19.9408 
G01 X23.7508 Y19.4045 
G01 X24.5092 Y19.4045 
G01 X25.0455 Y19.9408 
G00 Z2.5400 
G00 X21.9746 Y5.7030 
G01 Z-0.1500 F254.00 
G01 X21.9746 Y5.4163 F508.00 
G01 X21.9446 Y5.3715 
G01 X21.8983 Y5.2595 
G01 X21.8746 Y5.1406 
G01 X21.8746 Y5.0194 
G01 X21.8983 Y4.9005 
G01 X21.9446 Y4.7885 
G01 X21.9746 Y4.7437 
G01 X21.9746 Y4.4570 
G01 X21.9922 Y4.4146 
G01 X22.0246 Y4.3822 
G01 X22.0670 Y4.3646 
G01 X22.9130 Y4.3646 
G01 X22.9554 Y4.3822 
G01 X22.9878 Y4.4146 
G01 X23.0054 Y4.4570 
G01 X23.0054 Y4.4815 
G01 X23.0395 Y4.4882 
G01 X23.1515 Y4.5346 
G01 X23.2523 Y4.6020 
G01 X23.3380 Y4.6877 
G01 X24.5223 Y5.8720 
G01 X24.6080 Y5.9577 
G01 X24.6754 Y6.0585 
G01 X24.7217 Y6.1705 
G01 X24.7454 Y6.2894 
G01 X24.7454 Y12.0207 
G01 X25.0455 Y12.3208 
G01 X25.0455 Y13.0792 
G01 X24.5092 Y13.6155 
G01 X23.7508 Y13.6155 
G01 X23.2145 Y13.0792 
G01 X23.2145 Y12.3208 
G01 X23.5146 Y12.0207 
G01 X23.5146 Y6.6049 
G01 X22.7051 Y5.7954 
G01 X22.0670 Y5.7954 
G01 X22.0246 Y5.7778 
G01 X21.9922 Y5.7454 
G01 X21.9746 Y5.7030 
G00 Z2.5400 
G00 X35.7054 Y28.5630 
G01 Z-0.1500 F254.00 
G01 X35.6878 Y28.6054 F508.00 
G01 X35.6554 Y28.6378 
G01 X35.6130 Y28.6554 
G01 X34.7670 Y28.6554 
G01 X34.7246 Y28.6378 
G01 X34.6922 Y28.6054 
G01 X34.6746 Y28.5630 
G01 X34.6746 Y28.2763 
G01 X34.6446 Y28.2315 
G01 X34.5983 Y28.1195 
G01 X34.5746 Y28.0006 
G01 X34.5746 Y27.8794 
G01 X34.5983 Y27.7605 
G01 X34.6446 Y27.6485 
G01 X34.6746 Y27.6037 
G01 X34.6746 Y27.3170 
G01 X34.6922 Y27.2746 
G01 X34.7246 Y27.2422 
G01 X34.7670 Y27.2246 
G01 X34.9446 Y27.2246 
G01 X34.9446 Y17.1254 
G01 X25.3394 Y17.1254 
G01 X25.2205 Y17.1017 
G01 X25.1085 Y17.0554 
G01 X25.0077 Y16.9880 
G01 X24.9220 Y16.9023 
G01 X21.3351 Y13.3154 
G01 X19.1516 Y13.3154 
G01 X19.1114 Y13.3234 
G01 X18.9886 Y13.3234 
G01 X18.8682 Y13.2994 
G01 X18.7547 Y13.2524 
G01 X18.6526 Y13.1842 
G01 X18.5658 Y13.0974 
G01 X18.4976 Y12.9953 
G01 X18.4506 Y12.8818 
G01 X18.4266 Y12.7614 
G01 X18.4266 Y12.6386 
G01 X18.4506 Y12.5182 
G01 X18.4976 Y12.4047 
G01 X18.5658 Y12.3026 
G01 X18.6526 Y12.2158 
G01 X18.7547 Y12.1476 
G01 X18.8682 Y12.1006 
G01 X18.9886 Y12.0766 
G01 X19.1114 Y12.0766 
G01 X19.1516 Y12.0846 
G01 X20.9746 Y12.0846 
G01 X20.9746 Y6.6049 
G01 X19.9277 Y5.5580 
G01 X19.8420 Y5.4723 
G01 X19.7746 Y5.3715 
G01 X19.7282 Y5.2595 
G01 X19.7046 Y5.1406 
G01 X19.7046 Y5.0194 
G01 X19.7282 Y4.9005 
G01 X19.7746 Y4.7885 
G01 X19.8420 Y4.6877 
G01 X19.9277 Y4.6020 
G01 X20.0285 Y4.5346 
G01 X20.1405 Y4.4882 
G01 X20.1746 Y4.4815 
G01 X20.1746 Y4.4570 
G01 X20.1922 Y4.4146 
G01 X20.2246 Y4.3822 
G01 X20.2670 Y4.3646 
G01 X21.1130 Y4.3646 
G01 X21.1554 Y4.3822 
G01 X21.1878 Y4.4146 
G01 X21.2054 Y4.4570 
G01 X21.2054 Y4.7437 
G01 X21.2354 Y4.7885 
G01 X21.2817 Y4.9005 
G01 X21.3054 Y5.0194 
G01 X21.3054 Y5.1406 
G01 X21.2964 Y5.1861 
G01 X21.9823 Y5.8720 
G01 X22.0680 Y5.9577 
G01 X22.1354 Y6.0585 
G01 X22.1817 Y6.1705 
G01 X22.2054 Y6.2894 
G01 X22.2054 Y12.4451 
G01 X25.6549 Y15.8946 
G01 X35.3051 Y15.8946 
G01 X36.2146 Y14.9851 
G01 X36.2146 Y3.1554 
G01 X32.0049 Y3.1554 
G01 X29.6880 Y5.4723 
G01 X29.6023 Y5.5580 
G01 X29.5015 Y5.6254 
G01 X29.3895 Y5.6717 
G01 X29.3554 Y5.6785 
G01 X29.3554 Y5.7030 
G01 X29.3378 Y5.7454 
G01 X29.3054 Y5.7778 
G01 X29.2630 Y5.7954 
G01 X28.4170 Y5.7954 
G01 X28.3746 Y5.7778 
G01 X28.3422 Y5.7454 
G01 X28.3246 Y5.7030 
G01 X28.3246 Y5.4163 
G01 X28.2946 Y5.3715 
G01 X28.2483 Y5.2595 
G01 X28.2246 Y5.1406 
G01 X28.2246 Y5.0194 
G01 X28.2483 Y4.9005 
G01 X28.2946 Y4.7885 
G01 X28.3246 Y4.7437 
G01 X28.3246 Y4.4570 
G01 X28.3422 Y4.4146 
G01 X28.3746 Y4.3822 
G01 X28.4170 Y4.3646 
G01 X29.0551 Y4.3646 
G01 X31.2720 Y2.1477 
G01 X31.3577 Y2.0620 
G01 X31.4585 Y1.9946 
G01 X31.5705 Y1.9483 
G01 X31.6894 Y1.9246 
G01 X36.8906 Y1.9246 
G01 X37.0095 Y1.9483 
G01 X37.1215 Y1.9946 
G01 X37.2223 Y2.0620 
G01 X37.3080 Y2.1477 
G01 X37.3754 Y2.2485 
G01 X37.4217 Y2.3605 
G01 X37.4454 Y2.4794 
G01 X37.4454 Y15.3006 
G01 X37.4217 Y15.4195 
G01 X37.3754 Y15.5315 
G01 X37.3080 Y15.6323 
G01 X36.1754 Y16.7649 
G01 X36.1754 Y28.0006 
G01 X36.1517 Y28.1195 
G01 X36.1054 Y28.2315 
G01 X36.0380 Y28.3323 
G01 X35.9523 Y28.4180 
G01 X35.8515 Y28.4854 
G01 X35.7395 Y28.5317 
G01 X35.7054 Y28.5385 
G01 X35.7054 Y28.5630 
G00 Z2.5400 
G00 X21.2054 Y28.5630 
G01 Z-0.1500 F254.00 
G01 X21.1878 Y28.6054 F508.00 
G01 X21.1554 Y28.6378 
G01 X21.1130 Y28.6554 
G01 X20.2670 Y28.6554 
G01 X20.2246 Y28.6378 
G01 X20.1922 Y28.6054 
G01 X20.1746 Y28.5630 
G01 X20.1746 Y28.5554 
G01 X17.1254 Y28.5554 
G01 X17.1254 Y30.5406 
G01 X17.1017 Y30.6595 
G01 X17.0554 Y30.7715 
G01 X16.9880 Y30.8723 
G01 X16.9023 Y30.9580 
G01 X16.8015 Y31.0254 
G01 X16.6895 Y31.0717 
G01 X16.5706 Y31.0954 
G01 X13.9094 Y31.0954 
G01 X13.7905 Y31.0717 
G01 X13.6785 Y31.0254 
G01 X13.5777 Y30.9580 
G01 X13.4920 Y30.8723 
G01 X12.2220 Y29.6023 
G01 X12.1546 Y29.5015 
G01 X12.1082 Y29.3895 
G01 X12.0846 Y29.2706 
G01 X12.0846 Y12.9549 
G01 X9.0002 Y9.8705 
G01 X9.0264 Y9.9337 
G01 X9.0562 Y10.0836 
G01 X9.0562 Y10.2364 
G01 X9.0264 Y10.3863 
G01 X8.9679 Y10.5275 
G01 X8.8830 Y10.6545 
G01 X8.7749 Y10.7626 
G01 X8.6479 Y10.8475 
G01 X8.5067 Y10.9060 
G01 X8.3568 Y10.9358 
G01 X6.8832 Y10.9358 
G01 X6.7333 Y10.9060 
G01 X6.5921 Y10.8475 
G01 X6.4651 Y10.7626 
G01 X6.3570 Y10.6545 
G01 X6.2721 Y10.5275 
G01 X6.2136 Y10.3863 
G01 X6.1838 Y10.2364 
G01 X6.1838 Y10.0836 
G01 X6.2136 Y9.9337 
G01 X6.2721 Y9.7925 
G01 X6.3570 Y9.6655 
G01 X6.4651 Y9.5574 
G01 X6.5921 Y9.4725 
G01 X6.7333 Y9.4140 
G01 X6.8832 Y9.3842 
G01 X7.5255 Y9.3842 
G01 X8.4120 Y8.4977 
G01 X8.4977 Y8.4120 
G01 X13.3401 Y3.5696 
G01 X13.3422 Y3.5646 
G01 X13.3746 Y3.5322 
G01 X13.3796 Y3.5301 
G01 X13.5140 Y3.3957 
G01 X13.5339 Y3.3716 
G01 X13.5568 Y3.3529 
G01 X13.5777 Y3.3320 
G01 X13.6036 Y3.3147 
G01 X13.6278 Y3.2950 
G01 X13.6539 Y3.2811 
G01 X13.6785 Y3.2646 
G01 X13.7073 Y3.2527 
G01 X13.7348 Y3.2381 
G01 X13.7632 Y3.2296 
G01 X13.7905 Y3.2183 
G01 X13.8211 Y3.2122 
G01 X13.8509 Y3.2032 
G01 X13.8804 Y3.2004 
G01 X13.9094 Y3.1946 
G01 X13.9406 Y3.1946 
G01 X13.9716 Y3.1916 
G01 X14.0010 Y3.1946 
G01 X14.0306 Y3.1946 
G01 X14.0612 Y3.2007 
G01 X14.0922 Y3.2038 
G01 X14.1205 Y3.2125 
G01 X14.1495 Y3.2183 
G01 X14.1783 Y3.2302 
G01 X14.2081 Y3.2393 
G01 X14.2342 Y3.2533 
G01 X14.2615 Y3.2646 
G01 X14.2874 Y3.2820 
G01 X14.3149 Y3.2967 
G01 X14.3377 Y3.3155 
G01 X14.3623 Y3.3320 
G01 X14.3843 Y3.3540 
G01 X14.4084 Y3.3739 
G01 X14.4271 Y3.3968 
G01 X14.4480 Y3.4177 
G01 X14.4653 Y3.4436 
G01 X14.4850 Y3.4678 
G01 X14.4989 Y3.4939 
G01 X14.5128 Y3.5146 
G01 X14.8630 Y3.5146 
G01 X14.9054 Y3.5322 
G01 X14.9378 Y3.5646 
G01 X14.9554 Y3.6070 
G01 X14.9554 Y4.6530 
G01 X14.9378 Y4.6954 
G01 X14.9054 Y4.7278 
G01 X14.8630 Y4.7454 
G01 X14.1694 Y4.7454 
G01 X14.1384 Y4.7484 
G01 X14.1090 Y4.7454 
G01 X13.9049 Y4.7454 
G01 X9.7603 Y8.8900 
G01 X13.0923 Y12.2220 
G01 X13.1780 Y12.3077 
G01 X13.2454 Y12.4085 
G01 X13.2917 Y12.5205 
G01 X13.3154 Y12.6394 
G01 X13.3154 Y28.9551 
G01 X14.2249 Y29.8646 
G01 X15.8946 Y29.8646 
G01 X15.8946 Y28.6554 
G01 X15.7170 Y28.6554 
G01 X15.6746 Y28.6378 
G01 X15.6422 Y28.6054 
G01 X15.6246 Y28.5630 
G01 X15.6246 Y28.2763 
G01 X15.5946 Y28.2315 
G01 X15.5483 Y28.1195 
G01 X15.5246 Y28.0006 
G01 X15.5246 Y27.8794 
G01 X15.5483 Y27.7605 
G01 X15.5946 Y27.6485 
G01 X15.6246 Y27.6037 
G01 X15.6246 Y27.3170 
G01 X15.6422 Y27.2746 
G01 X15.6746 Y27.2422 
G01 X15.7170 Y27.2246 
G01 X16.5630 Y27.2246 
G01 X16.6054 Y27.2422 
G01 X16.6378 Y27.2746 
G01 X16.6554 Y27.3170 
G01 X16.6554 Y27.3246 
G01 X20.0651 Y27.3246 
G01 X20.9746 Y26.4151 
G01 X20.9746 Y20.2594 
G01 X20.9983 Y20.1405 
G01 X21.0446 Y20.0285 
G01 X21.1120 Y19.9277 
G01 X23.6520 Y17.3877 
G01 X23.7377 Y17.3020 
G01 X23.8385 Y17.2346 
G01 X23.9505 Y17.1883 
G01 X24.0694 Y17.1646 
G01 X31.8106 Y17.1646 
G01 X31.9295 Y17.1883 
G01 X32.0415 Y17.2346 
G01 X32.1423 Y17.3020 
G01 X32.2280 Y17.3877 
G01 X32.2954 Y17.4885 
G01 X32.3417 Y17.6005 
G01 X32.3654 Y17.7194 
G01 X32.3654 Y19.6407 
G01 X32.6655 Y19.9408 
G01 X32.6655 Y20.6992 
G01 X32.1292 Y21.2355 
G01 X31.3708 Y21.2355 
G01 X30.8345 Y20.6992 
G01 X30.8345 Y19.9408 
G01 X31.1346 Y19.6407 
G01 X31.1346 Y18.3954 
G01 X24.3849 Y18.3954 
G01 X22.2054 Y20.5749 
G01 X22.2054 Y26.7306 
G01 X22.1817 Y26.8495 
G01 X22.1354 Y26.9615 
G01 X22.0680 Y27.0623 
G01 X21.9823 Y27.1480 
G01 X21.2964 Y27.8339 
G01 X21.3054 Y27.8794 
G01 X21.3054 Y28.0006 
G01 X21.2817 Y28.1195 
G01 X21.2354 Y28.2315 
G01 X21.2054 Y28.2763 
G01 X21.2054 Y28.5630 
G00 Z2.5400 
G00 X33.9054 Y4.4570 
G01 Z-0.1500 F254.00 
G01 X33.9054 Y4.7437 F508.00 
G01 X33.9354 Y4.7885 
G01 X33.9817 Y4.9005 
G01 X34.0054 Y5.0194 
G01 X34.0054 Y5.1406 
G01 X33.9817 Y5.2595 
G01 X33.9354 Y5.3715 
G01 X33.9054 Y5.4163 
G01 X33.9054 Y5.7030 
G01 X33.8878 Y5.7454 
G01 X33.8554 Y5.7778 
G01 X33.8130 Y5.7954 
G01 X32.9670 Y5.7954 
G01 X32.9246 Y5.7778 
G01 X32.8922 Y5.7454 
G01 X32.8746 Y5.7030 
G01 X32.8746 Y5.6954 
G01 X31.8516 Y5.6954 
G01 X31.8114 Y5.7034 
G01 X31.6886 Y5.7034 
G01 X31.5682 Y5.6794 
G01 X31.4547 Y5.6324 
G01 X31.3526 Y5.5642 
G01 X31.2658 Y5.4774 
G01 X31.1976 Y5.3753 
G01 X31.1506 Y5.2618 
G01 X31.1266 Y5.1414 
G01 X31.1266 Y5.0186 
G01 X31.1506 Y4.8982 
G01 X31.1976 Y4.7847 
G01 X31.2658 Y4.6826 
G01 X31.3526 Y4.5958 
G01 X31.4547 Y4.5276 
G01 X31.5682 Y4.4806 
G01 X31.6886 Y4.4566 
G01 X31.8114 Y4.4566 
G01 X31.8516 Y4.4646 
G01 X32.8746 Y4.4646 
G01 X32.8746 Y4.4570 
G01 X32.8922 Y4.4146 
G01 X32.9246 Y4.3822 
G01 X32.9670 Y4.3646 
G01 X33.8130 Y4.3646 
G01 X33.8554 Y4.3822 
G01 X33.8878 Y4.4146 
G01 X33.9054 Y4.4570 
G00 Z2.5400 
G00 X6.8832 Y11.9242 
G01 Z-0.1500 F254.00 
G01 X8.3568 Y11.9242 F508.00 
G01 X8.5067 Y11.9540 
G01 X8.6479 Y12.0125 
G01 X8.7749 Y12.0974 
G01 X8.8830 Y12.2055 
G01 X8.9679 Y12.3325 
G01 X9.0264 Y12.4737 
G01 X9.0562 Y12.6236 
G01 X9.0562 Y12.7764 
G01 X9.0264 Y12.9263 
G01 X8.9679 Y13.0675 
G01 X8.8830 Y13.1945 
G01 X8.7749 Y13.3026 
G01 X8.6479 Y13.3875 
G01 X8.5067 Y13.4460 
G01 X8.3568 Y13.4758 
G01 X6.8832 Y13.4758 
G01 X6.7333 Y13.4460 
G01 X6.5921 Y13.3875 
G01 X6.4651 Y13.3026 
G01 X6.3570 Y13.1945 
G01 X6.2721 Y13.0675 
G01 X6.2136 Y12.9263 
G01 X6.1838 Y12.7764 
G01 X6.1838 Y12.6236 
G01 X6.2136 Y12.4737 
G01 X6.2721 Y12.3325 
G01 X6.3570 Y12.2055 
G01 X6.4651 Y12.0974 
G01 X6.5921 Y12.0125 
G01 X6.7333 Y11.9540 
G01 X6.8832 Y11.9242 
G00 Z2.5400 
G00 X6.8832 Y14.4642 
G01 Z-0.1500 F254.00 
G01 X8.3568 Y14.4642 F508.00 
G01 X8.5067 Y14.4940 
G01 X8.6479 Y14.5525 
G01 X8.7749 Y14.6374 
G01 X8.8830 Y14.7455 
G01 X8.9679 Y14.8725 
G01 X9.0264 Y15.0137 
G01 X9.0562 Y15.1636 
G01 X9.0562 Y15.3164 
G01 X9.0264 Y15.4663 
G01 X8.9679 Y15.6075 
G01 X8.8830 Y15.7345 
G01 X8.7749 Y15.8426 
G01 X8.6479 Y15.9275 
G01 X8.5067 Y15.9860 
G01 X8.3568 Y16.0158 
G01 X6.8832 Y16.0158 
G01 X6.7333 Y15.9860 
G01 X6.5921 Y15.9275 
G01 X6.4651 Y15.8426 
G01 X6.3570 Y15.7345 
G01 X6.2721 Y15.6075 
G01 X6.2136 Y15.4663 
G01 X6.1838 Y15.3164 
G01 X6.1838 Y15.1636 
G01 X6.2136 Y15.0137 
G01 X6.2721 Y14.8725 
G01 X6.3570 Y14.7455 
G01 X6.4651 Y14.6374 
G01 X6.5921 Y14.5525 
G01 X6.7333 Y14.4940 
G01 X6.8832 Y14.4642 
G00 Z2.5400 
G00 X6.8832 Y17.0042 
G01 Z-0.1500 F254.00 
G01 X8.3568 Y17.0042 F508.00 
G01 X8.5067 Y17.0340 
G01 X8.6479 Y17.0925 
G01 X8.7749 Y17.1774 
G01 X8.8830 Y17.2855 
G01 X8.9679 Y17.4125 
G01 X9.0264 Y17.5537 
G01 X9.0562 Y17.7036 
G01 X9.0562 Y17.8564 
G01 X9.0264 Y18.0063 
G01 X8.9679 Y18.1475 
G01 X8.8830 Y18.2745 
G01 X8.7749 Y18.3826 
G01 X8.6479 Y18.4675 
G01 X8.5067 Y18.5260 
G01 X8.3568 Y18.5558 
G01 X6.8832 Y18.5558 
G01 X6.7333 Y18.5260 
G01 X6.5921 Y18.4675 
G01 X6.4651 Y18.3826 
G01 X6.3570 Y18.2745 
G01 X6.2721 Y18.1475 
G01 X6.2136 Y18.0063 
G01 X6.1838 Y17.8564 
G01 X6.1838 Y17.7036 
G01 X6.2136 Y17.5537 
G01 X6.2721 Y17.4125 
G01 X6.3570 Y17.2855 
G01 X6.4651 Y17.1774 
G01 X6.5921 Y17.0925 
G01 X6.7333 Y17.0340 
G01 X6.8832 Y17.0042 
G00 Z2.5400 
G00 X6.8832 Y19.5442 
G01 Z-0.1500 F254.00 
G01 X8.3568 Y19.5442 F508.00 
G01 X8.5067 Y19.5740 
G01 X8.6479 Y19.6325 
G01 X8.7749 Y19.7174 
G01 X8.8830 Y19.8255 
G01 X8.9679 Y19.9525 
G01 X9.0264 Y20.0937 
G01 X9.0562 Y20.2436 
G01 X9.0562 Y20.3964 
G01 X9.0264 Y20.5463 
G01 X8.9679 Y20.6875 
G01 X8.8830 Y20.8145 
G01 X8.7749 Y20.9226 
G01 X8.6479 Y21.0075 
G01 X8.5067 Y21.0660 
G01 X8.3568 Y21.0958 
G01 X6.8832 Y21.0958 
G01 X6.7333 Y21.0660 
G01 X6.5921 Y21.0075 
G01 X6.4651 Y20.9226 
G01 X6.3570 Y20.8145 
G01 X6.2721 Y20.6875 
G01 X6.2136 Y20.5463 
G01 X6.1838 Y20.3964 
G01 X6.1838 Y20.2436 
G01 X6.2136 Y20.0937 
G01 X6.2721 Y19.9525 
G01 X6.3570 Y19.8255 
G01 X6.4651 Y19.7174 
G01 X6.5921 Y19.6325 
G01 X6.7333 Y19.5740 
G01 X6.8832 Y19.5442 
G00 Z2.5400 
G00 X6.8832 Y22.0842 
G01 Z-0.1500 F254.00 
G01 X8.3568 Y22.0842 F508.00 
G01 X8.5067 Y22.1140 
G01 X8.6479 Y22.1725 
G01 X8.7749 Y22.2574 
G01 X8.8830 Y22.3655 
G01 X8.9679 Y22.4925 
G01 X9.0264 Y22.6337 
G01 X9.0562 Y22.7836 
G01 X9.0562 Y22.9364 
G01 X9.0264 Y23.0863 
G01 X8.9679 Y23.2275 
G01 X8.9238 Y23.2935 
G01 X11.8223 Y26.1920 
G01 X11.9080 Y26.2777 
G01 X11.9754 Y26.3785 
G01 X12.0217 Y26.4905 
G01 X12.0454 Y26.6094 
G01 X12.0454 Y30.2251 
G01 X12.9549 Y31.1346 
G01 X22.2446 Y31.1346 
G01 X22.2446 Y28.6554 
G01 X22.0670 Y28.6554 
G01 X22.0246 Y28.6378 
G01 X21.9922 Y28.6054 
G01 X21.9746 Y28.5630 
G01 X21.9746 Y28.2763 
G01 X21.9446 Y28.2315 
G01 X21.8983 Y28.1195 
G01 X21.8746 Y28.0006 
G01 X21.8746 Y27.8794 
G01 X21.8983 Y27.7605 
G01 X21.9446 Y27.6485 
G01 X21.9746 Y27.6037 
G01 X21.9746 Y27.3170 
G01 X21.9922 Y27.2746 
G01 X22.0246 Y27.2422 
G01 X22.0670 Y27.2246 
G01 X22.9130 Y27.2246 
G01 X22.9554 Y27.2422 
G01 X22.9878 Y27.2746 
G01 X23.0054 Y27.3170 
G01 X23.0054 Y27.3246 
G01 X26.0546 Y27.3246 
G01 X26.0546 Y20.9993 
G01 X25.7545 Y20.6992 
G01 X25.7545 Y19.9408 
G01 X26.2908 Y19.4045 
G01 X27.0492 Y19.4045 
G01 X27.5855 Y19.9408 
G01 X27.5855 Y20.6992 
G01 X27.2854 Y20.9993 
G01 X27.2854 Y27.2246 
G01 X27.4630 Y27.2246 
G01 X27.5054 Y27.2422 
G01 X27.5378 Y27.2746 
G01 X27.5554 Y27.3170 
G01 X27.5554 Y27.6037 
G01 X27.5854 Y27.6485 
G01 X27.6317 Y27.7605 
G01 X27.6554 Y27.8794 
G01 X27.6554 Y28.0006 
G01 X27.6317 Y28.1195 
G01 X27.5854 Y28.2315 
G01 X27.5554 Y28.2763 
G01 X27.5554 Y28.5630 
G01 X27.5378 Y28.6054 
G01 X27.5054 Y28.6378 
G01 X27.4630 Y28.6554 
G01 X26.6170 Y28.6554 
G01 X26.5746 Y28.6378 
G01 X26.5422 Y28.6054 
G01 X26.5246 Y28.5630 
G01 X26.5246 Y28.5554 
G01 X23.4754 Y28.5554 
G01 X23.4754 Y31.8106 
G01 X23.4517 Y31.9295 
G01 X23.4054 Y32.0415 
G01 X23.3380 Y32.1423 
G01 X23.2523 Y32.2280 
G01 X23.1515 Y32.2954 
G01 X23.0395 Y32.3417 
G01 X22.9206 Y32.3654 
G01 X12.6394 Y32.3654 
G01 X12.5205 Y32.3417 
G01 X12.4085 Y32.2954 
G01 X12.3077 Y32.2280 
G01 X12.2220 Y32.1423 
G01 X10.9520 Y30.8723 
G01 X10.8846 Y30.7715 
G01 X10.8383 Y30.6595 
G01 X10.8146 Y30.5406 
G01 X10.8146 Y26.9249 
G01 X7.5255 Y23.6358 
G01 X6.8832 Y23.6358 
G01 X6.7333 Y23.6060 
G01 X6.5921 Y23.5475 
G01 X6.4651 Y23.4626 
G01 X6.3570 Y23.3545 
G01 X6.2721 Y23.2275 
G01 X6.2136 Y23.0863 
G01 X6.1838 Y22.9364 
G01 X6.1838 Y22.7836 
G01 X6.2136 Y22.6337 
G01 X6.2721 Y22.4925 
G01 X6.3570 Y22.3655 
G01 X6.4651 Y22.2574 
G01 X6.5921 Y22.1725 
G01 X6.7333 Y22.1140 
G01 X6.8832 Y22.0842 
G00 Z2.5400 
G00 X13.3933 Y30.9533 
G01 Z-0.1500 F254.00 
G01 X12.1724 Y29.7323 F508.00 
G01 X12.1724 Y30.1725 
G01 X13.0075 Y31.0076 
G01 X13.4477 Y31.0076 
G01 X13.3933 Y30.9533 
G00 Z2.5400 
G00 X22.0418 Y28.7824 
G01 Z-0.1500 F254.00 
G01 X21.9527 Y28.7455 F508.00 
G01 X21.8845 Y28.6773 
G01 X21.8476 Y28.5882 
G01 X21.8476 Y28.3149 
G01 X21.8321 Y28.2917 
G01 X21.7761 Y28.1566 
G01 X21.7476 Y28.0131 
G01 X21.7476 Y27.8669 
G01 X21.7761 Y27.7234 
G01 X21.8321 Y27.5883 
G01 X21.8476 Y27.5651 
G01 X21.8476 Y27.4623 
G01 X21.4324 Y27.8775 
G01 X21.4324 Y28.0131 
G01 X21.4039 Y28.1566 
G01 X21.3479 Y28.2917 
G01 X21.3324 Y28.3149 
G01 X21.3324 Y28.5882 
G01 X21.2955 Y28.6773 
G01 X21.2273 Y28.7455 
G01 X21.1382 Y28.7824 
G01 X20.2418 Y28.7824 
G01 X20.1527 Y28.7455 
G01 X20.0896 Y28.6824 
G01 X17.2524 Y28.6824 
G01 X17.2524 Y30.5531 
G01 X17.2239 Y30.6966 
G01 X17.1679 Y30.8317 
G01 X17.0867 Y30.9533 
G01 X17.0323 Y31.0076 
G01 X22.1176 Y31.0076 
G01 X22.1176 Y28.7824 
G01 X22.0418 Y28.7824 
G00 Z2.5400 
G00 X13.1976 Y6.5782 
G01 Z-0.1500 F254.00 
G01 X13.1976 Y5.6323 F508.00 
G01 X9.9399 Y8.8900 
G01 X13.1733 Y12.1233 
G01 X13.2276 Y12.1777 
G01 X13.2276 Y6.6506 
G01 X13.1976 Y6.5782 
G00 Z2.5400 
G00 X30.2525 Y19.8882 
G01 Z-0.1500 F254.00 
G01 X30.2525 Y20.7518 F508.00 
G01 X29.9524 Y21.0519 
G01 X29.9524 Y27.1976 
G01 X32.7896 Y27.1976 
G01 X32.8527 Y27.1345 
G01 X32.9418 Y27.0976 
G01 X33.8382 Y27.0976 
G01 X33.9273 Y27.1345 
G01 X33.9955 Y27.2027 
G01 X34.0324 Y27.2918 
G01 X34.0324 Y27.5651 
G01 X34.0479 Y27.5883 
G01 X34.1039 Y27.7234 
G01 X34.1324 Y27.8669 
G01 X34.1324 Y28.0131 
G01 X34.1039 Y28.1566 
G01 X34.0479 Y28.2917 
G01 X34.0324 Y28.3149 
G01 X34.0324 Y28.5882 
G01 X33.9955 Y28.6773 
G01 X33.9273 Y28.7455 
G01 X33.8382 Y28.7824 
G01 X32.9418 Y28.7824 
G01 X32.8527 Y28.7455 
G01 X32.7896 Y28.6824 
G01 X29.4404 Y28.6824 
G01 X29.3773 Y28.7455 
G01 X29.2882 Y28.7824 
G01 X28.3918 Y28.7824 
G01 X28.3027 Y28.7455 
G01 X28.2345 Y28.6773 
G01 X28.1976 Y28.5882 
G01 X28.1976 Y28.3149 
G01 X28.1821 Y28.2917 
G01 X28.1261 Y28.1566 
G01 X28.0976 Y28.0131 
G01 X28.0976 Y27.8669 
G01 X28.1261 Y27.7234 
G01 X28.1821 Y27.5883 
G01 X28.1976 Y27.5651 
G01 X28.1976 Y27.2918 
G01 X28.2345 Y27.2027 
G01 X28.3027 Y27.1345 
G01 X28.3918 Y27.0976 
G01 X28.4676 Y27.0976 
G01 X28.4676 Y21.0519 
G01 X28.1675 Y20.7518 
G01 X28.1675 Y19.8882 
G01 X28.7782 Y19.2775 
G01 X29.6418 Y19.2775 
G01 X30.2525 Y19.8882 
G00 Z2.5400 
G00 X25.1725 Y19.8882 
G01 Z-0.1500 F254.00 
G01 X25.1725 Y20.7518 F508.00 
G01 X24.5618 Y21.3625 
G01 X23.6982 Y21.3625 
G01 X23.0875 Y20.7518 
G01 X23.0875 Y19.8882 
G01 X23.6982 Y19.2775 
G01 X24.5618 Y19.2775 
G01 X25.1725 Y19.8882 
G00 Z2.5400 
G00 X6.8707 Y11.7972 
G01 Z-0.1500 F254.00 
G01 X8.3693 Y11.7972 F508.00 
G01 X8.5437 Y11.8319 
G01 X8.7080 Y11.9000 
G01 X8.8559 Y11.9988 
G01 X8.9816 Y12.1245 
G01 X9.0804 Y12.2724 
G01 X9.1485 Y12.4367 
G01 X9.1832 Y12.6111 
G01 X9.1832 Y12.7889 
G01 X9.1485 Y12.9633 
G01 X9.0804 Y13.1276 
G01 X8.9816 Y13.2755 
G01 X8.8559 Y13.4012 
G01 X8.7080 Y13.5000 
G01 X8.5437 Y13.5681 
G01 X8.3693 Y13.6028 
G01 X6.8707 Y13.6028 
G01 X6.6963 Y13.5681 
G01 X6.5320 Y13.5000 
G01 X6.3841 Y13.4012 
G01 X6.2584 Y13.2755 
G01 X6.1596 Y13.1276 
G01 X6.0915 Y12.9633 
G01 X6.0568 Y12.7889 
G01 X6.0568 Y12.6111 
G01 X6.0915 Y12.4367 
G01 X6.1596 Y12.2724 
G01 X6.2584 Y12.1245 
G01 X6.3841 Y11.9988 
G01 X6.5320 Y11.9000 
G01 X6.6963 Y11.8319 
G01 X6.8707 Y11.7972 
G00 Z2.5400 
G00 X6.8707 Y14.3372 
G01 Z-0.1500 F254.00 
G01 X8.3693 Y14.3372 F508.00 
G01 X8.5437 Y14.3719 
G01 X8.7080 Y14.4400 
G01 X8.8559 Y14.5388 
G01 X8.9816 Y14.6645 
G01 X9.0804 Y14.8124 
G01 X9.1485 Y14.9767 
G01 X9.1832 Y15.1511 
G01 X9.1832 Y15.3289 
G01 X9.1485 Y15.5033 
G01 X9.0804 Y15.6676 
G01 X8.9816 Y15.8155 
G01 X8.8559 Y15.9412 
G01 X8.7080 Y16.0400 
G01 X8.5437 Y16.1081 
G01 X8.3693 Y16.1428 
G01 X6.8707 Y16.1428 
G01 X6.6963 Y16.1081 
G01 X6.5320 Y16.0400 
G01 X6.3841 Y15.9412 
G01 X6.2584 Y15.8155 
G01 X6.1596 Y15.6676 
G01 X6.0915 Y15.5033 
G01 X6.0568 Y15.3289 
G01 X6.0568 Y15.1511 
G01 X6.0915 Y14.9767 
G01 X6.1596 Y14.8124 
G01 X6.2584 Y14.6645 
G01 X6.3841 Y14.5388 
G01 X6.5320 Y14.4400 
G01 X6.6963 Y14.3719 
G01 X6.8707 Y14.3372 
G00 Z2.5400 
G00 X6.8707 Y16.8772 
G01 Z-0.1500 F254.00 
G01 X8.3693 Y16.8772 F508.00 
G01 X8.5437 Y16.9119 
G01 X8.7080 Y16.9800 
G01 X8.8559 Y17.0787 
G01 X8.9816 Y17.2045 
G01 X9.0804 Y17.3524 
G01 X9.1485 Y17.5167 
G01 X9.1832 Y17.6911 
G01 X9.1832 Y17.8689 
G01 X9.1485 Y18.0433 
G01 X9.0804 Y18.2076 
G01 X8.9816 Y18.3555 
G01 X8.8559 Y18.4812 
G01 X8.7080 Y18.5800 
G01 X8.5437 Y18.6481 
G01 X8.3693 Y18.6828 
G01 X6.8707 Y18.6828 
G01 X6.6963 Y18.6481 
G01 X6.5320 Y18.5800 
G01 X6.3841 Y18.4812 
G01 X6.2584 Y18.3555 
G01 X6.1596 Y18.2076 
G01 X6.0915 Y18.0433 
G01 X6.0568 Y17.8689 
G01 X6.0568 Y17.6911 
G01 X6.0915 Y17.5167 
G01 X6.1596 Y17.3524 
G01 X6.2584 Y17.2045 
G01 X6.3841 Y17.0787 
G01 X6.5320 Y16.9800 
G01 X6.6963 Y16.9119 
G01 X6.8707 Y16.8772 
G00 Z2.5400 
G00 X6.8707 Y19.4172 
G01 Z-0.1500 F254.00 
G01 X8.3693 Y19.4172 F508.00 
G01 X8.5437 Y19.4519 
G01 X8.7080 Y19.5200 
G01 X8.8559 Y19.6188 
G01 X8.9816 Y19.7445 
G01 X9.0804 Y19.8924 
G01 X9.1485 Y20.0567 
G01 X9.1832 Y20.2311 
G01 X9.1832 Y20.4089 
G01 X9.1485 Y20.5833 
G01 X9.0804 Y20.7476 
G01 X8.9816 Y20.8955 
G01 X8.8559 Y21.0212 
G01 X8.7080 Y21.1200 
G01 X8.5437 Y21.1881 
G01 X8.3693 Y21.2228 
G01 X6.8707 Y21.2228 
G01 X6.6963 Y21.1881 
G01 X6.5320 Y21.1200 
G01 X6.3841 Y21.0212 
G01 X6.2584 Y20.8955 
G01 X6.1596 Y20.7476 
G01 X6.0915 Y20.5833 
G01 X6.0568 Y20.4089 
G01 X6.0568 Y20.2311 
G01 X6.0915 Y20.0567 
G01 X6.1596 Y19.8924 
G01 X6.2584 Y19.7445 
G01 X6.3841 Y19.6188 
G01 X6.5320 Y19.5200 
G01 X6.6963 Y19.4519 
G01 X6.8707 Y19.4172 
G00 Z2.5400 
G00 X6.8707 Y21.9572 
G01 Z-0.1500 F254.00 
G01 X8.3693 Y21.9572 F508.00 
G01 X8.5437 Y21.9919 
G01 X8.7080 Y22.0600 
G01 X8.8559 Y22.1588 
G01 X8.9816 Y22.2845 
G01 X9.0804 Y22.4324 
G01 X9.1485 Y22.5967 
G01 X9.1832 Y22.7711 
G01 X9.1832 Y22.9489 
G01 X9.1485 Y23.1233 
G01 X9.0855 Y23.2755 
G01 X11.9032 Y26.0933 
G01 X11.9576 Y26.1477 
G01 X11.9576 Y13.0075 
G01 X9.1832 Y10.2331 
G01 X9.1832 Y10.2489 
G01 X9.1485 Y10.4233 
G01 X9.0804 Y10.5876 
G01 X8.9816 Y10.7355 
G01 X8.8559 Y10.8612 
G01 X8.7080 Y10.9600 
G01 X8.5437 Y11.0281 
G01 X8.3693 Y11.0628 
G01 X6.8707 Y11.0628 
G01 X6.6963 Y11.0281 
G01 X6.5320 Y10.9600 
G01 X6.3841 Y10.8612 
G01 X6.2584 Y10.7355 
G01 X6.1596 Y10.5876 
G01 X6.0915 Y10.4233 
G01 X6.0568 Y10.2489 
G01 X6.0568 Y10.0711 
G01 X6.0915 Y9.8967 
G01 X6.1596 Y9.7324 
G01 X6.2584 Y9.5845 
G01 X6.3841 Y9.4588 
G01 X6.5320 Y9.3600 
G01 X6.6963 Y9.2919 
G01 X6.8707 Y9.2572 
G01 X7.4729 Y9.2572 
G01 X8.3133 Y8.4168 
G01 X8.4167 Y8.3133 
G01 X13.2325 Y3.4976 
G01 X13.2345 Y3.4927 
G01 X13.3027 Y3.4245 
G01 X13.3076 Y3.4225 
G01 X13.4199 Y3.3102 
G01 X13.4438 Y3.2812 
G01 X13.4715 Y3.2586 
G01 X13.4967 Y3.2333 
G01 X13.5280 Y3.2125 
G01 X13.5571 Y3.1887 
G01 X13.5887 Y3.1719 
G01 X13.6183 Y3.1521 
G01 X13.6531 Y3.1377 
G01 X13.6863 Y3.1201 
G01 X13.7205 Y3.1098 
G01 X13.7534 Y3.0961 
G01 X13.7903 Y3.0888 
G01 X13.8263 Y3.0780 
G01 X13.8619 Y3.0746 
G01 X13.8969 Y3.0676 
G01 X13.9345 Y3.0676 
G01 X13.9719 Y3.0640 
G01 X14.0074 Y3.0676 
G01 X14.0431 Y3.0676 
G01 X14.0800 Y3.0749 
G01 X14.1174 Y3.0787 
G01 X14.1516 Y3.0892 
G01 X14.1866 Y3.0961 
G01 X14.2213 Y3.1105 
G01 X14.2572 Y3.1215 
G01 X14.2887 Y3.1384 
G01 X14.3217 Y3.1521 
G01 X14.3529 Y3.1730 
G01 X14.3860 Y3.1908 
G01 X14.4136 Y3.2135 
G01 X14.4433 Y3.2333 
G01 X14.4698 Y3.2599 
G01 X14.4988 Y3.2838 
G01 X14.5214 Y3.3115 
G01 X14.5467 Y3.3367 
G01 X14.5675 Y3.3680 
G01 X14.5835 Y3.3876 
G01 X14.8882 Y3.3876 
G01 X14.9773 Y3.4245 
G01 X15.0455 Y3.4927 
G01 X15.0824 Y3.5818 
G01 X15.0824 Y4.6782 
G01 X15.0455 Y4.7673 
G01 X14.9773 Y4.8355 
G01 X14.8882 Y4.8724 
G01 X14.1755 Y4.8724 
G01 X14.1381 Y4.8760 
G01 X14.1026 Y4.8724 
G01 X13.9575 Y4.8724 
G01 X13.5423 Y5.2876 
G01 X14.1026 Y5.2876 
G01 X14.1381 Y5.2840 
G01 X14.1755 Y5.2876 
G01 X14.8882 Y5.2876 
G01 X14.9773 Y5.3245 
G01 X15.0455 Y5.3927 
G01 X15.0824 Y5.4818 
G01 X15.0824 Y5.6076 
G01 X15.3976 Y5.6076 
G01 X15.3976 Y4.5318 
G01 X15.4345 Y4.4427 
G01 X15.5027 Y4.3745 
G01 X15.5918 Y4.3376 
G01 X16.2025 Y4.3376 
G01 X18.4733 Y2.0667 
G01 X18.5767 Y1.9633 
G01 X18.6983 Y1.8821 
G01 X18.8334 Y1.8261 
G01 X18.9769 Y1.7976 
G01 X26.7431 Y1.7976 
G01 X26.8865 Y1.8261 
G01 X27.0217 Y1.8821 
G01 X27.1433 Y1.9633 
G01 X27.2467 Y2.0667 
G01 X27.3279 Y2.1883 
G01 X27.3839 Y2.3234 
G01 X27.4124 Y2.4669 
G01 X27.4124 Y4.2376 
G01 X27.4882 Y4.2376 
G01 X27.5773 Y4.2745 
G01 X27.6455 Y4.3427 
G01 X27.6824 Y4.4318 
G01 X27.6824 Y4.7051 
G01 X27.6979 Y4.7283 
G01 X27.7539 Y4.8634 
G01 X27.7824 Y5.0069 
G01 X27.7824 Y5.1531 
G01 X27.7539 Y5.2965 
G01 X27.6979 Y5.4317 
G01 X27.6824 Y5.4549 
G01 X27.6824 Y5.7282 
G01 X27.6455 Y5.8173 
G01 X27.5773 Y5.8855 
G01 X27.4882 Y5.9224 
G01 X27.4124 Y5.9224 
G01 X27.4124 Y11.9576 
G01 X28.4781 Y11.9576 
G01 X28.7782 Y11.6575 
G01 X29.6418 Y11.6575 
G01 X30.2525 Y12.2682 
G01 X30.2525 Y13.1318 
G01 X29.6418 Y13.7425 
G01 X28.7782 Y13.7425 
G01 X28.4781 Y13.4424 
G01 X27.4019 Y13.4424 
G01 X27.1018 Y13.7425 
G01 X26.2382 Y13.7425 
G01 X25.6275 Y13.1318 
G01 X25.6275 Y12.2682 
G01 X25.9276 Y11.9681 
G01 X25.9276 Y3.2824 
G01 X19.3575 Y3.2824 
G01 X17.2824 Y5.3575 
G01 X17.2824 Y5.6282 
G01 X17.2455 Y5.7173 
G01 X17.1773 Y5.7855 
G01 X17.0882 Y5.8224 
G01 X17.0436 Y5.8224 
G01 X17.0929 Y5.8716 
G01 X17.1750 Y5.9946 
G01 X17.2316 Y6.1311 
G01 X17.2604 Y6.2761 
G01 X17.2604 Y6.4239 
G01 X17.2316 Y6.5689 
G01 X17.1750 Y6.7054 
G01 X17.0929 Y6.8284 
G01 X16.9884 Y6.9329 
G01 X16.8654 Y7.0150 
G01 X16.7289 Y7.0716 
G01 X16.5839 Y7.1004 
G01 X16.4361 Y7.1004 
G01 X16.3959 Y7.0924 
G01 X14.7124 Y7.0924 
G01 X14.7124 Y27.0976 
G01 X14.7882 Y27.0976 
G01 X14.8773 Y27.1345 
G01 X14.9455 Y27.2027 
G01 X14.9824 Y27.2918 
G01 X14.9824 Y27.5651 
G01 X14.9979 Y27.5883 
G01 X15.0539 Y27.7234 
G01 X15.0824 Y27.8669 
G01 X15.0824 Y28.0131 
G01 X15.0539 Y28.1566 
G01 X14.9979 Y28.2917 
G01 X14.9824 Y28.3149 
G01 X14.9824 Y28.5882 
G01 X14.9455 Y28.6773 
G01 X14.8773 Y28.7455 
G01 X14.7882 Y28.7824 
G01 X13.8918 Y28.7824 
G01 X13.8027 Y28.7455 
G01 X13.7345 Y28.6773 
G01 X13.7189 Y28.6395 
G01 X13.6183 Y28.5979 
G01 X13.4967 Y28.5167 
G01 X13.4424 Y28.4623 
G01 X13.4424 Y28.9025 
G01 X14.2775 Y29.7376 
G01 X15.7676 Y29.7376 
G01 X15.7676 Y28.7824 
G01 X15.6918 Y28.7824 
G01 X15.6027 Y28.7455 
G01 X15.5345 Y28.6773 
G01 X15.4976 Y28.5882 
G01 X15.4976 Y28.3149 
G01 X15.4821 Y28.2917 
G01 X15.4261 Y28.1566 
G01 X15.3976 Y28.0131 
G01 X15.3976 Y27.8669 
G01 X15.4261 Y27.7234 
G01 X15.4821 Y27.5883 
G01 X15.4976 Y27.5651 
G01 X15.4976 Y27.2918 
G01 X15.5345 Y27.2027 
G01 X15.6027 Y27.1345 
G01 X15.6918 Y27.0976 
G01 X16.5882 Y27.0976 
G01 X16.6773 Y27.1345 
G01 X16.7404 Y27.1976 
G01 X20.0125 Y27.1976 
G01 X20.8476 Y26.3625 
G01 X20.8476 Y20.2469 
G01 X20.8761 Y20.1034 
G01 X20.9321 Y19.9683 
G01 X21.0133 Y19.8467 
G01 X23.5533 Y17.3067 
G01 X23.6567 Y17.2033 
G01 X23.7783 Y17.1221 
G01 X23.9134 Y17.0661 
G01 X24.0569 Y17.0376 
G01 X24.8777 Y17.0376 
G01 X24.8233 Y16.9833 
G01 X21.2825 Y13.4424 
G01 X19.1641 Y13.4424 
G01 X19.1239 Y13.4504 
G01 X18.9761 Y13.4504 
G01 X18.8311 Y13.4216 
G01 X18.6945 Y13.3650 
G01 X18.5716 Y13.2829 
G01 X18.4671 Y13.1784 
G01 X18.3850 Y13.0554 
G01 X18.3284 Y12.9189 
G01 X18.2996 Y12.7739 
G01 X18.2996 Y12.6261 
G01 X18.3284 Y12.4811 
G01 X18.3850 Y12.3445 
G01 X18.4671 Y12.2216 
G01 X18.5716 Y12.1171 
G01 X18.6945 Y12.0350 
G01 X18.8311 Y11.9784 
G01 X18.9761 Y11.9496 
G01 X19.1239 Y11.9496 
G01 X19.1641 Y11.9576 
G01 X20.8476 Y11.9576 
G01 X20.8476 Y6.6575 
G01 X19.8467 Y5.6567 
G01 X19.7433 Y5.5533 
G01 X19.6621 Y5.4317 
G01 X19.6061 Y5.2965 
G01 X19.5776 Y5.1531 
G01 X19.5776 Y5.0069 
G01 X19.6061 Y4.8634 
G01 X19.6621 Y4.7283 
G01 X19.7433 Y4.6067 
G01 X19.8467 Y4.5033 
G01 X19.9683 Y4.4221 
G01 X20.0689 Y4.3805 
G01 X20.0845 Y4.3427 
G01 X20.1527 Y4.2745 
G01 X20.2418 Y4.2376 
G01 X21.1382 Y4.2376 
G01 X21.2273 Y4.2745 
G01 X21.2955 Y4.3427 
G01 X21.3324 Y4.4318 
G01 X21.3324 Y4.7051 
G01 X21.3479 Y4.7283 
G01 X21.4039 Y4.8634 
G01 X21.4324 Y5.0069 
G01 X21.4324 Y5.1425 
G01 X21.8476 Y5.5577 
G01 X21.8476 Y5.4549 
G01 X21.8321 Y5.4317 
G01 X21.7761 Y5.2965 
G01 X21.7476 Y5.1531 
G01 X21.7476 Y5.0069 
G01 X21.7761 Y4.8634 
G01 X21.8321 Y4.7283 
G01 X21.8476 Y4.7051 
G01 X21.8476 Y4.4318 
G01 X21.8845 Y4.3427 
G01 X21.9527 Y4.2745 
G01 X22.0418 Y4.2376 
G01 X22.9382 Y4.2376 
G01 X23.0273 Y4.2745 
G01 X23.0955 Y4.3427 
G01 X23.1111 Y4.3805 
G01 X23.2117 Y4.4221 
G01 X23.3332 Y4.5033 
G01 X23.4367 Y4.6067 
G01 X24.6033 Y5.7733 
G01 X24.7067 Y5.8767 
G01 X24.7879 Y5.9983 
G01 X24.8439 Y6.1334 
G01 X24.8724 Y6.2769 
G01 X24.8724 Y11.9681 
G01 X25.1725 Y12.2682 
G01 X25.1725 Y13.1318 
G01 X24.5618 Y13.7425 
G01 X23.6982 Y13.7425 
G01 X23.0875 Y13.1318 
G01 X23.0875 Y12.2682 
G01 X23.3876 Y11.9681 
G01 X23.3876 Y6.6575 
G01 X22.6525 Y5.9224 
G01 X22.1972 Y5.9224 
G01 X22.2479 Y5.9983 
G01 X22.3039 Y6.1334 
G01 X22.3324 Y6.2769 
G01 X22.3324 Y12.3925 
G01 X25.7075 Y15.7676 
G01 X35.2525 Y15.7676 
G01 X36.0876 Y14.9325 
G01 X36.0876 Y5.6023 
G01 X36.0333 Y5.6567 
G01 X32.4924 Y9.1975 
G01 X32.4924 Y11.9681 
G01 X32.7925 Y12.2682 
G01 X32.7925 Y13.1318 
G01 X32.1818 Y13.7425 
G01 X31.3182 Y13.7425 
G01 X30.7075 Y13.1318 
G01 X30.7075 Y12.2682 
G01 X31.0076 Y11.9681 
G01 X31.0076 Y8.8169 
G01 X31.0361 Y8.6734 
G01 X31.0921 Y8.5383 
G01 X31.1733 Y8.4167 
G01 X31.2767 Y8.3133 
G01 X33.6677 Y5.9224 
G01 X32.9418 Y5.9224 
G01 X32.8527 Y5.8855 
G01 X32.7896 Y5.8224 
G01 X31.8641 Y5.8224 
G01 X31.8239 Y5.8304 
G01 X31.6761 Y5.8304 
G01 X31.5311 Y5.8016 
G01 X31.3946 Y5.7450 
G01 X31.2716 Y5.6629 
G01 X31.1671 Y5.5583 
G01 X31.0850 Y5.4354 
G01 X31.0284 Y5.2989 
G01 X30.9996 Y5.1539 
G01 X30.9996 Y5.0061 
G01 X31.0284 Y4.8611 
G01 X31.0850 Y4.7245 
G01 X31.1671 Y4.6016 
G01 X31.2716 Y4.4971 
G01 X31.3946 Y4.4150 
G01 X31.5311 Y4.3584 
G01 X31.6761 Y4.3296 
G01 X31.8239 Y4.3296 
G01 X31.8641 Y4.3376 
G01 X32.7896 Y4.3376 
G01 X32.8527 Y4.2745 
G01 X32.9418 Y4.2376 
G01 X33.8382 Y4.2376 
G01 X33.9273 Y4.2745 
G01 X33.9955 Y4.3427 
G01 X34.0324 Y4.4318 
G01 X34.0324 Y4.7051 
G01 X34.0479 Y4.7283 
G01 X34.1039 Y4.8634 
G01 X34.1324 Y5.0069 
G01 X34.1324 Y5.1531 
G01 X34.1039 Y5.2965 
G01 X34.0479 Y5.4317 
G01 X34.0324 Y5.4549 
G01 X34.0324 Y5.5577 
G01 X34.4476 Y5.1425 
G01 X34.4476 Y5.0069 
G01 X34.4761 Y4.8634 
G01 X34.5321 Y4.7283 
G01 X34.5476 Y4.7051 
G01 X34.5476 Y4.4318 
G01 X34.5845 Y4.3427 
G01 X34.6527 Y4.2745 
G01 X34.7418 Y4.2376 
G01 X35.6382 Y4.2376 
G01 X35.7273 Y4.2745 
G01 X35.7955 Y4.3427 
G01 X35.8111 Y4.3805 
G01 X35.9117 Y4.4221 
G01 X36.0333 Y4.5033 
G01 X36.0876 Y4.5577 
G01 X36.0876 Y3.2824 
G01 X32.0575 Y3.2824 
G01 X29.7867 Y5.5532 
G01 X29.6833 Y5.6567 
G01 X29.5617 Y5.7379 
G01 X29.4611 Y5.7795 
G01 X29.4455 Y5.8173 
G01 X29.3773 Y5.8855 
G01 X29.2882 Y5.9224 
G01 X28.3918 Y5.9224 
G01 X28.3027 Y5.8855 
G01 X28.2345 Y5.8173 
G01 X28.1976 Y5.7282 
G01 X28.1976 Y5.4549 
G01 X28.1821 Y5.4317 
G01 X28.1261 Y5.2965 
G01 X28.0976 Y5.1531 
G01 X28.0976 Y5.0069 
G01 X28.1261 Y4.8634 
G01 X28.1821 Y4.7283 
G01 X28.1976 Y4.7051 
G01 X28.1976 Y4.4318 
G01 X28.2345 Y4.3427 
G01 X28.3027 Y4.2745 
G01 X28.3918 Y4.2376 
G01 X29.0025 Y4.2376 
G01 X31.1733 Y2.0668 
G01 X31.2767 Y1.9633 
G01 X31.3983 Y1.8821 
G01 X31.5334 Y1.8261 
G01 X31.6769 Y1.7976 
G01 X36.9031 Y1.7976 
G01 X37.0466 Y1.8261 
G01 X37.1817 Y1.8821 
G01 X37.3032 Y1.9633 
G01 X37.4067 Y2.0667 
G01 X37.4879 Y2.1883 
G01 X37.5439 Y2.3234 
G01 X37.5724 Y2.4669 
G01 X37.5724 Y15.3131 
G01 X37.5439 Y15.4566 
G01 X37.4879 Y15.5917 
G01 X37.4067 Y15.7133 
G01 X36.3024 Y16.8175 
G01 X36.3024 Y28.0131 
G01 X36.2739 Y28.1566 
G01 X36.2179 Y28.2917 
G01 X36.1367 Y28.4133 
G01 X36.0333 Y28.5167 
G01 X35.9117 Y28.5979 
G01 X35.8111 Y28.6395 
G01 X35.7955 Y28.6773 
G01 X35.7273 Y28.7455 
G01 X35.6382 Y28.7824 
G01 X34.7418 Y28.7824 
G01 X34.6527 Y28.7455 
G01 X34.5845 Y28.6773 
G01 X34.5476 Y28.5882 
G01 X34.5476 Y28.3149 
G01 X34.5321 Y28.2917 
G01 X34.4761 Y28.1566 
G01 X34.4476 Y28.0131 
G01 X34.4476 Y27.8669 
G01 X34.4761 Y27.7234 
G01 X34.5321 Y27.5883 
G01 X34.5476 Y27.5651 
G01 X34.5476 Y27.2918 
G01 X34.5845 Y27.2027 
G01 X34.6527 Y27.1345 
G01 X34.7418 Y27.0976 
G01 X34.8176 Y27.0976 
G01 X34.8176 Y17.2524 
G01 X32.2723 Y17.2524 
G01 X32.3267 Y17.3067 
G01 X32.4079 Y17.4283 
G01 X32.4639 Y17.5634 
G01 X32.4924 Y17.7069 
G01 X32.4924 Y19.5881 
G01 X32.7925 Y19.8882 
G01 X32.7925 Y20.7518 
G01 X32.1818 Y21.3625 
G01 X31.3182 Y21.3625 
G01 X30.7075 Y20.7518 
G01 X30.7075 Y19.8882 
G01 X31.0076 Y19.5881 
G01 X31.0076 Y18.5224 
G01 X24.4375 Y18.5224 
G01 X22.3324 Y20.6275 
G01 X22.3324 Y26.7431 
G01 X22.3039 Y26.8865 
G01 X22.2479 Y27.0217 
G01 X22.1972 Y27.0976 
G01 X22.9382 Y27.0976 
G01 X23.0273 Y27.1345 
G01 X23.0904 Y27.1976 
G01 X25.9276 Y27.1976 
G01 X25.9276 Y21.0519 
G01 X25.6275 Y20.7518 
G01 X25.6275 Y19.8882 
G01 X26.2382 Y19.2775 
G01 X27.1018 Y19.2775 
G01 X27.7125 Y19.8882 
G01 X27.7125 Y20.7518 
G01 X27.4124 Y21.0519 
G01 X27.4124 Y27.0976 
G01 X27.4882 Y27.0976 
G01 X27.5773 Y27.1345 
G01 X27.6455 Y27.2027 
G01 X27.6824 Y27.2918 
G01 X27.6824 Y27.5651 
G01 X27.6979 Y27.5883 
G01 X27.7539 Y27.7234 
G01 X27.7824 Y27.8669 
G01 X27.7824 Y28.0131 
G01 X27.7539 Y28.1566 
G01 X27.6979 Y28.2917 
G01 X27.6824 Y28.3149 
G01 X27.6824 Y28.5882 
G01 X27.6455 Y28.6773 
G01 X27.5773 Y28.7455 
G01 X27.4882 Y28.7824 
G01 X26.5918 Y28.7824 
G01 X26.5027 Y28.7455 
G01 X26.4396 Y28.6824 
G01 X23.6024 Y28.6824 
G01 X23.6024 Y31.8231 
G01 X23.5739 Y31.9666 
G01 X23.5179 Y32.1017 
G01 X23.4367 Y32.2233 
G01 X23.3332 Y32.3267 
G01 X23.2117 Y32.4079 
G01 X23.0766 Y32.4639 
G01 X22.9331 Y32.4924 
G01 X12.6269 Y32.4924 
G01 X12.4834 Y32.4639 
G01 X12.3483 Y32.4079 
G01 X12.2267 Y32.3267 
G01 X12.1233 Y32.2233 
G01 X10.8533 Y30.9533 
G01 X10.7721 Y30.8317 
G01 X10.7161 Y30.6966 
G01 X10.6876 Y30.5531 
G01 X10.6876 Y26.9775 
G01 X7.4729 Y23.7628 
G01 X6.8707 Y23.7628 
G01 X6.6963 Y23.7281 
G01 X6.5320 Y23.6600 
G01 X6.3841 Y23.5612 
G01 X6.2584 Y23.4355 
G01 X6.1596 Y23.2876 
G01 X6.0915 Y23.1233 
G01 X6.0568 Y22.9489 
G01 X6.0568 Y22.7711 
G01 X6.0915 Y22.5967 
G01 X6.1596 Y22.4324 
G01 X6.2584 Y22.2845 
G01 X6.3841 Y22.1588 
G01 X6.5320 Y22.0600 
G01 X6.6963 Y21.9919 
G01 X6.8707 Y21.9572 
G00 Z2.5400 
G00 X12.2994 Y30.0389 
G01 Z-0.1500 F254.00 
G01 X12.2994 Y30.1199 F508.00 
G01 X13.0601 Y30.8806 
G01 X13.1411 Y30.8806 
G01 X12.2994 Y30.0389 
G00 Z2.5400 
G00 X22.5999 Y6.0494 
G01 Z-0.1500 F254.00 
G01 X22.4065 Y6.0494 F508.00 
G01 X22.4260 Y6.0964 
G01 X22.4594 Y6.2644 
G01 X22.4594 Y12.3399 
G01 X22.9605 Y12.8410 
G01 X22.9605 Y12.2156 
G01 X23.2606 Y11.9155 
G01 X23.2606 Y6.7101 
G01 X22.5999 Y6.0494 
G00 Z2.5400 
G00 X21.9474 Y28.8842 
G01 Z-0.1500 F254.00 
G01 X21.8632 Y28.8356 F508.00 
G01 X21.7944 Y28.7668 
G01 X21.7458 Y28.6826 
G01 X21.7206 Y28.5886 
G01 X21.7206 Y28.3534 
G01 X21.6540 Y28.1936 
G01 X21.6206 Y28.0256 
G01 X21.6206 Y27.8689 
G01 X21.5594 Y27.9301 
G01 X21.5594 Y28.0256 
G01 X21.5260 Y28.1936 
G01 X21.4605 Y28.3518 
G01 X21.4594 Y28.5886 
G01 X21.4342 Y28.6826 
G01 X21.3856 Y28.7668 
G01 X21.3168 Y28.8356 
G01 X21.2326 Y28.8842 
G01 X21.1386 Y28.9094 
G01 X20.2414 Y28.9094 
G01 X20.1474 Y28.8842 
G01 X20.0632 Y28.8356 
G01 X20.0370 Y28.8094 
G01 X17.3794 Y28.8094 
G01 X17.3794 Y30.5656 
G01 X17.3460 Y30.7336 
G01 X17.2851 Y30.8806 
G01 X21.9906 Y30.8806 
G01 X21.9906 Y28.8958 
G01 X21.9474 Y28.8842 
G00 Z2.5400 
G00 X13.0958 Y6.6726 
G01 Z-0.1500 F254.00 
G01 X13.0706 Y6.5786 F508.00 
G01 X13.0706 Y5.9389 
G01 X10.1195 Y8.8900 
G01 X13.1006 Y11.8711 
G01 X13.1006 Y6.6809 
G01 X13.0958 Y6.6726 
G00 Z2.5400 
G00 X30.3795 Y19.8356 
G01 Z-0.1500 F254.00 
G01 X30.3795 Y20.8044 F508.00 
G01 X30.0794 Y21.1045 
G01 X30.0794 Y27.0706 
G01 X32.7370 Y27.0706 
G01 X32.7632 Y27.0444 
G01 X32.8474 Y26.9958 
G01 X32.9414 Y26.9706 
G01 X33.8386 Y26.9706 
G01 X33.9326 Y26.9958 
G01 X34.0168 Y27.0444 
G01 X34.0856 Y27.1132 
G01 X34.1342 Y27.1974 
G01 X34.1594 Y27.2914 
G01 X34.1594 Y27.5266 
G01 X34.2260 Y27.6864 
G01 X34.2594 Y27.8544 
G01 X34.2594 Y28.0256 
G01 X34.2260 Y28.1936 
G01 X34.1605 Y28.3518 
G01 X34.1594 Y28.5886 
G01 X34.1342 Y28.6826 
G01 X34.0856 Y28.7668 
G01 X34.0168 Y28.8356 
G01 X33.9326 Y28.8842 
G01 X33.8386 Y28.9094 
G01 X32.9414 Y28.9094 
G01 X32.8474 Y28.8842 
G01 X32.7632 Y28.8356 
G01 X32.7370 Y28.8094 
G01 X29.4930 Y28.8094 
G01 X29.4668 Y28.8356 
G01 X29.3826 Y28.8842 
G01 X29.2886 Y28.9094 
G01 X28.3914 Y28.9094 
G01 X28.2974 Y28.8842 
G01 X28.2132 Y28.8356 
G01 X28.1444 Y28.7668 
G01 X28.0958 Y28.6826 
G01 X28.0706 Y28.5886 
G01 X28.0706 Y28.3534 
G01 X28.0040 Y28.1936 
G01 X27.9706 Y28.0256 
G01 X27.9706 Y27.8544 
G01 X28.0040 Y27.6864 
G01 X28.0695 Y27.5282 
G01 X28.0706 Y27.2914 
G01 X28.0958 Y27.1974 
G01 X28.1444 Y27.1132 
G01 X28.2132 Y27.0444 
G01 X28.2974 Y26.9958 
G01 X28.3406 Y26.9842 
G01 X28.3406 Y21.1045 
G01 X28.0405 Y20.8044 
G01 X28.0405 Y19.8356 
G01 X28.7256 Y19.1505 
G01 X29.6944 Y19.1505 
G01 X30.3795 Y19.8356 
G00 Z2.5400 
G00 X6.8582 Y11.6702 
G01 Z-0.1500 F254.00 
G01 X8.3818 Y11.6702 F508.00 
G01 X8.5808 Y11.7098 
G01 X8.7682 Y11.7874 
G01 X8.9369 Y11.9001 
G01 X9.0803 Y12.0435 
G01 X9.1930 Y12.2122 
G01 X9.2706 Y12.3996 
G01 X9.3102 Y12.5986 
G01 X9.3102 Y12.8014 
G01 X9.2706 Y13.0004 
G01 X9.1930 Y13.1878 
G01 X9.0803 Y13.3565 
G01 X8.9369 Y13.4999 
G01 X8.7682 Y13.6126 
G01 X8.5808 Y13.6902 
G01 X8.3818 Y13.7298 
G01 X6.8582 Y13.7298 
G01 X6.6592 Y13.6902 
G01 X6.4718 Y13.6126 
G01 X6.3031 Y13.4999 
G01 X6.1597 Y13.3565 
G01 X6.0470 Y13.1878 
G01 X5.9694 Y13.0004 
G01 X5.9298 Y12.8014 
G01 X5.9298 Y12.5986 
G01 X5.9694 Y12.3996 
G01 X6.0470 Y12.2122 
G01 X6.1597 Y12.0435 
G01 X6.3031 Y11.9001 
G01 X6.4718 Y11.7874 
G01 X6.6592 Y11.7098 
G01 X6.8582 Y11.6702 
G00 Z2.5400 
G00 X6.8582 Y14.2102 
G01 Z-0.1500 F254.00 
G01 X8.3818 Y14.2102 F508.00 
G01 X8.5808 Y14.2498 
G01 X8.7682 Y14.3274 
G01 X8.9369 Y14.4401 
G01 X9.0803 Y14.5835 
G01 X9.1930 Y14.7522 
G01 X9.2706 Y14.9396 
G01 X9.3102 Y15.1386 
G01 X9.3102 Y15.3414 
G01 X9.2706 Y15.5404 
G01 X9.1930 Y15.7278 
G01 X9.0803 Y15.8965 
G01 X8.9369 Y16.0399 
G01 X8.7682 Y16.1526 
G01 X8.5808 Y16.2302 
G01 X8.3818 Y16.2698 
G01 X6.8582 Y16.2698 
G01 X6.6592 Y16.2302 
G01 X6.4718 Y16.1526 
G01 X6.3031 Y16.0399 
G01 X6.1597 Y15.8965 
G01 X6.0470 Y15.7278 
G01 X5.9694 Y15.5404 
G01 X5.9298 Y15.3414 
G01 X5.9298 Y15.1386 
G01 X5.9694 Y14.9396 
G01 X6.0470 Y14.7522 
G01 X6.1597 Y14.5835 
G01 X6.3031 Y14.4401 
G01 X6.4718 Y14.3274 
G01 X6.6592 Y14.2498 
G01 X6.8582 Y14.2102 
G00 Z2.5400 
G00 X6.8582 Y16.7502 
G01 Z-0.1500 F254.00 
G01 X8.3818 Y16.7502 F508.00 
G01 X8.5808 Y16.7898 
G01 X8.7682 Y16.8674 
G01 X8.9369 Y16.9801 
G01 X9.0803 Y17.1235 
G01 X9.1930 Y17.2922 
G01 X9.2706 Y17.4796 
G01 X9.3102 Y17.6786 
G01 X9.3102 Y17.8814 
G01 X9.2706 Y18.0804 
G01 X9.1930 Y18.2678 
G01 X9.0803 Y18.4365 
G01 X8.9369 Y18.5799 
G01 X8.7682 Y18.6926 
G01 X8.5808 Y18.7702 
G01 X8.3818 Y18.8098 
G01 X6.8582 Y18.8098 
G01 X6.6592 Y18.7702 
G01 X6.4718 Y18.6926 
G01 X6.3031 Y18.5799 
G01 X6.1597 Y18.4365 
G01 X6.0470 Y18.2678 
G01 X5.9694 Y18.0804 
G01 X5.9298 Y17.8814 
G01 X5.9298 Y17.6786 
G01 X5.9694 Y17.4796 
G01 X6.0470 Y17.2922 
G01 X6.1597 Y17.1235 
G01 X6.3031 Y16.9801 
G01 X6.4718 Y16.8674 
G01 X6.6592 Y16.7898 
G01 X6.8582 Y16.7502 
G00 Z2.5400 
G00 X6.8582 Y19.2902 
G01 Z-0.1500 F254.00 
G01 X8.3818 Y19.2902 F508.00 
G01 X8.5808 Y19.3298 
G01 X8.7682 Y19.4074 
G01 X8.9369 Y19.5201 
G01 X9.0803 Y19.6635 
G01 X9.1930 Y19.8322 
G01 X9.2706 Y20.0196 
G01 X9.3102 Y20.2186 
G01 X9.3102 Y20.4214 
G01 X9.2706 Y20.6204 
G01 X9.1930 Y20.8078 
G01 X9.0803 Y20.9765 
G01 X8.9369 Y21.1199 
G01 X8.7682 Y21.2326 
G01 X8.5808 Y21.3102 
G01 X8.3818 Y21.3498 
G01 X6.8582 Y21.3498 
G01 X6.6592 Y21.3102 
G01 X6.4718 Y21.2326 
G01 X6.3031 Y21.1199 
G01 X6.1597 Y20.9765 
G01 X6.0470 Y20.8078 
G01 X5.9694 Y20.6204 
G01 X5.9298 Y20.4214 
G01 X5.9298 Y20.2186 
G01 X5.9694 Y20.0196 
G01 X6.0470 Y19.8322 
G01 X6.1597 Y19.6635 
G01 X6.3031 Y19.5201 
G01 X6.4718 Y19.4074 
G01 X6.6592 Y19.3298 
G01 X6.8582 Y19.2902 
G00 Z2.5400 
G00 X6.8582 Y21.8302 
G01 Z-0.1500 F254.00 
G01 X8.3818 Y21.8302 F508.00 
G01 X8.5808 Y21.8698 
G01 X8.7682 Y21.9474 
G01 X8.9369 Y22.0601 
G01 X9.0803 Y22.2035 
G01 X9.1930 Y22.3722 
G01 X9.2706 Y22.5596 
G01 X9.3102 Y22.7586 
G01 X9.3102 Y22.9614 
G01 X9.2706 Y23.1604 
G01 X9.2353 Y23.2457 
G01 X11.8306 Y25.8411 
G01 X11.8306 Y13.0601 
G01 X9.2590 Y10.4885 
G01 X9.1930 Y10.6478 
G01 X9.0803 Y10.8165 
G01 X8.9369 Y10.9599 
G01 X8.7682 Y11.0726 
G01 X8.5808 Y11.1502 
G01 X8.3818 Y11.1898 
G01 X6.8582 Y11.1898 
G01 X6.6592 Y11.1502 
G01 X6.4718 Y11.0726 
G01 X6.3031 Y10.9599 
G01 X6.1597 Y10.8165 
G01 X6.0470 Y10.6478 
G01 X5.9694 Y10.4604 
G01 X5.9298 Y10.2614 
G01 X5.9298 Y10.0586 
G01 X5.9694 Y9.8596 
G01 X6.0470 Y9.6722 
G01 X6.1597 Y9.5035 
G01 X6.3031 Y9.3601 
G01 X6.4718 Y9.2474 
G01 X6.6592 Y9.1698 
G01 X6.8582 Y9.1302 
G01 X7.4203 Y9.1302 
G01 X8.2147 Y8.3358 
G01 X8.3358 Y8.2147 
G01 X13.1405 Y3.4100 
G01 X13.1444 Y3.4032 
G01 X13.2132 Y3.3344 
G01 X13.2200 Y3.3305 
G01 X13.3258 Y3.2247 
G01 X13.3538 Y3.1907 
G01 X13.3862 Y3.1643 
G01 X13.4158 Y3.1347 
G01 X13.4524 Y3.1102 
G01 X13.4865 Y3.0824 
G01 X13.5234 Y3.0628 
G01 X13.5582 Y3.0395 
G01 X13.5989 Y3.0227 
G01 X13.6377 Y3.0020 
G01 X13.6778 Y2.9900 
G01 X13.7164 Y2.9740 
G01 X13.7596 Y2.9654 
G01 X13.8017 Y2.9527 
G01 X13.8434 Y2.9488 
G01 X13.8844 Y2.9406 
G01 X13.9284 Y2.9406 
G01 X13.9722 Y2.9364 
G01 X14.0138 Y2.9406 
G01 X14.0556 Y2.9406 
G01 X14.0988 Y2.9492 
G01 X14.1426 Y2.9536 
G01 X14.1826 Y2.9659 
G01 X14.2236 Y2.9740 
G01 X14.2643 Y2.9909 
G01 X14.3064 Y3.0037 
G01 X14.3432 Y3.0236 
G01 X14.3818 Y3.0395 
G01 X14.4184 Y3.0640 
G01 X14.4572 Y3.0849 
G01 X14.4894 Y3.1115 
G01 X14.5242 Y3.1347 
G01 X14.5553 Y3.1658 
G01 X14.5893 Y3.1938 
G01 X14.6157 Y3.2262 
G01 X14.6453 Y3.2558 
G01 X14.6485 Y3.2606 
G01 X14.8886 Y3.2606 
G01 X14.9826 Y3.2858 
G01 X15.0668 Y3.3344 
G01 X15.1356 Y3.4032 
G01 X15.1842 Y3.4874 
G01 X15.2094 Y3.5814 
G01 X15.2094 Y4.6786 
G01 X15.1842 Y4.7726 
G01 X15.1356 Y4.8568 
G01 X15.0668 Y4.9256 
G01 X14.9826 Y4.9742 
G01 X14.8886 Y4.9994 
G01 X14.1816 Y4.9994 
G01 X14.1378 Y5.0036 
G01 X14.0962 Y4.9994 
G01 X14.0101 Y4.9994 
G01 X13.8489 Y5.1606 
G01 X14.0962 Y5.1606 
G01 X14.1378 Y5.1564 
G01 X14.1816 Y5.1606 
G01 X14.8886 Y5.1606 
G01 X14.9826 Y5.1858 
G01 X15.0668 Y5.2344 
G01 X15.1356 Y5.3032 
G01 X15.1842 Y5.3874 
G01 X15.2092 Y5.4806 
G01 X15.2706 Y5.4806 
G01 X15.2706 Y4.5314 
G01 X15.2958 Y4.4374 
G01 X15.3444 Y4.3532 
G01 X15.4132 Y4.2844 
G01 X15.4974 Y4.2358 
G01 X15.5914 Y4.2106 
G01 X16.1499 Y4.2106 
G01 X18.3747 Y1.9858 
G01 X18.4958 Y1.8647 
G01 X18.6382 Y1.7695 
G01 X18.7964 Y1.7040 
G01 X18.9644 Y1.6706 
G01 X26.7556 Y1.6706 
G01 X26.9236 Y1.7040 
G01 X27.0818 Y1.7695 
G01 X27.2242 Y1.8647 
G01 X27.3453 Y1.9858 
G01 X27.4405 Y2.1282 
G01 X27.5060 Y2.2864 
G01 X27.5394 Y2.4544 
G01 X27.5394 Y4.1242 
G01 X27.5826 Y4.1358 
G01 X27.6668 Y4.1844 
G01 X27.7356 Y4.2532 
G01 X27.7842 Y4.3374 
G01 X27.8094 Y4.4314 
G01 X27.8094 Y4.6666 
G01 X27.8760 Y4.8264 
G01 X27.9094 Y4.9944 
G01 X27.9094 Y5.1656 
G01 X27.8760 Y5.3336 
G01 X27.8105 Y5.4918 
G01 X27.8094 Y5.7286 
G01 X27.7842 Y5.8226 
G01 X27.7356 Y5.9068 
G01 X27.6668 Y5.9756 
G01 X27.5826 Y6.0242 
G01 X27.5394 Y6.0358 
G01 X27.5394 Y11.8306 
G01 X28.4255 Y11.8306 
G01 X28.7256 Y11.5305 
G01 X29.6944 Y11.5305 
G01 X30.3795 Y12.2156 
G01 X30.3795 Y13.1844 
G01 X29.6944 Y13.8695 
G01 X28.7256 Y13.8695 
G01 X28.4255 Y13.5694 
G01 X27.4545 Y13.5694 
G01 X27.1544 Y13.8695 
G01 X26.1856 Y13.8695 
G01 X25.5005 Y13.1844 
G01 X25.5005 Y12.2156 
G01 X25.8006 Y11.9155 
G01 X25.8006 Y3.4094 
G01 X19.4101 Y3.4094 
G01 X17.4094 Y5.4101 
G01 X17.4094 Y5.6286 
G01 X17.3842 Y5.7226 
G01 X17.3356 Y5.8068 
G01 X17.2668 Y5.8756 
G01 X17.2534 Y5.8833 
G01 X17.2875 Y5.9344 
G01 X17.3537 Y6.0941 
G01 X17.3874 Y6.2636 
G01 X17.3874 Y6.4364 
G01 X17.3537 Y6.6059 
G01 X17.2875 Y6.7656 
G01 X17.1915 Y6.9093 
G01 X17.0693 Y7.0315 
G01 X16.9256 Y7.1275 
G01 X16.7659 Y7.1937 
G01 X16.5964 Y7.2274 
G01 X16.4236 Y7.2274 
G01 X16.3834 Y7.2194 
G01 X14.8394 Y7.2194 
G01 X14.8394 Y26.9842 
G01 X14.8826 Y26.9958 
G01 X14.9668 Y27.0444 
G01 X15.0356 Y27.1132 
G01 X15.0842 Y27.1974 
G01 X15.1094 Y27.2914 
G01 X15.1094 Y27.5266 
G01 X15.1760 Y27.6864 
G01 X15.2094 Y27.8544 
G01 X15.2094 Y28.0256 
G01 X15.1760 Y28.1936 
G01 X15.1105 Y28.3518 
G01 X15.1094 Y28.5886 
G01 X15.0842 Y28.6826 
G01 X15.0356 Y28.7668 
G01 X14.9668 Y28.8356 
G01 X14.8826 Y28.8842 
G01 X14.7886 Y28.9094 
G01 X13.8914 Y28.9094 
G01 X13.7974 Y28.8842 
G01 X13.7132 Y28.8356 
G01 X13.6444 Y28.7668 
G01 X13.6287 Y28.7397 
G01 X13.5694 Y28.7151 
G01 X13.5694 Y28.8499 
G01 X14.3301 Y29.6106 
G01 X15.6406 Y29.6106 
G01 X15.6406 Y28.8958 
G01 X15.5974 Y28.8842 
G01 X15.5132 Y28.8356 
G01 X15.4444 Y28.7668 
G01 X15.3958 Y28.6826 
G01 X15.3706 Y28.5886 
G01 X15.3706 Y28.3534 
G01 X15.3040 Y28.1936 
G01 X15.2706 Y28.0256 
G01 X15.2706 Y27.8544 
G01 X15.3040 Y27.6864 
G01 X15.3695 Y27.5282 
G01 X15.3706 Y27.2914 
G01 X15.3958 Y27.1974 
G01 X15.4444 Y27.1132 
G01 X15.5132 Y27.0444 
G01 X15.5974 Y26.9958 
G01 X15.6914 Y26.9706 
G01 X16.5886 Y26.9706 
G01 X16.6826 Y26.9958 
G01 X16.7668 Y27.0444 
G01 X16.7930 Y27.0706 
G01 X19.9599 Y27.0706 
G01 X20.7206 Y26.3099 
G01 X20.7206 Y20.2344 
G01 X20.7540 Y20.0664 
G01 X20.8195 Y19.9082 
G01 X20.9147 Y19.7658 
G01 X23.4547 Y17.2258 
G01 X23.5758 Y17.1047 
G01 X23.7182 Y17.0095 
G01 X23.8764 Y16.9440 
G01 X24.0444 Y16.9106 
G01 X24.5711 Y16.9106 
G01 X21.2299 Y13.5694 
G01 X19.1766 Y13.5694 
G01 X19.1364 Y13.5774 
G01 X18.9636 Y13.5774 
G01 X18.7941 Y13.5437 
G01 X18.6344 Y13.4775 
G01 X18.4907 Y13.3815 
G01 X18.3685 Y13.2593 
G01 X18.2725 Y13.1156 
G01 X18.2063 Y12.9559 
G01 X18.1726 Y12.7864 
G01 X18.1726 Y12.6136 
G01 X18.2063 Y12.4441 
G01 X18.2725 Y12.2844 
G01 X18.3685 Y12.1407 
G01 X18.4907 Y12.0185 
G01 X18.6344 Y11.9225 
G01 X18.7941 Y11.8563 
G01 X18.9636 Y11.8226 
G01 X19.1364 Y11.8226 
G01 X19.1766 Y11.8306 
G01 X20.7206 Y11.8306 
G01 X20.7206 Y6.7101 
G01 X19.7658 Y5.7553 
G01 X19.6447 Y5.6342 
G01 X19.5495 Y5.4918 
G01 X19.4840 Y5.3336 
G01 X19.4506 Y5.1656 
G01 X19.4506 Y4.9944 
G01 X19.4840 Y4.8264 
G01 X19.5495 Y4.6682 
G01 X19.6447 Y4.5258 
G01 X19.7658 Y4.4047 
G01 X19.9082 Y4.3095 
G01 X19.9787 Y4.2803 
G01 X19.9944 Y4.2532 
G01 X20.0632 Y4.1844 
G01 X20.1474 Y4.1358 
G01 X20.2414 Y4.1106 
G01 X21.1386 Y4.1106 
G01 X21.2326 Y4.1358 
G01 X21.3168 Y4.1844 
G01 X21.3856 Y4.2532 
G01 X21.4342 Y4.3374 
G01 X21.4594 Y4.4314 
G01 X21.4594 Y4.6666 
G01 X21.5260 Y4.8264 
G01 X21.5594 Y4.9944 
G01 X21.5594 Y5.0899 
G01 X21.6206 Y5.1511 
G01 X21.6206 Y4.9944 
G01 X21.6540 Y4.8264 
G01 X21.7195 Y4.6682 
G01 X21.7206 Y4.4314 
G01 X21.7458 Y4.3374 
G01 X21.7944 Y4.2532 
G01 X21.8632 Y4.1844 
G01 X21.9474 Y4.1358 
G01 X22.0414 Y4.1106 
G01 X22.9386 Y4.1106 
G01 X23.0326 Y4.1358 
G01 X23.1168 Y4.1844 
G01 X23.1856 Y4.2532 
G01 X23.2013 Y4.2803 
G01 X23.2718 Y4.3095 
G01 X23.4142 Y4.4047 
G01 X23.5353 Y4.5258 
G01 X24.6842 Y5.6747 
G01 X24.8053 Y5.7958 
G01 X24.9005 Y5.9382 
G01 X24.9660 Y6.0964 
G01 X24.9994 Y6.2644 
G01 X24.9994 Y11.9155 
G01 X25.2995 Y12.2156 
G01 X25.2995 Y13.1844 
G01 X24.6144 Y13.8695 
G01 X23.9890 Y13.8695 
G01 X25.7601 Y15.6406 
G01 X35.1999 Y15.6406 
G01 X35.9606 Y14.8799 
G01 X35.9606 Y5.9089 
G01 X32.6194 Y9.2501 
G01 X32.6194 Y11.9155 
G01 X32.9195 Y12.2156 
G01 X32.9195 Y13.1844 
G01 X32.2344 Y13.8695 
G01 X31.2656 Y13.8695 
G01 X30.5805 Y13.1844 
G01 X30.5805 Y12.2156 
G01 X30.8806 Y11.9155 
G01 X30.8806 Y8.8044 
G01 X30.9140 Y8.6364 
G01 X30.9795 Y8.4782 
G01 X31.0747 Y8.3358 
G01 X31.1958 Y8.2147 
G01 X33.3611 Y6.0494 
G01 X32.9414 Y6.0494 
G01 X32.8474 Y6.0242 
G01 X32.7632 Y5.9756 
G01 X32.7370 Y5.9494 
G01 X31.8766 Y5.9494 
G01 X31.8364 Y5.9574 
G01 X31.6636 Y5.9574 
G01 X31.4941 Y5.9237 
G01 X31.3344 Y5.8575 
G01 X31.1907 Y5.7615 
G01 X31.0685 Y5.6393 
G01 X30.9725 Y5.4956 
G01 X30.9063 Y5.3359 
G01 X30.8726 Y5.1664 
G01 X30.8726 Y4.9936 
G01 X30.9063 Y4.8241 
G01 X30.9725 Y4.6644 
G01 X31.0685 Y4.5207 
G01 X31.1907 Y4.3985 
G01 X31.3344 Y4.3025 
G01 X31.4941 Y4.2363 
G01 X31.6636 Y4.2026 
G01 X31.8364 Y4.2026 
G01 X31.8766 Y4.2106 
G01 X32.7370 Y4.2106 
G01 X32.7632 Y4.1844 
G01 X32.8474 Y4.1358 
G01 X32.9414 Y4.1106 
G01 X33.8386 Y4.1106 
G01 X33.9326 Y4.1358 
G01 X34.0168 Y4.1844 
G01 X34.0856 Y4.2532 
G01 X34.1342 Y4.3374 
G01 X34.1594 Y4.4314 
G01 X34.1594 Y4.6666 
G01 X34.2260 Y4.8264 
G01 X34.2594 Y4.9944 
G01 X34.2594 Y5.1511 
G01 X34.3206 Y5.0899 
G01 X34.3206 Y4.9944 
G01 X34.3540 Y4.8264 
G01 X34.4195 Y4.6682 
G01 X34.4206 Y4.4314 
G01 X34.4458 Y4.3374 
G01 X34.4944 Y4.2532 
G01 X34.5632 Y4.1844 
G01 X34.6474 Y4.1358 
G01 X34.7414 Y4.1106 
G01 X35.6386 Y4.1106 
G01 X35.7326 Y4.1358 
G01 X35.8168 Y4.1844 
G01 X35.8856 Y4.2532 
G01 X35.9013 Y4.2803 
G01 X35.9606 Y4.3049 
G01 X35.9606 Y3.4094 
G01 X32.1101 Y3.4094 
G01 X29.8853 Y5.6342 
G01 X29.7642 Y5.7553 
G01 X29.6218 Y5.8505 
G01 X29.5513 Y5.8797 
G01 X29.5356 Y5.9068 
G01 X29.4668 Y5.9756 
G01 X29.3826 Y6.0242 
G01 X29.2886 Y6.0494 
G01 X28.3914 Y6.0494 
G01 X28.2974 Y6.0242 
G01 X28.2132 Y5.9756 
G01 X28.1444 Y5.9068 
G01 X28.0958 Y5.8226 
G01 X28.0706 Y5.7286 
G01 X28.0706 Y5.4934 
G01 X28.0040 Y5.3336 
G01 X27.9706 Y5.1656 
G01 X27.9706 Y4.9944 
G01 X28.0040 Y4.8264 
G01 X28.0695 Y4.6682 
G01 X28.0706 Y4.4314 
G01 X28.0958 Y4.3374 
G01 X28.1444 Y4.2532 
G01 X28.2132 Y4.1844 
G01 X28.2974 Y4.1358 
G01 X28.3914 Y4.1106 
G01 X28.9499 Y4.1106 
G01 X31.0747 Y1.9858 
G01 X31.1958 Y1.8647 
G01 X31.3382 Y1.7695 
G01 X31.4964 Y1.7040 
G01 X31.6644 Y1.6706 
G01 X36.9156 Y1.6706 
G01 X37.0836 Y1.7040 
G01 X37.2418 Y1.7695 
G01 X37.3842 Y1.8647 
G01 X37.5053 Y1.9858 
G01 X37.6005 Y2.1282 
G01 X37.6660 Y2.2864 
G01 X37.6994 Y2.4544 
G01 X37.6994 Y15.3256 
G01 X37.6660 Y15.4936 
G01 X37.6005 Y15.6518 
G01 X37.5053 Y15.7942 
G01 X36.4294 Y16.8701 
G01 X36.4294 Y28.0256 
G01 X36.3960 Y28.1936 
G01 X36.3304 Y28.3518 
G01 X36.2353 Y28.4942 
G01 X36.1142 Y28.6153 
G01 X35.9718 Y28.7105 
G01 X35.9013 Y28.7397 
G01 X35.8856 Y28.7668 
G01 X35.8168 Y28.8356 
G01 X35.7326 Y28.8842 
G01 X35.6386 Y28.9094 
G01 X34.7414 Y28.9094 
G01 X34.6474 Y28.8842 
G01 X34.5632 Y28.8356 
G01 X34.4944 Y28.7668 
G01 X34.4458 Y28.6826 
G01 X34.4206 Y28.5886 
G01 X34.4206 Y28.3534 
G01 X34.3540 Y28.1936 
G01 X34.3206 Y28.0256 
G01 X34.3206 Y27.8544 
G01 X34.3540 Y27.6864 
G01 X34.4195 Y27.5282 
G01 X34.4206 Y27.2914 
G01 X34.4458 Y27.1974 
G01 X34.4944 Y27.1132 
G01 X34.5632 Y27.0444 
G01 X34.6474 Y26.9958 
G01 X34.6906 Y26.9842 
G01 X34.6906 Y17.3794 
G01 X32.5251 Y17.3794 
G01 X32.5860 Y17.5264 
G01 X32.6194 Y17.6944 
G01 X32.6194 Y19.5355 
G01 X32.9195 Y19.8356 
G01 X32.9195 Y20.8044 
G01 X32.2344 Y21.4895 
G01 X31.2656 Y21.4895 
G01 X30.5805 Y20.8044 
G01 X30.5805 Y19.8356 
G01 X30.8806 Y19.5355 
G01 X30.8806 Y18.6494 
G01 X24.4901 Y18.6494 
G01 X23.9890 Y19.1505 
G01 X24.6144 Y19.1505 
G01 X25.2995 Y19.8356 
G01 X25.2995 Y20.8044 
G01 X24.6144 Y21.4895 
G01 X23.6456 Y21.4895 
G01 X22.9605 Y20.8044 
G01 X22.9605 Y20.1790 
G01 X22.4594 Y20.6801 
G01 X22.4594 Y26.7556 
G01 X22.4260 Y26.9236 
G01 X22.4065 Y26.9706 
G01 X22.9386 Y26.9706 
G01 X23.0326 Y26.9958 
G01 X23.1168 Y27.0444 
G01 X23.1430 Y27.0706 
G01 X25.8006 Y27.0706 
G01 X25.8006 Y21.1045 
G01 X25.5005 Y20.8044 
G01 X25.5005 Y19.8356 
G01 X26.1856 Y19.1505 
G01 X27.1544 Y19.1505 
G01 X27.8395 Y19.8356 
G01 X27.8395 Y20.8044 
G01 X27.5394 Y21.1045 
G01 X27.5394 Y26.9842 
G01 X27.5826 Y26.9958 
G01 X27.6668 Y27.0444 
G01 X27.7356 Y27.1132 
G01 X27.7842 Y27.1974 
G01 X27.8094 Y27.2914 
G01 X27.8094 Y27.5266 
G01 X27.8760 Y27.6864 
G01 X27.9094 Y27.8544 
G01 X27.9094 Y28.0256 
G01 X27.8760 Y28.1936 
G01 X27.8105 Y28.3518 
G01 X27.8094 Y28.5886 
G01 X27.7842 Y28.6826 
G01 X27.7356 Y28.7668 
G01 X27.6668 Y28.8356 
G01 X27.5826 Y28.8842 
G01 X27.4886 Y28.9094 
G01 X26.5914 Y28.9094 
G01 X26.4974 Y28.8842 
G01 X26.4132 Y28.8356 
G01 X26.3870 Y28.8094 
G01 X23.7294 Y28.8094 
G01 X23.7294 Y31.8356 
G01 X23.6960 Y32.0036 
G01 X23.6304 Y32.1618 
G01 X23.5353 Y32.3042 
G01 X23.4142 Y32.4253 
G01 X23.2718 Y32.5205 
G01 X23.1136 Y32.5860 
G01 X22.9456 Y32.6194 
G01 X12.6144 Y32.6194 
G01 X12.4464 Y32.5860 
G01 X12.2882 Y32.5205 
G01 X12.1458 Y32.4253 
G01 X12.0247 Y32.3042 
G01 X10.7547 Y31.0342 
G01 X10.6595 Y30.8918 
G01 X10.5940 Y30.7336 
G01 X10.5606 Y30.5656 
G01 X10.5606 Y27.0301 
G01 X7.4203 Y23.8898 
G01 X6.8582 Y23.8898 
G01 X6.6592 Y23.8502 
G01 X6.4718 Y23.7726 
G01 X6.3031 Y23.6599 
G01 X6.1597 Y23.5165 
G01 X6.0470 Y23.3478 
G01 X5.9694 Y23.1604 
G01 X5.9298 Y22.9614 
G01 X5.9298 Y22.7586 
G01 X5.9694 Y22.5596 
G01 X6.0470 Y22.3722 
G01 X6.1597 Y22.2035 
G01 X6.3031 Y22.0601 
G01 X6.4718 Y21.9474 
G01 X6.6592 Y21.8698 
G01 X6.8582 Y21.8302 
G00 Z2.5400 
G00 X25.4000 Y20.8835 
G01 Z-0.1500 F254.00 
G01 X24.6670 Y21.6165 F508.00 
G01 X23.5930 Y21.6165 
G01 X22.8335 Y20.8570 
G01 X22.8335 Y20.4856 
G01 X22.5864 Y20.7327 
G01 X22.5864 Y26.7681 
G01 X22.5714 Y26.8436 
G01 X22.9554 Y26.8436 
G01 X23.0816 Y26.8774 
G01 X23.1948 Y26.9428 
G01 X25.6736 Y26.9436 
G01 X25.6736 Y21.1571 
G01 X25.4000 Y20.8835 
G00 Z2.5400 
G00 X21.7852 Y28.9372 
G01 Z-0.1500 F254.00 
G01 X21.6928 Y28.8448 F508.00 
G01 X21.6274 Y28.7316 
G01 X21.5936 Y28.6054 
G01 X21.5936 Y28.3796 
G01 X21.5900 Y28.3709 
G01 X21.5864 Y28.3796 
G01 X21.5864 Y28.6054 
G01 X21.5526 Y28.7316 
G01 X21.4872 Y28.8448 
G01 X21.3948 Y28.9372 
G01 X21.2816 Y29.0026 
G01 X21.1554 Y29.0364 
G01 X20.2246 Y29.0364 
G01 X20.0984 Y29.0026 
G01 X19.9852 Y28.9372 
G01 X17.5064 Y28.9364 
G01 X17.5064 Y30.5781 
G01 X17.4715 Y30.7536 
G01 X21.8636 Y30.7536 
G01 X21.8636 Y28.9825 
G01 X21.7852 Y28.9372 
G00 Z2.5400 
G00 X27.9400 Y20.8835 
G01 Z-0.1500 F254.00 
G01 X27.6664 Y21.1571 F508.00 
G01 X27.6664 Y26.8975 
G01 X27.7448 Y26.9428 
G01 X27.8372 Y27.0352 
G01 X27.9026 Y27.1484 
G01 X27.9364 Y27.2746 
G01 X27.9364 Y27.5004 
G01 X27.9400 Y27.5091 
G01 X27.9436 Y27.5004 
G01 X27.9436 Y27.2746 
G01 X27.9774 Y27.1484 
G01 X28.0428 Y27.0352 
G01 X28.1352 Y26.9428 
G01 X28.2136 Y26.8975 
G01 X28.2136 Y21.1571 
G01 X27.9400 Y20.8835 
G00 Z2.5400 
G00 X32.6852 Y26.9428 
G01 Z-0.1500 F254.00 
G01 X32.7984 Y26.8774 F508.00 
G01 X32.9246 Y26.8436 
G01 X33.8554 Y26.8436 
G01 X33.9816 Y26.8774 
G01 X34.0948 Y26.9428 
G01 X34.1872 Y27.0352 
G01 X34.2526 Y27.1484 
G01 X34.2864 Y27.2746 
G01 X34.2864 Y27.5004 
G01 X34.2900 Y27.5091 
G01 X34.2936 Y27.5004 
G01 X34.2936 Y27.2746 
G01 X34.3274 Y27.1484 
G01 X34.3928 Y27.0352 
G01 X34.4852 Y26.9428 
G01 X34.5636 Y26.8975 
G01 X34.5636 Y17.5064 
G01 X32.7115 Y17.5064 
G01 X32.7464 Y17.6819 
G01 X32.7464 Y19.4829 
G01 X33.0465 Y19.7830 
G01 X33.0465 Y20.8570 
G01 X32.2870 Y21.6165 
G01 X31.2130 Y21.6165 
G01 X30.4800 Y20.8835 
G01 X30.2064 Y21.1571 
G01 X30.2064 Y26.9436 
G01 X32.6844 Y26.9436 
G00 Z2.5400 
G00 X15.2364 Y28.6054 
G01 Z-0.1500 F254.00 
G01 X15.2026 Y28.7316 F508.00 
G01 X15.1372 Y28.8448 
G01 X15.0448 Y28.9372 
G01 X14.9316 Y29.0026 
G01 X14.8054 Y29.0364 
G01 X13.9355 Y29.0364 
G01 X14.3827 Y29.4836 
G01 X15.5136 Y29.4836 
G01 X15.5136 Y28.9825 
G01 X15.4352 Y28.9372 
G01 X15.3428 Y28.8448 
G01 X15.2774 Y28.7316 
G01 X15.2436 Y28.6054 
G01 X15.2436 Y28.3796 
G01 X15.2400 Y28.3709 
G01 X15.2364 Y28.3796 
G01 X15.2364 Y28.6054 
G00 Z2.5400 
G00 X12.9436 Y6.5954 
G01 Z-0.1500 F254.00 
G01 X12.9436 Y6.2455 F508.00 
G01 X10.2991 Y8.8900 
G01 X12.9736 Y11.5645 
G01 X12.9736 Y6.7073 
G01 X12.9436 Y6.5954 
G00 Z2.5400 
G00 X19.4627 Y3.5364 
G01 Z-0.1500 F254.00 
G01 X17.5364 Y5.4627 F508.00 
G01 X17.5364 Y5.6454 
G01 X17.5026 Y5.7716 
G01 X17.4372 Y5.8848 
G01 X17.4140 Y5.9080 
G01 X17.4758 Y6.0570 
G01 X17.5144 Y6.2511 
G01 X17.5144 Y6.4489 
G01 X17.4758 Y6.6430 
G01 X17.4001 Y6.8258 
G01 X17.2902 Y6.9903 
G01 X17.1503 Y7.1302 
G01 X16.9858 Y7.2401 
G01 X16.8030 Y7.3158 
G01 X16.6089 Y7.3544 
G01 X16.4111 Y7.3544 
G01 X16.3709 Y7.3464 
G01 X14.9664 Y7.3464 
G01 X14.9664 Y26.8975 
G01 X15.0448 Y26.9428 
G01 X15.1372 Y27.0352 
G01 X15.2026 Y27.1484 
G01 X15.2364 Y27.2746 
G01 X15.2364 Y27.5004 
G01 X15.2400 Y27.5091 
G01 X15.2436 Y27.5004 
G01 X15.2436 Y27.2746 
G01 X15.2774 Y27.1484 
G01 X15.3428 Y27.0352 
G01 X15.4352 Y26.9428 
G01 X15.5484 Y26.8774 
G01 X15.6746 Y26.8436 
G01 X16.6054 Y26.8436 
G01 X16.7316 Y26.8774 
G01 X16.8448 Y26.9428 
G01 X19.9073 Y26.9436 
G01 X20.5936 Y26.2573 
G01 X20.5936 Y20.2219 
G01 X20.6319 Y20.0294 
G01 X20.7070 Y19.8480 
G01 X20.8160 Y19.6848 
G01 X23.3560 Y17.1448 
G01 X23.4948 Y17.0060 
G01 X23.6580 Y16.8970 
G01 X23.8394 Y16.8219 
G01 X24.0319 Y16.7836 
G01 X24.2645 Y16.7836 
G01 X21.1773 Y13.6964 
G01 X19.1891 Y13.6964 
G01 X19.1489 Y13.7044 
G01 X18.9511 Y13.7044 
G01 X18.7570 Y13.6658 
G01 X18.5742 Y13.5901 
G01 X18.4097 Y13.4802 
G01 X18.2698 Y13.3403 
G01 X18.1599 Y13.1758 
G01 X18.0842 Y12.9930 
G01 X18.0456 Y12.7989 
G01 X18.0456 Y12.6011 
G01 X18.0842 Y12.4070 
G01 X18.1599 Y12.2242 
G01 X18.2698 Y12.0597 
G01 X18.4097 Y11.9198 
G01 X18.5742 Y11.8099 
G01 X18.7570 Y11.7342 
G01 X18.9511 Y11.6956 
G01 X19.1489 Y11.6956 
G01 X19.1891 Y11.7036 
G01 X20.5936 Y11.7036 
G01 X20.5936 Y6.7627 
G01 X19.6848 Y5.8540 
G01 X19.5460 Y5.7152 
G01 X19.4370 Y5.5520 
G01 X19.3619 Y5.3706 
G01 X19.3236 Y5.1781 
G01 X19.3236 Y4.9819 
G01 X19.3619 Y4.7894 
G01 X19.4370 Y4.6080 
G01 X19.5460 Y4.4448 
G01 X19.6848 Y4.3060 
G01 X19.8480 Y4.1970 
G01 X19.8903 Y4.1795 
G01 X19.8928 Y4.1752 
G01 X19.9852 Y4.0828 
G01 X20.0984 Y4.0174 
G01 X20.2246 Y3.9836 
G01 X21.1554 Y3.9836 
G01 X21.2816 Y4.0174 
G01 X21.3948 Y4.0828 
G01 X21.4872 Y4.1752 
G01 X21.5526 Y4.2884 
G01 X21.5864 Y4.4146 
G01 X21.5864 Y4.6404 
G01 X21.5900 Y4.6491 
G01 X21.5936 Y4.6404 
G01 X21.5936 Y4.4146 
G01 X21.6274 Y4.2884 
G01 X21.6928 Y4.1752 
G01 X21.7852 Y4.0828 
G01 X21.8984 Y4.0174 
G01 X22.0246 Y3.9836 
G01 X22.9554 Y3.9836 
G01 X23.0816 Y4.0174 
G01 X23.1948 Y4.0828 
G01 X23.2872 Y4.1752 
G01 X23.2897 Y4.1795 
G01 X23.3320 Y4.1970 
G01 X23.4952 Y4.3060 
G01 X23.6340 Y4.4448 
G01 X24.7652 Y5.5760 
G01 X24.9040 Y5.7148 
G01 X25.0130 Y5.8780 
G01 X25.0881 Y6.0594 
G01 X25.1264 Y6.2519 
G01 X25.1264 Y11.8629 
G01 X25.4000 Y12.1365 
G01 X25.6736 Y11.8629 
G01 X25.6736 Y3.5364 
G01 X19.4627 Y3.5364 
G00 Z2.5400 
G00 X22.5774 Y6.2065 
G01 Z-0.1500 F254.00 
G01 X22.5864 Y6.2519 F508.00 
G01 X22.5864 Y12.2873 
G01 X22.8335 Y12.5344 
G01 X22.8335 Y12.1630 
G01 X23.1336 Y11.8629 
G01 X23.1336 Y6.7627 
G01 X22.5774 Y6.2065 
G00 Z2.5400 
G00 X32.6852 Y4.0828 
G01 Z-0.1500 F254.00 
G01 X32.7984 Y4.0174 F508.00 
G01 X32.9246 Y3.9836 
G01 X33.8554 Y3.9836 
G01 X33.9816 Y4.0174 
G01 X34.0948 Y4.0828 
G01 X34.1872 Y4.1752 
G01 X34.2526 Y4.2884 
G01 X34.2864 Y4.4146 
G01 X34.2864 Y4.6404 
G01 X34.2900 Y4.6491 
G01 X34.2936 Y4.6404 
G01 X34.2936 Y4.4146 
G01 X34.3274 Y4.2884 
G01 X34.3928 Y4.1752 
G01 X34.4852 Y4.0828 
G01 X34.5984 Y4.0174 
G01 X34.7246 Y3.9836 
G01 X35.6554 Y3.9836 
G01 X35.7816 Y4.0174 
G01 X35.8336 Y4.0475 
G01 X35.8336 Y3.5364 
G01 X32.1627 Y3.5364 
G01 X31.6167 Y4.0824 
G01 X31.6511 Y4.0756 
G01 X31.8489 Y4.0756 
G01 X31.8891 Y4.0836 
G01 X32.6844 Y4.0836 
G00 Z2.5400 
G00 X33.0465 Y12.1630 
G01 Z-0.1500 F254.00 
G01 X33.0465 Y13.2370 F508.00 
G01 X32.2870 Y13.9965 
G01 X31.2130 Y13.9965 
G01 X30.4800 Y13.2635 
G01 X29.7470 Y13.9965 
G01 X28.6730 Y13.9965 
G01 X28.3729 Y13.6964 
G01 X27.5071 Y13.6964 
G01 X27.2070 Y13.9965 
G01 X26.1330 Y13.9965 
G01 X25.4000 Y13.2635 
G01 X24.6670 Y13.9965 
G01 X24.2956 Y13.9965 
G01 X25.8127 Y15.5136 
G01 X35.1473 Y15.5136 
G01 X35.8336 Y14.8273 
G01 X35.8336 Y6.2155 
G01 X32.7464 Y9.3027 
G01 X32.7464 Y11.8629 
G01 X33.0465 Y12.1630 
G00 Z2.5400 
G00 X28.6730 Y11.4035 
G01 Z-0.1500 F254.00 
G01 X29.7470 Y11.4035 F508.00 
G01 X30.4800 Y12.1365 
G01 X30.7536 Y11.8629 
G01 X30.7536 Y8.7919 
G01 X30.7919 Y8.5994 
G01 X30.8670 Y8.4180 
G01 X30.9760 Y8.2548 
G01 X31.1148 Y8.1160 
G01 X33.0545 Y6.1764 
G01 X32.9246 Y6.1764 
G01 X32.7984 Y6.1426 
G01 X32.6852 Y6.0772 
G01 X31.8891 Y6.0764 
G01 X31.8489 Y6.0844 
G01 X31.6511 Y6.0844 
G01 X31.4570 Y6.0458 
G01 X31.2742 Y5.9701 
G01 X31.1097 Y5.8602 
G01 X30.9698 Y5.7203 
G01 X30.8599 Y5.5558 
G01 X30.7842 Y5.3730 
G01 X30.7456 Y5.1789 
G01 X30.7456 Y4.9811 
G01 X30.7524 Y4.9467 
G01 X29.9840 Y5.7152 
G01 X29.8452 Y5.8540 
G01 X29.6820 Y5.9630 
G01 X29.6397 Y5.9805 
G01 X29.6372 Y5.9848 
G01 X29.5448 Y6.0772 
G01 X29.4316 Y6.1426 
G01 X29.3054 Y6.1764 
G01 X28.3746 Y6.1764 
G01 X28.2484 Y6.1426 
G01 X28.1352 Y6.0772 
G01 X28.0428 Y5.9848 
G01 X27.9774 Y5.8716 
G01 X27.9436 Y5.7454 
G01 X27.9436 Y5.5196 
G01 X27.9400 Y5.5109 
G01 X27.9364 Y5.5196 
G01 X27.9364 Y5.7454 
G01 X27.9026 Y5.8716 
G01 X27.8372 Y5.9848 
G01 X27.7448 Y6.0772 
G01 X27.6664 Y6.1225 
G01 X27.6664 Y11.7036 
G01 X28.3729 Y11.7036 
G01 X28.6730 Y11.4035 
G00 Z2.5400 
G00 X24.5427 Y18.7764 
G01 Z-0.1500 F254.00 
G01 X24.2956 Y19.0235 F508.00 
G01 X24.6670 Y19.0235 
G01 X25.4000 Y19.7565 
G01 X26.1330 Y19.0235 
G01 X27.2070 Y19.0235 
G01 X27.9400 Y19.7565 
G01 X28.6730 Y19.0235 
G01 X29.7470 Y19.0235 
G01 X30.4800 Y19.7565 
G01 X30.7536 Y19.4829 
G01 X30.7536 Y18.7764 
G01 X24.5427 Y18.7764 
G00 Z2.5400 
G00 X15.1436 Y5.0279 
G01 Z-0.1500 F254.00 
G01 X15.0534 Y5.0800 F508.00 
G01 X15.1436 Y5.1321 
G01 X15.1436 Y5.0279 
G00 Z2.5400 
G00 X29.5448 Y28.9372 
G01 Z-0.1500 F254.00 
G01 X29.4316 Y29.0026 F508.00 
G01 X29.3054 Y29.0364 
G01 X28.3746 Y29.0364 
G01 X28.2484 Y29.0026 
G01 X28.1352 Y28.9372 
G01 X28.0428 Y28.8448 
G01 X27.9774 Y28.7316 
G01 X27.9436 Y28.6054 
G01 X27.9436 Y28.3796 
G01 X27.9400 Y28.3709 
G01 X27.9364 Y28.3796 
G01 X27.9364 Y28.6054 
G01 X27.9026 Y28.7316 
G01 X27.8372 Y28.8448 
G01 X27.7448 Y28.9372 
G01 X27.6316 Y29.0026 
G01 X27.5054 Y29.0364 
G01 X26.5746 Y29.0364 
G01 X26.4484 Y29.0026 
G01 X26.3352 Y28.9372 
G01 X23.8564 Y28.9364 
G01 X23.8564 Y31.8481 
G01 X23.8181 Y32.0406 
G01 X23.7430 Y32.2220 
G01 X23.6340 Y32.3852 
G01 X23.4952 Y32.5240 
G01 X23.3320 Y32.6330 
G01 X23.1506 Y32.7081 
G01 X22.9581 Y32.7464 
G01 X12.6019 Y32.7464 
G01 X12.4094 Y32.7081 
G01 X12.2280 Y32.6330 
G01 X12.0648 Y32.5240 
G01 X11.9260 Y32.3852 
G01 X10.6560 Y31.1152 
G01 X10.5470 Y30.9520 
G01 X10.4719 Y30.7706 
G01 X10.4336 Y30.5781 
G01 X10.4336 Y27.0827 
G01 X7.3677 Y24.0168 
G01 X6.8686 Y24.0168 
G01 X6.6887 Y23.9883 
G01 X6.5155 Y23.9320 
G01 X6.3533 Y23.8494 
G01 X6.2060 Y23.7424 
G01 X6.0772 Y23.6136 
G01 X5.9702 Y23.4663 
G01 X5.8876 Y23.3041 
G01 X5.8313 Y23.1309 
G01 X5.8028 Y22.9510 
G01 X5.8028 Y22.7690 
G01 X5.8313 Y22.5891 
G01 X5.8876 Y22.4159 
G01 X5.9702 Y22.2537 
G01 X6.0772 Y22.1064 
G01 X6.2060 Y21.9776 
G01 X6.3533 Y21.8706 
G01 X6.5155 Y21.7880 
G01 X6.6887 Y21.7317 
G01 X6.8686 Y21.7032 
G01 X8.3714 Y21.7032 
G01 X8.5513 Y21.7317 
G01 X8.7245 Y21.7880 
G01 X8.8867 Y21.8706 
G01 X9.0340 Y21.9776 
G01 X9.1628 Y22.1064 
G01 X9.2698 Y22.2537 
G01 X9.3524 Y22.4159 
G01 X9.4087 Y22.5891 
G01 X9.4372 Y22.7690 
G01 X9.4372 Y22.9510 
G01 X9.4087 Y23.1309 
G01 X9.3821 Y23.2129 
G01 X11.7036 Y25.5345 
G01 X11.7036 Y13.1127 
G01 X9.2993 Y10.7084 
G01 X9.2698 Y10.7663 
G01 X9.1628 Y10.9136 
G01 X9.0340 Y11.0424 
G01 X8.8867 Y11.1494 
G01 X8.7245 Y11.2320 
G01 X8.5513 Y11.2883 
G01 X8.3714 Y11.3168 
G01 X6.8686 Y11.3168 
G01 X6.6887 Y11.2883 
G01 X6.5155 Y11.2320 
G01 X6.3533 Y11.1494 
G01 X6.2060 Y11.0424 
G01 X6.0772 Y10.9136 
G01 X5.9702 Y10.7663 
G01 X5.8876 Y10.6041 
G01 X5.8313 Y10.4309 
G01 X5.8028 Y10.2510 
G01 X5.8028 Y10.0690 
G01 X5.8313 Y9.8891 
G01 X5.8876 Y9.7159 
G01 X5.9702 Y9.5537 
G01 X6.0772 Y9.4064 
G01 X6.2060 Y9.2776 
G01 X6.3533 Y9.1706 
G01 X6.5155 Y9.0880 
G01 X6.6887 Y9.0317 
G01 X6.8686 Y9.0032 
G01 X7.3677 Y9.0032 
G01 X8.1160 Y8.2548 
G01 X8.2548 Y8.1160 
G01 X13.0388 Y3.3320 
G01 X13.0428 Y3.3252 
G01 X13.1352 Y3.2328 
G01 X13.1420 Y3.2288 
G01 X13.2317 Y3.1392 
G01 X13.2638 Y3.1002 
G01 X13.3009 Y3.0699 
G01 X13.3348 Y3.0360 
G01 X13.3768 Y3.0080 
G01 X13.4159 Y2.9761 
G01 X13.4582 Y2.9536 
G01 X13.4980 Y2.9270 
G01 X13.5446 Y2.9077 
G01 X13.5892 Y2.8840 
G01 X13.6351 Y2.8702 
G01 X13.6794 Y2.8519 
G01 X13.7289 Y2.8420 
G01 X13.7772 Y2.8275 
G01 X13.8249 Y2.8230 
G01 X13.8719 Y2.8136 
G01 X13.9223 Y2.8136 
G01 X13.9725 Y2.8088 
G01 X14.0202 Y2.8136 
G01 X14.0681 Y2.8136 
G01 X14.1176 Y2.8234 
G01 X14.1678 Y2.8285 
G01 X14.2136 Y2.8425 
G01 X14.2606 Y2.8519 
G01 X14.3073 Y2.8712 
G01 X14.3555 Y2.8860 
G01 X14.3977 Y2.9087 
G01 X14.4420 Y2.9270 
G01 X14.4839 Y2.9550 
G01 X14.5284 Y2.9789 
G01 X14.5653 Y3.0094 
G01 X14.6052 Y3.0360 
G01 X14.6408 Y3.0717 
G01 X14.6798 Y3.1038 
G01 X14.7041 Y3.1336 
G01 X14.9054 Y3.1336 
G01 X15.0316 Y3.1674 
G01 X15.1448 Y3.2328 
G01 X15.2372 Y3.3252 
G01 X15.3026 Y3.4384 
G01 X15.3364 Y3.5646 
G01 X15.3364 Y4.1821 
G01 X15.4484 Y4.1174 
G01 X15.5746 Y4.0836 
G01 X16.0973 Y4.0836 
G01 X18.2760 Y1.9048 
G01 X18.4148 Y1.7660 
G01 X18.5780 Y1.6570 
G01 X18.7594 Y1.5819 
G01 X18.9519 Y1.5436 
G01 X26.7681 Y1.5436 
G01 X26.9606 Y1.5819 
G01 X27.1420 Y1.6570 
G01 X27.3052 Y1.7660 
G01 X27.4440 Y1.9048 
G01 X27.5530 Y2.0680 
G01 X27.6281 Y2.2494 
G01 X27.6664 Y2.4419 
G01 X27.6664 Y4.0375 
G01 X27.7448 Y4.0828 
G01 X27.8372 Y4.1752 
G01 X27.9026 Y4.2884 
G01 X27.9364 Y4.4146 
G01 X27.9364 Y4.6404 
G01 X27.9400 Y4.6491 
G01 X27.9436 Y4.6404 
G01 X27.9436 Y4.4146 
G01 X27.9774 Y4.2884 
G01 X28.0428 Y4.1752 
G01 X28.1352 Y4.0828 
G01 X28.2484 Y4.0174 
G01 X28.3746 Y3.9836 
G01 X28.8973 Y3.9836 
G01 X30.9760 Y1.9048 
G01 X31.1148 Y1.7660 
G01 X31.2780 Y1.6570 
G01 X31.4594 Y1.5819 
G01 X31.6519 Y1.5436 
G01 X36.9281 Y1.5436 
G01 X37.1206 Y1.5819 
G01 X37.3020 Y1.6570 
G01 X37.4652 Y1.7660 
G01 X37.6040 Y1.9048 
G01 X37.7130 Y2.0680 
G01 X37.7881 Y2.2494 
G01 X37.8264 Y2.4419 
G01 X37.8264 Y15.3381 
G01 X37.7881 Y15.5306 
G01 X37.7130 Y15.7120 
G01 X37.6040 Y15.8752 
G01 X36.5564 Y16.9227 
G01 X36.5564 Y28.0381 
G01 X36.5181 Y28.2306 
G01 X36.4430 Y28.4120 
G01 X36.3340 Y28.5752 
G01 X36.1952 Y28.7140 
G01 X36.0320 Y28.8230 
G01 X35.9897 Y28.8405 
G01 X35.9872 Y28.8448 
G01 X35.8948 Y28.9372 
G01 X35.7816 Y29.0026 
G01 X35.6554 Y29.0364 
G01 X34.7246 Y29.0364 
G01 X34.5984 Y29.0026 
G01 X34.4852 Y28.9372 
G01 X34.3928 Y28.8448 
G01 X34.3274 Y28.7316 
G01 X34.2936 Y28.6054 
G01 X34.2936 Y28.3796 
G01 X34.2900 Y28.3709 
G01 X34.2864 Y28.3796 
G01 X34.2864 Y28.6054 
G01 X34.2526 Y28.7316 
G01 X34.1872 Y28.8448 
G01 X34.0948 Y28.9372 
G01 X33.9816 Y29.0026 
G01 X33.8554 Y29.0364 
G01 X32.9246 Y29.0364 
G01 X32.7984 Y29.0026 
G01 X32.6852 Y28.9372 
G01 X29.5456 Y28.9364 
G00 Z2.5400 
G00 X6.8686 Y11.5432 
G01 Z-0.1500 F254.00 
G01 X8.3714 Y11.5432 F508.00 
G01 X8.5513 Y11.5717 
G01 X8.7245 Y11.6280 
G01 X8.8867 Y11.7106 
G01 X9.0340 Y11.8176 
G01 X9.1628 Y11.9464 
G01 X9.2698 Y12.0937 
G01 X9.3524 Y12.2559 
G01 X9.4087 Y12.4291 
G01 X9.4372 Y12.6090 
G01 X9.4372 Y12.7910 
G01 X9.4087 Y12.9709 
G01 X9.3524 Y13.1441 
G01 X9.2698 Y13.3063 
G01 X9.1628 Y13.4536 
G01 X9.0340 Y13.5824 
G01 X8.8867 Y13.6894 
G01 X8.7245 Y13.7720 
G01 X8.5513 Y13.8283 
G01 X8.3714 Y13.8568 
G01 X6.8686 Y13.8568 
G01 X6.6887 Y13.8283 
G01 X6.5155 Y13.7720 
G01 X6.3533 Y13.6894 
G01 X6.2060 Y13.5824 
G01 X6.0772 Y13.4536 
G01 X5.9702 Y13.3063 
G01 X5.8876 Y13.1441 
G01 X5.8313 Y12.9709 
G01 X5.8028 Y12.7910 
G01 X5.8028 Y12.6090 
G01 X5.8313 Y12.4291 
G01 X5.8876 Y12.2559 
G01 X5.9702 Y12.0937 
G01 X6.0772 Y11.9464 
G01 X6.2060 Y11.8176 
G01 X6.3533 Y11.7106 
G01 X6.5155 Y11.6280 
G01 X6.6887 Y11.5717 
G01 X6.8686 Y11.5432 
G00 Z2.5400 
G00 X6.8686 Y14.0832 
G01 Z-0.1500 F254.00 
G01 X8.3714 Y14.0832 F508.00 
G01 X8.5513 Y14.1117 
G01 X8.7245 Y14.1680 
G01 X8.8867 Y14.2506 
G01 X9.0340 Y14.3576 
G01 X9.1628 Y14.4864 
G01 X9.2698 Y14.6337 
G01 X9.3524 Y14.7959 
G01 X9.4087 Y14.9691 
G01 X9.4372 Y15.1490 
G01 X9.4372 Y15.3310 
G01 X9.4087 Y15.5109 
G01 X9.3524 Y15.6841 
G01 X9.2698 Y15.8463 
G01 X9.1628 Y15.9936 
G01 X9.0340 Y16.1224 
G01 X8.8867 Y16.2294 
G01 X8.7245 Y16.3120 
G01 X8.5513 Y16.3683 
G01 X8.3714 Y16.3968 
G01 X6.8686 Y16.3968 
G01 X6.6887 Y16.3683 
G01 X6.5155 Y16.3120 
G01 X6.3533 Y16.2294 
G01 X6.2060 Y16.1224 
G01 X6.0772 Y15.9936 
G01 X5.9702 Y15.8463 
G01 X5.8876 Y15.6841 
G01 X5.8313 Y15.5109 
G01 X5.8028 Y15.3310 
G01 X5.8028 Y15.1490 
G01 X5.8313 Y14.9691 
G01 X5.8876 Y14.7959 
G01 X5.9702 Y14.6337 
G01 X6.0772 Y14.4864 
G01 X6.2060 Y14.3576 
G01 X6.3533 Y14.2506 
G01 X6.5155 Y14.1680 
G01 X6.6887 Y14.1117 
G01 X6.8686 Y14.0832 
G00 Z2.5400 
G00 X6.8686 Y16.6232 
G01 Z-0.1500 F254.00 
G01 X8.3714 Y16.6232 F508.00 
G01 X8.5513 Y16.6517 
G01 X8.7245 Y16.7080 
G01 X8.8867 Y16.7906 
G01 X9.0340 Y16.8976 
G01 X9.1628 Y17.0264 
G01 X9.2698 Y17.1737 
G01 X9.3524 Y17.3359 
G01 X9.4087 Y17.5091 
G01 X9.4372 Y17.6890 
G01 X9.4372 Y17.8710 
G01 X9.4087 Y18.0509 
G01 X9.3524 Y18.2241 
G01 X9.2698 Y18.3863 
G01 X9.1628 Y18.5336 
G01 X9.0340 Y18.6624 
G01 X8.8867 Y18.7694 
G01 X8.7245 Y18.8520 
G01 X8.5513 Y18.9083 
G01 X8.3714 Y18.9368 
G01 X6.8686 Y18.9368 
G01 X6.6887 Y18.9083 
G01 X6.5155 Y18.8520 
G01 X6.3533 Y18.7694 
G01 X6.2060 Y18.6624 
G01 X6.0772 Y18.5336 
G01 X5.9702 Y18.3863 
G01 X5.8876 Y18.2241 
G01 X5.8313 Y18.0509 
G01 X5.8028 Y17.8710 
G01 X5.8028 Y17.6890 
G01 X5.8313 Y17.5091 
G01 X5.8876 Y17.3359 
G01 X5.9702 Y17.1737 
G01 X6.0772 Y17.0264 
G01 X6.2060 Y16.8976 
G01 X6.3533 Y16.7906 
G01 X6.5155 Y16.7080 
G01 X6.6887 Y16.6517 
G01 X6.8686 Y16.6232 
G00 Z2.5400 
G00 X6.8686 Y19.1632 
G01 Z-0.1500 F254.00 
G01 X8.3714 Y19.1632 F508.00 
G01 X8.5513 Y19.1917 
G01 X8.7245 Y19.2479 
G01 X8.8867 Y19.3306 
G01 X9.0340 Y19.4376 
G01 X9.1628 Y19.5664 
G01 X9.2698 Y19.7137 
G01 X9.3524 Y19.8759 
G01 X9.4087 Y20.0491 
G01 X9.4372 Y20.2290 
G01 X9.4372 Y20.4110 
G01 X9.4087 Y20.5909 
G01 X9.3524 Y20.7641 
G01 X9.2698 Y20.9263 
G01 X9.1628 Y21.0736 
G01 X9.0340 Y21.2024 
G01 X8.8867 Y21.3094 
G01 X8.7245 Y21.3920 
G01 X8.5513 Y21.4483 
G01 X8.3714 Y21.4768 
G01 X6.8686 Y21.4768 
G01 X6.6887 Y21.4483 
G01 X6.5155 Y21.3920 
G01 X6.3533 Y21.3094 
G01 X6.2060 Y21.2024 
G01 X6.0772 Y21.0736 
G01 X5.9702 Y20.9263 
G01 X5.8876 Y20.7641 
G01 X5.8313 Y20.5909 
G01 X5.8028 Y20.4110 
G01 X5.8028 Y20.2290 
G01 X5.8313 Y20.0491 
G01 X5.8876 Y19.8759 
G01 X5.9702 Y19.7137 
G01 X6.0772 Y19.5664 
G01 X6.2060 Y19.4376 
G01 X6.3533 Y19.3306 
G01 X6.5155 Y19.2479 
G01 X6.6887 Y19.1917 
G01 X6.8686 Y19.1632 
G00 Z2.5400 
G00 X30.4800 Y19.5769 
G01 Z-0.1500 F254.00 
G01 X30.6266 Y19.4303 F508.00 
G01 X30.6266 Y18.9034 
G01 X29.8065 Y18.9034 
G01 X30.4800 Y19.5769 
G00 Z2.5400 
G00 X27.9400 Y19.5769 
G01 Z-0.1500 F254.00 
G01 X28.6135 Y18.9034 F508.00 
G01 X27.2665 Y18.9034 
G01 X27.9400 Y19.5769 
G00 Z2.5400 
G00 X25.4000 Y19.5769 
G01 Z-0.1500 F254.00 
G01 X26.0735 Y18.9034 F508.00 
G01 X24.7265 Y18.9034 
G01 X25.4000 Y19.5769 
G00 Z2.5400 
G00 X12.8406 Y6.7118 
G01 Z-0.1500 F254.00 
G01 X12.8166 Y6.5914 F508.00 
G01 X12.8166 Y6.5521 
G01 X10.4787 Y8.8900 
G01 X12.8466 Y11.2579 
G01 X12.8466 Y6.7264 
G01 X12.8406 Y6.7118 
G00 Z2.5400 
G00 X19.5153 Y3.6634 
G01 Z-0.1500 F254.00 
G01 X17.6634 Y5.5153 F508.00 
G01 X17.6634 Y5.6414 
G01 X17.6394 Y5.7618 
G01 X17.5924 Y5.8753 
G01 X17.5608 Y5.9227 
G01 X17.6135 Y6.0851 
G01 X17.6414 Y6.2610 
G01 X17.6414 Y6.4390 
G01 X17.6135 Y6.6149 
G01 X17.5585 Y6.7843 
G01 X17.4777 Y6.9430 
G01 X17.3730 Y7.0871 
G01 X17.2471 Y7.2130 
G01 X17.1030 Y7.3177 
G01 X16.9443 Y7.3985 
G01 X16.7749 Y7.4535 
G01 X16.5990 Y7.4814 
G01 X16.4210 Y7.4814 
G01 X16.3705 Y7.4734 
G01 X15.0934 Y7.4734 
G01 X15.0934 Y26.8264 
G01 X15.1374 Y26.8558 
G01 X15.2242 Y26.9426 
G01 X15.2400 Y26.9662 
G01 X15.2558 Y26.9426 
G01 X15.3426 Y26.8558 
G01 X15.4447 Y26.7875 
G01 X15.5582 Y26.7406 
G01 X15.6786 Y26.7166 
G01 X16.6014 Y26.7166 
G01 X16.7218 Y26.7406 
G01 X16.8353 Y26.7875 
G01 X16.8788 Y26.8166 
G01 X19.8547 Y26.8166 
G01 X20.4666 Y26.2047 
G01 X20.4666 Y20.2316 
G01 X20.4943 Y20.0569 
G01 X20.5489 Y19.8888 
G01 X20.6292 Y19.7312 
G01 X20.7331 Y19.5882 
G01 X23.2731 Y17.0482 
G01 X23.3982 Y16.9231 
G01 X23.5412 Y16.8192 
G01 X23.6988 Y16.7389 
G01 X23.8669 Y16.6843 
G01 X23.9693 Y16.6680 
G01 X21.1247 Y13.8234 
G01 X19.1896 Y13.8234 
G01 X19.1390 Y13.8314 
G01 X18.9610 Y13.8314 
G01 X18.7851 Y13.8035 
G01 X18.6157 Y13.7485 
G01 X18.4570 Y13.6677 
G01 X18.3129 Y13.5630 
G01 X18.1870 Y13.4371 
G01 X18.0823 Y13.2930 
G01 X18.0015 Y13.1343 
G01 X17.9465 Y12.9649 
G01 X17.9186 Y12.7890 
G01 X17.9186 Y12.6110 
G01 X17.9465 Y12.4351 
G01 X18.0015 Y12.2657 
G01 X18.0823 Y12.1070 
G01 X18.1870 Y11.9629 
G01 X18.3129 Y11.8370 
G01 X18.4570 Y11.7323 
G01 X18.6157 Y11.6515 
G01 X18.7851 Y11.5965 
G01 X18.9610 Y11.5686 
G01 X19.1390 Y11.5686 
G01 X19.1896 Y11.5766 
G01 X20.4666 Y11.5766 
G01 X20.4666 Y6.8153 
G01 X19.5882 Y5.9369 
G01 X19.4631 Y5.8118 
G01 X19.3592 Y5.6688 
G01 X19.2789 Y5.5112 
G01 X19.2243 Y5.3431 
G01 X19.1966 Y5.1684 
G01 X19.1966 Y4.9916 
G01 X19.2243 Y4.8169 
G01 X19.2789 Y4.6488 
G01 X19.3592 Y4.4912 
G01 X19.4631 Y4.3482 
G01 X19.5882 Y4.2231 
G01 X19.7312 Y4.1192 
G01 X19.8087 Y4.0797 
G01 X19.8926 Y3.9958 
G01 X19.9947 Y3.9276 
G01 X20.1082 Y3.8806 
G01 X20.2286 Y3.8566 
G01 X21.1514 Y3.8566 
G01 X21.2718 Y3.8806 
G01 X21.3853 Y3.9276 
G01 X21.4874 Y3.9958 
G01 X21.5742 Y4.0826 
G01 X21.5900 Y4.1062 
G01 X21.6058 Y4.0826 
G01 X21.6926 Y3.9958 
G01 X21.7947 Y3.9276 
G01 X21.9082 Y3.8806 
G01 X22.0286 Y3.8566 
G01 X22.9514 Y3.8566 
G01 X23.0718 Y3.8806 
G01 X23.1853 Y3.9276 
G01 X23.2874 Y3.9958 
G01 X23.3713 Y4.0797 
G01 X23.4488 Y4.1192 
G01 X23.5918 Y4.2231 
G01 X23.7169 Y4.3482 
G01 X24.8618 Y5.4931 
G01 X24.9869 Y5.6182 
G01 X25.0908 Y5.7612 
G01 X25.1711 Y5.9188 
G01 X25.2257 Y6.0869 
G01 X25.2534 Y6.2616 
G01 X25.2534 Y11.8103 
G01 X25.4000 Y11.9569 
G01 X25.5466 Y11.8103 
G01 X25.5466 Y3.6634 
G01 X19.5153 Y3.6634 
G00 Z2.5400 
G00 X22.7134 Y6.5221 
G01 Z-0.1500 F254.00 
G01 X22.7134 Y12.1035 F508.00 
G01 X23.0066 Y11.8103 
G01 X23.0066 Y6.8153 
G01 X22.7134 Y6.5221 
G00 Z2.5400 
G00 X27.9400 Y21.0631 
G01 Z-0.1500 F254.00 
G01 X27.7934 Y21.2097 F508.00 
G01 X27.7934 Y26.8264 
G01 X27.8374 Y26.8558 
G01 X27.9242 Y26.9426 
G01 X27.9400 Y26.9662 
G01 X27.9558 Y26.9426 
G01 X28.0426 Y26.8558 
G01 X28.0866 Y26.8264 
G01 X28.0866 Y21.2097 
G01 X27.9400 Y21.0631 
G00 Z2.5400 
G00 X32.6947 Y26.7875 
G01 Z-0.1500 F254.00 
G01 X32.8082 Y26.7406 F508.00 
G01 X32.9286 Y26.7166 
G01 X33.8514 Y26.7166 
G01 X33.9718 Y26.7406 
G01 X34.0853 Y26.7875 
G01 X34.1874 Y26.8558 
G01 X34.2742 Y26.9426 
G01 X34.2900 Y26.9662 
G01 X34.3058 Y26.9426 
G01 X34.3926 Y26.8558 
G01 X34.4366 Y26.8264 
G01 X34.4366 Y17.6334 
G01 X32.8642 Y17.6334 
G01 X32.8734 Y17.6916 
G01 X32.8734 Y19.4303 
G01 X33.1735 Y19.7304 
G01 X33.1735 Y20.9096 
G01 X32.3396 Y21.7435 
G01 X31.1604 Y21.7435 
G01 X30.4800 Y21.0631 
G01 X30.3334 Y21.2097 
G01 X30.3334 Y26.8166 
G01 X32.6512 Y26.8166 
G01 X32.6947 Y26.7875 
G00 Z2.5400 
G00 X25.4000 Y21.0631 
G01 Z-0.1500 F254.00 
G01 X24.7196 Y21.7435 F508.00 
G01 X23.5404 Y21.7435 
G01 X22.7134 Y20.9165 
G01 X22.7134 Y26.7166 
G01 X22.9514 Y26.7166 
G01 X23.0718 Y26.7406 
G01 X23.1853 Y26.7875 
G01 X23.2288 Y26.8166 
G01 X25.5466 Y26.8166 
G01 X25.5466 Y21.2097 
G01 X25.4000 Y21.0631 
G00 Z2.5400 
G00 X21.6926 Y29.0242 
G01 Z-0.1500 F254.00 
G01 X21.6058 Y28.9374 F508.00 
G01 X21.5900 Y28.9138 
G01 X21.5742 Y28.9374 
G01 X21.4874 Y29.0242 
G01 X21.3853 Y29.0924 
G01 X21.2718 Y29.1394 
G01 X21.1514 Y29.1634 
G01 X20.2286 Y29.1634 
G01 X20.1082 Y29.1394 
G01 X19.9947 Y29.0924 
G01 X19.9512 Y29.0634 
G01 X17.6334 Y29.0634 
G01 X17.6334 Y30.5684 
G01 X17.6242 Y30.6266 
G01 X21.7366 Y30.6266 
G01 X21.7366 Y29.0536 
G01 X21.6926 Y29.0242 
G00 Z2.5400 
G00 X11.5766 Y13.1653 
G01 Z-0.1500 F254.00 
G01 X9.3219 Y10.9106 F508.00 
G01 X9.2596 Y10.9963 
G01 X9.1167 Y11.1392 
G01 X8.9533 Y11.2580 
G01 X8.7732 Y11.3497 
G01 X8.5810 Y11.4122 
G01 X8.4685 Y11.4300 
G01 X8.5810 Y11.4478 
G01 X8.7732 Y11.5103 
G01 X8.9533 Y11.6020 
G01 X9.1167 Y11.7208 
G01 X9.2596 Y11.8637 
G01 X9.3784 Y12.0271 
G01 X9.4701 Y12.2072 
G01 X9.5326 Y12.3994 
G01 X9.5642 Y12.5990 
G01 X9.5642 Y12.8010 
G01 X9.5326 Y13.0006 
G01 X9.4701 Y13.1928 
G01 X9.3784 Y13.3729 
G01 X9.2596 Y13.5363 
G01 X9.1167 Y13.6792 
G01 X8.9533 Y13.7980 
G01 X8.7732 Y13.8897 
G01 X8.5810 Y13.9522 
G01 X8.4685 Y13.9700 
G01 X8.5810 Y13.9878 
G01 X8.7732 Y14.0503 
G01 X8.9533 Y14.1420 
G01 X9.1167 Y14.2608 
G01 X9.2596 Y14.4037 
G01 X9.3784 Y14.5671 
G01 X9.4701 Y14.7472 
G01 X9.5326 Y14.9394 
G01 X9.5642 Y15.1390 
G01 X9.5642 Y15.3410 
G01 X9.5326 Y15.5406 
G01 X9.4701 Y15.7328 
G01 X9.3784 Y15.9129 
G01 X9.2596 Y16.0763 
G01 X9.1167 Y16.2192 
G01 X8.9533 Y16.3380 
G01 X8.7732 Y16.4297 
G01 X8.5810 Y16.4922 
G01 X8.4685 Y16.5100 
G01 X8.5810 Y16.5278 
G01 X8.7732 Y16.5903 
G01 X8.9533 Y16.6820 
G01 X9.1167 Y16.8008 
G01 X9.2596 Y16.9437 
G01 X9.3784 Y17.1071 
G01 X9.4701 Y17.2872 
G01 X9.5326 Y17.4794 
G01 X9.5642 Y17.6790 
G01 X9.5642 Y17.8810 
G01 X9.5326 Y18.0806 
G01 X9.4701 Y18.2728 
G01 X9.3784 Y18.4529 
G01 X9.2596 Y18.6163 
G01 X9.1167 Y18.7592 
G01 X8.9533 Y18.8780 
G01 X8.7732 Y18.9697 
G01 X8.5810 Y19.0322 
G01 X8.4685 Y19.0500 
G01 X8.5810 Y19.0678 
G01 X8.7732 Y19.1303 
G01 X8.9533 Y19.2220 
G01 X9.1167 Y19.3408 
G01 X9.2596 Y19.4837 
G01 X9.3784 Y19.6471 
G01 X9.4701 Y19.8272 
G01 X9.5326 Y20.0194 
G01 X9.5642 Y20.2190 
G01 X9.5642 Y20.4210 
G01 X9.5326 Y20.6206 
G01 X9.4701 Y20.8128 
G01 X9.3784 Y20.9929 
G01 X9.2596 Y21.1563 
G01 X9.1167 Y21.2992 
G01 X8.9533 Y21.4180 
G01 X8.7732 Y21.5097 
G01 X8.5810 Y21.5722 
G01 X8.4686 Y21.5900 
G01 X8.5810 Y21.6078 
G01 X8.7732 Y21.6703 
G01 X8.9533 Y21.7620 
G01 X9.1167 Y21.8808 
G01 X9.2596 Y22.0237 
G01 X9.3784 Y22.1871 
G01 X9.4701 Y22.3672 
G01 X9.5326 Y22.5594 
G01 X9.5642 Y22.7590 
G01 X9.5642 Y22.9610 
G01 X9.5326 Y23.1606 
G01 X9.5269 Y23.1782 
G01 X11.5766 Y25.2279 
G01 X11.5766 Y13.1653 
G00 Z2.5400 
G00 X32.6947 Y3.9276 
G01 Z-0.1500 F254.00 
G01 X32.8082 Y3.8806 F508.00 
G01 X32.9286 Y3.8566 
G01 X33.8514 Y3.8566 
G01 X33.9718 Y3.8806 
G01 X34.0853 Y3.9276 
G01 X34.1874 Y3.9958 
G01 X34.2742 Y4.0826 
G01 X34.2900 Y4.1062 
G01 X34.3058 Y4.0826 
G01 X34.3926 Y3.9958 
G01 X34.4947 Y3.9276 
G01 X34.6082 Y3.8806 
G01 X34.7286 Y3.8566 
G01 X35.6514 Y3.8566 
G01 X35.7066 Y3.8676 
G01 X35.7066 Y3.6634 
G01 X32.2153 Y3.6634 
G01 X31.9221 Y3.9566 
G01 X32.6512 Y3.9566 
G01 X32.6947 Y3.9276 
G00 Z2.5400 
G00 X33.1735 Y12.1104 
G01 Z-0.1500 F254.00 
G01 X33.1735 Y13.2896 F508.00 
G01 X32.3396 Y14.1235 
G01 X31.1604 Y14.1235 
G01 X30.4800 Y13.4431 
G01 X29.7996 Y14.1235 
G01 X28.6204 Y14.1235 
G01 X28.3203 Y13.8234 
G01 X27.5597 Y13.8234 
G01 X27.2596 Y14.1235 
G01 X26.0804 Y14.1235 
G01 X25.4000 Y13.4431 
G01 X24.7196 Y14.1235 
G01 X24.6022 Y14.1235 
G01 X25.8653 Y15.3866 
G01 X35.0947 Y15.3866 
G01 X35.7066 Y14.7747 
G01 X35.7066 Y6.5221 
G01 X32.8734 Y9.3553 
G01 X32.8734 Y11.8103 
G01 X33.1735 Y12.1104 
G00 Z2.5400 
G00 X28.6204 Y11.2765 
G01 Z-0.1500 F254.00 
G01 X29.7996 Y11.2765 F508.00 
G01 X30.4800 Y11.9569 
G01 X30.6266 Y11.8103 
G01 X30.6266 Y8.8016 
G01 X30.6543 Y8.6269 
G01 X30.7089 Y8.4588 
G01 X30.7892 Y8.3012 
G01 X30.8931 Y8.1582 
G01 X31.0182 Y8.0331 
G01 X32.7825 Y6.2688 
G01 X32.6947 Y6.2324 
G01 X32.6512 Y6.2034 
G01 X31.8895 Y6.2034 
G01 X31.8390 Y6.2114 
G01 X31.6610 Y6.2114 
G01 X31.4851 Y6.1835 
G01 X31.3157 Y6.1285 
G01 X31.1570 Y6.0477 
G01 X31.0129 Y5.9430 
G01 X30.8870 Y5.8171 
G01 X30.7823 Y5.6730 
G01 X30.7015 Y5.5143 
G01 X30.6465 Y5.3449 
G01 X30.6311 Y5.2477 
G01 X30.0669 Y5.8118 
G01 X29.9418 Y5.9369 
G01 X29.7988 Y6.0408 
G01 X29.7213 Y6.0803 
G01 X29.6374 Y6.1642 
G01 X29.5353 Y6.2324 
G01 X29.4218 Y6.2794 
G01 X29.3014 Y6.3034 
G01 X28.3786 Y6.3034 
G01 X28.2582 Y6.2794 
G01 X28.1447 Y6.2324 
G01 X28.0426 Y6.1642 
G01 X27.9558 Y6.0774 
G01 X27.9400 Y6.0538 
G01 X27.9242 Y6.0774 
G01 X27.8374 Y6.1642 
G01 X27.7934 Y6.1936 
G01 X27.7934 Y11.5766 
G01 X28.3203 Y11.5766 
G01 X28.6204 Y11.2765 
G00 Z2.5400 
G00 X15.3426 Y29.0242 
G01 Z-0.1500 F254.00 
G01 X15.2558 Y28.9374 F508.00 
G01 X15.2400 Y28.9138 
G01 X15.2242 Y28.9374 
G01 X15.1374 Y29.0242 
G01 X15.0353 Y29.0924 
G01 X14.9218 Y29.1394 
G01 X14.8014 Y29.1634 
G01 X14.2421 Y29.1634 
G01 X14.4353 Y29.3566 
G01 X15.3866 Y29.3566 
G01 X15.3866 Y29.0536 
G01 X15.3426 Y29.0242 
G00 Z2.5400 
G00 X6.8586 Y8.8762 
G01 Z-0.1500 F254.00 
G01 X7.3151 Y8.8762 F508.00 
G01 X8.0331 Y8.1582 
G01 X8.1582 Y8.0331 
G01 X12.9499 Y3.2413 
G01 X12.9558 Y3.2326 
G01 X13.0426 Y3.1458 
G01 X13.0513 Y3.1399 
G01 X13.1688 Y3.0225 
G01 X13.2236 Y2.9658 
G01 X13.2313 Y2.9599 
G01 X13.2382 Y2.9531 
G01 X13.3019 Y2.9068 
G01 X13.3649 Y2.8594 
G01 X13.3734 Y2.8549 
G01 X13.3812 Y2.8492 
G01 X13.4514 Y2.8134 
G01 X13.5210 Y2.7764 
G01 X13.5302 Y2.7733 
G01 X13.5388 Y2.7689 
G01 X13.6137 Y2.7446 
G01 X13.6882 Y2.7189 
G01 X13.6978 Y2.7172 
G01 X13.7069 Y2.7143 
G01 X13.7847 Y2.7019 
G01 X13.8624 Y2.6883 
G01 X13.8721 Y2.6881 
G01 X13.8816 Y2.6866 
G01 X13.9604 Y2.6866 
G01 X14.0392 Y2.6853 
G01 X14.0488 Y2.6866 
G01 X14.0584 Y2.6866 
G01 X14.1362 Y2.6989 
G01 X14.2143 Y2.7099 
G01 X14.2235 Y2.7128 
G01 X14.2331 Y2.7143 
G01 X14.3080 Y2.7386 
G01 X14.3834 Y2.7617 
G01 X14.3920 Y2.7659 
G01 X14.4012 Y2.7689 
G01 X14.4714 Y2.8047 
G01 X14.5423 Y2.8393 
G01 X14.5502 Y2.8448 
G01 X14.5588 Y2.8492 
G01 X14.6225 Y2.8954 
G01 X14.6871 Y2.9407 
G01 X14.6940 Y2.9475 
G01 X14.7018 Y2.9531 
G01 X14.7553 Y3.0066 
G01 X14.9014 Y3.0066 
G01 X15.0218 Y3.0306 
G01 X15.1353 Y3.0776 
G01 X15.2374 Y3.1458 
G01 X15.3242 Y3.2326 
G01 X15.3924 Y3.3347 
G01 X15.4394 Y3.4482 
G01 X15.4634 Y3.5686 
G01 X15.4634 Y3.9795 
G01 X15.5786 Y3.9566 
G01 X16.0447 Y3.9566 
G01 X18.1931 Y1.8082 
G01 X18.3182 Y1.6831 
G01 X18.4612 Y1.5792 
G01 X18.6188 Y1.4989 
G01 X18.7869 Y1.4443 
G01 X18.9616 Y1.4166 
G01 X26.7584 Y1.4166 
G01 X26.9331 Y1.4443 
G01 X27.1012 Y1.4989 
G01 X27.2588 Y1.5792 
G01 X27.4018 Y1.6831 
G01 X27.5269 Y1.8082 
G01 X27.6308 Y1.9512 
G01 X27.7111 Y2.1088 
G01 X27.7657 Y2.2769 
G01 X27.7934 Y2.4516 
G01 X27.7934 Y3.9664 
G01 X27.8374 Y3.9958 
G01 X27.9242 Y4.0826 
G01 X27.9400 Y4.1062 
G01 X27.9558 Y4.0826 
G01 X28.0426 Y3.9958 
G01 X28.1447 Y3.9276 
G01 X28.2582 Y3.8806 
G01 X28.3786 Y3.8566 
G01 X28.8447 Y3.8566 
G01 X30.8931 Y1.8082 
G01 X31.0182 Y1.6831 
G01 X31.1612 Y1.5792 
G01 X31.3188 Y1.4989 
G01 X31.4869 Y1.4443 
G01 X31.6616 Y1.4166 
G01 X36.9184 Y1.4166 
G01 X37.0931 Y1.4443 
G01 X37.2612 Y1.4989 
G01 X37.4188 Y1.5792 
G01 X37.5618 Y1.6831 
G01 X37.6869 Y1.8082 
G01 X37.7908 Y1.9512 
G01 X37.8711 Y2.1088 
G01 X37.9257 Y2.2769 
G01 X37.9534 Y2.4516 
G01 X37.9534 Y15.3284 
G01 X37.9257 Y15.5031 
G01 X37.8711 Y15.6712 
G01 X37.7908 Y15.8288 
G01 X37.6869 Y15.9718 
G01 X36.6834 Y16.9753 
G01 X36.6834 Y28.0284 
G01 X36.6557 Y28.2031 
G01 X36.6011 Y28.3712 
G01 X36.5208 Y28.5288 
G01 X36.4169 Y28.6718 
G01 X36.2918 Y28.7969 
G01 X36.1488 Y28.9008 
G01 X36.0713 Y28.9403 
G01 X35.9874 Y29.0242 
G01 X35.8853 Y29.0924 
G01 X35.7718 Y29.1394 
G01 X35.6514 Y29.1634 
G01 X34.7286 Y29.1634 
G01 X34.6082 Y29.1394 
G01 X34.4947 Y29.0924 
G01 X34.3926 Y29.0242 
G01 X34.3058 Y28.9374 
G01 X34.2900 Y28.9138 
G01 X34.2742 Y28.9374 
G01 X34.1874 Y29.0242 
G01 X34.0853 Y29.0924 
G01 X33.9718 Y29.1394 
G01 X33.8514 Y29.1634 
G01 X32.9286 Y29.1634 
G01 X32.8082 Y29.1394 
G01 X32.6947 Y29.0924 
G01 X32.6512 Y29.0634 
G01 X29.5788 Y29.0634 
G01 X29.5353 Y29.0924 
G01 X29.4218 Y29.1394 
G01 X29.3014 Y29.1634 
G01 X28.3786 Y29.1634 
G01 X28.2582 Y29.1394 
G01 X28.1447 Y29.0924 
G01 X28.0426 Y29.0242 
G01 X27.9558 Y28.9374 
G01 X27.9400 Y28.9138 
G01 X27.9242 Y28.9374 
G01 X27.8374 Y29.0242 
G01 X27.7353 Y29.0924 
G01 X27.6218 Y29.1394 
G01 X27.5014 Y29.1634 
G01 X26.5786 Y29.1634 
G01 X26.4582 Y29.1394 
G01 X26.3447 Y29.0924 
G01 X26.3012 Y29.0634 
G01 X23.9834 Y29.0634 
G01 X23.9834 Y31.8384 
G01 X23.9557 Y32.0131 
G01 X23.9011 Y32.1812 
G01 X23.8208 Y32.3388 
G01 X23.7169 Y32.4818 
G01 X23.5918 Y32.6069 
G01 X23.4488 Y32.7108 
G01 X23.2912 Y32.7911 
G01 X23.1231 Y32.8457 
G01 X22.9484 Y32.8734 
G01 X12.6116 Y32.8734 
G01 X12.4369 Y32.8457 
G01 X12.2688 Y32.7911 
G01 X12.1112 Y32.7108 
G01 X11.9682 Y32.6069 
G01 X11.8431 Y32.4818 
G01 X10.5731 Y31.2118 
G01 X10.4692 Y31.0688 
G01 X10.3889 Y30.9112 
G01 X10.3343 Y30.7431 
G01 X10.3066 Y30.5684 
G01 X10.3066 Y27.1353 
G01 X7.3151 Y24.1438 
G01 X6.8586 Y24.1438 
G01 X6.6590 Y24.1122 
G01 X6.4668 Y24.0497 
G01 X6.2867 Y23.9580 
G01 X6.1233 Y23.8392 
G01 X5.9804 Y23.6963 
G01 X5.8616 Y23.5329 
G01 X5.7699 Y23.3528 
G01 X5.7074 Y23.1606 
G01 X5.6758 Y22.9610 
G01 X5.6758 Y22.7590 
G01 X5.7074 Y22.5594 
G01 X5.7699 Y22.3672 
G01 X5.8616 Y22.1871 
G01 X5.9804 Y22.0237 
G01 X6.1233 Y21.8808 
G01 X6.2867 Y21.7620 
G01 X6.4668 Y21.6703 
G01 X6.6590 Y21.6078 
G01 X6.7714 Y21.5900 
G01 X6.6590 Y21.5722 
G01 X6.4668 Y21.5097 
G01 X6.2867 Y21.4180 
G01 X6.1233 Y21.2992 
G01 X5.9804 Y21.1563 
G01 X5.8616 Y20.9929 
G01 X5.7699 Y20.8128 
G01 X5.7074 Y20.6206 
G01 X5.6758 Y20.4210 
G01 X5.6758 Y20.2190 
G01 X5.7074 Y20.0194 
G01 X5.7699 Y19.8272 
G01 X5.8616 Y19.6471 
G01 X5.9804 Y19.4837 
G01 X6.1233 Y19.3408 
G01 X6.2867 Y19.2220 
G01 X6.4668 Y19.1303 
G01 X6.6590 Y19.0678 
G01 X6.7715 Y19.0500 
G01 X6.6590 Y19.0322 
G01 X6.4668 Y18.9697 
G01 X6.2867 Y18.8780 
G01 X6.1233 Y18.7592 
G01 X5.9804 Y18.6163 
G01 X5.8616 Y18.4529 
G01 X5.7699 Y18.2728 
G01 X5.7074 Y18.0806 
G01 X5.6758 Y17.8810 
G01 X5.6758 Y17.6790 
G01 X5.7074 Y17.4794 
G01 X5.7699 Y17.2872 
G01 X5.8616 Y17.1071 
G01 X5.9804 Y16.9437 
G01 X6.1233 Y16.8008 
G01 X6.2867 Y16.6820 
G01 X6.4668 Y16.5903 
G01 X6.6590 Y16.5278 
G01 X6.7715 Y16.5100 
G01 X6.6590 Y16.4922 
G01 X6.4668 Y16.4297 
G01 X6.2867 Y16.3380 
G01 X6.1233 Y16.2192 
G01 X5.9804 Y16.0763 
G01 X5.8616 Y15.9129 
G01 X5.7699 Y15.7328 
G01 X5.7074 Y15.5406 
G01 X5.6758 Y15.3410 
G01 X5.6758 Y15.1390 
G01 X5.7074 Y14.9394 
G01 X5.7699 Y14.7472 
G01 X5.8616 Y14.5671 
G01 X5.9804 Y14.4037 
G01 X6.1233 Y14.2608 
G01 X6.2867 Y14.1420 
G01 X6.4668 Y14.0503 
G01 X6.6590 Y13.9878 
G01 X6.7715 Y13.9700 
G01 X6.6590 Y13.9522 
G01 X6.4668 Y13.8897 
G01 X6.2867 Y13.7980 
G01 X6.1233 Y13.6792 
G01 X5.9804 Y13.5363 
G01 X5.8616 Y13.3729 
G01 X5.7699 Y13.1928 
G01 X5.7074 Y13.0006 
G01 X5.6758 Y12.8010 
G01 X5.6758 Y12.5990 
G01 X5.7074 Y12.3994 
G01 X5.7699 Y12.2072 
G01 X5.8616 Y12.0271 
G01 X5.9804 Y11.8637 
G01 X6.1233 Y11.7208 
G01 X6.2867 Y11.6020 
G01 X6.4668 Y11.5103 
G01 X6.6590 Y11.4478 
G01 X6.7715 Y11.4300 
G01 X6.6590 Y11.4122 
G01 X6.4668 Y11.3497 
G01 X6.2867 Y11.2580 
G01 X6.1233 Y11.1392 
G01 X5.9804 Y10.9963 
G01 X5.8616 Y10.8329 
G01 X5.7699 Y10.6528 
G01 X5.7074 Y10.4606 
G01 X5.6758 Y10.2610 
G01 X5.6758 Y10.0590 
G01 X5.7074 Y9.8594 
G01 X5.7699 Y9.6672 
G01 X5.8616 Y9.4871 
G01 X5.9804 Y9.3237 
G01 X6.1233 Y9.1808 
G01 X6.2867 Y9.0620 
G01 X6.4668 Y8.9703 
G01 X6.6590 Y8.9078 
G01 X6.8586 Y8.8762 
G00 Z2.5400 
G00 Z2.540000
G00 X31.7500 Y5.0800 
G01 Z-0.2794 F254.00 
G01 Z2.540000
(R2.5400  P1.000000)
(G00 Z2.540000)
G00 X16.5100 Y6.3500 
G01 Z-0.812800
G01 Z2.540000
(G00 Z2.540000)
G00 X19.0500 Y12.7000 
G01 Z-0.812800
G01 Z2.540000
(G00 Z2.540000)
G00 X7.6200 Y10.1600 
G01 Z-0.812800
G01 Z2.540000
(G00 Z2.540000)
G00 X7.6200 Y12.7000 
G01 Z-0.812800
G01 Z2.540000
(G00 Z2.540000)
G00 X7.6200 Y15.2400 
G01 Z-0.812800
G01 Z2.540000
(G00 Z2.540000)
G00 X7.6200 Y17.7800 
G01 Z-0.812800
G01 Z2.540000
(G00 Z2.540000)
G00 X7.6200 Y20.3200 
G01 Z-0.812800
G01 Z2.540000
(G00 Z2.540000)
G00 X7.6200 Y22.8600 
G01 Z-0.812800
G01 Z2.540000
(G00 Z2.540000)
G00 X24.1300 Y12.7000 
G01 Z-0.812800
G01 Z2.540000
(G00 Z2.540000)
G00 X26.6700 Y12.7000 
G01 Z-0.812800
G01 Z2.540000
(G00 Z2.540000)
G00 X29.2100 Y12.7000 
G01 Z-0.812800
G01 Z2.540000
(G00 Z2.540000)
G00 X31.7500 Y12.7000 
G01 Z-0.812800
G01 Z2.540000
(G00 Z2.540000)
G00 X31.7500 Y20.3200 
G01 Z-0.812800
G01 Z2.540000
(G00 Z2.540000)
G00 X29.2100 Y20.3200 
G01 Z-0.812800
G01 Z2.540000
(G00 Z2.540000)
G00 X26.6700 Y20.3200 
G01 Z-0.812800
G01 Z2.540000
(G00 Z2.540000)
G00 X24.1300 Y20.3200 
G01 Z-0.812800
G01 Z2.540000
G00 Z12.7000 
M05
M02
