(.../pcb-gcode-3.6.0.4/pcb-gcode.ulp)
(Copyright 2005 - 2012 by John Johnson)
(See readme.txt for licensing terms.)
(This file generated from the board:)
(.../eagle/eagle/cncWTest/modbus.brd)
(Current profile is .../pcb-gcode-3.6.0.4/profiles/emc.pp  )
(This file generated 6/27/2014 5:23:27 PM)
(Settings from pcb-machine.h)
(  Tool Size)
(0.1000 )
(Z Axis Settings)
(  High     Up        Down     Drill)
(12.7000 	2.5400 	-0.1500 	-0.8128 )
(spindle on time = 3.0000)
(milling depth = -0.1500)
(text depth = -0.1270)
(tool change at 12.7000 15.2400 25.4000 )
(feed rate xy = F508.00 )
(feed rate z  = F254.00 )
(Settings from pcb-defaults.h)
(isolate min = 0.0154)
(isolate max = 0.5080)
(isolate step = 0.1270)
(Generated top outlines, top drill, bottom outlines, bottom drill, )
(Unit of measure: mm)
(Metric Mode)
G21
(Absolute Coordinates)
G90
G00 X0.0000 Y0.0000 
M03
G04 P3.000000
G00 Z2.5400 
G00 X-6.3001 Y10.7012 
G01 Z-0.1500 F254.00 
G01 X-6.4184 Y10.8195 F508.00 
G01 X-6.5574 Y10.9124 
G01 X-6.7120 Y10.9764 
G01 X-6.8760 Y11.0090 
G01 X-7.3546 Y11.0090 
G01 X-7.3546 Y10.8858 
G01 X-6.8881 Y10.8858 
G01 X-6.7479 Y10.8579 
G01 X-6.6158 Y10.8032 
G01 X-6.4969 Y10.7238 
G01 X-6.3958 Y10.6227 
G01 X-6.3164 Y10.5038 
G01 X-6.2839 Y10.4254 
G01 X-6.1506 Y10.4254 
G01 X-6.2072 Y10.5622 
G01 X-6.3001 Y10.7012 
G00 Z2.5400 
G00 X-8.3640 Y11.0090 
G01 Z-0.1500 F254.00 
G01 X-8.5280 Y10.9764 F508.00 
G01 X-8.6826 Y10.9124 
G01 X-8.8216 Y10.8195 
G01 X-8.9399 Y10.7012 
G01 X-9.0328 Y10.5622 
G01 X-9.0894 Y10.4254 
G01 X-8.9561 Y10.4254 
G01 X-8.9236 Y10.5038 
G01 X-8.8442 Y10.6227 
G01 X-8.7431 Y10.7238 
G01 X-8.6242 Y10.8032 
G01 X-8.4921 Y10.8579 
G01 X-8.3519 Y10.8858 
G01 X-7.8854 Y10.8858 
G01 X-7.8854 Y11.0090 
G01 X-8.3640 Y11.0090 
G00 Z2.5400 
G00 X-9.0328 Y9.7578 
G01 Z-0.1500 F254.00 
G01 X-8.9399 Y9.6188 F508.00 
G01 X-8.8216 Y9.5005 
G01 X-8.6826 Y9.4076 
G01 X-8.5280 Y9.3436 
G01 X-8.3640 Y9.3110 
G01 X-7.8854 Y9.3110 
G01 X-7.8854 Y9.4342 
G01 X-8.3519 Y9.4342 
G01 X-8.4921 Y9.4621 
G01 X-8.6242 Y9.5168 
G01 X-8.7431 Y9.5962 
G01 X-8.8442 Y9.6973 
G01 X-8.9236 Y9.8162 
G01 X-8.9561 Y9.8946 
G01 X-9.0894 Y9.8946 
G01 X-9.0328 Y9.7578 
G00 Z2.5400 
G00 X-6.8760 Y9.3110 
G01 Z-0.1500 F254.00 
G01 X-6.7120 Y9.3436 F508.00 
G01 X-6.5574 Y9.4076 
G01 X-6.4184 Y9.5005 
G01 X-6.3001 Y9.6188 
G01 X-6.2072 Y9.7578 
G01 X-6.1506 Y9.8946 
G01 X-6.2839 Y9.8946 
G01 X-6.3164 Y9.8162 
G01 X-6.3958 Y9.6973 
G01 X-6.4969 Y9.5962 
G01 X-6.6158 Y9.5168 
G01 X-6.7479 Y9.4621 
G01 X-6.8881 Y9.4342 
G01 X-7.3546 Y9.4342 
G01 X-7.3546 Y9.3110 
G01 X-6.8760 Y9.3110 
G00 Z2.5400 
G00 X-32.1595 Y21.3087 
G01 Z-0.1500 F254.00 
G01 X-32.7387 Y20.7295 F508.00 
G01 X-32.7387 Y20.5854 
G01 X-32.6155 Y20.5854 
G01 X-32.6155 Y20.6785 
G01 X-32.1085 Y21.1855 
G01 X-32.0154 Y21.1855 
G01 X-32.0154 Y21.3087 
G01 X-32.1595 Y21.3087 
G00 Z2.5400 
G00 X-32.7080 Y11.2394 
G01 Z-0.1500 F254.00 
G01 X-32.5622 Y10.8873 F508.00 
G01 X-29.7527 Y8.0778 
G01 X-29.4006 Y7.9320 
G01 X-15.0494 Y7.9320 
G01 X-14.6973 Y8.0778 
G01 X-14.3813 Y8.3939 
G01 X-9.6425 Y13.1326 
G01 X-9.6076 Y13.1471 
G01 X-9.5817 Y13.1578 
G01 X-9.5159 Y13.1578 
G01 X-9.4569 Y13.1334 
G01 X-9.4086 Y13.0861 
G01 X-9.3942 Y13.0512 
G01 X-9.3834 Y13.0253 
G01 X-9.3834 Y12.9595 
G01 X-9.3988 Y12.9225 
G01 X-9.3988 Y12.4775 
G01 X-9.2285 Y12.0665 
G01 X-8.9139 Y11.7519 
G01 X-8.5029 Y11.5816 
G01 X-6.7371 Y11.5816 
G01 X-6.3261 Y11.7519 
G01 X-6.0115 Y12.0665 
G01 X-5.8412 Y12.4775 
G01 X-5.8412 Y12.9225 
G01 X-6.0115 Y13.3335 
G01 X-6.3261 Y13.6481 
G01 X-6.7038 Y13.8046 
G01 X-6.7627 Y13.8290 
G01 X-6.8111 Y13.8763 
G01 X-6.8363 Y13.9371 
G01 X-6.8363 Y14.0029 
G01 X-6.8111 Y14.0637 
G01 X-6.7646 Y14.1102 
G01 X-6.7038 Y14.1354 
G01 X-6.3261 Y14.2919 
G01 X-6.0115 Y14.6065 
G01 X-5.8412 Y15.0175 
G01 X-5.8412 Y15.4625 
G01 X-6.0115 Y15.8735 
G01 X-6.3261 Y16.1881 
G01 X-6.7038 Y16.3446 
G01 X-6.7627 Y16.3690 
G01 X-6.8111 Y16.4163 
G01 X-6.8363 Y16.4771 
G01 X-6.8363 Y16.5429 
G01 X-6.8111 Y16.6037 
G01 X-6.7646 Y16.6502 
G01 X-6.7038 Y16.6754 
G01 X-6.3261 Y16.8319 
G01 X-6.0115 Y17.1465 
G01 X-5.8412 Y17.5575 
G01 X-5.8412 Y18.0025 
G01 X-6.0115 Y18.4135 
G01 X-6.3261 Y18.7281 
G01 X-6.7038 Y18.8846 
G01 X-6.7627 Y18.9090 
G01 X-6.8111 Y18.9563 
G01 X-6.8363 Y19.0171 
G01 X-6.8363 Y19.0829 
G01 X-6.8111 Y19.1437 
G01 X-6.7646 Y19.1902 
G01 X-6.7038 Y19.2154 
G01 X-6.3261 Y19.3719 
G01 X-6.0115 Y19.6865 
G01 X-5.8412 Y20.0975 
G01 X-5.8412 Y20.5425 
G01 X-6.0115 Y20.9535 
G01 X-6.3261 Y21.2681 
G01 X-6.7038 Y21.4246 
G01 X-6.7627 Y21.4490 
G01 X-6.8111 Y21.4963 
G01 X-6.8363 Y21.5571 
G01 X-6.8363 Y21.6229 
G01 X-6.8111 Y21.6837 
G01 X-6.7646 Y21.7302 
G01 X-6.7038 Y21.7554 
G01 X-6.3261 Y21.9119 
G01 X-6.0115 Y22.2265 
G01 X-5.8412 Y22.6375 
G01 X-5.8412 Y23.0825 
G01 X-6.0115 Y23.4935 
G01 X-6.3261 Y23.8081 
G01 X-6.7371 Y23.9784 
G01 X-8.5029 Y23.9784 
G01 X-8.9139 Y23.8081 
G01 X-9.2285 Y23.4935 
G01 X-9.3988 Y23.0825 
G01 X-9.3988 Y22.6375 
G01 X-9.2285 Y22.2265 
G01 X-8.9139 Y21.9119 
G01 X-8.5362 Y21.7554 
G01 X-8.4783 Y21.7314 
G01 X-8.4754 Y21.7302 
G01 X-8.4289 Y21.6837 
G01 X-8.4144 Y21.6488 
G01 X-8.4037 Y21.6229 
G01 X-8.4037 Y21.5571 
G01 X-8.4289 Y21.4963 
G01 X-8.4754 Y21.4498 
G01 X-8.8458 Y21.2963 
G01 X-8.8901 Y21.2780 
G01 X-19.8876 Y21.2780 
G01 X-19.9484 Y21.3032 
G01 X-19.9807 Y21.3355 
G01 X-22.0013 Y23.3561 
G01 X-22.0155 Y23.3703 
G01 X-22.0478 Y23.4027 
G01 X-22.3173 Y23.6722 
G01 X-22.6694 Y23.8180 
G01 X-26.8606 Y23.8180 
G01 X-27.2127 Y23.6722 
G01 X-29.2350 Y21.6498 
G01 X-29.2489 Y21.6359 
G01 X-29.2815 Y21.6033 
G01 X-29.3423 Y21.5781 
G01 X-29.7311 Y21.5781 
G01 X-30.4681 Y20.8411 
G01 X-30.4681 Y20.8027 
G01 X-30.4933 Y20.7419 
G01 X-30.5398 Y20.6954 
G01 X-30.6006 Y20.6702 
G01 X-30.6664 Y20.6702 
G01 X-30.7272 Y20.6954 
G01 X-30.7737 Y20.7419 
G01 X-31.3405 Y21.3087 
G01 X-31.4846 Y21.3087 
G01 X-31.4846 Y21.1855 
G01 X-31.3915 Y21.1855 
G01 X-30.8845 Y20.6785 
G01 X-30.8845 Y19.9615 
G01 X-31.3915 Y19.4545 
G01 X-31.4846 Y19.4545 
G01 X-31.4846 Y19.3313 
G01 X-31.3405 Y19.3313 
G01 X-30.7737 Y19.8981 
G01 X-30.7377 Y19.9340 
G01 X-30.7272 Y19.9446 
G01 X-30.6664 Y19.9698 
G01 X-30.6006 Y19.9698 
G01 X-30.5398 Y19.9446 
G01 X-30.4933 Y19.8981 
G01 X-30.4681 Y19.8373 
G01 X-30.4681 Y19.7989 
G01 X-29.7311 Y19.0619 
G01 X-28.6889 Y19.0619 
G01 X-28.0802 Y19.6706 
G01 X-28.0449 Y19.7059 
G01 X-28.0337 Y19.7171 
G01 X-27.9729 Y19.7423 
G01 X-27.9071 Y19.7423 
G01 X-27.8463 Y19.7171 
G01 X-27.7998 Y19.6706 
G01 X-27.1911 Y19.0619 
G01 X-26.1489 Y19.0619 
G01 X-25.5402 Y19.6706 
G01 X-25.5049 Y19.7059 
G01 X-25.4937 Y19.7171 
G01 X-25.4329 Y19.7423 
G01 X-25.3671 Y19.7423 
G01 X-25.3063 Y19.7171 
G01 X-25.2598 Y19.6706 
G01 X-24.6511 Y19.0619 
G01 X-23.6089 Y19.0619 
G01 X-22.8719 Y19.7989 
G01 X-22.8719 Y20.8411 
G01 X-23.6272 Y21.5964 
G01 X-23.6602 Y21.6294 
G01 X-23.6737 Y21.6429 
G01 X-23.6989 Y21.7037 
G01 X-23.6989 Y21.7695 
G01 X-23.6737 Y21.8303 
G01 X-23.6272 Y21.8768 
G01 X-23.5664 Y21.9020 
G01 X-23.2924 Y21.9020 
G01 X-23.2316 Y21.8768 
G01 X-23.1851 Y21.8303 
G01 X-20.8627 Y19.5078 
G01 X-20.5106 Y19.3620 
G01 X-18.2620 Y19.3620 
G01 X-18.2388 Y19.4021 
G01 X-18.1321 Y19.5088 
G01 X-18.0013 Y19.5843 
G01 X-17.8555 Y19.6234 
G01 X-17.7045 Y19.6234 
G01 X-17.5587 Y19.5843 
G01 X-17.4279 Y19.5088 
G01 X-17.3212 Y19.4021 
G01 X-17.2980 Y19.3620 
G01 X-8.8901 Y19.3620 
G01 X-8.8873 Y19.3608 
G01 X-8.5362 Y19.2154 
G01 X-8.4781 Y19.1914 
G01 X-8.4754 Y19.1902 
G01 X-8.4289 Y19.1437 
G01 X-8.4144 Y19.1088 
G01 X-8.4037 Y19.0829 
G01 X-8.4037 Y19.0171 
G01 X-8.4289 Y18.9563 
G01 X-8.4754 Y18.9098 
G01 X-8.8458 Y18.7564 
G01 X-8.8901 Y18.7380 
G01 X-9.0806 Y18.7380 
G01 X-9.4327 Y18.5922 
G01 X-16.8816 Y11.1432 
G01 X-16.9424 Y11.1180 
G01 X-20.1085 Y11.1180 
G01 X-20.1279 Y11.1260 
G01 X-20.1728 Y11.1260 
G01 X-20.2336 Y11.1512 
G01 X-20.2801 Y11.1977 
G01 X-20.3053 Y11.2585 
G01 X-20.3053 Y11.3243 
G01 X-20.2801 Y11.3851 
G01 X-20.2336 Y11.4316 
G01 X-18.5686 Y13.0965 
G01 X-18.5379 Y13.1273 
G01 X-18.5221 Y13.1431 
G01 X-18.5028 Y13.1511 
G01 X-18.2311 Y13.4228 
G01 X-18.0840 Y13.7778 
G01 X-18.0840 Y14.1495 
G01 X-18.0588 Y14.2103 
G01 X-18.0123 Y14.2568 
G01 X-17.9515 Y14.2820 
G01 X-15.4515 Y14.2820 
G01 X-15.4321 Y14.2740 
G01 X-15.0478 Y14.2740 
G01 X-14.6928 Y14.4211 
G01 X-14.4211 Y14.6928 
G01 X-14.2740 Y15.0478 
G01 X-14.2740 Y15.4322 
G01 X-14.4211 Y15.7872 
G01 X-14.6928 Y16.0589 
G01 X-15.0478 Y16.2060 
G01 X-15.4321 Y16.2060 
G01 X-15.4515 Y16.1980 
G01 X-24.3206 Y16.1980 
G01 X-24.6727 Y16.0522 
G01 X-26.7415 Y13.9833 
G01 X-26.8023 Y13.9581 
G01 X-27.1911 Y13.9581 
G01 X-27.7998 Y13.3494 
G01 X-27.8351 Y13.3141 
G01 X-27.8463 Y13.3029 
G01 X-27.9071 Y13.2777 
G01 X-27.9729 Y13.2777 
G01 X-28.0337 Y13.3029 
G01 X-28.0802 Y13.3494 
G01 X-28.6889 Y13.9581 
G01 X-29.7311 Y13.9581 
G01 X-30.3398 Y13.3494 
G01 X-30.3751 Y13.3141 
G01 X-30.3863 Y13.3029 
G01 X-30.4471 Y13.2777 
G01 X-30.5129 Y13.2777 
G01 X-30.5737 Y13.3029 
G01 X-30.6202 Y13.3494 
G01 X-31.2289 Y13.9581 
G01 X-32.2711 Y13.9581 
G01 X-33.0081 Y13.2211 
G01 X-33.0081 Y12.1789 
G01 X-32.7332 Y11.9040 
G01 X-32.7080 Y11.8432 
G01 X-32.7080 Y11.7774 
G01 X-32.7080 Y11.2394 
G00 Z2.5400 
G00 X-23.8958 Y14.6746 
G01 Z-0.1500 F254.00 
G01 X-25.8045 Y12.7659 F508.00 
G01 X-25.8045 Y12.3415 
G01 X-26.3115 Y11.8345 
G01 X-27.0285 Y11.8345 
G01 X-27.5355 Y12.3415 
G01 X-27.5355 Y13.0585 
G01 X-27.0285 Y13.5655 
G01 X-26.6041 Y13.5655 
G01 X-24.4772 Y15.6924 
G01 X-24.3482 Y15.7669 
G01 X-24.2044 Y15.8054 
G01 X-15.3453 Y15.8054 
G01 X-15.3155 Y15.8134 
G01 X-15.1645 Y15.8134 
G01 X-15.0187 Y15.7743 
G01 X-14.8879 Y15.6988 
G01 X-14.7812 Y15.5921 
G01 X-14.7057 Y15.4613 
G01 X-14.6666 Y15.3155 
G01 X-14.6666 Y15.1645 
G01 X-14.7057 Y15.0187 
G01 X-14.7812 Y14.8879 
G01 X-14.8879 Y14.7812 
G01 X-15.0187 Y14.7057 
G01 X-15.1645 Y14.6666 
G01 X-15.3155 Y14.6666 
G01 X-15.3453 Y14.6746 
G01 X-23.8958 Y14.6746 
G00 Z2.5400 
G00 X-24.6936 Y21.9020 
G01 Z-0.1500 F254.00 
G01 X-24.6328 Y21.8768 F508.00 
G01 X-24.5863 Y21.8303 
G01 X-24.5611 Y21.7695 
G01 X-24.5611 Y21.7037 
G01 X-24.5863 Y21.6429 
G01 X-24.6328 Y21.5964 
G01 X-25.2841 Y20.9451 
G01 X-25.3063 Y20.9229 
G01 X-25.3671 Y20.8977 
G01 X-25.4329 Y20.8977 
G01 X-25.4937 Y20.9229 
G01 X-26.2137 Y21.6429 
G01 X-26.2389 Y21.7037 
G01 X-26.2389 Y21.7695 
G01 X-26.2137 Y21.8303 
G01 X-26.1672 Y21.8768 
G01 X-26.1064 Y21.9020 
G01 X-26.0406 Y21.9020 
G01 X-24.6936 Y21.9020 
G00 Z2.5400 
G00 X-26.1064 Y11.1180 
G01 Z-0.1500 F254.00 
G01 X-26.1672 Y11.1432 F508.00 
G01 X-26.2137 Y11.1897 
G01 X-26.2389 Y11.2505 
G01 X-26.2389 Y11.3163 
G01 X-26.2137 Y11.3771 
G01 X-26.1672 Y11.4236 
G01 X-25.5159 Y12.0749 
G01 X-25.4937 Y12.0971 
G01 X-25.4329 Y12.1223 
G01 X-25.3671 Y12.1223 
G01 X-25.3063 Y12.0971 
G01 X-24.5863 Y11.3771 
G01 X-24.5611 Y11.3163 
G01 X-24.5611 Y11.2505 
G01 X-24.5863 Y11.1897 
G01 X-24.6328 Y11.1432 
G01 X-24.6936 Y11.1180 
G01 X-24.7594 Y11.1180 
G01 X-26.1064 Y11.1180 
G00 Z2.5400 
G00 X-24.9955 Y12.3415 
G01 Z-0.1500 F254.00 
G01 X-24.9955 Y13.0585 F508.00 
G01 X-24.4885 Y13.5655 
G01 X-23.7715 Y13.5655 
G01 X-23.2645 Y13.0585 
G01 X-23.2645 Y12.3415 
G01 X-23.7715 Y11.8345 
G01 X-24.4885 Y11.8345 
G01 X-24.9955 Y12.3415 
G00 Z2.5400 
G00 X-30.0755 Y12.3415 
G01 Z-0.1500 F254.00 
G01 X-30.0755 Y13.0585 F508.00 
G01 X-29.5685 Y13.5655 
G01 X-28.8515 Y13.5655 
G01 X-28.3445 Y13.0585 
G01 X-28.3445 Y12.3415 
G01 X-28.8515 Y11.8345 
G01 X-29.5685 Y11.8345 
G01 X-30.0755 Y12.3415 
G00 Z2.5400 
G00 X-30.0755 Y19.9615 
G01 Z-0.1500 F254.00 
G01 X-30.0755 Y20.6785 F508.00 
G01 X-29.5685 Y21.1855 
G01 X-29.1441 Y21.1855 
G01 X-27.0172 Y23.3124 
G01 X-26.8882 Y23.3869 
G01 X-26.7444 Y23.4254 
G01 X-22.7856 Y23.4254 
G01 X-22.6418 Y23.3869 
G01 X-22.5128 Y23.3124 
G01 X-22.4076 Y23.2072 
G01 X-20.0858 Y20.8854 
G01 X-8.7406 Y20.8854 
G01 X-8.6242 Y20.9632 
G01 X-8.4921 Y21.0179 
G01 X-8.3519 Y21.0458 
G01 X-6.8881 Y21.0458 
G01 X-6.7479 Y21.0179 
G01 X-6.6158 Y20.9632 
G01 X-6.4969 Y20.8838 
G01 X-6.3958 Y20.7827 
G01 X-6.3164 Y20.6638 
G01 X-6.2617 Y20.5317 
G01 X-6.2338 Y20.3915 
G01 X-6.2338 Y20.2485 
G01 X-6.2617 Y20.1083 
G01 X-6.3164 Y19.9762 
G01 X-6.3958 Y19.8573 
G01 X-6.4969 Y19.7562 
G01 X-6.6158 Y19.6768 
G01 X-6.7479 Y19.6221 
G01 X-6.8881 Y19.5942 
G01 X-8.3519 Y19.5942 
G01 X-8.4921 Y19.6221 
G01 X-8.6242 Y19.6768 
G01 X-8.7406 Y19.7546 
G01 X-20.3944 Y19.7546 
G01 X-20.5382 Y19.7931 
G01 X-20.6672 Y19.8676 
G01 X-23.0942 Y22.2946 
G01 X-26.4358 Y22.2946 
G01 X-28.3445 Y20.3859 
G01 X-28.3445 Y19.9615 
G01 X-28.8515 Y19.4545 
G01 X-29.5685 Y19.4545 
G01 X-30.0755 Y19.9615 
G00 Z2.5400 
G00 X-27.5355 Y19.9615 
G01 Z-0.1500 F254.00 
G01 X-27.5355 Y20.6785 F508.00 
G01 X-27.0285 Y21.1855 
G01 X-26.3115 Y21.1855 
G01 X-25.8045 Y20.6785 
G01 X-25.8045 Y19.9615 
G01 X-26.3115 Y19.4545 
G01 X-27.0285 Y19.4545 
G01 X-27.5355 Y19.9615 
G00 Z2.5400 
G00 X-24.9955 Y19.9615 
G01 Z-0.1500 F254.00 
G01 X-24.9955 Y20.6785 F508.00 
G01 X-24.4885 Y21.1855 
G01 X-23.7715 Y21.1855 
G01 X-23.2645 Y20.6785 
G01 X-23.2645 Y19.9615 
G01 X-23.7715 Y19.4545 
G01 X-24.4885 Y19.4545 
G01 X-24.9955 Y19.9615 
G00 Z2.5400 
G00 X-6.8881 Y11.9742 
G01 Z-0.1500 F254.00 
G01 X-8.3519 Y11.9742 F508.00 
G01 X-8.4921 Y12.0021 
G01 X-8.6242 Y12.0568 
G01 X-8.7431 Y12.1362 
G01 X-8.8442 Y12.2373 
G01 X-8.9236 Y12.3562 
G01 X-8.9783 Y12.4883 
G01 X-9.0062 Y12.6285 
G01 X-9.0062 Y12.7715 
G01 X-8.9783 Y12.9117 
G01 X-8.9236 Y13.0438 
G01 X-8.8442 Y13.1627 
G01 X-8.7431 Y13.2638 
G01 X-8.6242 Y13.3432 
G01 X-8.4921 Y13.3979 
G01 X-8.3519 Y13.4258 
G01 X-6.8881 Y13.4258 
G01 X-6.7479 Y13.3979 
G01 X-6.6158 Y13.3432 
G01 X-6.4969 Y13.2638 
G01 X-6.3958 Y13.1627 
G01 X-6.3164 Y13.0438 
G01 X-6.2617 Y12.9117 
G01 X-6.2338 Y12.7715 
G01 X-6.2338 Y12.6285 
G01 X-6.2617 Y12.4883 
G01 X-6.3164 Y12.3562 
G01 X-6.3958 Y12.2373 
G01 X-6.4969 Y12.1362 
G01 X-6.6158 Y12.0568 
G01 X-6.7479 Y12.0021 
G01 X-6.8881 Y11.9742 
G00 Z2.5400 
G00 X-6.8881 Y14.5142 
G01 Z-0.1500 F254.00 
G01 X-8.3519 Y14.5142 F508.00 
G01 X-8.4921 Y14.5421 
G01 X-8.6242 Y14.5968 
G01 X-8.6898 Y14.6406 
G01 X-14.7876 Y8.5428 
G01 X-14.8928 Y8.4376 
G01 X-15.0218 Y8.3631 
G01 X-15.1656 Y8.3246 
G01 X-29.2844 Y8.3246 
G01 X-29.4282 Y8.3631 
G01 X-29.5572 Y8.4376 
G01 X-32.0972 Y10.9776 
G01 X-32.2024 Y11.0828 
G01 X-32.2769 Y11.2118 
G01 X-32.3154 Y11.3556 
G01 X-32.3154 Y12.0414 
G01 X-32.6155 Y12.3415 
G01 X-32.6155 Y13.0585 
G01 X-32.1085 Y13.5655 
G01 X-31.3915 Y13.5655 
G01 X-30.8845 Y13.0585 
G01 X-30.8845 Y12.3415 
G01 X-31.1846 Y12.0414 
G01 X-31.1846 Y11.6642 
G01 X-28.9758 Y9.4554 
G01 X-15.4742 Y9.4554 
G01 X-9.2372 Y15.6924 
G01 X-9.1082 Y15.7669 
G01 X-8.9644 Y15.8054 
G01 X-8.7406 Y15.8054 
G01 X-8.6242 Y15.8832 
G01 X-8.4921 Y15.9379 
G01 X-8.3519 Y15.9658 
G01 X-6.8881 Y15.9658 
G01 X-6.7479 Y15.9379 
G01 X-6.6158 Y15.8832 
G01 X-6.4969 Y15.8038 
G01 X-6.3958 Y15.7027 
G01 X-6.3164 Y15.5838 
G01 X-6.2617 Y15.4517 
G01 X-6.2338 Y15.3115 
G01 X-6.2338 Y15.1685 
G01 X-6.2617 Y15.0283 
G01 X-6.3164 Y14.8962 
G01 X-6.3958 Y14.7773 
G01 X-6.4969 Y14.6762 
G01 X-6.6158 Y14.5968 
G01 X-6.7479 Y14.5421 
G01 X-6.8881 Y14.5142 
G00 Z2.5400 
G00 X-6.8881 Y17.0542 
G01 Z-0.1500 F254.00 
G01 X-8.3519 Y17.0542 F508.00 
G01 X-8.4921 Y17.0821 
G01 X-8.6242 Y17.1368 
G01 X-8.6898 Y17.1806 
G01 X-16.0576 Y9.8128 
G01 X-16.1628 Y9.7076 
G01 X-16.2918 Y9.6331 
G01 X-16.4356 Y9.5946 
G01 X-20.2147 Y9.5946 
G01 X-20.2445 Y9.5866 
G01 X-20.3955 Y9.5866 
G01 X-20.5413 Y9.6257 
G01 X-20.6721 Y9.7012 
G01 X-20.7788 Y9.8079 
G01 X-20.8543 Y9.9387 
G01 X-20.8934 Y10.0845 
G01 X-20.8934 Y10.2355 
G01 X-20.8543 Y10.3813 
G01 X-20.7788 Y10.5121 
G01 X-20.6721 Y10.6188 
G01 X-20.5413 Y10.6943 
G01 X-20.3955 Y10.7334 
G01 X-20.2445 Y10.7334 
G01 X-20.2147 Y10.7254 
G01 X-16.7442 Y10.7254 
G01 X-9.2372 Y18.2324 
G01 X-9.1082 Y18.3069 
G01 X-8.9644 Y18.3454 
G01 X-8.7406 Y18.3454 
G01 X-8.6242 Y18.4232 
G01 X-8.4921 Y18.4779 
G01 X-8.3519 Y18.5058 
G01 X-6.8881 Y18.5058 
G01 X-6.7479 Y18.4779 
G01 X-6.6158 Y18.4232 
G01 X-6.4969 Y18.3438 
G01 X-6.3958 Y18.2427 
G01 X-6.3164 Y18.1238 
G01 X-6.2617 Y17.9917 
G01 X-6.2338 Y17.8515 
G01 X-6.2338 Y17.7085 
G01 X-6.2617 Y17.5683 
G01 X-6.3164 Y17.4362 
G01 X-6.3958 Y17.3173 
G01 X-6.4969 Y17.2162 
G01 X-6.6158 Y17.1368 
G01 X-6.7479 Y17.0821 
G01 X-6.8881 Y17.0542 
G00 Z2.5400 
G00 X-6.8881 Y22.1342 
G01 Z-0.1500 F254.00 
G01 X-8.3519 Y22.1342 F508.00 
G01 X-8.4921 Y22.1621 
G01 X-8.6242 Y22.2168 
G01 X-8.7431 Y22.2962 
G01 X-8.8442 Y22.3973 
G01 X-8.9236 Y22.5162 
G01 X-8.9783 Y22.6483 
G01 X-9.0062 Y22.7885 
G01 X-9.0062 Y22.9315 
G01 X-8.9783 Y23.0717 
G01 X-8.9236 Y23.2038 
G01 X-8.8442 Y23.3227 
G01 X-8.7431 Y23.4238 
G01 X-8.6242 Y23.5032 
G01 X-8.4921 Y23.5579 
G01 X-8.3519 Y23.5858 
G01 X-6.8881 Y23.5858 
G01 X-6.7479 Y23.5579 
G01 X-6.6158 Y23.5032 
G01 X-6.4969 Y23.4238 
G01 X-6.3958 Y23.3227 
G01 X-6.3164 Y23.2038 
G01 X-6.2617 Y23.0717 
G01 X-6.2338 Y22.9315 
G01 X-6.2338 Y22.7885 
G01 X-6.2617 Y22.6483 
G01 X-6.3164 Y22.5162 
G01 X-6.3958 Y22.3973 
G01 X-6.4969 Y22.2962 
G01 X-6.6158 Y22.2168 
G01 X-6.7479 Y22.1621 
G01 X-6.8881 Y22.1342 
G00 Z2.5400 
G00 X-8.5375 Y14.1360 
G01 Z-0.1500 F254.00 
G01 X-8.5093 Y14.1243 F508.00 
G01 X-8.4990 Y14.1200 
G01 X-8.4753 Y14.1102 
G01 X-8.4520 Y14.0868 
G01 X-8.4288 Y14.0636 
G01 X-8.4161 Y14.0328 
G01 X-8.4037 Y14.0028 
G01 X-8.4037 Y13.9698 
G01 X-8.4037 Y13.9370 
G01 X-8.4159 Y13.9076 
G01 X-8.4289 Y13.8762 
G01 X-8.4523 Y13.8529 
G01 X-8.4755 Y13.8297 
G01 X-8.5025 Y13.8185 
G01 X-8.5133 Y13.8141 
G01 X-8.5400 Y13.8030 
G01 X-8.5729 Y13.8030 
G01 X-8.6058 Y13.8031 
G01 X-8.6383 Y13.8165 
G01 X-8.6666 Y13.8283 
G01 X-8.6976 Y13.8593 
G01 X-8.7131 Y13.8748 
G01 X-8.7272 Y13.9089 
G01 X-8.7382 Y13.9356 
G01 X-8.7382 Y13.9685 
G01 X-8.7382 Y14.0014 
G01 X-8.7247 Y14.0339 
G01 X-8.7130 Y14.0622 
G01 X-8.6903 Y14.0849 
G01 X-8.6820 Y14.0931 
G01 X-8.6665 Y14.1087 
G01 X-8.6352 Y14.1229 
G01 X-8.6034 Y14.1361 
G01 X-8.5704 Y14.1360 
G01 X-8.5376 Y14.1360 
G00 Z2.5400 
G00 X-23.2316 Y11.1432 
G01 Z-0.1500 F254.00 
G01 X-23.2924 Y11.1180 F508.00 
G01 X-23.5664 Y11.1180 
G01 X-23.6272 Y11.1432 
G01 X-23.6737 Y11.1897 
G01 X-23.6989 Y11.2505 
G01 X-23.6989 Y11.3163 
G01 X-23.6737 Y11.3771 
G01 X-23.6272 Y11.4236 
G01 X-22.8719 Y12.1789 
G01 X-22.8719 Y13.2211 
G01 X-23.6272 Y13.9764 
G01 X-23.6737 Y14.0229 
G01 X-23.6989 Y14.0837 
G01 X-23.6989 Y14.1495 
G01 X-23.6737 Y14.2103 
G01 X-23.6272 Y14.2568 
G01 X-23.5664 Y14.2820 
G01 X-20.4592 Y14.2820 
G01 X-20.3984 Y14.2568 
G01 X-20.3519 Y14.2103 
G01 X-20.3267 Y14.1495 
G01 X-20.3267 Y14.0837 
G01 X-20.3519 Y14.0229 
G01 X-20.3984 Y13.9764 
G01 X-23.2316 Y11.1432 
G00 Z2.5400 
G00 X-27.1263 Y11.3771 
G01 Z-0.1500 F254.00 
G01 X-27.1011 Y11.3163 F508.00 
G01 X-27.1011 Y11.2505 
G01 X-27.1263 Y11.1897 
G01 X-27.1728 Y11.1432 
G01 X-27.2336 Y11.1180 
G01 X-27.7285 Y11.1180 
G01 X-27.7478 Y11.1260 
G01 X-28.1322 Y11.1260 
G01 X-28.4872 Y10.9789 
G01 X-28.7589 Y10.7072 
G01 X-28.9060 Y10.3521 
G01 X-28.9060 Y10.3072 
G01 X-28.9312 Y10.2464 
G01 X-28.9777 Y10.1999 
G01 X-29.0385 Y10.1747 
G01 X-29.1043 Y10.1747 
G01 X-29.1651 Y10.1999 
G01 X-29.2116 Y10.2464 
G01 X-30.7243 Y11.7591 
G01 X-30.7387 Y11.7940 
G01 X-30.7495 Y11.8199 
G01 X-30.7495 Y11.8857 
G01 X-30.7250 Y11.9448 
G01 X-30.6778 Y11.9930 
G01 X-30.5737 Y12.0971 
G01 X-30.5374 Y12.1121 
G01 X-30.5129 Y12.1223 
G01 X-30.4471 Y12.1223 
G01 X-30.3863 Y12.0971 
G01 X-30.3398 Y12.0506 
G01 X-29.7311 Y11.4419 
G01 X-28.6889 Y11.4419 
G01 X-28.0337 Y12.0971 
G01 X-27.9729 Y12.1223 
G01 X-27.9071 Y12.1223 
G01 X-27.8463 Y12.0971 
G01 X-27.7998 Y12.0506 
G01 X-27.1263 Y11.3771 
G00 Z2.5400 
G00 X-8.5376 Y16.6760 
G01 Z-0.1500 F254.00 
G01 X-8.5361 Y16.6754 F508.00 
G01 X-8.5064 Y16.6631 
G01 X-8.4769 Y16.6509 
G01 X-8.4302 Y16.6050 
G01 X-8.4037 Y16.5428 
G01 X-8.4037 Y16.5106 
G01 X-8.4037 Y16.4770 
G01 X-8.4190 Y16.4400 
G01 X-8.4289 Y16.4162 
G01 X-8.4741 Y16.3711 
G01 X-8.5108 Y16.3551 
G01 X-8.5399 Y16.3430 
G01 X-8.5730 Y16.3430 
G01 X-8.6057 Y16.3430 
G01 X-8.6370 Y16.3560 
G01 X-8.6665 Y16.3682 
G01 X-8.6883 Y16.3900 
G01 X-8.7131 Y16.4147 
G01 X-8.7249 Y16.4434 
G01 X-8.7382 Y16.4755 
G01 X-8.7382 Y16.5086 
G01 X-8.7382 Y16.5413 
G01 X-8.7253 Y16.5726 
G01 X-8.7131 Y16.6021 
G01 X-8.6876 Y16.6276 
G01 X-8.6643 Y16.6509 
G01 X-8.6327 Y16.6640 
G01 X-8.6035 Y16.6760 
G01 X-8.5706 Y16.6760 
G01 X-8.5377 Y16.6760 
G00 Z2.5400 
G00 X-23.0942 Y10.7254 
G01 Z-0.1500 F254.00 
G01 X-19.5243 Y14.2953 F508.00 
G01 X-19.5088 Y14.3221 
G01 X-19.4021 Y14.4288 
G01 X-19.2713 Y14.5043 
G01 X-19.1255 Y14.5434 
G01 X-18.9745 Y14.5434 
G01 X-18.8287 Y14.5043 
G01 X-18.6979 Y14.4288 
G01 X-18.5912 Y14.3221 
G01 X-18.5157 Y14.1913 
G01 X-18.4766 Y14.0455 
G01 X-18.4766 Y13.8945 
G01 X-18.5157 Y13.7487 
G01 X-18.5912 Y13.6179 
G01 X-18.6979 Y13.5112 
G01 X-18.7247 Y13.4957 
G01 X-22.5128 Y9.7076 
G01 X-22.6418 Y9.6331 
G01 X-22.7856 Y9.5946 
G01 X-27.8346 Y9.5946 
G01 X-27.8645 Y9.5866 
G01 X-28.0155 Y9.5866 
G01 X-28.1613 Y9.6257 
G01 X-28.2921 Y9.7012 
G01 X-28.3988 Y9.8079 
G01 X-28.4743 Y9.9387 
G01 X-28.5134 Y10.0845 
G01 X-28.5134 Y10.2355 
G01 X-28.4743 Y10.3813 
G01 X-28.3988 Y10.5121 
G01 X-28.2921 Y10.6188 
G01 X-28.1613 Y10.6943 
G01 X-28.0155 Y10.7334 
G01 X-27.8645 Y10.7334 
G01 X-27.8346 Y10.7254 
G01 X-23.0942 Y10.7254 
G00 Z2.5400 
G00 X-32.7387 Y19.9105 
G01 Z-0.1500 F254.00 
G01 X-32.1595 Y19.3313 F508.00 
G01 X-32.0154 Y19.3313 
G01 X-32.0154 Y19.4545 
G01 X-32.1085 Y19.4545 
G01 X-32.6155 Y19.9615 
G01 X-32.6155 Y20.0546 
G01 X-32.7387 Y20.0546 
G01 X-32.7387 Y19.9105 
G00 Z2.5400 
G00 X-0.9506 Y1.0831 
G01 Z-0.1500 F254.00 
G01 X-0.9758 Y1.0223 F508.00 
G01 X-1.0223 Y0.9758 
G01 X-1.0831 Y0.9506 
G01 X-38.2669 Y0.9506 
G01 X-38.3277 Y0.9758 
G01 X-38.3742 Y1.0223 
G01 X-38.3994 Y1.0831 
G01 X-38.3994 Y32.8769 
G01 X-38.3742 Y32.9377 
G01 X-38.3277 Y32.9842 
G01 X-38.2669 Y33.0094 
G01 X-1.0831 Y33.0094 
G01 X-1.0223 Y32.9842 
G01 X-0.9758 Y32.9377 
G01 X-0.9506 Y32.8769 
G01 X-0.9506 Y32.8111 
G01 X-0.9506 Y1.0831 
G00 Z2.5400 
G00 X-6.8756 Y19.4672 
G01 Z-0.1500 F254.00 
G01 X-8.3644 Y19.4672 F508.00 
G01 X-8.5292 Y19.5000 
G01 X-8.6844 Y19.5643 
G01 X-8.7791 Y19.6276 
G01 X-17.3838 Y19.6276 
G01 X-17.3335 Y19.5940 
G01 X-17.2360 Y19.4965 
G01 X-17.2310 Y19.4890 
G01 X-8.9422 Y19.4890 
G01 X-8.9230 Y19.4915 
G01 X-8.9038 Y19.4890 
G01 X-8.8845 Y19.4890 
G01 X-8.8658 Y19.4840 
G01 X-8.8467 Y19.4815 
G01 X-8.8288 Y19.4741 
G01 X-8.8101 Y19.4691 
G01 X-8.7934 Y19.4594 
G01 X-8.4216 Y19.3054 
G01 X-8.3605 Y19.2585 
G01 X-8.3137 Y19.1975 
G01 X-8.2842 Y19.1263 
G01 X-8.2742 Y19.0500 
G01 X-8.2754 Y19.0408 
G01 X-8.2842 Y18.9737 
G01 X-8.3137 Y18.9025 
G01 X-8.3605 Y18.8415 
G01 X-8.4216 Y18.7946 
G01 X-8.4927 Y18.7651 
G01 X-8.7934 Y18.6406 
G01 X-8.8101 Y18.6309 
G01 X-8.8288 Y18.6259 
G01 X-8.8467 Y18.6185 
G01 X-8.8658 Y18.6160 
G01 X-8.8845 Y18.6110 
G01 X-8.9038 Y18.6110 
G01 X-8.9230 Y18.6085 
G01 X-8.9422 Y18.6110 
G01 X-9.0553 Y18.6110 
G01 X-9.3607 Y18.4845 
G01 X-16.7958 Y11.0494 
G01 X-16.8625 Y11.0109 
G01 X-16.9368 Y10.9910 
G01 X-20.0565 Y10.9910 
G01 X-20.0756 Y10.9885 
G01 X-20.0948 Y10.9910 
G01 X-20.1141 Y10.9910 
G01 X-20.1328 Y10.9960 
G01 X-20.1520 Y10.9985 
G01 X-20.1784 Y10.9990 
G01 X-20.2527 Y11.0189 
G01 X-20.3194 Y11.0574 
G01 X-20.3739 Y11.1119 
G01 X-20.4123 Y11.1785 
G01 X-20.4323 Y11.2529 
G01 X-20.4323 Y11.3299 
G01 X-20.4123 Y11.4043 
G01 X-20.3739 Y11.4709 
G01 X-20.3194 Y11.5254 
G01 X-18.6487 Y13.1960 
G01 X-18.6370 Y13.2114 
G01 X-18.6216 Y13.2232 
G01 X-18.6080 Y13.2368 
G01 X-18.5912 Y13.2465 
G01 X-18.5759 Y13.2583 
G01 X-18.3387 Y13.4947 
G01 X-18.2110 Y13.8031 
G01 X-18.2110 Y14.1551 
G01 X-18.1911 Y14.2295 
G01 X-18.1526 Y14.2961 
G01 X-18.0981 Y14.3506 
G01 X-18.0315 Y14.3891 
G01 X-17.9571 Y14.4090 
G01 X-15.5035 Y14.4090 
G01 X-15.4844 Y14.4115 
G01 X-15.4652 Y14.4090 
G01 X-15.4459 Y14.4090 
G01 X-15.4272 Y14.4040 
G01 X-15.4080 Y14.4015 
G01 X-15.0731 Y14.4010 
G01 X-14.7647 Y14.5287 
G01 X-14.5287 Y14.7647 
G01 X-14.4010 Y15.0731 
G01 X-14.4010 Y15.4069 
G01 X-14.5287 Y15.7153 
G01 X-14.7647 Y15.9513 
G01 X-15.0731 Y16.0790 
G01 X-15.4069 Y16.0790 
G01 X-15.4272 Y16.0760 
G01 X-15.4459 Y16.0710 
G01 X-15.4652 Y16.0710 
G01 X-15.4844 Y16.0685 
G01 X-15.5035 Y16.0710 
G01 X-24.2953 Y16.0710 
G01 X-24.6007 Y15.9445 
G01 X-26.6557 Y13.8895 
G01 X-26.7224 Y13.8510 
G01 X-26.7967 Y13.8311 
G01 X-27.1385 Y13.8311 
G01 X-27.7605 Y13.2092 
G01 X-27.7854 Y13.1948 
G01 X-27.8271 Y13.1707 
G01 X-27.8851 Y13.1551 
G01 X-27.9015 Y13.1507 
G01 X-27.9785 Y13.1507 
G01 X-27.9817 Y13.1516 
G01 X-28.0529 Y13.1707 
G01 X-28.1181 Y13.2083 
G01 X-28.1740 Y13.2636 
G01 X-28.7415 Y13.8311 
G01 X-29.6785 Y13.8311 
G01 X-30.3005 Y13.2092 
G01 X-30.3254 Y13.1948 
G01 X-30.3671 Y13.1707 
G01 X-30.4251 Y13.1551 
G01 X-30.4415 Y13.1507 
G01 X-30.5185 Y13.1507 
G01 X-30.5217 Y13.1516 
G01 X-30.5929 Y13.1707 
G01 X-30.6581 Y13.2083 
G01 X-30.7140 Y13.2636 
G01 X-31.2815 Y13.8311 
G01 X-32.2185 Y13.8311 
G01 X-32.8811 Y13.1685 
G01 X-32.8811 Y12.2315 
G01 X-32.6394 Y11.9898 
G01 X-32.6009 Y11.9231 
G01 X-32.5810 Y11.8488 
G01 X-32.5810 Y11.2647 
G01 X-32.4545 Y10.9593 
G01 X-29.6807 Y8.1855 
G01 X-29.3753 Y8.0590 
G01 X-15.0747 Y8.0590 
G01 X-14.7693 Y8.1855 
G01 X-14.4843 Y8.4705 
G01 X-9.7691 Y13.1856 
G01 X-9.7574 Y13.2010 
G01 X-9.7420 Y13.2127 
G01 X-9.7284 Y13.2264 
G01 X-9.7116 Y13.2361 
G01 X-9.6963 Y13.2478 
G01 X-9.6785 Y13.2552 
G01 X-9.6617 Y13.2649 
G01 X-9.6430 Y13.2699 
G01 X-9.6252 Y13.2773 
G01 X-9.6060 Y13.2798 
G01 X-9.5873 Y13.2848 
G01 X-9.5680 Y13.2848 
G01 X-9.5488 Y13.2874 
G01 X-9.5297 Y13.2848 
G01 X-9.5103 Y13.2848 
G01 X-9.4917 Y13.2798 
G01 X-9.4725 Y13.2773 
G01 X-9.4547 Y13.2699 
G01 X-9.4360 Y13.2649 
G01 X-9.4192 Y13.2552 
G01 X-9.4014 Y13.2478 
G01 X-9.3860 Y13.2361 
G01 X-9.3693 Y13.2264 
G01 X-9.3556 Y13.2127 
G01 X-9.3403 Y13.2010 
G01 X-9.3285 Y13.1856 
G01 X-9.3149 Y13.1720 
G01 X-9.3052 Y13.1552 
G01 X-9.2934 Y13.1399 
G01 X-9.2860 Y13.1220 
G01 X-9.2764 Y13.1053 
G01 X-9.2714 Y13.0866 
G01 X-9.2640 Y13.0688 
G01 X-9.2614 Y13.0496 
G01 X-9.2564 Y13.0309 
G01 X-9.2564 Y13.0116 
G01 X-9.2539 Y12.9924 
G01 X-9.2564 Y12.9733 
G01 X-9.2564 Y12.9539 
G01 X-9.2614 Y12.9353 
G01 X-9.2640 Y12.9161 
G01 X-9.2714 Y12.8983 
G01 X-9.2718 Y12.5028 
G01 X-9.1209 Y12.1384 
G01 X-8.8420 Y11.8595 
G01 X-8.4776 Y11.7086 
G01 X-6.7624 Y11.7086 
G01 X-6.3980 Y11.8595 
G01 X-6.1191 Y12.1384 
G01 X-5.9682 Y12.5028 
G01 X-5.9682 Y12.8972 
G01 X-6.1191 Y13.2616 
G01 X-6.3980 Y13.5405 
G01 X-6.7473 Y13.6851 
G01 X-6.8150 Y13.7132 
G01 X-6.8184 Y13.7146 
G01 X-6.8795 Y13.7615 
G01 X-6.9263 Y13.8225 
G01 X-6.9552 Y13.8922 
G01 X-6.9658 Y13.9700 
G01 X-6.9650 Y13.9764 
G01 X-6.9558 Y14.0463 
G01 X-6.9272 Y14.1154 
G01 X-6.9255 Y14.1186 
G01 X-6.8795 Y14.1785 
G01 X-6.8184 Y14.2254 
G01 X-6.7542 Y14.2520 
G01 X-6.7473 Y14.2549 
G01 X-6.3980 Y14.3995 
G01 X-6.1191 Y14.6784 
G01 X-5.9682 Y15.0428 
G01 X-5.9682 Y15.4372 
G01 X-6.1191 Y15.8016 
G01 X-6.3980 Y16.0805 
G01 X-6.7473 Y16.2251 
G01 X-6.8150 Y16.2532 
G01 X-6.8184 Y16.2546 
G01 X-6.8795 Y16.3015 
G01 X-6.9263 Y16.3625 
G01 X-6.9552 Y16.4322 
G01 X-6.9658 Y16.5100 
G01 X-6.9650 Y16.5164 
G01 X-6.9558 Y16.5863 
G01 X-6.9272 Y16.6554 
G01 X-6.9255 Y16.6586 
G01 X-6.8795 Y16.7185 
G01 X-6.8184 Y16.7654 
G01 X-6.7542 Y16.7920 
G01 X-6.7473 Y16.7949 
G01 X-6.3980 Y16.9395 
G01 X-6.1191 Y17.2184 
G01 X-5.9682 Y17.5828 
G01 X-5.9682 Y17.9772 
G01 X-6.1191 Y18.3416 
G01 X-6.3980 Y18.6205 
G01 X-6.7473 Y18.7651 
G01 X-6.8150 Y18.7932 
G01 X-6.8184 Y18.7946 
G01 X-6.8795 Y18.8415 
G01 X-6.9263 Y18.9025 
G01 X-6.9552 Y18.9722 
G01 X-6.9658 Y19.0500 
G01 X-6.9650 Y19.0564 
G01 X-6.9558 Y19.1263 
G01 X-6.9272 Y19.1954 
G01 X-6.9255 Y19.1986 
G01 X-6.8795 Y19.2585 
G01 X-6.8184 Y19.3054 
G01 X-6.7542 Y19.3320 
G01 X-6.7473 Y19.3349 
G01 X-6.3980 Y19.4795 
G01 X-6.1191 Y19.7584 
G01 X-5.9682 Y20.1228 
G01 X-5.9682 Y20.5172 
G01 X-6.1191 Y20.8816 
G01 X-6.3980 Y21.1605 
G01 X-6.7473 Y21.3051 
G01 X-6.8150 Y21.3332 
G01 X-6.8184 Y21.3346 
G01 X-6.8795 Y21.3815 
G01 X-6.9263 Y21.4425 
G01 X-6.9552 Y21.5122 
G01 X-6.9658 Y21.5900 
G01 X-6.9650 Y21.5964 
G01 X-6.9558 Y21.6663 
G01 X-6.9272 Y21.7354 
G01 X-6.9255 Y21.7386 
G01 X-6.8795 Y21.7985 
G01 X-6.8184 Y21.8454 
G01 X-6.7542 Y21.8720 
G01 X-6.7473 Y21.8749 
G01 X-6.3980 Y22.0195 
G01 X-6.1191 Y22.2984 
G01 X-5.9682 Y22.6628 
G01 X-5.9682 Y23.0572 
G01 X-6.1191 Y23.4216 
G01 X-6.3980 Y23.7005 
G01 X-6.7624 Y23.8514 
G01 X-8.4776 Y23.8514 
G01 X-8.8420 Y23.7005 
G01 X-9.1209 Y23.4216 
G01 X-9.2718 Y23.0572 
G01 X-9.2718 Y22.6628 
G01 X-9.1209 Y22.2984 
G01 X-8.8420 Y22.0195 
G01 X-8.4216 Y21.8454 
G01 X-8.3605 Y21.7985 
G01 X-8.3137 Y21.7375 
G01 X-8.2842 Y21.6663 
G01 X-8.2742 Y21.5900 
G01 X-8.2754 Y21.5808 
G01 X-8.2842 Y21.5137 
G01 X-8.3137 Y21.4425 
G01 X-8.3605 Y21.3815 
G01 X-8.4216 Y21.3346 
G01 X-8.4927 Y21.3051 
G01 X-8.7934 Y21.1806 
G01 X-8.8101 Y21.1709 
G01 X-8.8288 Y21.1659 
G01 X-8.8467 Y21.1585 
G01 X-8.8658 Y21.1560 
G01 X-8.8845 Y21.1510 
G01 X-8.9038 Y21.1510 
G01 X-8.9230 Y21.1485 
G01 X-8.9422 Y21.1510 
G01 X-19.8932 Y21.1510 
G01 X-19.9675 Y21.1709 
G01 X-20.0342 Y21.2094 
G01 X-20.0506 Y21.2258 
G01 X-22.1416 Y23.3168 
G01 X-22.3893 Y23.5645 
G01 X-22.6947 Y23.6910 
G01 X-26.8353 Y23.6910 
G01 X-27.1407 Y23.5645 
G01 X-29.1957 Y21.5095 
G01 X-29.2624 Y21.4710 
G01 X-29.3367 Y21.4511 
G01 X-29.6785 Y21.4511 
G01 X-30.3443 Y20.7854 
G01 X-30.3451 Y20.7821 
G01 X-30.3610 Y20.7228 
G01 X-30.3857 Y20.6800 
G01 X-30.3995 Y20.6561 
G01 X-30.4531 Y20.6025 
G01 X-30.5206 Y20.5632 
G01 X-30.5950 Y20.5432 
G01 X-30.6720 Y20.5432 
G01 X-30.6870 Y20.5473 
G01 X-30.7464 Y20.5632 
G01 X-30.7575 Y20.5696 
G01 X-30.7575 Y20.0704 
G01 X-30.7464 Y20.0768 
G01 X-30.6884 Y20.0924 
G01 X-30.6720 Y20.0968 
G01 X-30.5950 Y20.0968 
G01 X-30.5918 Y20.0959 
G01 X-30.5206 Y20.0768 
G01 X-30.4554 Y20.0392 
G01 X-30.3995 Y19.9839 
G01 X-30.3851 Y19.9590 
G01 X-30.3610 Y19.9172 
G01 X-30.3455 Y19.8592 
G01 X-30.3443 Y19.8546 
G01 X-29.6785 Y19.1889 
G01 X-28.7415 Y19.1889 
G01 X-28.1195 Y19.8108 
G01 X-28.0946 Y19.8252 
G01 X-28.0529 Y19.8493 
G01 X-27.9949 Y19.8649 
G01 X-27.9785 Y19.8693 
G01 X-27.9015 Y19.8693 
G01 X-27.8983 Y19.8684 
G01 X-27.8271 Y19.8493 
G01 X-27.7619 Y19.8117 
G01 X-27.7060 Y19.7564 
G01 X-27.1385 Y19.1889 
G01 X-26.2015 Y19.1889 
G01 X-25.5795 Y19.8108 
G01 X-25.5546 Y19.8252 
G01 X-25.5129 Y19.8493 
G01 X-25.4549 Y19.8649 
G01 X-25.4385 Y19.8693 
G01 X-25.3615 Y19.8693 
G01 X-25.3583 Y19.8684 
G01 X-25.2871 Y19.8493 
G01 X-25.2219 Y19.8117 
G01 X-25.1660 Y19.7564 
G01 X-24.5985 Y19.1889 
G01 X-23.6615 Y19.1889 
G01 X-22.9989 Y19.8515 
G01 X-22.9989 Y20.7885 
G01 X-23.7674 Y21.5571 
G01 X-23.7818 Y21.5820 
G01 X-23.8059 Y21.6237 
G01 X-23.8215 Y21.6817 
G01 X-23.8259 Y21.6981 
G01 X-23.8259 Y21.7751 
G01 X-23.8250 Y21.7783 
G01 X-23.8059 Y21.8495 
G01 X-23.7683 Y21.9147 
G01 X-23.7130 Y21.9706 
G01 X-23.6881 Y21.9850 
G01 X-23.6463 Y22.0091 
G01 X-23.5884 Y22.0246 
G01 X-23.5720 Y22.0290 
G01 X-23.2868 Y22.0290 
G01 X-23.2125 Y22.0091 
G01 X-23.1458 Y21.9706 
G01 X-23.0913 Y21.9161 
G01 X-20.7907 Y19.6155 
G01 X-20.4853 Y19.4890 
G01 X-18.3290 Y19.4890 
G01 X-18.3240 Y19.4965 
G01 X-18.2265 Y19.5940 
G01 X-18.1762 Y19.6276 
G01 X-20.3882 Y19.6276 
G01 X-20.5220 Y19.6542 
G01 X-20.6480 Y19.7064 
G01 X-20.7614 Y19.7822 
G01 X-23.1468 Y22.1676 
G01 X-26.3832 Y22.1676 
G01 X-28.2175 Y20.3333 
G01 X-28.2175 Y19.9089 
G01 X-28.7989 Y19.3275 
G01 X-29.6211 Y19.3275 
G01 X-30.2025 Y19.9089 
G01 X-30.2025 Y20.7311 
G01 X-29.6211 Y21.3125 
G01 X-29.1967 Y21.3125 
G01 X-27.1114 Y23.3978 
G01 X-26.9980 Y23.4736 
G01 X-26.8720 Y23.5258 
G01 X-26.7382 Y23.5524 
G01 X-22.7918 Y23.5524 
G01 X-22.6580 Y23.5258 
G01 X-22.5320 Y23.4736 
G01 X-22.4186 Y23.3978 
G01 X-22.3222 Y23.3014 
G01 X-20.0332 Y21.0124 
G01 X-8.7791 Y21.0124 
G01 X-8.6844 Y21.0757 
G01 X-8.5292 Y21.1400 
G01 X-8.3644 Y21.1728 
G01 X-6.8756 Y21.1728 
G01 X-6.7108 Y21.1400 
G01 X-6.5556 Y21.0757 
G01 X-6.4160 Y20.9824 
G01 X-6.2972 Y20.8636 
G01 X-6.2039 Y20.7240 
G01 X-6.1396 Y20.5688 
G01 X-6.1068 Y20.4040 
G01 X-6.1068 Y20.2360 
G01 X-6.1396 Y20.0712 
G01 X-6.2039 Y19.9160 
G01 X-6.2972 Y19.7764 
G01 X-6.4160 Y19.6576 
G01 X-6.5556 Y19.5643 
G01 X-6.7108 Y19.5000 
G01 X-6.8756 Y19.4672 
G00 Z2.5400 
G00 X-8.4941 Y16.7955 
G01 Z-0.1500 F254.00 
G01 X-8.4764 Y16.7881 F508.00 
G01 X-8.4578 Y16.7831 
G01 X-8.4410 Y16.7734 
G01 X-8.4215 Y16.7653 
G01 X-8.4049 Y16.7526 
G01 X-8.3911 Y16.7446 
G01 X-8.3798 Y16.7333 
G01 X-8.3604 Y16.7184 
G01 X-8.3478 Y16.7020 
G01 X-8.3457 Y16.6992 
G01 X-8.3367 Y16.6902 
G01 X-8.3302 Y16.6790 
G01 X-8.3136 Y16.6573 
G01 X-8.3092 Y16.6467 
G01 X-8.3032 Y16.6323 
G01 X-8.2982 Y16.6235 
G01 X-8.2955 Y16.6136 
G01 X-8.2842 Y16.5862 
G01 X-8.2803 Y16.5570 
G01 X-8.2782 Y16.5491 
G01 X-8.2782 Y16.5410 
G01 X-8.2742 Y16.5098 
G01 X-8.2782 Y16.4790 
G01 X-8.2782 Y16.4721 
G01 X-8.2800 Y16.4655 
G01 X-8.2842 Y16.4335 
G01 X-8.2965 Y16.4039 
G01 X-8.2982 Y16.3978 
G01 X-8.3014 Y16.3922 
G01 X-8.3137 Y16.3624 
G01 X-8.3333 Y16.3370 
G01 X-8.3367 Y16.3311 
G01 X-8.3415 Y16.3263 
G01 X-8.3606 Y16.3013 
G01 X-8.3770 Y16.2888 
G01 X-8.3854 Y16.2824 
G01 X-8.3933 Y16.2745 
G01 X-8.4031 Y16.2688 
G01 X-8.4217 Y16.2545 
G01 X-8.4326 Y16.2500 
G01 X-8.4433 Y16.2456 
G01 X-8.4600 Y16.2360 
G01 X-8.4787 Y16.2309 
G01 X-8.4966 Y16.2235 
G01 X-8.5157 Y16.2210 
G01 X-8.5343 Y16.2160 
G01 X-8.5538 Y16.2160 
G01 X-8.5730 Y16.2135 
G01 X-8.5921 Y16.2160 
G01 X-8.6113 Y16.2160 
G01 X-8.6301 Y16.2211 
G01 X-8.6493 Y16.2236 
G01 X-8.6671 Y16.2310 
G01 X-8.6857 Y16.2360 
G01 X-8.7025 Y16.2457 
G01 X-8.7204 Y16.2531 
G01 X-8.7357 Y16.2648 
G01 X-8.7524 Y16.2745 
G01 X-8.7661 Y16.2882 
G01 X-8.7815 Y16.3000 
G01 X-8.7932 Y16.3153 
G01 X-8.8068 Y16.3289 
G01 X-8.8165 Y16.3457 
G01 X-8.8283 Y16.3611 
G01 X-8.8357 Y16.3789 
G01 X-8.8453 Y16.3956 
G01 X-8.8503 Y16.4143 
G01 X-8.8577 Y16.4322 
G01 X-8.8602 Y16.4513 
G01 X-8.8652 Y16.4699 
G01 X-8.8652 Y16.4894 
G01 X-8.8678 Y16.5086 
G01 X-8.8652 Y16.5277 
G01 X-8.8652 Y16.5469 
G01 X-8.8602 Y16.5657 
G01 X-8.8577 Y16.5849 
G01 X-8.8503 Y16.6027 
G01 X-8.8453 Y16.6213 
G01 X-8.8356 Y16.6381 
G01 X-8.8282 Y16.6560 
G01 X-8.8164 Y16.6713 
G01 X-8.8068 Y16.6880 
G01 X-8.7931 Y16.7017 
G01 X-8.7813 Y16.7171 
G01 X-8.7638 Y16.7310 
G01 X-8.7502 Y16.7446 
G01 X-8.7334 Y16.7543 
G01 X-8.7180 Y16.7661 
G01 X-8.7002 Y16.7735 
G01 X-8.6835 Y16.7831 
G01 X-8.6647 Y16.7881 
G01 X-8.6468 Y16.7956 
G01 X-8.6277 Y16.7981 
G01 X-8.6091 Y16.8030 
G01 X-8.5897 Y16.8030 
G01 X-8.5705 Y16.8056 
G01 X-8.5514 Y16.8030 
G01 X-8.5321 Y16.8030 
G01 X-8.5134 Y16.7980 
G01 X-8.4941 Y16.7955 
G00 Z2.5400 
G00 X-27.0325 Y11.4629 
G01 Z-0.1500 F254.00 
G01 X-26.9941 Y11.3963 F508.00 
G01 X-26.9741 Y11.3219 
G01 X-26.9741 Y11.2449 
G01 X-26.9941 Y11.1705 
G01 X-27.0325 Y11.1039 
G01 X-27.0870 Y11.0494 
G01 X-27.1537 Y11.0109 
G01 X-27.2280 Y10.9910 
G01 X-27.6765 Y10.9910 
G01 X-27.6956 Y10.9885 
G01 X-27.7148 Y10.9910 
G01 X-27.7341 Y10.9910 
G01 X-27.7528 Y10.9960 
G01 X-27.7720 Y10.9985 
G01 X-28.1069 Y10.9990 
G01 X-28.4153 Y10.8713 
G01 X-28.6513 Y10.6353 
G01 X-28.7790 Y10.3269 
G01 X-28.7790 Y10.3016 
G01 X-28.7989 Y10.2273 
G01 X-28.8374 Y10.1606 
G01 X-28.8910 Y10.1070 
G01 X-28.9585 Y10.0676 
G01 X-29.0329 Y10.0477 
G01 X-29.1099 Y10.0477 
G01 X-29.1843 Y10.0676 
G01 X-29.2509 Y10.1061 
G01 X-30.7636 Y11.6188 
G01 X-30.8171 Y11.6724 
G01 X-30.8338 Y11.7006 
G01 X-30.8565 Y11.7399 
G01 X-30.8765 Y11.8143 
G01 X-30.8765 Y11.8913 
G01 X-30.8682 Y11.9221 
G01 X-30.8565 Y11.9657 
G01 X-30.8180 Y12.0323 
G01 X-30.8153 Y12.0350 
G01 X-30.7140 Y12.1364 
G01 X-30.6622 Y12.1881 
G01 X-30.6595 Y12.1908 
G01 X-30.6305 Y12.2076 
G01 X-30.5929 Y12.2293 
G01 X-30.5185 Y12.2493 
G01 X-30.4415 Y12.2493 
G01 X-30.3671 Y12.2293 
G01 X-30.3278 Y12.2066 
G01 X-30.3005 Y12.1908 
G01 X-29.6785 Y11.5689 
G01 X-28.7415 Y11.5689 
G01 X-28.1195 Y12.1908 
G01 X-28.0529 Y12.2293 
G01 X-27.9785 Y12.2493 
G01 X-27.9015 Y12.2493 
G01 X-27.8271 Y12.2293 
G01 X-27.7605 Y12.1908 
G01 X-27.7060 Y12.1364 
G01 X-27.0325 Y11.4629 
G00 Z2.5400 
G00 X-23.7674 Y13.9371 
G01 Z-0.1500 F254.00 
G01 X-23.7800 Y13.9588 F508.00 
G01 X-23.8059 Y14.0037 
G01 X-23.8226 Y14.0657 
G01 X-23.8259 Y14.0781 
G01 X-23.8259 Y14.1551 
G01 X-23.8059 Y14.2295 
G01 X-23.7674 Y14.2961 
G01 X-23.7632 Y14.3004 
G01 X-23.7130 Y14.3506 
G01 X-23.6913 Y14.3631 
G01 X-23.6463 Y14.3891 
G01 X-23.5843 Y14.4057 
G01 X-23.5720 Y14.4090 
G01 X-20.4536 Y14.4090 
G01 X-20.3793 Y14.3891 
G01 X-20.3126 Y14.3506 
G01 X-20.2590 Y14.2970 
G01 X-20.2196 Y14.2295 
G01 X-20.1997 Y14.1551 
G01 X-20.1997 Y14.0781 
G01 X-20.2196 Y14.0037 
G01 X-20.2581 Y13.9371 
G01 X-23.1458 Y11.0494 
G01 X-23.2125 Y11.0109 
G01 X-23.2837 Y10.9918 
G01 X-23.2868 Y10.9910 
G01 X-23.5720 Y10.9910 
G01 X-23.5870 Y10.9950 
G01 X-23.6463 Y11.0109 
G01 X-23.6891 Y11.0356 
G01 X-23.7130 Y11.0494 
G01 X-23.7666 Y11.1030 
G01 X-23.8059 Y11.1705 
G01 X-23.8259 Y11.2449 
G01 X-23.8259 Y11.3219 
G01 X-23.8218 Y11.3369 
G01 X-23.8059 Y11.3963 
G01 X-23.7812 Y11.4391 
G01 X-23.7674 Y11.4629 
G01 X-22.9989 Y12.2315 
G01 X-22.9989 Y13.1685 
G01 X-23.7674 Y13.9371 
G00 Z2.5400 
G00 X-8.4939 Y14.2554 
G01 Z-0.1500 F254.00 
G01 X-8.4762 Y14.2480 F508.00 
G01 X-8.4576 Y14.2430 
G01 X-8.4409 Y14.2334 
G01 X-8.4215 Y14.2253 
G01 X-8.4047 Y14.2125 
G01 X-8.3909 Y14.2045 
G01 X-8.3796 Y14.1932 
G01 X-8.3604 Y14.1784 
G01 X-8.3456 Y14.1591 
G01 X-8.3365 Y14.1500 
G01 X-8.3301 Y14.1389 
G01 X-8.3136 Y14.1173 
G01 X-8.3031 Y14.0921 
G01 X-8.2981 Y14.0833 
G01 X-8.2954 Y14.0735 
G01 X-8.2842 Y14.0462 
G01 X-8.2803 Y14.0168 
G01 X-8.2782 Y14.0089 
G01 X-8.2782 Y14.0008 
G01 X-8.2742 Y13.9698 
G01 X-8.2783 Y13.9388 
G01 X-8.2783 Y13.9319 
G01 X-8.2800 Y13.9253 
G01 X-8.2842 Y13.8935 
G01 X-8.2966 Y13.8638 
G01 X-8.2982 Y13.8576 
G01 X-8.3014 Y13.8520 
G01 X-8.3137 Y13.8224 
G01 X-8.3334 Y13.7969 
G01 X-8.3368 Y13.7909 
G01 X-8.3416 Y13.7861 
G01 X-8.3606 Y13.7613 
G01 X-8.3855 Y13.7423 
G01 X-8.3935 Y13.7343 
G01 X-8.4032 Y13.7287 
G01 X-8.4217 Y13.7145 
G01 X-8.4435 Y13.7055 
G01 X-8.4602 Y13.6959 
G01 X-8.4788 Y13.6909 
G01 X-8.4966 Y13.6835 
G01 X-8.5158 Y13.6810 
G01 X-8.5345 Y13.6760 
G01 X-8.5539 Y13.6760 
G01 X-8.5730 Y13.6735 
G01 X-8.5922 Y13.6761 
G01 X-8.6115 Y13.6761 
G01 X-8.6302 Y13.6811 
G01 X-8.6493 Y13.6836 
G01 X-8.6672 Y13.6910 
G01 X-8.6859 Y13.6960 
G01 X-8.7026 Y13.7057 
G01 X-8.7204 Y13.7131 
G01 X-8.7358 Y13.7249 
G01 X-8.7525 Y13.7346 
G01 X-8.7662 Y13.7482 
G01 X-8.7815 Y13.7600 
G01 X-8.7933 Y13.7754 
G01 X-8.8069 Y13.7891 
G01 X-8.8166 Y13.8058 
G01 X-8.8283 Y13.8211 
G01 X-8.8357 Y13.8390 
G01 X-8.8454 Y13.8558 
G01 X-8.8504 Y13.8744 
G01 X-8.8577 Y13.8923 
G01 X-8.8603 Y13.9114 
G01 X-8.8653 Y13.9302 
G01 X-8.8652 Y13.9495 
G01 X-8.8678 Y13.9686 
G01 X-8.8652 Y13.9878 
G01 X-8.8652 Y14.0071 
G01 X-8.8602 Y14.0258 
G01 X-8.8577 Y14.0449 
G01 X-8.8502 Y14.0628 
G01 X-8.8452 Y14.0815 
G01 X-8.8356 Y14.0982 
G01 X-8.8282 Y14.1160 
G01 X-8.8164 Y14.1314 
G01 X-8.8067 Y14.1481 
G01 X-8.7930 Y14.1618 
G01 X-8.7813 Y14.1771 
G01 X-8.7636 Y14.1911 
G01 X-8.7500 Y14.2047 
G01 X-8.7332 Y14.2144 
G01 X-8.7178 Y14.2262 
G01 X-8.7000 Y14.2336 
G01 X-8.6833 Y14.2432 
G01 X-8.6645 Y14.2482 
G01 X-8.6466 Y14.2556 
G01 X-8.6275 Y14.2581 
G01 X-8.6089 Y14.2631 
G01 X-8.5895 Y14.2631 
G01 X-8.5703 Y14.2656 
G01 X-8.5512 Y14.2630 
G01 X-8.5319 Y14.2630 
G01 X-8.5132 Y14.2580 
G01 X-8.4939 Y14.2554 
G00 Z2.5400 
G00 X-6.8756 Y22.0072 
G01 Z-0.1500 F254.00 
G01 X-8.3644 Y22.0072 F508.00 
G01 X-8.5292 Y22.0400 
G01 X-8.6844 Y22.1043 
G01 X-8.8240 Y22.1976 
G01 X-8.9428 Y22.3164 
G01 X-9.0361 Y22.4560 
G01 X-9.1004 Y22.6112 
G01 X-9.1332 Y22.7760 
G01 X-9.1332 Y22.9440 
G01 X-9.1004 Y23.1088 
G01 X-9.0361 Y23.2640 
G01 X-8.9428 Y23.4036 
G01 X-8.8240 Y23.5224 
G01 X-8.6844 Y23.6157 
G01 X-8.5292 Y23.6800 
G01 X-8.3644 Y23.7128 
G01 X-6.8756 Y23.7128 
G01 X-6.7108 Y23.6800 
G01 X-6.5556 Y23.6157 
G01 X-6.4160 Y23.5224 
G01 X-6.2972 Y23.4036 
G01 X-6.2039 Y23.2640 
G01 X-6.1396 Y23.1088 
G01 X-6.1068 Y22.9440 
G01 X-6.1068 Y22.7760 
G01 X-6.1396 Y22.6112 
G01 X-6.2039 Y22.4560 
G01 X-6.2972 Y22.3164 
G01 X-6.4160 Y22.1976 
G01 X-6.5556 Y22.1043 
G01 X-6.7108 Y22.0400 
G01 X-6.8756 Y22.0072 
G00 Z2.5400 
G00 X-6.8756 Y16.9272 
G01 Z-0.1500 F254.00 
G01 X-8.3644 Y16.9272 F508.00 
G01 X-8.5292 Y16.9600 
G01 X-8.6718 Y17.0190 
G01 X-15.9722 Y9.7186 
G01 X-16.0686 Y9.6222 
G01 X-16.1282 Y9.5824 
G01 X-15.5268 Y9.5824 
G01 X-9.3314 Y15.7778 
G01 X-9.2180 Y15.8536 
G01 X-9.0920 Y15.9058 
G01 X-8.9582 Y15.9324 
G01 X-8.7791 Y15.9324 
G01 X-8.6844 Y15.9957 
G01 X-8.5292 Y16.0600 
G01 X-8.3644 Y16.0928 
G01 X-6.8756 Y16.0928 
G01 X-6.7108 Y16.0600 
G01 X-6.5556 Y15.9957 
G01 X-6.4160 Y15.9024 
G01 X-6.2972 Y15.7836 
G01 X-6.2039 Y15.6440 
G01 X-6.1396 Y15.4888 
G01 X-6.1068 Y15.3240 
G01 X-6.1068 Y15.1560 
G01 X-6.1396 Y14.9912 
G01 X-6.2039 Y14.8360 
G01 X-6.2972 Y14.6964 
G01 X-6.4160 Y14.5776 
G01 X-6.5556 Y14.4843 
G01 X-6.7108 Y14.4200 
G01 X-6.8756 Y14.3872 
G01 X-8.3644 Y14.3872 
G01 X-8.5292 Y14.4200 
G01 X-8.6718 Y14.4790 
G01 X-14.7022 Y8.4486 
G01 X-14.7986 Y8.3522 
G01 X-14.9120 Y8.2764 
G01 X-15.0380 Y8.2242 
G01 X-15.1718 Y8.1976 
G01 X-29.2782 Y8.1976 
G01 X-29.4120 Y8.2242 
G01 X-29.5380 Y8.2764 
G01 X-29.6514 Y8.3522 
G01 X-32.1914 Y10.8922 
G01 X-32.2878 Y10.9886 
G01 X-32.3636 Y11.1020 
G01 X-32.4158 Y11.2280 
G01 X-32.4424 Y11.3618 
G01 X-32.4424 Y11.9888 
G01 X-32.7425 Y12.2889 
G01 X-32.7425 Y13.1111 
G01 X-32.1611 Y13.6925 
G01 X-31.3389 Y13.6925 
G01 X-30.7575 Y13.1111 
G01 X-30.7575 Y12.2889 
G01 X-31.0576 Y11.9888 
G01 X-31.0576 Y11.7168 
G01 X-28.9232 Y9.5824 
G01 X-28.3362 Y9.5824 
G01 X-28.3865 Y9.6160 
G01 X-28.4840 Y9.7135 
G01 X-28.5607 Y9.8282 
G01 X-28.6135 Y9.9557 
G01 X-28.6404 Y10.0910 
G01 X-28.6404 Y10.2290 
G01 X-28.6135 Y10.3643 
G01 X-28.5607 Y10.4918 
G01 X-28.4840 Y10.6065 
G01 X-28.3865 Y10.7040 
G01 X-28.2718 Y10.7807 
G01 X-28.1443 Y10.8335 
G01 X-28.0090 Y10.8604 
G01 X-27.8710 Y10.8604 
G01 X-27.8308 Y10.8524 
G01 X-23.1468 Y10.8524 
G01 X-19.6168 Y14.3824 
G01 X-19.5940 Y14.4165 
G01 X-19.4965 Y14.5140 
G01 X-19.4462 Y14.5476 
G01 X-23.8432 Y14.5476 
G01 X-25.6775 Y12.7133 
G01 X-25.6775 Y12.2889 
G01 X-26.2589 Y11.7075 
G01 X-27.0811 Y11.7075 
G01 X-27.6625 Y12.2889 
G01 X-27.6625 Y13.1111 
G01 X-27.0811 Y13.6925 
G01 X-26.6567 Y13.6925 
G01 X-24.5714 Y15.7778 
G01 X-24.4580 Y15.8536 
G01 X-24.3320 Y15.9058 
G01 X-24.1982 Y15.9324 
G01 X-15.3492 Y15.9324 
G01 X-15.3090 Y15.9404 
G01 X-15.1710 Y15.9404 
G01 X-15.0357 Y15.9135 
G01 X-14.9082 Y15.8607 
G01 X-14.7935 Y15.7840 
G01 X-14.6960 Y15.6865 
G01 X-14.6193 Y15.5718 
G01 X-14.5665 Y15.4443 
G01 X-14.5396 Y15.3090 
G01 X-14.5396 Y15.1710 
G01 X-14.5665 Y15.0357 
G01 X-14.6193 Y14.9082 
G01 X-14.6960 Y14.7935 
G01 X-14.7935 Y14.6960 
G01 X-14.9082 Y14.6193 
G01 X-15.0357 Y14.5665 
G01 X-15.1710 Y14.5396 
G01 X-15.3090 Y14.5396 
G01 X-15.3492 Y14.5476 
G01 X-18.6538 Y14.5476 
G01 X-18.6035 Y14.5140 
G01 X-18.5060 Y14.4165 
G01 X-18.4293 Y14.3018 
G01 X-18.3765 Y14.1743 
G01 X-18.3496 Y14.0390 
G01 X-18.3496 Y13.9010 
G01 X-18.3765 Y13.7657 
G01 X-18.4293 Y13.6382 
G01 X-18.5060 Y13.5235 
G01 X-18.6035 Y13.4260 
G01 X-18.6376 Y13.4032 
G01 X-22.4186 Y9.6222 
G01 X-22.4782 Y9.5824 
G01 X-20.7162 Y9.5824 
G01 X-20.7665 Y9.6160 
G01 X-20.8640 Y9.7135 
G01 X-20.9407 Y9.8282 
G01 X-20.9935 Y9.9557 
G01 X-21.0204 Y10.0910 
G01 X-21.0204 Y10.2290 
G01 X-20.9935 Y10.3643 
G01 X-20.9407 Y10.4918 
G01 X-20.8640 Y10.6065 
G01 X-20.7665 Y10.7040 
G01 X-20.6518 Y10.7807 
G01 X-20.5243 Y10.8335 
G01 X-20.3890 Y10.8604 
G01 X-20.2510 Y10.8604 
G01 X-20.2108 Y10.8524 
G01 X-16.7968 Y10.8524 
G01 X-9.3314 Y18.3178 
G01 X-9.2180 Y18.3936 
G01 X-9.0920 Y18.4458 
G01 X-8.9582 Y18.4724 
G01 X-8.7791 Y18.4724 
G01 X-8.6844 Y18.5357 
G01 X-8.5292 Y18.6000 
G01 X-8.3644 Y18.6328 
G01 X-6.8756 Y18.6328 
G01 X-6.7108 Y18.6000 
G01 X-6.5556 Y18.5357 
G01 X-6.4160 Y18.4424 
G01 X-6.2972 Y18.3236 
G01 X-6.2039 Y18.1839 
G01 X-6.1396 Y18.0288 
G01 X-6.1068 Y17.8640 
G01 X-6.1068 Y17.6960 
G01 X-6.1396 Y17.5312 
G01 X-6.2039 Y17.3760 
G01 X-6.2972 Y17.2364 
G01 X-6.4160 Y17.1176 
G01 X-6.5556 Y17.0243 
G01 X-6.7108 Y16.9600 
G01 X-6.8756 Y16.9272 
G00 Z2.5400 
G00 X-6.8756 Y11.8472 
G01 Z-0.1500 F254.00 
G01 X-8.3644 Y11.8472 F508.00 
G01 X-8.5292 Y11.8800 
G01 X-8.6844 Y11.9443 
G01 X-8.8240 Y12.0376 
G01 X-8.9428 Y12.1564 
G01 X-9.0361 Y12.2960 
G01 X-9.1004 Y12.4512 
G01 X-9.1332 Y12.6160 
G01 X-9.1332 Y12.7840 
G01 X-9.1004 Y12.9488 
G01 X-9.0361 Y13.1040 
G01 X-8.9428 Y13.2436 
G01 X-8.8240 Y13.3624 
G01 X-8.6844 Y13.4557 
G01 X-8.5292 Y13.5200 
G01 X-8.3644 Y13.5528 
G01 X-6.8756 Y13.5528 
G01 X-6.7108 Y13.5200 
G01 X-6.5556 Y13.4557 
G01 X-6.4160 Y13.3624 
G01 X-6.2972 Y13.2436 
G01 X-6.2039 Y13.1040 
G01 X-6.1396 Y12.9488 
G01 X-6.1068 Y12.7840 
G01 X-6.1068 Y12.6160 
G01 X-6.1396 Y12.4512 
G01 X-6.2039 Y12.2960 
G01 X-6.2972 Y12.1564 
G01 X-6.4160 Y12.0376 
G01 X-6.5556 Y11.9443 
G01 X-6.7108 Y11.8800 
G01 X-6.8756 Y11.8472 
G00 Z2.5400 
G00 X-25.1225 Y19.9089 
G01 Z-0.1500 F254.00 
G01 X-25.1225 Y20.7311 F508.00 
G01 X-24.5411 Y21.3125 
G01 X-23.7189 Y21.3125 
G01 X-23.1375 Y20.7311 
G01 X-23.1375 Y19.9089 
G01 X-23.7189 Y19.3275 
G01 X-24.5411 Y19.3275 
G01 X-25.1225 Y19.9089 
G00 Z2.5400 
G00 X-27.6625 Y19.9089 
G01 Z-0.1500 F254.00 
G01 X-27.6625 Y20.7311 F508.00 
G01 X-27.0811 Y21.3125 
G01 X-26.2589 Y21.3125 
G01 X-25.6775 Y20.7311 
G01 X-25.6775 Y19.9089 
G01 X-26.2589 Y19.3275 
G01 X-27.0811 Y19.3275 
G01 X-27.6625 Y19.9089 
G00 Z2.5400 
G00 X-30.2025 Y12.2889 
G01 Z-0.1500 F254.00 
G01 X-30.2025 Y13.1111 F508.00 
G01 X-29.6211 Y13.6925 
G01 X-28.7989 Y13.6925 
G01 X-28.2175 Y13.1111 
G01 X-28.2175 Y12.2889 
G01 X-28.7989 Y11.7075 
G01 X-29.6211 Y11.7075 
G01 X-30.2025 Y12.2889 
G00 Z2.5400 
G00 X-25.1225 Y12.2889 
G01 Z-0.1500 F254.00 
G01 X-25.1225 Y13.1111 F508.00 
G01 X-24.5411 Y13.6925 
G01 X-23.7189 Y13.6925 
G01 X-23.1375 Y13.1111 
G01 X-23.1375 Y12.2889 
G01 X-23.7189 Y11.7075 
G01 X-24.5411 Y11.7075 
G01 X-25.1225 Y12.2889 
G00 Z2.5400 
G00 X-26.3074 Y11.4629 
G01 Z-0.1500 F254.00 
G01 X-25.5909 Y12.1795 F508.00 
G01 X-25.5795 Y12.1908 
G01 X-25.5129 Y12.2293 
G01 X-25.4385 Y12.2493 
G01 X-25.3615 Y12.2493 
G01 X-25.3471 Y12.2454 
G01 X-25.2871 Y12.2293 
G01 X-25.2438 Y12.2043 
G01 X-25.2205 Y12.1908 
G01 X-25.1677 Y12.1381 
G01 X-24.4925 Y11.4629 
G01 X-24.4541 Y11.3963 
G01 X-24.4341 Y11.3219 
G01 X-24.4341 Y11.2449 
G01 X-24.4541 Y11.1705 
G01 X-24.4925 Y11.1039 
G01 X-24.5470 Y11.0494 
G01 X-24.6137 Y11.0109 
G01 X-24.6880 Y10.9910 
G01 X-26.1120 Y10.9910 
G01 X-26.1270 Y10.9950 
G01 X-26.1863 Y11.0109 
G01 X-26.2291 Y11.0356 
G01 X-26.2530 Y11.0494 
G01 X-26.3066 Y11.1030 
G01 X-26.3459 Y11.1705 
G01 X-26.3659 Y11.2449 
G01 X-26.3659 Y11.3219 
G01 X-26.3618 Y11.3369 
G01 X-26.3459 Y11.3963 
G01 X-26.3212 Y11.4391 
G01 X-26.3074 Y11.4629 
G00 Z2.5400 
G00 X-24.4925 Y21.5571 
G01 Z-0.1500 F254.00 
G01 X-25.2091 Y20.8405 F508.00 
G01 X-25.2205 Y20.8292 
G01 X-25.2871 Y20.7907 
G01 X-25.3615 Y20.7707 
G01 X-25.4385 Y20.7707 
G01 X-25.4529 Y20.7746 
G01 X-25.5129 Y20.7907 
G01 X-25.5562 Y20.8157 
G01 X-25.5795 Y20.8292 
G01 X-25.6323 Y20.8819 
G01 X-26.3074 Y21.5571 
G01 X-26.3459 Y21.6237 
G01 X-26.3659 Y21.6981 
G01 X-26.3659 Y21.7751 
G01 X-26.3459 Y21.8495 
G01 X-26.3074 Y21.9161 
G01 X-26.2530 Y21.9706 
G01 X-26.1863 Y22.0091 
G01 X-26.1120 Y22.0290 
G01 X-24.6880 Y22.0290 
G01 X-24.6730 Y22.0250 
G01 X-24.6137 Y22.0091 
G01 X-24.5709 Y21.9844 
G01 X-24.5470 Y21.9706 
G01 X-24.4934 Y21.9170 
G01 X-24.4541 Y21.8495 
G01 X-24.4341 Y21.7751 
G01 X-24.4341 Y21.6981 
G01 X-24.4382 Y21.6831 
G01 X-24.4541 Y21.6237 
G01 X-24.4788 Y21.5809 
G01 X-24.4925 Y21.5571 
G00 Z2.5400 
G00 X-0.8236 Y1.0775 
G01 Z-0.1500 F254.00 
G01 X-0.8435 Y1.0031 F508.00 
G01 X-0.8820 Y0.9365 
G01 X-0.9365 Y0.8820 
G01 X-1.0031 Y0.8435 
G01 X-1.0775 Y0.8236 
G01 X-38.2725 Y0.8236 
G01 X-38.3469 Y0.8435 
G01 X-38.4135 Y0.8820 
G01 X-38.4680 Y0.9365 
G01 X-38.5065 Y1.0031 
G01 X-38.5264 Y1.0775 
G01 X-38.5264 Y32.8825 
G01 X-38.5065 Y32.9569 
G01 X-38.4680 Y33.0235 
G01 X-38.4135 Y33.0780 
G01 X-38.3469 Y33.1165 
G01 X-38.2725 Y33.1364 
G01 X-1.0775 Y33.1364 
G01 X-1.0031 Y33.1165 
G01 X-0.9365 Y33.0780 
G01 X-0.8820 Y33.0235 
G01 X-0.8435 Y32.9569 
G01 X-0.8236 Y32.8825 
G01 X-0.8236 Y32.8055 
G01 X-0.8236 Y1.0775 
G00 Z2.5400 
G00 X-28.0905 Y12.3507 
G01 Z-0.1500 F254.00 
G01 X-27.9952 Y12.3763 F508.00 
G01 X-27.8848 Y12.3763 
G01 X-27.7895 Y12.3507 
G01 X-27.7895 Y13.0493 
G01 X-27.8848 Y13.0237 
G01 X-27.9952 Y13.0237 
G01 X-28.0905 Y13.0493 
G01 X-28.0905 Y12.3507 
G00 Z2.5400 
G00 X-30.6305 Y12.3507 
G01 Z-0.1500 F254.00 
G01 X-30.5726 Y12.3663 F508.00 
G01 X-30.5352 Y12.3763 
G01 X-30.4248 Y12.3763 
G01 X-30.3664 Y12.3606 
G01 X-30.3295 Y12.3507 
G01 X-30.3295 Y13.0493 
G01 X-30.4248 Y13.0237 
G01 X-30.5352 Y13.0237 
G01 X-30.6305 Y13.0493 
G01 X-30.6305 Y12.3507 
G00 Z2.5400 
G00 X-30.6305 Y20.2238 
G01 Z-0.1500 F254.00 
G01 X-30.5783 Y20.2238 F508.00 
G01 X-30.4762 Y20.1964 
G01 X-30.4716 Y20.1952 
G01 X-30.3760 Y20.1400 
G01 X-30.3295 Y20.0935 
G01 X-30.3295 Y20.5465 
G01 X-30.3760 Y20.5000 
G01 X-30.4704 Y20.4455 
G01 X-30.5783 Y20.4162 
G01 X-30.6305 Y20.4162 
G01 X-30.6305 Y20.2238 
G00 Z2.5400 
G00 X-8.2631 Y21.8802 
G01 Z-0.1500 F254.00 
G01 X-8.2027 Y21.8015 F508.00 
G01 X-8.1605 Y21.6995 
G01 X-8.1461 Y21.5900 
G01 X-8.1478 Y21.5768 
G01 X-8.1605 Y21.4805 
G01 X-8.2027 Y21.3785 
G01 X-8.2631 Y21.2998 
G01 X-6.9769 Y21.2998 
G01 X-7.0373 Y21.3785 
G01 X-7.0795 Y21.4805 
G01 X-7.0919 Y21.5744 
G01 X-7.0939 Y21.5900 
G01 X-7.0795 Y21.6995 
G01 X-7.0385 Y21.7986 
G01 X-7.0373 Y21.8015 
G01 X-6.9769 Y21.8802 
G01 X-8.2631 Y21.8802 
G00 Z2.5400 
G00 X-8.2631 Y19.3402 
G01 Z-0.1500 F254.00 
G01 X-8.2027 Y19.2615 F508.00 
G01 X-8.1605 Y19.1595 
G01 X-8.1461 Y19.0500 
G01 X-8.1478 Y19.0368 
G01 X-8.1605 Y18.9405 
G01 X-8.2027 Y18.8385 
G01 X-8.2631 Y18.7598 
G01 X-6.9769 Y18.7598 
G01 X-7.0373 Y18.8385 
G01 X-7.0795 Y18.9405 
G01 X-7.0919 Y19.0344 
G01 X-7.0939 Y19.0500 
G01 X-7.0795 Y19.1595 
G01 X-7.0385 Y19.2586 
G01 X-7.0373 Y19.2615 
G01 X-6.9769 Y19.3402 
G01 X-8.2631 Y19.3402 
G00 Z2.5400 
G00 X-8.2630 Y14.2602 
G01 Z-0.1500 F254.00 
G01 X-8.2498 Y14.2429 F508.00 
G01 X-8.2348 Y14.2279 
G01 X-8.2242 Y14.2095 
G01 X-8.2026 Y14.1813 
G01 X-8.1889 Y14.1483 
G01 X-8.1797 Y14.1322 
G01 X-8.1749 Y14.1143 
G01 X-8.1604 Y14.0793 
G01 X-8.1554 Y14.0415 
G01 X-8.1512 Y14.0256 
G01 X-8.1512 Y14.0090 
G01 X-8.1461 Y13.9698 
G01 X-8.1513 Y13.9303 
G01 X-8.1513 Y13.9151 
G01 X-8.1552 Y13.9004 
G01 X-8.1605 Y13.8603 
G01 X-8.1761 Y13.8227 
G01 X-8.1799 Y13.8085 
G01 X-8.1873 Y13.7957 
G01 X-8.2028 Y13.7583 
G01 X-8.2276 Y13.7260 
G01 X-8.2352 Y13.7129 
G01 X-8.2460 Y13.7021 
G01 X-8.2631 Y13.6798 
G01 X-6.9769 Y13.6798 
G01 X-7.0373 Y13.7585 
G01 X-7.0795 Y13.8605 
G01 X-7.0919 Y13.9544 
G01 X-7.0939 Y13.9700 
G01 X-7.0795 Y14.0795 
G01 X-7.0385 Y14.1786 
G01 X-7.0373 Y14.1815 
G01 X-6.9769 Y14.2602 
G01 X-8.2630 Y14.2602 
G00 Z2.5400 
G00 X-26.4091 Y11.0259 
G01 Z-0.1500 F254.00 
G01 X-26.4636 Y11.1203 F508.00 
G01 X-26.4643 Y11.1215 
G01 X-26.4929 Y11.2282 
G01 X-26.4929 Y11.3386 
G01 X-26.4643 Y11.4453 
G01 X-26.4091 Y11.5409 
G01 X-26.3695 Y11.5805 
G01 X-26.9705 Y11.5805 
G01 X-26.9309 Y11.5409 
G01 X-26.8757 Y11.4453 
G01 X-26.8471 Y11.3386 
G01 X-26.8471 Y11.2282 
G01 X-26.8757 Y11.1215 
G01 X-26.9309 Y11.0259 
G01 X-26.9774 Y10.9794 
G01 X-26.3626 Y10.9794 
G01 X-26.4091 Y11.0259 
G00 Z2.5400 
G00 X-23.8691 Y11.0259 
G01 Z-0.1500 F254.00 
G01 X-23.9243 Y11.1215 F508.00 
G01 X-23.9529 Y11.2282 
G01 X-23.9529 Y11.3386 
G01 X-23.9243 Y11.4453 
G01 X-23.8691 Y11.5409 
G01 X-23.8295 Y11.5805 
G01 X-24.4305 Y11.5805 
G01 X-24.3909 Y11.5409 
G01 X-24.3357 Y11.4453 
G01 X-24.3071 Y11.3386 
G01 X-24.3071 Y11.2282 
G01 X-24.3357 Y11.1215 
G01 X-24.3909 Y11.0259 
G01 X-24.4374 Y10.9794 
G01 X-23.8226 Y10.9794 
G01 X-23.8691 Y11.0259 
G00 Z2.5400 
G00 X-9.1487 Y13.1641 
G01 Z-0.1500 F254.00 
G01 X-9.0415 Y13.3246 F508.00 
G01 X-8.9050 Y13.4611 
G01 X-8.7445 Y13.5683 
G01 X-8.7269 Y13.5756 
G01 X-8.7350 Y13.5777 
G01 X-8.7590 Y13.5916 
G01 X-8.7845 Y13.6022 
G01 X-8.8065 Y13.6191 
G01 X-8.8306 Y13.6330 
G01 X-8.8502 Y13.6526 
G01 X-8.8721 Y13.6695 
G01 X-8.8890 Y13.6915 
G01 X-8.9086 Y13.7112 
G01 X-8.9224 Y13.7352 
G01 X-8.9393 Y13.7571 
G01 X-8.9499 Y13.7828 
G01 X-8.9638 Y13.8068 
G01 X-8.9709 Y13.8336 
G01 X-8.9815 Y13.8592 
G01 X-8.9851 Y13.8867 
G01 X-8.9923 Y13.9135 
G01 X-8.9922 Y13.9412 
G01 X-8.9959 Y13.9687 
G01 X-8.9948 Y13.9764 
G01 X-9.5568 Y13.4144 
G01 X-9.5488 Y13.4154 
G01 X-9.5213 Y13.4118 
G01 X-9.4936 Y13.4118 
G01 X-9.4668 Y13.4047 
G01 X-9.4393 Y13.4010 
G01 X-9.4137 Y13.3904 
G01 X-9.3870 Y13.3833 
G01 X-9.3629 Y13.3694 
G01 X-9.3373 Y13.3588 
G01 X-9.3153 Y13.3419 
G01 X-9.2913 Y13.3280 
G01 X-9.2717 Y13.3084 
G01 X-9.2497 Y13.2915 
G01 X-9.2328 Y13.2696 
G01 X-9.2132 Y13.2500 
G01 X-9.1994 Y13.2259 
G01 X-9.1825 Y13.2039 
G01 X-9.1719 Y13.1783 
G01 X-9.1580 Y13.1543 
G01 X-9.1559 Y13.1466 
G01 X-9.1487 Y13.1641 
G00 Z2.5400 
G00 X-28.6732 Y9.7681 
G01 Z-0.1500 F254.00 
G01 X-28.7356 Y9.9187 F508.00 
G01 X-28.7628 Y10.0556 
G01 X-28.8139 Y10.0045 
G01 X-28.9095 Y9.9493 
G01 X-29.0162 Y9.9207 
G01 X-29.0819 Y9.9207 
G01 X-28.8706 Y9.7094 
G01 X-28.6340 Y9.7094 
G01 X-28.6732 Y9.7681 
G00 Z2.5400 
G00 X-20.4755 Y11.0339 
G01 Z-0.1500 F254.00 
G01 X-20.5307 Y11.1295 F508.00 
G01 X-20.5593 Y11.2362 
G01 X-20.5593 Y11.3019 
G01 X-22.1518 Y9.7094 
G01 X-21.0140 Y9.7094 
G01 X-21.0532 Y9.7681 
G01 X-21.1156 Y9.9187 
G01 X-21.1474 Y10.0785 
G01 X-21.1474 Y10.2415 
G01 X-21.1156 Y10.4013 
G01 X-21.0532 Y10.5519 
G01 X-20.9627 Y10.6874 
G01 X-20.8474 Y10.8027 
G01 X-20.7119 Y10.8932 
G01 X-20.5613 Y10.9556 
G01 X-20.4244 Y10.9828 
G01 X-20.4755 Y11.0339 
G00 Z2.5400 
G00 X-8.7445 Y16.1083 
G01 Z-0.1500 F254.00 
G01 X-8.7270 Y16.1155 F508.00 
G01 X-8.7347 Y16.1176 
G01 X-8.7588 Y16.1315 
G01 X-8.7845 Y16.1422 
G01 X-8.8064 Y16.1590 
G01 X-8.8304 Y16.1728 
G01 X-8.8500 Y16.1925 
G01 X-8.8721 Y16.2095 
G01 X-8.8889 Y16.2314 
G01 X-8.9084 Y16.2509 
G01 X-8.9223 Y16.2750 
G01 X-8.9393 Y16.2971 
G01 X-8.9498 Y16.3226 
G01 X-8.9637 Y16.3466 
G01 X-8.9709 Y16.3734 
G01 X-8.9815 Y16.3992 
G01 X-8.9851 Y16.4265 
G01 X-8.9922 Y16.4532 
G01 X-8.9922 Y16.4811 
G01 X-8.9959 Y16.5087 
G01 X-8.9948 Y16.5164 
G01 X-15.8018 Y9.7094 
G01 X-15.5794 Y9.7094 
G01 X-9.4123 Y15.8765 
G01 X-9.2781 Y15.9661 
G01 X-9.1290 Y16.0279 
G01 X-8.9707 Y16.0594 
G01 X-8.8177 Y16.0594 
G01 X-8.7445 Y16.1083 
G00 Z2.5400 
G00 X-18.2542 Y14.3741 
G01 Z-0.1500 F254.00 
G01 X-18.2077 Y14.4206 F508.00 
G01 X-18.3560 Y14.4206 
G01 X-18.3168 Y14.3619 
G01 X-18.2936 Y14.3059 
G01 X-18.2542 Y14.3741 
G00 Z2.5400 
G00 X-20.2030 Y14.4206 
G01 Z-0.1500 F254.00 
G01 X-20.1565 Y14.3741 F508.00 
G01 X-20.1013 Y14.2785 
G01 X-20.0727 Y14.1718 
G01 X-20.0727 Y14.1061 
G01 X-19.7582 Y14.4206 
G01 X-20.2030 Y14.4206 
G00 Z2.5400 
G00 X-23.8295 Y13.8195 
G01 Z-0.1500 F254.00 
G01 X-23.8691 Y13.8591 F508.00 
G01 X-23.9243 Y13.9547 
G01 X-23.9529 Y14.0614 
G01 X-23.9529 Y14.1718 
G01 X-23.9243 Y14.2785 
G01 X-23.9128 Y14.2984 
G01 X-24.3917 Y13.8195 
G01 X-23.8295 Y13.8195 
G00 Z2.5400 
G00 X-25.5505 Y12.3507 
G01 Z-0.1500 F254.00 
G01 X-25.4552 Y12.3763 F508.00 
G01 X-25.3448 Y12.3763 
G01 X-25.2495 Y12.3507 
G01 X-25.2495 Y12.9617 
G01 X-25.5505 Y12.6607 
G01 X-25.5505 Y12.3507 
G00 Z2.5400 
G00 X-8.2631 Y16.8002 
G01 Z-0.1500 F254.00 
G01 X-8.2500 Y16.7831 F508.00 
G01 X-8.2350 Y16.7682 
G01 X-8.2244 Y16.7497 
G01 X-8.2026 Y16.7213 
G01 X-8.1891 Y16.6885 
G01 X-8.1798 Y16.6725 
G01 X-8.1750 Y16.6545 
G01 X-8.1604 Y16.6193 
G01 X-8.1555 Y16.5818 
G01 X-8.1512 Y16.5659 
G01 X-8.1512 Y16.5493 
G01 X-8.1461 Y16.5098 
G01 X-8.1512 Y16.4706 
G01 X-8.1512 Y16.4554 
G01 X-8.1552 Y16.4407 
G01 X-8.1605 Y16.4003 
G01 X-8.1760 Y16.3630 
G01 X-8.1798 Y16.3488 
G01 X-8.1872 Y16.3359 
G01 X-8.2028 Y16.2983 
G01 X-8.2274 Y16.2663 
G01 X-8.2350 Y16.2531 
G01 X-8.2458 Y16.2423 
G01 X-8.2631 Y16.2198 
G01 X-6.9769 Y16.2198 
G01 X-7.0373 Y16.2985 
G01 X-7.0795 Y16.4005 
G01 X-7.0919 Y16.4944 
G01 X-7.0939 Y16.5100 
G01 X-7.0795 Y16.6195 
G01 X-7.0385 Y16.7186 
G01 X-7.0373 Y16.7215 
G01 X-6.9769 Y16.8002 
G01 X-8.2631 Y16.8002 
G00 Z2.5400 
G00 X-26.3695 Y21.4395 
G01 Z-0.1500 F254.00 
G01 X-26.4091 Y21.4791 F508.00 
G01 X-26.4643 Y21.5747 
G01 X-26.4929 Y21.6814 
G01 X-26.4929 Y21.7918 
G01 X-26.4643 Y21.8985 
G01 X-26.4528 Y21.9184 
G01 X-26.9317 Y21.4395 
G01 X-26.3695 Y21.4395 
G00 Z2.5400 
G00 X-28.0905 Y19.9707 
G01 Z-0.1500 F254.00 
G01 X-27.9952 Y19.9963 F508.00 
G01 X-27.8848 Y19.9963 
G01 X-27.7895 Y19.9707 
G01 X-27.7895 Y20.5817 
G01 X-28.0905 Y20.2807 
G01 X-28.0905 Y19.9707 
G00 Z2.5400 
G00 X-24.3909 Y21.9941 
G01 Z-0.1500 F254.00 
G01 X-24.3364 Y21.8997 F508.00 
G01 X-24.3357 Y21.8985 
G01 X-24.3071 Y21.7918 
G01 X-24.3071 Y21.6814 
G01 X-24.3357 Y21.5747 
G01 X-24.3909 Y21.4791 
G01 X-24.4305 Y21.4395 
G01 X-23.8295 Y21.4395 
G01 X-23.8550 Y21.4650 
G01 X-23.8691 Y21.4791 
G01 X-23.9243 Y21.5747 
G01 X-23.9529 Y21.6814 
G01 X-23.9529 Y21.7918 
G01 X-23.9255 Y21.8939 
G01 X-23.9243 Y21.8985 
G01 X-23.8691 Y21.9941 
G01 X-23.8226 Y22.0406 
G01 X-24.4374 Y22.0406 
G01 X-24.3909 Y21.9941 
G00 Z2.5400 
G00 X-25.2495 Y20.6693 
G01 Z-0.1500 F254.00 
G01 X-25.3448 Y20.6437 F508.00 
G01 X-25.4552 Y20.6437 
G01 X-25.5505 Y20.6693 
G01 X-25.5505 Y19.9707 
G01 X-25.4552 Y19.9963 
G01 X-25.3448 Y19.9963 
G01 X-25.2495 Y19.9707 
G01 X-25.2495 Y20.6693 
G00 Z2.5400 
G00 X-0.6966 Y1.0608 
G01 Z-0.1500 F254.00 
G01 X-0.7252 Y0.9541 F508.00 
G01 X-0.7804 Y0.8585 
G01 X-0.8585 Y0.7804 
G01 X-0.9541 Y0.7252 
G01 X-1.0608 Y0.6966 
G01 X-38.2892 Y0.6966 
G01 X-38.3959 Y0.7252 
G01 X-38.4915 Y0.7804 
G01 X-38.5696 Y0.8585 
G01 X-38.6248 Y0.9541 
G01 X-38.6534 Y1.0608 
G01 X-38.6534 Y32.8992 
G01 X-38.6248 Y33.0059 
G01 X-38.5696 Y33.1015 
G01 X-38.4915 Y33.1796 
G01 X-38.3959 Y33.2348 
G01 X-38.2892 Y33.2634 
G01 X-1.0608 Y33.2634 
G01 X-0.9541 Y33.2348 
G01 X-0.8585 Y33.1796 
G01 X-0.7804 Y33.1015 
G01 X-0.7252 Y33.0059 
G01 X-0.6966 Y32.8992 
G01 X-0.6966 Y32.7888 
G01 X-0.6966 Y1.0608 
G00 Z2.5400 
G00 X-27.9635 Y12.5033 
G01 Z-0.1500 F254.00 
G01 X-27.9165 Y12.5033 F508.00 
G01 X-27.9165 Y12.8967 
G01 X-27.9635 Y12.8967 
G01 X-27.9635 Y12.5033 
G00 Z2.5400 
G00 X-30.5035 Y12.5033 
G01 Z-0.1500 F254.00 
G01 X-30.4565 Y12.5033 F508.00 
G01 X-30.4565 Y12.8967 
G01 X-30.5035 Y12.8967 
G01 X-30.5035 Y12.5033 
G00 Z2.5400 
G00 X-25.3765 Y20.5167 
G01 Z-0.1500 F254.00 
G01 X-25.4235 Y20.5167 F508.00 
G01 X-25.4235 Y20.1233 
G01 X-25.3765 Y20.1233 
G01 X-25.3765 Y20.5167 
G00 Z2.5400 
G00 X-26.5936 Y21.5665 
G01 Z-0.1500 F254.00 
G01 X-26.6002 Y21.5914 F508.00 
G01 X-26.6251 Y21.5665 
G01 X-26.5936 Y21.5665 
G00 Z2.5400 
G00 X-27.9635 Y20.1233 
G01 Z-0.1500 F254.00 
G01 X-27.9165 Y20.1233 F508.00 
G01 X-27.9165 Y20.2751 
G01 X-27.9635 Y20.2281 
G01 X-27.9635 Y20.1233 
G00 Z2.5400 
G00 X-24.1806 Y21.8101 
G01 Z-0.1500 F254.00 
G01 X-24.1801 Y21.8085 F508.00 
G01 X-24.1801 Y21.6647 
G01 X-24.1817 Y21.6588 
G01 X-24.2064 Y21.5665 
G01 X-24.0536 Y21.5665 
G01 X-24.0799 Y21.6647 
G01 X-24.0799 Y21.8085 
G01 X-24.0517 Y21.9136 
G01 X-24.2083 Y21.9136 
G01 X-24.1806 Y21.8101 
G00 Z2.5400 
G00 X-8.0453 Y21.7532 
G01 Z-0.1500 F254.00 
G01 X-8.0367 Y21.7326 F508.00 
G01 X-8.0180 Y21.5900 
G01 X-8.0206 Y21.5702 
G01 X-8.0367 Y21.4474 
G01 X-8.0453 Y21.4268 
G01 X-7.1947 Y21.4268 
G01 X-7.2033 Y21.4474 
G01 X-7.2194 Y21.5696 
G01 X-7.2220 Y21.5900 
G01 X-7.2033 Y21.7326 
G01 X-7.1947 Y21.7532 
G01 X-8.0453 Y21.7532 
G00 Z2.5400 
G00 X-8.0453 Y16.6732 
G01 Z-0.1500 F254.00 
G01 X-8.0367 Y16.6524 F508.00 
G01 X-8.0367 Y16.6524 
G01 X-8.0307 Y16.6065 
G01 X-8.0242 Y16.5826 
G01 X-8.0242 Y16.5576 
G01 X-8.0180 Y16.5097 
G01 X-8.0242 Y16.4622 
G01 X-8.0242 Y16.4387 
G01 X-8.0304 Y16.4158 
G01 X-8.0368 Y16.3671 
G01 X-8.0452 Y16.3468 
G01 X-7.1947 Y16.3468 
G01 X-7.2033 Y16.3674 
G01 X-7.2194 Y16.4896 
G01 X-7.2220 Y16.5100 
G01 X-7.2033 Y16.6526 
G01 X-7.1947 Y16.6732 
G01 X-8.0453 Y16.6732 
G00 Z2.5400 
G00 X-26.6194 Y11.2099 
G01 Z-0.1500 F254.00 
G01 X-26.6199 Y11.2115 F508.00 
G01 X-26.6199 Y11.3553 
G01 X-26.6183 Y11.3612 
G01 X-26.5936 Y11.4535 
G01 X-26.7464 Y11.4535 
G01 X-26.7201 Y11.3553 
G01 X-26.7201 Y11.2115 
G01 X-26.7483 Y11.1064 
G01 X-26.5917 Y11.1064 
G01 X-26.6194 Y11.2099 
G00 Z2.5400 
G00 X-24.0794 Y11.2099 
G01 Z-0.1500 F254.00 
G01 X-24.0799 Y11.2115 F508.00 
G01 X-24.0799 Y11.3553 
G01 X-24.0783 Y11.3612 
G01 X-24.0536 Y11.4535 
G01 X-24.2064 Y11.4535 
G01 X-24.1801 Y11.3553 
G01 X-24.1801 Y11.2115 
G01 X-24.2083 Y11.1064 
G01 X-24.0517 Y11.1064 
G01 X-24.0794 Y11.2099 
G00 Z2.5400 
G00 X-9.3067 Y13.4835 
G01 Z-0.1500 F254.00 
G01 X-9.2733 Y13.4697 F508.00 
G01 X-9.2446 Y13.4477 
G01 X-9.2133 Y13.4297 
G01 X-9.1878 Y13.4041 
G01 X-9.1591 Y13.3821 
G01 X-9.1559 Y13.3779 
G01 X-9.1246 Y13.4210 
G01 X-9.0014 Y13.5442 
G01 X-8.9583 Y13.5755 
G01 X-8.9627 Y13.5789 
G01 X-8.9847 Y13.6077 
G01 X-9.0103 Y13.6333 
G01 X-9.0283 Y13.6645 
G01 X-9.0503 Y13.6931 
G01 X-9.0641 Y13.7266 
G01 X-9.3075 Y13.4840 
G00 Z2.5400 
G00 X-21.8452 Y9.8364 
G01 Z-0.1500 F254.00 
G01 X-21.2190 Y9.8364 F508.00 
G01 X-21.2377 Y9.8816 
G01 X-21.2744 Y10.0660 
G01 X-21.2744 Y10.2540 
G01 X-21.2377 Y10.4384 
G01 X-21.2338 Y10.4477 
G01 X-21.8452 Y9.8364 
G00 Z2.5400 
G00 X-9.1661 Y16.1500 
G01 Z-0.1500 F254.00 
G01 X-9.0143 Y16.1802 F508.00 
G01 X-9.0282 Y16.2043 
G01 X-9.0503 Y16.2331 
G01 X-9.0640 Y16.2664 
G01 X-9.1925 Y16.1391 
G01 X-9.1661 Y16.1500 
G00 Z2.5400 
G00 X-24.0536 Y13.9465 
G01 Z-0.1500 F254.00 
G01 X-24.0602 Y13.9714 F508.00 
G01 X-24.0851 Y13.9465 
G01 X-24.0536 Y13.9465 
G00 Z2.5400 
G00 X-25.4235 Y12.5033 
G01 Z-0.1500 F254.00 
G01 X-25.3765 Y12.5033 F508.00 
G01 X-25.3765 Y12.6551 
G01 X-25.4235 Y12.6081 
G01 X-25.4235 Y12.5033 
G00 Z2.5400 
G00 X-8.0453 Y14.1332 
G01 Z-0.1500 F254.00 
G01 X-8.0367 Y14.1124 F508.00 
G01 X-8.0366 Y14.1122 
G01 X-8.0306 Y14.0662 
G01 X-8.0242 Y14.0422 
G01 X-8.0242 Y14.0173 
G01 X-8.0180 Y13.9697 
G01 X-8.0243 Y13.9219 
G01 X-8.0243 Y13.8983 
G01 X-8.0304 Y13.8755 
G01 X-8.0368 Y13.8271 
G01 X-8.0452 Y13.8068 
G01 X-7.1947 Y13.8068 
G01 X-7.2033 Y13.8274 
G01 X-7.2194 Y13.9496 
G01 X-7.2220 Y13.9700 
G01 X-7.2033 Y14.1126 
G01 X-7.1947 Y14.1332 
G01 X-8.0453 Y14.1332 
G00 Z2.5400 
G00 X-8.0453 Y19.2132 
G01 Z-0.1500 F254.00 
G01 X-8.0367 Y19.1926 F508.00 
G01 X-8.0180 Y19.0500 
G01 X-8.0206 Y19.0302 
G01 X-8.0367 Y18.9074 
G01 X-8.0453 Y18.8868 
G01 X-7.1947 Y18.8868 
G01 X-7.2033 Y18.9074 
G01 X-7.2194 Y19.0296 
G01 X-7.2220 Y19.0500 
G01 X-7.2033 Y19.1926 
G01 X-7.1947 Y19.2132 
G01 X-8.0453 Y19.2132 
G00 Z2.5400 
G00 X-0.5696 Y1.0441 
G01 Z-0.1500 F254.00 
G01 X-0.6068 Y0.9051 F508.00 
G01 X-0.6788 Y0.7805 
G01 X-0.7805 Y0.6788 
G01 X-0.9051 Y0.6068 
G01 X-1.0441 Y0.5696 
G01 X-38.3059 Y0.5696 
G01 X-38.4449 Y0.6068 
G01 X-38.5695 Y0.6788 
G01 X-38.6712 Y0.7805 
G01 X-38.7432 Y0.9051 
G01 X-38.7804 Y1.0441 
G01 X-38.7804 Y32.9159 
G01 X-38.7432 Y33.0549 
G01 X-38.6712 Y33.1795 
G01 X-38.5695 Y33.2812 
G01 X-38.4449 Y33.3532 
G01 X-38.3059 Y33.3904 
G01 X-1.0441 Y33.3904 
G01 X-0.9051 Y33.3532 
G01 X-0.7805 Y33.2812 
G01 X-0.6788 Y33.1795 
G01 X-0.6068 Y33.0549 
G01 X-0.5696 Y32.9159 
G01 X-0.5696 Y32.7721 
G01 X-0.5696 Y1.0441 
G00 Z2.5400 
G00 X-7.8957 Y21.6262 
G01 Z-0.1500 F254.00 
G01 X-7.8957 Y21.5538 F508.00 
G01 X-7.3443 Y21.5538 
G01 X-7.3443 Y21.6262 
G01 X-7.8957 Y21.6262 
G00 Z2.5400 
G00 X-7.8957 Y16.5462 
G01 Z-0.1500 F254.00 
G01 X-7.8957 Y16.4738 F508.00 
G01 X-7.3443 Y16.4738 
G01 X-7.3443 Y16.5462 
G01 X-7.8957 Y16.5462 
G00 Z2.5400 
G00 X-21.5386 Y9.9634 
G01 Z-0.1500 F254.00 
G01 X-21.3837 Y9.9634 F508.00 
G01 X-21.4014 Y10.0749 
G01 X-21.4014 Y10.1006 
G01 X-21.5386 Y9.9634 
G00 Z2.5400 
G00 X-7.8956 Y14.0062 
G01 Z-0.1500 F254.00 
G01 X-7.8957 Y13.9689 F508.00 
G01 X-7.8957 Y13.9338 
G01 X-7.3443 Y13.9338 
G01 X-7.3443 Y14.0062 
G01 X-7.8956 Y14.0062 
G00 Z2.5400 
G00 X-7.8957 Y19.0862 
G01 Z-0.1500 F254.00 
G01 X-7.8957 Y19.0138 F508.00 
G01 X-7.3443 Y19.0138 
G01 X-7.3443 Y19.0862 
G01 X-7.8957 Y19.0862 
G00 Z2.5400 
G00 X-0.4426 Y1.0497 
G01 Z-0.1500 F254.00 
G01 X-0.4685 Y0.9196 F508.00 
G01 X-0.5192 Y0.7970 
G01 X-0.5929 Y0.6867 
G01 X-0.6867 Y0.5929 
G01 X-0.7970 Y0.5192 
G01 X-0.9196 Y0.4685 
G01 X-1.0497 Y0.4426 
G01 X-38.3003 Y0.4426 
G01 X-38.4304 Y0.4685 
G01 X-38.5530 Y0.5192 
G01 X-38.6633 Y0.5929 
G01 X-38.7571 Y0.6867 
G01 X-38.8308 Y0.7970 
G01 X-38.8815 Y0.9196 
G01 X-38.9074 Y1.0497 
G01 X-38.9074 Y32.9103 
G01 X-38.8815 Y33.0404 
G01 X-38.8308 Y33.1630 
G01 X-38.7571 Y33.2733 
G01 X-38.6633 Y33.3671 
G01 X-38.5530 Y33.4408 
G01 X-38.4304 Y33.4915 
G01 X-38.3003 Y33.5174 
G01 X-1.0497 Y33.5174 
G01 X-0.9196 Y33.4915 
G01 X-0.7970 Y33.4408 
G01 X-0.6867 Y33.3671 
G01 X-0.5929 Y33.2733 
G01 X-0.5192 Y33.1630 
G01 X-0.4685 Y33.0404 
G01 X-0.4426 Y32.9103 
G01 X-0.4426 Y32.7777 
G01 X-0.4426 Y1.0497 
G00 Z2.5400 
G00 Z2.540000
G00 X-17.7800 Y19.0500 
G01 Z-0.2794 F254.00 
G01 Z2.540000
(R2.5400  P1.000000)
(G00 Z2.540000)
G00 X-19.0500 Y27.9400 
G01 Z-0.812800
G01 Z2.540000
(G00 Z2.540000)
G00 X-15.2400 Y15.2400 
G01 Z-0.812800
G01 Z2.540000
(G00 Z2.540000)
G00 X-27.9400 Y10.1600 
G01 Z-0.812800
G01 Z2.540000
(G00 Z2.540000)
G00 X-19.0500 Y13.9700 
G01 Z-0.812800
G01 Z2.540000
(G00 Z2.540000)
G00 X-20.3200 Y10.1600 
G01 Z-0.812800
G01 Z2.540000
(G00 Z2.540000)
G00 X-7.6200 Y10.1600 
G01 Z-0.812800
G01 Z2.540000
(G00 Z2.540000)
G00 X-7.6200 Y12.7000 
G01 Z-0.812800
G01 Z2.540000
(G00 Z2.540000)
G00 X-7.6200 Y15.2400 
G01 Z-0.812800
G01 Z2.540000
(G00 Z2.540000)
G00 X-7.6200 Y17.7800 
G01 Z-0.812800
G01 Z2.540000
(G00 Z2.540000)
G00 X-7.6200 Y20.3200 
G01 Z-0.812800
G01 Z2.540000
(G00 Z2.540000)
G00 X-7.6200 Y22.8600 
G01 Z-0.812800
G01 Z2.540000
(G00 Z2.540000)
G00 X-24.1300 Y12.7000 
G01 Z-0.812800
G01 Z2.540000
(G00 Z2.540000)
G00 X-26.6700 Y12.7000 
G01 Z-0.812800
G01 Z2.540000
(G00 Z2.540000)
G00 X-29.2100 Y12.7000 
G01 Z-0.812800
G01 Z2.540000
(G00 Z2.540000)
G00 X-31.7500 Y12.7000 
G01 Z-0.812800
G01 Z2.540000
(G00 Z2.540000)
G00 X-31.7500 Y20.3200 
G01 Z-0.812800
G01 Z2.540000
(G00 Z2.540000)
G00 X-29.2100 Y20.3200 
G01 Z-0.812800
G01 Z2.540000
(G00 Z2.540000)
G00 X-26.6700 Y20.3200 
G01 Z-0.812800
G01 Z2.540000
(G00 Z2.540000)
G00 X-24.1300 Y20.3200 
G01 Z-0.812800
G01 Z2.540000
G00 Z12.7000 
M05
M02
