(.../pcb-gcode-3.6.0.4/pcb-gcode.ulp)
(Copyright 2005 - 2012 by John Johnson)
(See readme.txt for licensing terms.)
(This file generated from the board:)
(.../eagle/eagle/cncWTest/modbus.brd)
(Current profile is .../pcb-gcode-3.6.0.4/profiles/emc.pp  )
(This file generated 6/27/2014 5:23:14 PM)
(Settings from pcb-machine.h)
(  Tool Size)
(0.1000 )
(Z Axis Settings)
(  High     Up        Down     Drill)
(12.7000 	2.5400 	-0.1500 	-0.8128 )
(spindle on time = 3.0000)
(milling depth = -0.1500)
(text depth = -0.1270)
(tool change at 12.7000 15.2400 25.4000 )
(feed rate xy = F508.00 )
(feed rate z  = F254.00 )
(Settings from pcb-defaults.h)
(isolate min = 0.0154)
(isolate max = 0.5080)
(isolate step = 0.1270)
(Generated top outlines, top drill, bottom outlines, bottom drill, )
(Unit of measure: mm)
(Metric Mode)
G21
(Absolute Coordinates)
G90
G00 X0.0000 Y0.0000 
M03
G04 P3.000000
G00 Z2.5400 
G00 X2.2484 Y18.0279 
G01 Z-0.1500 F254.00 
G01 X2.2484 Y18.6411 F508.00 
G01 X2.4366 Y18.8294 
G01 X2.8617 Y18.8294 
G01 X3.0499 Y18.6411 
G01 X3.0499 Y18.0279 
G01 X2.2484 Y18.0279 
G00 Z2.5400 
G00 X2.7078 Y21.3022 
G01 Z-0.1500 F254.00 
G01 X2.3071 Y21.7029 F508.00 
G01 X2.7078 Y22.1037 
G01 X2.7787 Y22.1037 
G01 X2.7787 Y21.3022 
G01 X2.7078 Y21.3022 
G00 Z2.5400 
G00 X3.2501 Y25.3780 
G01 Z-0.1500 F254.00 
G01 X3.4040 Y25.3780 F508.00 
G01 X3.5922 Y25.1898 
G01 X3.5922 Y24.5765 
G01 X3.0619 Y24.5765 
G01 X3.0619 Y25.1898 
G01 X3.2501 Y25.3780 
G00 Z2.5400 
G00 X2.2484 Y24.5765 
G01 Z-0.1500 F254.00 
G01 X2.2484 Y25.1898 F508.00 
G01 X2.4366 Y25.3780 
G01 X2.5905 Y25.3780 
G01 X2.7787 Y25.1898 
G01 X2.7787 Y24.5765 
G01 X2.2484 Y24.5765 
G00 Z2.5400 
G00 X2.0786 Y24.2933 
G01 Z-0.1500 F254.00 
G01 X3.7620 Y24.2933 F508.00 
G01 X3.8140 Y24.3149 
G01 X3.8538 Y24.3547 
G01 X3.8754 Y24.4068 
G01 X3.8754 Y25.2766 
G01 X3.8538 Y25.3286 
G01 X3.8140 Y25.3685 
G01 X3.5827 Y25.5998 
G01 X3.5452 Y25.6372 
G01 X3.4908 Y25.6612 
G01 X3.1633 Y25.6612 
G01 X3.1113 Y25.6396 
G01 X3.0714 Y25.5998 
G01 X2.9203 Y25.4487 
G01 X2.7294 Y25.6396 
G01 X2.6773 Y25.6612 
G01 X2.3498 Y25.6612 
G01 X2.2978 Y25.6396 
G01 X2.2579 Y25.5998 
G01 X2.0266 Y25.3685 
G01 X1.9868 Y25.3286 
G01 X1.9658 Y25.2781 
G01 X1.9652 Y24.4068 
G01 X1.9868 Y24.3547 
G01 X2.0266 Y24.3149 
G01 X2.0786 Y24.2933 
G00 Z2.5400 
G00 X3.7620 Y21.0190 
G01 Z-0.1500 F254.00 
G01 X3.8140 Y21.0406 F508.00 
G01 X3.8538 Y21.0804 
G01 X3.8754 Y21.1324 
G01 X3.8754 Y21.1888 
G01 X3.8538 Y21.2408 
G01 X3.8140 Y21.2806 
G01 X3.7620 Y21.3022 
G01 X3.0619 Y21.3022 
G01 X3.0619 Y22.1037 
G01 X3.7620 Y22.1037 
G01 X3.8140 Y22.1252 
G01 X3.8538 Y22.1651 
G01 X3.8754 Y22.2171 
G01 X3.8754 Y22.2734 
G01 X3.8538 Y22.3255 
G01 X3.8140 Y22.3653 
G01 X3.7620 Y22.3869 
G01 X2.6210 Y22.3869 
G01 X2.5689 Y22.3653 
G01 X2.5291 Y22.3255 
G01 X1.9868 Y21.7831 
G01 X1.9652 Y21.7311 
G01 X1.9652 Y21.6748 
G01 X1.9868 Y21.6227 
G01 X2.0266 Y21.5829 
G01 X2.5689 Y21.0406 
G01 X2.6210 Y21.0190 
G01 X2.9485 Y21.0190 
G01 X3.7620 Y21.0190 
G00 Z2.5400 
G00 X3.7620 Y17.7447 
G01 Z-0.1500 F254.00 
G01 X3.8140 Y17.7662 F508.00 
G01 X3.8538 Y17.8061 
G01 X3.8754 Y17.8581 
G01 X3.8754 Y17.9145 
G01 X3.8538 Y17.9665 
G01 X3.8140 Y18.0063 
G01 X3.7620 Y18.0279 
G01 X3.3331 Y18.0279 
G01 X3.3331 Y18.3700 
G01 X3.8538 Y18.8907 
G01 X3.8754 Y18.9428 
G01 X3.8754 Y18.9991 
G01 X3.8538 Y19.0512 
G01 X3.8140 Y19.0910 
G01 X3.7620 Y19.1126 
G01 X3.7056 Y19.1126 
G01 X3.6536 Y19.0910 
G01 X3.3206 Y18.7580 
G01 X3.3115 Y18.7800 
G01 X3.2717 Y18.8198 
G01 X3.0005 Y19.0910 
G01 X2.9485 Y19.1126 
G01 X2.3498 Y19.1126 
G01 X2.2978 Y19.0910 
G01 X2.2579 Y19.0512 
G01 X2.0266 Y18.8198 
G01 X1.9868 Y18.7800 
G01 X1.9658 Y18.7294 
G01 X1.9652 Y17.8581 
G01 X1.9868 Y17.8061 
G01 X2.0266 Y17.7662 
G01 X2.0786 Y17.7447 
G01 X3.2196 Y17.7447 
G01 X3.7620 Y17.7447 
G00 Z2.5400 
G00 X2.0786 Y11.4793 
G01 Z-0.1500 F254.00 
G01 X2.0266 Y11.4577 F508.00 
G01 X1.9868 Y11.4179 
G01 X1.9652 Y11.3658 
G01 X1.9652 Y11.3095 
G01 X1.9868 Y11.2575 
G01 X2.0266 Y11.2176 
G01 X2.0786 Y11.1961 
G01 X3.2196 Y11.1961 
G01 X3.2717 Y11.2176 
G01 X3.8140 Y11.7600 
G01 X3.8538 Y11.7998 
G01 X3.8754 Y11.8518 
G01 X3.8754 Y11.9082 
G01 X3.8538 Y11.9602 
G01 X3.3115 Y12.5025 
G01 X3.2717 Y12.5424 
G01 X3.2196 Y12.5639 
G01 X2.0786 Y12.5639 
G01 X2.0266 Y12.5424 
G01 X1.9868 Y12.5025 
G01 X1.9652 Y12.4505 
G01 X1.9652 Y12.3942 
G01 X1.9868 Y12.3421 
G01 X2.0266 Y12.3023 
G01 X2.0786 Y12.2807 
G01 X3.1328 Y12.2807 
G01 X3.5335 Y11.8800 
G01 X3.1328 Y11.4793 
G01 X2.0786 Y11.4793 
G00 Z2.5400 
G00 X2.2484 Y10.8133 
G01 Z-0.1500 F254.00 
G01 X2.2269 Y10.8654 F508.00 
G01 X2.1870 Y10.9052 
G01 X2.1350 Y10.9268 
G01 X2.0786 Y10.9268 
G01 X2.0266 Y10.9052 
G01 X1.9868 Y10.8654 
G01 X1.9652 Y10.8133 
G01 X1.9652 Y9.6723 
G01 X1.9868 Y9.6203 
G01 X2.0266 Y9.5805 
G01 X2.0786 Y9.5589 
G01 X2.8973 Y9.5589 
G01 X2.9022 Y9.5573 
G01 X2.9253 Y9.5589 
G01 X2.9485 Y9.5589 
G01 X2.9533 Y9.5609 
G01 X2.9584 Y9.5613 
G01 X2.9791 Y9.5716 
G01 X3.0005 Y9.5805 
G01 X3.0042 Y9.5841 
G01 X3.0088 Y9.5865 
G01 X3.0240 Y9.6039 
G01 X3.0403 Y9.6203 
G01 X3.0423 Y9.6251 
G01 X3.0457 Y9.6290 
G01 X3.0530 Y9.6510 
G01 X3.0619 Y9.6723 
G01 X3.0619 Y9.6775 
G01 X3.0635 Y9.6825 
G01 X3.0619 Y9.7055 
G01 X3.0619 Y9.7287 
G01 X3.0599 Y9.7335 
G01 X3.0596 Y9.7386 
G01 X3.0492 Y9.7593 
G01 X3.0403 Y9.7807 
G01 X3.0367 Y9.7844 
G01 X2.7907 Y10.2763 
G01 X2.7907 Y10.4554 
G01 X2.9790 Y10.6436 
G01 X3.4040 Y10.6436 
G01 X3.5922 Y10.4554 
G01 X3.5922 Y10.0303 
G01 X3.3426 Y9.7807 
G01 X3.3210 Y9.7287 
G01 X3.3210 Y9.6723 
G01 X3.3426 Y9.6203 
G01 X3.3824 Y9.5805 
G01 X3.4345 Y9.5589 
G01 X3.4908 Y9.5589 
G01 X3.5428 Y9.5805 
G01 X3.8538 Y9.8915 
G01 X3.8754 Y9.9435 
G01 X3.8754 Y10.5422 
G01 X3.8538 Y10.5942 
G01 X3.8140 Y10.6340 
G01 X3.5827 Y10.8654 
G01 X3.5452 Y10.9028 
G01 X3.4908 Y10.9268 
G01 X2.8921 Y10.9268 
G01 X2.8401 Y10.9052 
G01 X2.8003 Y10.8654 
G01 X2.5291 Y10.5942 
G01 X2.5075 Y10.5422 
G01 X2.5075 Y10.2658 
G01 X2.5059 Y10.2609 
G01 X2.5075 Y10.2378 
G01 X2.5075 Y10.2147 
G01 X2.5095 Y10.2099 
G01 X2.5099 Y10.2047 
G01 X2.5202 Y10.1840 
G01 X2.5291 Y10.1626 
G01 X2.5328 Y10.1590 
G01 X2.6912 Y9.8421 
G01 X2.2484 Y9.8421 
G01 X2.2484 Y10.8133 
G00 Z2.5400 
G00 X2.4980 Y7.4306 
G01 Z-0.1500 F254.00 
G01 X2.5196 Y7.4827 F508.00 
G01 X2.5196 Y7.5390 
G01 X2.4980 Y7.5911 
G01 X2.4582 Y7.6309 
G01 X2.4061 Y7.6525 
G01 X2.3498 Y7.6525 
G01 X2.2978 Y7.6309 
G01 X2.0266 Y7.3597 
G01 X1.9868 Y7.3199 
G01 X1.9652 Y7.2679 
G01 X1.9652 Y6.6692 
G01 X1.9868 Y6.6172 
G01 X2.2579 Y6.3460 
G01 X2.2978 Y6.3062 
G01 X2.3498 Y6.2846 
G01 X3.4908 Y6.2846 
G01 X3.5428 Y6.3062 
G01 X3.8140 Y6.5773 
G01 X3.8538 Y6.6172 
G01 X3.8754 Y6.6692 
G01 X3.8754 Y7.2679 
G01 X3.8538 Y7.3199 
G01 X3.8140 Y7.3597 
G01 X3.5827 Y7.5911 
G01 X3.5428 Y7.6309 
G01 X3.4908 Y7.6525 
G01 X2.8921 Y7.6525 
G01 X2.8401 Y7.6309 
G01 X2.8003 Y7.5911 
G01 X2.7787 Y7.5390 
G01 X2.7787 Y6.9404 
G01 X2.8003 Y6.8883 
G01 X2.8401 Y6.8485 
G01 X2.8921 Y6.8269 
G01 X2.9485 Y6.8269 
G01 X3.0005 Y6.8485 
G01 X3.0403 Y6.8883 
G01 X3.0619 Y6.9404 
G01 X3.0619 Y7.3693 
G01 X3.4040 Y7.3693 
G01 X3.5922 Y7.1810 
G01 X3.5922 Y6.7560 
G01 X3.4040 Y6.5678 
G01 X2.4366 Y6.5678 
G01 X2.2484 Y6.7560 
G01 X2.2484 Y7.1810 
G01 X2.4980 Y7.4306 
G00 Z2.5400 
G00 X3.7620 Y15.0127 
G01 Z-0.1500 F254.00 
G01 X3.8140 Y15.0343 F508.00 
G01 X3.8538 Y15.0741 
G01 X3.8754 Y15.1261 
G01 X3.8754 Y15.1825 
G01 X3.8538 Y15.2345 
G01 X3.8140 Y15.2744 
G01 X3.7620 Y15.2959 
G01 X2.2484 Y15.2959 
G01 X2.2484 Y15.7248 
G01 X2.2269 Y15.7769 
G01 X2.1870 Y15.8167 
G01 X2.1350 Y15.8382 
G01 X2.0786 Y15.8382 
G01 X2.0266 Y15.8167 
G01 X1.9868 Y15.7769 
G01 X1.9652 Y15.7248 
G01 X1.9652 Y14.5838 
G01 X1.9868 Y14.5318 
G01 X2.0266 Y14.4919 
G01 X2.0786 Y14.4704 
G01 X2.1350 Y14.4704 
G01 X2.1870 Y14.4919 
G01 X2.2269 Y14.5318 
G01 X2.2484 Y14.5838 
G01 X2.2484 Y15.0127 
G01 X3.7620 Y15.0127 
G00 Z2.5400 
G00 X16.1230 Y17.0754 
G01 Z-0.1500 F254.00 
G01 X14.6970 Y17.0754 F508.00 
G01 X14.6730 Y17.0654 
G01 X14.6546 Y17.0470 
G01 X14.6446 Y17.0230 
G01 X14.6446 Y15.9970 
G01 X14.6546 Y15.9730 
G01 X14.6730 Y15.9546 
G01 X14.6746 Y15.3453 
G01 X14.6666 Y15.3155 
G01 X14.6666 Y15.1645 
G01 X14.7057 Y15.0187 
G01 X14.7812 Y14.8879 
G01 X14.8879 Y14.7812 
G01 X15.0187 Y14.7057 
G01 X15.1645 Y14.6666 
G01 X15.3155 Y14.6666 
G01 X15.4613 Y14.7057 
G01 X15.5921 Y14.7812 
G01 X15.6988 Y14.8879 
G01 X15.7743 Y15.0187 
G01 X15.8134 Y15.1645 
G01 X15.8134 Y15.3155 
G01 X15.8054 Y15.3453 
G01 X15.8054 Y15.9446 
G01 X16.1230 Y15.9446 
G01 X16.1470 Y15.9546 
G01 X16.1654 Y15.9730 
G01 X16.1754 Y15.9970 
G01 X16.1754 Y17.0230 
G01 X16.1654 Y17.0470 
G01 X16.1470 Y17.0654 
G01 X16.1230 Y17.0754 
G00 Z2.5400 
G00 X16.8970 Y18.0254 
G01 Z-0.1500 F254.00 
G01 X16.8730 Y18.0154 F508.00 
G01 X16.8546 Y17.9970 
G01 X16.8446 Y17.9730 
G01 X16.8446 Y16.9470 
G01 X16.8546 Y16.9230 
G01 X16.8730 Y16.9046 
G01 X16.8970 Y16.8946 
G01 X17.5457 Y16.8946 
G01 X17.5555 Y16.8923 
G01 X17.6200 Y16.8946 
G01 X18.3230 Y16.8946 
G01 X18.3470 Y16.9046 
G01 X18.3654 Y16.9230 
G01 X18.3754 Y16.9470 
G01 X18.3754 Y17.9730 
G01 X18.3654 Y17.9970 
G01 X18.3470 Y18.0154 
G01 X18.3454 Y18.9446 
G01 X18.3534 Y18.9745 
G01 X18.3534 Y19.1255 
G01 X18.3143 Y19.2713 
G01 X18.2388 Y19.4021 
G01 X18.1321 Y19.5088 
G01 X18.0013 Y19.5843 
G01 X17.8555 Y19.6234 
G01 X17.7045 Y19.6234 
G01 X17.5587 Y19.5843 
G01 X17.4279 Y19.5088 
G01 X17.3212 Y19.4021 
G01 X17.2457 Y19.2713 
G01 X17.2066 Y19.1255 
G01 X17.2066 Y18.9745 
G01 X17.2146 Y18.9446 
G01 X17.2146 Y18.0254 
G01 X16.8970 Y18.0254 
G00 Z2.5400 
G00 X16.8970 Y16.1254 
G01 Z-0.1500 F254.00 
G01 X16.8730 Y16.1154 F508.00 
G01 X16.8546 Y16.0970 
G01 X16.8446 Y16.0730 
G01 X16.8446 Y15.0470 
G01 X16.8546 Y15.0230 
G01 X16.8730 Y15.0046 
G01 X16.8970 Y14.9946 
G01 X17.2688 Y14.9946 
G01 X17.2854 Y14.9659 
G01 X17.3156 Y14.9090 
G01 X17.3225 Y14.9016 
G01 X17.3276 Y14.8928 
G01 X17.3732 Y14.8472 
G01 X17.4171 Y14.8001 
G01 X17.4257 Y14.7947 
G01 X17.4328 Y14.7876 
G01 X18.5757 Y13.6447 
G01 X18.5912 Y13.6179 
G01 X18.6979 Y13.5112 
G01 X18.8287 Y13.4357 
G01 X18.9745 Y13.3966 
G01 X19.1255 Y13.3966 
G01 X19.2713 Y13.4357 
G01 X19.4021 Y13.5112 
G01 X19.5088 Y13.6179 
G01 X19.5843 Y13.7487 
G01 X19.6234 Y13.8945 
G01 X19.6234 Y14.0455 
G01 X19.5843 Y14.1913 
G01 X19.5088 Y14.3221 
G01 X19.4021 Y14.4288 
G01 X19.3753 Y14.4443 
G01 X18.5796 Y15.2400 
G01 X20.7724 Y17.4328 
G01 X20.8469 Y17.5618 
G01 X20.8854 Y17.7056 
G01 X20.8854 Y21.6644 
G01 X20.8469 Y21.8082 
G01 X20.7724 Y21.9372 
G01 X20.6672 Y22.0424 
G01 X14.8924 Y27.8172 
G01 X14.9054 Y27.8656 
G01 X14.9054 Y28.0144 
G01 X14.8669 Y28.1582 
G01 X14.8054 Y28.2647 
G01 X14.8054 Y28.5530 
G01 X14.7954 Y28.5770 
G01 X14.7770 Y28.5954 
G01 X14.7530 Y28.6054 
G01 X13.9270 Y28.6054 
G01 X13.9030 Y28.5954 
G01 X13.8846 Y28.5770 
G01 X13.8746 Y28.5530 
G01 X13.8746 Y28.4998 
G01 X13.7518 Y28.4669 
G01 X13.6228 Y28.3924 
G01 X13.5176 Y28.2872 
G01 X13.4431 Y28.1582 
G01 X13.4046 Y28.0144 
G01 X13.4046 Y27.8656 
G01 X13.4431 Y27.7218 
G01 X13.5176 Y27.5928 
G01 X13.6228 Y27.4876 
G01 X19.7546 Y21.3558 
G01 X19.7546 Y18.0142 
G01 X17.8658 Y16.1254 
G01 X17.6200 Y16.1254 
G01 X17.5555 Y16.1277 
G01 X17.5457 Y16.1254 
G01 X16.8970 Y16.1254 
G00 Z2.5400 
G00 X24.9955 Y12.3415 
G01 Z-0.1500 F254.00 
G01 X24.9955 Y13.0585 F508.00 
G01 X24.4885 Y13.5655 
G01 X23.7715 Y13.5655 
G01 X23.2645 Y13.0585 
G01 X23.2645 Y12.3415 
G01 X23.5646 Y12.0414 
G01 X23.5646 Y10.7254 
G01 X20.4253 Y10.7254 
G01 X20.3955 Y10.7334 
G01 X20.2445 Y10.7334 
G01 X20.0987 Y10.6943 
G01 X19.9679 Y10.6188 
G01 X19.8612 Y10.5121 
G01 X19.7857 Y10.3813 
G01 X19.7466 Y10.2355 
G01 X19.7466 Y10.0845 
G01 X19.7857 Y9.9387 
G01 X19.8612 Y9.8079 
G01 X19.9679 Y9.7012 
G01 X20.0987 Y9.6257 
G01 X20.2445 Y9.5866 
G01 X20.3955 Y9.5866 
G01 X20.4253 Y9.5946 
G01 X23.5646 Y9.5946 
G01 X23.5646 Y6.5842 
G01 X22.7258 Y5.7454 
G01 X22.0770 Y5.7454 
G01 X22.0530 Y5.7354 
G01 X22.0346 Y5.7170 
G01 X22.0246 Y5.6930 
G01 X22.0246 Y5.4047 
G01 X21.9631 Y5.2982 
G01 X21.9246 Y5.1544 
G01 X21.9246 Y5.0056 
G01 X21.9631 Y4.8618 
G01 X22.0246 Y4.7553 
G01 X22.0246 Y4.4670 
G01 X22.0346 Y4.4430 
G01 X22.0530 Y4.4246 
G01 X22.0770 Y4.4146 
G01 X22.9030 Y4.4146 
G01 X22.9270 Y4.4246 
G01 X22.9454 Y4.4430 
G01 X22.9554 Y4.4670 
G01 X22.9554 Y4.5202 
G01 X23.0782 Y4.5531 
G01 X23.2072 Y4.6276 
G01 X23.3124 Y4.7328 
G01 X24.4772 Y5.8976 
G01 X24.5824 Y6.0028 
G01 X24.6569 Y6.1318 
G01 X24.6954 Y6.2756 
G01 X24.6954 Y12.0414 
G01 X24.9955 Y12.3415 
G00 Z2.5400 
G00 X30.0755 Y12.3415 
G01 Z-0.1500 F254.00 
G01 X30.0755 Y13.0585 F508.00 
G01 X29.5685 Y13.5655 
G01 X28.8515 Y13.5655 
G01 X28.5514 Y13.2654 
G01 X27.3286 Y13.2654 
G01 X27.0285 Y13.5655 
G01 X26.3115 Y13.5655 
G01 X25.8045 Y13.0585 
G01 X25.8045 Y12.3415 
G01 X26.1046 Y12.0414 
G01 X26.1046 Y5.0056 
G01 X26.1431 Y4.8618 
G01 X26.2176 Y4.7328 
G01 X26.3228 Y4.6276 
G01 X26.4518 Y4.5531 
G01 X26.5746 Y4.5202 
G01 X26.5746 Y4.4670 
G01 X26.5846 Y4.4430 
G01 X26.6030 Y4.4246 
G01 X26.6270 Y4.4146 
G01 X27.4530 Y4.4146 
G01 X27.4770 Y4.4246 
G01 X27.4954 Y4.4430 
G01 X27.5054 Y4.4670 
G01 X27.5054 Y4.7553 
G01 X27.5669 Y4.8618 
G01 X27.6054 Y5.0056 
G01 X27.6054 Y5.1544 
G01 X27.5669 Y5.2982 
G01 X27.5054 Y5.4047 
G01 X27.5054 Y5.6930 
G01 X27.4954 Y5.7170 
G01 X27.4770 Y5.7354 
G01 X27.4530 Y5.7454 
G01 X27.2354 Y5.7454 
G01 X27.2354 Y12.0414 
G01 X27.3286 Y12.1346 
G01 X28.5514 Y12.1346 
G01 X28.8515 Y11.8345 
G01 X29.5685 Y11.8345 
G01 X30.0755 Y12.3415 
G00 Z2.5400 
G00 X32.6155 Y12.3415 
G01 Z-0.1500 F254.00 
G01 X32.6155 Y13.0585 F508.00 
G01 X32.1085 Y13.5655 
G01 X31.3915 Y13.5655 
G01 X30.8845 Y13.0585 
G01 X30.8845 Y12.3415 
G01 X31.1846 Y12.0414 
G01 X31.1846 Y8.8156 
G01 X31.2231 Y8.6718 
G01 X31.2976 Y8.5428 
G01 X31.4028 Y8.4376 
G01 X34.6376 Y5.2028 
G01 X34.6246 Y5.1544 
G01 X34.6246 Y5.0056 
G01 X34.6631 Y4.8618 
G01 X34.7246 Y4.7553 
G01 X34.7246 Y4.4670 
G01 X34.7346 Y4.4430 
G01 X34.7530 Y4.4246 
G01 X34.7770 Y4.4146 
G01 X35.6030 Y4.4146 
G01 X35.6270 Y4.4246 
G01 X35.6454 Y4.4430 
G01 X35.6554 Y4.4670 
G01 X35.6554 Y4.5202 
G01 X35.7782 Y4.5531 
G01 X35.9072 Y4.6276 
G01 X36.0124 Y4.7328 
G01 X36.0869 Y4.8618 
G01 X36.1254 Y5.0056 
G01 X36.1254 Y5.1544 
G01 X36.0869 Y5.2982 
G01 X36.0124 Y5.4272 
G01 X35.9072 Y5.5324 
G01 X32.3154 Y9.1242 
G01 X32.3154 Y12.0414 
G01 X32.6155 Y12.3415 
G00 Z2.5400 
G00 X32.6155 Y19.9615 
G01 Z-0.1500 F254.00 
G01 X32.6155 Y20.6785 F508.00 
G01 X32.1085 Y21.1855 
G01 X31.3915 Y21.1855 
G01 X30.8845 Y20.6785 
G01 X30.8845 Y19.9615 
G01 X31.3915 Y19.4545 
G01 X32.1085 Y19.4545 
G01 X32.6155 Y19.9615 
G00 Z2.5400 
G00 X30.0755 Y19.9615 
G01 Z-0.1500 F254.00 
G01 X30.0755 Y20.6785 F508.00 
G01 X29.7754 Y20.9786 
G01 X29.7754 Y27.3746 
G01 X32.9246 Y27.3746 
G01 X32.9246 Y27.3270 
G01 X32.9346 Y27.3030 
G01 X32.9530 Y27.2846 
G01 X32.9770 Y27.2746 
G01 X33.8030 Y27.2746 
G01 X33.8270 Y27.2846 
G01 X33.8454 Y27.3030 
G01 X33.8554 Y27.3270 
G01 X33.8554 Y27.6153 
G01 X33.9169 Y27.7218 
G01 X33.9554 Y27.8656 
G01 X33.9554 Y28.0144 
G01 X33.9169 Y28.1582 
G01 X33.8554 Y28.2647 
G01 X33.8554 Y28.5530 
G01 X33.8454 Y28.5770 
G01 X33.8270 Y28.5954 
G01 X33.8030 Y28.6054 
G01 X32.9770 Y28.6054 
G01 X32.9530 Y28.5954 
G01 X32.9346 Y28.5770 
G01 X32.9246 Y28.5530 
G01 X32.9246 Y28.5054 
G01 X29.3054 Y28.5054 
G01 X29.3054 Y28.5530 
G01 X29.2954 Y28.5770 
G01 X29.2770 Y28.5954 
G01 X29.2530 Y28.6054 
G01 X28.4270 Y28.6054 
G01 X28.4030 Y28.5954 
G01 X28.3846 Y28.5770 
G01 X28.3746 Y28.5530 
G01 X28.3746 Y28.2647 
G01 X28.3131 Y28.1582 
G01 X28.2746 Y28.0144 
G01 X28.2746 Y27.8656 
G01 X28.3131 Y27.7218 
G01 X28.3746 Y27.6153 
G01 X28.3746 Y27.3270 
G01 X28.3846 Y27.3030 
G01 X28.4030 Y27.2846 
G01 X28.4270 Y27.2746 
G01 X28.6446 Y27.2746 
G01 X28.6446 Y20.9786 
G01 X28.3445 Y20.6785 
G01 X28.3445 Y19.9615 
G01 X28.8515 Y19.4545 
G01 X29.5685 Y19.4545 
G01 X30.0755 Y19.9615 
G00 Z2.5400 
G00 X33.8554 Y4.4670 
G01 Z-0.1500 F254.00 
G01 X33.8554 Y4.7553 F508.00 
G01 X33.9169 Y4.8618 
G01 X33.9554 Y5.0056 
G01 X33.9554 Y5.1544 
G01 X33.9169 Y5.2982 
G01 X33.8554 Y5.4047 
G01 X33.8554 Y5.6930 
G01 X33.8454 Y5.7170 
G01 X33.8270 Y5.7354 
G01 X33.8030 Y5.7454 
G01 X33.1542 Y5.7454 
G01 X28.4143 Y10.4853 
G01 X28.3988 Y10.5121 
G01 X28.2921 Y10.6188 
G01 X28.1613 Y10.6943 
G01 X28.0155 Y10.7334 
G01 X27.8645 Y10.7334 
G01 X27.7187 Y10.6943 
G01 X27.5879 Y10.6188 
G01 X27.4812 Y10.5121 
G01 X27.4057 Y10.3813 
G01 X27.3666 Y10.2355 
G01 X27.3666 Y10.0845 
G01 X27.4057 Y9.9387 
G01 X27.4812 Y9.8079 
G01 X27.5879 Y9.7012 
G01 X27.6147 Y9.6857 
G01 X32.5676 Y4.7328 
G01 X32.6728 Y4.6276 
G01 X32.8018 Y4.5531 
G01 X32.9246 Y4.5202 
G01 X32.9246 Y4.4670 
G01 X32.9346 Y4.4430 
G01 X32.9530 Y4.4246 
G01 X32.9770 Y4.4146 
G01 X33.8030 Y4.4146 
G01 X33.8270 Y4.4246 
G01 X33.8454 Y4.4430 
G01 X33.8554 Y4.4670 
G00 Z2.5400 
G00 X15.6746 Y28.5530 
G01 Z-0.1500 F254.00 
G01 X15.6746 Y28.2647 F508.00 
G01 X15.6131 Y28.1582 
G01 X15.5746 Y28.0144 
G01 X15.5746 Y27.8656 
G01 X15.6131 Y27.7218 
G01 X15.6746 Y27.6153 
G01 X15.6746 Y27.3270 
G01 X15.6846 Y27.3030 
G01 X15.7030 Y27.2846 
G01 X15.7270 Y27.2746 
G01 X16.5530 Y27.2746 
G01 X16.5770 Y27.2846 
G01 X16.5954 Y27.3030 
G01 X16.6054 Y27.3270 
G01 X16.6054 Y27.3746 
G01 X18.9446 Y27.3746 
G01 X18.9745 Y27.3666 
G01 X19.1255 Y27.3666 
G01 X19.1553 Y27.3746 
G01 X20.2246 Y27.3746 
G01 X20.2246 Y27.3270 
G01 X20.2346 Y27.3030 
G01 X20.2530 Y27.2846 
G01 X20.2770 Y27.2746 
G01 X21.1030 Y27.2746 
G01 X21.1270 Y27.2846 
G01 X21.1454 Y27.3030 
G01 X21.1554 Y27.3270 
G01 X21.1554 Y27.6153 
G01 X21.2169 Y27.7218 
G01 X21.2554 Y27.8656 
G01 X21.2554 Y28.0144 
G01 X21.2169 Y28.1582 
G01 X21.1554 Y28.2647 
G01 X21.1554 Y28.5530 
G01 X21.1454 Y28.5770 
G01 X21.1270 Y28.5954 
G01 X21.1030 Y28.6054 
G01 X20.2770 Y28.6054 
G01 X20.2530 Y28.5954 
G01 X20.2346 Y28.5770 
G01 X20.2246 Y28.5530 
G01 X20.2246 Y28.5054 
G01 X19.1553 Y28.5054 
G01 X19.1255 Y28.5134 
G01 X18.9745 Y28.5134 
G01 X18.9446 Y28.5054 
G01 X16.6054 Y28.5054 
G01 X16.6054 Y28.5530 
G01 X16.5954 Y28.5770 
G01 X16.5770 Y28.5954 
G01 X16.5530 Y28.6054 
G01 X15.7270 Y28.6054 
G01 X15.7030 Y28.5954 
G01 X15.6846 Y28.5770 
G01 X15.6746 Y28.5530 
G00 Z2.5400 
G00 X6.8881 Y11.9742 
G01 Z-0.1500 F254.00 
G01 X8.3519 Y11.9742 F508.00 
G01 X8.4921 Y12.0021 
G01 X8.6242 Y12.0568 
G01 X8.7406 Y12.1346 
G01 X17.2146 Y12.1346 
G01 X17.2146 Y5.7454 
G01 X16.9970 Y5.7454 
G01 X16.9730 Y5.7354 
G01 X16.9546 Y5.7170 
G01 X16.9446 Y5.6930 
G01 X16.9446 Y5.4047 
G01 X16.8831 Y5.2982 
G01 X16.8446 Y5.1544 
G01 X16.8446 Y5.0056 
G01 X16.8831 Y4.8618 
G01 X16.9446 Y4.7553 
G01 X16.9446 Y4.4670 
G01 X16.9546 Y4.4430 
G01 X16.9730 Y4.4246 
G01 X16.9970 Y4.4146 
G01 X17.8230 Y4.4146 
G01 X17.8470 Y4.4246 
G01 X17.8654 Y4.4430 
G01 X17.8754 Y4.4670 
G01 X17.8754 Y4.5146 
G01 X19.7546 Y4.5146 
G01 X19.7546 Y2.4656 
G01 X19.7931 Y2.3218 
G01 X19.8676 Y2.1928 
G01 X19.9728 Y2.0876 
G01 X20.1018 Y2.0131 
G01 X20.2456 Y1.9746 
G01 X26.7444 Y1.9746 
G01 X26.8882 Y2.0131 
G01 X27.0172 Y2.0876 
G01 X27.1224 Y2.1928 
G01 X29.5572 Y4.6276 
G01 X29.6624 Y4.7328 
G01 X29.7369 Y4.8618 
G01 X29.7754 Y5.0056 
G01 X29.7754 Y5.1544 
G01 X29.7369 Y5.2982 
G01 X29.6624 Y5.4272 
G01 X29.5572 Y5.5324 
G01 X29.4282 Y5.6069 
G01 X29.3054 Y5.6398 
G01 X29.3054 Y5.6930 
G01 X29.2954 Y5.7170 
G01 X29.2770 Y5.7354 
G01 X29.2530 Y5.7454 
G01 X28.4270 Y5.7454 
G01 X28.4030 Y5.7354 
G01 X28.3846 Y5.7170 
G01 X28.3746 Y5.6930 
G01 X28.3746 Y5.4047 
G01 X28.3131 Y5.2982 
G01 X28.2746 Y5.1544 
G01 X28.2746 Y5.0056 
G01 X28.2876 Y4.9572 
G01 X26.4358 Y3.1054 
G01 X20.8854 Y3.1054 
G01 X20.8854 Y4.4146 
G01 X21.1030 Y4.4146 
G01 X21.1270 Y4.4246 
G01 X21.1454 Y4.4430 
G01 X21.1554 Y4.4670 
G01 X21.1554 Y4.7553 
G01 X21.2169 Y4.8618 
G01 X21.2554 Y5.0056 
G01 X21.2554 Y5.1544 
G01 X21.2169 Y5.2982 
G01 X21.1554 Y5.4047 
G01 X21.1554 Y5.6930 
G01 X21.1454 Y5.7170 
G01 X21.1270 Y5.7354 
G01 X21.1030 Y5.7454 
G01 X20.2770 Y5.7454 
G01 X20.2530 Y5.7354 
G01 X20.2346 Y5.7170 
G01 X20.2246 Y5.6930 
G01 X20.2246 Y5.6454 
G01 X18.3454 Y5.6454 
G01 X18.3454 Y9.9258 
G01 X22.0424 Y13.6228 
G01 X22.1169 Y13.7518 
G01 X22.1554 Y13.8956 
G01 X22.1554 Y17.5458 
G01 X23.5646 Y18.9550 
G01 X23.5646 Y17.7056 
G01 X23.6031 Y17.5618 
G01 X23.6776 Y17.4328 
G01 X23.7828 Y17.3276 
G01 X23.9118 Y17.2531 
G01 X24.0556 Y17.2146 
G01 X31.8244 Y17.2146 
G01 X31.9682 Y17.2531 
G01 X32.0972 Y17.3276 
G01 X32.2024 Y17.4328 
G01 X34.7424 Y19.9728 
G01 X34.8169 Y20.1018 
G01 X34.8554 Y20.2456 
G01 X34.8554 Y26.4358 
G01 X35.9072 Y27.4876 
G01 X36.0124 Y27.5928 
G01 X36.0869 Y27.7218 
G01 X36.1254 Y27.8656 
G01 X36.1254 Y28.0144 
G01 X36.0869 Y28.1582 
G01 X36.0124 Y28.2872 
G01 X35.9072 Y28.3924 
G01 X35.7782 Y28.4669 
G01 X35.6554 Y28.4998 
G01 X35.6554 Y28.5530 
G01 X35.6454 Y28.5770 
G01 X35.6270 Y28.5954 
G01 X35.6030 Y28.6054 
G01 X34.7770 Y28.6054 
G01 X34.7530 Y28.5954 
G01 X34.7346 Y28.5770 
G01 X34.7246 Y28.5530 
G01 X34.7246 Y28.2647 
G01 X34.6631 Y28.1582 
G01 X34.6246 Y28.0144 
G01 X34.6246 Y27.8656 
G01 X34.6376 Y27.8172 
G01 X33.9428 Y27.1224 
G01 X33.8376 Y27.0172 
G01 X33.7631 Y26.8882 
G01 X33.7246 Y26.7444 
G01 X33.7246 Y20.5542 
G01 X31.5158 Y18.3454 
G01 X24.6954 Y18.3454 
G01 X24.6954 Y19.6614 
G01 X24.9955 Y19.9615 
G01 X24.9955 Y20.6785 
G01 X24.4885 Y21.1855 
G01 X23.7715 Y21.1855 
G01 X23.2645 Y20.6785 
G01 X23.2645 Y20.2541 
G01 X21.2428 Y18.2324 
G01 X21.1376 Y18.1272 
G01 X21.0631 Y17.9982 
G01 X21.0246 Y17.8544 
G01 X21.0246 Y14.2042 
G01 X18.3454 Y11.5250 
G01 X18.3454 Y12.7744 
G01 X18.3069 Y12.9182 
G01 X18.2324 Y13.0472 
G01 X18.1272 Y13.1524 
G01 X17.9982 Y13.2269 
G01 X17.8544 Y13.2654 
G01 X8.7406 Y13.2654 
G01 X8.6242 Y13.3432 
G01 X8.4921 Y13.3979 
G01 X8.3519 Y13.4258 
G01 X6.8881 Y13.4258 
G01 X6.7479 Y13.3979 
G01 X6.6158 Y13.3432 
G01 X6.4969 Y13.2638 
G01 X6.3958 Y13.1627 
G01 X6.3164 Y13.0438 
G01 X6.2617 Y12.9117 
G01 X6.2338 Y12.7715 
G01 X6.2338 Y12.6285 
G01 X6.2617 Y12.4883 
G01 X6.3164 Y12.3562 
G01 X6.3958 Y12.2373 
G01 X6.4969 Y12.1362 
G01 X6.6158 Y12.0568 
G01 X6.7479 Y12.0021 
G01 X6.8881 Y11.9742 
G00 Z2.5400 
G00 X6.8881 Y14.5142 
G01 Z-0.1500 F254.00 
G01 X8.3519 Y14.5142 F508.00 
G01 X8.4921 Y14.5421 
G01 X8.6242 Y14.5968 
G01 X8.7431 Y14.6762 
G01 X8.8442 Y14.7773 
G01 X8.9236 Y14.8962 
G01 X8.9783 Y15.0283 
G01 X9.0062 Y15.1685 
G01 X9.0062 Y15.3115 
G01 X8.9783 Y15.4517 
G01 X8.9236 Y15.5838 
G01 X8.8442 Y15.7027 
G01 X8.7431 Y15.8038 
G01 X8.6242 Y15.8832 
G01 X8.4921 Y15.9379 
G01 X8.3519 Y15.9658 
G01 X6.8881 Y15.9658 
G01 X6.7479 Y15.9379 
G01 X6.6158 Y15.8832 
G01 X6.4969 Y15.8038 
G01 X6.3958 Y15.7027 
G01 X6.3164 Y15.5838 
G01 X6.2617 Y15.4517 
G01 X6.2338 Y15.3115 
G01 X6.2338 Y15.1685 
G01 X6.2617 Y15.0283 
G01 X6.3164 Y14.8962 
G01 X6.3958 Y14.7773 
G01 X6.4969 Y14.6762 
G01 X6.6158 Y14.5968 
G01 X6.7479 Y14.5421 
G01 X6.8881 Y14.5142 
G00 Z2.5400 
G00 X6.8881 Y17.0542 
G01 Z-0.1500 F254.00 
G01 X8.3519 Y17.0542 F508.00 
G01 X8.4921 Y17.0821 
G01 X8.6242 Y17.1368 
G01 X8.7431 Y17.2162 
G01 X8.8442 Y17.3173 
G01 X8.9236 Y17.4362 
G01 X8.9783 Y17.5683 
G01 X9.0062 Y17.7085 
G01 X9.0062 Y17.8515 
G01 X8.9783 Y17.9917 
G01 X8.9236 Y18.1238 
G01 X8.8442 Y18.2427 
G01 X8.7431 Y18.3438 
G01 X8.6242 Y18.4232 
G01 X8.4921 Y18.4779 
G01 X8.3519 Y18.5058 
G01 X6.8881 Y18.5058 
G01 X6.7479 Y18.4779 
G01 X6.6158 Y18.4232 
G01 X6.4969 Y18.3438 
G01 X6.3958 Y18.2427 
G01 X6.3164 Y18.1238 
G01 X6.2617 Y17.9917 
G01 X6.2338 Y17.8515 
G01 X6.2338 Y17.7085 
G01 X6.2617 Y17.5683 
G01 X6.3164 Y17.4362 
G01 X6.3958 Y17.3173 
G01 X6.4969 Y17.2162 
G01 X6.6158 Y17.1368 
G01 X6.7479 Y17.0821 
G01 X6.8881 Y17.0542 
G00 Z2.5400 
G00 X6.8881 Y19.5942 
G01 Z-0.1500 F254.00 
G01 X8.3519 Y19.5942 F508.00 
G01 X8.4921 Y19.6221 
G01 X8.6242 Y19.6768 
G01 X8.7431 Y19.7562 
G01 X8.8442 Y19.8573 
G01 X8.9236 Y19.9762 
G01 X8.9783 Y20.1083 
G01 X9.0062 Y20.2485 
G01 X9.0062 Y20.3915 
G01 X8.9783 Y20.5317 
G01 X8.9236 Y20.6638 
G01 X8.8442 Y20.7827 
G01 X8.7431 Y20.8838 
G01 X8.6242 Y20.9632 
G01 X8.4921 Y21.0179 
G01 X8.3519 Y21.0458 
G01 X6.8881 Y21.0458 
G01 X6.7479 Y21.0179 
G01 X6.6158 Y20.9632 
G01 X6.4969 Y20.8838 
G01 X6.3958 Y20.7827 
G01 X6.3164 Y20.6638 
G01 X6.2617 Y20.5317 
G01 X6.2338 Y20.3915 
G01 X6.2338 Y20.2485 
G01 X6.2617 Y20.1083 
G01 X6.3164 Y19.9762 
G01 X6.3958 Y19.8573 
G01 X6.4969 Y19.7562 
G01 X6.6158 Y19.6768 
G01 X6.7479 Y19.6221 
G01 X6.8881 Y19.5942 
G00 Z2.5400 
G00 X6.8881 Y22.1342 
G01 Z-0.1500 F254.00 
G01 X8.3519 Y22.1342 F508.00 
G01 X8.4921 Y22.1621 
G01 X8.6242 Y22.2168 
G01 X8.7431 Y22.2962 
G01 X8.8442 Y22.3973 
G01 X8.9236 Y22.5162 
G01 X8.9783 Y22.6483 
G01 X9.0062 Y22.7885 
G01 X9.0062 Y22.9315 
G01 X8.9783 Y23.0717 
G01 X8.9236 Y23.2038 
G01 X8.8594 Y23.2998 
G01 X13.0472 Y27.4876 
G01 X13.1524 Y27.5928 
G01 X13.2269 Y27.7218 
G01 X13.2654 Y27.8656 
G01 X13.2654 Y28.9758 
G01 X14.2042 Y29.9146 
G01 X22.2946 Y29.9146 
G01 X22.2946 Y28.6054 
G01 X22.0770 Y28.6054 
G01 X22.0530 Y28.5954 
G01 X22.0346 Y28.5770 
G01 X22.0246 Y28.5530 
G01 X22.0246 Y28.2647 
G01 X21.9631 Y28.1582 
G01 X21.9246 Y28.0144 
G01 X21.9246 Y27.8656 
G01 X21.9631 Y27.7218 
G01 X22.0246 Y27.6153 
G01 X22.0246 Y27.3270 
G01 X22.0346 Y27.3030 
G01 X22.0530 Y27.2846 
G01 X22.0770 Y27.2746 
G01 X22.9030 Y27.2746 
G01 X22.9270 Y27.2846 
G01 X22.9454 Y27.3030 
G01 X22.9554 Y27.3270 
G01 X22.9554 Y27.3746 
G01 X26.1046 Y27.3746 
G01 X26.1046 Y20.9786 
G01 X25.8045 Y20.6785 
G01 X25.8045 Y19.9615 
G01 X26.3115 Y19.4545 
G01 X27.0285 Y19.4545 
G01 X27.5355 Y19.9615 
G01 X27.5355 Y20.6785 
G01 X27.2354 Y20.9786 
G01 X27.2354 Y27.2746 
G01 X27.4530 Y27.2746 
G01 X27.4770 Y27.2846 
G01 X27.4954 Y27.3030 
G01 X27.5054 Y27.3270 
G01 X27.5054 Y27.6153 
G01 X27.5669 Y27.7218 
G01 X27.6054 Y27.8656 
G01 X27.6054 Y28.0144 
G01 X27.5669 Y28.1582 
G01 X27.5054 Y28.2647 
G01 X27.5054 Y28.5530 
G01 X27.4954 Y28.5770 
G01 X27.4770 Y28.5954 
G01 X27.4530 Y28.6054 
G01 X26.6270 Y28.6054 
G01 X26.6030 Y28.5954 
G01 X26.5846 Y28.5770 
G01 X26.5746 Y28.5530 
G01 X26.5746 Y28.5054 
G01 X23.4254 Y28.5054 
G01 X23.4254 Y30.5544 
G01 X23.3869 Y30.6982 
G01 X23.3124 Y30.8272 
G01 X23.2072 Y30.9324 
G01 X23.0782 Y31.0069 
G01 X22.9344 Y31.0454 
G01 X13.8956 Y31.0454 
G01 X13.7518 Y31.0069 
G01 X13.6228 Y30.9324 
G01 X13.5176 Y30.8272 
G01 X12.2476 Y29.5572 
G01 X12.1731 Y29.4282 
G01 X12.1346 Y29.2844 
G01 X12.1346 Y28.1742 
G01 X7.5462 Y23.5858 
G01 X6.8881 Y23.5858 
G01 X6.7479 Y23.5579 
G01 X6.6158 Y23.5032 
G01 X6.4969 Y23.4238 
G01 X6.3958 Y23.3227 
G01 X6.3164 Y23.2038 
G01 X6.2617 Y23.0717 
G01 X6.2338 Y22.9315 
G01 X6.2338 Y22.7885 
G01 X6.2617 Y22.6483 
G01 X6.3164 Y22.5162 
G01 X6.3958 Y22.3973 
G01 X6.4969 Y22.2962 
G01 X6.6158 Y22.2168 
G01 X6.7479 Y22.1621 
G01 X6.8881 Y22.1342 
G00 Z2.5400 
G00 X16.0754 Y4.4670 
G01 Z-0.1500 F254.00 
G01 X16.0754 Y4.7553 F508.00 
G01 X16.1369 Y4.8618 
G01 X16.1754 Y5.0056 
G01 X16.1754 Y5.1544 
G01 X16.1369 Y5.2982 
G01 X16.0754 Y5.4047 
G01 X16.0754 Y5.6930 
G01 X16.0654 Y5.7170 
G01 X16.0470 Y5.7354 
G01 X16.0230 Y5.7454 
G01 X15.1970 Y5.7454 
G01 X15.1730 Y5.7354 
G01 X15.1546 Y5.7170 
G01 X15.1446 Y5.6930 
G01 X15.1446 Y5.6454 
G01 X11.8754 Y5.6454 
G01 X11.8754 Y5.6930 
G01 X11.8654 Y5.7170 
G01 X11.8470 Y5.7354 
G01 X11.8230 Y5.7454 
G01 X10.5970 Y5.7454 
G01 X10.5730 Y5.7354 
G01 X10.5546 Y5.7170 
G01 X10.5446 Y5.6930 
G01 X10.5446 Y4.4670 
G01 X10.5546 Y4.4430 
G01 X10.5730 Y4.4246 
G01 X10.5970 Y4.4146 
G01 X11.8230 Y4.4146 
G01 X11.8470 Y4.4246 
G01 X11.8654 Y4.4430 
G01 X11.8754 Y4.4670 
G01 X11.8754 Y4.5146 
G01 X15.1446 Y4.5146 
G01 X15.1446 Y4.4670 
G01 X15.1546 Y4.4430 
G01 X15.1730 Y4.4246 
G01 X15.1970 Y4.4146 
G01 X16.0230 Y4.4146 
G01 X16.0470 Y4.4246 
G01 X16.0654 Y4.4430 
G01 X16.0754 Y4.4670 
G00 Z2.5400 
G00 X9.7230 Y5.7454 
G01 Z-0.1500 F254.00 
G01 X9.0242 Y5.7454 F508.00 
G01 X8.1854 Y6.5842 
G01 X8.1854 Y9.4342 
G01 X8.3519 Y9.4342 
G01 X8.4921 Y9.4621 
G01 X8.6242 Y9.5168 
G01 X8.7431 Y9.5962 
G01 X8.8442 Y9.6973 
G01 X8.9236 Y9.8162 
G01 X8.9783 Y9.9483 
G01 X9.0062 Y10.0885 
G01 X9.0062 Y10.2315 
G01 X8.9783 Y10.3717 
G01 X8.9236 Y10.5038 
G01 X8.8442 Y10.6227 
G01 X8.7431 Y10.7238 
G01 X8.6242 Y10.8032 
G01 X8.4921 Y10.8579 
G01 X8.3519 Y10.8858 
G01 X6.8881 Y10.8858 
G01 X6.7479 Y10.8579 
G01 X6.6158 Y10.8032 
G01 X6.4969 Y10.7238 
G01 X6.3958 Y10.6227 
G01 X6.3164 Y10.5038 
G01 X6.2617 Y10.3717 
G01 X6.2338 Y10.2315 
G01 X6.2338 Y10.0885 
G01 X6.2617 Y9.9483 
G01 X6.3164 Y9.8162 
G01 X6.3958 Y9.6973 
G01 X6.4969 Y9.5962 
G01 X6.6158 Y9.5168 
G01 X6.7479 Y9.4621 
G01 X6.8881 Y9.4342 
G01 X7.0546 Y9.4342 
G01 X7.0546 Y6.2756 
G01 X7.0931 Y6.1318 
G01 X7.1676 Y6.0028 
G01 X7.2728 Y5.8976 
G01 X8.4376 Y4.7328 
G01 X8.4446 Y4.7258 
G01 X8.4446 Y4.4670 
G01 X8.4546 Y4.4430 
G01 X8.4730 Y4.4246 
G01 X8.4970 Y4.4146 
G01 X9.7230 Y4.4146 
G01 X9.7470 Y4.4246 
G01 X9.7654 Y4.4430 
G01 X9.7754 Y4.4670 
G01 X9.7754 Y5.6930 
G01 X9.7654 Y5.7170 
G01 X9.7470 Y5.7354 
G01 X9.7230 Y5.7454 
G00 Z2.5400 
G00 X2.3754 Y18.1549 
G01 Z-0.1500 F254.00 
G01 X2.3754 Y18.5885 F508.00 
G01 X2.4892 Y18.7024 
G01 X2.8090 Y18.7024 
G01 X2.9229 Y18.5885 
G01 X2.9229 Y18.1549 
G01 X2.3754 Y18.1549 
G00 Z2.5400 
G00 X2.4867 Y21.7029 
G01 Z-0.1500 F254.00 
G01 X2.6517 Y21.8680 F508.00 
G01 X2.6517 Y21.5379 
G01 X2.4867 Y21.7029 
G00 Z2.5400 
G00 X3.3027 Y25.2510 
G01 Z-0.1500 F254.00 
G01 X3.3514 Y25.2510 F508.00 
G01 X3.4652 Y25.1372 
G01 X3.4652 Y24.7035 
G01 X3.1889 Y24.7035 
G01 X3.1889 Y25.1372 
G01 X3.3027 Y25.2510 
G00 Z2.5400 
G00 X2.3754 Y24.7035 
G01 Z-0.1500 F254.00 
G01 X2.3754 Y25.1372 F508.00 
G01 X2.4892 Y25.2510 
G01 X2.5379 Y25.2510 
G01 X2.6517 Y25.1372 
G01 X2.6517 Y24.7035 
G01 X2.3754 Y24.7035 
G00 Z2.5400 
G00 X2.0714 Y24.1663 
G01 Z-0.1500 F254.00 
G01 X3.7692 Y24.1663 F508.00 
G01 X3.8375 Y24.1846 
G01 X3.8987 Y24.2200 
G01 X3.9487 Y24.2700 
G01 X3.9841 Y24.3312 
G01 X4.0024 Y24.3996 
G01 X4.0024 Y25.2838 
G01 X3.9841 Y25.3521 
G01 X3.9487 Y25.4133 
G01 X3.6276 Y25.7345 
G01 X3.6046 Y25.7477 
G01 X3.5663 Y25.7699 
G01 X3.4988 Y25.7880 
G01 X3.1561 Y25.7882 
G01 X3.0878 Y25.7699 
G01 X3.0265 Y25.7345 
G01 X2.9765 Y25.6845 
G01 X2.9203 Y25.6283 
G01 X2.8141 Y25.7345 
G01 X2.7528 Y25.7699 
G01 X2.6845 Y25.7882 
G01 X2.3426 Y25.7882 
G01 X2.2743 Y25.7699 
G01 X2.2350 Y25.7472 
G01 X2.2130 Y25.7345 
G01 X1.8919 Y25.4133 
G01 X1.8565 Y25.3521 
G01 X1.8382 Y25.2838 
G01 X1.8382 Y24.3996 
G01 X1.8565 Y24.3312 
G01 X1.8919 Y24.2700 
G01 X1.9419 Y24.2200 
G01 X2.0031 Y24.1846 
G01 X2.0714 Y24.1663 
G00 Z2.5400 
G00 X3.7692 Y20.8920 
G01 Z-0.1500 F254.00 
G01 X3.8375 Y20.9103 F508.00 
G01 X3.8987 Y20.9457 
G01 X3.9487 Y20.9957 
G01 X3.9841 Y21.0569 
G01 X4.0024 Y21.1252 
G01 X4.0024 Y21.1960 
G01 X3.9841 Y21.2643 
G01 X3.9487 Y21.3255 
G01 X3.8987 Y21.3755 
G01 X3.8375 Y21.4109 
G01 X3.7692 Y21.4292 
G01 X3.1889 Y21.4292 
G01 X3.1889 Y21.9767 
G01 X3.7692 Y21.9767 
G01 X3.8375 Y21.9950 
G01 X3.8987 Y22.0303 
G01 X3.9487 Y22.0803 
G01 X3.9841 Y22.1416 
G01 X4.0024 Y22.2099 
G01 X4.0024 Y22.2806 
G01 X3.9841 Y22.3489 
G01 X3.9487 Y22.4102 
G01 X3.8987 Y22.4602 
G01 X3.8375 Y22.4956 
G01 X3.7692 Y22.5139 
G01 X2.6138 Y22.5139 
G01 X2.5455 Y22.4956 
G01 X2.4842 Y22.4602 
G01 X2.4342 Y22.4102 
G01 X1.8919 Y21.8679 
G01 X1.8565 Y21.8066 
G01 X1.8557 Y21.8037 
G01 X1.8382 Y21.7383 
G01 X1.8382 Y21.6676 
G01 X1.8565 Y21.5993 
G01 X1.8914 Y21.5388 
G01 X1.9419 Y21.4880 
G01 X2.4842 Y20.9457 
G01 X2.5455 Y20.9103 
G01 X2.6138 Y20.8920 
G01 X2.9557 Y20.8920 
G01 X3.7692 Y20.8920 
G00 Z2.5400 
G00 X3.7692 Y17.6177 
G01 Z-0.1500 F254.00 
G01 X3.8375 Y17.6360 F508.00 
G01 X3.8987 Y17.6714 
G01 X3.9487 Y17.7214 
G01 X3.9841 Y17.7826 
G01 X4.0024 Y17.8509 
G01 X4.0024 Y17.9217 
G01 X3.9841 Y17.9900 
G01 X3.9487 Y18.0512 
G01 X3.8987 Y18.1012 
G01 X3.8375 Y18.1366 
G01 X3.7692 Y18.1549 
G01 X3.4601 Y18.1549 
G01 X3.4601 Y18.3174 
G01 X3.9487 Y18.8060 
G01 X3.9841 Y18.8673 
G01 X4.0024 Y18.9356 
G01 X4.0024 Y19.0063 
G01 X3.9841 Y19.0746 
G01 X3.9487 Y19.1359 
G01 X3.8987 Y19.1859 
G01 X3.8375 Y19.2212 
G01 X3.7692 Y19.2396 
G01 X3.6984 Y19.2396 
G01 X3.6301 Y19.2212 
G01 X3.5689 Y19.1859 
G01 X3.3271 Y18.9441 
G01 X3.0852 Y19.1859 
G01 X3.0240 Y19.2212 
G01 X2.9557 Y19.2396 
G01 X2.3426 Y19.2396 
G01 X2.2743 Y19.2212 
G01 X2.2350 Y19.1985 
G01 X2.2130 Y19.1859 
G01 X1.8919 Y18.8647 
G01 X1.8565 Y18.8035 
G01 X1.8382 Y18.7352 
G01 X1.8382 Y17.8509 
G01 X1.8565 Y17.7826 
G01 X1.8919 Y17.7214 
G01 X1.9419 Y17.6714 
G01 X2.0031 Y17.6360 
G01 X2.0714 Y17.6177 
G01 X3.2268 Y17.6177 
G01 X3.7692 Y17.6177 
G00 Z2.5400 
G00 X2.0714 Y11.6063 
G01 Z-0.1500 F254.00 
G01 X2.0031 Y11.5880 F508.00 
G01 X1.9419 Y11.5526 
G01 X1.8919 Y11.5026 
G01 X1.8565 Y11.4413 
G01 X1.8382 Y11.3730 
G01 X1.8382 Y11.3023 
G01 X1.8565 Y11.2340 
G01 X1.8919 Y11.1727 
G01 X1.9419 Y11.1227 
G01 X2.0031 Y11.0874 
G01 X2.0714 Y11.0691 
G01 X3.2268 Y11.0691 
G01 X3.2951 Y11.0874 
G01 X3.3564 Y11.1227 
G01 X3.8987 Y11.6651 
G01 X3.9487 Y11.7151 
G01 X3.9841 Y11.7763 
G01 X4.0022 Y11.8439 
G01 X4.0024 Y11.9154 
G01 X3.9849 Y11.9808 
G01 X3.9841 Y11.9837 
G01 X3.9487 Y12.0449 
G01 X3.4064 Y12.5872 
G01 X3.3564 Y12.6373 
G01 X3.2951 Y12.6726 
G01 X3.2268 Y12.6909 
G01 X2.0714 Y12.6909 
G01 X2.0031 Y12.6726 
G01 X1.9419 Y12.6373 
G01 X1.8919 Y12.5873 
G01 X1.8565 Y12.5260 
G01 X1.8382 Y12.4577 
G01 X1.8382 Y12.3870 
G01 X1.8565 Y12.3186 
G01 X1.8919 Y12.2574 
G01 X1.9419 Y12.2074 
G01 X2.0031 Y12.1720 
G01 X2.0714 Y12.1537 
G01 X3.0802 Y12.1537 
G01 X3.3539 Y11.8800 
G01 X3.0802 Y11.6063 
G01 X2.0714 Y11.6063 
G00 Z2.5400 
G00 X2.3754 Y10.8205 
G01 Z-0.1500 F254.00 
G01 X2.3571 Y10.8888 F508.00 
G01 X2.3217 Y10.9501 
G01 X2.2717 Y11.0001 
G01 X2.2105 Y11.0355 
G01 X2.1422 Y11.0538 
G01 X2.0714 Y11.0538 
G01 X2.0031 Y11.0355 
G01 X1.9419 Y11.0001 
G01 X1.8919 Y10.9501 
G01 X1.8565 Y10.8888 
G01 X1.8382 Y10.8205 
G01 X1.8382 Y9.6651 
G01 X1.8565 Y9.5968 
G01 X1.8919 Y9.5356 
G01 X1.9419 Y9.4856 
G01 X2.0031 Y9.4502 
G01 X2.0714 Y9.4319 
G01 X2.9122 Y9.4319 
G01 X2.9395 Y9.4303 
G01 X2.9475 Y9.4319 
G01 X2.9557 Y9.4319 
G01 X2.9821 Y9.4390 
G01 X3.0088 Y9.4445 
G01 X3.0161 Y9.4481 
G01 X3.0240 Y9.4502 
G01 X3.0476 Y9.4639 
G01 X3.0721 Y9.4761 
G01 X3.0782 Y9.4815 
G01 X3.0852 Y9.4856 
G01 X3.1045 Y9.5049 
G01 X3.1250 Y9.5230 
G01 X3.1295 Y9.5298 
G01 X3.1352 Y9.5356 
G01 X3.1489 Y9.5593 
G01 X3.1639 Y9.5820 
G01 X3.1665 Y9.5898 
G01 X3.1706 Y9.5968 
G01 X3.1777 Y9.6232 
G01 X3.1863 Y9.6491 
G01 X3.1868 Y9.6573 
G01 X3.1889 Y9.6651 
G01 X3.1889 Y9.6924 
G01 X3.1905 Y9.7197 
G01 X3.1889 Y9.7277 
G01 X3.1889 Y9.7359 
G01 X3.1818 Y9.7623 
G01 X3.1764 Y9.7890 
G01 X3.1727 Y9.7963 
G01 X3.1706 Y9.8042 
G01 X3.1569 Y9.8279 
G01 X2.9177 Y10.3062 
G01 X2.9177 Y10.4027 
G01 X3.0316 Y10.5166 
G01 X3.3514 Y10.5166 
G01 X3.4652 Y10.4027 
G01 X3.4652 Y10.0829 
G01 X3.2477 Y9.8654 
G01 X3.2123 Y9.8042 
G01 X3.1940 Y9.7359 
G01 X3.1940 Y9.6651 
G01 X3.2123 Y9.5968 
G01 X3.2477 Y9.5356 
G01 X3.2977 Y9.4856 
G01 X3.3590 Y9.4502 
G01 X3.4273 Y9.4319 
G01 X3.4980 Y9.4319 
G01 X3.5663 Y9.4502 
G01 X3.6276 Y9.4856 
G01 X3.9487 Y9.8068 
G01 X3.9841 Y9.8680 
G01 X4.0024 Y9.9363 
G01 X4.0024 Y10.5494 
G01 X3.9841 Y10.6177 
G01 X3.9487 Y10.6789 
G01 X3.6276 Y11.0001 
G01 X3.6046 Y11.0133 
G01 X3.5663 Y11.0355 
G01 X3.4988 Y11.0536 
G01 X2.8849 Y11.0538 
G01 X2.8166 Y11.0355 
G01 X2.7554 Y11.0001 
G01 X2.7054 Y10.9501 
G01 X2.4342 Y10.6789 
G01 X2.3988 Y10.6177 
G01 X2.3805 Y10.5494 
G01 X2.3805 Y10.2509 
G01 X2.3789 Y10.2236 
G01 X2.3805 Y10.2156 
G01 X2.3805 Y10.2075 
G01 X2.3876 Y10.1811 
G01 X2.3931 Y10.1543 
G01 X2.3967 Y10.1471 
G01 X2.3988 Y10.1392 
G01 X2.4125 Y10.1155 
G01 X2.4857 Y9.9691 
G01 X2.3754 Y9.9691 
G01 X2.3754 Y10.8205 
G00 Z2.5400 
G00 X2.5929 Y7.3459 
G01 Z-0.1500 F254.00 
G01 X2.6283 Y7.4072 F508.00 
G01 X2.6466 Y7.4755 
G01 X2.6466 Y7.5462 
G01 X2.6283 Y7.6145 
G01 X2.5929 Y7.6758 
G01 X2.5429 Y7.7258 
G01 X2.4816 Y7.7612 
G01 X2.4133 Y7.7795 
G01 X2.3426 Y7.7795 
G01 X2.2743 Y7.7612 
G01 X2.2130 Y7.7258 
G01 X1.8944 Y7.4071 
G01 X1.8565 Y7.3434 
G01 X1.8382 Y7.2751 
G01 X1.8382 Y6.6620 
G01 X1.8565 Y6.5937 
G01 X1.8919 Y6.5324 
G01 X2.1630 Y6.2613 
G01 X2.2130 Y6.2113 
G01 X2.2743 Y6.1759 
G01 X2.3426 Y6.1576 
G01 X3.4980 Y6.1576 
G01 X3.5663 Y6.1759 
G01 X3.6276 Y6.2113 
G01 X3.8987 Y6.4824 
G01 X3.9487 Y6.5324 
G01 X3.9841 Y6.5937 
G01 X4.0024 Y6.6620 
G01 X4.0024 Y7.2751 
G01 X3.9841 Y7.3434 
G01 X3.9495 Y7.4033 
G01 X3.6276 Y7.7258 
G01 X3.6056 Y7.7384 
G01 X3.5663 Y7.7612 
G01 X3.4980 Y7.7795 
G01 X2.8849 Y7.7795 
G01 X2.8166 Y7.7612 
G01 X2.7554 Y7.7258 
G01 X2.7054 Y7.6758 
G01 X2.6700 Y7.6145 
G01 X2.6517 Y7.5462 
G01 X2.6517 Y6.9332 
G01 X2.6700 Y6.8649 
G01 X2.7054 Y6.8036 
G01 X2.7554 Y6.7536 
G01 X2.8166 Y6.7182 
G01 X2.8849 Y6.6999 
G01 X2.9557 Y6.6999 
G01 X3.0240 Y6.7182 
G01 X3.0852 Y6.7536 
G01 X3.1352 Y6.8036 
G01 X3.1706 Y6.8649 
G01 X3.1889 Y6.9332 
G01 X3.1889 Y7.2423 
G01 X3.3514 Y7.2423 
G01 X3.4652 Y7.1284 
G01 X3.4652 Y6.8086 
G01 X3.3514 Y6.6948 
G01 X2.4892 Y6.6948 
G01 X2.3754 Y6.8086 
G01 X2.3754 Y7.1284 
G01 X2.5929 Y7.3459 
G00 Z2.5400 
G00 X3.7692 Y14.8857 
G01 Z-0.1500 F254.00 
G01 X3.8375 Y14.9040 F508.00 
G01 X3.8987 Y14.9394 
G01 X3.9487 Y14.9894 
G01 X3.9841 Y15.0506 
G01 X4.0024 Y15.1189 
G01 X4.0024 Y15.1897 
G01 X3.9841 Y15.2580 
G01 X3.9487 Y15.3192 
G01 X3.8987 Y15.3692 
G01 X3.8375 Y15.4046 
G01 X3.7692 Y15.4229 
G01 X2.3754 Y15.4229 
G01 X2.3754 Y15.7320 
G01 X2.3571 Y15.8003 
G01 X2.3217 Y15.8616 
G01 X2.2717 Y15.9116 
G01 X2.2105 Y15.9469 
G01 X2.1422 Y15.9652 
G01 X2.0714 Y15.9652 
G01 X2.0031 Y15.9469 
G01 X1.9419 Y15.9116 
G01 X1.8919 Y15.8616 
G01 X1.8565 Y15.8003 
G01 X1.8382 Y15.7320 
G01 X1.8382 Y14.5766 
G01 X1.8565 Y14.5083 
G01 X1.8919 Y14.4471 
G01 X1.9419 Y14.3970 
G01 X2.0031 Y14.3617 
G01 X2.0714 Y14.3434 
G01 X2.1422 Y14.3434 
G01 X2.2105 Y14.3617 
G01 X2.2717 Y14.3970 
G01 X2.3217 Y14.4471 
G01 X2.3571 Y14.5083 
G01 X2.3754 Y14.5766 
G01 X2.3754 Y14.8857 
G01 X3.7692 Y14.8857 
G00 Z2.5400 
G00 X16.1483 Y17.2024 
G01 Z-0.1500 F254.00 
G01 X14.6717 Y17.2024 F508.00 
G01 X14.6010 Y17.1731 
G01 X14.5469 Y17.1190 
G01 X14.5176 Y17.0483 
G01 X14.5176 Y15.9717 
G01 X14.5469 Y15.9010 
G01 X14.5476 Y15.3492 
G01 X14.5396 Y15.3090 
G01 X14.5396 Y15.1710 
G01 X14.5665 Y15.0357 
G01 X14.6193 Y14.9082 
G01 X14.6960 Y14.7935 
G01 X14.7935 Y14.6960 
G01 X14.9082 Y14.6193 
G01 X15.0357 Y14.5665 
G01 X15.1710 Y14.5396 
G01 X15.3090 Y14.5396 
G01 X15.4443 Y14.5665 
G01 X15.5718 Y14.6193 
G01 X15.6865 Y14.6960 
G01 X15.7840 Y14.7935 
G01 X15.8607 Y14.9082 
G01 X15.9135 Y15.0357 
G01 X15.9404 Y15.1710 
G01 X15.9404 Y15.3090 
G01 X15.9324 Y15.3492 
G01 X15.9324 Y15.8176 
G01 X16.1483 Y15.8176 
G01 X16.2190 Y15.8469 
G01 X16.2731 Y15.9010 
G01 X16.3024 Y15.9717 
G01 X16.3024 Y17.0483 
G01 X16.2731 Y17.1190 
G01 X16.2190 Y17.1731 
G01 X16.1483 Y17.2024 
G00 Z2.5400 
G00 X25.1225 Y12.2889 
G01 Z-0.1500 F254.00 
G01 X25.1225 Y13.1111 F508.00 
G01 X24.5411 Y13.6925 
G01 X23.7189 Y13.6925 
G01 X23.1375 Y13.1111 
G01 X23.1375 Y12.2889 
G01 X23.4376 Y11.9888 
G01 X23.4376 Y10.8524 
G01 X20.4292 Y10.8524 
G01 X20.3890 Y10.8604 
G01 X20.2510 Y10.8604 
G01 X20.1157 Y10.8335 
G01 X19.9882 Y10.7807 
G01 X19.8735 Y10.7040 
G01 X19.7760 Y10.6065 
G01 X19.6993 Y10.4918 
G01 X19.6465 Y10.3643 
G01 X19.6196 Y10.2290 
G01 X19.6196 Y10.0910 
G01 X19.6465 Y9.9557 
G01 X19.6993 Y9.8282 
G01 X19.7760 Y9.7135 
G01 X19.8735 Y9.6160 
G01 X19.9882 Y9.5393 
G01 X20.1157 Y9.4865 
G01 X20.2510 Y9.4596 
G01 X20.3890 Y9.4596 
G01 X20.4292 Y9.4676 
G01 X23.4376 Y9.4676 
G01 X23.4376 Y6.6368 
G01 X22.6732 Y5.8724 
G01 X22.0517 Y5.8724 
G01 X21.9810 Y5.8431 
G01 X21.9269 Y5.7890 
G01 X21.8976 Y5.7183 
G01 X21.8976 Y5.4397 
G01 X21.8764 Y5.4080 
G01 X21.8242 Y5.2820 
G01 X21.7976 Y5.1482 
G01 X21.7976 Y5.0118 
G01 X21.8242 Y4.8780 
G01 X21.8764 Y4.7520 
G01 X21.8976 Y4.7203 
G01 X21.8976 Y4.4417 
G01 X21.9269 Y4.3710 
G01 X21.9810 Y4.3169 
G01 X22.0517 Y4.2876 
G01 X22.9283 Y4.2876 
G01 X22.9990 Y4.3169 
G01 X23.0531 Y4.3710 
G01 X23.0729 Y4.4187 
G01 X23.1880 Y4.4664 
G01 X23.3014 Y4.5422 
G01 X23.3978 Y4.6386 
G01 X24.5714 Y5.8122 
G01 X24.6678 Y5.9086 
G01 X24.7436 Y6.0220 
G01 X24.7958 Y6.1480 
G01 X24.8224 Y6.2818 
G01 X24.8224 Y11.9888 
G01 X25.1225 Y12.2889 
G00 Z2.5400 
G00 X32.7425 Y19.9089 
G01 Z-0.1500 F254.00 
G01 X32.7425 Y20.7311 F508.00 
G01 X32.1611 Y21.3125 
G01 X31.3389 Y21.3125 
G01 X30.7575 Y20.7311 
G01 X30.7575 Y19.9089 
G01 X31.3389 Y19.3275 
G01 X32.1611 Y19.3275 
G01 X32.7425 Y19.9089 
G00 Z2.5400 
G00 X30.2025 Y19.9089 
G01 Z-0.1500 F254.00 
G01 X30.2025 Y20.7311 F508.00 
G01 X29.9024 Y21.0312 
G01 X29.9024 Y27.2476 
G01 X32.8200 Y27.2476 
G01 X32.8269 Y27.2310 
G01 X32.8810 Y27.1769 
G01 X32.9517 Y27.1476 
G01 X33.7884 Y27.1476 
G01 X33.7522 Y27.1114 
G01 X33.6764 Y26.9980 
G01 X33.6242 Y26.8720 
G01 X33.5976 Y26.7382 
G01 X33.5976 Y20.6068 
G01 X31.4632 Y18.4724 
G01 X24.8224 Y18.4724 
G01 X24.8224 Y19.6088 
G01 X25.1225 Y19.9089 
G01 X25.1225 Y20.7311 
G01 X24.5411 Y21.3125 
G01 X23.7189 Y21.3125 
G01 X23.1375 Y20.7311 
G01 X23.1375 Y20.3067 
G01 X21.1486 Y18.3178 
G01 X21.0522 Y18.2214 
G01 X21.0124 Y18.1618 
G01 X21.0124 Y21.6582 
G01 X20.9858 Y21.7920 
G01 X20.9336 Y21.9180 
G01 X20.8578 Y22.0314 
G01 X20.7614 Y22.1278 
G01 X15.7416 Y27.1476 
G01 X16.5783 Y27.1476 
G01 X16.6490 Y27.1769 
G01 X16.7031 Y27.2310 
G01 X16.7100 Y27.2476 
G01 X18.9408 Y27.2476 
G01 X18.9810 Y27.2396 
G01 X19.1190 Y27.2396 
G01 X19.1592 Y27.2476 
G01 X20.1200 Y27.2476 
G01 X20.1269 Y27.2310 
G01 X20.1810 Y27.1769 
G01 X20.2517 Y27.1476 
G01 X21.1283 Y27.1476 
G01 X21.1990 Y27.1769 
G01 X21.2531 Y27.2310 
G01 X21.2824 Y27.3017 
G01 X21.2824 Y27.5803 
G01 X21.3036 Y27.6120 
G01 X21.3558 Y27.7380 
G01 X21.3824 Y27.8718 
G01 X21.3824 Y28.0082 
G01 X21.3558 Y28.1420 
G01 X21.3036 Y28.2680 
G01 X21.2824 Y28.2997 
G01 X21.2824 Y28.5783 
G01 X21.2531 Y28.6490 
G01 X21.1990 Y28.7031 
G01 X21.1283 Y28.7324 
G01 X20.2517 Y28.7324 
G01 X20.1810 Y28.7031 
G01 X20.1269 Y28.6490 
G01 X20.1200 Y28.6324 
G01 X19.1592 Y28.6324 
G01 X19.1190 Y28.6404 
G01 X18.9810 Y28.6404 
G01 X18.9408 Y28.6324 
G01 X16.7100 Y28.6324 
G01 X16.7031 Y28.6490 
G01 X16.6490 Y28.7031 
G01 X16.5783 Y28.7324 
G01 X15.7017 Y28.7324 
G01 X15.6310 Y28.7031 
G01 X15.5769 Y28.6490 
G01 X15.5476 Y28.5783 
G01 X15.5476 Y28.2997 
G01 X15.5264 Y28.2680 
G01 X15.4742 Y28.1420 
G01 X15.4476 Y28.0082 
G01 X15.4476 Y27.8718 
G01 X15.4742 Y27.7380 
G01 X15.5264 Y27.6120 
G01 X15.5476 Y27.5803 
G01 X15.5476 Y27.3416 
G01 X15.0299 Y27.8593 
G01 X15.0324 Y27.8718 
G01 X15.0324 Y28.0082 
G01 X15.0058 Y28.1420 
G01 X14.9536 Y28.2680 
G01 X14.9324 Y28.2997 
G01 X14.9324 Y28.5783 
G01 X14.9031 Y28.6490 
G01 X14.8490 Y28.7031 
G01 X14.7783 Y28.7324 
G01 X13.9017 Y28.7324 
G01 X13.8310 Y28.7031 
G01 X13.7769 Y28.6490 
G01 X13.7571 Y28.6013 
G01 X13.6420 Y28.5536 
G01 X13.5286 Y28.4778 
G01 X13.4322 Y28.3814 
G01 X13.3924 Y28.3218 
G01 X13.3924 Y28.9232 
G01 X14.2568 Y29.7876 
G01 X22.1676 Y29.7876 
G01 X22.1676 Y28.7324 
G01 X22.0517 Y28.7324 
G01 X21.9810 Y28.7031 
G01 X21.9269 Y28.6490 
G01 X21.8976 Y28.5783 
G01 X21.8976 Y28.2997 
G01 X21.8764 Y28.2680 
G01 X21.8242 Y28.1420 
G01 X21.7976 Y28.0082 
G01 X21.7976 Y27.8718 
G01 X21.8242 Y27.7380 
G01 X21.8764 Y27.6120 
G01 X21.8976 Y27.5803 
G01 X21.8976 Y27.3017 
G01 X21.9269 Y27.2310 
G01 X21.9810 Y27.1769 
G01 X22.0517 Y27.1476 
G01 X22.9283 Y27.1476 
G01 X22.9990 Y27.1769 
G01 X23.0531 Y27.2310 
G01 X23.0600 Y27.2476 
G01 X25.9776 Y27.2476 
G01 X25.9776 Y21.0312 
G01 X25.6775 Y20.7311 
G01 X25.6775 Y19.9089 
G01 X26.2589 Y19.3275 
G01 X27.0811 Y19.3275 
G01 X27.6625 Y19.9089 
G01 X27.6625 Y20.7311 
G01 X27.3624 Y21.0312 
G01 X27.3624 Y27.1476 
G01 X27.4783 Y27.1476 
G01 X27.5490 Y27.1769 
G01 X27.6031 Y27.2310 
G01 X27.6324 Y27.3017 
G01 X27.6324 Y27.5803 
G01 X27.6536 Y27.6120 
G01 X27.7058 Y27.7380 
G01 X27.7324 Y27.8718 
G01 X27.7324 Y28.0082 
G01 X27.7058 Y28.1420 
G01 X27.6536 Y28.2680 
G01 X27.6324 Y28.2997 
G01 X27.6324 Y28.5783 
G01 X27.6031 Y28.6490 
G01 X27.5490 Y28.7031 
G01 X27.4783 Y28.7324 
G01 X26.6017 Y28.7324 
G01 X26.5310 Y28.7031 
G01 X26.4769 Y28.6490 
G01 X26.4700 Y28.6324 
G01 X23.5524 Y28.6324 
G01 X23.5524 Y30.5482 
G01 X23.5258 Y30.6820 
G01 X23.4736 Y30.8080 
G01 X23.3978 Y30.9214 
G01 X23.3014 Y31.0178 
G01 X23.1880 Y31.0936 
G01 X23.0620 Y31.1458 
G01 X22.9282 Y31.1724 
G01 X13.9018 Y31.1724 
G01 X13.7680 Y31.1458 
G01 X13.6420 Y31.0936 
G01 X13.5286 Y31.0178 
G01 X13.4322 Y30.9214 
G01 X12.1622 Y29.6514 
G01 X12.0864 Y29.5380 
G01 X12.0342 Y29.4120 
G01 X12.0076 Y29.2782 
G01 X12.0076 Y28.2268 
G01 X7.4936 Y23.7128 
G01 X6.8756 Y23.7128 
G01 X6.7108 Y23.6800 
G01 X6.5556 Y23.6157 
G01 X6.4160 Y23.5224 
G01 X6.2972 Y23.4036 
G01 X6.2039 Y23.2640 
G01 X6.1396 Y23.1088 
G01 X6.1068 Y22.9440 
G01 X6.1068 Y22.7760 
G01 X6.1396 Y22.6112 
G01 X6.2039 Y22.4560 
G01 X6.2972 Y22.3164 
G01 X6.4160 Y22.1976 
G01 X6.5556 Y22.1043 
G01 X6.7108 Y22.0400 
G01 X6.8756 Y22.0072 
G01 X8.3644 Y22.0072 
G01 X8.5292 Y22.0400 
G01 X8.6844 Y22.1043 
G01 X8.8240 Y22.1976 
G01 X8.9428 Y22.3164 
G01 X9.0361 Y22.4560 
G01 X9.1004 Y22.6112 
G01 X9.1332 Y22.7760 
G01 X9.1332 Y22.9440 
G01 X9.1004 Y23.1088 
G01 X9.0361 Y23.2640 
G01 X9.0229 Y23.2837 
G01 X13.1414 Y27.4022 
G01 X13.2378 Y27.4986 
G01 X13.3136 Y27.6120 
G01 X13.3350 Y27.6637 
G01 X13.3564 Y27.6120 
G01 X13.4322 Y27.4986 
G01 X13.5286 Y27.4022 
G01 X19.6276 Y21.3032 
G01 X19.6276 Y18.0668 
G01 X18.5024 Y16.9416 
G01 X18.5024 Y17.9983 
G01 X18.4731 Y18.0690 
G01 X18.4724 Y18.9408 
G01 X18.4804 Y18.9810 
G01 X18.4804 Y19.1190 
G01 X18.4535 Y19.2543 
G01 X18.4007 Y19.3818 
G01 X18.3240 Y19.4965 
G01 X18.2265 Y19.5940 
G01 X18.1118 Y19.6707 
G01 X17.9843 Y19.7235 
G01 X17.8490 Y19.7504 
G01 X17.7110 Y19.7504 
G01 X17.5757 Y19.7235 
G01 X17.4482 Y19.6707 
G01 X17.3335 Y19.5940 
G01 X17.2360 Y19.4965 
G01 X17.1593 Y19.3818 
G01 X17.1065 Y19.2543 
G01 X17.0796 Y19.1190 
G01 X17.0796 Y18.9810 
G01 X17.0876 Y18.9408 
G01 X17.0876 Y18.1524 
G01 X16.8717 Y18.1524 
G01 X16.8010 Y18.1231 
G01 X16.7469 Y18.0690 
G01 X16.7176 Y17.9983 
G01 X16.7176 Y16.9217 
G01 X16.7469 Y16.8510 
G01 X16.8010 Y16.7969 
G01 X16.8717 Y16.7676 
G01 X17.5769 Y16.7676 
G01 X17.6118 Y16.7643 
G01 X17.6449 Y16.7676 
G01 X18.3284 Y16.7676 
G01 X17.8132 Y16.2524 
G01 X17.6449 Y16.2524 
G01 X17.6118 Y16.2557 
G01 X17.5769 Y16.2524 
G01 X16.8717 Y16.2524 
G01 X16.8010 Y16.2231 
G01 X16.7469 Y16.1690 
G01 X16.7176 Y16.0983 
G01 X16.7176 Y15.0217 
G01 X16.7469 Y14.9510 
G01 X16.8010 Y14.8969 
G01 X16.8717 Y14.8676 
G01 X17.1938 Y14.8676 
G01 X17.2005 Y14.8549 
G01 X17.2227 Y14.8278 
G01 X17.2422 Y14.7986 
G01 X17.2657 Y14.7751 
G01 X17.2868 Y14.7493 
G01 X17.3138 Y14.7270 
G01 X17.3386 Y14.7022 
G01 X18.4832 Y13.5576 
G01 X18.5060 Y13.5235 
G01 X18.6035 Y13.4260 
G01 X18.7182 Y13.3493 
G01 X18.8457 Y13.2965 
G01 X18.9810 Y13.2696 
G01 X19.1190 Y13.2696 
G01 X19.2543 Y13.2965 
G01 X19.3818 Y13.3493 
G01 X19.4965 Y13.4260 
G01 X19.5940 Y13.5235 
G01 X19.6707 Y13.6382 
G01 X19.7235 Y13.7657 
G01 X19.7504 Y13.9010 
G01 X19.7504 Y14.0390 
G01 X19.7235 Y14.1743 
G01 X19.6707 Y14.3018 
G01 X19.5940 Y14.4165 
G01 X19.4965 Y14.5140 
G01 X19.4624 Y14.5368 
G01 X18.7592 Y15.2400 
G01 X20.8578 Y17.3386 
G01 X20.8976 Y17.3982 
G01 X20.8976 Y14.2568 
G01 X18.4724 Y11.8316 
G01 X18.4724 Y12.7682 
G01 X18.4458 Y12.9020 
G01 X18.3936 Y13.0280 
G01 X18.3178 Y13.1414 
G01 X18.2214 Y13.2378 
G01 X18.1080 Y13.3136 
G01 X17.9820 Y13.3658 
G01 X17.8482 Y13.3924 
G01 X8.7791 Y13.3924 
G01 X8.6844 Y13.4557 
G01 X8.5292 Y13.5200 
G01 X8.3644 Y13.5528 
G01 X6.8756 Y13.5528 
G01 X6.7108 Y13.5200 
G01 X6.5556 Y13.4557 
G01 X6.4160 Y13.3624 
G01 X6.2972 Y13.2436 
G01 X6.2039 Y13.1040 
G01 X6.1396 Y12.9488 
G01 X6.1068 Y12.7840 
G01 X6.1068 Y12.6160 
G01 X6.1396 Y12.4512 
G01 X6.2039 Y12.2960 
G01 X6.2972 Y12.1564 
G01 X6.4160 Y12.0376 
G01 X6.5556 Y11.9443 
G01 X6.7108 Y11.8800 
G01 X6.8756 Y11.8472 
G01 X8.3644 Y11.8472 
G01 X8.5292 Y11.8800 
G01 X8.6844 Y11.9443 
G01 X8.7791 Y12.0076 
G01 X17.0876 Y12.0076 
G01 X17.0876 Y5.8724 
G01 X16.9717 Y5.8724 
G01 X16.9010 Y5.8431 
G01 X16.8469 Y5.7890 
G01 X16.8176 Y5.7183 
G01 X16.8176 Y5.4397 
G01 X16.7964 Y5.4080 
G01 X16.7442 Y5.2820 
G01 X16.7176 Y5.1482 
G01 X16.7176 Y5.0118 
G01 X16.7442 Y4.8780 
G01 X16.7964 Y4.7520 
G01 X16.8176 Y4.7203 
G01 X16.8176 Y4.4417 
G01 X16.8469 Y4.3710 
G01 X16.9010 Y4.3169 
G01 X16.9717 Y4.2876 
G01 X17.8483 Y4.2876 
G01 X17.9190 Y4.3169 
G01 X17.9731 Y4.3710 
G01 X17.9800 Y4.3876 
G01 X19.6276 Y4.3876 
G01 X19.6276 Y2.4718 
G01 X19.6542 Y2.3380 
G01 X19.7064 Y2.2120 
G01 X19.7822 Y2.0986 
G01 X19.8786 Y2.0022 
G01 X19.9920 Y1.9264 
G01 X20.1180 Y1.8742 
G01 X20.2518 Y1.8476 
G01 X26.7382 Y1.8476 
G01 X26.8720 Y1.8742 
G01 X26.9980 Y1.9264 
G01 X27.1114 Y2.0022 
G01 X27.2078 Y2.0986 
G01 X29.6514 Y4.5422 
G01 X29.7478 Y4.6386 
G01 X29.8236 Y4.7520 
G01 X29.8758 Y4.8780 
G01 X29.9024 Y5.0118 
G01 X29.9024 Y5.1482 
G01 X29.8758 Y5.2820 
G01 X29.8236 Y5.4080 
G01 X29.7478 Y5.5214 
G01 X29.6514 Y5.6178 
G01 X29.5380 Y5.6936 
G01 X29.4229 Y5.7413 
G01 X29.4031 Y5.7890 
G01 X29.3490 Y5.8431 
G01 X29.2783 Y5.8724 
G01 X28.4017 Y5.8724 
G01 X28.3310 Y5.8431 
G01 X28.2769 Y5.7890 
G01 X28.2476 Y5.7183 
G01 X28.2476 Y5.4397 
G01 X28.2264 Y5.4080 
G01 X28.1742 Y5.2820 
G01 X28.1476 Y5.1482 
G01 X28.1476 Y5.0118 
G01 X28.1501 Y4.9993 
G01 X27.6324 Y4.4816 
G01 X27.6324 Y4.7203 
G01 X27.6536 Y4.7520 
G01 X27.7058 Y4.8780 
G01 X27.7324 Y5.0118 
G01 X27.7324 Y5.1482 
G01 X27.7058 Y5.2820 
G01 X27.6536 Y5.4080 
G01 X27.6324 Y5.4397 
G01 X27.6324 Y5.7183 
G01 X27.6031 Y5.7890 
G01 X27.5490 Y5.8431 
G01 X27.4783 Y5.8724 
G01 X27.3624 Y5.8724 
G01 X27.3624 Y9.7638 
G01 X27.3960 Y9.7135 
G01 X27.4935 Y9.6160 
G01 X27.5276 Y9.5932 
G01 X32.4822 Y4.6386 
G01 X32.5786 Y4.5422 
G01 X32.6920 Y4.4664 
G01 X32.8071 Y4.4187 
G01 X32.8269 Y4.3710 
G01 X32.8810 Y4.3169 
G01 X32.9517 Y4.2876 
G01 X33.8283 Y4.2876 
G01 X33.8990 Y4.3169 
G01 X33.9531 Y4.3710 
G01 X33.9824 Y4.4417 
G01 X33.9824 Y4.7203 
G01 X34.0036 Y4.7520 
G01 X34.0558 Y4.8780 
G01 X34.0824 Y5.0118 
G01 X34.0824 Y5.1482 
G01 X34.0558 Y5.2820 
G01 X34.0036 Y5.4080 
G01 X33.9824 Y5.4397 
G01 X33.9824 Y5.6784 
G01 X34.5001 Y5.1607 
G01 X34.4976 Y5.1482 
G01 X34.4976 Y5.0118 
G01 X34.5242 Y4.8780 
G01 X34.5764 Y4.7520 
G01 X34.5976 Y4.7203 
G01 X34.5976 Y4.4417 
G01 X34.6269 Y4.3710 
G01 X34.6810 Y4.3169 
G01 X34.7517 Y4.2876 
G01 X35.6283 Y4.2876 
G01 X35.6990 Y4.3169 
G01 X35.7531 Y4.3710 
G01 X35.7729 Y4.4187 
G01 X35.8880 Y4.4664 
G01 X36.0014 Y4.5422 
G01 X36.0978 Y4.6386 
G01 X36.1736 Y4.7520 
G01 X36.2258 Y4.8780 
G01 X36.2524 Y5.0118 
G01 X36.2524 Y5.1482 
G01 X36.2258 Y5.2820 
G01 X36.1736 Y5.4080 
G01 X36.0978 Y5.5214 
G01 X36.0014 Y5.6178 
G01 X32.4424 Y9.1768 
G01 X32.4424 Y11.9888 
G01 X32.7425 Y12.2889 
G01 X32.7425 Y13.1111 
G01 X32.1611 Y13.6925 
G01 X31.3389 Y13.6925 
G01 X30.7575 Y13.1111 
G01 X30.7575 Y12.2889 
G01 X31.0576 Y11.9888 
G01 X31.0576 Y8.8218 
G01 X31.0842 Y8.6880 
G01 X31.1364 Y8.5620 
G01 X31.2122 Y8.4486 
G01 X31.3086 Y8.3522 
G01 X33.7884 Y5.8724 
G01 X33.2068 Y5.8724 
G01 X28.5068 Y10.5724 
G01 X28.4840 Y10.6065 
G01 X28.3865 Y10.7040 
G01 X28.2718 Y10.7807 
G01 X28.1443 Y10.8335 
G01 X28.0090 Y10.8604 
G01 X27.8710 Y10.8604 
G01 X27.7357 Y10.8335 
G01 X27.6082 Y10.7807 
G01 X27.4935 Y10.7040 
G01 X27.3960 Y10.6065 
G01 X27.3624 Y10.5562 
G01 X27.3624 Y11.9888 
G01 X27.3812 Y12.0076 
G01 X28.4988 Y12.0076 
G01 X28.7989 Y11.7075 
G01 X29.6211 Y11.7075 
G01 X30.2025 Y12.2889 
G01 X30.2025 Y13.1111 
G01 X29.6211 Y13.6925 
G01 X28.7989 Y13.6925 
G01 X28.4988 Y13.3924 
G01 X27.3812 Y13.3924 
G01 X27.0811 Y13.6925 
G01 X26.2589 Y13.6925 
G01 X25.6775 Y13.1111 
G01 X25.6775 Y12.2889 
G01 X25.9776 Y11.9888 
G01 X25.9776 Y5.0118 
G01 X26.0042 Y4.8780 
G01 X26.0564 Y4.7520 
G01 X26.1322 Y4.6386 
G01 X26.2286 Y4.5422 
G01 X26.3420 Y4.4664 
G01 X26.4571 Y4.4187 
G01 X26.4769 Y4.3710 
G01 X26.5310 Y4.3169 
G01 X26.6017 Y4.2876 
G01 X27.4384 Y4.2876 
G01 X26.3832 Y3.2324 
G01 X21.0124 Y3.2324 
G01 X21.0124 Y4.2876 
G01 X21.1283 Y4.2876 
G01 X21.1990 Y4.3169 
G01 X21.2531 Y4.3710 
G01 X21.2824 Y4.4417 
G01 X21.2824 Y4.7203 
G01 X21.3036 Y4.7520 
G01 X21.3558 Y4.8780 
G01 X21.3824 Y5.0118 
G01 X21.3824 Y5.1482 
G01 X21.3558 Y5.2820 
G01 X21.3036 Y5.4080 
G01 X21.2824 Y5.4397 
G01 X21.2824 Y5.7183 
G01 X21.2531 Y5.7890 
G01 X21.1990 Y5.8431 
G01 X21.1283 Y5.8724 
G01 X20.2517 Y5.8724 
G01 X20.1810 Y5.8431 
G01 X20.1269 Y5.7890 
G01 X20.1200 Y5.7724 
G01 X18.4724 Y5.7724 
G01 X18.4724 Y9.8732 
G01 X22.1278 Y13.5286 
G01 X22.2036 Y13.6420 
G01 X22.2558 Y13.7680 
G01 X22.2824 Y13.9018 
G01 X22.2824 Y17.4932 
G01 X23.4376 Y18.6484 
G01 X23.4376 Y17.7118 
G01 X23.4642 Y17.5780 
G01 X23.5164 Y17.4520 
G01 X23.5922 Y17.3386 
G01 X23.6886 Y17.2422 
G01 X23.8020 Y17.1664 
G01 X23.9280 Y17.1142 
G01 X24.0618 Y17.0876 
G01 X31.8182 Y17.0876 
G01 X31.9520 Y17.1142 
G01 X32.0780 Y17.1664 
G01 X32.1914 Y17.2422 
G01 X32.2878 Y17.3386 
G01 X34.8278 Y19.8786 
G01 X34.9036 Y19.9920 
G01 X34.9558 Y20.1180 
G01 X34.9824 Y20.2518 
G01 X34.9824 Y26.3832 
G01 X36.0014 Y27.4022 
G01 X36.0978 Y27.4986 
G01 X36.1736 Y27.6120 
G01 X36.2258 Y27.7380 
G01 X36.2524 Y27.8718 
G01 X36.2524 Y28.0082 
G01 X36.2258 Y28.1420 
G01 X36.1736 Y28.2680 
G01 X36.0978 Y28.3814 
G01 X36.0014 Y28.4778 
G01 X35.8880 Y28.5536 
G01 X35.7729 Y28.6013 
G01 X35.7531 Y28.6490 
G01 X35.6990 Y28.7031 
G01 X35.6283 Y28.7324 
G01 X34.7517 Y28.7324 
G01 X34.6810 Y28.7031 
G01 X34.6269 Y28.6490 
G01 X34.5976 Y28.5783 
G01 X34.5976 Y28.2997 
G01 X34.5764 Y28.2680 
G01 X34.5242 Y28.1420 
G01 X34.4976 Y28.0082 
G01 X34.4976 Y27.8718 
G01 X34.5001 Y27.8593 
G01 X33.9824 Y27.3416 
G01 X33.9824 Y27.5803 
G01 X34.0036 Y27.6120 
G01 X34.0558 Y27.7380 
G01 X34.0824 Y27.8718 
G01 X34.0824 Y28.0082 
G01 X34.0558 Y28.1420 
G01 X34.0036 Y28.2680 
G01 X33.9824 Y28.2997 
G01 X33.9824 Y28.5783 
G01 X33.9531 Y28.6490 
G01 X33.8990 Y28.7031 
G01 X33.8283 Y28.7324 
G01 X32.9517 Y28.7324 
G01 X32.8810 Y28.7031 
G01 X32.8269 Y28.6490 
G01 X32.8200 Y28.6324 
G01 X29.4100 Y28.6324 
G01 X29.4031 Y28.6490 
G01 X29.3490 Y28.7031 
G01 X29.2783 Y28.7324 
G01 X28.4017 Y28.7324 
G01 X28.3310 Y28.7031 
G01 X28.2769 Y28.6490 
G01 X28.2476 Y28.5783 
G01 X28.2476 Y28.2997 
G01 X28.2264 Y28.2680 
G01 X28.1742 Y28.1420 
G01 X28.1476 Y28.0082 
G01 X28.1476 Y27.8718 
G01 X28.1742 Y27.7380 
G01 X28.2264 Y27.6120 
G01 X28.2476 Y27.5803 
G01 X28.2476 Y27.3017 
G01 X28.2769 Y27.2310 
G01 X28.3310 Y27.1769 
G01 X28.4017 Y27.1476 
G01 X28.5176 Y27.1476 
G01 X28.5176 Y21.0312 
G01 X28.2175 Y20.7311 
G01 X28.2175 Y19.9089 
G01 X28.7989 Y19.3275 
G01 X29.6211 Y19.3275 
G01 X30.2025 Y19.9089 
G00 Z2.5400 
G00 X6.8756 Y14.3872 
G01 Z-0.1500 F254.00 
G01 X8.3644 Y14.3872 F508.00 
G01 X8.5292 Y14.4200 
G01 X8.6844 Y14.4843 
G01 X8.8240 Y14.5776 
G01 X8.9428 Y14.6964 
G01 X9.0361 Y14.8360 
G01 X9.1004 Y14.9912 
G01 X9.1332 Y15.1560 
G01 X9.1332 Y15.3240 
G01 X9.1004 Y15.4888 
G01 X9.0361 Y15.6440 
G01 X8.9428 Y15.7836 
G01 X8.8240 Y15.9024 
G01 X8.6844 Y15.9957 
G01 X8.5292 Y16.0600 
G01 X8.3644 Y16.0928 
G01 X6.8756 Y16.0928 
G01 X6.7108 Y16.0600 
G01 X6.5556 Y15.9957 
G01 X6.4160 Y15.9024 
G01 X6.2972 Y15.7836 
G01 X6.2039 Y15.6440 
G01 X6.1396 Y15.4888 
G01 X6.1068 Y15.3240 
G01 X6.1068 Y15.1560 
G01 X6.1396 Y14.9912 
G01 X6.2039 Y14.8360 
G01 X6.2972 Y14.6964 
G01 X6.4160 Y14.5776 
G01 X6.5556 Y14.4843 
G01 X6.7108 Y14.4200 
G01 X6.8756 Y14.3872 
G00 Z2.5400 
G00 X6.8756 Y16.9272 
G01 Z-0.1500 F254.00 
G01 X8.3644 Y16.9272 F508.00 
G01 X8.5292 Y16.9600 
G01 X8.6844 Y17.0243 
G01 X8.8240 Y17.1176 
G01 X8.9428 Y17.2364 
G01 X9.0361 Y17.3760 
G01 X9.1004 Y17.5312 
G01 X9.1332 Y17.6960 
G01 X9.1332 Y17.8640 
G01 X9.1004 Y18.0288 
G01 X9.0361 Y18.1839 
G01 X8.9428 Y18.3236 
G01 X8.8240 Y18.4424 
G01 X8.6844 Y18.5357 
G01 X8.5292 Y18.6000 
G01 X8.3644 Y18.6328 
G01 X6.8756 Y18.6328 
G01 X6.7108 Y18.6000 
G01 X6.5556 Y18.5357 
G01 X6.4160 Y18.4424 
G01 X6.2972 Y18.3236 
G01 X6.2039 Y18.1839 
G01 X6.1396 Y18.0288 
G01 X6.1068 Y17.8640 
G01 X6.1068 Y17.6960 
G01 X6.1396 Y17.5312 
G01 X6.2039 Y17.3760 
G01 X6.2972 Y17.2364 
G01 X6.4160 Y17.1176 
G01 X6.5556 Y17.0243 
G01 X6.7108 Y16.9600 
G01 X6.8756 Y16.9272 
G00 Z2.5400 
G00 X6.8756 Y19.4672 
G01 Z-0.1500 F254.00 
G01 X8.3644 Y19.4672 F508.00 
G01 X8.5292 Y19.5000 
G01 X8.6844 Y19.5643 
G01 X8.8240 Y19.6576 
G01 X8.9428 Y19.7764 
G01 X9.0361 Y19.9160 
G01 X9.1004 Y20.0712 
G01 X9.1332 Y20.2360 
G01 X9.1332 Y20.4040 
G01 X9.1004 Y20.5688 
G01 X9.0361 Y20.7240 
G01 X8.9428 Y20.8636 
G01 X8.8240 Y20.9824 
G01 X8.6844 Y21.0757 
G01 X8.5292 Y21.1400 
G01 X8.3644 Y21.1728 
G01 X6.8756 Y21.1728 
G01 X6.7108 Y21.1400 
G01 X6.5556 Y21.0757 
G01 X6.4160 Y20.9824 
G01 X6.2972 Y20.8636 
G01 X6.2039 Y20.7240 
G01 X6.1396 Y20.5688 
G01 X6.1068 Y20.4040 
G01 X6.1068 Y20.2360 
G01 X6.1396 Y20.0712 
G01 X6.2039 Y19.9160 
G01 X6.2972 Y19.7764 
G01 X6.4160 Y19.6576 
G01 X6.5556 Y19.5643 
G01 X6.7108 Y19.5000 
G01 X6.8756 Y19.4672 
G00 Z2.5400 
G00 X16.2024 Y4.4417 
G01 Z-0.1500 F254.00 
G01 X16.2024 Y4.7203 F508.00 
G01 X16.2236 Y4.7520 
G01 X16.2758 Y4.8780 
G01 X16.3024 Y5.0118 
G01 X16.3024 Y5.1482 
G01 X16.2758 Y5.2820 
G01 X16.2236 Y5.4080 
G01 X16.2024 Y5.4397 
G01 X16.2024 Y5.7183 
G01 X16.1731 Y5.7890 
G01 X16.1190 Y5.8431 
G01 X16.0483 Y5.8724 
G01 X15.1717 Y5.8724 
G01 X15.1010 Y5.8431 
G01 X15.0469 Y5.7890 
G01 X15.0400 Y5.7724 
G01 X11.9800 Y5.7724 
G01 X11.9731 Y5.7890 
G01 X11.9190 Y5.8431 
G01 X11.8483 Y5.8724 
G01 X10.5717 Y5.8724 
G01 X10.5010 Y5.8431 
G01 X10.4469 Y5.7890 
G01 X10.4176 Y5.7183 
G01 X10.4176 Y4.4417 
G01 X10.4469 Y4.3710 
G01 X10.5010 Y4.3169 
G01 X10.5717 Y4.2876 
G01 X11.8483 Y4.2876 
G01 X11.9190 Y4.3169 
G01 X11.9731 Y4.3710 
G01 X11.9800 Y4.3876 
G01 X15.0400 Y4.3876 
G01 X15.0469 Y4.3710 
G01 X15.1010 Y4.3169 
G01 X15.1717 Y4.2876 
G01 X16.0483 Y4.2876 
G01 X16.1190 Y4.3169 
G01 X16.1731 Y4.3710 
G01 X16.2024 Y4.4417 
G00 Z2.5400 
G00 X9.7483 Y5.8724 
G01 Z-0.1500 F254.00 
G01 X9.0768 Y5.8724 F508.00 
G01 X8.3124 Y6.6368 
G01 X8.3124 Y9.3072 
G01 X8.3644 Y9.3072 
G01 X8.5292 Y9.3400 
G01 X8.6844 Y9.4043 
G01 X8.8240 Y9.4976 
G01 X8.9428 Y9.6164 
G01 X9.0361 Y9.7560 
G01 X9.1004 Y9.9112 
G01 X9.1332 Y10.0760 
G01 X9.1332 Y10.2440 
G01 X9.1004 Y10.4088 
G01 X9.0361 Y10.5640 
G01 X8.9428 Y10.7036 
G01 X8.8240 Y10.8224 
G01 X8.6844 Y10.9157 
G01 X8.5292 Y10.9800 
G01 X8.3644 Y11.0128 
G01 X6.8756 Y11.0128 
G01 X6.7108 Y10.9800 
G01 X6.5556 Y10.9157 
G01 X6.4160 Y10.8224 
G01 X6.2972 Y10.7036 
G01 X6.2039 Y10.5640 
G01 X6.1396 Y10.4088 
G01 X6.1068 Y10.2440 
G01 X6.1068 Y10.0760 
G01 X6.1396 Y9.9112 
G01 X6.2039 Y9.7560 
G01 X6.2972 Y9.6164 
G01 X6.4160 Y9.4976 
G01 X6.5556 Y9.4043 
G01 X6.7108 Y9.3400 
G01 X6.8756 Y9.3072 
G01 X6.9276 Y9.3072 
G01 X6.9276 Y6.2818 
G01 X6.9542 Y6.1480 
G01 X7.0064 Y6.0220 
G01 X7.0822 Y5.9086 
G01 X7.1786 Y5.8122 
G01 X8.3176 Y4.6732 
G01 X8.3176 Y4.4417 
G01 X8.3469 Y4.3710 
G01 X8.4010 Y4.3169 
G01 X8.4717 Y4.2876 
G01 X9.7483 Y4.2876 
G01 X9.8190 Y4.3169 
G01 X9.8731 Y4.3710 
G01 X9.9024 Y4.4417 
G01 X9.9024 Y5.7183 
G01 X9.8731 Y5.7890 
G01 X9.8190 Y5.8431 
G01 X9.7483 Y5.8724 
G00 Z2.5400 
G00 X3.0447 Y10.3362 
G01 Z-0.1500 F254.00 
G01 X3.0447 Y10.3501 F508.00 
G01 X3.0842 Y10.3896 
G01 X3.2988 Y10.3896 
G01 X3.3382 Y10.3501 
G01 X3.3382 Y10.1355 
G01 X3.2095 Y10.0068 
G01 X3.0447 Y10.3362 
G00 Z2.5400 
G00 X2.4754 Y10.9379 
G01 Z-0.1500 F254.00 
G01 X2.4730 Y10.9421 F508.00 
G01 X2.5177 Y10.9421 
G01 X2.4835 Y10.9078 
G01 X2.4754 Y10.9379 
G00 Z2.5400 
G00 X2.5418 Y6.8218 
G01 Z-0.1500 F254.00 
G01 X2.5024 Y6.8612 F508.00 
G01 X2.5024 Y7.0758 
G01 X2.5247 Y7.0981 
G01 X2.5247 Y6.9164 
G01 X2.5501 Y6.8218 
G01 X2.5418 Y6.8218 
G00 Z2.5400 
G00 X3.3382 Y7.0758 
G01 Z-0.1500 F254.00 
G01 X3.3382 Y6.8612 F508.00 
G01 X3.2988 Y6.8218 
G01 X3.2905 Y6.8218 
G01 X3.3159 Y6.9164 
G01 X3.3159 Y7.0981 
G01 X3.3382 Y7.0758 
G00 Z2.5400 
G00 X2.5024 Y18.2819 
G01 Z-0.1500 F254.00 
G01 X2.5024 Y18.5359 F508.00 
G01 X2.5418 Y18.5754 
G01 X2.7564 Y18.5754 
G01 X2.7959 Y18.5359 
G01 X2.7959 Y18.2819 
G01 X2.5024 Y18.2819 
G00 Z2.5400 
G00 X3.3271 Y25.0957 
G01 Z-0.1500 F254.00 
G01 X3.3382 Y25.0846 F508.00 
G01 X3.3382 Y24.8305 
G01 X3.3159 Y24.8305 
G01 X3.3159 Y25.0846 
G01 X3.3271 Y25.0957 
G00 Z2.5400 
G00 X2.5024 Y24.8305 
G01 Z-0.1500 F254.00 
G01 X2.5024 Y25.0846 F508.00 
G01 X2.5136 Y25.0957 
G01 X2.5247 Y25.0846 
G01 X2.5247 Y24.8305 
G01 X2.5024 Y24.8305 
G00 Z2.5400 
G00 X2.0547 Y24.0393 
G01 Z-0.1500 F254.00 
G01 X3.7859 Y24.0393 F508.00 
G01 X3.8865 Y24.0663 
G01 X3.9767 Y24.1184 
G01 X4.0504 Y24.1920 
G01 X4.1024 Y24.2822 
G01 X4.1294 Y24.3828 
G01 X4.1294 Y25.3005 
G01 X4.1024 Y25.4011 
G01 X4.0504 Y25.4913 
G01 X3.9767 Y25.5650 
G01 X3.7792 Y25.7625 
G01 X3.7082 Y25.8334 
G01 X3.7055 Y25.8361 
G01 X3.6153 Y25.8882 
G01 X3.5147 Y25.9152 
G01 X3.1394 Y25.9152 
G01 X3.0388 Y25.8882 
G01 X2.9486 Y25.8361 
G01 X2.9203 Y25.8079 
G01 X2.8920 Y25.8361 
G01 X2.8018 Y25.8882 
G01 X2.7012 Y25.9152 
G01 X2.3259 Y25.9152 
G01 X2.2253 Y25.8882 
G01 X2.1371 Y25.8373 
G01 X2.0614 Y25.7625 
G01 X1.8639 Y25.5650 
G01 X1.7903 Y25.4913 
G01 X1.7393 Y25.4031 
G01 X1.7370 Y25.3968 
G01 X1.7112 Y25.3005 
G01 X1.7112 Y24.3828 
G01 X1.7382 Y24.2822 
G01 X1.7903 Y24.1920 
G01 X1.8639 Y24.1184 
G01 X1.9541 Y24.0663 
G01 X2.0547 Y24.0393 
G00 Z2.5400 
G00 X3.7859 Y20.7650 
G01 Z-0.1500 F254.00 
G01 X3.8865 Y20.7920 F508.00 
G01 X3.9767 Y20.8440 
G01 X4.0504 Y20.9177 
G01 X4.1024 Y21.0079 
G01 X4.1294 Y21.1085 
G01 X4.1294 Y21.2127 
G01 X4.1024 Y21.3133 
G01 X4.0504 Y21.4035 
G01 X3.9767 Y21.4772 
G01 X3.8865 Y21.5292 
G01 X3.7859 Y21.5562 
G01 X3.3159 Y21.5562 
G01 X3.3159 Y21.8497 
G01 X3.7859 Y21.8497 
G01 X3.8865 Y21.8766 
G01 X3.9767 Y21.9287 
G01 X4.0504 Y22.0024 
G01 X4.1024 Y22.0926 
G01 X4.1294 Y22.1932 
G01 X4.1294 Y22.2973 
G01 X4.1024 Y22.3980 
G01 X4.0504 Y22.4882 
G01 X3.9767 Y22.5618 
G01 X3.8865 Y22.6139 
G01 X3.7859 Y22.6409 
G01 X2.5971 Y22.6409 
G01 X2.5928 Y22.6397 
G01 X2.4964 Y22.6139 
G01 X2.4082 Y22.5630 
G01 X2.3326 Y22.4882 
G01 X1.8639 Y22.0195 
G01 X1.7903 Y21.9458 
G01 X1.7393 Y21.8576 
G01 X1.7112 Y21.7550 
G01 X1.7112 Y21.6509 
G01 X1.7382 Y21.5502 
G01 X1.7903 Y21.4600 
G01 X2.4062 Y20.8440 
G01 X2.4964 Y20.7920 
G01 X2.5971 Y20.7650 
G01 X2.9724 Y20.7650 
G01 X3.7859 Y20.7650 
G00 Z2.5400 
G00 X3.7859 Y17.4907 
G01 Z-0.1500 F254.00 
G01 X3.8865 Y17.5177 F508.00 
G01 X3.9767 Y17.5697 
G01 X4.0504 Y17.6434 
G01 X4.1024 Y17.7336 
G01 X4.1294 Y17.8342 
G01 X4.1294 Y17.9384 
G01 X4.1024 Y18.0390 
G01 X4.0504 Y18.1292 
G01 X3.9767 Y18.2029 
G01 X3.8865 Y18.2549 
G01 X3.7859 Y18.2819 
G01 X3.6042 Y18.2819 
G01 X4.0504 Y18.7280 
G01 X4.1024 Y18.8183 
G01 X4.1294 Y18.9189 
G01 X4.1294 Y19.0230 
G01 X4.1024 Y19.1237 
G01 X4.0504 Y19.2139 
G01 X3.9767 Y19.2875 
G01 X3.8865 Y19.3396 
G01 X3.7859 Y19.3666 
G01 X3.6817 Y19.3666 
G01 X3.5811 Y19.3396 
G01 X3.4909 Y19.2875 
G01 X3.3271 Y19.1237 
G01 X3.1632 Y19.2875 
G01 X3.0730 Y19.3396 
G01 X2.9724 Y19.3666 
G01 X2.3259 Y19.3666 
G01 X2.2253 Y19.3396 
G01 X2.1371 Y19.2887 
G01 X2.0614 Y19.2139 
G01 X1.8639 Y19.0163 
G01 X1.7903 Y18.9427 
G01 X1.7393 Y18.8545 
G01 X1.7370 Y18.8482 
G01 X1.7112 Y18.7519 
G01 X1.7112 Y17.8342 
G01 X1.7382 Y17.7336 
G01 X1.7903 Y17.6434 
G01 X1.8639 Y17.5697 
G01 X1.9541 Y17.5177 
G01 X2.0547 Y17.4907 
G01 X3.2436 Y17.4907 
G01 X3.7859 Y17.4907 
G00 Z2.5400 
G00 X2.6209 Y7.8274 
G01 Z-0.1500 F254.00 
G01 X2.5307 Y7.8795 F508.00 
G01 X2.4301 Y7.9065 
G01 X2.3259 Y7.9065 
G01 X2.2253 Y7.8795 
G01 X2.1351 Y7.8274 
G01 X1.8639 Y7.5563 
G01 X1.7903 Y7.4826 
G01 X1.7382 Y7.3924 
G01 X1.7112 Y7.2918 
G01 X1.7112 Y6.6453 
G01 X1.7382 Y6.5447 
G01 X1.7903 Y6.4545 
G01 X2.0614 Y6.1833 
G01 X2.1351 Y6.1096 
G01 X2.2253 Y6.0576 
G01 X2.3259 Y6.0306 
G01 X3.5147 Y6.0306 
G01 X3.6153 Y6.0576 
G01 X3.7055 Y6.1096 
G01 X3.9767 Y6.3808 
G01 X4.0504 Y6.4545 
G01 X4.1024 Y6.5447 
G01 X4.1294 Y6.6453 
G01 X4.1294 Y7.2918 
G01 X4.1036 Y7.3881 
G01 X4.1024 Y7.3924 
G01 X4.0504 Y7.4826 
G01 X3.9767 Y7.5563 
G01 X3.7792 Y7.7538 
G01 X3.7055 Y7.8274 
G01 X3.6153 Y7.8795 
G01 X3.5147 Y7.9065 
G01 X2.8682 Y7.9065 
G01 X2.7676 Y7.8795 
G01 X2.6774 Y7.8274 
G01 X2.6491 Y7.7992 
G01 X2.6209 Y7.8274 
G00 Z2.5400 
G00 X1.7903 Y11.0281 
G01 Z-0.1500 F254.00 
G01 X1.7382 Y10.9379 F508.00 
G01 X1.7112 Y10.8373 
G01 X1.7112 Y9.6484 
G01 X1.7382 Y9.5478 
G01 X1.7903 Y9.4576 
G01 X1.8639 Y9.3840 
G01 X1.9541 Y9.3319 
G01 X2.0547 Y9.3049 
G01 X2.9084 Y9.3049 
G01 X2.9486 Y9.3025 
G01 X2.9604 Y9.3049 
G01 X2.9724 Y9.3049 
G01 X3.0112 Y9.3153 
G01 X3.0506 Y9.3234 
G01 X3.0614 Y9.3288 
G01 X3.0730 Y9.3319 
G01 X3.1078 Y9.3520 
G01 X3.1438 Y9.3700 
G01 X3.1528 Y9.3779 
G01 X3.1632 Y9.3840 
G01 X3.1915 Y9.4122 
G01 X3.2197 Y9.3840 
G01 X3.3099 Y9.3319 
G01 X3.4106 Y9.3049 
G01 X3.5147 Y9.3049 
G01 X3.6153 Y9.3319 
G01 X3.7055 Y9.3840 
G01 X4.0504 Y9.7288 
G01 X4.1024 Y9.8190 
G01 X4.1294 Y9.9196 
G01 X4.1294 Y10.5661 
G01 X4.1024 Y10.6667 
G01 X4.0504 Y10.7569 
G01 X3.9767 Y10.8306 
G01 X3.7792 Y11.0281 
G01 X3.7082 Y11.0990 
G01 X3.7055 Y11.1017 
G01 X3.6153 Y11.1538 
G01 X3.5773 Y11.1640 
G01 X4.0492 Y11.6359 
G01 X4.1024 Y11.7273 
G01 X4.1294 Y11.8279 
G01 X4.1294 Y11.9321 
G01 X4.1024 Y12.0327 
G01 X4.0504 Y12.1229 
G01 X3.9767 Y12.1966 
G01 X3.5080 Y12.6652 
G01 X3.4344 Y12.7389 
G01 X3.3442 Y12.7910 
G01 X3.2478 Y12.8168 
G01 X3.2436 Y12.8179 
G01 X2.0547 Y12.8179 
G01 X1.9541 Y12.7910 
G01 X1.8639 Y12.7389 
G01 X1.7903 Y12.6652 
G01 X1.7382 Y12.5750 
G01 X1.7112 Y12.4744 
G01 X1.7112 Y12.3702 
G01 X1.7382 Y12.2696 
G01 X1.7903 Y12.1794 
G01 X1.8639 Y12.1058 
G01 X1.9541 Y12.0537 
G01 X2.0547 Y12.0267 
G01 X3.0276 Y12.0267 
G01 X3.1743 Y11.8800 
G01 X3.0276 Y11.7333 
G01 X2.0547 Y11.7333 
G01 X1.9541 Y11.7063 
G01 X1.8639 Y11.6542 
G01 X1.7903 Y11.5806 
G01 X1.7382 Y11.4904 
G01 X1.7112 Y11.3898 
G01 X1.7112 Y11.2856 
G01 X1.7382 Y11.1850 
G01 X1.7903 Y11.0948 
G01 X1.8236 Y11.0614 
G01 X1.7903 Y11.0281 
G00 Z2.5400 
G00 X3.7859 Y14.7587 
G01 Z-0.1500 F254.00 
G01 X3.8865 Y14.7857 F508.00 
G01 X3.9767 Y14.8378 
G01 X4.0504 Y14.9114 
G01 X4.1024 Y15.0016 
G01 X4.1294 Y15.1022 
G01 X4.1294 Y15.2064 
G01 X4.1024 Y15.3070 
G01 X4.0504 Y15.3972 
G01 X3.9767 Y15.4709 
G01 X3.8865 Y15.5229 
G01 X3.7859 Y15.5499 
G01 X2.5024 Y15.5499 
G01 X2.5024 Y15.7487 
G01 X2.4754 Y15.8493 
G01 X2.4234 Y15.9395 
G01 X2.3497 Y16.0132 
G01 X2.2595 Y16.0653 
G01 X2.1589 Y16.0922 
G01 X2.0547 Y16.0922 
G01 X1.9541 Y16.0653 
G01 X1.8639 Y16.0132 
G01 X1.7903 Y15.9395 
G01 X1.7382 Y15.8493 
G01 X1.7112 Y15.7487 
G01 X1.7112 Y14.5599 
G01 X1.7382 Y14.4593 
G01 X1.7903 Y14.3691 
G01 X1.8639 Y14.2954 
G01 X1.9541 Y14.2433 
G01 X2.0547 Y14.2164 
G01 X2.1589 Y14.2164 
G01 X2.2595 Y14.2433 
G01 X2.3497 Y14.2954 
G01 X2.4234 Y14.3691 
G01 X2.4754 Y14.4593 
G01 X2.5024 Y14.5599 
G01 X2.5024 Y14.7587 
G01 X3.7859 Y14.7587 
G00 Z2.5400 
G00 X16.1520 Y17.3294 
G01 Z-0.1500 F254.00 
G01 X14.6679 Y17.3294 F508.00 
G01 X14.5867 Y17.3076 
G01 X14.5139 Y17.2656 
G01 X14.4544 Y17.2061 
G01 X14.4124 Y17.1333 
G01 X14.3906 Y17.0521 
G01 X14.3906 Y15.9679 
G01 X14.4124 Y15.8867 
G01 X14.4206 Y15.8725 
G01 X14.4206 Y15.3617 
G01 X14.4126 Y15.3215 
G01 X14.4126 Y15.1585 
G01 X14.4444 Y14.9987 
G01 X14.5068 Y14.8481 
G01 X14.5973 Y14.7126 
G01 X14.7126 Y14.5973 
G01 X14.8481 Y14.5068 
G01 X14.9987 Y14.4444 
G01 X15.1585 Y14.4126 
G01 X15.3215 Y14.4126 
G01 X15.4813 Y14.4444 
G01 X15.6319 Y14.5068 
G01 X15.7674 Y14.5973 
G01 X15.8827 Y14.7126 
G01 X15.9732 Y14.8481 
G01 X16.0356 Y14.9987 
G01 X16.0674 Y15.1585 
G01 X16.0674 Y15.3215 
G01 X16.0594 Y15.3617 
G01 X16.0594 Y15.6906 
G01 X16.1520 Y15.6906 
G01 X16.2333 Y15.7124 
G01 X16.3061 Y15.7544 
G01 X16.3656 Y15.8139 
G01 X16.4076 Y15.8867 
G01 X16.4294 Y15.9679 
G01 X16.4294 Y17.0521 
G01 X16.4076 Y17.1333 
G01 X16.3656 Y17.2061 
G01 X16.3061 Y17.2656 
G01 X16.2333 Y17.3076 
G01 X16.1520 Y17.3294 
G00 Z2.5400 
G00 X25.2495 Y12.2363 
G01 Z-0.1500 F254.00 
G01 X25.2495 Y13.1637 F508.00 
G01 X24.5937 Y13.8195 
G01 X23.6663 Y13.8195 
G01 X23.0105 Y13.1637 
G01 X23.0105 Y12.2363 
G01 X23.3106 Y11.9362 
G01 X23.3106 Y10.9794 
G01 X20.4417 Y10.9794 
G01 X20.4015 Y10.9874 
G01 X20.2385 Y10.9874 
G01 X20.0787 Y10.9556 
G01 X19.9281 Y10.8932 
G01 X19.7926 Y10.8027 
G01 X19.6773 Y10.6874 
G01 X19.5868 Y10.5519 
G01 X19.5244 Y10.4013 
G01 X19.4926 Y10.2415 
G01 X19.4926 Y10.0785 
G01 X19.5244 Y9.9187 
G01 X19.5868 Y9.7681 
G01 X19.6773 Y9.6326 
G01 X19.7926 Y9.5173 
G01 X19.9281 Y9.4268 
G01 X20.0787 Y9.3644 
G01 X20.2385 Y9.3326 
G01 X20.4015 Y9.3326 
G01 X20.4417 Y9.3406 
G01 X23.3106 Y9.3406 
G01 X23.3106 Y6.6894 
G01 X22.6206 Y5.9994 
G01 X22.0479 Y5.9994 
G01 X21.9667 Y5.9776 
G01 X21.8939 Y5.9356 
G01 X21.8344 Y5.8761 
G01 X21.7924 Y5.8033 
G01 X21.7706 Y5.7221 
G01 X21.7706 Y5.4782 
G01 X21.7639 Y5.4681 
G01 X21.7021 Y5.3190 
G01 X21.6706 Y5.1607 
G01 X21.6706 Y4.9993 
G01 X21.7021 Y4.8410 
G01 X21.7639 Y4.6919 
G01 X21.7706 Y4.6818 
G01 X21.7706 Y4.4379 
G01 X21.7924 Y4.3567 
G01 X21.8344 Y4.2839 
G01 X21.8939 Y4.2244 
G01 X21.9667 Y4.1824 
G01 X22.0479 Y4.1606 
G01 X22.9321 Y4.1606 
G01 X23.0133 Y4.1824 
G01 X23.0861 Y4.2244 
G01 X23.1456 Y4.2839 
G01 X23.1664 Y4.3200 
G01 X23.2481 Y4.3539 
G01 X23.3823 Y4.4435 
G01 X23.4965 Y4.5577 
G01 X24.6523 Y5.7135 
G01 X24.7665 Y5.8277 
G01 X24.8561 Y5.9619 
G01 X24.9179 Y6.1110 
G01 X24.9494 Y6.2693 
G01 X24.9494 Y11.9362 
G01 X25.2495 Y12.2363 
G00 Z2.5400 
G00 X30.3295 Y19.8563 
G01 Z-0.1500 F254.00 
G01 X30.3295 Y20.7837 F508.00 
G01 X30.0294 Y21.0838 
G01 X30.0294 Y27.1206 
G01 X32.7577 Y27.1206 
G01 X32.7939 Y27.0844 
G01 X32.8667 Y27.0424 
G01 X32.9479 Y27.0206 
G01 X33.5483 Y27.0206 
G01 X33.5021 Y26.9090 
G01 X33.4706 Y26.7507 
G01 X33.4706 Y20.6594 
G01 X32.8695 Y20.0583 
G01 X32.8695 Y20.7837 
G01 X32.2137 Y21.4395 
G01 X31.2863 Y21.4395 
G01 X30.6305 Y20.7837 
G01 X30.6305 Y19.8563 
G01 X31.2863 Y19.2005 
G01 X32.0117 Y19.2005 
G01 X31.4106 Y18.5994 
G01 X24.9494 Y18.5994 
G01 X24.9494 Y19.5562 
G01 X25.2495 Y19.8563 
G01 X25.2495 Y20.7837 
G01 X24.5937 Y21.4395 
G01 X23.6663 Y21.4395 
G01 X23.0105 Y20.7837 
G01 X23.0105 Y20.3593 
G01 X21.1394 Y18.4882 
G01 X21.1394 Y21.6707 
G01 X21.1079 Y21.8290 
G01 X21.0461 Y21.9781 
G01 X20.9565 Y22.1123 
G01 X20.8423 Y22.2265 
G01 X16.0482 Y27.0206 
G01 X16.5821 Y27.0206 
G01 X16.6633 Y27.0424 
G01 X16.7361 Y27.0844 
G01 X16.7723 Y27.1206 
G01 X18.9283 Y27.1206 
G01 X18.9685 Y27.1126 
G01 X19.1315 Y27.1126 
G01 X19.1717 Y27.1206 
G01 X20.0577 Y27.1206 
G01 X20.0939 Y27.0844 
G01 X20.1667 Y27.0424 
G01 X20.2479 Y27.0206 
G01 X21.1320 Y27.0206 
G01 X21.2133 Y27.0424 
G01 X21.2861 Y27.0844 
G01 X21.3456 Y27.1439 
G01 X21.3876 Y27.2167 
G01 X21.4094 Y27.2979 
G01 X21.4094 Y27.5418 
G01 X21.4161 Y27.5519 
G01 X21.4779 Y27.7010 
G01 X21.5094 Y27.8593 
G01 X21.5094 Y28.0207 
G01 X21.4779 Y28.1790 
G01 X21.4161 Y28.3281 
G01 X21.4094 Y28.3382 
G01 X21.4094 Y28.5821 
G01 X21.3876 Y28.6633 
G01 X21.3456 Y28.7361 
G01 X21.2861 Y28.7956 
G01 X21.2133 Y28.8376 
G01 X21.1320 Y28.8594 
G01 X20.2479 Y28.8594 
G01 X20.1667 Y28.8376 
G01 X20.0939 Y28.7956 
G01 X20.0577 Y28.7594 
G01 X19.1717 Y28.7594 
G01 X19.1315 Y28.7674 
G01 X18.9685 Y28.7674 
G01 X18.9283 Y28.7594 
G01 X16.7723 Y28.7594 
G01 X16.7361 Y28.7956 
G01 X16.6633 Y28.8376 
G01 X16.5821 Y28.8594 
G01 X15.6979 Y28.8594 
G01 X15.6167 Y28.8376 
G01 X15.5439 Y28.7956 
G01 X15.4844 Y28.7361 
G01 X15.4424 Y28.6633 
G01 X15.4206 Y28.5821 
G01 X15.4206 Y28.3382 
G01 X15.4139 Y28.3281 
G01 X15.3521 Y28.1790 
G01 X15.3206 Y28.0207 
G01 X15.3206 Y27.8593 
G01 X15.3482 Y27.7206 
G01 X15.1594 Y27.9094 
G01 X15.1594 Y28.0207 
G01 X15.1279 Y28.1790 
G01 X15.0661 Y28.3281 
G01 X15.0594 Y28.3382 
G01 X15.0594 Y28.5821 
G01 X15.0376 Y28.6633 
G01 X14.9956 Y28.7361 
G01 X14.9361 Y28.7956 
G01 X14.8633 Y28.8376 
G01 X14.7820 Y28.8594 
G01 X13.8979 Y28.8594 
G01 X13.8167 Y28.8376 
G01 X13.7439 Y28.7956 
G01 X13.6844 Y28.7361 
G01 X13.6636 Y28.7000 
G01 X13.5819 Y28.6661 
G01 X13.5194 Y28.6244 
G01 X13.5194 Y28.8706 
G01 X14.3094 Y29.6606 
G01 X22.0406 Y29.6606 
G01 X22.0406 Y28.8574 
G01 X21.9667 Y28.8376 
G01 X21.8939 Y28.7956 
G01 X21.8344 Y28.7361 
G01 X21.7924 Y28.6633 
G01 X21.7706 Y28.5821 
G01 X21.7706 Y28.3382 
G01 X21.7639 Y28.3281 
G01 X21.7021 Y28.1790 
G01 X21.6706 Y28.0207 
G01 X21.6706 Y27.8593 
G01 X21.7021 Y27.7010 
G01 X21.7639 Y27.5519 
G01 X21.7706 Y27.5418 
G01 X21.7706 Y27.2979 
G01 X21.7924 Y27.2167 
G01 X21.8344 Y27.1439 
G01 X21.8939 Y27.0844 
G01 X21.9667 Y27.0424 
G01 X22.0479 Y27.0206 
G01 X22.9321 Y27.0206 
G01 X23.0133 Y27.0424 
G01 X23.0861 Y27.0844 
G01 X23.1223 Y27.1206 
G01 X25.8506 Y27.1206 
G01 X25.8506 Y21.0838 
G01 X25.5505 Y20.7837 
G01 X25.5505 Y19.8563 
G01 X26.2063 Y19.2005 
G01 X27.1337 Y19.2005 
G01 X27.7895 Y19.8563 
G01 X27.7895 Y20.7837 
G01 X27.4894 Y21.0838 
G01 X27.4894 Y27.0226 
G01 X27.5633 Y27.0424 
G01 X27.6361 Y27.0844 
G01 X27.6956 Y27.1439 
G01 X27.7376 Y27.2167 
G01 X27.7594 Y27.2979 
G01 X27.7594 Y27.5418 
G01 X27.7661 Y27.5519 
G01 X27.8279 Y27.7010 
G01 X27.8594 Y27.8593 
G01 X27.8594 Y28.0207 
G01 X27.8279 Y28.1790 
G01 X27.7661 Y28.3281 
G01 X27.7594 Y28.3382 
G01 X27.7594 Y28.5821 
G01 X27.7376 Y28.6633 
G01 X27.6956 Y28.7361 
G01 X27.6361 Y28.7956 
G01 X27.5633 Y28.8376 
G01 X27.4821 Y28.8594 
G01 X26.5979 Y28.8594 
G01 X26.5167 Y28.8376 
G01 X26.4439 Y28.7956 
G01 X26.4077 Y28.7594 
G01 X23.6794 Y28.7594 
G01 X23.6794 Y30.5607 
G01 X23.6479 Y30.7190 
G01 X23.5861 Y30.8681 
G01 X23.4965 Y31.0023 
G01 X23.3823 Y31.1165 
G01 X23.2481 Y31.2061 
G01 X23.0990 Y31.2679 
G01 X22.9407 Y31.2994 
G01 X13.8893 Y31.2994 
G01 X13.7310 Y31.2679 
G01 X13.5819 Y31.2061 
G01 X13.4477 Y31.1165 
G01 X13.3335 Y31.0023 
G01 X12.0635 Y29.7323 
G01 X11.9739 Y29.5981 
G01 X11.9121 Y29.4490 
G01 X11.8806 Y29.2907 
G01 X11.8806 Y28.2794 
G01 X7.4410 Y23.8398 
G01 X6.8631 Y23.8398 
G01 X6.6738 Y23.8021 
G01 X6.4955 Y23.7283 
G01 X6.3350 Y23.6211 
G01 X6.1985 Y23.4846 
G01 X6.0913 Y23.3241 
G01 X6.0175 Y23.1458 
G01 X5.9798 Y22.9565 
G01 X5.9798 Y22.7635 
G01 X6.0175 Y22.5742 
G01 X6.0913 Y22.3959 
G01 X6.1985 Y22.2354 
G01 X6.3350 Y22.0989 
G01 X6.4955 Y21.9917 
G01 X6.6738 Y21.9179 
G01 X6.8631 Y21.8802 
G01 X8.3769 Y21.8802 
G01 X8.5662 Y21.9179 
G01 X8.7445 Y21.9917 
G01 X8.9050 Y22.0989 
G01 X9.0415 Y22.2354 
G01 X9.1487 Y22.3959 
G01 X9.2225 Y22.5742 
G01 X9.2602 Y22.7635 
G01 X9.2602 Y22.9565 
G01 X9.2225 Y23.1458 
G01 X9.1763 Y23.2575 
G01 X13.2223 Y27.3035 
G01 X13.3350 Y27.4162 
G01 X13.4477 Y27.3035 
G01 X19.5006 Y21.2506 
G01 X19.5006 Y18.1194 
G01 X18.6294 Y17.2482 
G01 X18.6294 Y18.0021 
G01 X18.6076 Y18.0833 
G01 X18.5994 Y18.0975 
G01 X18.5994 Y18.9283 
G01 X18.6074 Y18.9685 
G01 X18.6074 Y19.1315 
G01 X18.5756 Y19.2913 
G01 X18.5132 Y19.4419 
G01 X18.4227 Y19.5774 
G01 X18.3074 Y19.6927 
G01 X18.1719 Y19.7832 
G01 X18.0213 Y19.8456 
G01 X17.8615 Y19.8774 
G01 X17.6985 Y19.8774 
G01 X17.5387 Y19.8456 
G01 X17.3881 Y19.7832 
G01 X17.2526 Y19.6927 
G01 X17.1373 Y19.5774 
G01 X17.0468 Y19.4419 
G01 X16.9844 Y19.2913 
G01 X16.9526 Y19.1315 
G01 X16.9526 Y18.9685 
G01 X16.9606 Y18.9283 
G01 X16.9606 Y18.2794 
G01 X16.8679 Y18.2794 
G01 X16.7867 Y18.2576 
G01 X16.7139 Y18.2156 
G01 X16.6544 Y18.1561 
G01 X16.6124 Y18.0833 
G01 X16.5906 Y18.0021 
G01 X16.5906 Y16.9179 
G01 X16.6124 Y16.8367 
G01 X16.6544 Y16.7639 
G01 X16.7139 Y16.7044 
G01 X16.7867 Y16.6624 
G01 X16.8679 Y16.6406 
G01 X17.5708 Y16.6406 
G01 X17.6121 Y16.6366 
G01 X17.6513 Y16.6406 
G01 X18.0218 Y16.6406 
G01 X17.7606 Y16.3794 
G01 X17.6513 Y16.3794 
G01 X17.6121 Y16.3834 
G01 X17.5708 Y16.3794 
G01 X16.8679 Y16.3794 
G01 X16.7867 Y16.3576 
G01 X16.7139 Y16.3156 
G01 X16.6544 Y16.2561 
G01 X16.6124 Y16.1833 
G01 X16.5906 Y16.1021 
G01 X16.5906 Y15.0179 
G01 X16.6124 Y14.9367 
G01 X16.6544 Y14.8639 
G01 X16.7139 Y14.8044 
G01 X16.7867 Y14.7624 
G01 X16.8679 Y14.7406 
G01 X17.1282 Y14.7406 
G01 X17.1435 Y14.7177 
G01 X17.1714 Y14.6898 
G01 X17.1963 Y14.6593 
G01 X17.2283 Y14.6329 
G01 X17.2577 Y14.6035 
G01 X18.3845 Y13.4767 
G01 X18.4073 Y13.4426 
G01 X18.5226 Y13.3273 
G01 X18.6581 Y13.2368 
G01 X18.8087 Y13.1744 
G01 X18.9685 Y13.1426 
G01 X19.1315 Y13.1426 
G01 X19.2913 Y13.1744 
G01 X19.4419 Y13.2368 
G01 X19.5774 Y13.3273 
G01 X19.6927 Y13.4426 
G01 X19.7832 Y13.5781 
G01 X19.8456 Y13.7287 
G01 X19.8774 Y13.8885 
G01 X19.8774 Y14.0515 
G01 X19.8456 Y14.2113 
G01 X19.7832 Y14.3619 
G01 X19.6927 Y14.4974 
G01 X19.5774 Y14.6127 
G01 X19.5433 Y14.6355 
G01 X18.9388 Y15.2400 
G01 X20.7706 Y17.0718 
G01 X20.7706 Y14.3094 
G01 X18.5994 Y12.1382 
G01 X18.5994 Y12.7807 
G01 X18.5679 Y12.9390 
G01 X18.5061 Y13.0881 
G01 X18.4165 Y13.2223 
G01 X18.3023 Y13.3365 
G01 X18.1681 Y13.4261 
G01 X18.0190 Y13.4879 
G01 X17.8607 Y13.5194 
G01 X8.8177 Y13.5194 
G01 X8.7445 Y13.5683 
G01 X8.5662 Y13.6421 
G01 X8.3769 Y13.6798 
G01 X6.8631 Y13.6798 
G01 X6.6738 Y13.6421 
G01 X6.4955 Y13.5683 
G01 X6.3350 Y13.4611 
G01 X6.1985 Y13.3246 
G01 X6.0913 Y13.1641 
G01 X6.0175 Y12.9858 
G01 X5.9798 Y12.7965 
G01 X5.9798 Y12.6035 
G01 X6.0175 Y12.4142 
G01 X6.0913 Y12.2359 
G01 X6.1985 Y12.0754 
G01 X6.3350 Y11.9389 
G01 X6.4955 Y11.8317 
G01 X6.6738 Y11.7579 
G01 X6.8631 Y11.7202 
G01 X8.3769 Y11.7202 
G01 X8.5662 Y11.7579 
G01 X8.7445 Y11.8317 
G01 X8.8177 Y11.8806 
G01 X16.9606 Y11.8806 
G01 X16.9606 Y5.9974 
G01 X16.8867 Y5.9776 
G01 X16.8139 Y5.9356 
G01 X16.7544 Y5.8761 
G01 X16.7124 Y5.8033 
G01 X16.6906 Y5.7221 
G01 X16.6906 Y5.4782 
G01 X16.6839 Y5.4681 
G01 X16.6221 Y5.3190 
G01 X16.5906 Y5.1607 
G01 X16.5906 Y4.9993 
G01 X16.6221 Y4.8410 
G01 X16.6839 Y4.6919 
G01 X16.6906 Y4.6818 
G01 X16.6906 Y4.4379 
G01 X16.7124 Y4.3567 
G01 X16.7544 Y4.2839 
G01 X16.8139 Y4.2244 
G01 X16.8867 Y4.1824 
G01 X16.9679 Y4.1606 
G01 X17.8521 Y4.1606 
G01 X17.9333 Y4.1824 
G01 X18.0061 Y4.2244 
G01 X18.0423 Y4.2606 
G01 X19.5006 Y4.2606 
G01 X19.5006 Y2.4593 
G01 X19.5321 Y2.3010 
G01 X19.5939 Y2.1519 
G01 X19.6835 Y2.0177 
G01 X19.7977 Y1.9035 
G01 X19.9319 Y1.8139 
G01 X20.0810 Y1.7521 
G01 X20.2393 Y1.7206 
G01 X26.7507 Y1.7206 
G01 X26.9090 Y1.7521 
G01 X27.0581 Y1.8139 
G01 X27.1923 Y1.9035 
G01 X27.3065 Y2.0177 
G01 X29.7323 Y4.4435 
G01 X29.8465 Y4.5577 
G01 X29.9361 Y4.6919 
G01 X29.9979 Y4.8410 
G01 X30.0294 Y4.9993 
G01 X30.0294 Y5.1607 
G01 X29.9979 Y5.3190 
G01 X29.9361 Y5.4681 
G01 X29.8465 Y5.6023 
G01 X29.7323 Y5.7165 
G01 X29.5981 Y5.8061 
G01 X29.5164 Y5.8400 
G01 X29.4956 Y5.8761 
G01 X29.4361 Y5.9356 
G01 X29.3633 Y5.9776 
G01 X29.2821 Y5.9994 
G01 X28.3979 Y5.9994 
G01 X28.3167 Y5.9776 
G01 X28.2439 Y5.9356 
G01 X28.1844 Y5.8761 
G01 X28.1424 Y5.8033 
G01 X28.1206 Y5.7221 
G01 X28.1206 Y5.4782 
G01 X28.1139 Y5.4681 
G01 X28.0521 Y5.3190 
G01 X28.0206 Y5.1607 
G01 X28.0206 Y5.0494 
G01 X27.8318 Y4.8606 
G01 X27.8594 Y4.9993 
G01 X27.8594 Y5.1607 
G01 X27.8279 Y5.3190 
G01 X27.7661 Y5.4681 
G01 X27.7594 Y5.4782 
G01 X27.7594 Y5.7221 
G01 X27.7376 Y5.8033 
G01 X27.6956 Y5.8761 
G01 X27.6361 Y5.9356 
G01 X27.5633 Y5.9776 
G01 X27.4894 Y5.9974 
G01 X27.4894 Y9.4518 
G01 X32.3835 Y4.5577 
G01 X32.4977 Y4.4435 
G01 X32.6319 Y4.3539 
G01 X32.7136 Y4.3200 
G01 X32.7344 Y4.2839 
G01 X32.7939 Y4.2244 
G01 X32.8667 Y4.1824 
G01 X32.9479 Y4.1606 
G01 X33.8321 Y4.1606 
G01 X33.9133 Y4.1824 
G01 X33.9861 Y4.2244 
G01 X34.0456 Y4.2839 
G01 X34.0876 Y4.3567 
G01 X34.1094 Y4.4379 
G01 X34.1094 Y4.6818 
G01 X34.1161 Y4.6919 
G01 X34.1779 Y4.8410 
G01 X34.2094 Y4.9993 
G01 X34.2094 Y5.1607 
G01 X34.1818 Y5.2994 
G01 X34.3706 Y5.1106 
G01 X34.3706 Y4.9993 
G01 X34.4021 Y4.8410 
G01 X34.4639 Y4.6919 
G01 X34.4706 Y4.6818 
G01 X34.4706 Y4.4379 
G01 X34.4924 Y4.3567 
G01 X34.5344 Y4.2839 
G01 X34.5939 Y4.2244 
G01 X34.6667 Y4.1824 
G01 X34.7479 Y4.1606 
G01 X35.6320 Y4.1606 
G01 X35.7133 Y4.1824 
G01 X35.7861 Y4.2244 
G01 X35.8456 Y4.2839 
G01 X35.8664 Y4.3200 
G01 X35.9481 Y4.3539 
G01 X36.0823 Y4.4435 
G01 X36.1965 Y4.5577 
G01 X36.2861 Y4.6919 
G01 X36.3479 Y4.8410 
G01 X36.3794 Y4.9993 
G01 X36.3794 Y5.1607 
G01 X36.3479 Y5.3190 
G01 X36.2861 Y5.4681 
G01 X36.1965 Y5.6023 
G01 X36.0823 Y5.7165 
G01 X32.5694 Y9.2294 
G01 X32.5694 Y11.9362 
G01 X32.8695 Y12.2363 
G01 X32.8695 Y13.1637 
G01 X32.2137 Y13.8195 
G01 X31.2863 Y13.8195 
G01 X30.6305 Y13.1637 
G01 X30.6305 Y12.2363 
G01 X30.9306 Y11.9362 
G01 X30.9306 Y8.8093 
G01 X30.9621 Y8.6510 
G01 X31.0239 Y8.5019 
G01 X31.1135 Y8.3677 
G01 X31.2277 Y8.2535 
G01 X33.4818 Y5.9994 
G01 X33.2594 Y5.9994 
G01 X28.6055 Y10.6533 
G01 X28.5827 Y10.6874 
G01 X28.4674 Y10.8027 
G01 X28.3319 Y10.8932 
G01 X28.1813 Y10.9556 
G01 X28.0215 Y10.9874 
G01 X27.8585 Y10.9874 
G01 X27.6987 Y10.9556 
G01 X27.5481 Y10.8932 
G01 X27.4894 Y10.8540 
G01 X27.4894 Y11.8806 
G01 X28.4462 Y11.8806 
G01 X28.7463 Y11.5805 
G01 X29.6737 Y11.5805 
G01 X30.3295 Y12.2363 
G01 X30.3295 Y13.1637 
G01 X29.6737 Y13.8195 
G01 X28.7463 Y13.8195 
G01 X28.4462 Y13.5194 
G01 X27.4338 Y13.5194 
G01 X27.1337 Y13.8195 
G01 X26.2063 Y13.8195 
G01 X25.5505 Y13.1637 
G01 X25.5505 Y12.2363 
G01 X25.8506 Y11.9362 
G01 X25.8506 Y4.9993 
G01 X25.8821 Y4.8410 
G01 X25.9439 Y4.6919 
G01 X26.0335 Y4.5577 
G01 X26.1477 Y4.4435 
G01 X26.2819 Y4.3539 
G01 X26.3636 Y4.3200 
G01 X26.3844 Y4.2839 
G01 X26.4439 Y4.2244 
G01 X26.5167 Y4.1824 
G01 X26.5979 Y4.1606 
G01 X27.1318 Y4.1606 
G01 X26.3306 Y3.3594 
G01 X21.1394 Y3.3594 
G01 X21.1394 Y4.1626 
G01 X21.2133 Y4.1824 
G01 X21.2861 Y4.2244 
G01 X21.3456 Y4.2839 
G01 X21.3876 Y4.3567 
G01 X21.4094 Y4.4379 
G01 X21.4094 Y4.6818 
G01 X21.4161 Y4.6919 
G01 X21.4779 Y4.8410 
G01 X21.5094 Y4.9993 
G01 X21.5094 Y5.1607 
G01 X21.4779 Y5.3190 
G01 X21.4161 Y5.4681 
G01 X21.4094 Y5.4782 
G01 X21.4094 Y5.7221 
G01 X21.3876 Y5.8033 
G01 X21.3456 Y5.8761 
G01 X21.2861 Y5.9356 
G01 X21.2133 Y5.9776 
G01 X21.1320 Y5.9994 
G01 X20.2479 Y5.9994 
G01 X20.1667 Y5.9776 
G01 X20.0939 Y5.9356 
G01 X20.0577 Y5.8994 
G01 X18.5994 Y5.8994 
G01 X18.5994 Y9.8206 
G01 X22.2265 Y13.4477 
G01 X22.3161 Y13.5819 
G01 X22.3779 Y13.7310 
G01 X22.4094 Y13.8893 
G01 X22.4094 Y17.4406 
G01 X23.3106 Y18.3418 
G01 X23.3106 Y17.6993 
G01 X23.3421 Y17.5410 
G01 X23.4039 Y17.3919 
G01 X23.4935 Y17.2577 
G01 X23.6077 Y17.1435 
G01 X23.7419 Y17.0539 
G01 X23.8910 Y16.9921 
G01 X24.0493 Y16.9606 
G01 X31.8307 Y16.9606 
G01 X31.9890 Y16.9921 
G01 X32.1381 Y17.0539 
G01 X32.2723 Y17.1435 
G01 X32.3865 Y17.2577 
G01 X34.9265 Y19.7977 
G01 X35.0161 Y19.9319 
G01 X35.0779 Y20.0810 
G01 X35.1094 Y20.2393 
G01 X35.1094 Y26.3306 
G01 X36.0823 Y27.3035 
G01 X36.1965 Y27.4177 
G01 X36.2861 Y27.5519 
G01 X36.3479 Y27.7010 
G01 X36.3794 Y27.8593 
G01 X36.3794 Y28.0207 
G01 X36.3479 Y28.1790 
G01 X36.2861 Y28.3281 
G01 X36.1965 Y28.4623 
G01 X36.0823 Y28.5765 
G01 X35.9481 Y28.6661 
G01 X35.8664 Y28.7000 
G01 X35.8456 Y28.7361 
G01 X35.7861 Y28.7956 
G01 X35.7133 Y28.8376 
G01 X35.6320 Y28.8594 
G01 X34.7479 Y28.8594 
G01 X34.6667 Y28.8376 
G01 X34.5939 Y28.7956 
G01 X34.5344 Y28.7361 
G01 X34.4924 Y28.6633 
G01 X34.4706 Y28.5821 
G01 X34.4706 Y28.3382 
G01 X34.4639 Y28.3281 
G01 X34.4021 Y28.1790 
G01 X34.3706 Y28.0207 
G01 X34.3706 Y27.9094 
G01 X34.1818 Y27.7206 
G01 X34.2094 Y27.8593 
G01 X34.2094 Y28.0207 
G01 X34.1779 Y28.1790 
G01 X34.1161 Y28.3281 
G01 X34.1094 Y28.3382 
G01 X34.1094 Y28.5821 
G01 X34.0876 Y28.6633 
G01 X34.0456 Y28.7361 
G01 X33.9861 Y28.7956 
G01 X33.9133 Y28.8376 
G01 X33.8321 Y28.8594 
G01 X32.9479 Y28.8594 
G01 X32.8667 Y28.8376 
G01 X32.7939 Y28.7956 
G01 X32.7577 Y28.7594 
G01 X29.4723 Y28.7594 
G01 X29.4361 Y28.7956 
G01 X29.3633 Y28.8376 
G01 X29.2821 Y28.8594 
G01 X28.3979 Y28.8594 
G01 X28.3167 Y28.8376 
G01 X28.2439 Y28.7956 
G01 X28.1844 Y28.7361 
G01 X28.1424 Y28.6633 
G01 X28.1206 Y28.5821 
G01 X28.1206 Y28.3382 
G01 X28.1139 Y28.3281 
G01 X28.0521 Y28.1790 
G01 X28.0206 Y28.0207 
G01 X28.0206 Y27.8593 
G01 X28.0521 Y27.7010 
G01 X28.1139 Y27.5519 
G01 X28.1206 Y27.5418 
G01 X28.1206 Y27.2979 
G01 X28.1424 Y27.2167 
G01 X28.1844 Y27.1439 
G01 X28.2439 Y27.0844 
G01 X28.3167 Y27.0424 
G01 X28.3906 Y27.0226 
G01 X28.3906 Y21.0838 
G01 X28.0905 Y20.7837 
G01 X28.0905 Y19.8563 
G01 X28.7463 Y19.2005 
G01 X29.6737 Y19.2005 
G01 X30.3295 Y19.8563 
G00 Z2.5400 
G00 X6.8631 Y14.2602 
G01 Z-0.1500 F254.00 
G01 X8.3769 Y14.2602 F508.00 
G01 X8.5662 Y14.2979 
G01 X8.7445 Y14.3717 
G01 X8.9050 Y14.4789 
G01 X9.0415 Y14.6154 
G01 X9.1487 Y14.7759 
G01 X9.2225 Y14.9542 
G01 X9.2602 Y15.1435 
G01 X9.2602 Y15.3365 
G01 X9.2225 Y15.5258 
G01 X9.1487 Y15.7041 
G01 X9.0415 Y15.8646 
G01 X8.9050 Y16.0011 
G01 X8.7445 Y16.1083 
G01 X8.5662 Y16.1821 
G01 X8.3769 Y16.2198 
G01 X6.8631 Y16.2198 
G01 X6.6738 Y16.1821 
G01 X6.4955 Y16.1083 
G01 X6.3350 Y16.0011 
G01 X6.1985 Y15.8646 
G01 X6.0913 Y15.7041 
G01 X6.0175 Y15.5258 
G01 X5.9798 Y15.3365 
G01 X5.9798 Y15.1435 
G01 X6.0175 Y14.9542 
G01 X6.0913 Y14.7759 
G01 X6.1985 Y14.6154 
G01 X6.3350 Y14.4789 
G01 X6.4955 Y14.3717 
G01 X6.6738 Y14.2979 
G01 X6.8631 Y14.2602 
G00 Z2.5400 
G00 X6.8631 Y16.8002 
G01 Z-0.1500 F254.00 
G01 X8.3769 Y16.8002 F508.00 
G01 X8.5662 Y16.8379 
G01 X8.7445 Y16.9117 
G01 X8.9050 Y17.0189 
G01 X9.0415 Y17.1554 
G01 X9.1487 Y17.3159 
G01 X9.2225 Y17.4942 
G01 X9.2602 Y17.6835 
G01 X9.2602 Y17.8765 
G01 X9.2225 Y18.0658 
G01 X9.1487 Y18.2441 
G01 X9.0415 Y18.4046 
G01 X8.9050 Y18.5411 
G01 X8.7445 Y18.6483 
G01 X8.5662 Y18.7221 
G01 X8.3769 Y18.7598 
G01 X6.8631 Y18.7598 
G01 X6.6738 Y18.7221 
G01 X6.4955 Y18.6483 
G01 X6.3350 Y18.5411 
G01 X6.1985 Y18.4046 
G01 X6.0913 Y18.2441 
G01 X6.0175 Y18.0658 
G01 X5.9798 Y17.8765 
G01 X5.9798 Y17.6835 
G01 X6.0175 Y17.4942 
G01 X6.0913 Y17.3159 
G01 X6.1985 Y17.1554 
G01 X6.3350 Y17.0189 
G01 X6.4955 Y16.9117 
G01 X6.6738 Y16.8379 
G01 X6.8631 Y16.8002 
G00 Z2.5400 
G00 X6.8631 Y19.3402 
G01 Z-0.1500 F254.00 
G01 X8.3769 Y19.3402 F508.00 
G01 X8.5662 Y19.3779 
G01 X8.7445 Y19.4517 
G01 X8.9050 Y19.5589 
G01 X9.0415 Y19.6954 
G01 X9.1487 Y19.8559 
G01 X9.2225 Y20.0342 
G01 X9.2602 Y20.2235 
G01 X9.2602 Y20.4165 
G01 X9.2225 Y20.6058 
G01 X9.1487 Y20.7841 
G01 X9.0415 Y20.9446 
G01 X8.9050 Y21.0811 
G01 X8.7445 Y21.1883 
G01 X8.5662 Y21.2621 
G01 X8.3769 Y21.2998 
G01 X6.8631 Y21.2998 
G01 X6.6738 Y21.2621 
G01 X6.4955 Y21.1883 
G01 X6.3350 Y21.0811 
G01 X6.1985 Y20.9446 
G01 X6.0913 Y20.7841 
G01 X6.0175 Y20.6058 
G01 X5.9798 Y20.4165 
G01 X5.9798 Y20.2235 
G01 X6.0175 Y20.0342 
G01 X6.0913 Y19.8559 
G01 X6.1985 Y19.6954 
G01 X6.3350 Y19.5589 
G01 X6.4955 Y19.4517 
G01 X6.6738 Y19.3779 
G01 X6.8631 Y19.3402 
G00 Z2.5400 
G00 X16.3294 Y4.4379 
G01 Z-0.1500 F254.00 
G01 X16.3294 Y4.6818 F508.00 
G01 X16.3361 Y4.6919 
G01 X16.3979 Y4.8410 
G01 X16.4294 Y4.9993 
G01 X16.4294 Y5.1607 
G01 X16.3979 Y5.3190 
G01 X16.3361 Y5.4681 
G01 X16.3294 Y5.4782 
G01 X16.3294 Y5.7221 
G01 X16.3076 Y5.8033 
G01 X16.2656 Y5.8761 
G01 X16.2061 Y5.9356 
G01 X16.1333 Y5.9776 
G01 X16.0521 Y5.9994 
G01 X15.1679 Y5.9994 
G01 X15.0867 Y5.9776 
G01 X15.0139 Y5.9356 
G01 X14.9777 Y5.8994 
G01 X12.0423 Y5.8994 
G01 X12.0061 Y5.9356 
G01 X11.9333 Y5.9776 
G01 X11.8521 Y5.9994 
G01 X10.5679 Y5.9994 
G01 X10.4867 Y5.9776 
G01 X10.4139 Y5.9356 
G01 X10.3544 Y5.8761 
G01 X10.3124 Y5.8033 
G01 X10.2906 Y5.7221 
G01 X10.2906 Y4.4379 
G01 X10.3124 Y4.3567 
G01 X10.3544 Y4.2839 
G01 X10.4139 Y4.2244 
G01 X10.4867 Y4.1824 
G01 X10.5679 Y4.1606 
G01 X11.8521 Y4.1606 
G01 X11.9333 Y4.1824 
G01 X12.0061 Y4.2244 
G01 X12.0423 Y4.2606 
G01 X14.9777 Y4.2606 
G01 X15.0139 Y4.2244 
G01 X15.0867 Y4.1824 
G01 X15.1679 Y4.1606 
G01 X16.0521 Y4.1606 
G01 X16.1333 Y4.1824 
G01 X16.2061 Y4.2244 
G01 X16.2656 Y4.2839 
G01 X16.3076 Y4.3567 
G01 X16.3294 Y4.4379 
G00 Z2.5400 
G00 X9.7521 Y5.9994 
G01 Z-0.1500 F254.00 
G01 X9.1294 Y5.9994 F508.00 
G01 X8.4394 Y6.6894 
G01 X8.4394 Y9.1926 
G01 X8.5662 Y9.2179 
G01 X8.7445 Y9.2917 
G01 X8.9050 Y9.3989 
G01 X9.0415 Y9.5354 
G01 X9.1487 Y9.6959 
G01 X9.2225 Y9.8742 
G01 X9.2602 Y10.0635 
G01 X9.2602 Y10.2565 
G01 X9.2225 Y10.4458 
G01 X9.1487 Y10.6241 
G01 X9.0415 Y10.7846 
G01 X8.9050 Y10.9211 
G01 X8.7445 Y11.0283 
G01 X8.5662 Y11.1021 
G01 X8.3769 Y11.1398 
G01 X6.8631 Y11.1398 
G01 X6.6738 Y11.1021 
G01 X6.4955 Y11.0283 
G01 X6.3350 Y10.9211 
G01 X6.1985 Y10.7846 
G01 X6.0913 Y10.6241 
G01 X6.0175 Y10.4458 
G01 X5.9798 Y10.2565 
G01 X5.9798 Y10.0635 
G01 X6.0175 Y9.8742 
G01 X6.0913 Y9.6959 
G01 X6.1985 Y9.5354 
G01 X6.3350 Y9.3989 
G01 X6.4955 Y9.2917 
G01 X6.6738 Y9.2179 
G01 X6.8006 Y9.1926 
G01 X6.8006 Y6.2693 
G01 X6.8321 Y6.1110 
G01 X6.8939 Y5.9619 
G01 X6.9835 Y5.8277 
G01 X7.0977 Y5.7135 
G01 X8.1906 Y4.6206 
G01 X8.1906 Y4.4379 
G01 X8.2124 Y4.3567 
G01 X8.2544 Y4.2839 
G01 X8.3139 Y4.2244 
G01 X8.3867 Y4.1824 
G01 X8.4679 Y4.1606 
G01 X9.7521 Y4.1606 
G01 X9.8333 Y4.1824 
G01 X9.9061 Y4.2244 
G01 X9.9656 Y4.2839 
G01 X10.0076 Y4.3567 
G01 X10.0294 Y4.4379 
G01 X10.0294 Y5.7221 
G01 X10.0076 Y5.8033 
G01 X9.9656 Y5.8761 
G01 X9.9061 Y5.9356 
G01 X9.8333 Y5.9776 
G01 X9.7521 Y5.9994 
G00 Z2.5400 
G00 X21.5364 Y28.3697 
G01 Z-0.1500 F254.00 
G01 X21.5364 Y28.5988 F508.00 
G01 X21.5060 Y28.7123 
G01 X21.4472 Y28.8141 
G01 X21.3641 Y28.8972 
G01 X21.2623 Y28.9560 
G01 X21.1488 Y28.9864 
G01 X20.2312 Y28.9864 
G01 X20.1177 Y28.9560 
G01 X20.0159 Y28.8972 
G01 X20.0051 Y28.8864 
G01 X19.1842 Y28.8864 
G01 X19.1440 Y28.8944 
G01 X18.9560 Y28.8944 
G01 X18.9158 Y28.8864 
G01 X16.8249 Y28.8864 
G01 X16.8141 Y28.8972 
G01 X16.7123 Y28.9560 
G01 X16.5988 Y28.9864 
G01 X15.6812 Y28.9864 
G01 X15.5677 Y28.9560 
G01 X15.4659 Y28.8972 
G01 X15.3828 Y28.8141 
G01 X15.3240 Y28.7123 
G01 X15.2936 Y28.5988 
G01 X15.2936 Y28.3697 
G01 X15.2400 Y28.2403 
G01 X15.1864 Y28.3697 
G01 X15.1864 Y28.5988 
G01 X15.1560 Y28.7123 
G01 X15.0972 Y28.8141 
G01 X15.0141 Y28.8972 
G01 X14.9123 Y28.9560 
G01 X14.7988 Y28.9864 
G01 X13.8812 Y28.9864 
G01 X13.7905 Y28.9621 
G01 X14.3620 Y29.5336 
G01 X21.9136 Y29.5336 
G01 X21.9136 Y28.9536 
G01 X21.8159 Y28.8972 
G01 X21.7328 Y28.8141 
G01 X21.6740 Y28.7123 
G01 X21.6436 Y28.5988 
G01 X21.6436 Y28.3697 
G01 X21.5900 Y28.2403 
G01 X21.5364 Y28.3697 
G00 Z2.5400 
G00 X17.6577 Y16.5136 
G01 Z-0.1500 F254.00 
G01 X17.7152 Y16.5136 F508.00 
G01 X17.7080 Y16.5064 
G01 X17.6577 Y16.5064 
G01 X17.6220 Y16.5100 
G01 X17.6577 Y16.5136 
G00 Z2.5400 
G00 X16.8512 Y16.5064 
G01 Z-0.1500 F254.00 
G01 X16.7377 Y16.4760 F508.00 
G01 X16.6359 Y16.4172 
G01 X16.5564 Y16.3377 
G01 X16.5564 Y16.6823 
G01 X16.6359 Y16.6028 
G01 X16.7377 Y16.5440 
G01 X16.8512 Y16.5136 
G01 X17.5647 Y16.5136 
G01 X17.6023 Y16.5100 
G01 X17.5647 Y16.5064 
G01 X16.8512 Y16.5064 
G00 Z2.5400 
G00 X20.6436 Y14.3620 
G01 Z-0.1500 F254.00 
G01 X19.9638 Y13.6823 F508.00 
G01 X19.9677 Y13.6916 
G01 X20.0044 Y13.8760 
G01 X20.0044 Y14.0640 
G01 X19.9677 Y14.2484 
G01 X19.8958 Y14.4221 
G01 X19.7913 Y14.5784 
G01 X19.6584 Y14.7113 
G01 X19.6243 Y14.7341 
G01 X19.1184 Y15.2400 
G01 X20.6436 Y16.7652 
G01 X20.6436 Y14.3620 
G00 Z2.5400 
G00 X30.4565 Y19.8037 
G01 Z-0.1500 F254.00 
G01 X30.4565 Y20.8363 F508.00 
G01 X30.1564 Y21.1364 
G01 X30.1564 Y26.9936 
G01 X32.7051 Y26.9936 
G01 X32.7159 Y26.9828 
G01 X32.8177 Y26.9240 
G01 X32.9312 Y26.8936 
G01 X33.3695 Y26.8936 
G01 X33.3436 Y26.7632 
G01 X33.3436 Y20.7120 
G01 X32.9965 Y20.3649 
G01 X32.9965 Y20.8363 
G01 X32.2663 Y21.5665 
G01 X31.2337 Y21.5665 
G01 X30.5035 Y20.8363 
G01 X30.5035 Y19.8037 
G01 X31.2337 Y19.0735 
G01 X31.7051 Y19.0735 
G01 X31.3580 Y18.7264 
G01 X25.0764 Y18.7264 
G01 X25.0764 Y19.5036 
G01 X25.3765 Y19.8037 
G01 X25.3765 Y20.8363 
G01 X24.6463 Y21.5665 
G01 X23.6137 Y21.5665 
G01 X22.8835 Y20.8363 
G01 X22.8835 Y20.4119 
G01 X21.2664 Y18.7948 
G01 X21.2664 Y21.6832 
G01 X21.2300 Y21.8661 
G01 X21.1587 Y22.0383 
G01 X21.0551 Y22.1933 
G01 X20.9233 Y22.3251 
G01 X16.3548 Y26.8936 
G01 X16.5988 Y26.8936 
G01 X16.7123 Y26.9240 
G01 X16.8141 Y26.9828 
G01 X16.8249 Y26.9936 
G01 X18.9158 Y26.9936 
G01 X18.9560 Y26.9856 
G01 X19.1440 Y26.9856 
G01 X19.1842 Y26.9936 
G01 X20.0051 Y26.9936 
G01 X20.0159 Y26.9828 
G01 X20.1177 Y26.9240 
G01 X20.2312 Y26.8936 
G01 X21.1488 Y26.8936 
G01 X21.2623 Y26.9240 
G01 X21.3641 Y26.9828 
G01 X21.4472 Y27.0659 
G01 X21.5060 Y27.1677 
G01 X21.5364 Y27.2812 
G01 X21.5364 Y27.5103 
G01 X21.5900 Y27.6397 
G01 X21.6436 Y27.5103 
G01 X21.6436 Y27.2812 
G01 X21.6740 Y27.1677 
G01 X21.7328 Y27.0659 
G01 X21.8159 Y26.9828 
G01 X21.9177 Y26.9240 
G01 X22.0312 Y26.8936 
G01 X22.9488 Y26.8936 
G01 X23.0623 Y26.9240 
G01 X23.1641 Y26.9828 
G01 X23.1749 Y26.9936 
G01 X25.7236 Y26.9936 
G01 X25.7236 Y21.1364 
G01 X25.4235 Y20.8363 
G01 X25.4235 Y19.8037 
G01 X26.1537 Y19.0735 
G01 X27.1863 Y19.0735 
G01 X27.9165 Y19.8037 
G01 X27.9165 Y20.8363 
G01 X27.6164 Y21.1364 
G01 X27.6164 Y26.9264 
G01 X27.7141 Y26.9828 
G01 X27.7972 Y27.0659 
G01 X27.8560 Y27.1677 
G01 X27.8864 Y27.2812 
G01 X27.8864 Y27.5103 
G01 X27.9400 Y27.6397 
G01 X27.9936 Y27.5103 
G01 X27.9936 Y27.2812 
G01 X28.0240 Y27.1677 
G01 X28.0828 Y27.0659 
G01 X28.1659 Y26.9828 
G01 X28.2636 Y26.9264 
G01 X28.2636 Y21.1364 
G01 X27.9635 Y20.8363 
G01 X27.9635 Y19.8037 
G01 X28.6937 Y19.0735 
G01 X29.7263 Y19.0735 
G01 X30.4565 Y19.8037 
G00 Z2.5400 
G00 X23.1836 Y6.7420 
G01 Z-0.1500 F254.00 
G01 X22.5680 Y6.1264 F508.00 
G01 X22.0312 Y6.1264 
G01 X21.9177 Y6.0960 
G01 X21.8159 Y6.0372 
G01 X21.7328 Y5.9541 
G01 X21.6740 Y5.8523 
G01 X21.6436 Y5.7388 
G01 X21.6436 Y5.5097 
G01 X21.5900 Y5.3803 
G01 X21.5364 Y5.5097 
G01 X21.5364 Y5.7388 
G01 X21.5060 Y5.8523 
G01 X21.4472 Y5.9541 
G01 X21.3641 Y6.0372 
G01 X21.2623 Y6.0960 
G01 X21.1488 Y6.1264 
G01 X20.2312 Y6.1264 
G01 X20.1177 Y6.0960 
G01 X20.0159 Y6.0372 
G01 X20.0051 Y6.0264 
G01 X18.7264 Y6.0264 
G01 X18.7264 Y9.7680 
G01 X19.4062 Y10.4477 
G01 X19.4023 Y10.4384 
G01 X19.3656 Y10.2540 
G01 X19.3656 Y10.0660 
G01 X19.4023 Y9.8816 
G01 X19.4742 Y9.7079 
G01 X19.5787 Y9.5516 
G01 X19.7116 Y9.4187 
G01 X19.8679 Y9.3142 
G01 X20.0416 Y9.2423 
G01 X20.2260 Y9.2056 
G01 X20.4140 Y9.2056 
G01 X20.4542 Y9.2136 
G01 X23.1836 Y9.2136 
G01 X23.1836 Y6.7420 
G00 Z2.5400 
G00 X18.7264 Y12.4448 
G01 Z-0.1500 F254.00 
G01 X18.7264 Y12.7932 F508.00 
G01 X18.6900 Y12.9761 
G01 X18.6350 Y13.1089 
G01 X18.7716 Y13.0523 
G01 X18.9560 Y13.0156 
G01 X19.1440 Y13.0156 
G01 X19.3284 Y13.0523 
G01 X19.3377 Y13.0562 
G01 X18.7264 Y12.4448 
G00 Z2.5400 
G00 X2.6294 Y18.4089 
G01 Z-0.1500 F254.00 
G01 X2.6294 Y18.4484 F508.00 
G01 X2.6689 Y18.4484 
G01 X2.6689 Y18.4089 
G01 X2.6294 Y18.4089 
G00 Z2.5400 
G00 X3.8026 Y14.6317 
G01 Z-0.1500 F254.00 
G01 X3.9355 Y14.6673 F508.00 
G01 X4.0547 Y14.7361 
G01 X4.1520 Y14.8334 
G01 X4.2208 Y14.9526 
G01 X4.2564 Y15.0855 
G01 X4.2564 Y15.2231 
G01 X4.2208 Y15.3560 
G01 X4.1520 Y15.4752 
G01 X4.0547 Y15.5725 
G01 X3.9355 Y15.6413 
G01 X3.8026 Y15.6769 
G01 X2.6294 Y15.6769 
G01 X2.6294 Y15.7654 
G01 X2.5938 Y15.8984 
G01 X2.5250 Y16.0175 
G01 X2.4277 Y16.1148 
G01 X2.3085 Y16.1836 
G01 X2.1756 Y16.2192 
G01 X2.0380 Y16.2192 
G01 X1.9051 Y16.1836 
G01 X1.7859 Y16.1148 
G01 X1.6886 Y16.0175 
G01 X1.6198 Y15.8984 
G01 X1.5842 Y15.7654 
G01 X1.5842 Y14.5432 
G01 X1.6198 Y14.4103 
G01 X1.6886 Y14.2911 
G01 X1.7859 Y14.1938 
G01 X1.9051 Y14.1250 
G01 X2.0380 Y14.0894 
G01 X2.1756 Y14.0894 
G01 X2.3085 Y14.1250 
G01 X2.4277 Y14.1938 
G01 X2.5250 Y14.2911 
G01 X2.5938 Y14.4103 
G01 X2.6294 Y14.5432 
G01 X2.6294 Y14.6317 
G01 X3.8026 Y14.6317 
G00 Z2.5400 
G00 X1.6198 Y10.9869 
G01 Z-0.1500 F254.00 
G01 X1.5842 Y10.8540 F508.00 
G01 X1.5842 Y9.6317 
G01 X1.6198 Y9.4988 
G01 X1.6886 Y9.3796 
G01 X1.7859 Y9.2823 
G01 X1.9051 Y9.2135 
G01 X2.0380 Y9.1779 
G01 X2.9046 Y9.1779 
G01 X2.9577 Y9.1747 
G01 X2.9732 Y9.1779 
G01 X2.9891 Y9.1779 
G01 X3.0404 Y9.1917 
G01 X3.0925 Y9.2023 
G01 X3.1067 Y9.2094 
G01 X3.1220 Y9.2135 
G01 X3.1680 Y9.2401 
G01 X3.1932 Y9.2527 
G01 X3.2609 Y9.2135 
G01 X3.3938 Y9.1779 
G01 X3.5314 Y9.1779 
G01 X3.6644 Y9.2135 
G01 X3.7835 Y9.2823 
G01 X4.1520 Y9.6508 
G01 X4.2208 Y9.7700 
G01 X4.2564 Y9.9029 
G01 X4.2564 Y10.5828 
G01 X4.2464 Y10.6199 
G01 X4.2208 Y10.7157 
G01 X4.1520 Y10.8349 
G01 X4.1491 Y10.8378 
G01 X3.7899 Y11.1970 
G01 X4.0547 Y11.4618 
G01 X4.1520 Y11.5591 
G01 X4.2208 Y11.6783 
G01 X4.2564 Y11.8112 
G01 X4.2564 Y11.9488 
G01 X4.2208 Y12.0817 
G01 X4.1520 Y12.2009 
G01 X3.5124 Y12.8405 
G01 X3.3958 Y12.9078 
G01 X3.3932 Y12.9093 
G01 X3.3875 Y12.9108 
G01 X3.2603 Y12.9449 
G01 X2.0380 Y12.9449 
G01 X1.9051 Y12.9093 
G01 X1.7859 Y12.8405 
G01 X1.6886 Y12.7432 
G01 X1.6198 Y12.6240 
G01 X1.5842 Y12.4911 
G01 X1.5842 Y12.3535 
G01 X1.6198 Y12.2206 
G01 X1.6886 Y12.1014 
G01 X1.7859 Y12.0041 
G01 X1.9051 Y11.9353 
G01 X2.0380 Y11.8997 
G01 X2.9750 Y11.8997 
G01 X2.9947 Y11.8800 
G01 X2.9750 Y11.8603 
G01 X2.0380 Y11.8603 
G01 X1.9051 Y11.8247 
G01 X1.7859 Y11.7559 
G01 X1.6886 Y11.6585 
G01 X1.6198 Y11.5394 
G01 X1.5842 Y11.4065 
G01 X1.5842 Y11.2689 
G01 X1.6198 Y11.1360 
G01 X1.6629 Y11.0614 
G01 X1.6198 Y10.9869 
G00 Z2.5400 
G00 X2.5797 Y7.9978 
G01 Z-0.1500 F254.00 
G01 X2.4468 Y8.0335 F508.00 
G01 X2.3092 Y8.0335 
G01 X2.1763 Y7.9978 
G01 X2.0571 Y7.9290 
G01 X1.6915 Y7.5634 
G01 X1.6886 Y7.5606 
G01 X1.6198 Y7.4414 
G01 X1.5942 Y7.3456 
G01 X1.5842 Y7.3085 
G01 X1.5842 Y6.6286 
G01 X1.6198 Y6.4956 
G01 X1.6886 Y6.3765 
G01 X1.9598 Y6.1053 
G01 X2.0571 Y6.0080 
G01 X2.1763 Y5.9392 
G01 X2.3092 Y5.9036 
G01 X3.5314 Y5.9036 
G01 X3.6644 Y5.9392 
G01 X3.7835 Y6.0080 
G01 X4.0547 Y6.2792 
G01 X4.1520 Y6.3765 
G01 X4.2208 Y6.4956 
G01 X4.2564 Y6.6286 
G01 X4.2564 Y7.3085 
G01 X4.2473 Y7.3426 
G01 X4.2208 Y7.4414 
G01 X4.1520 Y7.5606 
G01 X3.7835 Y7.9290 
G01 X3.6644 Y7.9978 
G01 X3.5314 Y8.0335 
G01 X2.8515 Y8.0335 
G01 X2.7186 Y7.9978 
G01 X2.6491 Y7.9577 
G01 X2.5797 Y7.9978 
G00 Z2.5400 
G00 X3.8026 Y17.3637 
G01 Z-0.1500 F254.00 
G01 X3.9355 Y17.3993 F508.00 
G01 X4.0547 Y17.4681 
G01 X4.1520 Y17.5654 
G01 X4.2208 Y17.6846 
G01 X4.2564 Y17.8175 
G01 X4.2564 Y17.9551 
G01 X4.2208 Y18.0880 
G01 X4.1520 Y18.2072 
G01 X4.0547 Y18.3045 
G01 X3.9355 Y18.3733 
G01 X3.8879 Y18.3860 
G01 X4.1520 Y18.6501 
G01 X4.2208 Y18.7692 
G01 X4.2564 Y18.9022 
G01 X4.2564 Y19.0398 
G01 X4.2208 Y19.1727 
G01 X4.1520 Y19.2918 
G01 X4.0547 Y19.3891 
G01 X3.9355 Y19.4579 
G01 X3.8026 Y19.4936 
G01 X3.6650 Y19.4936 
G01 X3.5321 Y19.4579 
G01 X3.4129 Y19.3891 
G01 X3.3271 Y19.3033 
G01 X3.2412 Y19.3891 
G01 X3.1220 Y19.4579 
G01 X2.9891 Y19.4936 
G01 X2.3092 Y19.4936 
G01 X2.1763 Y19.4579 
G01 X2.0571 Y19.3891 
G01 X1.6886 Y19.0207 
G01 X1.6198 Y18.9015 
G01 X1.5934 Y18.8027 
G01 X1.5842 Y18.7686 
G01 X1.5842 Y17.8175 
G01 X1.6198 Y17.6846 
G01 X1.6886 Y17.5654 
G01 X1.7859 Y17.4681 
G01 X1.9051 Y17.3993 
G01 X2.0380 Y17.3637 
G01 X3.2603 Y17.3637 
G01 X3.8026 Y17.3637 
G00 Z2.5400 
G00 X3.8026 Y20.6380 
G01 Z-0.1500 F254.00 
G01 X3.9355 Y20.6736 F508.00 
G01 X4.0547 Y20.7424 
G01 X4.1520 Y20.8397 
G01 X4.2208 Y20.9589 
G01 X4.2564 Y21.0918 
G01 X4.2564 Y21.2294 
G01 X4.2208 Y21.3623 
G01 X4.1520 Y21.4815 
G01 X4.0547 Y21.5788 
G01 X3.9355 Y21.6476 
G01 X3.8026 Y21.6832 
G01 X3.4429 Y21.6832 
G01 X3.4429 Y21.7227 
G01 X3.8026 Y21.7227 
G01 X3.9355 Y21.7583 
G01 X4.0547 Y21.8271 
G01 X4.1520 Y21.9244 
G01 X4.2208 Y22.0435 
G01 X4.2564 Y22.1765 
G01 X4.2564 Y22.3141 
G01 X4.2208 Y22.4470 
G01 X4.1520 Y22.5661 
G01 X4.0547 Y22.6634 
G01 X3.9355 Y22.7322 
G01 X3.8026 Y22.7679 
G01 X2.5803 Y22.7679 
G01 X2.4531 Y22.7338 
G01 X2.4474 Y22.7322 
G01 X2.4448 Y22.7307 
G01 X2.3283 Y22.6634 
G01 X1.6886 Y22.0238 
G01 X1.6198 Y21.9046 
G01 X1.5842 Y21.7717 
G01 X1.5842 Y21.6341 
G01 X1.6198 Y21.5012 
G01 X1.6886 Y21.3820 
G01 X1.7859 Y21.2848 
G01 X2.3283 Y20.7424 
G01 X2.4474 Y20.6736 
G01 X2.5803 Y20.6380 
G01 X2.9891 Y20.6380 
G01 X3.8026 Y20.6380 
G00 Z2.5400 
G00 X2.0380 Y23.9123 
G01 Z-0.1500 F254.00 
G01 X3.8026 Y23.9123 F508.00 
G01 X3.9355 Y23.9479 
G01 X4.0547 Y24.0167 
G01 X4.1520 Y24.1140 
G01 X4.2208 Y24.2332 
G01 X4.2564 Y24.3661 
G01 X4.2564 Y25.3172 
G01 X4.2464 Y25.3543 
G01 X4.2208 Y25.4501 
G01 X4.1520 Y25.5693 
G01 X4.1491 Y25.5722 
G01 X3.7835 Y25.9378 
G01 X3.6644 Y26.0066 
G01 X3.5314 Y26.0422 
G01 X3.1227 Y26.0422 
G01 X2.9898 Y26.0066 
G01 X2.9203 Y25.9665 
G01 X2.8509 Y26.0066 
G01 X2.7179 Y26.0422 
G01 X2.3092 Y26.0422 
G01 X2.1763 Y26.0066 
G01 X2.0571 Y25.9378 
G01 X1.6886 Y25.5693 
G01 X1.6198 Y25.4501 
G01 X1.5934 Y25.3513 
G01 X1.5842 Y25.3172 
G01 X1.5842 Y24.3661 
G01 X1.6198 Y24.2332 
