(.../pcb-gcode-3.6.0.4/pcb-gcode.ulp)
(Copyright 2005 - 2012 by John Johnson)
(See readme.txt for licensing terms.)
(This file generated from the board:)
(.../eagle/eagle/cncWTest/modbus.brd)
(Current profile is .../pcb-gcode-3.6.0.4/profiles/emc.pp  )
(This file generated 7/3/2014 10:20:18 AM)
(Settings from pcb-machine.h)
(  Tool Size)
(0.1000 )
(Z Axis Settings)
(  High     Up        Down     Drill)
(15.0000 	2.0000 	-0.0250 	-1.5000 )
(spindle on time = 1.0000)
(milling depth = -0.0500)
(text depth = -0.0500)
(tool change at 15.0000 15.0000 15.0000 )
(feed rate xy = F508.00 )
(feed rate z  = F254.00 )
(Settings from pcb-defaults.h)
(isolate min = 0.0500)
(isolate max = 0.3000)
(isolate step = 0.1000)
(Generated top outlines, top drill, bottom outlines, bottom drill, )
(Unit of measure: mm)
(Metric Mode)
G21
(Absolute Coordinates)
G90
G00 X0.0000 Y0.0000 
M03
G04 P1.000000
G00 Z2.0000 
G00 X-6.8847 Y15.7496 
G01 Z-0.0250 F254.00 
G01 X-8.1468 Y15.7496 F508.00 
G01 X-8.7881 Y15.1084 
G01 X-8.8584 Y15.0381 
G01 X-8.9503 Y15.0000 
G01 X-22.7997 Y15.0000 
G01 X-22.8916 Y15.0381 
G01 X-23.6103 Y15.7568 
G01 X-23.7572 Y15.6099 
G01 X-24.5028 Y15.6099 
G01 X-25.0301 Y16.1372 
G01 X-25.0301 Y16.8828 
G01 X-24.5028 Y17.4101 
G01 X-23.7572 Y17.4101 
G01 X-23.2299 Y16.8828 
G01 X-23.2299 Y16.1372 
G01 X-23.2568 Y16.1103 
G01 X-22.6464 Y15.5000 
G01 X-9.1036 Y15.5000 
G01 X-8.7166 Y15.8869 
G01 X-8.7651 Y15.9194 
G01 X-8.8710 Y16.0253 
G01 X-8.9543 Y16.1498 
G01 X-9.0116 Y16.2882 
G01 X-9.0408 Y16.4351 
G01 X-9.0408 Y16.5849 
G01 X-9.0116 Y16.7318 
G01 X-8.9543 Y16.8702 
G01 X-8.8710 Y16.9947 
G01 X-8.7651 Y17.1006 
G01 X-8.6406 Y17.1839 
G01 X-8.5022 Y17.2412 
G01 X-8.3553 Y17.2704 
G01 X-6.8847 Y17.2704 
G01 X-6.7378 Y17.2412 
G01 X-6.5994 Y17.1839 
G01 X-6.4749 Y17.1006 
G01 X-6.3690 Y16.9947 
G01 X-6.2857 Y16.8702 
G01 X-6.2284 Y16.7318 
G01 X-6.1992 Y16.5849 
G01 X-6.1992 Y16.4351 
G01 X-6.2284 Y16.2882 
G01 X-6.2857 Y16.1498 
G01 X-6.3690 Y16.0253 
G01 X-6.4749 Y15.9194 
G01 X-6.5994 Y15.8361 
G01 X-6.7378 Y15.7788 
G01 X-6.8847 Y15.7496 
G00 Z2.0000 
G00 X-8.3553 Y13.2096 
G01 Z-0.0250 F254.00 
G01 X-8.5022 Y13.2388 F508.00 
G01 X-8.6406 Y13.2961 
G01 X-8.7651 Y13.3794 
G01 X-8.8710 Y13.4853 
G01 X-8.9543 Y13.6098 
G01 X-9.0116 Y13.7482 
G01 X-9.0408 Y13.8951 
G01 X-9.0408 Y14.0449 
G01 X-9.0116 Y14.1918 
G01 X-8.9543 Y14.3302 
G01 X-8.8710 Y14.4547 
G01 X-8.7651 Y14.5606 
G01 X-8.6406 Y14.6439 
G01 X-8.5022 Y14.7012 
G01 X-8.3553 Y14.7304 
G01 X-6.8847 Y14.7304 
G01 X-6.7378 Y14.7012 
G01 X-6.5994 Y14.6439 
G01 X-6.4749 Y14.5606 
G01 X-6.3690 Y14.4547 
G01 X-6.2857 Y14.3302 
G01 X-6.2284 Y14.1918 
G01 X-6.1992 Y14.0449 
G01 X-6.1992 Y13.8951 
G01 X-6.2284 Y13.7482 
G01 X-6.2857 Y13.6098 
G01 X-6.3690 Y13.4853 
G01 X-6.4749 Y13.3794 
G01 X-6.5994 Y13.2961 
G01 X-6.6653 Y13.2689 
G01 X-5.6084 Y12.2119 
G01 X-5.5381 Y12.1416 
G01 X-5.5000 Y12.0497 
G01 X-5.5000 Y9.9503 
G01 X-5.5381 Y9.8584 
G01 X-5.6084 Y9.7881 
G01 X-5.7003 Y9.7500 
G01 X-17.8964 Y9.7500 
G01 X-18.2668 Y9.3797 
G01 X-18.1499 Y9.2628 
G01 X-18.1499 Y8.5172 
G01 X-18.6772 Y7.9899 
G01 X-19.4228 Y7.9899 
G01 X-19.9501 Y8.5172 
G01 X-19.9501 Y9.2628 
G01 X-19.4228 Y9.7901 
G01 X-18.6772 Y9.7901 
G01 X-18.6203 Y9.7332 
G01 X-18.1416 Y10.2119 
G01 X-18.0497 Y10.2500 
G01 X-6.0000 Y10.2500 
G01 X-6.0000 Y11.8964 
G01 X-7.3132 Y13.2096 
G01 X-8.3553 Y13.2096 
G00 Z2.0000 
G00 X-6.8847 Y10.6696 
G01 Z-0.0250 F254.00 
G01 X-8.3553 Y10.6696 F508.00 
G01 X-8.5022 Y10.6988 
G01 X-8.6406 Y10.7561 
G01 X-8.7651 Y10.8394 
G01 X-8.8710 Y10.9453 
G01 X-8.9543 Y11.0698 
G01 X-9.0116 Y11.2082 
G01 X-9.0408 Y11.3551 
G01 X-9.0408 Y11.5049 
G01 X-9.0116 Y11.6518 
G01 X-8.9543 Y11.7902 
G01 X-8.8710 Y11.9147 
G01 X-8.7858 Y12.0000 
G01 X-23.1464 Y12.0000 
G01 X-25.8268 Y9.3197 
G01 X-25.7699 Y9.2628 
G01 X-25.7699 Y8.5172 
G01 X-26.2972 Y7.9899 
G01 X-27.0428 Y7.9899 
G01 X-27.5701 Y8.5172 
G01 X-27.5701 Y9.2628 
G01 X-27.0428 Y9.7901 
G01 X-26.2972 Y9.7901 
G01 X-26.1803 Y9.6732 
G01 X-23.3916 Y12.4619 
G01 X-23.2997 Y12.5000 
G01 X-8.4503 Y12.5000 
G01 X-8.3584 Y12.4619 
G01 X-8.2881 Y12.3916 
G01 X-8.0868 Y12.1904 
G01 X-6.8847 Y12.1904 
G01 X-6.7378 Y12.1612 
G01 X-6.5994 Y12.1039 
G01 X-6.4749 Y12.0206 
G01 X-6.3690 Y11.9147 
G01 X-6.2857 Y11.7902 
G01 X-6.2284 Y11.6518 
G01 X-6.1992 Y11.5049 
G01 X-6.1992 Y11.3551 
G01 X-6.2284 Y11.2082 
G01 X-6.2857 Y11.0698 
G01 X-6.3690 Y10.9453 
G01 X-6.4749 Y10.8394 
G01 X-6.5994 Y10.7561 
G01 X-6.7378 Y10.6988 
G01 X-6.8847 Y10.6696 
G00 Z2.0000 
G00 X-6.8847 Y8.1296 
G01 Z-0.0250 F254.00 
G01 X-8.3553 Y8.1296 F508.00 
G01 X-8.5022 Y8.1588 
G01 X-8.6406 Y8.2161 
G01 X-8.7651 Y8.2994 
G01 X-8.8710 Y8.4053 
G01 X-8.9543 Y8.5298 
G01 X-9.0116 Y8.6682 
G01 X-9.0408 Y8.8151 
G01 X-9.0408 Y8.9649 
G01 X-9.0116 Y9.1118 
G01 X-8.9543 Y9.2502 
G01 X-8.8710 Y9.3747 
G01 X-8.7651 Y9.4806 
G01 X-8.6406 Y9.5639 
G01 X-8.5022 Y9.6212 
G01 X-8.3553 Y9.6504 
G01 X-6.8847 Y9.6504 
G01 X-6.7378 Y9.6212 
G01 X-6.5994 Y9.5639 
G01 X-6.5038 Y9.5000 
G01 X-5.6036 Y9.5000 
G01 X-5.2500 Y9.8536 
G01 X-5.2500 Y17.5000 
G01 X-17.8964 Y17.5000 
G01 X-18.3318 Y17.0647 
G01 X-18.1499 Y16.8828 
G01 X-18.1499 Y16.1372 
G01 X-18.6772 Y15.6099 
G01 X-19.4228 Y15.6099 
G01 X-19.9501 Y16.1372 
G01 X-19.9501 Y16.8828 
G01 X-19.4228 Y17.4101 
G01 X-18.6935 Y17.4101 
G01 X-18.1416 Y17.9619 
G01 X-18.0497 Y18.0000 
G01 X-4.9503 Y18.0000 
G01 X-4.8584 Y17.9619 
G01 X-4.7881 Y17.8916 
G01 X-4.7500 Y17.7997 
G01 X-4.7500 Y9.7003 
G01 X-4.7881 Y9.6084 
G01 X-4.8584 Y9.5381 
G01 X-5.3584 Y9.0381 
G01 X-5.4503 Y9.0000 
G01 X-6.2062 Y9.0000 
G01 X-6.1992 Y8.9649 
G01 X-6.1992 Y8.8151 
G01 X-6.2284 Y8.6682 
G01 X-6.2857 Y8.5298 
G01 X-6.3690 Y8.4053 
G01 X-6.4749 Y8.2994 
G01 X-6.5994 Y8.2161 
G01 X-6.7378 Y8.1588 
G01 X-6.8847 Y8.1296 
G00 Z2.0000 
G00 X-6.8847 Y5.5896 
G01 Z-0.0250 F254.00 
G01 X-8.3553 Y5.5896 F508.00 
G01 X-8.5022 Y5.6188 
G01 X-8.6406 Y5.6761 
G01 X-8.7651 Y5.7594 
G01 X-8.8710 Y5.8653 
G01 X-8.9543 Y5.9898 
G01 X-9.0116 Y6.1282 
G01 X-9.0408 Y6.2751 
G01 X-9.0408 Y6.4249 
G01 X-9.0116 Y6.5718 
G01 X-8.9543 Y6.7102 
G01 X-8.8710 Y6.8347 
G01 X-8.7651 Y6.9406 
G01 X-8.6406 Y7.0239 
G01 X-8.5022 Y7.0812 
G01 X-8.3553 Y7.1104 
G01 X-6.8847 Y7.1104 
G01 X-6.7378 Y7.0812 
G01 X-6.5994 Y7.0239 
G01 X-6.4749 Y6.9406 
G01 X-6.3690 Y6.8347 
G01 X-6.2857 Y6.7102 
G01 X-6.2284 Y6.5718 
G01 X-6.1992 Y6.4249 
G01 X-6.1992 Y6.2751 
G01 X-6.2284 Y6.1282 
G01 X-6.2857 Y5.9898 
G01 X-6.3690 Y5.8653 
G01 X-6.4749 Y5.7594 
G01 X-6.5994 Y5.6761 
G01 X-6.7378 Y5.6188 
G01 X-6.8847 Y5.5896 
G00 Z2.0000 
G00 X-22.4901 Y16.1372 
G01 Z-0.0250 F254.00 
G01 X-22.4901 Y16.8828 F508.00 
G01 X-21.9628 Y17.4101 
G01 X-21.2172 Y17.4101 
G01 X-21.2053 Y17.3982 
G01 X-19.8916 Y18.7119 
G01 X-19.7997 Y18.7500 
G01 X-8.9792 Y18.7500 
G01 X-9.0116 Y18.8282 
G01 X-9.0408 Y18.9751 
G01 X-9.0408 Y19.1249 
G01 X-9.0116 Y19.2718 
G01 X-8.9543 Y19.4102 
G01 X-8.8710 Y19.5347 
G01 X-8.7651 Y19.6406 
G01 X-8.6406 Y19.7239 
G01 X-8.5022 Y19.7812 
G01 X-8.3553 Y19.8104 
G01 X-6.8847 Y19.8104 
G01 X-6.7378 Y19.7812 
G01 X-6.5994 Y19.7239 
G01 X-6.4749 Y19.6406 
G01 X-6.3690 Y19.5347 
G01 X-6.2857 Y19.4102 
G01 X-6.2284 Y19.2718 
G01 X-6.1992 Y19.1249 
G01 X-6.1992 Y18.9751 
G01 X-6.2284 Y18.8282 
G01 X-6.2857 Y18.6898 
G01 X-6.3690 Y18.5653 
G01 X-6.4749 Y18.4594 
G01 X-6.5994 Y18.3761 
G01 X-6.7378 Y18.3188 
G01 X-6.8847 Y18.2896 
G01 X-8.1068 Y18.2896 
G01 X-8.2003 Y18.2500 
G01 X-19.6464 Y18.2500 
G01 X-20.8518 Y17.0447 
G01 X-20.6899 Y16.8828 
G01 X-20.6899 Y16.1372 
G01 X-21.2172 Y15.6099 
G01 X-21.9628 Y15.6099 
G01 X-22.4901 Y16.1372 
G00 Z2.0000 
G00 X-27.5701 Y16.1372 
G01 Z-0.0250 F254.00 
G01 X-27.5701 Y16.8828 F508.00 
G01 X-27.0428 Y17.4101 
G01 X-26.2972 Y17.4101 
G01 X-25.7699 Y16.8828 
G01 X-25.7699 Y16.1372 
G01 X-26.2972 Y15.6099 
G01 X-27.0428 Y15.6099 
G01 X-27.5701 Y16.1372 
G00 Z2.0000 
G00 X-25.0301 Y8.5172 
G01 Z-0.0250 F254.00 
G01 X-25.0301 Y9.2628 F508.00 
G01 X-24.5028 Y9.7901 
G01 X-23.7572 Y9.7901 
G01 X-23.2299 Y9.2628 
G01 X-23.2299 Y8.5172 
G01 X-23.7572 Y7.9899 
G01 X-24.5028 Y7.9899 
G01 X-25.0301 Y8.5172 
G00 Z2.0000 
G00 X-22.4901 Y8.5172 
G01 Z-0.0250 F254.00 
G01 X-22.4901 Y9.2628 F508.00 
G01 X-21.9628 Y9.7901 
G01 X-21.2172 Y9.7901 
G01 X-21.1403 Y9.7132 
G01 X-19.8916 Y10.9619 
G01 X-19.7997 Y11.0000 
G01 X-13.8536 Y11.0000 
G01 X-13.8189 Y11.0347 
G01 X-13.8346 Y11.0727 
G01 X-13.8580 Y11.1901 
G01 X-13.8580 Y11.3099 
G01 X-13.8346 Y11.4273 
G01 X-13.7888 Y11.5380 
G01 X-13.7223 Y11.6376 
G01 X-13.6376 Y11.7223 
G01 X-13.5380 Y11.7888 
G01 X-13.4273 Y11.8346 
G01 X-13.3099 Y11.8580 
G01 X-13.1901 Y11.8580 
G01 X-13.0727 Y11.8346 
G01 X-12.9620 Y11.7888 
G01 X-12.8624 Y11.7223 
G01 X-12.7777 Y11.6376 
G01 X-12.7112 Y11.5380 
G01 X-12.6654 Y11.4273 
G01 X-12.6420 Y11.3099 
G01 X-12.6420 Y11.1901 
G01 X-12.6654 Y11.0727 
G01 X-12.7112 Y10.9620 
G01 X-12.7777 Y10.8624 
G01 X-12.8624 Y10.7777 
G01 X-12.9620 Y10.7112 
G01 X-13.0727 Y10.6654 
G01 X-13.1901 Y10.6420 
G01 X-13.3099 Y10.6420 
G01 X-13.4273 Y10.6654 
G01 X-13.4653 Y10.6811 
G01 X-13.5381 Y10.6084 
G01 X-13.6084 Y10.5381 
G01 X-13.7003 Y10.5000 
G01 X-19.6464 Y10.5000 
G01 X-20.7868 Y9.3597 
G01 X-20.6899 Y9.2628 
G01 X-20.6899 Y8.5172 
G01 X-21.2172 Y7.9899 
G01 X-21.9628 Y7.9899 
G01 X-22.4901 Y8.5172 
G00 Z2.0000 
G00 X-2.1200 Y24.0463 
G01 Z-0.0250 F254.00 
G01 X-2.1200 Y24.2137 F508.00 
G01 X-2.0873 Y24.3779 
G01 X-2.0233 Y24.5326 
G01 X-1.9302 Y24.6718 
G01 X-1.8118 Y24.7902 
G01 X-1.6726 Y24.8833 
G01 X-1.5179 Y24.9473 
G01 X-1.3537 Y24.9800 
G01 X-1.1863 Y24.9800 
G01 X-1.0221 Y24.9473 
G01 X-0.8674 Y24.8833 
G01 X-0.7282 Y24.7902 
G01 X-0.6098 Y24.6718 
G01 X-0.5167 Y24.5326 
G01 X-0.4527 Y24.3779 
G01 X-0.4200 Y24.2137 
G01 X-0.4200 Y24.0463 
G01 X-0.4527 Y23.8821 
G01 X-0.5167 Y23.7274 
G01 X-0.6098 Y23.5882 
G01 X-0.7282 Y23.4698 
G01 X-0.8674 Y23.3767 
G01 X-1.0221 Y23.3127 
G01 X-1.1863 Y23.2800 
G01 X-1.3537 Y23.2800 
G01 X-1.5179 Y23.3127 
G01 X-1.6726 Y23.3767 
G01 X-1.8118 Y23.4698 
G01 X-1.9302 Y23.5882 
G01 X-2.0233 Y23.7274 
G01 X-2.0873 Y23.8821 
G01 X-2.1200 Y24.0463 
G00 Z2.0000 
G00 X-30.0600 Y24.0463 
G01 Z-0.0250 F254.00 
G01 X-30.0600 Y24.2137 F508.00 
G01 X-30.0273 Y24.3779 
G01 X-29.9633 Y24.5326 
G01 X-29.8702 Y24.6718 
G01 X-29.7518 Y24.7902 
G01 X-29.6126 Y24.8833 
G01 X-29.4579 Y24.9473 
G01 X-29.2937 Y24.9800 
G01 X-29.1263 Y24.9800 
G01 X-28.9621 Y24.9473 
G01 X-28.8074 Y24.8833 
G01 X-28.6682 Y24.7902 
G01 X-28.5498 Y24.6718 
G01 X-28.4567 Y24.5326 
G01 X-28.3927 Y24.3779 
G01 X-28.3600 Y24.2137 
G01 X-28.3600 Y24.0463 
G01 X-28.3927 Y23.8821 
G01 X-28.4567 Y23.7274 
G01 X-28.5498 Y23.5882 
G01 X-28.6682 Y23.4698 
G01 X-28.8074 Y23.3767 
G01 X-28.9621 Y23.3127 
G01 X-29.1263 Y23.2800 
G01 X-29.2937 Y23.2800 
G01 X-29.4579 Y23.3127 
G01 X-29.6126 Y23.3767 
G01 X-29.7518 Y23.4698 
G01 X-29.8702 Y23.5882 
G01 X-29.9633 Y23.7274 
G01 X-30.0273 Y23.8821 
G01 X-30.0600 Y24.0463 
G00 Z2.0000 
G00 X-30.0600 Y1.1863 
G01 Z-0.0250 F254.00 
G01 X-30.0600 Y1.3537 F508.00 
G01 X-30.0273 Y1.5179 
G01 X-29.9633 Y1.6726 
G01 X-29.8702 Y1.8118 
G01 X-29.7518 Y1.9302 
G01 X-29.6126 Y2.0233 
G01 X-29.4579 Y2.0873 
G01 X-29.2937 Y2.1200 
G01 X-29.1263 Y2.1200 
G01 X-28.9621 Y2.0873 
G01 X-28.8074 Y2.0233 
G01 X-28.6682 Y1.9302 
G01 X-28.5498 Y1.8118 
G01 X-28.4567 Y1.6726 
G01 X-28.3927 Y1.5179 
G01 X-28.3600 Y1.3537 
G01 X-28.3600 Y1.1863 
G01 X-28.3927 Y1.0221 
G01 X-28.4567 Y0.8674 
G01 X-28.5498 Y0.7282 
G01 X-28.6682 Y0.6098 
G01 X-28.8074 Y0.5167 
G01 X-28.9621 Y0.4527 
G01 X-29.1263 Y0.4200 
G01 X-29.2937 Y0.4200 
G01 X-29.4579 Y0.4527 
G01 X-29.6126 Y0.5167 
G01 X-29.7518 Y0.6098 
G01 X-29.8702 Y0.7282 
G01 X-29.9633 Y0.8674 
G01 X-30.0273 Y1.0221 
G01 X-30.0600 Y1.1863 
G00 Z2.0000 
G00 X-2.1200 Y1.1863 
G01 Z-0.0250 F254.00 
G01 X-2.1200 Y1.3537 F508.00 
G01 X-2.0873 Y1.5179 
G01 X-2.0233 Y1.6726 
G01 X-1.9302 Y1.8118 
G01 X-1.8118 Y1.9302 
G01 X-1.6726 Y2.0233 
G01 X-1.5179 Y2.0873 
G01 X-1.3537 Y2.1200 
G01 X-1.1863 Y2.1200 
G01 X-1.0221 Y2.0873 
G01 X-0.8674 Y2.0233 
G01 X-0.7282 Y1.9302 
G01 X-0.6098 Y1.8118 
G01 X-0.5167 Y1.6726 
G01 X-0.4527 Y1.5179 
G01 X-0.4200 Y1.3537 
G01 X-0.4200 Y1.1863 
G01 X-0.4527 Y1.0221 
G01 X-0.5167 Y0.8674 
G01 X-0.6098 Y0.7282 
G01 X-0.7282 Y0.6098 
G01 X-0.8674 Y0.5167 
G01 X-1.0221 Y0.4527 
G01 X-1.1863 Y0.4200 
G01 X-1.3537 Y0.4200 
G01 X-1.5179 Y0.4527 
G01 X-1.6726 Y0.5167 
G01 X-1.8118 Y0.6098 
G01 X-1.9302 Y0.7282 
G01 X-2.0233 Y0.8674 
G01 X-2.0873 Y1.0221 
G01 X-2.1200 Y1.1863 
G00 Z2.0000 
G00 X-6.8749 Y5.4896 
G01 Z-0.0250 F254.00 
G01 X-8.3651 Y5.4896 F508.00 
G01 X-8.5314 Y5.5227 
G01 X-8.6880 Y5.5875 
G01 X-8.8289 Y5.6817 
G01 X-8.9487 Y5.8015 
G01 X-9.0429 Y5.9424 
G01 X-9.1077 Y6.0990 
G01 X-9.1408 Y6.2653 
G01 X-9.1408 Y6.4347 
G01 X-9.1077 Y6.6010 
G01 X-9.0429 Y6.7576 
G01 X-8.9487 Y6.8985 
G01 X-8.8289 Y7.0183 
G01 X-8.6880 Y7.1125 
G01 X-8.5314 Y7.1773 
G01 X-8.3651 Y7.2104 
G01 X-6.8749 Y7.2104 
G01 X-6.7086 Y7.1773 
G01 X-6.5520 Y7.1125 
G01 X-6.4111 Y7.0183 
G01 X-6.2913 Y6.8985 
G01 X-6.1971 Y6.7576 
G01 X-6.1323 Y6.6010 
G01 X-6.0992 Y6.4347 
G01 X-6.0992 Y6.2653 
G01 X-6.1323 Y6.0990 
G01 X-6.1971 Y5.9424 
G01 X-6.2913 Y5.8015 
G01 X-6.4111 Y5.6817 
G01 X-6.5520 Y5.5875 
G01 X-6.7086 Y5.5227 
G01 X-6.8749 Y5.4896 
G00 Z2.0000 
G00 X-22.5901 Y16.0957 
G01 Z-0.0250 F254.00 
G01 X-22.5901 Y16.9243 F508.00 
G01 X-22.0043 Y17.5101 
G01 X-21.2349 Y17.5101 
G01 X-19.9649 Y18.7801 
G01 X-19.8851 Y18.8261 
G01 X-19.7961 Y18.8500 
G01 X-9.1179 Y18.8500 
G01 X-9.1408 Y18.9653 
G01 X-9.1408 Y19.1347 
G01 X-9.1077 Y19.3010 
G01 X-9.0429 Y19.4576 
G01 X-8.9487 Y19.5985 
G01 X-8.8289 Y19.7183 
G01 X-8.6880 Y19.8125 
G01 X-8.5314 Y19.8773 
G01 X-8.3651 Y19.9104 
G01 X-6.8749 Y19.9104 
G01 X-6.7086 Y19.8773 
G01 X-6.5520 Y19.8125 
G01 X-6.4111 Y19.7183 
G01 X-6.2913 Y19.5985 
G01 X-6.1971 Y19.4576 
G01 X-6.1323 Y19.3010 
G01 X-6.0992 Y19.1347 
G01 X-6.0992 Y18.9653 
G01 X-6.1323 Y18.7990 
G01 X-6.1971 Y18.6424 
G01 X-6.2913 Y18.5015 
G01 X-6.4111 Y18.3817 
G01 X-6.5520 Y18.2875 
G01 X-6.7086 Y18.2227 
G01 X-6.8749 Y18.1896 
G01 X-8.0876 Y18.1896 
G01 X-8.1149 Y18.1739 
G01 X-8.2039 Y18.1500 
G01 X-19.6050 Y18.1500 
G01 X-20.7103 Y17.0447 
G01 X-20.5899 Y16.9243 
G01 X-20.5899 Y16.0957 
G01 X-21.0857 Y15.6000 
G01 X-19.5543 Y15.6000 
G01 X-20.0501 Y16.0957 
G01 X-20.0501 Y16.9243 
G01 X-19.4643 Y17.5101 
G01 X-18.7349 Y17.5101 
G01 X-18.2149 Y18.0301 
G01 X-18.1351 Y18.0761 
G01 X-18.0461 Y18.1000 
G01 X-4.9539 Y18.1000 
G01 X-4.8649 Y18.0761 
G01 X-4.7851 Y18.0301 
G01 X-4.7199 Y17.9649 
G01 X-4.6739 Y17.8851 
G01 X-4.6500 Y17.7961 
G01 X-4.6500 Y9.7039 
G01 X-4.6739 Y9.6149 
G01 X-4.7199 Y9.5351 
G01 X-4.7851 Y9.4699 
G01 X-5.2851 Y8.9699 
G01 X-5.3649 Y8.9239 
G01 X-5.4539 Y8.9000 
G01 X-6.0992 Y8.9000 
G01 X-6.0992 Y8.8053 
G01 X-6.1323 Y8.6390 
G01 X-6.1971 Y8.4824 
G01 X-6.2913 Y8.3415 
G01 X-6.4111 Y8.2217 
G01 X-6.5520 Y8.1275 
G01 X-6.7086 Y8.0627 
G01 X-6.8749 Y8.0296 
G01 X-8.3651 Y8.0296 
G01 X-8.5314 Y8.0627 
G01 X-8.6880 Y8.1275 
G01 X-8.8289 Y8.2217 
G01 X-8.9487 Y8.3415 
G01 X-9.0429 Y8.4824 
G01 X-9.1077 Y8.6390 
G01 X-9.1408 Y8.8053 
G01 X-9.1408 Y8.9747 
G01 X-9.1077 Y9.1410 
G01 X-9.0429 Y9.2976 
G01 X-8.9487 Y9.4385 
G01 X-8.8289 Y9.5583 
G01 X-8.6917 Y9.6500 
G01 X-17.8550 Y9.6500 
G01 X-18.1253 Y9.3797 
G01 X-18.0499 Y9.3043 
G01 X-18.0499 Y8.4757 
G01 X-18.6357 Y7.8899 
G01 X-19.4643 Y7.8899 
G01 X-20.0501 Y8.4757 
G01 X-20.0501 Y9.3043 
G01 X-19.4643 Y9.8901 
G01 X-18.6357 Y9.8901 
G01 X-18.6203 Y9.8747 
G01 X-18.2149 Y10.2801 
G01 X-18.1351 Y10.3261 
G01 X-18.0461 Y10.3500 
G01 X-6.1000 Y10.3500 
G01 X-6.1000 Y11.3413 
G01 X-6.1323 Y11.1790 
G01 X-6.1971 Y11.0224 
G01 X-6.2913 Y10.8815 
G01 X-6.4111 Y10.7617 
G01 X-6.5520 Y10.6675 
G01 X-6.7086 Y10.6027 
G01 X-6.8749 Y10.5696 
G01 X-8.3651 Y10.5696 
G01 X-8.5314 Y10.6027 
G01 X-8.6880 Y10.6675 
G01 X-8.8289 Y10.7617 
G01 X-8.9487 Y10.8815 
G01 X-9.0429 Y11.0224 
G01 X-9.1077 Y11.1790 
G01 X-9.1408 Y11.3453 
G01 X-9.1408 Y11.5147 
G01 X-9.1077 Y11.6810 
G01 X-9.0429 Y11.8376 
G01 X-9.0011 Y11.9000 
G01 X-12.9692 Y11.9000 
G01 X-12.9146 Y11.8774 
G01 X-12.7987 Y11.7999 
G01 X-12.7001 Y11.7013 
G01 X-12.6226 Y11.5854 
G01 X-12.5692 Y11.4565 
G01 X-12.5420 Y11.3197 
G01 X-12.5420 Y11.1803 
G01 X-12.5692 Y11.0435 
G01 X-12.6226 Y10.9146 
G01 X-12.7001 Y10.7987 
G01 X-12.7987 Y10.7001 
G01 X-12.9146 Y10.6226 
G01 X-13.0435 Y10.5692 
G01 X-13.1803 Y10.5420 
G01 X-13.3197 Y10.5420 
G01 X-13.4392 Y10.5658 
G01 X-13.4699 Y10.5351 
G01 X-13.5351 Y10.4699 
G01 X-13.6149 Y10.4239 
G01 X-13.7039 Y10.4000 
G01 X-19.6050 Y10.4000 
G01 X-20.6453 Y9.3597 
G01 X-20.5899 Y9.3043 
G01 X-20.5899 Y8.4757 
G01 X-21.1757 Y7.8899 
G01 X-22.0043 Y7.8899 
G01 X-22.5901 Y8.4757 
G01 X-22.5901 Y9.3043 
G01 X-22.0043 Y9.8901 
G01 X-21.1757 Y9.8901 
G01 X-21.1403 Y9.8547 
G01 X-19.9649 Y11.0301 
G01 X-19.8851 Y11.0761 
G01 X-19.7961 Y11.1000 
G01 X-13.9420 Y11.1000 
G01 X-13.9580 Y11.1803 
G01 X-13.9580 Y11.3197 
G01 X-13.9308 Y11.4565 
G01 X-13.8774 Y11.5854 
G01 X-13.7999 Y11.7013 
G01 X-13.7013 Y11.7999 
G01 X-13.5854 Y11.8774 
G01 X-13.5308 Y11.9000 
G01 X-23.1050 Y11.9000 
G01 X-25.6853 Y9.3197 
G01 X-25.6699 Y9.3043 
G01 X-25.6699 Y8.4757 
G01 X-26.2557 Y7.8899 
G01 X-27.0843 Y7.8899 
G01 X-27.6701 Y8.4757 
G01 X-27.6701 Y9.3043 
G01 X-27.0843 Y9.8901 
G01 X-26.2557 Y9.8901 
G01 X-26.1803 Y9.8147 
G01 X-23.4649 Y12.5301 
G01 X-23.3851 Y12.5761 
G01 X-23.2961 Y12.6000 
G01 X-8.4539 Y12.6000 
G01 X-8.3649 Y12.5761 
G01 X-8.2851 Y12.5301 
G01 X-8.2199 Y12.4649 
G01 X-8.0454 Y12.2904 
G01 X-6.8749 Y12.2904 
G01 X-6.7086 Y12.2573 
G01 X-6.5520 Y12.1925 
G01 X-6.4111 Y12.0983 
G01 X-6.2913 Y11.9785 
G01 X-6.1971 Y11.8376 
G01 X-6.1323 Y11.6810 
G01 X-6.1000 Y11.5187 
G01 X-6.1000 Y11.8550 
G01 X-7.3546 Y13.1096 
G01 X-8.3651 Y13.1096 
G01 X-8.5314 Y13.1427 
G01 X-8.6880 Y13.2075 
G01 X-8.8289 Y13.3017 
G01 X-8.9487 Y13.4215 
G01 X-9.0429 Y13.5624 
G01 X-9.1077 Y13.7190 
G01 X-9.1408 Y13.8853 
G01 X-9.1408 Y14.0547 
G01 X-9.1077 Y14.2210 
G01 X-9.0429 Y14.3776 
G01 X-8.9487 Y14.5185 
G01 X-8.8289 Y14.6383 
G01 X-8.6880 Y14.7325 
G01 X-8.5314 Y14.7973 
G01 X-8.3651 Y14.8304 
G01 X-6.8749 Y14.8304 
G01 X-6.7086 Y14.7973 
G01 X-6.5520 Y14.7325 
G01 X-6.4111 Y14.6383 
G01 X-6.2913 Y14.5185 
G01 X-6.1971 Y14.3776 
G01 X-6.1323 Y14.2210 
G01 X-6.0992 Y14.0547 
G01 X-6.0992 Y13.8853 
G01 X-6.1323 Y13.7190 
G01 X-6.1971 Y13.5624 
G01 X-6.2913 Y13.4215 
G01 X-6.4111 Y13.3017 
G01 X-6.4984 Y13.2434 
G01 X-5.5351 Y12.2801 
G01 X-5.4699 Y12.2149 
G01 X-5.4239 Y12.1351 
G01 X-5.4000 Y12.0461 
G01 X-5.4000 Y9.9539 
G01 X-5.4239 Y9.8649 
G01 X-5.4699 Y9.7851 
G01 X-5.5351 Y9.7199 
G01 X-5.6149 Y9.6739 
G01 X-5.7039 Y9.6500 
G01 X-6.5483 Y9.6500 
G01 X-6.4735 Y9.6000 
G01 X-5.6450 Y9.6000 
G01 X-5.3500 Y9.8950 
G01 X-5.3500 Y17.4000 
G01 X-17.8550 Y17.4000 
G01 X-18.1903 Y17.0647 
G01 X-18.0499 Y16.9243 
G01 X-18.0499 Y16.0957 
G01 X-18.5457 Y15.6000 
G01 X-9.1450 Y15.6000 
G01 X-8.8661 Y15.8789 
G01 X-8.9487 Y15.9615 
G01 X-9.0429 Y16.1024 
G01 X-9.1077 Y16.2590 
G01 X-9.1408 Y16.4253 
G01 X-9.1408 Y16.5947 
G01 X-9.1077 Y16.7610 
G01 X-9.0429 Y16.9176 
G01 X-8.9487 Y17.0585 
G01 X-8.8289 Y17.1783 
G01 X-8.6880 Y17.2725 
G01 X-8.5314 Y17.3373 
G01 X-8.3651 Y17.3704 
G01 X-6.8749 Y17.3704 
G01 X-6.7086 Y17.3373 
G01 X-6.5520 Y17.2725 
G01 X-6.4111 Y17.1783 
G01 X-6.2913 Y17.0585 
G01 X-6.1971 Y16.9176 
G01 X-6.1323 Y16.7610 
G01 X-6.0992 Y16.5947 
G01 X-6.0992 Y16.4253 
G01 X-6.1323 Y16.2590 
G01 X-6.1971 Y16.1024 
G01 X-6.2913 Y15.9615 
G01 X-6.4111 Y15.8417 
G01 X-6.5520 Y15.7475 
G01 X-6.7086 Y15.6827 
G01 X-6.8749 Y15.6496 
G01 X-8.1054 Y15.6496 
G01 X-8.7199 Y15.0351 
G01 X-8.7851 Y14.9699 
G01 X-8.8649 Y14.9239 
G01 X-8.9539 Y14.9000 
G01 X-22.7961 Y14.9000 
G01 X-22.8851 Y14.9239 
G01 X-22.9649 Y14.9699 
G01 X-23.6103 Y15.6153 
G01 X-23.7157 Y15.5099 
G01 X-24.5443 Y15.5099 
G01 X-25.1301 Y16.0957 
G01 X-25.1301 Y16.9243 
G01 X-24.5443 Y17.5101 
G01 X-23.7157 Y17.5101 
G01 X-23.1299 Y16.9243 
G01 X-23.1299 Y16.1249 
G01 X-22.6050 Y15.6000 
G01 X-22.0943 Y15.6000 
G01 X-22.5901 Y16.0957 
G00 Z2.0000 
G00 X-27.6701 Y16.0957 
G01 Z-0.0250 F254.00 
G01 X-27.6701 Y16.9243 F508.00 
G01 X-27.0843 Y17.5101 
G01 X-26.2557 Y17.5101 
G01 X-25.6699 Y16.9243 
G01 X-25.6699 Y16.0957 
G01 X-26.2557 Y15.5099 
G01 X-27.0843 Y15.5099 
G01 X-27.6701 Y16.0957 
G00 Z2.0000 
G00 X-25.1301 Y8.4757 
G01 Z-0.0250 F254.00 
G01 X-25.1301 Y9.3043 F508.00 
G01 X-24.5443 Y9.8901 
G01 X-23.7157 Y9.8901 
G01 X-23.1299 Y9.3043 
G01 X-23.1299 Y8.4757 
G01 X-23.7157 Y7.8899 
G01 X-24.5443 Y7.8899 
G01 X-25.1301 Y8.4757 
G00 Z2.0000 
G00 X-2.2200 Y24.0364 
G01 Z-0.0250 F254.00 
G01 X-2.2200 Y24.2236 F508.00 
G01 X-2.1835 Y24.4071 
G01 X-2.1119 Y24.5800 
G01 X-2.0079 Y24.7356 
G01 X-1.8756 Y24.8679 
G01 X-1.7200 Y24.9719 
G01 X-1.5471 Y25.0435 
G01 X-1.3636 Y25.0800 
G01 X-1.1764 Y25.0800 
G01 X-0.9929 Y25.0435 
G01 X-0.8200 Y24.9719 
G01 X-0.6644 Y24.8679 
G01 X-0.5321 Y24.7356 
G01 X-0.4281 Y24.5800 
G01 X-0.3565 Y24.4071 
G01 X-0.3200 Y24.2236 
G01 X-0.3200 Y24.0364 
G01 X-0.3565 Y23.8529 
G01 X-0.4281 Y23.6800 
G01 X-0.5321 Y23.5244 
G01 X-0.6644 Y23.3921 
G01 X-0.8200 Y23.2881 
G01 X-0.9929 Y23.2165 
G01 X-1.1764 Y23.1800 
G01 X-1.3636 Y23.1800 
G01 X-1.5471 Y23.2165 
G01 X-1.7200 Y23.2881 
G01 X-1.8756 Y23.3921 
G01 X-2.0079 Y23.5244 
G01 X-2.1119 Y23.6800 
G01 X-2.1835 Y23.8529 
G01 X-2.2200 Y24.0364 
G00 Z2.0000 
G00 X-30.1600 Y24.0364 
G01 Z-0.0250 F254.00 
G01 X-30.1600 Y24.2236 F508.00 
G01 X-30.1235 Y24.4071 
G01 X-30.0519 Y24.5800 
G01 X-29.9479 Y24.7356 
G01 X-29.8156 Y24.8679 
G01 X-29.6600 Y24.9719 
G01 X-29.4871 Y25.0435 
G01 X-29.3036 Y25.0800 
G01 X-29.1164 Y25.0800 
G01 X-28.9329 Y25.0435 
G01 X-28.7600 Y24.9719 
G01 X-28.6044 Y24.8679 
G01 X-28.4721 Y24.7356 
G01 X-28.3681 Y24.5800 
G01 X-28.2965 Y24.4071 
G01 X-28.2600 Y24.2236 
G01 X-28.2600 Y24.0364 
G01 X-28.2965 Y23.8529 
G01 X-28.3681 Y23.6800 
G01 X-28.4721 Y23.5244 
G01 X-28.6044 Y23.3921 
G01 X-28.7600 Y23.2881 
G01 X-28.9329 Y23.2165 
G01 X-29.1164 Y23.1800 
G01 X-29.3036 Y23.1800 
G01 X-29.4871 Y23.2165 
G01 X-29.6600 Y23.2881 
G01 X-29.8156 Y23.3921 
G01 X-29.9479 Y23.5244 
G01 X-30.0519 Y23.6800 
G01 X-30.1235 Y23.8529 
G01 X-30.1600 Y24.0364 
G00 Z2.0000 
G00 X-30.1600 Y1.1764 
G01 Z-0.0250 F254.00 
G01 X-30.1600 Y1.3636 F508.00 
G01 X-30.1235 Y1.5471 
G01 X-30.0519 Y1.7200 
G01 X-29.9479 Y1.8756 
G01 X-29.8156 Y2.0079 
G01 X-29.6600 Y2.1119 
G01 X-29.4871 Y2.1835 
G01 X-29.3036 Y2.2200 
G01 X-29.1164 Y2.2200 
G01 X-28.9329 Y2.1835 
G01 X-28.7600 Y2.1119 
G01 X-28.6044 Y2.0079 
G01 X-28.4721 Y1.8756 
G01 X-28.3681 Y1.7200 
G01 X-28.2965 Y1.5471 
G01 X-28.2600 Y1.3636 
G01 X-28.2600 Y1.1764 
G01 X-28.2965 Y0.9929 
G01 X-28.3681 Y0.8200 
G01 X-28.4721 Y0.6644 
G01 X-28.6044 Y0.5321 
G01 X-28.7600 Y0.4281 
G01 X-28.9329 Y0.3565 
G01 X-29.1164 Y0.3200 
G01 X-29.3036 Y0.3200 
G01 X-29.4871 Y0.3565 
G01 X-29.6600 Y0.4281 
G01 X-29.8156 Y0.5321 
G01 X-29.9479 Y0.6644 
G01 X-30.0519 Y0.8200 
G01 X-30.1235 Y0.9929 
G01 X-30.1600 Y1.1764 
G00 Z2.0000 
G00 X-2.2200 Y1.1764 
G01 Z-0.0250 F254.00 
G01 X-2.2200 Y1.3636 F508.00 
G01 X-2.1835 Y1.5471 
G01 X-2.1119 Y1.7200 
G01 X-2.0079 Y1.8756 
G01 X-1.8756 Y2.0079 
G01 X-1.7200 Y2.1119 
G01 X-1.5471 Y2.1835 
G01 X-1.3636 Y2.2200 
G01 X-1.1764 Y2.2200 
G01 X-0.9929 Y2.1835 
G01 X-0.8200 Y2.1119 
G01 X-0.6644 Y2.0079 
G01 X-0.5321 Y1.8756 
G01 X-0.4281 Y1.7200 
G01 X-0.3565 Y1.5471 
G01 X-0.3200 Y1.3636 
G01 X-0.3200 Y1.1764 
G01 X-0.3565 Y0.9929 
G01 X-0.4281 Y0.8200 
G01 X-0.5321 Y0.6644 
G01 X-0.6644 Y0.5321 
G01 X-0.8200 Y0.4281 
G01 X-0.9929 Y0.3565 
G01 X-1.1764 Y0.3200 
G01 X-1.3636 Y0.3200 
G01 X-1.5471 Y0.3565 
G01 X-1.7200 Y0.4281 
G01 X-1.8756 Y0.5321 
G01 X-2.0079 Y0.6644 
G01 X-2.1119 Y0.8200 
G01 X-2.1835 Y0.9929 
G01 X-2.2200 Y1.1764 
G00 Z2.0000 
G00 X-6.2000 Y10.8382 
G01 Z-0.0250 F254.00 
G01 X-6.2136 Y10.8178 F508.00 
G01 X-6.3474 Y10.6840 
G01 X-6.5047 Y10.5789 
G01 X-6.6795 Y10.5065 
G01 X-6.8650 Y10.4696 
G01 X-8.3750 Y10.4696 
G01 X-8.5605 Y10.5065 
G01 X-8.7353 Y10.5789 
G01 X-8.8926 Y10.6840 
G01 X-9.0264 Y10.8178 
G01 X-9.1315 Y10.9751 
G01 X-9.2039 Y11.1499 
G01 X-9.2408 Y11.3354 
G01 X-9.2408 Y11.5246 
G01 X-9.2039 Y11.7101 
G01 X-9.1667 Y11.8000 
G01 X-12.6573 Y11.8000 
G01 X-12.6224 Y11.7651 
G01 X-12.5340 Y11.6327 
G01 X-12.4731 Y11.4857 
G01 X-12.4420 Y11.3296 
G01 X-12.4420 Y11.1704 
G01 X-12.4731 Y11.0143 
G01 X-12.5340 Y10.8673 
G01 X-12.6224 Y10.7349 
G01 X-12.7349 Y10.6224 
G01 X-12.8673 Y10.5340 
G01 X-13.0143 Y10.4731 
G01 X-13.1302 Y10.4500 
G01 X-6.2000 Y10.4500 
G01 X-6.2000 Y10.8382 
G00 Z2.0000 
G00 X-13.4063 Y10.4573 
G01 Z-0.0250 F254.00 
G01 X-13.4136 Y10.4500 F508.00 
G01 X-13.3698 Y10.4500 
G01 X-13.4063 Y10.4573 
G00 Z2.0000 
G00 X-9.0075 Y15.8789 
G01 Z-0.0250 F254.00 
G01 X-9.0264 Y15.8978 F508.00 
G01 X-9.1315 Y16.0551 
G01 X-9.2039 Y16.2299 
G01 X-9.2408 Y16.4154 
G01 X-9.2408 Y16.6046 
G01 X-9.2039 Y16.7901 
G01 X-9.1315 Y16.9649 
G01 X-9.0264 Y17.1222 
G01 X-8.8926 Y17.2560 
G01 X-8.8267 Y17.3000 
G01 X-17.8136 Y17.3000 
G01 X-18.0489 Y17.0647 
G01 X-17.9499 Y16.9657 
G01 X-17.9499 Y16.0543 
G01 X-18.3042 Y15.7000 
G01 X-9.1864 Y15.7000 
G01 X-9.0075 Y15.8789 
G00 Z2.0000 
G00 X-20.1501 Y16.0543 
G01 Z-0.0250 F254.00 
G01 X-20.1501 Y16.9657 F508.00 
G01 X-19.5057 Y17.6101 
G01 X-18.7763 Y17.6101 
G01 X-18.3364 Y18.0500 
G01 X-19.5636 Y18.0500 
G01 X-20.5689 Y17.0447 
G01 X-20.4899 Y16.9657 
G01 X-20.4899 Y16.0543 
G01 X-20.8442 Y15.7000 
G01 X-19.7958 Y15.7000 
G01 X-20.1501 Y16.0543 
G00 Z2.0000 
G00 X-25.2301 Y8.4343 
G01 Z-0.0250 F254.00 
G01 X-25.2301 Y9.3457 F508.00 
G01 X-24.5857 Y9.9901 
G01 X-23.6743 Y9.9901 
G01 X-23.0299 Y9.3457 
G01 X-23.0299 Y8.4343 
G01 X-23.6743 Y7.7899 
G01 X-24.5857 Y7.7899 
G01 X-25.2301 Y8.4343 
G00 Z2.0000 
G00 X-27.7701 Y16.0543 
G01 Z-0.0250 F254.00 
G01 X-27.7701 Y16.9657 F508.00 
G01 X-27.1257 Y17.6101 
G01 X-26.2143 Y17.6101 
G01 X-25.5699 Y16.9657 
G01 X-25.5699 Y16.0543 
G01 X-26.2143 Y15.4099 
G01 X-27.1257 Y15.4099 
G01 X-27.7701 Y16.0543 
G00 Z2.0000 
G00 X-6.8650 Y5.3896 
G01 Z-0.0250 F254.00 
G01 X-8.3750 Y5.3896 F508.00 
G01 X-8.5605 Y5.4265 
G01 X-8.7353 Y5.4989 
G01 X-8.8926 Y5.6040 
G01 X-9.0264 Y5.7378 
G01 X-9.1315 Y5.8951 
G01 X-9.2039 Y6.0699 
G01 X-9.2408 Y6.2554 
G01 X-9.2408 Y6.4446 
G01 X-9.2039 Y6.6301 
G01 X-9.1315 Y6.8049 
G01 X-9.0264 Y6.9622 
G01 X-8.8926 Y7.0960 
G01 X-8.7353 Y7.2011 
G01 X-8.5605 Y7.2735 
G01 X-8.3750 Y7.3104 
G01 X-6.8650 Y7.3104 
G01 X-6.6795 Y7.2735 
G01 X-6.5047 Y7.2011 
G01 X-6.3474 Y7.0960 
G01 X-6.2136 Y6.9622 
G01 X-6.1085 Y6.8049 
G01 X-6.0361 Y6.6301 
G01 X-5.9992 Y6.4446 
G01 X-5.9992 Y6.2554 
G01 X-6.0361 Y6.0699 
G01 X-6.1085 Y5.8951 
G01 X-6.2136 Y5.7378 
G01 X-6.3474 Y5.6040 
G01 X-6.5047 Y5.4989 
G01 X-6.6795 Y5.4265 
G01 X-6.8650 Y5.3896 
G00 Z2.0000 
G00 X-8.3750 Y13.0096 
G01 Z-0.0250 F254.00 
G01 X-8.5605 Y13.0465 F508.00 
G01 X-8.7353 Y13.1189 
G01 X-8.8926 Y13.2240 
G01 X-9.0264 Y13.3578 
G01 X-9.1315 Y13.5151 
G01 X-9.2039 Y13.6899 
G01 X-9.2408 Y13.8754 
G01 X-9.2408 Y14.0646 
G01 X-9.2039 Y14.2501 
G01 X-9.1315 Y14.4249 
G01 X-9.0264 Y14.5822 
G01 X-8.8926 Y14.7160 
G01 X-8.7353 Y14.8211 
G01 X-8.5605 Y14.8935 
G01 X-8.3750 Y14.9304 
G01 X-6.8650 Y14.9304 
G01 X-6.6795 Y14.8935 
G01 X-6.5047 Y14.8211 
G01 X-6.3474 Y14.7160 
G01 X-6.2136 Y14.5822 
G01 X-6.1085 Y14.4249 
G01 X-6.0361 Y14.2501 
G01 X-5.9992 Y14.0646 
G01 X-5.9992 Y13.8754 
G01 X-6.0361 Y13.6899 
G01 X-6.1085 Y13.5151 
G01 X-6.2136 Y13.3578 
G01 X-6.3425 Y13.2289 
G01 X-5.4737 Y12.3601 
G01 X-5.4500 Y12.3364 
G01 X-5.4500 Y17.3000 
G01 X-6.4133 Y17.3000 
G01 X-6.3474 Y17.2560 
G01 X-6.2136 Y17.1222 
G01 X-6.1085 Y16.9649 
G01 X-6.0361 Y16.7901 
G01 X-5.9992 Y16.6046 
G01 X-5.9992 Y16.4154 
G01 X-6.0361 Y16.2299 
G01 X-6.1085 Y16.0551 
G01 X-6.2136 Y15.8978 
G01 X-6.3474 Y15.7640 
G01 X-6.5047 Y15.6589 
G01 X-6.6795 Y15.5865 
G01 X-6.8650 Y15.5496 
G01 X-8.0640 Y15.5496 
G01 X-8.6399 Y14.9737 
G01 X-8.7237 Y14.8899 
G01 X-8.8263 Y14.8307 
G01 X-8.9408 Y14.8000 
G01 X-22.8092 Y14.8000 
G01 X-22.9237 Y14.8307 
G01 X-23.0263 Y14.8899 
G01 X-23.6103 Y15.4739 
G01 X-23.6743 Y15.4099 
G01 X-24.5857 Y15.4099 
G01 X-25.2301 Y16.0543 
G01 X-25.2301 Y16.9657 
G01 X-24.5857 Y17.6101 
G01 X-23.6743 Y17.6101 
G01 X-23.0299 Y16.9657 
G01 X-23.0299 Y16.1663 
G01 X-22.5636 Y15.7000 
G01 X-22.3358 Y15.7000 
G01 X-22.6901 Y16.0543 
G01 X-22.6901 Y16.9657 
G01 X-22.0457 Y17.6101 
G01 X-21.2763 Y17.6101 
G01 X-20.0263 Y18.8601 
G01 X-19.9237 Y18.9193 
G01 X-19.8092 Y18.9500 
G01 X-9.2397 Y18.9500 
G01 X-9.2408 Y18.9554 
G01 X-9.2408 Y19.1446 
G01 X-9.2039 Y19.3301 
G01 X-9.1315 Y19.5049 
G01 X-9.0264 Y19.6622 
G01 X-8.8926 Y19.7960 
G01 X-8.7353 Y19.9011 
G01 X-8.5605 Y19.9735 
G01 X-8.3750 Y20.0104 
G01 X-6.8650 Y20.0104 
G01 X-6.6795 Y19.9735 
G01 X-6.5047 Y19.9011 
G01 X-6.3474 Y19.7960 
G01 X-6.2136 Y19.6622 
G01 X-6.1085 Y19.5049 
G01 X-6.0361 Y19.3301 
G01 X-5.9992 Y19.1446 
G01 X-5.9992 Y18.9554 
G01 X-6.0361 Y18.7699 
G01 X-6.1085 Y18.5951 
G01 X-6.2136 Y18.4378 
G01 X-6.3474 Y18.3040 
G01 X-6.5030 Y18.2000 
G01 X-4.9408 Y18.2000 
G01 X-4.8263 Y18.1693 
G01 X-4.7237 Y18.1101 
G01 X-4.6399 Y18.0263 
G01 X-4.5807 Y17.9237 
G01 X-4.5500 Y17.8092 
G01 X-4.5500 Y9.6908 
G01 X-4.5807 Y9.5763 
G01 X-4.6399 Y9.4737 
G01 X-4.7237 Y9.3899 
G01 X-5.2237 Y8.8899 
G01 X-5.3263 Y8.8307 
G01 X-5.4408 Y8.8000 
G01 X-5.9992 Y8.8000 
G01 X-5.9992 Y8.7954 
G01 X-6.0361 Y8.6099 
G01 X-6.1085 Y8.4351 
G01 X-6.2136 Y8.2778 
G01 X-6.3474 Y8.1440 
G01 X-6.5047 Y8.0389 
G01 X-6.6795 Y7.9665 
G01 X-6.8650 Y7.9296 
G01 X-8.3750 Y7.9296 
G01 X-8.5605 Y7.9665 
G01 X-8.7353 Y8.0389 
G01 X-8.8926 Y8.1440 
G01 X-9.0264 Y8.2778 
G01 X-9.1315 Y8.4351 
G01 X-9.2039 Y8.6099 
G01 X-9.2408 Y8.7954 
G01 X-9.2408 Y8.9846 
G01 X-9.2039 Y9.1701 
G01 X-9.1315 Y9.3449 
G01 X-9.0264 Y9.5022 
G01 X-8.9786 Y9.5500 
G01 X-17.8136 Y9.5500 
G01 X-17.9839 Y9.3797 
G01 X-17.9499 Y9.3457 
G01 X-17.9499 Y8.4343 
G01 X-18.5943 Y7.7899 
G01 X-19.5057 Y7.7899 
G01 X-20.1501 Y8.4343 
G01 X-20.1501 Y9.3457 
G01 X-19.5057 Y9.9901 
G01 X-18.6463 Y9.9901 
G01 X-18.3364 Y10.3000 
G01 X-19.5636 Y10.3000 
G01 X-20.5039 Y9.3597 
G01 X-20.4899 Y9.3457 
G01 X-20.4899 Y8.4343 
G01 X-21.1343 Y7.7899 
G01 X-22.0457 Y7.7899 
G01 X-22.6901 Y8.4343 
G01 X-22.6901 Y9.3457 
G01 X-22.0457 Y9.9901 
G01 X-21.1463 Y9.9901 
G01 X-20.0263 Y11.1101 
G01 X-19.9237 Y11.1693 
G01 X-19.8092 Y11.2000 
G01 X-14.0580 Y11.2000 
G01 X-14.0580 Y11.3296 
G01 X-14.0269 Y11.4857 
G01 X-13.9660 Y11.6327 
G01 X-13.8776 Y11.7651 
G01 X-13.8427 Y11.8000 
G01 X-23.0636 Y11.8000 
G01 X-25.5699 Y9.2937 
G01 X-25.5699 Y8.4343 
G01 X-26.2143 Y7.7899 
G01 X-27.1257 Y7.7899 
G01 X-27.7701 Y8.4343 
G01 X-27.7701 Y9.3457 
G01 X-27.1257 Y9.9901 
G01 X-26.2143 Y9.9901 
G01 X-26.1803 Y9.9561 
G01 X-23.5263 Y12.6101 
G01 X-23.4237 Y12.6693 
G01 X-23.3092 Y12.7000 
G01 X-8.4408 Y12.7000 
G01 X-8.3263 Y12.6693 
G01 X-8.2237 Y12.6101 
G01 X-8.1399 Y12.5263 
G01 X-8.0040 Y12.3904 
G01 X-6.8650 Y12.3904 
G01 X-6.7549 Y12.3685 
G01 X-7.3960 Y13.0096 
G01 X-8.3750 Y13.0096 
G00 Z2.0000 
G00 X-30.2600 Y1.1874 
G01 Z-0.0250 F254.00 
G01 X-30.2600 Y1.3526 F508.00 
G01 X-30.2341 Y1.5159 
G01 X-30.1831 Y1.6731 
G01 X-30.1080 Y1.8203 
G01 X-30.0109 Y1.9540 
G01 X-29.8940 Y2.0709 
G01 X-29.7603 Y2.1680 
G01 X-29.6131 Y2.2431 
G01 X-29.4559 Y2.2941 
G01 X-29.2926 Y2.3200 
G01 X-29.1274 Y2.3200 
G01 X-28.9641 Y2.2941 
G01 X-28.8069 Y2.2431 
G01 X-28.6597 Y2.1680 
G01 X-28.5260 Y2.0709 
G01 X-28.4091 Y1.9540 
G01 X-28.3120 Y1.8203 
G01 X-28.2369 Y1.6731 
G01 X-28.1859 Y1.5159 
G01 X-28.1600 Y1.3526 
G01 X-28.1600 Y1.1874 
G01 X-28.1859 Y1.0241 
G01 X-28.2369 Y0.8669 
G01 X-28.3120 Y0.7197 
G01 X-28.4091 Y0.5860 
G01 X-28.5260 Y0.4691 
G01 X-28.6597 Y0.3720 
G01 X-28.8069 Y0.2969 
G01 X-28.9641 Y0.2459 
G01 X-29.1274 Y0.2200 
G01 X-29.2926 Y0.2200 
G01 X-29.4559 Y0.2459 
G01 X-29.6131 Y0.2969 
G01 X-29.7603 Y0.3720 
G01 X-29.8940 Y0.4691 
G01 X-30.0109 Y0.5860 
G01 X-30.1080 Y0.7197 
G01 X-30.1831 Y0.8669 
G01 X-30.2341 Y1.0241 
G01 X-30.2600 Y1.1874 
G00 Z2.0000 
G00 X-2.3200 Y1.1874 
G01 Z-0.0250 F254.00 
G01 X-2.3200 Y1.3526 F508.00 
G01 X-2.2941 Y1.5159 
G01 X-2.2431 Y1.6731 
G01 X-2.1680 Y1.8203 
G01 X-2.0709 Y1.9540 
G01 X-1.9540 Y2.0709 
G01 X-1.8203 Y2.1680 
G01 X-1.6731 Y2.2431 
G01 X-1.5159 Y2.2941 
G01 X-1.3526 Y2.3200 
G01 X-1.1874 Y2.3200 
G01 X-1.0241 Y2.2941 
G01 X-0.8669 Y2.2431 
G01 X-0.7197 Y2.1680 
G01 X-0.5860 Y2.0709 
G01 X-0.4691 Y1.9540 
G01 X-0.3720 Y1.8203 
G01 X-0.2969 Y1.6731 
G01 X-0.2459 Y1.5159 
G01 X-0.2200 Y1.3526 
G01 X-0.2200 Y1.1874 
G01 X-0.2459 Y1.0241 
G01 X-0.2969 Y0.8669 
G01 X-0.3720 Y0.7197 
G01 X-0.4691 Y0.5860 
G01 X-0.5860 Y0.4691 
G01 X-0.7197 Y0.3720 
G01 X-0.8669 Y0.2969 
G01 X-1.0241 Y0.2459 
G01 X-1.1874 Y0.2200 
G01 X-1.3526 Y0.2200 
G01 X-1.5159 Y0.2459 
G01 X-1.6731 Y0.2969 
G01 X-1.8203 Y0.3720 
G01 X-1.9540 Y0.4691 
G01 X-2.0709 Y0.5860 
G01 X-2.1680 Y0.7197 
G01 X-2.2431 Y0.8669 
G01 X-2.2941 Y1.0241 
G01 X-2.3200 Y1.1874 
G00 Z2.0000 
G00 X-9.1395 Y15.8883 
G01 Z-0.0250 F254.00 
G01 X-9.1873 Y15.9542 F508.00 
G01 X-9.2631 Y16.1029 
G01 X-9.3147 Y16.2617 
G01 X-9.3408 Y16.4265 
G01 X-9.3408 Y16.5935 
G01 X-9.3147 Y16.7583 
G01 X-9.2631 Y16.9170 
G01 X-9.1873 Y17.0658 
G01 X-9.0898 Y17.2000 
G01 X-17.7722 Y17.2000 
G01 X-17.9075 Y17.0647 
G01 X-17.8499 Y17.0071 
G01 X-17.8499 Y16.0129 
G01 X-18.0628 Y15.8000 
G01 X-9.2278 Y15.8000 
G01 X-9.1395 Y15.8883 
G00 Z2.0000 
G00 X-20.2501 Y16.0129 
G01 Z-0.0250 F254.00 
G01 X-20.2501 Y17.0071 F508.00 
G01 X-19.5471 Y17.7101 
G01 X-18.8177 Y17.7101 
G01 X-18.5778 Y17.9500 
G01 X-19.5222 Y17.9500 
G01 X-20.4275 Y17.0447 
G01 X-20.3899 Y17.0071 
G01 X-20.3899 Y16.0129 
G01 X-20.6028 Y15.8000 
G01 X-20.0372 Y15.8000 
G01 X-20.2501 Y16.0129 
G00 Z2.0000 
G00 X-5.5500 Y17.2000 
G01 Z-0.0250 F254.00 
G01 X-6.1502 Y17.2000 F508.00 
G01 X-6.0527 Y17.0658 
G01 X-5.9769 Y16.9170 
G01 X-5.9253 Y16.7583 
G01 X-5.8992 Y16.5935 
G01 X-5.8992 Y16.4265 
G01 X-5.9253 Y16.2617 
G01 X-5.9769 Y16.1029 
G01 X-6.0527 Y15.9542 
G01 X-6.1508 Y15.8192 
G01 X-6.2688 Y15.7012 
G01 X-6.4038 Y15.6031 
G01 X-6.5525 Y15.5273 
G01 X-6.7113 Y15.4757 
G01 X-6.8761 Y15.4496 
G01 X-8.0226 Y15.4496 
G01 X-8.4565 Y15.0157 
G01 X-8.3639 Y15.0304 
G01 X-6.8761 Y15.0304 
G01 X-6.7113 Y15.0043 
G01 X-6.5525 Y14.9527 
G01 X-6.4038 Y14.8769 
G01 X-6.2688 Y14.7788 
G01 X-6.1508 Y14.6608 
G01 X-6.0527 Y14.5258 
G01 X-5.9769 Y14.3771 
G01 X-5.9253 Y14.2183 
G01 X-5.8992 Y14.0535 
G01 X-5.8992 Y13.8865 
G01 X-5.9253 Y13.7217 
G01 X-5.9769 Y13.5629 
G01 X-6.0527 Y13.4142 
G01 X-6.1508 Y13.2792 
G01 X-6.2011 Y13.2289 
G01 X-5.5500 Y12.5778 
G01 X-5.5500 Y17.2000 
G00 Z2.0000 
G00 X-8.9712 Y10.6212 
G01 Z-0.0250 F254.00 
G01 X-9.0892 Y10.7392 F508.00 
G01 X-9.1873 Y10.8742 
G01 X-9.2631 Y11.0229 
G01 X-9.3147 Y11.1817 
G01 X-9.3408 Y11.3465 
G01 X-9.3408 Y11.5135 
G01 X-9.3147 Y11.6783 
G01 X-9.3076 Y11.7000 
G01 X-12.4586 Y11.7000 
G01 X-12.4453 Y11.6801 
G01 X-12.3769 Y11.5149 
G01 X-12.3420 Y11.3394 
G01 X-12.3420 Y11.1606 
G01 X-12.3769 Y10.9851 
G01 X-12.4453 Y10.8199 
G01 X-12.5447 Y10.6712 
G01 X-12.6659 Y10.5500 
G01 X-8.8732 Y10.5500 
G01 X-8.9712 Y10.6212 
G00 Z2.0000 
G00 X-6.3000 Y10.5985 
G01 Z-0.0250 F254.00 
G01 X-6.3668 Y10.5500 F508.00 
G01 X-6.3000 Y10.5500 
G01 X-6.3000 Y10.5985 
G00 Z2.0000 
G00 X-20.2501 Y8.3929 
G01 Z-0.0250 F254.00 
G01 X-20.2501 Y9.3871 F508.00 
G01 X-19.5471 Y10.0901 
G01 X-18.6877 Y10.0901 
G01 X-18.5778 Y10.2000 
G01 X-19.5222 Y10.2000 
G01 X-20.3899 Y9.3323 
G01 X-20.3899 Y8.3929 
G01 X-21.0929 Y7.6899 
G01 X-22.0871 Y7.6899 
G01 X-22.7901 Y8.3929 
G01 X-22.7901 Y9.3871 
G01 X-22.0871 Y10.0901 
G01 X-21.1877 Y10.0901 
G01 X-20.0877 Y11.1901 
G01 X-19.9623 Y11.2625 
G01 X-19.8224 Y11.3000 
G01 X-14.1580 Y11.3000 
G01 X-14.1580 Y11.3394 
G01 X-14.1231 Y11.5149 
G01 X-14.0547 Y11.6801 
G01 X-14.0414 Y11.7000 
G01 X-23.0222 Y11.7000 
G01 X-25.4699 Y9.2523 
G01 X-25.4699 Y8.3929 
G01 X-26.1729 Y7.6899 
G01 X-27.1671 Y7.6899 
G01 X-27.8701 Y8.3929 
G01 X-27.8701 Y9.3871 
G01 X-27.1671 Y10.0901 
G01 X-26.1877 Y10.0901 
G01 X-23.5877 Y12.6901 
G01 X-23.4623 Y12.7625 
G01 X-23.3224 Y12.8000 
G01 X-8.4276 Y12.8000 
G01 X-8.2877 Y12.7625 
G01 X-8.1623 Y12.6901 
G01 X-8.0599 Y12.5877 
G01 X-7.9626 Y12.4904 
G01 X-7.0182 Y12.4904 
G01 X-7.4374 Y12.9096 
G01 X-8.3639 Y12.9096 
G01 X-8.5287 Y12.9357 
G01 X-8.6875 Y12.9873 
G01 X-8.8362 Y13.0631 
G01 X-8.9712 Y13.1612 
G01 X-9.0892 Y13.2792 
G01 X-9.1873 Y13.4142 
G01 X-9.2631 Y13.5629 
G01 X-9.3147 Y13.7217 
G01 X-9.3408 Y13.8865 
G01 X-9.3408 Y14.0535 
G01 X-9.3147 Y14.2183 
G01 X-9.2631 Y14.3771 
G01 X-9.1873 Y14.5258 
G01 X-9.0892 Y14.6608 
G01 X-9.0500 Y14.7000 
G01 X-22.8224 Y14.7000 
G01 X-22.9623 Y14.7375 
G01 X-23.0877 Y14.8099 
G01 X-23.6103 Y15.3325 
G01 X-23.6329 Y15.3099 
G01 X-24.6271 Y15.3099 
G01 X-25.3301 Y16.0129 
G01 X-25.3301 Y17.0071 
G01 X-24.6271 Y17.7101 
G01 X-23.6329 Y17.7101 
G01 X-22.9299 Y17.0071 
G01 X-22.9299 Y16.2077 
G01 X-22.7901 Y16.0679 
G01 X-22.7901 Y17.0071 
G01 X-22.0871 Y17.7101 
G01 X-21.3177 Y17.7101 
G01 X-20.0877 Y18.9401 
G01 X-19.9623 Y19.0125 
G01 X-19.8224 Y19.0500 
G01 X-9.3408 Y19.0500 
G01 X-9.3408 Y19.1335 
G01 X-9.3147 Y19.2983 
G01 X-9.2631 Y19.4571 
G01 X-9.1873 Y19.6058 
G01 X-9.0892 Y19.7408 
G01 X-8.9712 Y19.8588 
G01 X-8.8362 Y19.9569 
G01 X-8.6875 Y20.0327 
G01 X-8.5287 Y20.0843 
G01 X-8.3639 Y20.1104 
G01 X-6.8761 Y20.1104 
G01 X-6.7113 Y20.0843 
G01 X-6.5525 Y20.0327 
G01 X-6.4038 Y19.9569 
G01 X-6.2688 Y19.8588 
G01 X-6.1508 Y19.7408 
G01 X-6.0527 Y19.6058 
G01 X-5.9769 Y19.4571 
G01 X-5.9253 Y19.2983 
G01 X-5.8992 Y19.1335 
G01 X-5.8992 Y18.9665 
G01 X-5.9253 Y18.8017 
G01 X-5.9769 Y18.6429 
G01 X-6.0527 Y18.4942 
G01 X-6.1508 Y18.3592 
G01 X-6.2100 Y18.3000 
G01 X-4.9276 Y18.3000 
G01 X-4.7877 Y18.2625 
G01 X-4.6623 Y18.1901 
G01 X-4.5599 Y18.0877 
G01 X-4.4875 Y17.9623 
G01 X-4.4500 Y17.8224 
G01 X-4.4500 Y9.6776 
G01 X-4.4875 Y9.5377 
G01 X-4.5599 Y9.4123 
G01 X-4.6623 Y9.3099 
G01 X-5.1623 Y8.8099 
G01 X-5.2877 Y8.7375 
G01 X-5.4276 Y8.7000 
G01 X-5.9161 Y8.7000 
G01 X-5.9253 Y8.6417 
G01 X-5.9769 Y8.4829 
G01 X-6.0527 Y8.3342 
G01 X-6.1508 Y8.1992 
G01 X-6.2688 Y8.0812 
G01 X-6.4038 Y7.9831 
G01 X-6.5525 Y7.9073 
G01 X-6.7113 Y7.8557 
G01 X-6.8761 Y7.8296 
G01 X-8.3639 Y7.8296 
G01 X-8.5287 Y7.8557 
G01 X-8.6875 Y7.9073 
G01 X-8.8362 Y7.9831 
G01 X-8.9712 Y8.0812 
G01 X-9.0892 Y8.1992 
G01 X-9.1873 Y8.3342 
G01 X-9.2631 Y8.4829 
G01 X-9.3147 Y8.6417 
G01 X-9.3408 Y8.8065 
G01 X-9.3408 Y8.9735 
G01 X-9.3147 Y9.1383 
G01 X-9.2631 Y9.2971 
G01 X-9.1873 Y9.4458 
G01 X-9.1843 Y9.4500 
G01 X-17.7722 Y9.4500 
G01 X-17.8499 Y9.3723 
G01 X-17.8499 Y8.3929 
G01 X-18.5529 Y7.6899 
G01 X-19.5471 Y7.6899 
G01 X-20.2501 Y8.3929 
G00 Z2.0000 
G00 X-25.3301 Y8.3929 
G01 Z-0.0250 F254.00 
G01 X-25.3301 Y9.3871 F508.00 
G01 X-24.6271 Y10.0901 
G01 X-23.6329 Y10.0901 
G01 X-22.9299 Y9.3871 
G01 X-22.9299 Y8.3929 
G01 X-23.6329 Y7.6899 
G01 X-24.6271 Y7.6899 
G01 X-25.3301 Y8.3929 
G00 Z2.0000 
G00 X-27.8701 Y16.0129 
G01 Z-0.0250 F254.00 
G01 X-27.8701 Y17.0071 F508.00 
G01 X-27.1671 Y17.7101 
G01 X-26.1729 Y17.7101 
G01 X-25.4699 Y17.0071 
G01 X-25.4699 Y16.0129 
G01 X-26.1729 Y15.3099 
G01 X-27.1671 Y15.3099 
G01 X-27.8701 Y16.0129 
G00 Z2.0000 
G00 X-6.8761 Y5.2896 
G01 Z-0.0250 F254.00 
G01 X-8.3639 Y5.2896 F508.00 
G01 X-8.5287 Y5.3157 
G01 X-8.6875 Y5.3673 
G01 X-8.8362 Y5.4431 
G01 X-8.9712 Y5.5412 
G01 X-9.0892 Y5.6592 
G01 X-9.1873 Y5.7942 
G01 X-9.2631 Y5.9429 
G01 X-9.3147 Y6.1017 
G01 X-9.3408 Y6.2665 
G01 X-9.3408 Y6.4335 
G01 X-9.3147 Y6.5983 
G01 X-9.2631 Y6.7571 
G01 X-9.1873 Y6.9058 
G01 X-9.0892 Y7.0408 
G01 X-8.9712 Y7.1588 
G01 X-8.8362 Y7.2569 
G01 X-8.6875 Y7.3327 
G01 X-8.5287 Y7.3843 
G01 X-8.3639 Y7.4104 
G01 X-6.8761 Y7.4104 
G01 X-6.7113 Y7.3843 
G01 X-6.5525 Y7.3327 
G01 X-6.4038 Y7.2569 
G01 X-6.2688 Y7.1588 
G01 X-6.1508 Y7.0408 
G01 X-6.0527 Y6.9058 
G01 X-5.9769 Y6.7571 
G01 X-5.9253 Y6.5983 
G01 X-5.8992 Y6.4335 
G01 X-5.8992 Y6.2665 
G01 X-5.9253 Y6.1017 
G01 X-5.9769 Y5.9429 
G01 X-6.0527 Y5.7942 
G01 X-6.1508 Y5.6592 
G01 X-6.2688 Y5.5412 
G01 X-6.4038 Y5.4431 
G01 X-6.5525 Y5.3673 
G01 X-6.7113 Y5.3157 
G01 X-6.8761 Y5.2896 
G00 Z2.0000 
G00 X-30.3600 Y1.1795 
G01 Z-0.0250 F254.00 
G01 X-30.3600 Y1.3605 F508.00 
G01 X-30.3317 Y1.5393 
G01 X-30.2757 Y1.7114 
G01 X-30.1936 Y1.8727 
G01 X-30.0872 Y2.0192 
G01 X-29.9592 Y2.1472 
G01 X-29.8127 Y2.2536 
G01 X-29.6514 Y2.3357 
G01 X-29.4793 Y2.3917 
G01 X-29.3005 Y2.4200 
G01 X-29.1195 Y2.4200 
G01 X-28.9407 Y2.3917 
G01 X-28.7686 Y2.3357 
G01 X-28.6073 Y2.2536 
G01 X-28.4608 Y2.1472 
G01 X-28.3328 Y2.0192 
G01 X-28.2264 Y1.8727 
G01 X-28.1443 Y1.7114 
G01 X-28.0883 Y1.5393 
G01 X-28.0600 Y1.3605 
G01 X-28.0600 Y1.1795 
G01 X-28.0883 Y1.0007 
G01 X-28.1443 Y0.8286 
G01 X-28.2264 Y0.6673 
G01 X-28.3328 Y0.5208 
G01 X-28.4608 Y0.3928 
G01 X-28.6073 Y0.2864 
G01 X-28.7686 Y0.2043 
G01 X-28.9407 Y0.1483 
G01 X-29.1195 Y0.1200 
G01 X-29.3005 Y0.1200 
G01 X-29.4793 Y0.1483 
G01 X-29.6514 Y0.2043 
G01 X-29.8127 Y0.2864 
G01 X-29.9592 Y0.3928 
G01 X-30.0872 Y0.5208 
G01 X-30.1936 Y0.6673 
G01 X-30.2757 Y0.8286 
G01 X-30.3317 Y1.0007 
G01 X-30.3600 Y1.1795 
G00 Z2.0000 
G00 X-2.4200 Y1.1795 
G01 Z-0.0250 F254.00 
G01 X-2.4200 Y1.3605 F508.00 
G01 X-2.3917 Y1.5393 
G01 X-2.3357 Y1.7114 
G01 X-2.2536 Y1.8727 
G01 X-2.1472 Y2.0192 
G01 X-2.0192 Y2.1472 
G01 X-1.8727 Y2.2536 
G01 X-1.7114 Y2.3357 
G01 X-1.5393 Y2.3917 
G01 X-1.3605 Y2.4200 
G01 X-1.1795 Y2.4200 
G01 X-1.0007 Y2.3917 
G01 X-0.8286 Y2.3357 
G01 X-0.6673 Y2.2536 
G01 X-0.5208 Y2.1472 
G01 X-0.3928 Y2.0192 
G01 X-0.2864 Y1.8727 
G01 X-0.2043 Y1.7114 
G01 X-0.1483 Y1.5393 
G01 X-0.1200 Y1.3605 
G01 X-0.1200 Y1.1795 
G01 X-0.1483 Y1.0007 
G01 X-0.2043 Y0.8286 
G01 X-0.2864 Y0.6673 
G01 X-0.3928 Y0.5208 
G01 X-0.5208 Y0.3928 
G01 X-0.6673 Y0.2864 
G01 X-0.8286 Y0.2043 
G01 X-1.0007 Y0.1483 
G01 X-1.1795 Y0.1200 
G01 X-1.3605 Y0.1200 
G01 X-1.5393 Y0.1483 
G01 X-1.7114 Y0.2043 
G01 X-1.8727 Y0.2864 
G01 X-2.0192 Y0.3928 
G01 X-2.1472 Y0.5208 
G01 X-2.2536 Y0.6673 
G01 X-2.3357 Y0.8286 
G01 X-2.3917 Y1.0007 
G01 X-2.4200 Y1.1795 
G00 Z2.0000 
G00 Z2.000000
G00 X-13.2500 Y11.2500 
G01 Z-0.2000 F254.00 
G01 Z2.000000
(R2.0000  P1.000000)
(G00 Z2.000000)
G00 X-1.2700 Y24.1300 
G01 Z-1.500000
G01 Z2.000000
(G00 Z2.000000)
G00 X-29.2100 Y24.1300 
G01 Z-1.500000
G01 Z2.000000
(G00 Z2.000000)
G00 X-29.2100 Y1.2700 
G01 Z-1.500000
G01 Z2.000000
(G00 Z2.000000)
G00 X-1.2700 Y1.2700 
G01 Z-1.500000
G01 Z2.000000
(G00 Z2.000000)
G00 X-7.6200 Y6.3500 
G01 Z-1.500000
G01 Z2.000000
(G00 Z2.000000)
G00 X-7.6200 Y8.8900 
G01 Z-1.500000
G01 Z2.000000
(G00 Z2.000000)
G00 X-7.6200 Y11.4300 
G01 Z-1.500000
G01 Z2.000000
(G00 Z2.000000)
G00 X-7.6200 Y13.9700 
G01 Z-1.500000
G01 Z2.000000
(G00 Z2.000000)
G00 X-7.6200 Y16.5100 
G01 Z-1.500000
G01 Z2.000000
(G00 Z2.000000)
G00 X-7.6200 Y19.0500 
G01 Z-1.500000
G01 Z2.000000
(G00 Z2.000000)
G00 X-19.0500 Y8.8900 
G01 Z-1.500000
G01 Z2.000000
(G00 Z2.000000)
G00 X-21.5900 Y8.8900 
G01 Z-1.500000
G01 Z2.000000
(G00 Z2.000000)
G00 X-24.1300 Y8.8900 
G01 Z-1.500000
G01 Z2.000000
(G00 Z2.000000)
G00 X-26.6700 Y8.8900 
G01 Z-1.500000
G01 Z2.000000
(G00 Z2.000000)
G00 X-26.6700 Y16.5100 
G01 Z-1.500000
G01 Z2.000000
(G00 Z2.000000)
G00 X-24.1300 Y16.5100 
G01 Z-1.500000
G01 Z2.000000
(G00 Z2.000000)
G00 X-21.5900 Y16.5100 
G01 Z-1.500000
G01 Z2.000000
(G00 Z2.000000)
G00 X-19.0500 Y16.5100 
G01 Z-1.500000
G01 Z2.000000
G00 Z15.0000 
M05
M02
