(.../pcb-gcode-3.6.0.4/pcb-gcode.ulp)
(Copyright 2005 - 2012 by John Johnson)
(See readme.txt for licensing terms.)
(This file generated from the board:)
(.../eagle/eagle/cncWTest/modbus.brd)
(Current profile is .../pcb-gcode-3.6.0.4/profiles/emc.pp  )
(This file generated 7/12/2014 4:12:11 PM)
(Settings from pcb-machine.h)
(  Tool Size)
(0.1000 )
(Z Axis Settings)
(  High     Up        Down     Drill)
(19.5000 	2.0000 	-0.0250 	-1.5000 )
(spindle on time = 1.0000)
(milling depth = -0.0500)
(text depth = -0.0500)
(tool change at 15.0000 15.0000 19.0000 )
(feed rate xy = F508.00 )
(feed rate z  = F254.00 )
(Settings from pcb-defaults.h)
(isolate min = 0.0500)
(isolate max = 1.0000)
(isolate step = 0.1000)
(Generated top outlines, top drill, bottom outlines, bottom drill, )
(Unit of measure: mm)
(Metric Mode)
G21
(Absolute Coordinates)
G90
G00 X0.0000 Y0.0000 
M03
G04 P1.000000
G00 Z2.0000 
G00 X3.5530 Y20.8011 
G01 Z-0.0250 F254.00 
G01 X3.5530 Y21.3654 F508.00 
G01 X3.7210 Y21.5334 
G01 X3.8462 Y21.5334 
G01 X4.0141 Y21.3654 
G01 X4.0141 Y20.8011 
G01 X3.5530 Y20.8011 
G00 Z2.0000 
G00 X4.5345 Y21.5334 
G01 Z-0.0250 F254.00 
G01 X4.6597 Y21.5334 F508.00 
G01 X4.8276 Y21.3654 
G01 X4.8276 Y20.8011 
G01 X4.3665 Y20.8011 
G01 X4.3665 Y21.3654 
G01 X4.5345 Y21.5334 
G00 Z2.0000 
G00 X3.9921 Y17.5268 
G01 Z-0.0250 F254.00 
G01 X3.6260 Y17.8929 F508.00 
G01 X3.9921 Y18.2591 
G01 X4.0141 Y18.2591 
G01 X4.0141 Y17.5268 
G01 X3.9921 Y17.5268 
G00 Z2.0000 
G00 X3.5530 Y14.2525 
G01 Z-0.0250 F254.00 
G01 X3.5530 Y14.8168 F508.00 
G01 X3.7210 Y14.9848 
G01 X4.1173 Y14.9848 
G01 X4.2853 Y14.8168 
G01 X4.2853 Y14.2525 
G01 X3.5530 Y14.2525 
G00 Z2.0000 
G00 X28.7900 Y2.4563 
G01 Z-0.0250 F254.00 
G01 X28.7900 Y2.6237 F508.00 
G01 X28.7573 Y2.7879 
G01 X28.6933 Y2.9426 
G01 X28.6002 Y3.0818 
G01 X28.4818 Y3.2002 
G01 X28.3426 Y3.2933 
G01 X28.1879 Y3.3573 
G01 X28.0237 Y3.3900 
G01 X27.8563 Y3.3900 
G01 X27.6921 Y3.3573 
G01 X27.5374 Y3.2933 
G01 X27.3982 Y3.2002 
G01 X27.2798 Y3.0818 
G01 X27.1867 Y2.9426 
G01 X27.1227 Y2.7879 
G01 X27.0900 Y2.6237 
G01 X27.0900 Y2.4563 
G01 X27.1227 Y2.2921 
G01 X27.1867 Y2.1374 
G01 X27.2798 Y1.9982 
G01 X27.3982 Y1.8798 
G01 X27.5374 Y1.7867 
G01 X27.6921 Y1.7227 
G01 X27.8563 Y1.6900 
G01 X28.0237 Y1.6900 
G01 X28.1879 Y1.7227 
G01 X28.3426 Y1.7867 
G01 X28.4818 Y1.8798 
G01 X28.6002 Y1.9982 
G01 X28.6933 Y2.1374 
G01 X28.7573 Y2.2921 
G01 X28.7900 Y2.4563 
G00 Z2.0000 
G00 X28.7900 Y22.7763 
G01 Z-0.0250 F254.00 
G01 X28.7900 Y22.9437 F508.00 
G01 X28.7573 Y23.1079 
G01 X28.6933 Y23.2626 
G01 X28.6002 Y23.4018 
G01 X28.4818 Y23.5202 
G01 X28.3426 Y23.6133 
G01 X28.1879 Y23.6773 
G01 X28.0237 Y23.7100 
G01 X27.8563 Y23.7100 
G01 X27.6921 Y23.6773 
G01 X27.5374 Y23.6133 
G01 X27.3982 Y23.5202 
G01 X27.2798 Y23.4018 
G01 X27.1867 Y23.2626 
G01 X27.1227 Y23.1079 
G01 X27.0900 Y22.9437 
G01 X27.0900 Y22.7763 
G01 X27.1227 Y22.6121 
G01 X27.1867 Y22.4574 
G01 X27.2798 Y22.3182 
G01 X27.3982 Y22.1998 
G01 X27.5374 Y22.1067 
G01 X27.6921 Y22.0427 
G01 X27.8563 Y22.0100 
G01 X28.0237 Y22.0100 
G01 X28.1879 Y22.0427 
G01 X28.3426 Y22.1067 
G01 X28.4818 Y22.1998 
G01 X28.6002 Y22.3182 
G01 X28.6933 Y22.4574 
G01 X28.7573 Y22.6121 
G01 X28.7900 Y22.7763 
G00 Z2.0000 
G00 X3.3900 Y22.7763 
G01 Z-0.0250 F254.00 
G01 X3.3900 Y22.9437 F508.00 
G01 X3.3573 Y23.1079 
G01 X3.2933 Y23.2626 
G01 X3.2002 Y23.4018 
G01 X3.0818 Y23.5202 
G01 X2.9426 Y23.6133 
G01 X2.7879 Y23.6773 
G01 X2.6237 Y23.7100 
G01 X2.4563 Y23.7100 
G01 X2.2921 Y23.6773 
G01 X2.1374 Y23.6133 
G01 X1.9982 Y23.5202 
G01 X1.8798 Y23.4018 
G01 X1.7867 Y23.2626 
G01 X1.7227 Y23.1079 
G01 X1.6900 Y22.9437 
G01 X1.6900 Y22.7763 
G01 X1.7227 Y22.6121 
G01 X1.7867 Y22.4574 
G01 X1.8798 Y22.3182 
G01 X1.9982 Y22.1998 
G01 X2.1374 Y22.1067 
G01 X2.2921 Y22.0427 
G01 X2.4563 Y22.0100 
G01 X2.6237 Y22.0100 
G01 X2.7879 Y22.0427 
G01 X2.9426 Y22.1067 
G01 X3.0818 Y22.1998 
G01 X3.2002 Y22.3182 
G01 X3.2933 Y22.4574 
G01 X3.3573 Y22.6121 
G01 X3.3900 Y22.7763 
G00 Z2.0000 
G00 X17.1299 Y4.6800 
G01 Z-0.0250 F254.00 
G01 X16.7500 Y4.6800 F508.00 
G01 X16.7500 Y5.0497 
G01 X16.7119 Y5.1416 
G01 X16.6416 Y5.2119 
G01 X16.5497 Y5.2500 
G01 X14.4500 Y5.2500 
G01 X14.4500 Y5.6999 
G01 X14.4348 Y5.7366 
G01 X14.4066 Y5.7648 
G01 X14.3699 Y5.7800 
G01 X13.1301 Y5.7800 
G01 X13.0934 Y5.7648 
G01 X13.0652 Y5.7366 
G01 X13.0500 Y5.6999 
G01 X13.0500 Y4.4601 
G01 X13.0652 Y4.4234 
G01 X13.0934 Y4.3952 
G01 X13.1301 Y4.3800 
G01 X14.3699 Y4.3800 
G01 X14.4066 Y4.3952 
G01 X14.4348 Y4.4234 
G01 X14.4500 Y4.4601 
G01 X14.4500 Y4.7500 
G01 X16.2500 Y4.7500 
G01 X16.2500 Y4.6800 
G01 X15.8901 Y4.6800 
G01 X15.8534 Y4.6648 
G01 X15.8252 Y4.6366 
G01 X15.8100 Y4.5999 
G01 X15.8100 Y3.7601 
G01 X15.8252 Y3.7234 
G01 X15.8534 Y3.6952 
G01 X15.8901 Y3.6800 
G01 X17.1299 Y3.6800 
G01 X17.1666 Y3.6952 
G01 X17.1948 Y3.7234 
G01 X17.2100 Y3.7601 
G01 X17.2100 Y4.5999 
G01 X17.1948 Y4.6366 
G01 X17.1666 Y4.6648 
G01 X17.1299 Y4.6800 
G00 Z2.0000 
G00 X6.8847 Y18.2896 
G01 Z-0.0250 F254.00 
G01 X8.3553 Y18.2896 F508.00 
G01 X8.5022 Y18.3188 
G01 X8.6406 Y18.3761 
G01 X8.7651 Y18.4594 
G01 X8.8710 Y18.5653 
G01 X8.9543 Y18.6898 
G01 X9.0116 Y18.8282 
G01 X9.0408 Y18.9751 
G01 X9.0408 Y19.1249 
G01 X9.0116 Y19.2718 
G01 X8.9543 Y19.4102 
G01 X8.8710 Y19.5347 
G01 X8.7651 Y19.6406 
G01 X8.6406 Y19.7239 
G01 X8.5022 Y19.7812 
G01 X8.3553 Y19.8104 
G01 X6.8847 Y19.8104 
G01 X6.7378 Y19.7812 
G01 X6.5994 Y19.7239 
G01 X6.4749 Y19.6406 
G01 X6.3690 Y19.5347 
G01 X6.2857 Y19.4102 
G01 X6.2284 Y19.2718 
G01 X6.1992 Y19.1249 
G01 X6.1992 Y18.9751 
G01 X6.2284 Y18.8282 
G01 X6.2857 Y18.6898 
G01 X6.3690 Y18.5653 
G01 X6.4749 Y18.4594 
G01 X6.5994 Y18.3761 
G01 X6.7378 Y18.3188 
G01 X6.8847 Y18.2896 
G00 Z2.0000 
G00 X6.8847 Y15.7496 
G01 Z-0.0250 F254.00 
G01 X8.3553 Y15.7496 F508.00 
G01 X8.5022 Y15.7788 
G01 X8.6406 Y15.8361 
G01 X8.7651 Y15.9194 
G01 X8.8710 Y16.0253 
G01 X8.9543 Y16.1498 
G01 X9.0116 Y16.2882 
G01 X9.0408 Y16.4351 
G01 X9.0408 Y16.5849 
G01 X9.0116 Y16.7318 
G01 X8.9543 Y16.8702 
G01 X8.8710 Y16.9947 
G01 X8.7651 Y17.1006 
G01 X8.6406 Y17.1839 
G01 X8.5022 Y17.2412 
G01 X8.3553 Y17.2704 
G01 X6.8847 Y17.2704 
G01 X6.7378 Y17.2412 
G01 X6.5994 Y17.1839 
G01 X6.4749 Y17.1006 
G01 X6.3690 Y16.9947 
G01 X6.2857 Y16.8702 
G01 X6.2284 Y16.7318 
G01 X6.1992 Y16.5849 
G01 X6.1992 Y16.4351 
G01 X6.2284 Y16.2882 
G01 X6.2857 Y16.1498 
G01 X6.3690 Y16.0253 
G01 X6.4749 Y15.9194 
G01 X6.5994 Y15.8361 
G01 X6.7378 Y15.7788 
G01 X6.8847 Y15.7496 
G00 Z2.0000 
G00 X6.8847 Y13.2096 
G01 Z-0.0250 F254.00 
G01 X8.3553 Y13.2096 F508.00 
G01 X8.5022 Y13.2388 
G01 X8.6406 Y13.2961 
G01 X8.7651 Y13.3794 
G01 X8.8710 Y13.4853 
G01 X8.9543 Y13.6098 
G01 X9.0116 Y13.7482 
G01 X9.0408 Y13.8951 
G01 X9.0408 Y14.0449 
G01 X9.0116 Y14.1918 
G01 X8.9543 Y14.3302 
G01 X8.8710 Y14.4547 
G01 X8.7651 Y14.5606 
G01 X8.6406 Y14.6439 
G01 X8.5022 Y14.7012 
G01 X8.3553 Y14.7304 
G01 X6.8847 Y14.7304 
G01 X6.7378 Y14.7012 
G01 X6.5994 Y14.6439 
G01 X6.4749 Y14.5606 
G01 X6.3690 Y14.4547 
G01 X6.2857 Y14.3302 
G01 X6.2284 Y14.1918 
G01 X6.1992 Y14.0449 
G01 X6.1992 Y13.8951 
G01 X6.2284 Y13.7482 
G01 X6.2857 Y13.6098 
G01 X6.3690 Y13.4853 
G01 X6.4749 Y13.3794 
G01 X6.5994 Y13.2961 
G01 X6.7378 Y13.2388 
G01 X6.8847 Y13.2096 
G00 Z2.0000 
G00 X6.8847 Y10.6696 
G01 Z-0.0250 F254.00 
G01 X8.3553 Y10.6696 F508.00 
G01 X8.5022 Y10.6988 
G01 X8.6406 Y10.7561 
G01 X8.7651 Y10.8394 
G01 X8.8710 Y10.9453 
G01 X8.9543 Y11.0698 
G01 X9.0116 Y11.2082 
G01 X9.0408 Y11.3551 
G01 X9.0408 Y11.5049 
G01 X9.0116 Y11.6518 
G01 X8.9543 Y11.7902 
G01 X8.8710 Y11.9147 
G01 X8.7651 Y12.0206 
G01 X8.6406 Y12.1039 
G01 X8.5022 Y12.1612 
G01 X8.3553 Y12.1904 
G01 X6.8847 Y12.1904 
G01 X6.7378 Y12.1612 
G01 X6.5994 Y12.1039 
G01 X6.4749 Y12.0206 
G01 X6.3690 Y11.9147 
G01 X6.2857 Y11.7902 
G01 X6.2284 Y11.6518 
G01 X6.1992 Y11.5049 
G01 X6.1992 Y11.3551 
G01 X6.2284 Y11.2082 
G01 X6.2857 Y11.0698 
G01 X6.3690 Y10.9453 
G01 X6.4749 Y10.8394 
G01 X6.5994 Y10.7561 
G01 X6.7378 Y10.6988 
G01 X6.8847 Y10.6696 
G00 Z2.0000 
G00 X6.8847 Y8.1296 
G01 Z-0.0250 F254.00 
G01 X8.3553 Y8.1296 F508.00 
G01 X8.5022 Y8.1588 
G01 X8.6406 Y8.2161 
G01 X8.7651 Y8.2994 
G01 X8.8710 Y8.4053 
G01 X8.9543 Y8.5298 
G01 X9.0116 Y8.6682 
G01 X9.0408 Y8.8151 
G01 X9.0408 Y8.9649 
G01 X9.0116 Y9.1118 
G01 X8.9543 Y9.2502 
G01 X8.8710 Y9.3747 
G01 X8.7651 Y9.4806 
G01 X8.6406 Y9.5639 
G01 X8.5022 Y9.6212 
G01 X8.3553 Y9.6504 
G01 X6.8847 Y9.6504 
G01 X6.7378 Y9.6212 
G01 X6.5994 Y9.5639 
G01 X6.4749 Y9.4806 
G01 X6.3690 Y9.3747 
G01 X6.2857 Y9.2502 
G01 X6.2284 Y9.1118 
G01 X6.1992 Y8.9649 
G01 X6.1992 Y8.8151 
G01 X6.2284 Y8.6682 
G01 X6.2857 Y8.5298 
G01 X6.3690 Y8.4053 
G01 X6.4749 Y8.2994 
G01 X6.5994 Y8.2161 
G01 X6.7378 Y8.1588 
G01 X6.8847 Y8.1296 
G00 Z2.0000 
G00 X27.2899 Y4.6800 
G01 Z-0.0250 F254.00 
G01 X26.0501 Y4.6800 F508.00 
G01 X26.0134 Y4.6648 
G01 X25.9852 Y4.6366 
G01 X25.9700 Y4.5999 
G01 X25.9700 Y3.8236 
G01 X25.1464 Y3.0000 
G01 X13.0000 Y3.0000 
G01 X13.0000 Y9.1464 
G01 X13.3916 Y9.5381 
G01 X13.4619 Y9.6084 
G01 X15.0036 Y11.1500 
G01 X15.7899 Y11.1500 
G01 X15.8266 Y11.1652 
G01 X15.8548 Y11.1934 
G01 X15.8700 Y11.2301 
G01 X15.8700 Y12.2699 
G01 X15.8548 Y12.3066 
G01 X15.8266 Y12.3348 
G01 X15.7899 Y12.3500 
G01 X14.3501 Y12.3500 
G01 X14.3134 Y12.3348 
G01 X14.2852 Y12.3066 
G01 X14.2700 Y12.2699 
G01 X14.2700 Y11.2301 
G01 X14.2852 Y11.1934 
G01 X14.3125 Y11.1661 
G01 X13.2500 Y10.1036 
G01 X12.0000 Y11.3536 
G01 X12.0000 Y18.3964 
G01 X13.7936 Y20.1900 
G01 X14.5899 Y20.1900 
G01 X14.6266 Y20.2052 
G01 X14.6548 Y20.2334 
G01 X14.6700 Y20.2701 
G01 X14.6700 Y21.1099 
G01 X14.6548 Y21.1466 
G01 X14.6266 Y21.1748 
G01 X14.5899 Y21.1900 
G01 X13.3501 Y21.1900 
G01 X13.3134 Y21.1748 
G01 X13.2852 Y21.1466 
G01 X13.2700 Y21.1099 
G01 X13.2700 Y20.3736 
G01 X11.6084 Y18.7119 
G01 X11.5381 Y18.6416 
G01 X11.5000 Y18.5497 
G01 X11.5000 Y11.2003 
G01 X11.5381 Y11.1084 
G01 X12.8964 Y9.7500 
G01 X12.5381 Y9.3916 
G01 X12.5000 Y9.2997 
G01 X12.5000 Y2.7003 
G01 X12.5381 Y2.6084 
G01 X12.6084 Y2.5381 
G01 X12.7003 Y2.5000 
G01 X25.2997 Y2.5000 
G01 X25.3916 Y2.5381 
G01 X25.4619 Y2.6084 
G01 X26.5336 Y3.6800 
G01 X27.2899 Y3.6800 
G01 X27.3266 Y3.6952 
G01 X27.3548 Y3.7234 
G01 X27.3700 Y3.7601 
G01 X27.3700 Y4.5999 
G01 X27.3548 Y4.6366 
G01 X27.3266 Y4.6648 
G01 X27.2899 Y4.6800 
G00 Z2.0000 
G00 X21.1900 Y20.9399 
G01 Z-0.0250 F254.00 
G01 X21.1748 Y20.9766 F508.00 
G01 X21.1466 Y21.0048 
G01 X21.1099 Y21.0200 
G01 X20.2701 Y21.0200 
G01 X20.2334 Y21.0048 
G01 X20.2052 Y20.9766 
G01 X20.1900 Y20.9399 
G01 X20.1900 Y20.7500 
G01 X18.4800 Y20.7500 
G01 X18.4800 Y21.1099 
G01 X18.4648 Y21.1466 
G01 X18.4366 Y21.1748 
G01 X18.3999 Y21.1900 
G01 X17.1601 Y21.1900 
G01 X17.1234 Y21.1748 
G01 X17.0952 Y21.1466 
G01 X17.0800 Y21.1099 
G01 X17.0800 Y20.2701 
G01 X17.0952 Y20.2334 
G01 X17.1234 Y20.2052 
G01 X17.1601 Y20.1900 
G01 X18.3999 Y20.1900 
G01 X18.4366 Y20.2052 
G01 X18.4648 Y20.2334 
G01 X18.4717 Y20.2500 
G01 X20.1900 Y20.2500 
G01 X20.1900 Y19.7001 
G01 X20.2052 Y19.6634 
G01 X20.2334 Y19.6352 
G01 X20.2701 Y19.6200 
G01 X21.0264 Y19.6200 
G01 X21.2500 Y19.3964 
G01 X21.2500 Y17.4101 
G01 X21.2172 Y17.4101 
G01 X20.6899 Y16.8828 
G01 X20.6899 Y16.1372 
G01 X21.2172 Y15.6099 
G01 X21.9628 Y15.6099 
G01 X22.4901 Y16.1372 
G01 X22.4901 Y16.8828 
G01 X21.9628 Y17.4101 
G01 X21.7500 Y17.4101 
G01 X21.7500 Y19.5497 
G01 X21.7119 Y19.6416 
G01 X21.6416 Y19.7119 
G01 X21.1900 Y20.1636 
G01 X21.1900 Y20.9399 
G00 Z2.0000 
G00 X28.0700 Y20.2836 
G01 Z-0.0250 F254.00 
G01 X28.0700 Y20.9399 F508.00 
G01 X28.0548 Y20.9766 
G01 X28.0266 Y21.0048 
G01 X27.9899 Y21.0200 
G01 X27.1501 Y21.0200 
G01 X27.1134 Y21.0048 
G01 X27.0852 Y20.9766 
G01 X27.0700 Y20.9399 
G01 X27.0700 Y19.7001 
G01 X27.0852 Y19.6634 
G01 X27.1134 Y19.6352 
G01 X27.1501 Y19.6200 
G01 X27.7500 Y19.6200 
G01 X27.7500 Y16.1036 
G01 X27.1464 Y15.5000 
G01 X19.5000 Y15.5000 
G01 X19.5000 Y15.6871 
G01 X19.9501 Y16.1372 
G01 X19.9501 Y16.8828 
G01 X19.4228 Y17.4101 
G01 X18.6772 Y17.4101 
G01 X18.1499 Y16.8828 
G01 X18.1499 Y16.1372 
G01 X18.6772 Y15.6099 
G01 X19.0000 Y15.6099 
G01 X19.0000 Y15.3536 
G01 X17.5381 Y13.8916 
G01 X17.5000 Y13.7997 
G01 X17.5000 Y6.0000 
G01 X17.2100 Y6.0000 
G01 X17.2100 Y6.3999 
G01 X17.1948 Y6.4366 
G01 X17.1666 Y6.4648 
G01 X17.1299 Y6.4800 
G01 X15.8901 Y6.4800 
G01 X15.8534 Y6.4648 
G01 X15.8252 Y6.4366 
G01 X15.8100 Y6.3999 
G01 X15.8100 Y5.5601 
G01 X15.8252 Y5.5234 
G01 X15.8534 Y5.4952 
G01 X15.8901 Y5.4800 
G01 X17.1299 Y5.4800 
G01 X17.1666 Y5.4952 
G01 X17.1714 Y5.5000 
G01 X19.0000 Y5.5000 
G01 X19.0000 Y5.2003 
G01 X19.0381 Y5.1084 
G01 X19.6200 Y4.5264 
G01 X19.6200 Y3.7601 
G01 X19.6352 Y3.7234 
G01 X19.6634 Y3.6952 
G01 X19.7001 Y3.6800 
G01 X20.9399 Y3.6800 
G01 X20.9766 Y3.6952 
G01 X21.0048 Y3.7234 
G01 X21.0200 Y3.7601 
G01 X21.0200 Y4.0000 
G01 X23.4300 Y4.0000 
G01 X23.4300 Y3.7601 
G01 X23.4452 Y3.7234 
G01 X23.4734 Y3.6952 
G01 X23.5101 Y3.6800 
G01 X24.7499 Y3.6800 
G01 X24.7866 Y3.6952 
G01 X24.8148 Y3.7234 
G01 X24.8300 Y3.7601 
G01 X24.8300 Y4.5999 
G01 X24.8148 Y4.6366 
G01 X24.7866 Y4.6648 
G01 X24.7499 Y4.6800 
G01 X23.5101 Y4.6800 
G01 X23.4734 Y4.6648 
G01 X23.4452 Y4.6366 
G01 X23.4300 Y4.5999 
G01 X23.4300 Y4.5000 
G01 X21.0200 Y4.5000 
G01 X21.0200 Y4.5999 
G01 X21.0048 Y4.6366 
G01 X20.9766 Y4.6648 
G01 X20.9399 Y4.6800 
G01 X20.1736 Y4.6800 
G01 X19.5000 Y5.3536 
G01 X19.5000 Y5.7997 
G01 X19.4619 Y5.8916 
G01 X19.3916 Y5.9619 
G01 X19.2997 Y6.0000 
G01 X18.0000 Y6.0000 
G01 X18.0000 Y13.6464 
G01 X19.3536 Y15.0000 
G01 X27.2997 Y15.0000 
G01 X27.3916 Y15.0381 
G01 X27.4619 Y15.1084 
G01 X28.2119 Y15.8584 
G01 X28.2500 Y15.9503 
G01 X28.2500 Y20.0497 
G01 X28.2119 Y20.1416 
G01 X28.1416 Y20.2119 
G01 X28.0700 Y20.2836 
G00 Z2.0000 
G00 X19.7001 Y5.4800 
G01 Z-0.0250 F254.00 
G01 X20.9399 Y5.4800 F508.00 
G01 X20.9766 Y5.4952 
G01 X21.0048 Y5.5234 
G01 X21.0200 Y5.5601 
G01 X21.0200 Y6.3999 
G01 X21.0048 Y6.4366 
G01 X20.9766 Y6.4648 
G01 X20.9399 Y6.4800 
G01 X20.1236 Y6.4800 
G01 X19.5000 Y7.1036 
G01 X19.5000 Y8.0671 
G01 X19.9501 Y8.5172 
G01 X19.9501 Y9.2628 
G01 X19.4228 Y9.7901 
G01 X18.6772 Y9.7901 
G01 X18.1499 Y9.2628 
G01 X18.1499 Y8.5172 
G01 X18.6772 Y7.9899 
G01 X19.0000 Y7.9899 
G01 X19.0000 Y6.9503 
G01 X19.0381 Y6.8584 
G01 X19.1084 Y6.7881 
G01 X19.6200 Y6.2764 
G01 X19.6200 Y5.5601 
G01 X19.6352 Y5.5234 
G01 X19.6634 Y5.4952 
G01 X19.7001 Y5.4800 
G00 Z2.0000 
G00 X25.0301 Y16.1372 
G01 Z-0.0250 F254.00 
G01 X25.0301 Y16.8828 F508.00 
G01 X24.5028 Y17.4101 
G01 X24.5000 Y17.4101 
G01 X24.5000 Y20.0000 
G01 X25.2700 Y20.0000 
G01 X25.2700 Y19.7001 
G01 X25.2852 Y19.6634 
G01 X25.3134 Y19.6352 
G01 X25.3501 Y19.6200 
G01 X26.1899 Y19.6200 
G01 X26.2266 Y19.6352 
G01 X26.2548 Y19.6634 
G01 X26.2700 Y19.7001 
G01 X26.2700 Y20.9399 
G01 X26.2548 Y20.9766 
G01 X26.2266 Y21.0048 
G01 X26.1899 Y21.0200 
G01 X25.3501 Y21.0200 
G01 X25.3134 Y21.0048 
G01 X25.2852 Y20.9766 
G01 X25.2700 Y20.9399 
G01 X25.2700 Y20.5000 
G01 X22.9900 Y20.5000 
G01 X22.9900 Y20.9399 
G01 X22.9748 Y20.9766 
G01 X22.9466 Y21.0048 
G01 X22.9099 Y21.0200 
G01 X22.0701 Y21.0200 
G01 X22.0334 Y21.0048 
G01 X22.0052 Y20.9766 
G01 X21.9900 Y20.9399 
G01 X21.9900 Y19.7001 
G01 X22.0052 Y19.6634 
G01 X22.0334 Y19.6352 
G01 X22.0701 Y19.6200 
G01 X22.9099 Y19.6200 
G01 X22.9466 Y19.6352 
G01 X22.9748 Y19.6634 
G01 X22.9900 Y19.7001 
G01 X22.9900 Y20.0000 
G01 X24.0000 Y20.0000 
G01 X24.0000 Y17.4101 
G01 X23.7572 Y17.4101 
G01 X23.2299 Y16.8828 
G01 X23.2299 Y16.1372 
G01 X23.7572 Y15.6099 
G01 X24.5028 Y15.6099 
G01 X25.0301 Y16.1372 
G00 Z2.0000 
G00 X27.5701 Y16.1372 
G01 Z-0.0250 F254.00 
G01 X27.5701 Y16.8828 F508.00 
G01 X27.0428 Y17.4101 
G01 X27.0000 Y17.4101 
G01 X27.0000 Y21.0497 
G01 X26.9619 Y21.1416 
G01 X25.7119 Y22.3916 
G01 X25.6416 Y22.4619 
G01 X25.5497 Y22.5000 
G01 X18.4800 Y22.5000 
G01 X18.4800 Y22.9099 
G01 X18.4648 Y22.9466 
G01 X18.4366 Y22.9748 
G01 X18.3999 Y22.9900 
G01 X17.1601 Y22.9900 
G01 X17.1234 Y22.9748 
G01 X17.0952 Y22.9466 
G01 X17.0800 Y22.9099 
G01 X17.0800 Y22.7500 
G01 X14.6700 Y22.7500 
G01 X14.6700 Y22.9099 
G01 X14.6548 Y22.9466 
G01 X14.6266 Y22.9748 
G01 X14.5899 Y22.9900 
G01 X13.3501 Y22.9900 
G01 X13.3134 Y22.9748 
G01 X13.2852 Y22.9466 
G01 X13.2700 Y22.9099 
G01 X13.2700 Y22.1236 
G01 X10.7881 Y19.6416 
G01 X10.7500 Y19.5497 
G01 X10.7500 Y5.5000 
G01 X8.0000 Y5.5000 
G01 X8.0000 Y5.5896 
G01 X8.3553 Y5.5896 
G01 X8.5022 Y5.6188 
G01 X8.6406 Y5.6761 
G01 X8.7651 Y5.7594 
G01 X8.8710 Y5.8653 
G01 X8.9543 Y5.9898 
G01 X9.0116 Y6.1282 
G01 X9.0408 Y6.2751 
G01 X9.0408 Y6.4249 
G01 X9.0116 Y6.5718 
G01 X8.9543 Y6.7102 
G01 X8.8710 Y6.8347 
G01 X8.7651 Y6.9406 
G01 X8.6406 Y7.0239 
G01 X8.5022 Y7.0812 
G01 X8.3553 Y7.1104 
G01 X6.8847 Y7.1104 
G01 X6.7378 Y7.0812 
G01 X6.5994 Y7.0239 
G01 X6.4749 Y6.9406 
G01 X6.3690 Y6.8347 
G01 X6.2857 Y6.7102 
G01 X6.2284 Y6.5718 
G01 X6.1992 Y6.4249 
G01 X6.1992 Y6.2751 
G01 X6.2284 Y6.1282 
G01 X6.2857 Y5.9898 
G01 X6.3690 Y5.8653 
G01 X6.4749 Y5.7594 
G01 X6.5994 Y5.6761 
G01 X6.7378 Y5.6188 
G01 X6.8847 Y5.5896 
G01 X7.5000 Y5.5896 
G01 X7.5000 Y5.2003 
G01 X7.5381 Y5.1084 
G01 X7.6084 Y5.0381 
G01 X7.7003 Y5.0000 
G01 X10.9500 Y5.0000 
G01 X10.9500 Y4.4601 
G01 X10.9652 Y4.4234 
G01 X10.9934 Y4.3952 
G01 X11.0301 Y4.3800 
G01 X12.2699 Y4.3800 
G01 X12.3066 Y4.3952 
G01 X12.3348 Y4.4234 
G01 X12.3500 Y4.4601 
G01 X12.3500 Y5.6999 
G01 X12.3348 Y5.7366 
G01 X12.3066 Y5.7648 
G01 X12.2699 Y5.7800 
G01 X11.2500 Y5.7800 
G01 X11.2500 Y19.3964 
G01 X13.8436 Y21.9900 
G01 X14.5899 Y21.9900 
G01 X14.6266 Y22.0052 
G01 X14.6548 Y22.0334 
G01 X14.6700 Y22.0701 
G01 X14.6700 Y22.2500 
G01 X15.0000 Y22.2500 
G01 X15.0000 Y14.2500 
G01 X14.3501 Y14.2500 
G01 X14.3134 Y14.2348 
G01 X14.2852 Y14.2066 
G01 X14.2700 Y14.1699 
G01 X14.2700 Y13.1301 
G01 X14.2852 Y13.0934 
G01 X14.3134 Y13.0652 
G01 X14.3501 Y13.0500 
G01 X15.7899 Y13.0500 
G01 X15.8266 Y13.0652 
G01 X15.8548 Y13.0934 
G01 X15.8700 Y13.1301 
G01 X15.8700 Y14.1699 
G01 X15.8548 Y14.2066 
G01 X15.8266 Y14.2348 
G01 X15.7899 Y14.2500 
G01 X15.5000 Y14.2500 
G01 X15.5000 Y22.2500 
G01 X17.0800 Y22.2500 
G01 X17.0800 Y22.0701 
G01 X17.0952 Y22.0334 
G01 X17.1234 Y22.0052 
G01 X17.1601 Y21.9900 
G01 X18.3999 Y21.9900 
G01 X18.4240 Y22.0000 
G01 X25.3964 Y22.0000 
G01 X26.5000 Y20.8964 
G01 X26.5000 Y17.4101 
G01 X26.2972 Y17.4101 
G01 X25.7699 Y16.8828 
G01 X25.7699 Y16.1372 
G01 X26.2972 Y15.6099 
G01 X27.0428 Y15.6099 
G01 X27.5701 Y16.1372 
G00 Z2.0000 
G00 X27.5701 Y8.5172 
G01 Z-0.0250 F254.00 
G01 X27.5701 Y9.2628 F508.00 
G01 X27.0428 Y9.7901 
G01 X26.2972 Y9.7901 
G01 X25.7699 Y9.2628 
G01 X25.7699 Y8.5172 
G01 X26.2972 Y7.9899 
G01 X26.5000 Y7.9899 
G01 X26.5000 Y6.4800 
G01 X26.0501 Y6.4800 
G01 X26.0134 Y6.4648 
G01 X25.9852 Y6.4366 
G01 X25.9700 Y6.3999 
G01 X25.9700 Y5.5601 
G01 X25.9852 Y5.5234 
G01 X26.0134 Y5.4952 
G01 X26.0501 Y5.4800 
G01 X27.2899 Y5.4800 
G01 X27.3266 Y5.4952 
G01 X27.3548 Y5.5234 
G01 X27.3700 Y5.5601 
G01 X27.3700 Y6.3999 
G01 X27.3548 Y6.4366 
G01 X27.3266 Y6.4648 
G01 X27.2899 Y6.4800 
G01 X27.0000 Y6.4800 
G01 X27.0000 Y7.9899 
G01 X27.0428 Y7.9899 
G01 X27.5701 Y8.5172 
G00 Z2.0000 
G00 X25.0301 Y8.5172 
G01 Z-0.0250 F254.00 
G01 X25.0301 Y9.2628 F508.00 
G01 X24.5028 Y9.7901 
G01 X23.7572 Y9.7901 
G01 X23.2299 Y9.2628 
G01 X23.2299 Y9.2500 
G01 X22.4901 Y9.2500 
G01 X22.4901 Y9.2628 
G01 X21.9628 Y9.7901 
G01 X21.2172 Y9.7901 
G01 X20.6899 Y9.2628 
G01 X20.6899 Y8.5172 
G01 X21.2172 Y7.9899 
G01 X21.9628 Y7.9899 
G01 X22.4901 Y8.5172 
G01 X22.4901 Y8.7500 
G01 X23.2299 Y8.7500 
G01 X23.2299 Y8.5172 
G01 X23.7572 Y7.9899 
G01 X24.0000 Y7.9899 
G01 X24.0000 Y6.4800 
G01 X23.5101 Y6.4800 
G01 X23.4734 Y6.4648 
G01 X23.4452 Y6.4366 
G01 X23.4300 Y6.3999 
G01 X23.4300 Y5.5601 
G01 X23.4452 Y5.5234 
G01 X23.4734 Y5.4952 
G01 X23.5101 Y5.4800 
G01 X24.7499 Y5.4800 
G01 X24.7866 Y5.4952 
G01 X24.8148 Y5.5234 
G01 X24.8300 Y5.5601 
G01 X24.8300 Y6.3999 
G01 X24.8148 Y6.4366 
G01 X24.7866 Y6.4648 
G01 X24.7499 Y6.4800 
G01 X24.5000 Y6.4800 
G01 X24.5000 Y7.9899 
G01 X24.5028 Y7.9899 
G01 X25.0301 Y8.5172 
G00 Z2.0000 
G00 X13.5899 Y13.3000 
G01 Z-0.0250 F254.00 
G01 X12.1501 Y13.3000 F508.00 
G01 X12.1134 Y13.2848 
G01 X12.0852 Y13.2566 
G01 X12.0700 Y13.2199 
G01 X12.0700 Y12.1801 
G01 X12.0852 Y12.1434 
G01 X12.1134 Y12.1152 
G01 X12.1501 Y12.1000 
G01 X13.0000 Y12.1000 
G01 X13.0000 Y11.8045 
G01 X12.9620 Y11.7888 
G01 X12.8624 Y11.7223 
G01 X12.7777 Y11.6376 
G01 X12.7112 Y11.5380 
G01 X12.6654 Y11.4273 
G01 X12.6420 Y11.3099 
G01 X12.6420 Y11.1901 
G01 X12.6654 Y11.0727 
G01 X12.7112 Y10.9620 
G01 X12.7777 Y10.8624 
G01 X12.8624 Y10.7777 
G01 X12.9620 Y10.7112 
G01 X13.0727 Y10.6654 
G01 X13.1901 Y10.6420 
G01 X13.3099 Y10.6420 
G01 X13.4273 Y10.6654 
G01 X13.5380 Y10.7112 
G01 X13.6376 Y10.7777 
G01 X13.7223 Y10.8624 
G01 X13.7888 Y10.9620 
G01 X13.8346 Y11.0727 
G01 X13.8580 Y11.1901 
G01 X13.8580 Y11.3099 
G01 X13.8346 Y11.4273 
G01 X13.7888 Y11.5380 
G01 X13.7223 Y11.6376 
G01 X13.6376 Y11.7223 
G01 X13.5380 Y11.7888 
G01 X13.5000 Y11.8045 
G01 X13.5000 Y12.1000 
G01 X13.5899 Y12.1000 
G01 X13.6266 Y12.1152 
G01 X13.6548 Y12.1434 
G01 X13.6700 Y12.1801 
G01 X13.6700 Y13.2199 
G01 X13.6548 Y13.2566 
G01 X13.6266 Y13.2848 
G01 X13.5899 Y13.3000 
G00 Z2.0000 
G00 X5.0388 Y11.1681 
G01 Z-0.0250 F254.00 
G01 X5.1036 Y11.1949 F508.00 
G01 X5.1532 Y11.2445 
G01 X5.1800 Y11.3093 
G01 X5.1800 Y11.3794 
G01 X5.1532 Y11.4441 
G01 X5.1036 Y11.4937 
G01 X5.0388 Y11.5205 
G01 X3.5530 Y11.5205 
G01 X3.5530 Y11.9217 
G01 X3.5262 Y11.9864 
G01 X3.4766 Y12.0360 
G01 X3.4119 Y12.0628 
G01 X3.3418 Y12.0628 
G01 X3.2770 Y12.0360 
G01 X3.2274 Y11.9864 
G01 X3.2006 Y11.9217 
G01 X3.2006 Y10.7669 
G01 X3.2274 Y10.7022 
G01 X3.2770 Y10.6526 
G01 X3.3418 Y10.6258 
G01 X3.4119 Y10.6258 
G01 X3.4766 Y10.6526 
G01 X3.5262 Y10.7022 
G01 X3.5530 Y10.7669 
G01 X3.5530 Y11.1681 
G01 X5.0388 Y11.1681 
G00 Z2.0000 
G00 X3.7973 Y3.6011 
G01 Z-0.0250 F254.00 
G01 X3.8242 Y3.6658 F508.00 
G01 X3.8242 Y3.7359 
G01 X3.7973 Y3.8007 
G01 X3.7478 Y3.8502 
G01 X3.6830 Y3.8771 
G01 X3.6129 Y3.8771 
G01 X3.5482 Y3.8502 
G01 X3.2299 Y3.5320 
G01 X3.2006 Y3.4647 
G01 X3.2006 Y3.0813 
G01 X3.0818 Y3.2002 
G01 X2.9426 Y3.2933 
G01 X2.7879 Y3.3573 
G01 X2.6237 Y3.3900 
G01 X2.4563 Y3.3900 
G01 X2.2921 Y3.3573 
G01 X2.1374 Y3.2933 
G01 X1.9982 Y3.2002 
G01 X1.8798 Y3.0818 
G01 X1.7867 Y2.9426 
G01 X1.7227 Y2.7879 
G01 X1.6900 Y2.6237 
G01 X1.6900 Y2.4563 
G01 X1.7227 Y2.2921 
G01 X1.7867 Y2.1374 
G01 X1.8798 Y1.9982 
G01 X1.9982 Y1.8798 
G01 X2.1374 Y1.7867 
G01 X2.2921 Y1.7227 
G01 X2.4563 Y1.6900 
G01 X2.6237 Y1.6900 
G01 X2.7879 Y1.7227 
G01 X2.9426 Y1.7867 
G01 X3.0818 Y1.8798 
G01 X3.2002 Y1.9982 
G01 X3.2933 Y2.1374 
G01 X3.3573 Y2.2921 
G01 X3.3900 Y2.4563 
G01 X3.3900 Y2.6237 
G01 X3.4986 Y2.5164 
G01 X3.5482 Y2.4668 
G01 X3.6129 Y2.4400 
G01 X4.7677 Y2.4400 
G01 X4.8324 Y2.4668 
G01 X5.1036 Y2.7380 
G01 X5.1532 Y2.7876 
G01 X5.1800 Y2.8523 
G01 X5.1800 Y3.4647 
G01 X5.1532 Y3.5295 
G01 X4.8324 Y3.8502 
G01 X4.7677 Y3.8771 
G01 X4.1553 Y3.8771 
G01 X4.0905 Y3.8502 
G01 X4.0409 Y3.8007 
G01 X4.0141 Y3.7359 
G01 X4.0141 Y3.1235 
G01 X4.0409 Y3.0587 
G01 X4.0905 Y3.0092 
G01 X4.1553 Y2.9823 
G01 X4.2254 Y2.9823 
G01 X4.2901 Y3.0092 
G01 X4.3397 Y3.0587 
G01 X4.3665 Y3.1235 
G01 X4.3665 Y3.5247 
G01 X4.6597 Y3.5247 
G01 X4.8276 Y3.3567 
G01 X4.8276 Y2.9603 
G01 X4.6597 Y2.7924 
G01 X3.7210 Y2.7924 
G01 X3.5530 Y2.9603 
G01 X3.5530 Y3.3567 
G01 X3.7973 Y3.6011 
G00 Z2.0000 
G00 X3.5530 Y7.0102 
G01 Z-0.0250 F254.00 
G01 X3.5262 Y7.0750 F508.00 
G01 X3.4766 Y7.1245 
G01 X3.4119 Y7.1514 
G01 X3.3418 Y7.1514 
G01 X3.2770 Y7.1245 
G01 X3.2274 Y7.0750 
G01 X3.2006 Y7.0102 
G01 X3.2006 Y5.8555 
G01 X3.2274 Y5.7907 
G01 X3.2770 Y5.7411 
G01 X3.3418 Y5.7143 
G01 X4.1617 Y5.7143 
G01 X4.1678 Y5.7123 
G01 X4.1966 Y5.7143 
G01 X4.2254 Y5.7143 
G01 X4.2313 Y5.7168 
G01 X4.2378 Y5.7172 
G01 X4.2635 Y5.7301 
G01 X4.2901 Y5.7411 
G01 X4.2947 Y5.7457 
G01 X4.3005 Y5.7486 
G01 X4.3193 Y5.7704 
G01 X4.3397 Y5.7907 
G01 X4.3421 Y5.7967 
G01 X4.3464 Y5.8015 
G01 X4.3555 Y5.8289 
G01 X4.3665 Y5.8555 
G01 X4.3665 Y5.8619 
G01 X4.3685 Y5.8680 
G01 X4.3665 Y5.8968 
G01 X4.3665 Y5.9256 
G01 X4.3640 Y5.9315 
G01 X4.3636 Y5.9380 
G01 X4.3507 Y5.9637 
G01 X4.3397 Y5.9903 
G01 X4.3351 Y5.9949 
G01 X4.0953 Y6.4744 
G01 X4.0953 Y6.6310 
G01 X4.2633 Y6.7990 
G01 X4.6597 Y6.7990 
G01 X4.8276 Y6.6310 
G01 X4.8276 Y6.2347 
G01 X4.5833 Y5.9903 
G01 X4.5564 Y5.9256 
G01 X4.5564 Y5.8555 
G01 X4.5833 Y5.7907 
G01 X4.6328 Y5.7411 
G01 X4.6976 Y5.7143 
G01 X4.7677 Y5.7143 
G01 X4.8324 Y5.7411 
G01 X5.1532 Y6.0619 
G01 X5.1800 Y6.1266 
G01 X5.1800 Y6.7391 
G01 X5.1532 Y6.8038 
G01 X4.8324 Y7.1245 
G01 X4.7677 Y7.1514 
G01 X4.1553 Y7.1514 
G01 X4.0905 Y7.1245 
G01 X4.0409 Y7.0750 
G01 X3.7698 Y6.8038 
G01 X3.7429 Y6.7391 
G01 X3.7429 Y6.4614 
G01 X3.7409 Y6.4553 
G01 X3.7429 Y6.4266 
G01 X3.7429 Y6.3978 
G01 X3.7454 Y6.3918 
G01 X3.7459 Y6.3854 
G01 X3.7588 Y6.3596 
G01 X3.7698 Y6.3330 
G01 X3.7743 Y6.3285 
G01 X3.9052 Y6.0667 
G01 X3.5530 Y6.0667 
G01 X3.5530 Y7.0102 
G00 Z2.0000 
G00 X3.3418 Y7.7039 
G01 Z-0.0250 F254.00 
G01 X3.2770 Y7.6770 F508.00 
G01 X3.2274 Y7.6275 
G01 X3.2006 Y7.5627 
G01 X3.2006 Y7.4926 
G01 X3.2274 Y7.4279 
G01 X3.2770 Y7.3783 
G01 X3.3418 Y7.3515 
G01 X4.4965 Y7.3515 
G01 X4.5613 Y7.3783 
G01 X5.1036 Y7.9206 
G01 X5.1532 Y7.9702 
G01 X5.1800 Y8.0349 
G01 X5.1800 Y8.1050 
G01 X5.1532 Y8.1698 
G01 X4.5613 Y8.7617 
G01 X4.4984 Y8.7878 
G01 X3.3418 Y8.7885 
G01 X3.2770 Y8.7617 
G01 X3.2274 Y8.7121 
G01 X3.2006 Y8.6474 
G01 X3.2006 Y8.5773 
G01 X3.2274 Y8.5125 
G01 X3.2770 Y8.4630 
G01 X3.3418 Y8.4361 
G01 X4.3885 Y8.4361 
G01 X4.7546 Y8.0700 
G01 X4.3885 Y7.7039 
G01 X3.3418 Y7.7039 
G00 Z2.0000 
G00 X5.0388 Y13.9001 
G01 Z-0.0250 F254.00 
G01 X5.1036 Y13.9269 F508.00 
G01 X5.1532 Y13.9765 
G01 X5.1800 Y14.0412 
G01 X5.1800 Y14.1113 
G01 X5.1532 Y14.1761 
G01 X5.1036 Y14.2257 
G01 X5.0388 Y14.2525 
G01 X4.6377 Y14.2525 
G01 X4.6377 Y14.5456 
G01 X5.1532 Y15.0611 
G01 X5.1800 Y15.1259 
G01 X5.1800 Y15.1960 
G01 X5.1532 Y15.2608 
G01 X5.1036 Y15.3103 
G01 X5.0388 Y15.3372 
G01 X4.9688 Y15.3372 
G01 X4.9040 Y15.3103 
G01 X4.5971 Y15.0034 
G01 X4.5613 Y15.0392 
G01 X4.2901 Y15.3103 
G01 X4.2254 Y15.3372 
G01 X3.6129 Y15.3372 
G01 X3.5482 Y15.3103 
G01 X3.2274 Y14.9896 
G01 X3.2006 Y14.9248 
G01 X3.2006 Y14.0412 
G01 X3.2274 Y13.9765 
G01 X3.2770 Y13.9269 
G01 X3.3418 Y13.9001 
G01 X4.4965 Y13.9001 
G01 X5.0388 Y13.9001 
G00 Z2.0000 
G00 X5.0388 Y17.1744 
G01 Z-0.0250 F254.00 
G01 X5.1036 Y17.2012 F508.00 
G01 X5.1532 Y17.2508 
G01 X5.1800 Y17.3156 
G01 X5.1800 Y17.3857 
G01 X5.1532 Y17.4504 
G01 X5.1036 Y17.5000 
G01 X5.0388 Y17.5268 
G01 X4.3665 Y17.5268 
G01 X4.3665 Y18.2591 
G01 X5.0388 Y18.2591 
G01 X5.1036 Y18.2859 
G01 X5.1532 Y18.3355 
G01 X5.1800 Y18.4002 
G01 X5.1800 Y18.4703 
G01 X5.1532 Y18.5351 
G01 X5.1036 Y18.5846 
G01 X5.0388 Y18.6115 
G01 X3.8841 Y18.6115 
G01 X3.8193 Y18.5846 
G01 X3.2274 Y17.9927 
G01 X3.2006 Y17.9280 
G01 X3.2006 Y17.8579 
G01 X3.2274 Y17.7931 
G01 X3.2770 Y17.7436 
G01 X3.8193 Y17.2012 
G01 X3.8841 Y17.1744 
G01 X4.2254 Y17.1744 
G01 X5.0388 Y17.1744 
G00 Z2.0000 
G00 X3.3418 Y20.4487 
G01 Z-0.0250 F254.00 
G01 X5.0388 Y20.4487 F508.00 
G01 X5.1036 Y20.4755 
G01 X5.1532 Y20.5251 
G01 X5.1800 Y20.5899 
G01 X5.1800 Y21.4735 
G01 X5.1532 Y21.5382 
G01 X4.8324 Y21.8590 
G01 X4.7677 Y21.8858 
G01 X4.4264 Y21.8858 
G01 X4.3617 Y21.8590 
G01 X4.3121 Y21.8094 
G01 X4.1903 Y21.6876 
G01 X4.0189 Y21.8590 
G01 X3.9542 Y21.8858 
G01 X3.6129 Y21.8858 
G01 X3.5482 Y21.8590 
G01 X3.2274 Y21.5382 
G01 X3.2006 Y21.4735 
G01 X3.2006 Y20.5899 
G01 X3.2274 Y20.5251 
G01 X3.2770 Y20.4755 
G01 X3.3418 Y20.4487 
G00 Z2.0000 
G00 X3.6530 Y20.9011 
G01 Z-0.0250 F254.00 
G01 X3.6530 Y21.3240 F508.00 
G01 X3.7624 Y21.4334 
G01 X3.8047 Y21.4334 
G01 X3.9141 Y21.3240 
G01 X3.9141 Y20.9011 
G01 X3.6530 Y20.9011 
G00 Z2.0000 
G00 X4.5759 Y21.4334 
G01 Z-0.0250 F254.00 
G01 X4.6182 Y21.4334 F508.00 
G01 X4.7276 Y21.3240 
G01 X4.7276 Y20.9011 
G01 X4.4665 Y20.9011 
G01 X4.4665 Y21.3240 
G01 X4.5759 Y21.4334 
G00 Z2.0000 
G00 X3.7674 Y17.8929 
G01 Z-0.0250 F254.00 
G01 X3.9141 Y18.0396 F508.00 
G01 X3.9141 Y17.7462 
G01 X3.7674 Y17.8929 
G00 Z2.0000 
G00 X3.6530 Y14.3525 
G01 Z-0.0250 F254.00 
G01 X3.6530 Y14.7754 F508.00 
G01 X3.7624 Y14.8848 
G01 X4.0759 Y14.8848 
G01 X4.1853 Y14.7754 
G01 X4.1853 Y14.3525 
G01 X3.6530 Y14.3525 
G00 Z2.0000 
G00 X3.6530 Y6.1667 
G01 Z-0.0250 F254.00 
G01 X3.6530 Y6.3557 F508.00 
G01 X3.6558 Y6.3418 
G01 X3.6596 Y6.3343 
G01 X3.6618 Y6.3262 
G01 X3.6758 Y6.3019 
G01 X3.7434 Y6.1667 
G01 X3.6530 Y6.1667 
G00 Z2.0000 
G00 X4.4592 Y5.9540 
G01 Z-0.0250 F254.00 
G01 X4.4536 Y5.9815 F508.00 
G01 X4.4499 Y5.9890 
G01 X4.4477 Y5.9971 
G01 X4.4336 Y6.0214 
G01 X4.1953 Y6.4980 
G01 X4.1953 Y6.5896 
G01 X4.3047 Y6.6990 
G01 X4.6182 Y6.6990 
G01 X4.7276 Y6.5896 
G01 X4.7276 Y6.2761 
G01 X4.5116 Y6.0601 
G01 X4.4753 Y5.9971 
G01 X4.4615 Y5.9457 
G01 X4.4592 Y5.9540 
G00 Z2.0000 
G00 X4.6182 Y3.4247 
G01 Z-0.0250 F254.00 
G01 X4.7276 Y3.3153 F508.00 
G01 X4.7276 Y3.0018 
G01 X4.6182 Y2.8924 
G01 X4.2642 Y2.8924 
G01 X4.2969 Y2.9012 
G01 X4.3599 Y2.9375 
G01 X4.4113 Y2.9889 
G01 X4.4477 Y3.0519 
G01 X4.4665 Y3.1222 
G01 X4.4665 Y3.4247 
G01 X4.6182 Y3.4247 
G00 Z2.0000 
G00 X3.8690 Y3.5313 
G01 Z-0.0250 F254.00 
G01 X3.9054 Y3.5943 F508.00 
G01 X3.9141 Y3.6269 
G01 X3.9141 Y3.1222 
G01 X3.9329 Y3.0519 
G01 X3.9693 Y2.9889 
G01 X4.0207 Y2.9375 
G01 X4.0837 Y2.9012 
G01 X4.1164 Y2.8924 
G01 X3.7624 Y2.8924 
G01 X3.6530 Y3.0018 
G01 X3.6530 Y3.3153 
G01 X3.8690 Y3.5313 
G00 Z2.0000 
G00 X27.1302 Y19.5200 
G01 Z-0.0250 F254.00 
G01 X27.6500 Y19.5200 F508.00 
G01 X27.6500 Y16.9443 
G01 X27.1000 Y17.4944 
G01 X27.1000 Y19.5325 
G01 X27.1302 Y19.5200 
G00 Z2.0000 
G00 X19.5200 Y6.2350 
G01 Z-0.0250 F254.00 
G01 X19.5200 Y5.9750 F508.00 
G01 X19.4649 Y6.0301 
G01 X19.3851 Y6.0761 
G01 X19.2961 Y6.1000 
G01 X18.1000 Y6.1000 
G01 X18.1000 Y8.4257 
G01 X18.6357 Y7.8899 
G01 X18.9000 Y7.8899 
G01 X18.9000 Y6.9539 
G01 X18.9239 Y6.8649 
G01 X18.9699 Y6.7851 
G01 X19.0351 Y6.7199 
G01 X19.5200 Y6.2350 
G00 Z2.0000 
G00 X25.1700 Y19.9000 
G01 Z-0.0250 F254.00 
G01 X25.1700 Y19.6802 F508.00 
G01 X25.2004 Y19.6067 
G01 X25.2567 Y19.5504 
G01 X25.3302 Y19.5200 
G01 X26.2098 Y19.5200 
G01 X26.2833 Y19.5504 
G01 X26.3396 Y19.6067 
G01 X26.3700 Y19.6802 
G01 X26.3700 Y20.8850 
G01 X26.4000 Y20.8550 
G01 X26.4000 Y17.5101 
G01 X26.2557 Y17.5101 
G01 X25.6699 Y16.9243 
G01 X25.6699 Y16.0957 
G01 X26.1657 Y15.6000 
G01 X24.6343 Y15.6000 
G01 X25.1301 Y16.0957 
G01 X25.1301 Y16.9243 
G01 X24.6000 Y17.4544 
G01 X24.6000 Y19.9000 
G01 X25.1700 Y19.9000 
G00 Z2.0000 
G00 X28.8900 Y2.4464 
G01 Z-0.0250 F254.00 
G01 X28.8900 Y2.6336 F508.00 
G01 X28.8535 Y2.8171 
G01 X28.7819 Y2.9900 
G01 X28.6779 Y3.1456 
G01 X28.5456 Y3.2779 
G01 X28.3900 Y3.3819 
G01 X28.2171 Y3.4535 
G01 X28.0336 Y3.4900 
G01 X27.8464 Y3.4900 
G01 X27.6629 Y3.4535 
G01 X27.4900 Y3.3819 
G01 X27.3344 Y3.2779 
G01 X27.2021 Y3.1456 
G01 X27.0981 Y2.9900 
G01 X27.0265 Y2.8171 
G01 X26.9900 Y2.6336 
G01 X26.9900 Y2.4464 
G01 X27.0265 Y2.2629 
G01 X27.0981 Y2.0900 
G01 X27.2021 Y1.9344 
G01 X27.3344 Y1.8021 
G01 X27.4900 Y1.6981 
G01 X27.6629 Y1.6265 
G01 X27.8464 Y1.5900 
G01 X28.0336 Y1.5900 
G01 X28.2171 Y1.6265 
G01 X28.3900 Y1.6981 
G01 X28.5456 Y1.8021 
G01 X28.6779 Y1.9344 
G01 X28.7819 Y2.0900 
G01 X28.8535 Y2.2629 
G01 X28.8900 Y2.4464 
G00 Z2.0000 
G00 X28.8900 Y22.7664 
G01 Z-0.0250 F254.00 
G01 X28.8900 Y22.9536 F508.00 
G01 X28.8535 Y23.1371 
G01 X28.7819 Y23.3100 
G01 X28.6779 Y23.4656 
G01 X28.5456 Y23.5979 
G01 X28.3900 Y23.7019 
G01 X28.2171 Y23.7735 
G01 X28.0336 Y23.8100 
G01 X27.8464 Y23.8100 
G01 X27.6629 Y23.7735 
G01 X27.4900 Y23.7019 
G01 X27.3344 Y23.5979 
G01 X27.2021 Y23.4656 
G01 X27.0981 Y23.3100 
G01 X27.0265 Y23.1371 
G01 X26.9900 Y22.9536 
G01 X26.9900 Y22.7664 
G01 X27.0265 Y22.5829 
G01 X27.0981 Y22.4100 
G01 X27.2021 Y22.2544 
G01 X27.3344 Y22.1221 
G01 X27.4900 Y22.0181 
G01 X27.6629 Y21.9465 
G01 X27.8464 Y21.9100 
G01 X28.0336 Y21.9100 
G01 X28.2171 Y21.9465 
G01 X28.3900 Y22.0181 
G01 X28.5456 Y22.1221 
G01 X28.6779 Y22.2544 
G01 X28.7819 Y22.4100 
G01 X28.8535 Y22.5829 
G01 X28.8900 Y22.7664 
G00 Z2.0000 
G00 X17.1498 Y4.7800 
G01 Z-0.0250 F254.00 
G01 X16.8500 Y4.7800 F508.00 
G01 X16.8500 Y5.0461 
G01 X16.8261 Y5.1351 
G01 X16.7801 Y5.2149 
G01 X16.7149 Y5.2801 
G01 X16.6351 Y5.3261 
G01 X16.5461 Y5.3500 
G01 X14.5500 Y5.3500 
G01 X14.5500 Y5.7198 
G01 X14.5196 Y5.7933 
G01 X14.4633 Y5.8496 
G01 X14.3898 Y5.8800 
G01 X13.1102 Y5.8800 
G01 X13.1000 Y5.8758 
G01 X13.1000 Y9.1050 
G01 X13.4649 Y9.4699 
G01 X13.5301 Y9.5351 
G01 X15.0450 Y11.0500 
G01 X15.8098 Y11.0500 
G01 X15.8833 Y11.0804 
G01 X15.9396 Y11.1367 
G01 X15.9700 Y11.2102 
G01 X15.9700 Y12.2898 
G01 X15.9396 Y12.3633 
G01 X15.8833 Y12.4196 
G01 X15.8098 Y12.4500 
G01 X14.3302 Y12.4500 
G01 X14.2567 Y12.4196 
G01 X14.2004 Y12.3633 
G01 X14.1700 Y12.2898 
G01 X14.1700 Y11.2102 
G01 X14.1833 Y11.1782 
G01 X13.2500 Y10.2450 
G01 X12.1000 Y11.3950 
G01 X12.1000 Y12.0125 
G01 X12.1302 Y12.0000 
G01 X12.9000 Y12.0000 
G01 X12.9000 Y11.8676 
G01 X12.7987 Y11.7999 
G01 X12.7001 Y11.7013 
G01 X12.6226 Y11.5854 
G01 X12.5692 Y11.4565 
G01 X12.5420 Y11.3197 
G01 X12.5420 Y11.1803 
G01 X12.5692 Y11.0435 
G01 X12.6226 Y10.9146 
G01 X12.7001 Y10.7987 
G01 X12.7987 Y10.7001 
G01 X12.9146 Y10.6226 
G01 X13.0435 Y10.5692 
G01 X13.1803 Y10.5420 
G01 X13.3197 Y10.5420 
G01 X13.4565 Y10.5692 
G01 X13.5854 Y10.6226 
G01 X13.7013 Y10.7001 
G01 X13.7999 Y10.7987 
G01 X13.8774 Y10.9146 
G01 X13.9308 Y11.0435 
G01 X13.9580 Y11.1803 
G01 X13.9580 Y11.3197 
G01 X13.9308 Y11.4565 
G01 X13.8774 Y11.5854 
G01 X13.7999 Y11.7013 
G01 X13.7013 Y11.7999 
G01 X13.6000 Y11.8676 
G01 X13.6000 Y12.0000 
G01 X13.6098 Y12.0000 
G01 X13.6833 Y12.0304 
G01 X13.7396 Y12.0867 
G01 X13.7700 Y12.1602 
G01 X13.7700 Y13.2398 
G01 X13.7396 Y13.3133 
G01 X13.6833 Y13.3696 
G01 X13.6098 Y13.4000 
G01 X12.1302 Y13.4000 
G01 X12.1000 Y13.3875 
G01 X12.1000 Y18.3550 
G01 X13.8350 Y20.0900 
G01 X14.6098 Y20.0900 
G01 X14.6833 Y20.1204 
G01 X14.7396 Y20.1767 
G01 X14.7700 Y20.2502 
G01 X14.7700 Y21.1298 
G01 X14.7396 Y21.2033 
G01 X14.6833 Y21.2596 
G01 X14.6098 Y21.2900 
G01 X13.3302 Y21.2900 
G01 X13.2567 Y21.2596 
G01 X13.2004 Y21.2033 
G01 X13.1700 Y21.1298 
G01 X13.1700 Y20.4150 
G01 X11.5351 Y18.7801 
G01 X11.4699 Y18.7149 
G01 X11.4239 Y18.6351 
G01 X11.4000 Y18.5461 
G01 X11.4000 Y11.2039 
G01 X11.4239 Y11.1149 
G01 X11.4699 Y11.0351 
G01 X12.7550 Y9.7500 
G01 X12.4699 Y9.4649 
G01 X12.4239 Y9.3851 
G01 X12.4000 Y9.2961 
G01 X12.4000 Y5.8128 
G01 X12.3633 Y5.8496 
G01 X12.2898 Y5.8800 
G01 X11.3500 Y5.8800 
G01 X11.3500 Y19.3550 
G01 X13.8850 Y21.8900 
G01 X14.6098 Y21.8900 
G01 X14.6833 Y21.9204 
G01 X14.7396 Y21.9767 
G01 X14.7700 Y22.0502 
G01 X14.7700 Y22.1500 
G01 X14.9000 Y22.1500 
G01 X14.9000 Y14.3500 
G01 X14.3302 Y14.3500 
G01 X14.2567 Y14.3196 
G01 X14.2004 Y14.2633 
G01 X14.1700 Y14.1898 
G01 X14.1700 Y13.1102 
G01 X14.2004 Y13.0367 
G01 X14.2567 Y12.9804 
G01 X14.3302 Y12.9500 
G01 X15.8098 Y12.9500 
G01 X15.8833 Y12.9804 
G01 X15.9396 Y13.0367 
G01 X15.9700 Y13.1102 
G01 X15.9700 Y14.1898 
G01 X15.9396 Y14.2633 
G01 X15.8833 Y14.3196 
G01 X15.8098 Y14.3500 
G01 X15.6000 Y14.3500 
G01 X15.6000 Y22.1500 
G01 X16.9800 Y22.1500 
G01 X16.9800 Y22.0502 
G01 X17.0104 Y21.9767 
G01 X17.0667 Y21.9204 
G01 X17.1402 Y21.8900 
G01 X18.4198 Y21.8900 
G01 X18.4439 Y21.9000 
G01 X25.3550 Y21.9000 
G01 X26.1350 Y21.1200 
G01 X25.3302 Y21.1200 
G01 X25.2567 Y21.0896 
G01 X25.2004 Y21.0333 
G01 X25.1700 Y20.9598 
G01 X25.1700 Y20.6000 
G01 X23.0900 Y20.6000 
G01 X23.0900 Y20.9598 
G01 X23.0596 Y21.0333 
G01 X23.0033 Y21.0896 
G01 X22.9298 Y21.1200 
G01 X22.0502 Y21.1200 
G01 X21.9767 Y21.0896 
G01 X21.9204 Y21.0333 
G01 X21.8900 Y20.9598 
G01 X21.8900 Y19.6802 
G01 X21.9204 Y19.6067 
G01 X21.9767 Y19.5504 
G01 X22.0502 Y19.5200 
G01 X22.9298 Y19.5200 
G01 X23.0033 Y19.5504 
G01 X23.0596 Y19.6067 
G01 X23.0900 Y19.6802 
G01 X23.0900 Y19.9000 
G01 X23.9000 Y19.9000 
G01 X23.9000 Y17.5101 
G01 X23.7157 Y17.5101 
G01 X23.1299 Y16.9243 
G01 X23.1299 Y16.0957 
G01 X23.6257 Y15.6000 
G01 X22.0943 Y15.6000 
G01 X22.5901 Y16.0957 
G01 X22.5901 Y16.9243 
G01 X22.0043 Y17.5101 
G01 X21.8500 Y17.5101 
G01 X21.8500 Y19.5461 
G01 X21.8261 Y19.6351 
G01 X21.7801 Y19.7149 
G01 X21.7149 Y19.7801 
G01 X21.2900 Y20.2050 
G01 X21.2900 Y20.9598 
G01 X21.2596 Y21.0333 
G01 X21.2033 Y21.0896 
G01 X21.1298 Y21.1200 
G01 X20.2502 Y21.1200 
G01 X20.1767 Y21.0896 
G01 X20.1204 Y21.0333 
G01 X20.0900 Y20.9598 
G01 X20.0900 Y20.8500 
G01 X18.5800 Y20.8500 
G01 X18.5800 Y21.1298 
G01 X18.5495 Y21.2033 
G01 X18.4933 Y21.2596 
G01 X18.4198 Y21.2900 
G01 X17.1402 Y21.2900 
G01 X17.0667 Y21.2596 
G01 X17.0104 Y21.2033 
G01 X16.9800 Y21.1298 
G01 X16.9800 Y20.2502 
G01 X17.0104 Y20.1767 
G01 X17.0667 Y20.1204 
G01 X17.1402 Y20.0900 
G01 X18.4198 Y20.0900 
G01 X18.4933 Y20.1204 
G01 X18.5228 Y20.1500 
G01 X20.0900 Y20.1500 
G01 X20.0900 Y19.6802 
G01 X20.1204 Y19.6067 
G01 X20.1767 Y19.5504 
G01 X20.2502 Y19.5200 
G01 X20.9850 Y19.5200 
G01 X21.1500 Y19.3550 
G01 X21.1500 Y17.4844 
G01 X20.5899 Y16.9243 
G01 X20.5899 Y16.0957 
G01 X21.0857 Y15.6000 
G01 X19.6000 Y15.6000 
G01 X19.6000 Y15.6456 
G01 X20.0501 Y16.0957 
G01 X20.0501 Y16.9243 
G01 X19.4643 Y17.5101 
G01 X18.6357 Y17.5101 
G01 X18.0499 Y16.9243 
G01 X18.0499 Y16.0957 
G01 X18.6357 Y15.5099 
G01 X18.9000 Y15.5099 
G01 X18.9000 Y15.3950 
G01 X17.4699 Y13.9649 
G01 X17.4239 Y13.8851 
G01 X17.4000 Y13.7961 
G01 X17.4000 Y6.1000 
G01 X17.3100 Y6.1000 
G01 X17.3100 Y6.4198 
G01 X17.2796 Y6.4933 
G01 X17.2233 Y6.5495 
G01 X17.1498 Y6.5800 
G01 X15.8702 Y6.5800 
G01 X15.7967 Y6.5495 
G01 X15.7404 Y6.4933 
G01 X15.7100 Y6.4198 
G01 X15.7100 Y5.5402 
G01 X15.7404 Y5.4667 
G01 X15.7967 Y5.4104 
G01 X15.8702 Y5.3800 
G01 X17.1498 Y5.3800 
G01 X17.1981 Y5.4000 
G01 X18.9000 Y5.4000 
G01 X18.9000 Y5.2039 
G01 X18.9239 Y5.1149 
G01 X18.9699 Y5.0351 
G01 X19.5200 Y4.4850 
G01 X19.5200 Y3.7402 
G01 X19.5504 Y3.6667 
G01 X19.6067 Y3.6104 
G01 X19.6802 Y3.5800 
G01 X20.9598 Y3.5800 
G01 X21.0333 Y3.6104 
G01 X21.0896 Y3.6667 
G01 X21.1200 Y3.7402 
G01 X21.1200 Y3.9000 
G01 X23.3300 Y3.9000 
G01 X23.3300 Y3.7402 
G01 X23.3604 Y3.6667 
G01 X23.4167 Y3.6104 
G01 X23.4902 Y3.5800 
G01 X24.7698 Y3.5800 
G01 X24.8433 Y3.6104 
G01 X24.8996 Y3.6667 
G01 X24.9300 Y3.7402 
G01 X24.9300 Y4.6198 
G01 X24.8996 Y4.6933 
G01 X24.8433 Y4.7496 
G01 X24.7698 Y4.7800 
G01 X23.4902 Y4.7800 
G01 X23.4167 Y4.7496 
G01 X23.3604 Y4.6933 
G01 X23.3300 Y4.6198 
G01 X23.3300 Y4.6000 
G01 X21.1200 Y4.6000 
G01 X21.1200 Y4.6198 
G01 X21.0896 Y4.6933 
G01 X21.0333 Y4.7496 
G01 X20.9598 Y4.7800 
G01 X20.2150 Y4.7800 
G01 X19.6000 Y5.3950 
G01 X19.6000 Y5.4172 
G01 X19.6067 Y5.4104 
G01 X19.6802 Y5.3800 
G01 X20.9598 Y5.3800 
G01 X21.0333 Y5.4104 
G01 X21.0896 Y5.4667 
G01 X21.1200 Y5.5402 
G01 X21.1200 Y6.4198 
G01 X21.0896 Y6.4933 
G01 X21.0333 Y6.5495 
G01 X20.9598 Y6.5800 
G01 X20.1650 Y6.5800 
G01 X19.6000 Y7.1450 
G01 X19.6000 Y8.0256 
G01 X20.0501 Y8.4757 
G01 X20.0501 Y9.3043 
G01 X19.4643 Y9.8901 
G01 X18.6357 Y9.8901 
G01 X18.1000 Y9.3543 
G01 X18.1000 Y13.6050 
G01 X19.3950 Y14.9000 
G01 X27.2961 Y14.9000 
G01 X27.3851 Y14.9239 
G01 X27.4649 Y14.9699 
G01 X27.5301 Y15.0351 
G01 X28.2801 Y15.7851 
G01 X28.3261 Y15.8649 
G01 X28.3500 Y15.9539 
G01 X28.3500 Y20.0461 
G01 X28.3261 Y20.1351 
G01 X28.2801 Y20.2149 
G01 X28.2149 Y20.2801 
G01 X28.1700 Y20.3250 
G01 X28.1700 Y20.9598 
G01 X28.1395 Y21.0333 
G01 X28.0833 Y21.0896 
G01 X28.0098 Y21.1200 
G01 X27.1302 Y21.1200 
G01 X27.0852 Y21.1013 
G01 X27.0761 Y21.1351 
G01 X27.0301 Y21.2149 
G01 X25.7801 Y22.4649 
G01 X25.7149 Y22.5301 
G01 X25.6351 Y22.5761 
G01 X25.5461 Y22.6000 
G01 X18.5800 Y22.6000 
G01 X18.5800 Y22.9298 
G01 X18.5495 Y23.0033 
G01 X18.4933 Y23.0596 
G01 X18.4198 Y23.0900 
G01 X17.1402 Y23.0900 
G01 X17.0667 Y23.0596 
G01 X17.0104 Y23.0033 
G01 X16.9800 Y22.9298 
G01 X16.9800 Y22.8500 
G01 X14.7700 Y22.8500 
G01 X14.7700 Y22.9298 
G01 X14.7396 Y23.0033 
G01 X14.6833 Y23.0596 
G01 X14.6098 Y23.0900 
G01 X13.3302 Y23.0900 
G01 X13.2567 Y23.0596 
G01 X13.2004 Y23.0033 
G01 X13.1700 Y22.9298 
G01 X13.1700 Y22.1650 
G01 X10.7199 Y19.7149 
G01 X10.6739 Y19.6351 
G01 X10.6500 Y19.5461 
G01 X10.6500 Y5.6000 
G01 X8.7066 Y5.6000 
G01 X8.8289 Y5.6817 
G01 X8.9487 Y5.8015 
G01 X9.0429 Y5.9424 
G01 X9.1077 Y6.0990 
G01 X9.1408 Y6.2653 
G01 X9.1408 Y6.4347 
G01 X9.1077 Y6.6010 
G01 X9.0429 Y6.7576 
G01 X8.9487 Y6.8985 
G01 X8.8289 Y7.0183 
G01 X8.6880 Y7.1125 
G01 X8.5314 Y7.1773 
G01 X8.3651 Y7.2104 
G01 X6.8749 Y7.2104 
G01 X6.7086 Y7.1773 
G01 X6.5520 Y7.1125 
G01 X6.4111 Y7.0183 
G01 X6.2913 Y6.8985 
G01 X6.1971 Y6.7576 
G01 X6.1323 Y6.6010 
G01 X6.0992 Y6.4347 
G01 X6.0992 Y6.2653 
G01 X6.1323 Y6.0990 
G01 X6.1971 Y5.9424 
G01 X6.2913 Y5.8015 
G01 X6.4111 Y5.6817 
G01 X6.5520 Y5.5875 
G01 X6.7086 Y5.5227 
G01 X6.8749 Y5.4896 
G01 X7.4000 Y5.4896 
G01 X7.4000 Y5.2039 
G01 X7.4239 Y5.1149 
G01 X7.4699 Y5.0351 
G01 X7.5351 Y4.9699 
G01 X7.6149 Y4.9239 
G01 X7.7039 Y4.9000 
G01 X10.8500 Y4.9000 
G01 X10.8500 Y4.4402 
G01 X10.8804 Y4.3667 
G01 X10.9367 Y4.3104 
G01 X11.0102 Y4.2800 
G01 X12.2898 Y4.2800 
G01 X12.3633 Y4.3104 
G01 X12.4000 Y4.3472 
G01 X12.4000 Y2.7039 
G01 X12.4239 Y2.6149 
G01 X12.4699 Y2.5351 
G01 X12.5351 Y2.4699 
G01 X12.6149 Y2.4239 
G01 X12.7039 Y2.4000 
G01 X25.2961 Y2.4000 
G01 X25.3851 Y2.4239 
G01 X25.4649 Y2.4699 
G01 X25.5301 Y2.5351 
G01 X26.5750 Y3.5800 
G01 X27.3098 Y3.5800 
G01 X27.3833 Y3.6104 
G01 X27.4396 Y3.6667 
G01 X27.4700 Y3.7402 
G01 X27.4700 Y4.6198 
G01 X27.4396 Y4.6933 
G01 X27.3833 Y4.7496 
G01 X27.3098 Y4.7800 
G01 X26.0302 Y4.7800 
G01 X25.9567 Y4.7496 
G01 X25.9004 Y4.6933 
G01 X25.8700 Y4.6198 
G01 X25.8700 Y3.8650 
G01 X25.1050 Y3.1000 
G01 X13.1000 Y3.1000 
G01 X13.1000 Y4.2842 
G01 X13.1102 Y4.2800 
G01 X14.3898 Y4.2800 
G01 X14.4633 Y4.3104 
G01 X14.5196 Y4.3667 
G01 X14.5500 Y4.4402 
G01 X14.5500 Y4.6500 
G01 X15.7225 Y4.6500 
G01 X15.7100 Y4.6198 
G01 X15.7100 Y3.7402 
G01 X15.7404 Y3.6667 
G01 X15.7967 Y3.6104 
G01 X15.8702 Y3.5800 
G01 X17.1498 Y3.5800 
G01 X17.2233 Y3.6104 
G01 X17.2796 Y3.6667 
G01 X17.3100 Y3.7402 
G01 X17.3100 Y4.6198 
G01 X17.2796 Y4.6933 
G01 X17.2233 Y4.7496 
G01 X17.1498 Y4.7800 
G00 Z2.0000 
G00 X6.8749 Y18.1896 
G01 Z-0.0250 F254.00 
G01 X8.3651 Y18.1896 F508.00 
G01 X8.5314 Y18.2227 
G01 X8.6880 Y18.2875 
G01 X8.8289 Y18.3817 
G01 X8.9487 Y18.5015 
G01 X9.0429 Y18.6424 
G01 X9.1077 Y18.7990 
G01 X9.1408 Y18.9653 
G01 X9.1408 Y19.1347 
G01 X9.1077 Y19.3010 
G01 X9.0429 Y19.4576 
G01 X8.9487 Y19.5985 
G01 X8.8289 Y19.7183 
G01 X8.6880 Y19.8125 
G01 X8.5314 Y19.8773 
G01 X8.3651 Y19.9104 
G01 X6.8749 Y19.9104 
G01 X6.7086 Y19.8773 
G01 X6.5520 Y19.8125 
G01 X6.4111 Y19.7183 
G01 X6.2913 Y19.5985 
G01 X6.1971 Y19.4576 
G01 X6.1323 Y19.3010 
G01 X6.0992 Y19.1347 
G01 X6.0992 Y18.9653 
G01 X6.1323 Y18.7990 
G01 X6.1971 Y18.6424 
G01 X6.2913 Y18.5015 
G01 X6.4111 Y18.3817 
G01 X6.5520 Y18.2875 
G01 X6.7086 Y18.2227 
G01 X6.8749 Y18.1896 
G00 Z2.0000 
G00 X6.8749 Y15.6496 
G01 Z-0.0250 F254.00 
G01 X8.3651 Y15.6496 F508.00 
G01 X8.5314 Y15.6827 
G01 X8.6880 Y15.7475 
G01 X8.8289 Y15.8417 
G01 X8.9487 Y15.9615 
G01 X9.0429 Y16.1024 
G01 X9.1077 Y16.2590 
G01 X9.1408 Y16.4253 
G01 X9.1408 Y16.5947 
G01 X9.1077 Y16.7610 
G01 X9.0429 Y16.9176 
G01 X8.9487 Y17.0585 
G01 X8.8289 Y17.1783 
G01 X8.6880 Y17.2725 
G01 X8.5314 Y17.3373 
G01 X8.3651 Y17.3704 
G01 X6.8749 Y17.3704 
G01 X6.7086 Y17.3373 
G01 X6.5520 Y17.2725 
G01 X6.4111 Y17.1783 
G01 X6.2913 Y17.0585 
G01 X6.1971 Y16.9176 
G01 X6.1323 Y16.7610 
G01 X6.0992 Y16.5947 
G01 X6.0992 Y16.4253 
G01 X6.1323 Y16.2590 
G01 X6.1971 Y16.1024 
G01 X6.2913 Y15.9615 
G01 X6.4111 Y15.8417 
G01 X6.5520 Y15.7475 
G01 X6.7086 Y15.6827 
G01 X6.8749 Y15.6496 
G00 Z2.0000 
G00 X6.8749 Y13.1096 
G01 Z-0.0250 F254.00 
G01 X8.3651 Y13.1096 F508.00 
G01 X8.5314 Y13.1427 
G01 X8.6880 Y13.2075 
G01 X8.8289 Y13.3017 
G01 X8.9487 Y13.4215 
G01 X9.0429 Y13.5624 
G01 X9.1077 Y13.7190 
G01 X9.1408 Y13.8853 
G01 X9.1408 Y14.0547 
G01 X9.1077 Y14.2210 
G01 X9.0429 Y14.3776 
G01 X8.9487 Y14.5185 
G01 X8.8289 Y14.6383 
G01 X8.6880 Y14.7325 
G01 X8.5314 Y14.7973 
G01 X8.3651 Y14.8304 
G01 X6.8749 Y14.8304 
G01 X6.7086 Y14.7973 
G01 X6.5520 Y14.7325 
G01 X6.4111 Y14.6383 
G01 X6.2913 Y14.5185 
G01 X6.1971 Y14.3776 
G01 X6.1323 Y14.2210 
G01 X6.0992 Y14.0547 
G01 X6.0992 Y13.8853 
G01 X6.1323 Y13.7190 
G01 X6.1971 Y13.5624 
G01 X6.2913 Y13.4215 
G01 X6.4111 Y13.3017 
G01 X6.5520 Y13.2075 
G01 X6.7086 Y13.1427 
G01 X6.8749 Y13.1096 
G00 Z2.0000 
G00 X6.8749 Y10.5696 
G01 Z-0.0250 F254.00 
G01 X8.3651 Y10.5696 F508.00 
G01 X8.5314 Y10.6027 
G01 X8.6880 Y10.6675 
G01 X8.8289 Y10.7617 
G01 X8.9487 Y10.8815 
G01 X9.0429 Y11.0224 
G01 X9.1077 Y11.1790 
G01 X9.1408 Y11.3453 
G01 X9.1408 Y11.5147 
G01 X9.1077 Y11.6810 
G01 X9.0429 Y11.8376 
G01 X8.9487 Y11.9785 
G01 X8.8289 Y12.0983 
G01 X8.6880 Y12.1925 
G01 X8.5314 Y12.2573 
G01 X8.3651 Y12.2904 
G01 X6.8749 Y12.2904 
G01 X6.7086 Y12.2573 
G01 X6.5520 Y12.1925 
G01 X6.4111 Y12.0983 
G01 X6.2913 Y11.9785 
G01 X6.1971 Y11.8376 
G01 X6.1323 Y11.6810 
G01 X6.0992 Y11.5147 
G01 X6.0992 Y11.3453 
G01 X6.1323 Y11.1790 
G01 X6.1971 Y11.0224 
G01 X6.2913 Y10.8815 
G01 X6.4111 Y10.7617 
G01 X6.5520 Y10.6675 
G01 X6.7086 Y10.6027 
G01 X6.8749 Y10.5696 
G00 Z2.0000 
G00 X6.8749 Y8.0296 
G01 Z-0.0250 F254.00 
G01 X8.3651 Y8.0296 F508.00 
G01 X8.5314 Y8.0627 
G01 X8.6880 Y8.1275 
G01 X8.8289 Y8.2217 
G01 X8.9487 Y8.3415 
G01 X9.0429 Y8.4824 
G01 X9.1077 Y8.6390 
G01 X9.1408 Y8.8053 
G01 X9.1408 Y8.9747 
G01 X9.1077 Y9.1410 
G01 X9.0429 Y9.2976 
G01 X8.9487 Y9.4385 
G01 X8.8289 Y9.5583 
G01 X8.6880 Y9.6525 
G01 X8.5314 Y9.7173 
G01 X8.3651 Y9.7504 
G01 X6.8749 Y9.7504 
G01 X6.7086 Y9.7173 
G01 X6.5520 Y9.6525 
G01 X6.4111 Y9.5583 
G01 X6.2913 Y9.4385 
G01 X6.1971 Y9.2976 
G01 X6.1323 Y9.1410 
G01 X6.0992 Y8.9747 
G01 X6.0992 Y8.8053 
G01 X6.1323 Y8.6390 
G01 X6.1971 Y8.4824 
G01 X6.2913 Y8.3415 
G01 X6.4111 Y8.2217 
G01 X6.5520 Y8.1275 
G01 X6.7086 Y8.0627 
G01 X6.8749 Y8.0296 
G00 Z2.0000 
G00 X27.6701 Y8.4757 
G01 Z-0.0250 F254.00 
G01 X27.6701 Y9.3043 F508.00 
G01 X27.0843 Y9.8901 
G01 X26.2557 Y9.8901 
G01 X25.6699 Y9.3043 
G01 X25.6699 Y8.4757 
G01 X26.2557 Y7.8899 
G01 X26.4000 Y7.8899 
G01 X26.4000 Y6.5800 
G01 X26.0302 Y6.5800 
G01 X25.9567 Y6.5495 
G01 X25.9004 Y6.4933 
G01 X25.8700 Y6.4198 
G01 X25.8700 Y5.5402 
G01 X25.9004 Y5.4667 
G01 X25.9567 Y5.4104 
G01 X26.0302 Y5.3800 
G01 X27.3098 Y5.3800 
G01 X27.3833 Y5.4104 
G01 X27.4396 Y5.4667 
G01 X27.4700 Y5.5402 
G01 X27.4700 Y6.4198 
G01 X27.4396 Y6.4933 
G01 X27.3833 Y6.5495 
G01 X27.3098 Y6.5800 
G01 X27.1000 Y6.5800 
G01 X27.1000 Y7.9056 
G01 X27.6701 Y8.4757 
G00 Z2.0000 
G00 X25.1301 Y8.4757 
G01 Z-0.0250 F254.00 
G01 X25.1301 Y9.3043 F508.00 
G01 X24.5443 Y9.8901 
G01 X23.7157 Y9.8901 
G01 X23.1756 Y9.3500 
G01 X22.5444 Y9.3500 
G01 X22.0043 Y9.8901 
G01 X21.1757 Y9.8901 
G01 X20.5899 Y9.3043 
G01 X20.5899 Y8.4757 
G01 X21.1757 Y7.8899 
G01 X22.0043 Y7.8899 
G01 X22.5901 Y8.4757 
G01 X22.5901 Y8.6500 
G01 X23.1299 Y8.6500 
G01 X23.1299 Y8.4757 
G01 X23.7157 Y7.8899 
G01 X23.9000 Y7.8899 
G01 X23.9000 Y6.5800 
G01 X23.4902 Y6.5800 
G01 X23.4167 Y6.5495 
G01 X23.3604 Y6.4933 
G01 X23.3300 Y6.4198 
G01 X23.3300 Y5.5402 
G01 X23.3604 Y5.4667 
G01 X23.4167 Y5.4104 
G01 X23.4902 Y5.3800 
G01 X24.7698 Y5.3800 
G01 X24.8433 Y5.4104 
G01 X24.8996 Y5.4667 
G01 X24.9300 Y5.5402 
G01 X24.9300 Y6.4198 
G01 X24.8996 Y6.4933 
G01 X24.8433 Y6.5495 
G01 X24.7698 Y6.5800 
G01 X24.6000 Y6.5800 
G01 X24.6000 Y7.9456 
G01 X25.1301 Y8.4757 
G00 Z2.0000 
G00 X5.0402 Y11.0681 
G01 Z-0.0250 F254.00 
G01 X5.1104 Y11.0869 F508.00 
G01 X5.1734 Y11.1233 
G01 X5.2248 Y11.1747 
G01 X5.2612 Y11.2377 
G01 X5.2800 Y11.3079 
G01 X5.2800 Y11.3807 
G01 X5.2612 Y11.4509 
G01 X5.2248 Y11.5139 
G01 X5.1734 Y11.5653 
G01 X5.1104 Y11.6017 
G01 X5.0402 Y11.6205 
G01 X3.6530 Y11.6205 
G01 X3.6530 Y11.9230 
G01 X3.6342 Y11.9932 
G01 X3.5978 Y12.0562 
G01 X3.5464 Y12.1077 
G01 X3.4834 Y12.1440 
G01 X3.4132 Y12.1628 
G01 X3.3404 Y12.1628 
G01 X3.2702 Y12.1440 
G01 X3.2072 Y12.1077 
G01 X3.1558 Y12.0562 
G01 X3.1194 Y11.9932 
G01 X3.1006 Y11.9230 
G01 X3.1006 Y10.7656 
G01 X3.1194 Y10.6954 
G01 X3.1558 Y10.6324 
G01 X3.2072 Y10.5810 
G01 X3.2702 Y10.5446 
G01 X3.3404 Y10.5258 
G01 X3.4132 Y10.5258 
G01 X3.4834 Y10.5446 
G01 X3.5464 Y10.5810 
G01 X3.5978 Y10.6324 
G01 X3.6342 Y10.6954 
G01 X3.6530 Y10.7656 
G01 X3.6530 Y11.0681 
G01 X5.0402 Y11.0681 
G00 Z2.0000 
G00 X3.9054 Y3.8075 
G01 Z-0.0250 F254.00 
G01 X3.8690 Y3.8705 F508.00 
G01 X3.8176 Y3.9219 
G01 X3.7546 Y3.9582 
G01 X3.6843 Y3.9771 
G01 X3.6116 Y3.9771 
G01 X3.5414 Y3.9582 
G01 X3.4784 Y3.9219 
G01 X3.1583 Y3.6018 
G01 X3.1194 Y3.5363 
G01 X3.1006 Y3.4661 
G01 X3.1006 Y3.3080 
G01 X2.9900 Y3.3819 
G01 X2.8171 Y3.4535 
G01 X2.6336 Y3.4900 
G01 X2.4464 Y3.4900 
G01 X2.2629 Y3.4535 
G01 X2.0900 Y3.3819 
G01 X1.9344 Y3.2779 
G01 X1.8021 Y3.1456 
G01 X1.6981 Y2.9900 
G01 X1.6265 Y2.8171 
G01 X1.5900 Y2.6336 
G01 X1.5900 Y2.4464 
G01 X1.6265 Y2.2629 
G01 X1.6981 Y2.0900 
G01 X1.8021 Y1.9344 
G01 X1.9344 Y1.8021 
G01 X2.0900 Y1.6981 
G01 X2.2629 Y1.6265 
G01 X2.4464 Y1.5900 
G01 X2.6336 Y1.5900 
G01 X2.8171 Y1.6265 
G01 X2.9900 Y1.6981 
G01 X3.1456 Y1.8021 
G01 X3.2779 Y1.9344 
G01 X3.3819 Y2.0900 
G01 X3.4535 Y2.2629 
G01 X3.4797 Y2.3945 
G01 X3.5414 Y2.3588 
G01 X3.6116 Y2.3400 
G01 X4.7690 Y2.3400 
G01 X4.8392 Y2.3588 
G01 X4.9022 Y2.3952 
G01 X5.1734 Y2.6663 
G01 X5.2248 Y2.7178 
G01 X5.2612 Y2.7808 
G01 X5.2800 Y2.8510 
G01 X5.2800 Y3.4661 
G01 X5.2612 Y3.5363 
G01 X5.2256 Y3.5979 
G01 X4.9022 Y3.9219 
G01 X4.8406 Y3.9574 
G01 X4.7690 Y3.9771 
G01 X4.1539 Y3.9771 
G01 X4.0837 Y3.9582 
G01 X4.0207 Y3.9219 
G01 X3.9693 Y3.8704 
G01 X3.9329 Y3.8075 
G01 X3.9191 Y3.7560 
G01 X3.9054 Y3.8075 
G00 Z2.0000 
G00 X3.6530 Y7.0115 
G01 Z-0.0250 F254.00 
G01 X3.6342 Y7.0818 F508.00 
G01 X3.5978 Y7.1448 
G01 X3.5464 Y7.1962 
G01 X3.4834 Y7.2325 
G01 X3.4132 Y7.2514 
G01 X3.3404 Y7.2514 
G01 X3.2702 Y7.2325 
G01 X3.2072 Y7.1962 
G01 X3.1558 Y7.1448 
G01 X3.1194 Y7.0818 
G01 X3.1006 Y7.0115 
G01 X3.1006 Y5.8541 
G01 X3.1194 Y5.7839 
G01 X3.1558 Y5.7209 
G01 X3.2072 Y5.6695 
G01 X3.2702 Y5.6331 
G01 X3.3404 Y5.6143 
G01 X4.1820 Y5.6143 
G01 X4.2101 Y5.6126 
G01 X4.2183 Y5.6143 
G01 X4.2267 Y5.6143 
G01 X4.2538 Y5.6216 
G01 X4.2813 Y5.6272 
G01 X4.2888 Y5.6310 
G01 X4.2969 Y5.6331 
G01 X4.3212 Y5.6472 
G01 X4.3464 Y5.6597 
G01 X4.3526 Y5.6653 
G01 X4.3599 Y5.6695 
G01 X4.3797 Y5.6893 
G01 X4.4008 Y5.7080 
G01 X4.4054 Y5.7150 
G01 X4.4113 Y5.7209 
G01 X4.4254 Y5.7452 
G01 X4.4408 Y5.7687 
G01 X4.4435 Y5.7766 
G01 X4.4477 Y5.7839 
G01 X4.4550 Y5.8110 
G01 X4.4622 Y5.8327 
G01 X4.4753 Y5.7839 
G01 X4.5116 Y5.7209 
G01 X4.5630 Y5.6695 
G01 X4.6260 Y5.6331 
G01 X4.6963 Y5.6143 
G01 X4.7690 Y5.6143 
G01 X4.8392 Y5.6331 
G01 X4.9022 Y5.6695 
G01 X5.2248 Y5.9921 
G01 X5.2612 Y6.0551 
G01 X5.2800 Y6.1253 
G01 X5.2800 Y6.7404 
G01 X5.2612 Y6.8106 
G01 X5.2248 Y6.8736 
G01 X4.9022 Y7.1962 
G01 X4.8392 Y7.2325 
G01 X4.7690 Y7.2514 
G01 X4.1539 Y7.2514 
G01 X4.0837 Y7.2325 
G01 X4.0207 Y7.1962 
G01 X3.9693 Y7.1448 
G01 X3.6981 Y6.8736 
G01 X3.6618 Y6.8106 
G01 X3.6530 Y6.7779 
G01 X3.6530 Y7.0115 
G00 Z2.0000 
G00 X3.3404 Y7.8039 
G01 Z-0.0250 F254.00 
G01 X3.2702 Y7.7850 F508.00 
G01 X3.2072 Y7.7487 
G01 X3.1558 Y7.6973 
G01 X3.1194 Y7.6343 
G01 X3.1006 Y7.5640 
G01 X3.1006 Y7.4913 
G01 X3.1194 Y7.4211 
G01 X3.1558 Y7.3581 
G01 X3.2072 Y7.3067 
G01 X3.2702 Y7.2703 
G01 X3.3404 Y7.2515 
G01 X4.4978 Y7.2515 
G01 X4.5681 Y7.2703 
G01 X4.6311 Y7.3067 
G01 X5.1734 Y7.8490 
G01 X5.2248 Y7.9004 
G01 X5.2612 Y7.9634 
G01 X5.2800 Y8.0336 
G01 X5.2800 Y8.1064 
G01 X5.2792 Y8.1093 
G01 X5.2612 Y8.1766 
G01 X5.2256 Y8.2382 
G01 X4.6311 Y8.8333 
G01 X4.5695 Y8.8689 
G01 X4.4978 Y8.8885 
G01 X3.3404 Y8.8885 
G01 X3.2702 Y8.8697 
G01 X3.2072 Y8.8333 
G01 X3.1558 Y8.7819 
G01 X3.1194 Y8.7189 
G01 X3.1006 Y8.6487 
G01 X3.1006 Y8.5760 
G01 X3.1194 Y8.5057 
G01 X3.1558 Y8.4427 
G01 X3.2072 Y8.3913 
G01 X3.2702 Y8.3550 
G01 X3.3404 Y8.3361 
G01 X4.3471 Y8.3361 
G01 X4.6132 Y8.0700 
G01 X4.3471 Y7.8039 
G01 X3.3404 Y7.8039 
G00 Z2.0000 
G00 X5.0402 Y13.8001 
G01 Z-0.0250 F254.00 
G01 X5.1104 Y13.8189 F508.00 
G01 X5.1734 Y13.8553 
G01 X5.2248 Y13.9067 
G01 X5.2612 Y13.9697 
G01 X5.2800 Y14.0399 
G01 X5.2800 Y14.1127 
G01 X5.2612 Y14.1829 
G01 X5.2248 Y14.2459 
G01 X5.1734 Y14.2973 
G01 X5.1104 Y14.3337 
G01 X5.0402 Y14.3525 
G01 X4.7377 Y14.3525 
G01 X4.7377 Y14.5042 
G01 X5.2248 Y14.9914 
G01 X5.2612 Y15.0543 
G01 X5.2800 Y15.1246 
G01 X5.2800 Y15.1973 
G01 X5.2612 Y15.2676 
G01 X5.2248 Y15.3305 
G01 X5.1734 Y15.3820 
G01 X5.1104 Y15.4183 
G01 X5.0402 Y15.4372 
G01 X4.9674 Y15.4372 
G01 X4.8972 Y15.4183 
G01 X4.8342 Y15.3820 
G01 X4.5971 Y15.1448 
G01 X4.3599 Y15.3820 
G01 X4.2969 Y15.4183 
G01 X4.2267 Y15.4372 
G01 X3.6116 Y15.4372 
G01 X3.5414 Y15.4183 
G01 X3.4784 Y15.3820 
G01 X3.1558 Y15.0594 
G01 X3.1194 Y14.9964 
G01 X3.1006 Y14.9262 
G01 X3.1006 Y14.0399 
G01 X3.1194 Y13.9697 
G01 X3.1558 Y13.9067 
G01 X3.2072 Y13.8553 
G01 X3.2702 Y13.8189 
G01 X3.3404 Y13.8001 
G01 X4.4978 Y13.8001 
G01 X5.0402 Y13.8001 
G00 Z2.0000 
G00 X5.0402 Y17.0744 
G01 Z-0.0250 F254.00 
G01 X5.1104 Y17.0932 F508.00 
G01 X5.1734 Y17.1296 
G01 X5.2248 Y17.1810 
G01 X5.2612 Y17.2440 
G01 X5.2800 Y17.3142 
G01 X5.2800 Y17.3870 
G01 X5.2612 Y17.4572 
G01 X5.2248 Y17.5202 
G01 X5.1734 Y17.5716 
G01 X5.1104 Y17.6080 
G01 X5.0402 Y17.6268 
G01 X4.4665 Y17.6268 
G01 X4.4665 Y18.1591 
G01 X5.0402 Y18.1591 
G01 X5.1104 Y18.1779 
G01 X5.1734 Y18.2142 
G01 X5.2248 Y18.2657 
G01 X5.2612 Y18.3287 
G01 X5.2800 Y18.3989 
G01 X5.2800 Y18.4716 
G01 X5.2612 Y18.5419 
G01 X5.2248 Y18.6049 
G01 X5.1734 Y18.6563 
G01 X5.1104 Y18.6926 
G01 X5.0402 Y18.7115 
G01 X3.8828 Y18.7115 
G01 X3.8125 Y18.6926 
G01 X3.7495 Y18.6563 
G01 X3.1558 Y18.0625 
G01 X3.1194 Y17.9995 
G01 X3.1014 Y17.9323 
G01 X3.1006 Y17.9293 
G01 X3.1006 Y17.8566 
G01 X3.1194 Y17.7863 
G01 X3.1558 Y17.7233 
G01 X3.2072 Y17.6719 
G01 X3.7496 Y17.1296 
G01 X3.8125 Y17.0932 
G01 X3.8828 Y17.0744 
G01 X4.2267 Y17.0744 
G01 X5.0402 Y17.0744 
G00 Z2.0000 
G00 X3.3404 Y20.3487 
G01 Z-0.0250 F254.00 
G01 X5.0402 Y20.3487 F508.00 
G01 X5.1104 Y20.3675 
G01 X5.1734 Y20.4039 
G01 X5.2248 Y20.4553 
G01 X5.2612 Y20.5183 
G01 X5.2800 Y20.5886 
G01 X5.2800 Y21.4748 
G01 X5.2612 Y21.5450 
G01 X5.2248 Y21.6080 
G01 X4.9022 Y21.9306 
G01 X4.8392 Y21.9670 
G01 X4.7690 Y21.9858 
G01 X4.4251 Y21.9858 
G01 X4.3549 Y21.9670 
G01 X4.2919 Y21.9306 
G01 X4.2405 Y21.8792 
G01 X4.1903 Y21.8290 
G01 X4.0887 Y21.9306 
G01 X4.0258 Y21.9670 
G01 X3.9555 Y21.9858 
G01 X3.6116 Y21.9858 
G01 X3.5414 Y21.9670 
G01 X3.4784 Y21.9306 
G01 X3.1558 Y21.6080 
G01 X3.1194 Y21.5450 
G01 X3.1006 Y21.4748 
G01 X3.1006 Y20.5886 
G01 X3.1194 Y20.5183 
G01 X3.1558 Y20.4553 
G01 X3.2072 Y20.4039 
G01 X3.2702 Y20.3675 
G01 X3.3404 Y20.3487 
G00 Z2.0000 
G00 X3.4900 Y22.7664 
G01 Z-0.0250 F254.00 
G01 X3.4900 Y22.9536 F508.00 
G01 X3.4535 Y23.1371 
G01 X3.3819 Y23.3100 
G01 X3.2779 Y23.4656 
G01 X3.1456 Y23.5979 
G01 X2.9900 Y23.7019 
G01 X2.8171 Y23.7735 
G01 X2.6336 Y23.8100 
G01 X2.4464 Y23.8100 
G01 X2.2629 Y23.7735 
G01 X2.0900 Y23.7019 
G01 X1.9344 Y23.5979 
G01 X1.8021 Y23.4656 
G01 X1.6981 Y23.3100 
G01 X1.6265 Y23.1371 
G01 X1.5900 Y22.9536 
G01 X1.5900 Y22.7664 
G01 X1.6265 Y22.5829 
G01 X1.6981 Y22.4100 
G01 X1.8021 Y22.2544 
G01 X1.9344 Y22.1221 
G01 X2.0900 Y22.0181 
G01 X2.2629 Y21.9465 
G01 X2.4464 Y21.9100 
G01 X2.6336 Y21.9100 
G01 X2.8171 Y21.9465 
G01 X2.9900 Y22.0181 
G01 X3.1456 Y22.1221 
G01 X3.2779 Y22.2544 
G01 X3.3819 Y22.4100 
G01 X3.4535 Y22.5829 
G01 X3.4900 Y22.7664 
G00 Z2.0000 
G00 X3.7530 Y21.0011 
G01 Z-0.0250 F254.00 
G01 X3.7530 Y21.2826 F508.00 
G01 X3.7836 Y21.3131 
G01 X3.8141 Y21.2826 
G01 X3.8141 Y21.0011 
G01 X3.7530 Y21.0011 
G00 Z2.0000 
G00 X4.5971 Y21.3131 
G01 Z-0.0250 F254.00 
G01 X4.6276 Y21.2826 F508.00 
G01 X4.6276 Y21.0011 
G01 X4.5665 Y21.0011 
G01 X4.5665 Y21.2826 
G01 X4.5971 Y21.3131 
G00 Z2.0000 
G00 X3.7530 Y14.4525 
G01 Z-0.0250 F254.00 
G01 X3.7530 Y14.7340 F508.00 
G01 X3.8038 Y14.7848 
G01 X4.0345 Y14.7848 
G01 X4.0853 Y14.7340 
G01 X4.0853 Y14.4525 
G01 X3.7530 Y14.4525 
G00 Z2.0000 
G00 X4.6276 Y3.2739 
G01 Z-0.0250 F254.00 
G01 X4.6276 Y3.0432 F508.00 
G01 X4.5768 Y2.9924 
G01 X4.5288 Y2.9924 
G01 X4.5409 Y3.0133 
G01 X4.5665 Y3.1090 
G01 X4.5665 Y3.3247 
G01 X4.5768 Y3.3247 
G01 X4.6276 Y3.2739 
G00 Z2.0000 
G00 X3.8038 Y2.9924 
G01 Z-0.0250 F254.00 
G01 X3.7530 Y3.0432 F508.00 
G01 X3.7530 Y3.2739 
G01 X3.8141 Y3.3350 
G01 X3.8141 Y3.1090 
G01 X3.8397 Y3.0133 
G01 X3.8518 Y2.9924 
G01 X3.8038 Y2.9924 
G00 Z2.0000 
G00 X3.7274 Y7.1204 
G01 Z-0.0250 F254.00 
G01 X3.7094 Y7.1515 F508.00 
G01 X3.8346 Y7.1515 
G01 X3.7435 Y7.0603 
G01 X3.7274 Y7.1204 
G00 Z2.0000 
G00 X4.2953 Y6.5217 
G01 Z-0.0250 F254.00 
G01 X4.2953 Y6.5482 F508.00 
G01 X4.3461 Y6.5990 
G01 X4.5768 Y6.5990 
G01 X4.6276 Y6.5482 
G01 X4.6276 Y6.3175 
G01 X4.4741 Y6.1640 
G01 X4.2953 Y6.5217 
G00 Z2.0000 
G00 X12.7684 Y11.9000 
G01 Z-0.0250 F254.00 
G01 X12.7349 Y11.8776 F508.00 
G01 X12.6224 Y11.7651 
G01 X12.5340 Y11.6327 
G01 X12.4731 Y11.4857 
G01 X12.4420 Y11.3296 
G01 X12.4420 Y11.1944 
G01 X12.2000 Y11.4364 
G01 X12.2000 Y11.9000 
G01 X12.7684 Y11.9000 
G00 Z2.0000 
G00 X13.3056 Y10.4420 
G01 Z-0.0250 F254.00 
G01 X13.2500 Y10.3864 F508.00 
G01 X13.1944 Y10.4420 
G01 X13.3056 Y10.4420 
G00 Z2.0000 
G00 X12.3899 Y9.5263 
G01 Z-0.0250 F254.00 
G01 X12.3307 Y9.4237 F508.00 
G01 X12.3000 Y9.3092 
G01 X12.3000 Y5.9772 
G01 X12.2895 Y5.9800 
G01 X11.4500 Y5.9800 
G01 X11.4500 Y10.9136 
G01 X12.6136 Y9.7500 
G01 X12.3899 Y9.5263 
G00 Z2.0000 
G00 X11.4500 Y19.3136 
G01 Z-0.0250 F254.00 
G01 X13.0700 Y20.9336 F508.00 
G01 X13.0700 Y20.4564 
G01 X11.4737 Y18.8601 
G01 X11.4500 Y18.8364 
G01 X11.4500 Y19.3136 
G00 Z2.0000 
G00 X14.6095 Y21.7900 
G01 Z-0.0250 F254.00 
G01 X14.6858 Y21.8104 F508.00 
G01 X14.7542 Y21.8499 
G01 X14.8000 Y21.8957 
G01 X14.8000 Y21.2843 
G01 X14.7542 Y21.3301 
G01 X14.6858 Y21.3696 
G01 X14.6095 Y21.3900 
G01 X13.5264 Y21.3900 
G01 X13.9264 Y21.7900 
G01 X14.6095 Y21.7900 
G00 Z2.0000 
G00 X27.5500 Y19.4200 
G01 Z-0.0250 F254.00 
G01 X27.5500 Y17.1858 F508.00 
G01 X27.2000 Y17.5358 
G01 X27.2000 Y19.4200 
G01 X27.5500 Y19.4200 
G00 Z2.0000 
G00 X21.3900 Y20.9595 
G01 Z-0.0250 F254.00 
G01 X21.3696 Y21.0358 F508.00 
G01 X21.3301 Y21.1042 
G01 X21.2742 Y21.1601 
G01 X21.2058 Y21.1996 
G01 X21.1295 Y21.2200 
G01 X20.2505 Y21.2200 
G01 X20.1742 Y21.1996 
G01 X20.1058 Y21.1601 
G01 X20.0499 Y21.1042 
G01 X20.0104 Y21.0358 
G01 X19.9900 Y20.9595 
G01 X19.9900 Y20.9500 
G01 X18.6800 Y20.9500 
G01 X18.6800 Y21.1295 
G01 X18.6596 Y21.2058 
G01 X18.6201 Y21.2742 
G01 X18.5642 Y21.3301 
G01 X18.4958 Y21.3696 
G01 X18.4195 Y21.3900 
G01 X17.1405 Y21.3900 
G01 X17.0642 Y21.3696 
G01 X16.9958 Y21.3301 
G01 X16.9399 Y21.2742 
G01 X16.9004 Y21.2058 
G01 X16.8800 Y21.1295 
G01 X16.8800 Y20.2505 
G01 X16.9004 Y20.1742 
G01 X16.9399 Y20.1058 
G01 X16.9958 Y20.0499 
G01 X17.0642 Y20.0104 
G01 X17.1405 Y19.9900 
G01 X18.4195 Y19.9900 
G01 X18.4958 Y20.0104 
G01 X18.5642 Y20.0499 
G01 X19.9900 Y20.0500 
G01 X19.9900 Y19.6805 
G01 X20.0104 Y19.6042 
G01 X20.0499 Y19.5358 
G01 X20.1058 Y19.4799 
G01 X20.1742 Y19.4404 
G01 X20.2505 Y19.4200 
G01 X20.9436 Y19.4200 
G01 X21.0500 Y19.3136 
G01 X21.0500 Y17.5258 
G01 X20.4899 Y16.9657 
G01 X20.4899 Y16.0543 
G01 X20.8442 Y15.7000 
G01 X19.7958 Y15.7000 
G01 X20.1501 Y16.0543 
G01 X20.1501 Y16.9657 
G01 X19.5057 Y17.6101 
G01 X18.5943 Y17.6101 
G01 X17.9499 Y16.9657 
G01 X17.9499 Y16.0543 
G01 X18.5943 Y15.4099 
G01 X18.7735 Y15.4099 
G01 X17.3899 Y14.0263 
G01 X17.3307 Y13.9237 
G01 X17.3000 Y13.8092 
G01 X17.3000 Y6.6143 
G01 X17.2942 Y6.6201 
G01 X17.2258 Y6.6596 
G01 X17.1495 Y6.6800 
G01 X15.8705 Y6.6800 
G01 X15.7942 Y6.6596 
G01 X15.7258 Y6.6201 
G01 X15.6699 Y6.5642 
G01 X15.6304 Y6.4958 
G01 X15.6100 Y6.4195 
G01 X15.6100 Y5.5405 
G01 X15.6304 Y5.4642 
G01 X15.6387 Y5.4500 
G01 X14.6500 Y5.4500 
G01 X14.6500 Y5.7195 
G01 X14.6296 Y5.7958 
G01 X14.5901 Y5.8642 
G01 X14.5342 Y5.9201 
G01 X14.4658 Y5.9596 
G01 X14.3895 Y5.9800 
G01 X13.2000 Y5.9800 
G01 X13.2000 Y9.0636 
G01 X13.5263 Y9.3899 
G01 X13.6101 Y9.4737 
G01 X15.0864 Y10.9500 
G01 X15.8095 Y10.9500 
G01 X15.8858 Y10.9704 
G01 X15.9542 Y11.0099 
G01 X16.0101 Y11.0658 
G01 X16.0496 Y11.1342 
G01 X16.0700 Y11.2105 
G01 X16.0700 Y12.2895 
G01 X16.0496 Y12.3658 
G01 X16.0101 Y12.4342 
G01 X15.9542 Y12.4901 
G01 X15.8858 Y12.5296 
G01 X15.8095 Y12.5500 
G01 X14.3305 Y12.5500 
G01 X14.2542 Y12.5296 
G01 X14.1858 Y12.4901 
G01 X14.1299 Y12.4342 
G01 X14.0904 Y12.3658 
G01 X14.0700 Y12.2895 
G01 X14.0700 Y11.2105 
G01 X14.0709 Y11.2073 
G01 X14.0580 Y11.1944 
G01 X14.0580 Y11.3296 
G01 X14.0269 Y11.4857 
G01 X13.9660 Y11.6327 
G01 X13.8776 Y11.7651 
G01 X13.7651 Y11.8776 
G01 X13.7000 Y11.9211 
G01 X13.7000 Y11.9286 
G01 X13.7542 Y11.9599 
G01 X13.8101 Y12.0158 
G01 X13.8496 Y12.0842 
G01 X13.8700 Y12.1605 
G01 X13.8700 Y13.2395 
G01 X13.8496 Y13.3158 
G01 X13.8101 Y13.3842 
G01 X13.7542 Y13.4401 
G01 X13.6858 Y13.4796 
G01 X13.6095 Y13.5000 
G01 X12.2000 Y13.5000 
G01 X12.2000 Y18.3136 
G01 X13.8764 Y19.9900 
G01 X14.6095 Y19.9900 
G01 X14.6858 Y20.0104 
G01 X14.7542 Y20.0499 
G01 X14.8000 Y20.0957 
G01 X14.8000 Y14.4500 
G01 X14.3305 Y14.4500 
G01 X14.2542 Y14.4296 
G01 X14.1858 Y14.3901 
G01 X14.1299 Y14.3342 
G01 X14.0904 Y14.2658 
G01 X14.0700 Y14.1895 
G01 X14.0700 Y13.1105 
G01 X14.0904 Y13.0342 
G01 X14.1299 Y12.9658 
G01 X14.1858 Y12.9099 
G01 X14.2542 Y12.8704 
G01 X14.3305 Y12.8500 
G01 X15.8095 Y12.8500 
G01 X15.8858 Y12.8704 
G01 X15.9542 Y12.9099 
G01 X16.0101 Y12.9658 
G01 X16.0496 Y13.0342 
G01 X16.0700 Y13.1105 
G01 X16.0700 Y14.1895 
G01 X16.0496 Y14.2658 
G01 X16.0101 Y14.3342 
G01 X15.9542 Y14.3901 
G01 X15.8858 Y14.4296 
G01 X15.8095 Y14.4500 
G01 X15.7000 Y14.4500 
G01 X15.7000 Y22.0500 
G01 X16.8801 Y22.0500 
G01 X16.9004 Y21.9742 
G01 X16.9399 Y21.9058 
G01 X16.9958 Y21.8499 
G01 X17.0642 Y21.8104 
G01 X17.1405 Y21.7900 
G01 X18.4195 Y21.7900 
G01 X18.4568 Y21.8000 
G01 X25.3136 Y21.8000 
G01 X25.8936 Y21.2200 
G01 X25.3305 Y21.2200 
G01 X25.2542 Y21.1996 
G01 X25.1858 Y21.1601 
G01 X25.1299 Y21.1042 
G01 X25.0904 Y21.0358 
G01 X25.0700 Y20.9595 
G01 X25.0700 Y20.7000 
G01 X23.1900 Y20.7000 
G01 X23.1900 Y20.9595 
G01 X23.1696 Y21.0358 
G01 X23.1301 Y21.1042 
G01 X23.0742 Y21.1601 
G01 X23.0058 Y21.1996 
G01 X22.9295 Y21.2200 
G01 X22.0505 Y21.2200 
G01 X21.9742 Y21.1996 
G01 X21.9058 Y21.1601 
G01 X21.8499 Y21.1042 
G01 X21.8104 Y21.0358 
G01 X21.7900 Y20.9595 
G01 X21.7900 Y19.8464 
G01 X21.7763 Y19.8601 
G01 X21.3900 Y20.2464 
G01 X21.3900 Y20.9595 
G00 Z2.0000 
G00 X19.4200 Y6.1936 
G01 Z-0.0250 F254.00 
G01 X19.4200 Y6.1703 F508.00 
G01 X19.3092 Y6.2000 
G01 X18.2000 Y6.2000 
G01 X18.2000 Y8.1842 
G01 X18.5943 Y7.7899 
G01 X18.8000 Y7.7899 
G01 X18.8000 Y6.9408 
G01 X18.8307 Y6.8263 
G01 X18.8899 Y6.7237 
G01 X18.9737 Y6.6399 
G01 X19.4200 Y6.1936 
G00 Z2.0000 
G00 X23.6743 Y17.6101 
G01 Z-0.0250 F254.00 
G01 X23.0299 Y16.9657 F508.00 
G01 X23.0299 Y16.0543 
G01 X23.3842 Y15.7000 
G01 X22.3358 Y15.7000 
G01 X22.6901 Y16.0543 
G01 X22.6901 Y16.9657 
G01 X22.0457 Y17.6101 
G01 X21.9500 Y17.6101 
G01 X21.9500 Y19.4544 
G01 X21.9742 Y19.4404 
G01 X22.0505 Y19.4200 
G01 X22.9295 Y19.4200 
G01 X23.0058 Y19.4404 
G01 X23.0742 Y19.4799 
G01 X23.1301 Y19.5358 
G01 X23.1696 Y19.6042 
G01 X23.1900 Y19.6805 
G01 X23.1900 Y19.8000 
G01 X23.8000 Y19.8000 
G01 X23.8000 Y17.6101 
G01 X23.6743 Y17.6101 
G00 Z2.0000 
G00 X25.0700 Y19.8000 
G01 Z-0.0250 F254.00 
G01 X25.0700 Y19.6805 F508.00 
G01 X25.0904 Y19.6042 
G01 X25.1299 Y19.5358 
G01 X25.1858 Y19.4799 
G01 X25.2542 Y19.4404 
G01 X25.3305 Y19.4200 
G01 X26.2095 Y19.4200 
G01 X26.2858 Y19.4404 
G01 X26.3000 Y19.4486 
G01 X26.3000 Y17.6101 
G01 X26.2143 Y17.6101 
G01 X25.5699 Y16.9657 
G01 X25.5699 Y16.0543 
G01 X25.9242 Y15.7000 
G01 X24.8758 Y15.7000 
G01 X25.2301 Y16.0543 
G01 X25.2301 Y16.9657 
G01 X24.7000 Y17.4958 
G01 X24.7000 Y19.8000 
G01 X25.0700 Y19.8000 
G00 Z2.0000 
G00 X28.9900 Y2.4574 
G01 Z-0.0250 F254.00 
G01 X28.9900 Y2.6226 F508.00 
G01 X28.9641 Y2.7859 
G01 X28.9131 Y2.9431 
G01 X28.8380 Y3.0903 
G01 X28.7409 Y3.2240 
G01 X28.6240 Y3.3409 
G01 X28.4903 Y3.4380 
G01 X28.3431 Y3.5131 
G01 X28.1859 Y3.5641 
G01 X28.0226 Y3.5900 
G01 X27.8574 Y3.5900 
G01 X27.6941 Y3.5641 
G01 X27.5369 Y3.5131 
G01 X27.3897 Y3.4380 
G01 X27.2560 Y3.3409 
G01 X27.1391 Y3.2240 
G01 X27.0420 Y3.0903 
G01 X26.9669 Y2.9431 
G01 X26.9159 Y2.7859 
G01 X26.8900 Y2.6226 
G01 X26.8900 Y2.4574 
G01 X26.9159 Y2.2941 
G01 X26.9669 Y2.1369 
G01 X27.0420 Y1.9897 
G01 X27.1391 Y1.8560 
G01 X27.2560 Y1.7391 
G01 X27.3897 Y1.6420 
G01 X27.5369 Y1.5669 
G01 X27.6941 Y1.5159 
G01 X27.8574 Y1.4900 
G01 X28.0226 Y1.4900 
G01 X28.1859 Y1.5159 
G01 X28.3431 Y1.5669 
G01 X28.4903 Y1.6420 
G01 X28.6240 Y1.7391 
G01 X28.7409 Y1.8560 
G01 X28.8380 Y1.9897 
G01 X28.9131 Y2.1369 
G01 X28.9641 Y2.2941 
G01 X28.9900 Y2.4574 
G00 Z2.0000 
G00 X3.5900 Y22.7774 
G01 Z-0.0250 F254.00 
G01 X3.5900 Y22.9426 F508.00 
G01 X3.5641 Y23.1059 
G01 X3.5131 Y23.2631 
G01 X3.4380 Y23.4103 
G01 X3.3409 Y23.5440 
G01 X3.2240 Y23.6609 
G01 X3.0903 Y23.7580 
G01 X2.9431 Y23.8331 
G01 X2.7859 Y23.8841 
G01 X2.6226 Y23.9100 
G01 X2.4574 Y23.9100 
G01 X2.2941 Y23.8841 
G01 X2.1369 Y23.8331 
G01 X1.9897 Y23.7580 
G01 X1.8560 Y23.6609 
G01 X1.7391 Y23.5440 
G01 X1.6420 Y23.4103 
G01 X1.5669 Y23.2631 
G01 X1.5159 Y23.1059 
G01 X1.4900 Y22.9426 
G01 X1.4900 Y22.7774 
G01 X1.5159 Y22.6141 
G01 X1.5669 Y22.4569 
G01 X1.6420 Y22.3097 
G01 X1.7391 Y22.1760 
G01 X1.8560 Y22.0591 
G01 X1.9897 Y21.9620 
G01 X2.1369 Y21.8869 
G01 X2.2941 Y21.8359 
G01 X2.4574 Y21.8100 
G01 X2.6226 Y21.8100 
G01 X2.7859 Y21.8359 
G01 X2.9431 Y21.8869 
G01 X3.0903 Y21.9620 
G01 X3.2240 Y22.0591 
G01 X3.3409 Y22.1760 
G01 X3.4380 Y22.3097 
G01 X3.5131 Y22.4569 
G01 X3.5641 Y22.6141 
G01 X3.5900 Y22.7774 
G00 Z2.0000 
G00 X6.8650 Y18.0896 
G01 Z-0.0250 F254.00 
G01 X8.3750 Y18.0896 F508.00 
G01 X8.5605 Y18.1265 
G01 X8.7353 Y18.1989 
G01 X8.8926 Y18.3040 
G01 X9.0264 Y18.4378 
G01 X9.1315 Y18.5951 
G01 X9.2039 Y18.7699 
G01 X9.2408 Y18.9554 
G01 X9.2408 Y19.1446 
G01 X9.2039 Y19.3301 
G01 X9.1315 Y19.5049 
G01 X9.0264 Y19.6622 
G01 X8.8926 Y19.7960 
G01 X8.7353 Y19.9011 
G01 X8.5605 Y19.9735 
G01 X8.3750 Y20.0104 
G01 X6.8650 Y20.0104 
G01 X6.6795 Y19.9735 
G01 X6.5047 Y19.9011 
G01 X6.3474 Y19.7960 
G01 X6.2136 Y19.6622 
G01 X6.1085 Y19.5049 
G01 X6.0361 Y19.3301 
G01 X5.9992 Y19.1446 
G01 X5.9992 Y18.9554 
G01 X6.0361 Y18.7699 
G01 X6.1085 Y18.5951 
G01 X6.2136 Y18.4378 
G01 X6.3474 Y18.3040 
G01 X6.5047 Y18.1989 
G01 X6.6795 Y18.1265 
G01 X6.8650 Y18.0896 
G00 Z2.0000 
G00 X6.8650 Y15.5496 
G01 Z-0.0250 F254.00 
G01 X8.3750 Y15.5496 F508.00 
G01 X8.5605 Y15.5865 
G01 X8.7353 Y15.6589 
G01 X8.8926 Y15.7640 
G01 X9.0264 Y15.8978 
G01 X9.1315 Y16.0551 
G01 X9.2039 Y16.2299 
G01 X9.2408 Y16.4154 
G01 X9.2408 Y16.6046 
G01 X9.2039 Y16.7901 
G01 X9.1315 Y16.9649 
G01 X9.0264 Y17.1222 
G01 X8.8926 Y17.2560 
G01 X8.7353 Y17.3611 
G01 X8.5605 Y17.4335 
G01 X8.3750 Y17.4704 
G01 X6.8650 Y17.4704 
G01 X6.6795 Y17.4335 
G01 X6.5047 Y17.3611 
G01 X6.3474 Y17.2560 
G01 X6.2136 Y17.1222 
G01 X6.1085 Y16.9649 
G01 X6.0361 Y16.7901 
G01 X5.9992 Y16.6046 
G01 X5.9992 Y16.4154 
G01 X6.0361 Y16.2299 
G01 X6.1085 Y16.0551 
G01 X6.2136 Y15.8978 
G01 X6.3474 Y15.7640 
G01 X6.5047 Y15.6589 
G01 X6.6795 Y15.5865 
G01 X6.8650 Y15.5496 
G00 Z2.0000 
G00 X6.8650 Y13.0096 
G01 Z-0.0250 F254.00 
G01 X8.3750 Y13.0096 F508.00 
G01 X8.5605 Y13.0465 
G01 X8.7353 Y13.1189 
G01 X8.8926 Y13.2240 
G01 X9.0264 Y13.3578 
G01 X9.1315 Y13.5151 
G01 X9.2039 Y13.6899 
G01 X9.2408 Y13.8754 
G01 X9.2408 Y14.0646 
G01 X9.2039 Y14.2501 
G01 X9.1315 Y14.4249 
G01 X9.0264 Y14.5822 
G01 X8.8926 Y14.7160 
G01 X8.7353 Y14.8211 
G01 X8.5605 Y14.8935 
G01 X8.3750 Y14.9304 
G01 X6.8650 Y14.9304 
G01 X6.6795 Y14.8935 
G01 X6.5047 Y14.8211 
G01 X6.3474 Y14.7160 
G01 X6.2136 Y14.5822 
G01 X6.1085 Y14.4249 
G01 X6.0361 Y14.2501 
G01 X5.9992 Y14.0646 
G01 X5.9992 Y13.8754 
G01 X6.0361 Y13.6899 
G01 X6.1085 Y13.5151 
G01 X6.2136 Y13.3578 
G01 X6.3474 Y13.2240 
G01 X6.5047 Y13.1189 
G01 X6.6795 Y13.0465 
G01 X6.8650 Y13.0096 
G00 Z2.0000 
G00 X6.8650 Y10.4696 
G01 Z-0.0250 F254.00 
G01 X8.3750 Y10.4696 F508.00 
G01 X8.5605 Y10.5065 
G01 X8.7353 Y10.5789 
G01 X8.8926 Y10.6840 
G01 X9.0264 Y10.8178 
G01 X9.1315 Y10.9751 
G01 X9.2039 Y11.1499 
G01 X9.2408 Y11.3354 
G01 X9.2408 Y11.5246 
G01 X9.2039 Y11.7101 
G01 X9.1315 Y11.8849 
G01 X9.0264 Y12.0422 
G01 X8.8926 Y12.1760 
G01 X8.7353 Y12.2811 
G01 X8.5605 Y12.3535 
G01 X8.3750 Y12.3904 
G01 X6.8650 Y12.3904 
G01 X6.6795 Y12.3535 
G01 X6.5047 Y12.2811 
G01 X6.3474 Y12.1760 
G01 X6.2136 Y12.0422 
G01 X6.1085 Y11.8849 
G01 X6.0361 Y11.7101 
G01 X5.9992 Y11.5246 
G01 X5.9992 Y11.3354 
G01 X6.0361 Y11.1499 
G01 X6.1085 Y10.9751 
G01 X6.2136 Y10.8178 
G01 X6.3474 Y10.6840 
G01 X6.5047 Y10.5789 
G01 X6.6795 Y10.5065 
G01 X6.8650 Y10.4696 
G00 Z2.0000 
G00 X6.8650 Y7.9296 
G01 Z-0.0250 F254.00 
G01 X8.3750 Y7.9296 F508.00 
G01 X8.5605 Y7.9665 
G01 X8.7353 Y8.0389 
G01 X8.8926 Y8.1440 
G01 X9.0264 Y8.2778 
G01 X9.1315 Y8.4351 
G01 X9.2039 Y8.6099 
G01 X9.2408 Y8.7954 
G01 X9.2408 Y8.9846 
G01 X9.2039 Y9.1701 
G01 X9.1315 Y9.3449 
G01 X9.0264 Y9.5022 
G01 X8.8926 Y9.6360 
G01 X8.7353 Y9.7411 
G01 X8.5605 Y9.8135 
G01 X8.3750 Y9.8504 
G01 X6.8650 Y9.8504 
G01 X6.6795 Y9.8135 
G01 X6.5047 Y9.7411 
G01 X6.3474 Y9.6360 
G01 X6.2136 Y9.5022 
G01 X6.1085 Y9.3449 
G01 X6.0361 Y9.1701 
G01 X5.9992 Y8.9846 
G01 X5.9992 Y8.7954 
G01 X6.0361 Y8.6099 
G01 X6.1085 Y8.4351 
G01 X6.2136 Y8.2778 
G01 X6.3474 Y8.1440 
G01 X6.5047 Y8.0389 
G01 X6.6795 Y7.9665 
G01 X6.8650 Y7.9296 
G00 Z2.0000 
G00 X27.3095 Y6.6800 
G01 Z-0.0250 F254.00 
G01 X27.2000 Y6.6800 F508.00 
G01 X27.2000 Y7.8642 
G01 X27.7701 Y8.4343 
G01 X27.7701 Y9.3457 
G01 X27.1257 Y9.9901 
G01 X26.2143 Y9.9901 
G01 X25.5699 Y9.3457 
G01 X25.5699 Y8.4343 
G01 X26.2143 Y7.7899 
G01 X26.3000 Y7.7899 
G01 X26.3000 Y6.6800 
G01 X26.0305 Y6.6800 
G01 X25.9542 Y6.6596 
G01 X25.8858 Y6.6201 
G01 X25.8299 Y6.5642 
G01 X25.7904 Y6.4958 
G01 X25.7700 Y6.4195 
G01 X25.7700 Y5.5405 
G01 X25.7904 Y5.4642 
G01 X25.8299 Y5.3958 
G01 X25.8858 Y5.3399 
G01 X25.9542 Y5.3004 
G01 X26.0305 Y5.2800 
G01 X27.3095 Y5.2800 
G01 X27.3858 Y5.3004 
G01 X27.4542 Y5.3399 
G01 X27.5101 Y5.3958 
G01 X27.5496 Y5.4642 
G01 X27.5700 Y5.5405 
G01 X27.5700 Y6.4195 
G01 X27.5496 Y6.4958 
G01 X27.5101 Y6.5642 
G01 X27.4542 Y6.6201 
G01 X27.3858 Y6.6596 
G01 X27.3095 Y6.6800 
G00 Z2.0000 
G00 X17.1495 Y5.2800 
G01 Z-0.0250 F254.00 
G01 X17.2241 Y5.3000 F508.00 
G01 X18.8000 Y5.3000 
G01 X18.8000 Y5.1908 
G01 X18.8307 Y5.0763 
G01 X18.8899 Y4.9737 
G01 X19.4200 Y4.4436 
G01 X19.4200 Y3.7405 
G01 X19.4404 Y3.6642 
G01 X19.4799 Y3.5958 
G01 X19.5358 Y3.5399 
G01 X19.6042 Y3.5004 
G01 X19.6805 Y3.4800 
G01 X20.9595 Y3.4800 
G01 X21.0358 Y3.5004 
G01 X21.1042 Y3.5399 
G01 X21.1601 Y3.5958 
G01 X21.1996 Y3.6642 
G01 X21.2200 Y3.7405 
G01 X21.2200 Y3.8000 
G01 X23.2300 Y3.8000 
G01 X23.2300 Y3.7405 
G01 X23.2504 Y3.6642 
G01 X23.2899 Y3.5958 
G01 X23.3458 Y3.5399 
G01 X23.4142 Y3.5004 
G01 X23.4905 Y3.4800 
G01 X24.7695 Y3.4800 
G01 X24.8458 Y3.5004 
G01 X24.9142 Y3.5399 
G01 X24.9701 Y3.5958 
G01 X25.0096 Y3.6642 
G01 X25.0300 Y3.7405 
G01 X25.0300 Y4.6195 
G01 X25.0096 Y4.6958 
G01 X24.9701 Y4.7642 
G01 X24.9142 Y4.8201 
G01 X24.8458 Y4.8596 
G01 X24.7695 Y4.8800 
G01 X23.4905 Y4.8800 
G01 X23.4142 Y4.8596 
G01 X23.3458 Y4.8201 
G01 X23.2899 Y4.7642 
G01 X23.2529 Y4.7000 
G01 X21.1971 Y4.7000 
G01 X21.1601 Y4.7642 
G01 X21.1042 Y4.8201 
G01 X21.0358 Y4.8596 
G01 X20.9595 Y4.8800 
G01 X20.2564 Y4.8800 
G01 X19.8564 Y5.2800 
G01 X20.9595 Y5.2800 
G01 X21.0358 Y5.3004 
G01 X21.1042 Y5.3399 
G01 X21.1601 Y5.3958 
G01 X21.1996 Y5.4642 
G01 X21.2200 Y5.5405 
G01 X21.2200 Y6.4195 
G01 X21.1996 Y6.4958 
G01 X21.1601 Y6.5642 
G01 X21.1042 Y6.6201 
G01 X21.0358 Y6.6596 
G01 X20.9595 Y6.6800 
G01 X20.2064 Y6.6800 
G01 X19.7000 Y7.1864 
G01 X19.7000 Y7.9842 
G01 X20.1501 Y8.4343 
G01 X20.1501 Y9.3457 
G01 X19.5057 Y9.9901 
G01 X18.5943 Y9.9901 
G01 X18.2000 Y9.5958 
G01 X18.2000 Y13.5636 
G01 X19.4364 Y14.8000 
G01 X27.3092 Y14.8000 
G01 X27.4237 Y14.8307 
G01 X27.5263 Y14.8899 
G01 X27.6101 Y14.9737 
G01 X28.3601 Y15.7237 
G01 X28.4193 Y15.8263 
G01 X28.4500 Y15.9408 
G01 X28.4500 Y20.0592 
G01 X28.4193 Y20.1737 
G01 X28.3601 Y20.2763 
G01 X28.2763 Y20.3601 
G01 X28.2700 Y20.3664 
G01 X28.2700 Y20.9595 
G01 X28.2496 Y21.0358 
G01 X28.2101 Y21.1042 
G01 X28.1542 Y21.1601 
G01 X28.0858 Y21.1996 
G01 X28.0095 Y21.2200 
G01 X27.1426 Y21.2200 
G01 X27.1101 Y21.2763 
G01 X25.8601 Y22.5263 
G01 X25.7763 Y22.6101 
G01 X25.6737 Y22.6693 
G01 X25.5592 Y22.7000 
G01 X18.6800 Y22.7000 
G01 X18.6800 Y22.9295 
G01 X18.6596 Y23.0058 
G01 X18.6201 Y23.0742 
G01 X18.5642 Y23.1301 
G01 X18.4958 Y23.1696 
G01 X18.4195 Y23.1900 
G01 X17.1405 Y23.1900 
G01 X17.0642 Y23.1696 
G01 X16.9958 Y23.1301 
G01 X16.9399 Y23.0742 
G01 X16.9004 Y23.0058 
G01 X16.8855 Y22.9500 
G01 X14.8645 Y22.9500 
G01 X14.8496 Y23.0058 
G01 X14.8101 Y23.0742 
G01 X14.7542 Y23.1301 
G01 X14.6858 Y23.1696 
G01 X14.6095 Y23.1900 
G01 X13.3305 Y23.1900 
G01 X13.2542 Y23.1696 
G01 X13.1858 Y23.1301 
G01 X13.1299 Y23.0742 
G01 X13.0904 Y23.0058 
G01 X13.0700 Y22.9295 
G01 X13.0700 Y22.2064 
G01 X10.6399 Y19.7763 
G01 X10.5807 Y19.6737 
G01 X10.5500 Y19.5592 
G01 X10.5500 Y5.7000 
G01 X8.9886 Y5.7000 
G01 X9.0264 Y5.7378 
G01 X9.1315 Y5.8951 
G01 X9.2039 Y6.0699 
G01 X9.2408 Y6.2554 
G01 X9.2408 Y6.4446 
G01 X9.2039 Y6.6301 
G01 X9.1315 Y6.8049 
G01 X9.0264 Y6.9622 
G01 X8.8926 Y7.0960 
G01 X8.7353 Y7.2011 
G01 X8.5605 Y7.2735 
G01 X8.3750 Y7.3104 
G01 X6.8650 Y7.3104 
G01 X6.6795 Y7.2735 
G01 X6.5047 Y7.2011 
G01 X6.3474 Y7.0960 
G01 X6.2136 Y6.9622 
G01 X6.1085 Y6.8049 
G01 X6.0361 Y6.6301 
G01 X5.9992 Y6.4446 
G01 X5.9992 Y6.2554 
G01 X6.0361 Y6.0699 
G01 X6.1085 Y5.8951 
G01 X6.2136 Y5.7378 
G01 X6.3474 Y5.6040 
G01 X6.5047 Y5.4989 
G01 X6.6795 Y5.4265 
G01 X6.8650 Y5.3896 
G01 X7.3000 Y5.3896 
G01 X7.3000 Y5.1908 
G01 X7.3307 Y5.0763 
G01 X7.3899 Y4.9737 
G01 X7.4737 Y4.8899 
G01 X7.5763 Y4.8307 
G01 X7.6908 Y4.8000 
G01 X10.7500 Y4.8000 
G01 X10.7500 Y4.4405 
G01 X10.7704 Y4.3642 
G01 X10.8099 Y4.2958 
G01 X10.8658 Y4.2399 
G01 X10.9342 Y4.2004 
G01 X11.0105 Y4.1800 
G01 X12.2895 Y4.1800 
G01 X12.3000 Y4.1828 
G01 X12.3000 Y2.6908 
G01 X12.3307 Y2.5763 
G01 X12.3899 Y2.4737 
G01 X12.4737 Y2.3899 
G01 X12.5763 Y2.3307 
G01 X12.6908 Y2.3000 
G01 X25.3092 Y2.3000 
G01 X25.4237 Y2.3307 
G01 X25.5263 Y2.3899 
G01 X25.6101 Y2.4737 
G01 X26.6164 Y3.4800 
G01 X27.3095 Y3.4800 
G01 X27.3858 Y3.5004 
G01 X27.4542 Y3.5399 
G01 X27.5101 Y3.5958 
G01 X27.5496 Y3.6642 
G01 X27.5700 Y3.7405 
G01 X27.5700 Y4.6195 
G01 X27.5496 Y4.6958 
G01 X27.5101 Y4.7642 
G01 X27.4542 Y4.8201 
G01 X27.3858 Y4.8596 
G01 X27.3095 Y4.8800 
G01 X26.0305 Y4.8800 
G01 X25.9542 Y4.8596 
G01 X25.8858 Y4.8201 
G01 X25.8299 Y4.7642 
G01 X25.7904 Y4.6958 
G01 X25.7700 Y4.6195 
G01 X25.7700 Y3.9064 
G01 X25.0636 Y3.2000 
G01 X13.2000 Y3.2000 
G01 X13.2000 Y4.1800 
G01 X14.3895 Y4.1800 
G01 X14.4658 Y4.2004 
G01 X14.5342 Y4.2399 
G01 X14.5901 Y4.2958 
G01 X14.6296 Y4.3642 
G01 X14.6500 Y4.4405 
G01 X14.6500 Y4.5500 
G01 X15.6100 Y4.5500 
G01 X15.6100 Y3.7405 
G01 X15.6304 Y3.6642 
G01 X15.6699 Y3.5958 
G01 X15.7258 Y3.5399 
G01 X15.7942 Y3.5004 
G01 X15.8705 Y3.4800 
G01 X17.1495 Y3.4800 
G01 X17.2258 Y3.5004 
G01 X17.2942 Y3.5399 
G01 X17.3501 Y3.5958 
G01 X17.3896 Y3.6642 
G01 X17.4100 Y3.7405 
G01 X17.4100 Y4.6195 
G01 X17.3896 Y4.6958 
G01 X17.3501 Y4.7642 
G01 X17.2942 Y4.8201 
G01 X17.2258 Y4.8596 
G01 X17.1495 Y4.8800 
G01 X16.9500 Y4.8800 
G01 X16.9500 Y5.0592 
G01 X16.9193 Y5.1737 
G01 X16.8601 Y5.2763 
G01 X16.8564 Y5.2800 
G01 X17.1495 Y5.2800 
G00 Z2.0000 
G00 X25.2301 Y8.4343 
G01 Z-0.0250 F254.00 
G01 X25.2301 Y9.3457 F508.00 
G01 X24.5857 Y9.9901 
G01 X23.6743 Y9.9901 
G01 X23.1342 Y9.4500 
G01 X22.5858 Y9.4500 
G01 X22.0457 Y9.9901 
G01 X21.1343 Y9.9901 
G01 X20.4899 Y9.3457 
G01 X20.4899 Y8.4343 
G01 X21.1343 Y7.7899 
G01 X22.0457 Y7.7899 
G01 X22.6901 Y8.4343 
G01 X22.6901 Y8.5500 
G01 X23.0299 Y8.5500 
G01 X23.0299 Y8.4343 
G01 X23.6743 Y7.7899 
G01 X23.8000 Y7.7899 
G01 X23.8000 Y6.6800 
G01 X23.4905 Y6.6800 
G01 X23.4142 Y6.6596 
G01 X23.3458 Y6.6201 
G01 X23.2899 Y6.5642 
G01 X23.2504 Y6.4958 
G01 X23.2300 Y6.4195 
G01 X23.2300 Y5.5405 
G01 X23.2504 Y5.4642 
G01 X23.2899 Y5.3958 
G01 X23.3458 Y5.3399 
G01 X23.4142 Y5.3004 
G01 X23.4905 Y5.2800 
G01 X24.7695 Y5.2800 
G01 X24.8458 Y5.3004 
G01 X24.9142 Y5.3399 
G01 X24.9701 Y5.3958 
G01 X25.0096 Y5.4642 
G01 X25.0300 Y5.5405 
G01 X25.0300 Y6.4195 
G01 X25.0096 Y6.4958 
G01 X24.9701 Y6.5642 
G01 X24.9142 Y6.6201 
G01 X24.8458 Y6.6596 
G01 X24.7695 Y6.6800 
G01 X24.7000 Y6.6800 
G01 X24.7000 Y7.9042 
G01 X25.2301 Y8.4343 
G00 Z2.0000 
G00 X5.0533 Y10.9681 
G01 Z-0.0250 F254.00 
G01 X5.1490 Y10.9937 F508.00 
G01 X5.2348 Y11.0433 
G01 X5.3048 Y11.1133 
G01 X5.3544 Y11.1991 
G01 X5.3800 Y11.2948 
G01 X5.3800 Y11.3938 
G01 X5.3544 Y11.4895 
G01 X5.3048 Y11.5753 
G01 X5.2348 Y11.6453 
G01 X5.1490 Y11.6949 
G01 X5.0533 Y11.7205 
G01 X3.7530 Y11.7205 
G01 X3.7530 Y11.9362 
G01 X3.7274 Y12.0318 
G01 X3.6778 Y12.1176 
G01 X3.6078 Y12.1877 
G01 X3.5220 Y12.2372 
G01 X3.4263 Y12.2628 
G01 X3.3273 Y12.2628 
G01 X3.2316 Y12.2372 
G01 X3.1458 Y12.1877 
G01 X3.0758 Y12.1176 
G01 X3.0263 Y12.0318 
G01 X3.0006 Y11.9362 
G01 X3.0006 Y10.7525 
G01 X3.0263 Y10.6568 
G01 X3.0758 Y10.5710 
G01 X3.1458 Y10.5009 
G01 X3.2316 Y10.4514 
G01 X3.3273 Y10.4258 
G01 X3.4263 Y10.4258 
G01 X3.5220 Y10.4514 
G01 X3.6078 Y10.5009 
G01 X3.6778 Y10.5710 
G01 X3.7274 Y10.6568 
G01 X3.7530 Y10.7525 
G01 X3.7530 Y10.9681 
G01 X5.0533 Y10.9681 
G00 Z2.0000 
G00 X3.0758 Y7.2062 
G01 Z-0.0250 F254.00 
G01 X3.0263 Y7.1204 F508.00 
G01 X3.0006 Y7.0247 
G01 X3.0006 Y5.8410 
G01 X3.0263 Y5.7453 
G01 X3.0758 Y5.6595 
G01 X3.1458 Y5.5895 
G01 X3.2316 Y5.5400 
G01 X3.3273 Y5.5143 
G01 X4.1790 Y5.5143 
G01 X4.2172 Y5.5120 
G01 X4.2284 Y5.5143 
G01 X4.2398 Y5.5143 
G01 X4.2768 Y5.5242 
G01 X4.3143 Y5.5319 
G01 X4.3245 Y5.5370 
G01 X4.3355 Y5.5400 
G01 X4.3686 Y5.5591 
G01 X4.4028 Y5.5762 
G01 X4.4114 Y5.5838 
G01 X4.4213 Y5.5895 
G01 X4.4483 Y5.6165 
G01 X4.4623 Y5.6289 
G01 X4.5016 Y5.5895 
G01 X4.5874 Y5.5400 
G01 X4.6831 Y5.5143 
G01 X4.7822 Y5.5143 
G01 X4.8778 Y5.5400 
G01 X4.9636 Y5.5895 
G01 X5.3048 Y5.9307 
G01 X5.3544 Y6.0165 
G01 X5.3800 Y6.1121 
G01 X5.3800 Y6.7535 
G01 X5.3544 Y6.8492 
G01 X5.3251 Y6.8998 
G01 X5.3048 Y6.9350 
G01 X5.2995 Y6.9403 
G01 X5.0337 Y7.2062 
G01 X4.9689 Y7.2709 
G01 X4.9636 Y7.2762 
G01 X4.8778 Y7.3257 
G01 X4.8098 Y7.3440 
G01 X5.2348 Y7.7690 
G01 X5.3048 Y7.8390 
G01 X5.3544 Y7.9248 
G01 X5.3800 Y8.0205 
G01 X5.3800 Y8.1195 
G01 X5.3555 Y8.2111 
G01 X5.3544 Y8.2152 
G01 X5.3048 Y8.3010 
G01 X4.7625 Y8.8433 
G01 X4.6925 Y8.9134 
G01 X4.6067 Y8.9629 
G01 X4.5110 Y8.9885 
G01 X3.3273 Y8.9885 
G01 X3.2316 Y8.9629 
G01 X3.1458 Y8.9134 
G01 X3.0758 Y8.8433 
G01 X3.0263 Y8.7575 
G01 X3.0006 Y8.6619 
G01 X3.0006 Y8.5628 
G01 X3.0263 Y8.4671 
G01 X3.0758 Y8.3813 
G01 X3.1458 Y8.3113 
G01 X3.2316 Y8.2618 
G01 X3.3273 Y8.2361 
G01 X4.3056 Y8.2361 
G01 X4.4718 Y8.0700 
G01 X4.3056 Y7.9039 
G01 X3.3273 Y7.9039 
G01 X3.2316 Y7.8782 
G01 X3.1458 Y7.8287 
G01 X3.0758 Y7.7587 
G01 X3.0263 Y7.6729 
G01 X3.0006 Y7.5772 
G01 X3.0006 Y7.4781 
G01 X3.0263 Y7.3825 
G01 X3.0758 Y7.2967 
G01 X3.1210 Y7.2514 
G01 X3.0758 Y7.2062 
G00 Z2.0000 
G00 X3.8790 Y4.0019 
G01 Z-0.0250 F254.00 
G01 X3.7932 Y4.0514 F508.00 
G01 X3.6975 Y4.0771 
G01 X3.5984 Y4.0771 
G01 X3.5028 Y4.0514 
G01 X3.4170 Y4.0019 
G01 X3.0811 Y3.6660 
G01 X3.0758 Y3.6607 
G01 X3.0555 Y3.6255 
G01 X3.0263 Y3.5749 
G01 X3.0017 Y3.4832 
G01 X2.9431 Y3.5131 
G01 X2.7859 Y3.5641 
G01 X2.6226 Y3.5900 
G01 X2.4574 Y3.5900 
G01 X2.2941 Y3.5641 
G01 X2.1369 Y3.5131 
G01 X1.9897 Y3.4380 
G01 X1.8560 Y3.3409 
G01 X1.7391 Y3.2240 
G01 X1.6420 Y3.0903 
G01 X1.5669 Y2.9431 
G01 X1.5159 Y2.7859 
G01 X1.4900 Y2.6226 
G01 X1.4900 Y2.4574 
G01 X1.5159 Y2.2941 
G01 X1.5669 Y2.1369 
G01 X1.6420 Y1.9897 
G01 X1.7391 Y1.8560 
G01 X1.8560 Y1.7391 
G01 X1.9897 Y1.6420 
G01 X2.1369 Y1.5669 
G01 X2.2941 Y1.5159 
G01 X2.4574 Y1.4900 
G01 X2.6226 Y1.4900 
G01 X2.7859 Y1.5159 
G01 X2.9431 Y1.5669 
G01 X3.0903 Y1.6420 
G01 X3.2240 Y1.7391 
G01 X3.3409 Y1.8560 
G01 X3.4380 Y1.9897 
G01 X3.5131 Y2.1369 
G01 X3.5507 Y2.2528 
G01 X3.5984 Y2.2400 
G01 X4.7822 Y2.2400 
G01 X4.8778 Y2.2656 
G01 X4.9636 Y2.3152 
G01 X5.2348 Y2.5863 
G01 X5.3048 Y2.6564 
G01 X5.3544 Y2.7422 
G01 X5.3800 Y2.8378 
G01 X5.3800 Y3.4792 
G01 X5.3544 Y3.5749 
G01 X5.3264 Y3.6233 
G01 X5.3048 Y3.6607 
G01 X5.0337 Y3.9318 
G01 X4.9636 Y4.0019 
G01 X4.8778 Y4.0514 
G01 X4.7862 Y4.0760 
G01 X4.7822 Y4.0771 
G01 X4.1408 Y4.0771 
G01 X4.0451 Y4.0514 
G01 X3.9593 Y4.0019 
G01 X3.9191 Y3.9617 
G01 X3.8790 Y4.0019 
G00 Z2.0000 
G00 X5.0533 Y13.7001 
G01 Z-0.0250 F254.00 
G01 X5.1490 Y13.7257 F508.00 
G01 X5.2348 Y13.7753 
G01 X5.3048 Y13.8453 
G01 X5.3544 Y13.9311 
G01 X5.3800 Y14.0268 
G01 X5.3800 Y14.1258 
G01 X5.3544 Y14.2215 
G01 X5.3048 Y14.3073 
G01 X5.2348 Y14.3773 
G01 X5.1490 Y14.4269 
G01 X5.0533 Y14.4525 
G01 X4.8377 Y14.4525 
G01 X4.8377 Y14.4628 
G01 X5.3048 Y14.9300 
G01 X5.3544 Y15.0157 
G01 X5.3800 Y15.1114 
G01 X5.3800 Y15.2105 
G01 X5.3544 Y15.3062 
G01 X5.3048 Y15.3919 
G01 X5.2348 Y15.4620 
G01 X5.1490 Y15.5115 
G01 X5.0533 Y15.5372 
G01 X4.9543 Y15.5372 
G01 X4.8586 Y15.5115 
G01 X4.7728 Y15.4620 
G01 X4.5971 Y15.2862 
G01 X4.4213 Y15.4620 
G01 X4.3355 Y15.5115 
G01 X4.2398 Y15.5372 
G01 X3.5984 Y15.5372 
G01 X3.5944 Y15.5361 
G01 X3.5028 Y15.5115 
G01 X3.4189 Y15.4631 
G01 X3.3469 Y15.3919 
G01 X3.0758 Y15.1208 
G01 X3.0542 Y15.0834 
G01 X3.0263 Y15.0350 
G01 X3.0006 Y14.9393 
G01 X3.0006 Y14.0268 
G01 X3.0263 Y13.9311 
G01 X3.0758 Y13.8453 
G01 X3.1458 Y13.7753 
G01 X3.2316 Y13.7257 
G01 X3.3273 Y13.7001 
G01 X4.5110 Y13.7001 
G01 X5.0533 Y13.7001 
G00 Z2.0000 
G00 X5.0533 Y16.9744 
G01 Z-0.0250 F254.00 
G01 X5.1490 Y17.0000 F508.00 
G01 X5.2348 Y17.0496 
G01 X5.3048 Y17.1196 
G01 X5.3544 Y17.2054 
G01 X5.3800 Y17.3011 
G01 X5.3800 Y17.4001 
G01 X5.3544 Y17.4958 
G01 X5.3048 Y17.5816 
G01 X5.2348 Y17.6516 
G01 X5.1490 Y17.7012 
G01 X5.0533 Y17.7268 
G01 X4.5665 Y17.7268 
G01 X4.5665 Y18.0591 
G01 X5.0533 Y18.0591 
G01 X5.1490 Y18.0847 
G01 X5.2348 Y18.1342 
G01 X5.3048 Y18.2043 
G01 X5.3544 Y18.2901 
G01 X5.3800 Y18.3857 
G01 X5.3800 Y18.4848 
G01 X5.3544 Y18.5805 
G01 X5.3048 Y18.6663 
G01 X5.2348 Y18.7363 
G01 X5.1490 Y18.7858 
G01 X5.0533 Y18.8115 
G01 X3.8696 Y18.8115 
G01 X3.7739 Y18.7858 
G01 X3.6881 Y18.7363 
G01 X3.6181 Y18.6663 
G01 X3.0758 Y18.1239 
G01 X3.0263 Y18.0381 
G01 X3.0252 Y18.0341 
G01 X3.0006 Y17.9425 
G01 X3.0006 Y17.8434 
G01 X3.0263 Y17.7477 
G01 X3.0758 Y17.6619 
G01 X3.1458 Y17.5919 
G01 X3.6881 Y17.0496 
G01 X3.7739 Y17.0000 
G01 X3.8696 Y16.9744 
G01 X4.2398 Y16.9744 
G01 X5.0533 Y16.9744 
G00 Z2.0000 
G00 X3.3273 Y20.2487 
G01 Z-0.0250 F254.00 
G01 X5.0533 Y20.2487 F508.00 
G01 X5.1490 Y20.2744 
G01 X5.2348 Y20.3239 
G01 X5.3048 Y20.3939 
G01 X5.3544 Y20.4797 
G01 X5.3800 Y20.5754 
G01 X5.3800 Y21.4879 
G01 X5.3544 Y21.5836 
G01 X5.3251 Y21.6342 
G01 X5.3048 Y21.6694 
G01 X5.2995 Y21.6747 
G01 X5.0337 Y21.9406 
G01 X4.9689 Y22.0053 
G01 X4.9636 Y22.0106 
G01 X4.8778 Y22.0601 
G01 X4.7822 Y22.0858 
G01 X4.4119 Y22.0858 
G01 X4.3163 Y22.0601 
G01 X4.2305 Y22.0106 
G01 X4.1903 Y21.9704 
G01 X4.1501 Y22.0106 
G01 X4.0643 Y22.0601 
G01 X3.9687 Y22.0858 
G01 X3.5984 Y22.0858 
G01 X3.5944 Y22.0847 
G01 X3.5028 Y22.0601 
G01 X3.4189 Y22.0117 
G01 X3.3469 Y21.9406 
G01 X3.0758 Y21.6694 
G01 X3.0542 Y21.6320 
G01 X3.0263 Y21.5836 
G01 X3.0006 Y21.4879 
G01 X3.0006 Y20.5754 
G01 X3.0263 Y20.4797 
G01 X3.0758 Y20.3939 
G01 X3.1458 Y20.3239 
G01 X3.2316 Y20.2744 
G01 X3.3273 Y20.2487 
G00 Z2.0000 
G00 X28.9900 Y22.7774 
G01 Z-0.0250 F254.00 
G01 X28.9900 Y22.9426 F508.00 
G01 X28.9641 Y23.1059 
G01 X28.9131 Y23.2631 
G01 X28.8380 Y23.4103 
G01 X28.7409 Y23.5440 
G01 X28.6240 Y23.6609 
G01 X28.4903 Y23.7580 
G01 X28.3431 Y23.8331 
G01 X28.1859 Y23.8841 
G01 X28.0226 Y23.9100 
G01 X27.8574 Y23.9100 
G01 X27.6941 Y23.8841 
G01 X27.5369 Y23.8331 
G01 X27.3897 Y23.7580 
G01 X27.2560 Y23.6609 
G01 X27.1391 Y23.5440 
G01 X27.0420 Y23.4103 
G01 X26.9669 Y23.2631 
G01 X26.9159 Y23.1059 
G01 X26.8900 Y22.9426 
G01 X26.8900 Y22.7774 
G01 X26.9159 Y22.6141 
G01 X26.9669 Y22.4569 
G01 X27.0420 Y22.3097 
G01 X27.1391 Y22.1760 
G01 X27.2560 Y22.0591 
G01 X27.3897 Y21.9620 
G01 X27.5369 Y21.8869 
G01 X27.6941 Y21.8359 
G01 X27.8574 Y21.8100 
G01 X28.0226 Y21.8100 
G01 X28.1859 Y21.8359 
G01 X28.3431 Y21.8869 
G01 X28.4903 Y21.9620 
G01 X28.6240 Y22.0591 
G01 X28.7409 Y22.1760 
G01 X28.8380 Y22.3097 
G01 X28.9131 Y22.4569 
G01 X28.9641 Y22.6141 
G01 X28.9900 Y22.7774 
G00 Z2.0000 
G00 X3.8530 Y14.5525 
G01 Z-0.0250 F254.00 
G01 X3.8530 Y14.6848 F508.00 
G01 X3.9853 Y14.6848 
G01 X3.9853 Y14.5525 
G01 X3.8530 Y14.5525 
G00 Z2.0000 
G00 X4.4185 Y6.4990 
G01 Z-0.0250 F254.00 
G01 X4.5276 Y6.4990 F508.00 
G01 X4.5276 Y6.3589 
G01 X4.5015 Y6.3329 
G01 X4.4185 Y6.4990 
G00 Z2.0000 
G00 X27.4500 Y19.3200 
G01 Z-0.0250 F254.00 
G01 X27.4500 Y17.4272 F508.00 
G01 X27.3000 Y17.5772 
G01 X27.3000 Y19.3200 
G01 X27.4500 Y19.3200 
G00 Z2.0000 
G00 X11.5500 Y19.2722 
G01 Z-0.0250 F254.00 
G01 X12.9700 Y20.6922 F508.00 
G01 X12.9700 Y20.4978 
G01 X11.5500 Y19.0778 
G01 X11.5500 Y19.2722 
G00 Z2.0000 
G00 X14.7500 Y5.7327 
G01 Z-0.0250 F254.00 
G01 X14.7227 Y5.8344 F508.00 
G01 X14.6701 Y5.9256 
G01 X14.5956 Y6.0001 
G01 X14.5044 Y6.0527 
G01 X14.4027 Y6.0800 
G01 X13.3000 Y6.0800 
G01 X13.3000 Y9.0222 
G01 X13.5877 Y9.3099 
G01 X13.6901 Y9.4123 
G01 X15.1278 Y10.8500 
G01 X15.8227 Y10.8500 
G01 X15.9244 Y10.8773 
G01 X16.0156 Y10.9299 
G01 X16.0901 Y11.0044 
G01 X16.1427 Y11.0956 
G01 X16.1700 Y11.1973 
G01 X16.1700 Y12.3027 
G01 X16.1427 Y12.4044 
G01 X16.0901 Y12.4956 
G01 X16.0156 Y12.5701 
G01 X15.9244 Y12.6227 
G01 X15.8227 Y12.6500 
G01 X14.3173 Y12.6500 
G01 X14.2156 Y12.6227 
G01 X14.1244 Y12.5701 
G01 X14.0499 Y12.4956 
G01 X13.9973 Y12.4044 
G01 X13.9700 Y12.3027 
G01 X13.9700 Y11.8068 
G01 X13.9553 Y11.8288 
G01 X13.8599 Y11.9242 
G01 X13.8901 Y11.9544 
G01 X13.9427 Y12.0456 
G01 X13.9700 Y12.1473 
G01 X13.9700 Y13.2527 
G01 X13.9427 Y13.3544 
G01 X13.8901 Y13.4456 
G01 X13.8156 Y13.5201 
G01 X13.7244 Y13.5727 
G01 X13.6227 Y13.6000 
G01 X12.3000 Y13.6000 
G01 X12.3000 Y18.2722 
G01 X13.9178 Y19.8900 
G01 X14.6227 Y19.8900 
G01 X14.7000 Y19.9107 
G01 X14.7000 Y14.5500 
G01 X14.3173 Y14.5500 
G01 X14.2156 Y14.5227 
G01 X14.1244 Y14.4701 
G01 X14.0499 Y14.3956 
G01 X13.9973 Y14.3044 
G01 X13.9700 Y14.2027 
G01 X13.9700 Y13.0973 
G01 X13.9973 Y12.9956 
G01 X14.0499 Y12.9044 
G01 X14.1244 Y12.8299 
G01 X14.2156 Y12.7773 
G01 X14.3173 Y12.7500 
G01 X15.8227 Y12.7500 
G01 X15.9244 Y12.7773 
G01 X16.0156 Y12.8299 
G01 X16.0901 Y12.9044 
G01 X16.1427 Y12.9956 
G01 X16.1700 Y13.0973 
G01 X16.1700 Y14.2027 
G01 X16.1427 Y14.3044 
G01 X16.0901 Y14.3956 
G01 X16.0156 Y14.4701 
G01 X15.9244 Y14.5227 
G01 X15.8227 Y14.5500 
G01 X15.8000 Y14.5500 
G01 X15.8000 Y21.9500 
G01 X16.8034 Y21.9500 
G01 X16.8073 Y21.9356 
G01 X16.8599 Y21.8444 
G01 X16.9344 Y21.7699 
G01 X17.0256 Y21.7173 
G01 X17.1273 Y21.6900 
G01 X18.4327 Y21.6900 
G01 X18.4700 Y21.7000 
G01 X25.2722 Y21.7000 
G01 X25.6522 Y21.3200 
G01 X25.3173 Y21.3200 
G01 X25.2156 Y21.2927 
G01 X25.1244 Y21.2401 
G01 X25.0499 Y21.1656 
G01 X24.9973 Y21.0744 
G01 X24.9700 Y20.9727 
G01 X24.9700 Y20.8000 
G01 X23.2900 Y20.8000 
G01 X23.2900 Y20.9727 
G01 X23.2627 Y21.0744 
G01 X23.2101 Y21.1656 
G01 X23.1356 Y21.2401 
G01 X23.0444 Y21.2927 
G01 X22.9427 Y21.3200 
G01 X22.0373 Y21.3200 
G01 X21.9356 Y21.2927 
G01 X21.8444 Y21.2401 
G01 X21.7699 Y21.1656 
G01 X21.7173 Y21.0744 
G01 X21.6900 Y20.9727 
G01 X21.6900 Y20.0878 
G01 X21.4900 Y20.2878 
G01 X21.4900 Y20.9727 
G01 X21.4627 Y21.0744 
G01 X21.4101 Y21.1656 
G01 X21.3356 Y21.2401 
G01 X21.2444 Y21.2927 
G01 X21.1427 Y21.3200 
G01 X20.2373 Y21.3200 
G01 X20.1356 Y21.2927 
G01 X20.0444 Y21.2401 
G01 X19.9699 Y21.1656 
G01 X19.9173 Y21.0744 
G01 X19.9107 Y21.0500 
G01 X18.7800 Y21.0500 
G01 X18.7800 Y21.1427 
G01 X18.7527 Y21.2444 
G01 X18.7001 Y21.3356 
G01 X18.6256 Y21.4101 
G01 X18.5344 Y21.4627 
G01 X18.4327 Y21.4900 
G01 X17.1273 Y21.4900 
G01 X17.0256 Y21.4627 
G01 X16.9344 Y21.4101 
G01 X16.8599 Y21.3356 
G01 X16.8073 Y21.2444 
G01 X16.7800 Y21.1427 
G01 X16.7800 Y20.2373 
G01 X16.8073 Y20.1356 
G01 X16.8599 Y20.0444 
G01 X16.9344 Y19.9699 
G01 X17.0256 Y19.9173 
G01 X17.1273 Y19.8900 
G01 X18.4327 Y19.8900 
G01 X18.5344 Y19.9173 
G01 X18.5911 Y19.9500 
G01 X19.8900 Y19.9500 
G01 X19.8900 Y19.6673 
G01 X19.9173 Y19.5656 
G01 X19.9699 Y19.4744 
G01 X20.0444 Y19.3999 
G01 X20.1356 Y19.3473 
G01 X20.2373 Y19.3200 
G01 X20.9022 Y19.3200 
G01 X20.9500 Y19.2722 
G01 X20.9500 Y17.5672 
G01 X20.3899 Y17.0071 
G01 X20.3899 Y16.0129 
G01 X20.6028 Y15.8000 
G01 X20.0372 Y15.8000 
G01 X20.2501 Y16.0129 
G01 X20.2501 Y17.0071 
G01 X19.5471 Y17.7101 
G01 X18.5529 Y17.7101 
G01 X17.8499 Y17.0071 
G01 X17.8499 Y16.0129 
G01 X18.5425 Y15.3203 
G01 X17.3099 Y14.0877 
G01 X17.2375 Y13.9623 
G01 X17.2000 Y13.8224 
G01 X17.2000 Y6.7700 
G01 X17.1627 Y6.7800 
G01 X15.8573 Y6.7800 
G01 X15.7556 Y6.7527 
G01 X15.6644 Y6.7001 
G01 X15.5899 Y6.6256 
G01 X15.5373 Y6.5344 
G01 X15.5100 Y6.4327 
G01 X15.5100 Y5.5500 
G01 X14.7500 Y5.5500 
G01 X14.7500 Y5.7327 
G00 Z2.0000 
G00 X19.1722 Y6.3000 
G01 Z-0.0250 F254.00 
G01 X18.3000 Y6.3000 F508.00 
G01 X18.3000 Y7.9428 
G01 X18.5529 Y7.6899 
G01 X18.7000 Y7.6899 
G01 X18.7000 Y6.9276 
G01 X18.7375 Y6.7877 
G01 X18.8099 Y6.6623 
G01 X18.9123 Y6.5599 
G01 X19.1722 Y6.3000 
G00 Z2.0000 
G00 X23.6329 Y17.7101 
G01 Z-0.0250 F254.00 
G01 X22.9299 Y17.0071 F508.00 
G01 X22.9299 Y16.0129 
G01 X23.1428 Y15.8000 
G01 X22.5772 Y15.8000 
G01 X22.7901 Y16.0129 
G01 X22.7901 Y17.0071 
G01 X22.0871 Y17.7101 
G01 X22.0500 Y17.7101 
G01 X22.0500 Y19.3200 
G01 X22.9427 Y19.3200 
G01 X23.0444 Y19.3473 
G01 X23.1356 Y19.3999 
G01 X23.2101 Y19.4744 
G01 X23.2627 Y19.5656 
G01 X23.2900 Y19.6673 
G01 X23.2900 Y19.7000 
G01 X23.7000 Y19.7000 
G01 X23.7000 Y17.7101 
G01 X23.6329 Y17.7101 
G00 Z2.0000 
G00 X24.9700 Y19.7000 
G01 Z-0.0250 F254.00 
G01 X24.9700 Y19.6673 F508.00 
G01 X24.9973 Y19.5656 
G01 X25.0499 Y19.4744 
G01 X25.1244 Y19.3999 
G01 X25.2156 Y19.3473 
G01 X25.3173 Y19.3200 
G01 X26.2000 Y19.3200 
G01 X26.2000 Y17.7101 
G01 X26.1729 Y17.7101 
G01 X25.4699 Y17.0071 
G01 X25.4699 Y16.0129 
G01 X25.6828 Y15.8000 
G01 X25.1172 Y15.8000 
G01 X25.3301 Y16.0129 
G01 X25.3301 Y17.0071 
G01 X24.8000 Y17.5372 
G01 X24.8000 Y19.7000 
G01 X24.9700 Y19.7000 
G00 Z2.0000 
G00 X12.3099 Y9.5877 
G01 Z-0.0250 F254.00 
G01 X12.2375 Y9.4623 F508.00 
G01 X12.2000 Y9.3224 
G01 X12.2000 Y6.0800 
G01 X11.5500 Y6.0800 
G01 X11.5500 Y10.6722 
G01 X12.4722 Y9.7500 
G01 X12.3099 Y9.5877 
G00 Z2.0000 
G00 X12.5255 Y11.8000 
G01 Z-0.0250 F254.00 
G01 X12.4453 Y11.6801 F508.00 
G01 X12.3769 Y11.5149 
G01 X12.3580 Y11.4198 
G01 X12.3000 Y11.4778 
G01 X12.3000 Y11.8000 
G01 X12.5255 Y11.8000 
G00 Z2.0000 
G00 X14.6227 Y21.6900 
G01 Z-0.0250 F254.00 
G01 X14.7000 Y21.7107 F508.00 
G01 X14.7000 Y21.4693 
G01 X14.6227 Y21.4900 
G01 X13.7678 Y21.4900 
G01 X13.9678 Y21.6900 
G01 X14.6227 Y21.6900 
G00 Z2.0000 
G00 X6.8761 Y17.9896 
G01 Z-0.0250 F254.00 
G01 X8.3639 Y17.9896 F508.00 
G01 X8.5287 Y18.0157 
G01 X8.6875 Y18.0673 
G01 X8.8362 Y18.1431 
G01 X8.9712 Y18.2412 
G01 X9.0892 Y18.3592 
G01 X9.1873 Y18.4942 
G01 X9.2631 Y18.6429 
G01 X9.3147 Y18.8017 
G01 X9.3408 Y18.9665 
G01 X9.3408 Y19.1335 
G01 X9.3147 Y19.2983 
G01 X9.2631 Y19.4571 
G01 X9.1873 Y19.6058 
G01 X9.0892 Y19.7408 
G01 X8.9712 Y19.8588 
G01 X8.8362 Y19.9569 
G01 X8.6875 Y20.0327 
G01 X8.5287 Y20.0843 
G01 X8.3639 Y20.1104 
G01 X6.8761 Y20.1104 
G01 X6.7113 Y20.0843 
G01 X6.5525 Y20.0327 
G01 X6.4038 Y19.9569 
G01 X6.2688 Y19.8588 
G01 X6.1508 Y19.7408 
G01 X6.0527 Y19.6058 
G01 X5.9769 Y19.4571 
G01 X5.9253 Y19.2983 
G01 X5.8992 Y19.1335 
G01 X5.8992 Y18.9665 
G01 X5.9253 Y18.8017 
G01 X5.9769 Y18.6429 
G01 X6.0527 Y18.4942 
G01 X6.1508 Y18.3592 
G01 X6.2688 Y18.2412 
G01 X6.4038 Y18.1431 
G01 X6.5525 Y18.0673 
G01 X6.7113 Y18.0157 
G01 X6.8761 Y17.9896 
G00 Z2.0000 
G00 X6.8761 Y15.4496 
G01 Z-0.0250 F254.00 
G01 X8.3639 Y15.4496 F508.00 
G01 X8.5287 Y15.4757 
G01 X8.6875 Y15.5273 
G01 X8.8362 Y15.6031 
G01 X8.9712 Y15.7012 
G01 X9.0892 Y15.8192 
G01 X9.1873 Y15.9542 
G01 X9.2631 Y16.1029 
G01 X9.3147 Y16.2617 
G01 X9.3408 Y16.4265 
G01 X9.3408 Y16.5935 
G01 X9.3147 Y16.7583 
G01 X9.2631 Y16.9170 
G01 X9.1873 Y17.0658 
G01 X9.0892 Y17.2008 
G01 X8.9712 Y17.3188 
G01 X8.8362 Y17.4169 
G01 X8.6875 Y17.4927 
G01 X8.5287 Y17.5443 
G01 X8.3639 Y17.5704 
G01 X6.8761 Y17.5704 
G01 X6.7113 Y17.5443 
G01 X6.5525 Y17.4927 
G01 X6.4038 Y17.4169 
G01 X6.2688 Y17.3188 
G01 X6.1508 Y17.2008 
G01 X6.0527 Y17.0658 
G01 X5.9769 Y16.9170 
G01 X5.9253 Y16.7583 
G01 X5.8992 Y16.5935 
G01 X5.8992 Y16.4265 
G01 X5.9253 Y16.2617 
G01 X5.9769 Y16.1029 
G01 X6.0527 Y15.9542 
G01 X6.1508 Y15.8192 
G01 X6.2688 Y15.7012 
G01 X6.4038 Y15.6031 
G01 X6.5525 Y15.5273 
G01 X6.7113 Y15.4757 
G01 X6.8761 Y15.4496 
G00 Z2.0000 
G00 X6.8761 Y12.9096 
G01 Z-0.0250 F254.00 
G01 X8.3639 Y12.9096 F508.00 
G01 X8.5287 Y12.9357 
G01 X8.6875 Y12.9873 
G01 X8.8362 Y13.0631 
G01 X8.9712 Y13.1612 
G01 X9.0892 Y13.2792 
G01 X9.1873 Y13.4142 
G01 X9.2631 Y13.5629 
G01 X9.3147 Y13.7217 
G01 X9.3408 Y13.8865 
G01 X9.3408 Y14.0535 
G01 X9.3147 Y14.2183 
G01 X9.2631 Y14.3771 
G01 X9.1873 Y14.5258 
G01 X9.0892 Y14.6608 
G01 X8.9712 Y14.7788 
G01 X8.8362 Y14.8769 
G01 X8.6875 Y14.9527 
G01 X8.5287 Y15.0043 
G01 X8.3639 Y15.0304 
G01 X6.8761 Y15.0304 
G01 X6.7113 Y15.0043 
G01 X6.5525 Y14.9527 
G01 X6.4038 Y14.8769 
G01 X6.2688 Y14.7788 
G01 X6.1508 Y14.6608 
G01 X6.0527 Y14.5258 
G01 X5.9769 Y14.3771 
G01 X5.9253 Y14.2183 
G01 X5.8992 Y14.0535 
G01 X5.8992 Y13.8865 
G01 X5.9253 Y13.7217 
G01 X5.9769 Y13.5629 
G01 X6.0527 Y13.4142 
G01 X6.1508 Y13.2792 
G01 X6.2688 Y13.1612 
G01 X6.4038 Y13.0631 
G01 X6.5525 Y12.9873 
G01 X6.7113 Y12.9357 
G01 X6.8761 Y12.9096 
G00 Z2.0000 
G00 X6.8761 Y10.3696 
G01 Z-0.0250 F254.00 
G01 X8.3639 Y10.3696 F508.00 
G01 X8.5287 Y10.3957 
G01 X8.6875 Y10.4473 
G01 X8.8362 Y10.5231 
G01 X8.9712 Y10.6212 
G01 X9.0892 Y10.7392 
G01 X9.1873 Y10.8742 
G01 X9.2631 Y11.0229 
G01 X9.3147 Y11.1817 
G01 X9.3408 Y11.3465 
G01 X9.3408 Y11.5135 
G01 X9.3147 Y11.6783 
G01 X9.2631 Y11.8371 
G01 X9.1873 Y11.9858 
G01 X9.0892 Y12.1208 
G01 X8.9712 Y12.2388 
G01 X8.8362 Y12.3369 
G01 X8.6875 Y12.4127 
G01 X8.5287 Y12.4643 
G01 X8.3639 Y12.4904 
G01 X6.8761 Y12.4904 
G01 X6.7113 Y12.4643 
G01 X6.5525 Y12.4127 
G01 X6.4038 Y12.3369 
G01 X6.2688 Y12.2388 
G01 X6.1508 Y12.1208 
G01 X6.0527 Y11.9858 
G01 X5.9769 Y11.8371 
G01 X5.9253 Y11.6783 
G01 X5.8992 Y11.5135 
G01 X5.8992 Y11.3465 
G01 X5.9253 Y11.1817 
G01 X5.9769 Y11.0229 
G01 X6.0527 Y10.8742 
G01 X6.1508 Y10.7392 
G01 X6.2688 Y10.6212 
G01 X6.4038 Y10.5231 
G01 X6.5525 Y10.4473 
G01 X6.7113 Y10.3957 
G01 X6.8761 Y10.3696 
G00 Z2.0000 
G00 X6.8761 Y7.8296 
G01 Z-0.0250 F254.00 
G01 X8.3639 Y7.8296 F508.00 
G01 X8.5287 Y7.8557 
G01 X8.6875 Y7.9073 
G01 X8.8362 Y7.9831 
G01 X8.9712 Y8.0812 
G01 X9.0892 Y8.1992 
G01 X9.1873 Y8.3342 
G01 X9.2631 Y8.4829 
G01 X9.3147 Y8.6417 
G01 X9.3408 Y8.8065 
G01 X9.3408 Y8.9735 
G01 X9.3147 Y9.1383 
G01 X9.2631 Y9.2971 
G01 X9.1873 Y9.4458 
G01 X9.0892 Y9.5808 
G01 X8.9712 Y9.6988 
G01 X8.8362 Y9.7969 
G01 X8.6875 Y9.8727 
G01 X8.5287 Y9.9243 
G01 X8.3639 Y9.9504 
G01 X6.8761 Y9.9504 
G01 X6.7113 Y9.9243 
G01 X6.5525 Y9.8727 
G01 X6.4038 Y9.7969 
G01 X6.2688 Y9.6988 
G01 X6.1508 Y9.5808 
G01 X6.0527 Y9.4458 
G01 X5.9769 Y9.2971 
G01 X5.9253 Y9.1383 
G01 X5.8992 Y8.9735 
G01 X5.8992 Y8.8065 
G01 X5.9253 Y8.6417 
G01 X5.9769 Y8.4829 
G01 X6.0527 Y8.3342 
G01 X6.1508 Y8.1992 
G01 X6.2688 Y8.0812 
G01 X6.4038 Y7.9831 
G01 X6.5525 Y7.9073 
G01 X6.7113 Y7.8557 
G01 X6.8761 Y7.8296 
G00 Z2.0000 
G00 X27.3227 Y4.9800 
G01 Z-0.0250 F254.00 
G01 X26.0173 Y4.9800 F508.00 
G01 X25.9156 Y4.9527 
G01 X25.8244 Y4.9001 
G01 X25.7499 Y4.8256 
G01 X25.6973 Y4.7344 
G01 X25.6700 Y4.6327 
G01 X25.6700 Y3.9478 
G01 X25.0222 Y3.3000 
G01 X13.3000 Y3.3000 
G01 X13.3000 Y4.0800 
G01 X14.4027 Y4.0800 
G01 X14.5044 Y4.1073 
G01 X14.5956 Y4.1599 
G01 X14.6701 Y4.2344 
G01 X14.7227 Y4.3256 
G01 X14.7500 Y4.4273 
G01 X14.7500 Y4.4500 
G01 X15.5100 Y4.4500 
G01 X15.5100 Y3.7273 
G01 X15.5373 Y3.6256 
G01 X15.5899 Y3.5344 
G01 X15.6644 Y3.4599 
G01 X15.7556 Y3.4073 
G01 X15.8573 Y3.3800 
G01 X17.1627 Y3.3800 
G01 X17.2644 Y3.4073 
G01 X17.3556 Y3.4599 
G01 X17.4301 Y3.5344 
G01 X17.4827 Y3.6256 
G01 X17.5100 Y3.7273 
G01 X17.5100 Y4.6327 
G01 X17.4827 Y4.7344 
G01 X17.4301 Y4.8256 
G01 X17.3556 Y4.9001 
G01 X17.2644 Y4.9527 
G01 X17.1627 Y4.9800 
G01 X17.0500 Y4.9800 
G01 X17.0500 Y5.0724 
G01 X17.0212 Y5.1800 
G01 X17.1627 Y5.1800 
G01 X17.2373 Y5.2000 
G01 X18.7000 Y5.2000 
G01 X18.7000 Y5.1776 
G01 X18.7375 Y5.0377 
G01 X18.8099 Y4.9123 
G01 X19.3200 Y4.4022 
G01 X19.3200 Y3.7273 
G01 X19.3473 Y3.6256 
G01 X19.3999 Y3.5344 
G01 X19.4744 Y3.4599 
G01 X19.5656 Y3.4073 
G01 X19.6673 Y3.3800 
G01 X20.9727 Y3.3800 
G01 X21.0744 Y3.4073 
G01 X21.1656 Y3.4599 
G01 X21.2401 Y3.5344 
G01 X21.2927 Y3.6256 
G01 X21.3127 Y3.7000 
G01 X23.1373 Y3.7000 
G01 X23.1573 Y3.6256 
G01 X23.2099 Y3.5344 
G01 X23.2844 Y3.4599 
G01 X23.3756 Y3.4073 
G01 X23.4773 Y3.3800 
G01 X24.7827 Y3.3800 
G01 X24.8844 Y3.4073 
G01 X24.9756 Y3.4599 
G01 X25.0501 Y3.5344 
G01 X25.1027 Y3.6256 
G01 X25.1300 Y3.7273 
G01 X25.1300 Y4.6327 
G01 X25.1027 Y4.7344 
G01 X25.0501 Y4.8256 
G01 X24.9756 Y4.9001 
G01 X24.8844 Y4.9527 
G01 X24.7827 Y4.9800 
G01 X23.4773 Y4.9800 
G01 X23.3756 Y4.9527 
G01 X23.2844 Y4.9001 
G01 X23.2099 Y4.8256 
G01 X23.1951 Y4.8000 
G01 X21.2549 Y4.8000 
G01 X21.2401 Y4.8256 
G01 X21.1656 Y4.9001 
G01 X21.0744 Y4.9527 
G01 X20.9727 Y4.9800 
G01 X20.2978 Y4.9800 
G01 X20.0978 Y5.1800 
G01 X20.9727 Y5.1800 
G01 X21.0744 Y5.2073 
G01 X21.1656 Y5.2599 
G01 X21.2401 Y5.3344 
G01 X21.2927 Y5.4256 
G01 X21.3200 Y5.5273 
G01 X21.3200 Y6.4327 
G01 X21.2927 Y6.5344 
G01 X21.2401 Y6.6256 
G01 X21.1656 Y6.7001 
G01 X21.0744 Y6.7527 
G01 X20.9727 Y6.7800 
G01 X20.2478 Y6.7800 
G01 X19.8000 Y7.2278 
G01 X19.8000 Y7.9428 
G01 X20.2501 Y8.3929 
G01 X20.2501 Y9.3871 
G01 X19.5471 Y10.0901 
G01 X18.5529 Y10.0901 
G01 X18.3000 Y9.8372 
G01 X18.3000 Y13.5222 
G01 X19.4778 Y14.7000 
G01 X27.3224 Y14.7000 
G01 X27.4623 Y14.7375 
G01 X27.5877 Y14.8099 
G01 X27.6901 Y14.9123 
G01 X28.4401 Y15.6623 
G01 X28.5125 Y15.7877 
G01 X28.5500 Y15.9276 
G01 X28.5500 Y20.0724 
G01 X28.5125 Y20.2123 
G01 X28.4401 Y20.3377 
G01 X28.3700 Y20.4078 
G01 X28.3700 Y20.9727 
G01 X28.3427 Y21.0744 
G01 X28.2901 Y21.1656 
G01 X28.2156 Y21.2401 
G01 X28.1244 Y21.2927 
G01 X28.0227 Y21.3200 
G01 X27.2003 Y21.3200 
G01 X27.1901 Y21.3377 
G01 X25.9401 Y22.5877 
G01 X25.8377 Y22.6901 
G01 X25.7123 Y22.7625 
G01 X25.5724 Y22.8000 
G01 X18.7800 Y22.8000 
G01 X18.7800 Y22.9427 
G01 X18.7527 Y23.0444 
G01 X18.7001 Y23.1356 
G01 X18.6256 Y23.2101 
G01 X18.5344 Y23.2627 
G01 X18.4327 Y23.2900 
G01 X17.1273 Y23.2900 
G01 X17.0256 Y23.2627 
G01 X16.9344 Y23.2101 
G01 X16.8599 Y23.1356 
G01 X16.8105 Y23.0500 
G01 X14.9395 Y23.0500 
G01 X14.8901 Y23.1356 
G01 X14.8156 Y23.2101 
G01 X14.7244 Y23.2627 
G01 X14.6227 Y23.2900 
G01 X13.3173 Y23.2900 
G01 X13.2156 Y23.2627 
G01 X13.1244 Y23.2101 
G01 X13.0499 Y23.1356 
G01 X12.9973 Y23.0444 
G01 X12.9700 Y22.9427 
G01 X12.9700 Y22.2478 
G01 X10.5599 Y19.8377 
G01 X10.4875 Y19.7123 
G01 X10.4500 Y19.5724 
G01 X10.4500 Y5.8000 
G01 X9.1903 Y5.8000 
