(.../pcb-gcode-3.6.0.4/pcb-gcode.ulp)
(Copyright 2005 - 2012 by John Johnson)
(See readme.txt for licensing terms.)
(This file generated from the board:)
(.../eagle/ARMEDBASE_V0/RTU/RTU.brd)
(Current profile is .../pcb-gcode-3.6.0.4/profiles/emc.pp  )
(This file generated 6/20/2014 3:11:52 PM)
(Settings from pcb-machine.h)
(  Tool Size)
(0.2000 )
(Z Axis Settings)
(  High     Up        Down     Drill)
(12.7000 	2.5400 	-0.1500 	-0.8128 )
(spindle on time = 3.0000)
(milling depth = -0.1500)
(text depth = -0.1270)
(tool change at 12.7000 15.2400 25.4000 )
(feed rate xy = F508.00 )
(feed rate z  = F254.00 )
(Settings from pcb-defaults.h)
(isolate min = 0.0154)
(isolate max = 0.5080)
(isolate step = 0.1270)
(Generated top outlines, top drill, bottom outlines, bottom drill, )
(Unit of measure: mm)
(Metric Mode)
G21
(Absolute Coordinates)
G90
G00 X0.0000 Y0.0000 
M03
G04 P3.000000
G00 Z2.5400 
G00 X-80.9634 Y3.6643 
G01 Z-0.1500 F254.00 
G01 X-80.9634 Y3.9557 F508.00 
G01 X-80.9254 Y4.2447 
G01 X-80.8499 Y4.5262 
G01 X-80.7384 Y4.7955 
G01 X-80.5927 Y5.0479 
G01 X-80.4152 Y5.2791 
G01 X-80.2091 Y5.4852 
G01 X-79.9779 Y5.6627 
G01 X-79.7255 Y5.8084 
G01 X-79.4562 Y5.9199 
G01 X-79.1747 Y5.9954 
G01 X-78.8857 Y6.0334 
G01 X-78.5943 Y6.0334 
G01 X-78.3053 Y5.9954 
G01 X-78.0238 Y5.9199 
G01 X-77.7545 Y5.8084 
G01 X-77.5021 Y5.6627 
G01 X-77.2709 Y5.4852 
G01 X-77.0648 Y5.2791 
G01 X-76.8873 Y5.0479 
G01 X-76.7416 Y4.7955 
G01 X-76.6301 Y4.5262 
G01 X-76.5546 Y4.2447 
G01 X-76.5166 Y3.9557 
G01 X-76.5166 Y3.6643 
G01 X-76.5546 Y3.3753 
G01 X-76.6301 Y3.0938 
G01 X-76.7416 Y2.8245 
G01 X-76.8873 Y2.5721 
G01 X-77.0648 Y2.3409 
G01 X-77.2709 Y2.1348 
G01 X-77.5021 Y1.9573 
G01 X-77.7545 Y1.8116 
G01 X-78.0238 Y1.7001 
G01 X-78.3053 Y1.6246 
G01 X-78.5943 Y1.5866 
G01 X-78.8857 Y1.5866 
G01 X-79.1747 Y1.6246 
G01 X-79.4562 Y1.7001 
G01 X-79.7255 Y1.8116 
G01 X-79.9779 Y1.9573 
G01 X-80.2091 Y2.1348 
G01 X-80.4152 Y2.3409 
G01 X-80.5927 Y2.5721 
G01 X-80.7384 Y2.8245 
G01 X-80.8499 Y3.0938 
G01 X-80.9254 Y3.3753 
G01 X-80.9634 Y3.6643 
G00 Z2.5400 
G00 X-79.6934 Y96.3743 
G01 Z-0.1500 F254.00 
G01 X-79.6934 Y96.6657 F508.00 
G01 X-79.6554 Y96.9547 
G01 X-79.5799 Y97.2362 
G01 X-79.4684 Y97.5055 
G01 X-79.3227 Y97.7579 
G01 X-79.1452 Y97.9891 
G01 X-78.9391 Y98.1952 
G01 X-78.7079 Y98.3727 
G01 X-78.4555 Y98.5184 
G01 X-78.1862 Y98.6299 
G01 X-77.9047 Y98.7054 
G01 X-77.6157 Y98.7434 
G01 X-77.3243 Y98.7434 
G01 X-77.0353 Y98.7054 
G01 X-76.7538 Y98.6299 
G01 X-76.4845 Y98.5184 
G01 X-76.2321 Y98.3727 
G01 X-76.0009 Y98.1952 
G01 X-75.7948 Y97.9891 
G01 X-75.6173 Y97.7579 
G01 X-75.4716 Y97.5055 
G01 X-75.3601 Y97.2362 
G01 X-75.2846 Y96.9547 
G01 X-75.2466 Y96.6657 
G01 X-75.2466 Y96.3743 
G01 X-75.2846 Y96.0853 
G01 X-75.3601 Y95.8038 
G01 X-75.4716 Y95.5345 
G01 X-75.6173 Y95.2821 
G01 X-75.7948 Y95.0509 
G01 X-76.0009 Y94.8448 
G01 X-76.2321 Y94.6673 
G01 X-76.4845 Y94.5216 
G01 X-76.7538 Y94.4101 
G01 X-77.0353 Y94.3346 
G01 X-77.3243 Y94.2966 
G01 X-77.6157 Y94.2966 
G01 X-77.9047 Y94.3346 
G01 X-78.1862 Y94.4101 
G01 X-78.4555 Y94.5216 
G01 X-78.7079 Y94.6673 
G01 X-78.9391 Y94.8448 
G01 X-79.1452 Y95.0509 
G01 X-79.3227 Y95.2821 
G01 X-79.4684 Y95.5345 
G01 X-79.5799 Y95.8038 
G01 X-79.6554 Y96.0853 
G01 X-79.6934 Y96.3743 
G00 Z2.5400 
G00 X-6.0334 Y3.6643 
G01 Z-0.1500 F254.00 
G01 X-6.0334 Y3.9557 F508.00 
G01 X-5.9954 Y4.2447 
G01 X-5.9199 Y4.5262 
G01 X-5.8084 Y4.7955 
G01 X-5.6627 Y5.0479 
G01 X-5.4852 Y5.2791 
G01 X-5.2791 Y5.4852 
G01 X-5.0479 Y5.6627 
G01 X-4.7955 Y5.8084 
G01 X-4.5262 Y5.9199 
G01 X-4.2447 Y5.9954 
G01 X-3.9557 Y6.0334 
G01 X-3.6643 Y6.0334 
G01 X-3.3753 Y5.9954 
G01 X-3.0938 Y5.9199 
G01 X-2.8245 Y5.8084 
G01 X-2.5721 Y5.6627 
G01 X-2.3409 Y5.4852 
G01 X-2.1348 Y5.2791 
G01 X-1.9573 Y5.0479 
G01 X-1.8116 Y4.7955 
G01 X-1.7001 Y4.5262 
G01 X-1.6246 Y4.2447 
G01 X-1.5866 Y3.9557 
G01 X-1.5866 Y3.6643 
G01 X-1.6246 Y3.3753 
G01 X-1.7001 Y3.0938 
G01 X-1.8116 Y2.8245 
G01 X-1.9573 Y2.5721 
G01 X-2.1348 Y2.3409 
G01 X-2.3409 Y2.1348 
G01 X-2.5721 Y1.9573 
G01 X-2.8245 Y1.8116 
G01 X-3.0938 Y1.7001 
G01 X-3.3753 Y1.6246 
G01 X-3.6643 Y1.5866 
G01 X-3.9557 Y1.5866 
G01 X-4.2447 Y1.6246 
G01 X-4.5262 Y1.7001 
G01 X-4.7955 Y1.8116 
G01 X-5.0479 Y1.9573 
G01 X-5.2791 Y2.1348 
G01 X-5.4852 Y2.3409 
G01 X-5.6627 Y2.5721 
G01 X-5.8084 Y2.8245 
G01 X-5.9199 Y3.0938 
G01 X-5.9954 Y3.3753 
G01 X-6.0334 Y3.6643 
G00 Z2.5400 
G00 X-6.0334 Y96.3743 
G01 Z-0.1500 F254.00 
G01 X-6.0334 Y96.6657 F508.00 
G01 X-5.9954 Y96.9547 
G01 X-5.9199 Y97.2362 
G01 X-5.8084 Y97.5055 
G01 X-5.6627 Y97.7579 
G01 X-5.4852 Y97.9891 
G01 X-5.2791 Y98.1952 
G01 X-5.0479 Y98.3727 
G01 X-4.7955 Y98.5184 
G01 X-4.5262 Y98.6299 
G01 X-4.2447 Y98.7054 
G01 X-3.9557 Y98.7434 
G01 X-3.6643 Y98.7434 
G01 X-3.3753 Y98.7054 
G01 X-3.0938 Y98.6299 
G01 X-2.8245 Y98.5184 
G01 X-2.5721 Y98.3727 
G01 X-2.3409 Y98.1952 
G01 X-2.1348 Y97.9891 
G01 X-1.9573 Y97.7579 
G01 X-1.8116 Y97.5055 
G01 X-1.7001 Y97.2362 
G01 X-1.6246 Y96.9547 
G01 X-1.5866 Y96.6657 
G01 X-1.5866 Y96.3743 
G01 X-1.6246 Y96.0853 
G01 X-1.7001 Y95.8038 
G01 X-1.8116 Y95.5345 
G01 X-1.9573 Y95.2821 
G01 X-2.1348 Y95.0509 
G01 X-2.3409 Y94.8448 
G01 X-2.5721 Y94.6673 
G01 X-2.8245 Y94.5216 
G01 X-3.0938 Y94.4101 
G01 X-3.3753 Y94.3346 
G01 X-3.6643 Y94.2966 
G01 X-3.9557 Y94.2966 
G01 X-4.2447 Y94.3346 
G01 X-4.5262 Y94.4101 
G01 X-4.7955 Y94.5216 
G01 X-5.0479 Y94.6673 
G01 X-5.2791 Y94.8448 
G01 X-5.4852 Y95.0509 
G01 X-5.6627 Y95.2821 
G01 X-5.8084 Y95.5345 
G01 X-5.9199 Y95.8038 
G01 X-5.9954 Y96.0853 
G01 X-6.0334 Y96.3743 
G00 Z2.5400 
G00 X-16.5171 Y86.8869 
G01 Z-0.1500 F254.00 
G01 X-16.4019 Y87.0021 F508.00 
G01 X-16.2665 Y87.0925 
G01 X-16.1161 Y87.1548 
G01 X-15.9564 Y87.1866 
G01 X-15.7936 Y87.1866 
G01 X-15.6339 Y87.1548 
G01 X-15.4835 Y87.0925 
G01 X-15.3481 Y87.0021 
G01 X-15.2329 Y86.8869 
G01 X-15.1425 Y86.7515 
G01 X-15.0802 Y86.6011 
G01 X-15.0484 Y86.4414 
G01 X-15.0484 Y86.2786 
G01 X-15.0802 Y86.1189 
G01 X-15.1425 Y85.9685 
G01 X-15.2329 Y85.8331 
G01 X-15.3481 Y85.7179 
G01 X-15.4835 Y85.6275 
G01 X-15.6339 Y85.5652 
G01 X-15.7936 Y85.5334 
G01 X-15.9564 Y85.5334 
G01 X-16.1161 Y85.5652 
G01 X-16.2665 Y85.6275 
G01 X-16.4019 Y85.7179 
G01 X-16.5171 Y85.8331 
G01 X-16.6075 Y85.9685 
G01 X-16.6698 Y86.1189 
G01 X-16.6843 Y86.1915 
G01 X-16.7155 Y86.2227 
G01 X-21.6904 Y91.1976 
G01 X-28.2945 Y91.1976 
G01 X-28.2945 Y91.0608 
G01 X-28.8308 Y90.5245 
G01 X-29.5892 Y90.5245 
G01 X-29.6860 Y90.6212 
G01 X-30.3427 Y89.9645 
G01 X-30.4318 Y89.9276 
G01 X-37.9996 Y89.9276 
G01 X-38.7925 Y89.1347 
G01 X-38.7706 Y89.0818 
G01 X-38.7466 Y88.9614 
G01 X-38.7466 Y88.8386 
G01 X-38.7706 Y88.7182 
G01 X-38.8176 Y88.6047 
G01 X-38.8858 Y88.5026 
G01 X-38.9726 Y88.4158 
G01 X-39.0747 Y88.3475 
G01 X-39.1882 Y88.3006 
G01 X-39.3086 Y88.2766 
G01 X-39.4314 Y88.2766 
G01 X-39.5518 Y88.3006 
G01 X-39.6653 Y88.3475 
G01 X-39.7674 Y88.4158 
G01 X-39.8542 Y88.5026 
G01 X-39.9224 Y88.6047 
G01 X-39.9694 Y88.7182 
G01 X-39.9934 Y88.8386 
G01 X-39.9934 Y88.9614 
G01 X-39.9694 Y89.0818 
G01 X-39.9224 Y89.1953 
G01 X-39.8542 Y89.2974 
G01 X-39.7674 Y89.3842 
G01 X-39.6653 Y89.4524 
G01 X-39.5518 Y89.4994 
G01 X-39.4314 Y89.5234 
G01 X-39.3086 Y89.5234 
G01 X-39.1882 Y89.4994 
G01 X-39.1353 Y89.4775 
G01 X-38.3055 Y90.3073 
G01 X-38.2373 Y90.3755 
G01 X-38.1482 Y90.4124 
G01 X-30.5804 Y90.4124 
G01 X-30.0288 Y90.9640 
G01 X-30.1255 Y91.0608 
G01 X-30.1255 Y91.8192 
G01 X-29.5892 Y92.3555 
G01 X-28.8308 Y92.3555 
G01 X-28.2945 Y91.8192 
G01 X-28.2945 Y91.6824 
G01 X-21.5418 Y91.6824 
G01 X-21.4527 Y91.6455 
G01 X-21.3845 Y91.5773 
G01 X-16.5880 Y86.7808 
G01 X-16.5171 Y86.8869 
G00 Z2.5400 
G00 X-14.1616 Y86.2786 
G01 Z-0.1500 F254.00 
G01 X-14.1616 Y86.4414 F508.00 
G01 X-14.1298 Y86.6011 
G01 X-14.0675 Y86.7515 
G01 X-13.9771 Y86.8869 
G01 X-13.8619 Y87.0021 
G01 X-13.7265 Y87.0925 
G01 X-13.5761 Y87.1548 
G01 X-13.4164 Y87.1866 
G01 X-13.2536 Y87.1866 
G01 X-13.0939 Y87.1548 
G01 X-12.9435 Y87.0925 
G01 X-12.8081 Y87.0021 
G01 X-12.6929 Y86.8869 
G01 X-12.6025 Y86.7515 
G01 X-12.5402 Y86.6011 
G01 X-12.5084 Y86.4414 
G01 X-12.5084 Y86.2786 
G01 X-12.5402 Y86.1189 
G01 X-12.6025 Y85.9685 
G01 X-12.6929 Y85.8331 
G01 X-12.8081 Y85.7179 
G01 X-12.9435 Y85.6275 
G01 X-13.0939 Y85.5652 
G01 X-13.2536 Y85.5334 
G01 X-13.4164 Y85.5334 
G01 X-13.5761 Y85.5652 
G01 X-13.7265 Y85.6275 
G01 X-13.8619 Y85.7179 
G01 X-13.9771 Y85.8331 
G01 X-14.0675 Y85.9685 
G01 X-14.1298 Y86.1189 
G01 X-14.1616 Y86.2786 
G00 Z2.5400 
G00 X-37.7455 Y88.5208 
G01 Z-0.1500 F254.00 
G01 X-37.7455 Y89.2792 F508.00 
G01 X-37.2092 Y89.8155 
G01 X-36.4508 Y89.8155 
G01 X-35.9145 Y89.2792 
G01 X-35.9145 Y88.5208 
G01 X-36.4508 Y87.9845 
G01 X-37.2092 Y87.9845 
G01 X-37.7455 Y88.5208 
G00 Z2.5400 
G00 X-37.7455 Y91.0608 
G01 Z-0.1500 F254.00 
G01 X-37.7455 Y91.8192 F508.00 
G01 X-37.2092 Y92.3555 
G01 X-36.4508 Y92.3555 
G01 X-35.9145 Y91.8192 
G01 X-35.9145 Y91.0608 
G01 X-36.4508 Y90.5245 
G01 X-37.2092 Y90.5245 
G01 X-37.7455 Y91.0608 
G00 Z2.5400 
G00 X-30.1255 Y93.6008 
G01 Z-0.1500 F254.00 
G01 X-30.1255 Y94.3592 F508.00 
G01 X-29.5892 Y94.8955 
G01 X-28.8308 Y94.8955 
G01 X-28.2945 Y94.3592 
G01 X-28.2945 Y93.6008 
G01 X-28.8308 Y93.0645 
G01 X-29.5892 Y93.0645 
G01 X-30.1255 Y93.6008 
G00 Z2.5400 
G00 X-30.1255 Y88.5208 
G01 Z-0.1500 F254.00 
G01 X-30.1255 Y89.2792 F508.00 
G01 X-29.5892 Y89.8155 
G01 X-28.8308 Y89.8155 
G01 X-28.2945 Y89.2792 
G01 X-28.2945 Y89.1424 
G01 X-20.2718 Y89.1424 
G01 X-20.1827 Y89.1055 
G01 X-20.1145 Y89.0373 
G01 X-15.3180 Y84.2408 
G01 X-15.2471 Y84.3469 
G01 X-15.1319 Y84.4621 
G01 X-14.9965 Y84.5525 
G01 X-14.8461 Y84.6148 
G01 X-14.6864 Y84.6466 
G01 X-14.5236 Y84.6466 
G01 X-14.3639 Y84.6148 
G01 X-14.2135 Y84.5525 
G01 X-14.0781 Y84.4621 
G01 X-13.9629 Y84.3469 
G01 X-13.8725 Y84.2115 
G01 X-13.8102 Y84.0611 
G01 X-13.7784 Y83.9014 
G01 X-13.7784 Y83.7386 
G01 X-13.8102 Y83.5789 
G01 X-13.8725 Y83.4285 
G01 X-13.9629 Y83.2931 
G01 X-14.0781 Y83.1779 
G01 X-14.2135 Y83.0875 
G01 X-14.3639 Y83.0252 
G01 X-14.5236 Y82.9934 
G01 X-14.6864 Y82.9934 
G01 X-14.8461 Y83.0252 
G01 X-14.9965 Y83.0875 
G01 X-15.1319 Y83.1779 
G01 X-15.2471 Y83.2931 
G01 X-15.3375 Y83.4285 
G01 X-15.3998 Y83.5789 
G01 X-15.4143 Y83.6515 
G01 X-15.4455 Y83.6827 
G01 X-20.4204 Y88.6576 
G01 X-28.2945 Y88.6576 
G01 X-28.2945 Y88.5208 
G01 X-28.8308 Y87.9845 
G01 X-29.5892 Y87.9845 
G01 X-30.1255 Y88.5208 
G00 Z2.5400 
G00 X-30.1255 Y85.9808 
G01 Z-0.1500 F254.00 
G01 X-30.1255 Y86.7392 F508.00 
G01 X-29.5892 Y87.2755 
G01 X-28.8308 Y87.2755 
G01 X-28.2945 Y86.7392 
G01 X-28.2945 Y85.9808 
G01 X-28.3912 Y85.8840 
G01 X-12.9347 Y70.4275 
G01 X-12.8818 Y70.4494 
G01 X-12.7614 Y70.4734 
G01 X-12.6386 Y70.4734 
G01 X-12.5182 Y70.4494 
G01 X-12.4047 Y70.4024 
G01 X-12.3026 Y70.3342 
G01 X-12.2158 Y70.2474 
G01 X-12.1476 Y70.1453 
G01 X-12.1006 Y70.0318 
G01 X-12.0766 Y69.9114 
G01 X-12.0766 Y69.7886 
G01 X-12.1006 Y69.6682 
G01 X-12.1476 Y69.5547 
G01 X-12.2158 Y69.4526 
G01 X-12.3026 Y69.3658 
G01 X-12.4047 Y69.2976 
G01 X-12.5182 Y69.2506 
G01 X-12.6386 Y69.2266 
G01 X-12.7614 Y69.2266 
G01 X-12.8818 Y69.2506 
G01 X-12.9953 Y69.2976 
G01 X-13.0974 Y69.3658 
G01 X-13.1842 Y69.4526 
G01 X-13.2524 Y69.5547 
G01 X-13.2994 Y69.6682 
G01 X-13.3234 Y69.7886 
G01 X-13.3234 Y69.9114 
G01 X-13.2994 Y70.0318 
G01 X-13.2775 Y70.0847 
G01 X-28.7340 Y85.5412 
G01 X-28.8308 Y85.4445 
G01 X-29.5892 Y85.4445 
G01 X-30.1255 Y85.9808 
G00 Z2.5400 
G00 X-46.2532 Y75.7058 
G01 Z-0.1500 F254.00 
G01 X-46.1033 Y75.6760 F508.00 
G01 X-45.9621 Y75.6175 
G01 X-45.8351 Y75.5326 
G01 X-45.7270 Y75.4245 
G01 X-45.6421 Y75.2975 
G01 X-45.5836 Y75.1563 
G01 X-45.5538 Y75.0064 
G01 X-45.5538 Y74.8536 
G01 X-45.5836 Y74.7037 
G01 X-45.6421 Y74.5625 
G01 X-45.7270 Y74.4355 
G01 X-45.8351 Y74.3274 
G01 X-45.9621 Y74.2425 
G01 X-46.1033 Y74.1840 
G01 X-46.2532 Y74.1542 
G01 X-47.7268 Y74.1542 
G01 X-47.8767 Y74.1840 
G01 X-48.0179 Y74.2425 
G01 X-48.1449 Y74.3274 
G01 X-48.2530 Y74.4355 
G01 X-48.3379 Y74.5625 
G01 X-48.3964 Y74.7037 
G01 X-48.4262 Y74.8536 
G01 X-48.4262 Y75.0064 
G01 X-48.3964 Y75.1563 
G01 X-48.3379 Y75.2975 
G01 X-48.2530 Y75.4245 
G01 X-48.1449 Y75.5326 
G01 X-48.0193 Y75.6165 
G01 X-49.6673 Y77.2645 
G01 X-49.7355 Y77.3327 
G01 X-49.7724 Y77.4218 
G01 X-49.7724 Y86.4082 
G01 X-49.7355 Y86.4973 
G01 X-49.6673 Y86.5655 
G01 X-49.5782 Y86.6024 
G01 X-37.7455 Y86.6024 
G01 X-37.7455 Y86.7392 
G01 X-37.2092 Y87.2755 
G01 X-36.4508 Y87.2755 
G01 X-35.9145 Y86.7392 
G01 X-35.9145 Y85.9808 
G01 X-36.4508 Y85.4445 
G01 X-37.2092 Y85.4445 
G01 X-37.7455 Y85.9808 
G01 X-37.7455 Y86.1176 
G01 X-49.2876 Y86.1176 
G01 X-49.2876 Y77.5704 
G01 X-47.4230 Y75.7058 
G01 X-46.2532 Y75.7058 
G00 Z2.5400 
G00 X-46.2532 Y73.1658 
G01 Z-0.1500 F254.00 
G01 X-46.1033 Y73.1360 F508.00 
G01 X-45.9621 Y73.0775 
G01 X-45.8351 Y72.9926 
G01 X-45.7270 Y72.8845 
G01 X-45.6421 Y72.7575 
G01 X-45.5836 Y72.6163 
G01 X-45.5538 Y72.4664 
G01 X-45.5538 Y72.3136 
G01 X-45.5836 Y72.1637 
G01 X-45.6421 Y72.0225 
G01 X-45.7270 Y71.8955 
G01 X-45.8351 Y71.7874 
G01 X-45.9621 Y71.7025 
G01 X-46.1033 Y71.6440 
G01 X-46.2532 Y71.6142 
G01 X-47.7268 Y71.6142 
G01 X-47.8767 Y71.6440 
G01 X-48.0179 Y71.7025 
G01 X-48.1449 Y71.7874 
G01 X-48.2530 Y71.8955 
G01 X-48.3379 Y72.0225 
G01 X-48.3964 Y72.1637 
G01 X-48.4262 Y72.3136 
G01 X-48.4262 Y72.4664 
G01 X-48.3964 Y72.6163 
G01 X-48.3379 Y72.7575 
G01 X-48.2530 Y72.8845 
G01 X-48.1449 Y72.9926 
G01 X-48.0193 Y73.0765 
G01 X-50.9373 Y75.9945 
G01 X-51.0055 Y76.0627 
G01 X-51.0424 Y76.1518 
G01 X-51.0424 Y94.0282 
G01 X-51.0055 Y94.1173 
G01 X-50.9373 Y94.1855 
G01 X-50.8482 Y94.2224 
G01 X-37.7455 Y94.2224 
G01 X-37.7455 Y94.3592 
G01 X-37.2092 Y94.8955 
G01 X-36.4508 Y94.8955 
G01 X-35.9145 Y94.3592 
G01 X-35.9145 Y93.6008 
G01 X-36.4508 Y93.0645 
G01 X-37.2092 Y93.0645 
G01 X-37.7455 Y93.6008 
G01 X-37.7455 Y93.7376 
G01 X-50.5576 Y93.7376 
G01 X-50.5576 Y76.3004 
G01 X-47.4230 Y73.1658 
G01 X-46.2532 Y73.1658 
G00 Z2.5400 
G00 X-47.7268 Y70.6258 
G01 Z-0.1500 F254.00 
G01 X-46.2532 Y70.6258 F508.00 
G01 X-46.1033 Y70.5960 
G01 X-45.9621 Y70.5375 
G01 X-45.8351 Y70.4526 
G01 X-45.7270 Y70.3445 
G01 X-45.6421 Y70.2175 
G01 X-45.5836 Y70.0763 
G01 X-45.5538 Y69.9264 
G01 X-45.5538 Y69.7736 
G01 X-45.5836 Y69.6237 
G01 X-45.6421 Y69.4825 
G01 X-45.7270 Y69.3555 
G01 X-45.8351 Y69.2474 
G01 X-45.9621 Y69.1625 
G01 X-46.1033 Y69.1040 
G01 X-46.2532 Y69.0742 
G01 X-47.7268 Y69.0742 
G01 X-47.8767 Y69.1040 
G01 X-48.0179 Y69.1625 
G01 X-48.1449 Y69.2474 
G01 X-48.2530 Y69.3555 
G01 X-48.3379 Y69.4825 
G01 X-48.3964 Y69.6237 
G01 X-48.4262 Y69.7736 
G01 X-48.4262 Y69.9264 
G01 X-48.3964 Y70.0763 
G01 X-48.3379 Y70.2175 
G01 X-48.2530 Y70.3445 
G01 X-48.1449 Y70.4526 
G01 X-48.0179 Y70.5375 
G01 X-47.8767 Y70.5960 
G01 X-47.7268 Y70.6258 
G00 Z2.5400 
G00 X-47.7268 Y68.0858 
G01 Z-0.1500 F254.00 
G01 X-46.2532 Y68.0858 F508.00 
G01 X-46.1033 Y68.0560 
G01 X-45.9621 Y67.9975 
G01 X-45.8351 Y67.9126 
G01 X-45.7270 Y67.8045 
G01 X-45.6421 Y67.6775 
G01 X-45.5836 Y67.5363 
G01 X-45.5538 Y67.3864 
G01 X-45.5538 Y67.2336 
G01 X-45.5836 Y67.0837 
G01 X-45.6421 Y66.9425 
G01 X-45.7270 Y66.8155 
G01 X-45.8351 Y66.7074 
G01 X-45.9621 Y66.6225 
G01 X-46.1033 Y66.5640 
G01 X-46.2532 Y66.5342 
G01 X-47.7268 Y66.5342 
G01 X-47.8767 Y66.5640 
G01 X-48.0179 Y66.6225 
G01 X-48.1449 Y66.7074 
G01 X-48.2530 Y66.8155 
G01 X-48.3379 Y66.9425 
G01 X-48.3964 Y67.0837 
G01 X-48.4262 Y67.2336 
G01 X-48.4262 Y67.3864 
G01 X-48.3964 Y67.5363 
G01 X-48.3379 Y67.6775 
G01 X-48.2530 Y67.8045 
G01 X-48.1449 Y67.9126 
G01 X-48.0179 Y67.9975 
G01 X-47.8767 Y68.0560 
G01 X-47.7268 Y68.0858 
G00 Z2.5400 
G00 X-47.7268 Y65.5458 
G01 Z-0.1500 F254.00 
G01 X-46.2532 Y65.5458 F508.00 
G01 X-46.1033 Y65.5160 
G01 X-45.9621 Y65.4575 
G01 X-45.8351 Y65.3726 
G01 X-45.7270 Y65.2645 
G01 X-45.6421 Y65.1375 
G01 X-45.5836 Y64.9963 
G01 X-45.5538 Y64.8464 
G01 X-45.5538 Y64.6936 
G01 X-45.5836 Y64.5437 
G01 X-45.6421 Y64.4025 
G01 X-45.7270 Y64.2755 
G01 X-45.8351 Y64.1674 
G01 X-45.9621 Y64.0825 
G01 X-46.1033 Y64.0240 
G01 X-46.2532 Y63.9942 
G01 X-47.7268 Y63.9942 
G01 X-47.8767 Y64.0240 
G01 X-48.0179 Y64.0825 
G01 X-48.1449 Y64.1674 
G01 X-48.2530 Y64.2755 
G01 X-48.3379 Y64.4025 
G01 X-48.3964 Y64.5437 
G01 X-48.4262 Y64.6936 
G01 X-48.4262 Y64.8464 
G01 X-48.3964 Y64.9963 
G01 X-48.3379 Y65.1375 
G01 X-48.2530 Y65.2645 
G01 X-48.1449 Y65.3726 
G01 X-48.0179 Y65.4575 
G01 X-47.8767 Y65.5160 
G01 X-47.7268 Y65.5458 
G00 Z2.5400 
G00 X-47.7268 Y63.0058 
G01 Z-0.1500 F254.00 
G01 X-46.2532 Y63.0058 F508.00 
G01 X-46.1033 Y62.9760 
G01 X-45.9621 Y62.9175 
G01 X-45.8351 Y62.8326 
G01 X-45.7270 Y62.7245 
G01 X-45.6421 Y62.5975 
G01 X-45.5836 Y62.4563 
G01 X-45.5538 Y62.3064 
G01 X-45.5538 Y62.1536 
G01 X-45.5836 Y62.0037 
G01 X-45.6421 Y61.8625 
G01 X-45.7270 Y61.7355 
G01 X-45.8351 Y61.6274 
G01 X-45.9621 Y61.5425 
G01 X-46.1033 Y61.4840 
G01 X-46.2532 Y61.4542 
G01 X-47.4230 Y61.4542 
G01 X-51.8645 Y57.0127 
G01 X-51.9327 Y56.9445 
G01 X-52.0218 Y56.9076 
G01 X-53.2103 Y56.9076 
G01 X-53.2621 Y56.7825 
G01 X-53.3470 Y56.6555 
G01 X-53.4551 Y56.5474 
G01 X-53.5821 Y56.4625 
G01 X-53.7233 Y56.4040 
G01 X-53.8732 Y56.3742 
G01 X-55.3468 Y56.3742 
G01 X-55.4967 Y56.4040 
G01 X-55.6379 Y56.4625 
G01 X-55.7649 Y56.5474 
G01 X-55.8730 Y56.6555 
G01 X-55.9579 Y56.7825 
G01 X-56.0164 Y56.9237 
G01 X-56.0462 Y57.0736 
G01 X-56.0462 Y57.2264 
G01 X-56.0164 Y57.3763 
G01 X-55.9579 Y57.5175 
G01 X-55.8730 Y57.6445 
G01 X-55.7649 Y57.7526 
G01 X-55.6379 Y57.8375 
G01 X-55.4967 Y57.8960 
G01 X-55.3468 Y57.9258 
G01 X-53.8732 Y57.9258 
G01 X-53.7233 Y57.8960 
G01 X-53.5821 Y57.8375 
G01 X-53.4551 Y57.7526 
G01 X-53.3470 Y57.6445 
G01 X-53.2621 Y57.5175 
G01 X-53.2103 Y57.3924 
G01 X-52.1704 Y57.3924 
G01 X-48.0193 Y61.5435 
G01 X-48.1449 Y61.6274 
G01 X-48.2530 Y61.7355 
G01 X-48.3379 Y61.8625 
G01 X-48.3964 Y62.0037 
G01 X-48.4262 Y62.1536 
G01 X-48.4262 Y62.3064 
G01 X-48.3964 Y62.4563 
G01 X-48.3379 Y62.5975 
G01 X-48.2530 Y62.7245 
G01 X-48.1449 Y62.8326 
G01 X-48.0179 Y62.9175 
G01 X-47.8767 Y62.9760 
G01 X-47.7268 Y63.0058 
G00 Z2.5400 
G00 X-47.7268 Y60.4658 
G01 Z-0.1500 F254.00 
G01 X-46.2532 Y60.4658 F508.00 
G01 X-46.1033 Y60.4360 
G01 X-45.9621 Y60.3775 
G01 X-45.8351 Y60.2926 
G01 X-45.7270 Y60.1845 
G01 X-45.6421 Y60.0575 
G01 X-45.5836 Y59.9163 
G01 X-45.5538 Y59.7664 
G01 X-45.5538 Y59.6136 
G01 X-45.5836 Y59.4637 
G01 X-45.6421 Y59.3225 
G01 X-45.7270 Y59.1955 
G01 X-45.8351 Y59.0874 
G01 X-45.9621 Y59.0025 
G01 X-46.1033 Y58.9440 
G01 X-46.2532 Y58.9142 
G01 X-47.7268 Y58.9142 
G01 X-47.8767 Y58.9440 
G01 X-48.0179 Y59.0025 
G01 X-48.1449 Y59.0874 
G01 X-48.2530 Y59.1955 
G01 X-48.3379 Y59.3225 
G01 X-48.3964 Y59.4637 
G01 X-48.4262 Y59.6136 
G01 X-48.4262 Y59.7664 
G01 X-48.3964 Y59.9163 
G01 X-48.3379 Y60.0575 
G01 X-48.2530 Y60.1845 
G01 X-48.1449 Y60.2926 
G01 X-48.0179 Y60.3775 
G01 X-47.8767 Y60.4360 
G01 X-47.7268 Y60.4658 
G00 Z2.5400 
G00 X-47.7268 Y57.9258 
G01 Z-0.1500 F254.00 
G01 X-46.2532 Y57.9258 F508.00 
G01 X-46.1033 Y57.8960 
G01 X-45.9621 Y57.8375 
G01 X-45.8351 Y57.7526 
G01 X-45.7270 Y57.6445 
G01 X-45.6421 Y57.5175 
G01 X-45.5836 Y57.3763 
G01 X-45.5538 Y57.2264 
G01 X-45.5538 Y57.0736 
G01 X-45.5836 Y56.9237 
G01 X-45.6421 Y56.7825 
G01 X-45.7270 Y56.6555 
G01 X-45.8351 Y56.5474 
G01 X-45.9621 Y56.4625 
G01 X-46.1033 Y56.4040 
G01 X-46.2532 Y56.3742 
G01 X-47.7268 Y56.3742 
G01 X-47.8767 Y56.4040 
G01 X-48.0179 Y56.4625 
G01 X-48.1449 Y56.5474 
G01 X-48.2530 Y56.6555 
G01 X-48.3379 Y56.7825 
G01 X-48.3964 Y56.9237 
G01 X-48.4262 Y57.0736 
G01 X-48.4262 Y57.2264 
G01 X-48.3964 Y57.3763 
G01 X-48.3379 Y57.5175 
G01 X-48.2530 Y57.6445 
G01 X-48.1449 Y57.7526 
G01 X-48.0179 Y57.8375 
G01 X-47.8767 Y57.8960 
G01 X-47.7268 Y57.9258 
G00 Z2.5400 
G00 X-47.7268 Y55.3858 
G01 Z-0.1500 F254.00 
G01 X-46.2532 Y55.3858 F508.00 
G01 X-46.1033 Y55.3560 
G01 X-45.9621 Y55.2975 
G01 X-45.8351 Y55.2126 
G01 X-45.7270 Y55.1045 
G01 X-45.6421 Y54.9775 
G01 X-45.5836 Y54.8363 
G01 X-45.5538 Y54.6864 
G01 X-45.5538 Y54.5336 
G01 X-45.5836 Y54.3837 
G01 X-45.6421 Y54.2425 
G01 X-45.7270 Y54.1155 
G01 X-45.8351 Y54.0074 
G01 X-45.9621 Y53.9225 
G01 X-46.1033 Y53.8640 
G01 X-46.2532 Y53.8342 
G01 X-47.7268 Y53.8342 
G01 X-47.8767 Y53.8640 
G01 X-48.0179 Y53.9225 
G01 X-48.1449 Y54.0074 
G01 X-48.2530 Y54.1155 
G01 X-48.3379 Y54.2425 
G01 X-48.3964 Y54.3837 
G01 X-48.4262 Y54.5336 
G01 X-48.4262 Y54.6864 
G01 X-48.3964 Y54.8363 
G01 X-48.3379 Y54.9775 
G01 X-48.2530 Y55.1045 
G01 X-48.1449 Y55.2126 
G01 X-48.0179 Y55.2975 
G01 X-47.8767 Y55.3560 
G01 X-47.7268 Y55.3858 
G00 Z2.5400 
G00 X-47.7268 Y52.8458 
G01 Z-0.1500 F254.00 
G01 X-46.2532 Y52.8458 F508.00 
G01 X-46.1033 Y52.8160 
G01 X-45.9621 Y52.7575 
G01 X-45.8351 Y52.6726 
G01 X-45.7270 Y52.5645 
G01 X-45.6421 Y52.4375 
G01 X-45.5836 Y52.2963 
G01 X-45.5538 Y52.1464 
G01 X-45.5538 Y51.9936 
G01 X-45.5836 Y51.8437 
G01 X-45.6421 Y51.7025 
G01 X-45.7270 Y51.5755 
G01 X-45.8351 Y51.4674 
G01 X-45.9621 Y51.3825 
G01 X-46.1033 Y51.3240 
G01 X-46.2532 Y51.2942 
G01 X-47.7268 Y51.2942 
G01 X-47.8767 Y51.3240 
G01 X-48.0179 Y51.3825 
G01 X-48.1449 Y51.4674 
G01 X-48.2530 Y51.5755 
G01 X-48.3379 Y51.7025 
G01 X-48.3964 Y51.8437 
G01 X-48.4262 Y51.9936 
G01 X-48.4262 Y52.1464 
G01 X-48.3964 Y52.2963 
G01 X-48.3379 Y52.4375 
G01 X-48.2530 Y52.5645 
G01 X-48.1449 Y52.6726 
G01 X-48.0179 Y52.7575 
G01 X-47.8767 Y52.8160 
G01 X-47.7268 Y52.8458 
G00 Z2.5400 
G00 X-47.7268 Y50.3058 
G01 Z-0.1500 F254.00 
G01 X-46.2532 Y50.3058 F508.00 
G01 X-46.1033 Y50.2760 
G01 X-45.9621 Y50.2175 
G01 X-45.8351 Y50.1326 
G01 X-45.7270 Y50.0245 
G01 X-45.6421 Y49.8975 
G01 X-45.5836 Y49.7563 
G01 X-45.5538 Y49.6064 
G01 X-45.5538 Y49.4536 
G01 X-45.5836 Y49.3037 
G01 X-45.6421 Y49.1625 
G01 X-45.7270 Y49.0355 
G01 X-45.8351 Y48.9274 
G01 X-45.9621 Y48.8425 
G01 X-46.1033 Y48.7840 
G01 X-46.2532 Y48.7542 
G01 X-47.7268 Y48.7542 
G01 X-47.8767 Y48.7840 
G01 X-48.0179 Y48.8425 
G01 X-48.1449 Y48.9274 
G01 X-48.2530 Y49.0355 
G01 X-48.3379 Y49.1625 
G01 X-48.3964 Y49.3037 
G01 X-48.4262 Y49.4536 
G01 X-48.4262 Y49.6064 
G01 X-48.3964 Y49.7563 
G01 X-48.3379 Y49.8975 
G01 X-48.2530 Y50.0245 
G01 X-48.1449 Y50.1326 
G01 X-48.0179 Y50.2175 
G01 X-47.8767 Y50.2760 
G01 X-47.7268 Y50.3058 
G00 Z2.5400 
G00 X-47.7268 Y47.7658 
G01 Z-0.1500 F254.00 
G01 X-46.2532 Y47.7658 F508.00 
G01 X-46.1033 Y47.7360 
G01 X-45.9621 Y47.6775 
G01 X-45.8351 Y47.5926 
G01 X-45.7270 Y47.4845 
G01 X-45.6421 Y47.3575 
G01 X-45.5836 Y47.2163 
G01 X-45.5538 Y47.0664 
G01 X-45.5538 Y46.9136 
G01 X-45.5836 Y46.7637 
G01 X-45.6421 Y46.6225 
G01 X-45.7270 Y46.4955 
G01 X-45.8351 Y46.3874 
G01 X-45.9621 Y46.3025 
G01 X-46.1033 Y46.2440 
G01 X-46.2532 Y46.2142 
G01 X-47.7268 Y46.2142 
G01 X-47.8767 Y46.2440 
G01 X-48.0179 Y46.3025 
G01 X-48.1449 Y46.3874 
G01 X-48.2530 Y46.4955 
G01 X-48.3379 Y46.6225 
G01 X-48.3964 Y46.7637 
G01 X-48.4262 Y46.9136 
G01 X-48.4262 Y47.0664 
G01 X-48.3964 Y47.2163 
G01 X-48.3379 Y47.3575 
G01 X-48.2530 Y47.4845 
G01 X-48.1449 Y47.5926 
G01 X-48.0179 Y47.6775 
G01 X-47.8767 Y47.7360 
G01 X-47.7268 Y47.7658 
G00 Z2.5400 
G00 X-47.7268 Y45.2258 
G01 Z-0.1500 F254.00 
G01 X-46.2532 Y45.2258 F508.00 
G01 X-46.1033 Y45.1960 
G01 X-45.9621 Y45.1375 
G01 X-45.8351 Y45.0526 
G01 X-45.7270 Y44.9445 
G01 X-45.6421 Y44.8175 
G01 X-45.5836 Y44.6763 
G01 X-45.5538 Y44.5264 
G01 X-45.5538 Y44.3736 
G01 X-45.5836 Y44.2237 
G01 X-45.6421 Y44.0825 
G01 X-45.7270 Y43.9555 
G01 X-45.8351 Y43.8474 
G01 X-45.9621 Y43.7625 
G01 X-46.1033 Y43.7040 
G01 X-46.2532 Y43.6742 
G01 X-47.7268 Y43.6742 
G01 X-47.8767 Y43.7040 
G01 X-48.0179 Y43.7625 
G01 X-48.1449 Y43.8474 
G01 X-48.2530 Y43.9555 
G01 X-48.3379 Y44.0825 
G01 X-48.3964 Y44.2237 
G01 X-48.4262 Y44.3736 
G01 X-48.4262 Y44.5264 
G01 X-48.3964 Y44.6763 
G01 X-48.3379 Y44.8175 
G01 X-48.2530 Y44.9445 
G01 X-48.1449 Y45.0526 
G01 X-48.0179 Y45.1375 
G01 X-47.8767 Y45.1960 
G01 X-47.7268 Y45.2258 
G00 Z2.5400 
G00 X-55.3468 Y45.2258 
G01 Z-0.1500 F254.00 
G01 X-53.8732 Y45.2258 F508.00 
G01 X-53.7233 Y45.1960 
G01 X-53.5821 Y45.1375 
G01 X-53.4551 Y45.0526 
G01 X-53.3470 Y44.9445 
G01 X-53.2621 Y44.8175 
G01 X-53.2036 Y44.6763 
G01 X-53.1738 Y44.5264 
G01 X-53.1738 Y44.3736 
G01 X-53.2036 Y44.2237 
G01 X-53.2621 Y44.0825 
G01 X-53.3470 Y43.9555 
G01 X-53.4551 Y43.8474 
G01 X-53.5821 Y43.7625 
G01 X-53.7233 Y43.7040 
G01 X-53.8732 Y43.6742 
G01 X-55.3468 Y43.6742 
G01 X-55.4967 Y43.7040 
G01 X-55.6379 Y43.7625 
G01 X-55.7649 Y43.8474 
G01 X-55.8730 Y43.9555 
G01 X-55.9579 Y44.0825 
G01 X-56.0164 Y44.2237 
G01 X-56.0462 Y44.3736 
G01 X-56.0462 Y44.5264 
G01 X-56.0164 Y44.6763 
G01 X-55.9579 Y44.8175 
G01 X-55.8730 Y44.9445 
G01 X-55.7649 Y45.0526 
G01 X-55.6379 Y45.1375 
G01 X-55.4967 Y45.1960 
G01 X-55.3468 Y45.2258 
G00 Z2.5400 
G00 X-55.3468 Y47.7658 
G01 Z-0.1500 F254.00 
G01 X-53.8732 Y47.7658 F508.00 
G01 X-53.7233 Y47.7360 
G01 X-53.5821 Y47.6775 
G01 X-53.4551 Y47.5926 
G01 X-53.3470 Y47.4845 
G01 X-53.2621 Y47.3575 
G01 X-53.2036 Y47.2163 
G01 X-53.1738 Y47.0664 
G01 X-53.1738 Y46.9136 
G01 X-53.2036 Y46.7637 
G01 X-53.2621 Y46.6225 
G01 X-53.3470 Y46.4955 
G01 X-53.4551 Y46.3874 
G01 X-53.5821 Y46.3025 
G01 X-53.7233 Y46.2440 
G01 X-53.8732 Y46.2142 
G01 X-55.3468 Y46.2142 
G01 X-55.4967 Y46.2440 
G01 X-55.6379 Y46.3025 
G01 X-55.7649 Y46.3874 
G01 X-55.8730 Y46.4955 
G01 X-55.9579 Y46.6225 
G01 X-56.0164 Y46.7637 
G01 X-56.0462 Y46.9136 
G01 X-56.0462 Y47.0664 
G01 X-56.0164 Y47.2163 
G01 X-55.9579 Y47.3575 
G01 X-55.8730 Y47.4845 
G01 X-55.7649 Y47.5926 
G01 X-55.6379 Y47.6775 
G01 X-55.4967 Y47.7360 
G01 X-55.3468 Y47.7658 
G00 Z2.5400 
G00 X-55.3468 Y50.3058 
G01 Z-0.1500 F254.00 
G01 X-53.8732 Y50.3058 F508.00 
G01 X-53.7233 Y50.2760 
G01 X-53.5821 Y50.2175 
G01 X-53.4551 Y50.1326 
G01 X-53.3470 Y50.0245 
G01 X-53.2621 Y49.8975 
G01 X-53.2036 Y49.7563 
G01 X-53.1738 Y49.6064 
G01 X-53.1738 Y49.4536 
G01 X-53.2036 Y49.3037 
G01 X-53.2621 Y49.1625 
G01 X-53.3470 Y49.0355 
G01 X-53.4551 Y48.9274 
G01 X-53.5821 Y48.8425 
G01 X-53.7233 Y48.7840 
G01 X-53.8732 Y48.7542 
G01 X-55.3468 Y48.7542 
G01 X-55.4967 Y48.7840 
G01 X-55.6379 Y48.8425 
G01 X-55.7649 Y48.9274 
G01 X-55.8730 Y49.0355 
G01 X-55.9579 Y49.1625 
G01 X-56.0164 Y49.3037 
G01 X-56.0462 Y49.4536 
G01 X-56.0462 Y49.6064 
G01 X-56.0164 Y49.7563 
G01 X-55.9579 Y49.8975 
G01 X-55.8730 Y50.0245 
G01 X-55.7649 Y50.1326 
G01 X-55.6379 Y50.2175 
G01 X-55.4967 Y50.2760 
G01 X-55.3468 Y50.3058 
G00 Z2.5400 
G00 X-55.3468 Y52.8458 
G01 Z-0.1500 F254.00 
G01 X-53.8732 Y52.8458 F508.00 
G01 X-53.7233 Y52.8160 
G01 X-53.5821 Y52.7575 
G01 X-53.4551 Y52.6726 
G01 X-53.3470 Y52.5645 
G01 X-53.2621 Y52.4375 
G01 X-53.2036 Y52.2963 
G01 X-53.1738 Y52.1464 
G01 X-53.1738 Y51.9936 
G01 X-53.2036 Y51.8437 
G01 X-53.2621 Y51.7025 
G01 X-53.3470 Y51.5755 
G01 X-53.4551 Y51.4674 
G01 X-53.5821 Y51.3825 
G01 X-53.7233 Y51.3240 
G01 X-53.8732 Y51.2942 
G01 X-55.3468 Y51.2942 
G01 X-55.4967 Y51.3240 
G01 X-55.6379 Y51.3825 
G01 X-55.7649 Y51.4674 
G01 X-55.8730 Y51.5755 
G01 X-55.9579 Y51.7025 
G01 X-56.0164 Y51.8437 
G01 X-56.0462 Y51.9936 
G01 X-56.0462 Y52.1464 
G01 X-56.0164 Y52.2963 
G01 X-55.9579 Y52.4375 
G01 X-55.8730 Y52.5645 
G01 X-55.7649 Y52.6726 
G01 X-55.6379 Y52.7575 
G01 X-55.4967 Y52.8160 
G01 X-55.3468 Y52.8458 
G00 Z2.5400 
G00 X-55.3468 Y55.3858 
G01 Z-0.1500 F254.00 
G01 X-53.8732 Y55.3858 F508.00 
G01 X-53.7233 Y55.3560 
G01 X-53.5821 Y55.2975 
G01 X-53.4551 Y55.2126 
G01 X-53.3470 Y55.1045 
G01 X-53.2621 Y54.9775 
G01 X-53.2036 Y54.8363 
G01 X-53.1738 Y54.6864 
G01 X-53.1738 Y54.5336 
G01 X-53.2036 Y54.3837 
G01 X-53.2621 Y54.2425 
G01 X-53.3470 Y54.1155 
G01 X-53.4551 Y54.0074 
G01 X-53.5821 Y53.9225 
G01 X-53.7233 Y53.8640 
G01 X-53.8732 Y53.8342 
G01 X-55.3468 Y53.8342 
G01 X-55.4967 Y53.8640 
G01 X-55.6379 Y53.9225 
G01 X-55.7649 Y54.0074 
G01 X-55.8730 Y54.1155 
G01 X-55.9579 Y54.2425 
G01 X-56.0164 Y54.3837 
G01 X-56.0462 Y54.5336 
G01 X-56.0462 Y54.6864 
G01 X-56.0164 Y54.8363 
G01 X-55.9579 Y54.9775 
G01 X-55.8730 Y55.1045 
G01 X-55.7649 Y55.2126 
G01 X-55.6379 Y55.2975 
G01 X-55.4967 Y55.3560 
G01 X-55.3468 Y55.3858 
G00 Z2.5400 
G00 X-55.3468 Y60.4658 
G01 Z-0.1500 F254.00 
G01 X-53.8732 Y60.4658 F508.00 
G01 X-53.7233 Y60.4360 
G01 X-53.5821 Y60.3775 
G01 X-53.4551 Y60.2926 
G01 X-53.3470 Y60.1845 
G01 X-53.2621 Y60.0575 
G01 X-53.2036 Y59.9163 
G01 X-53.1738 Y59.7664 
G01 X-53.1738 Y59.6136 
G01 X-53.2036 Y59.4637 
G01 X-53.2621 Y59.3225 
G01 X-53.3470 Y59.1955 
G01 X-53.4551 Y59.0874 
G01 X-53.5821 Y59.0025 
G01 X-53.7233 Y58.9440 
G01 X-53.8732 Y58.9142 
G01 X-55.3468 Y58.9142 
G01 X-55.4967 Y58.9440 
G01 X-55.6379 Y59.0025 
G01 X-55.7649 Y59.0874 
G01 X-55.8730 Y59.1955 
G01 X-55.9579 Y59.3225 
G01 X-56.0164 Y59.4637 
G01 X-56.0462 Y59.6136 
G01 X-56.0462 Y59.7664 
G01 X-56.0164 Y59.9163 
G01 X-55.9579 Y60.0575 
G01 X-55.8730 Y60.1845 
G01 X-55.7649 Y60.2926 
G01 X-55.6379 Y60.3775 
G01 X-55.4967 Y60.4360 
G01 X-55.3468 Y60.4658 
G00 Z2.5400 
G00 X-55.3468 Y63.0058 
G01 Z-0.1500 F254.00 
G01 X-53.8732 Y63.0058 F508.00 
G01 X-53.7233 Y62.9760 
G01 X-53.5821 Y62.9175 
G01 X-53.4551 Y62.8326 
G01 X-53.3470 Y62.7245 
G01 X-53.2621 Y62.5975 
G01 X-53.2036 Y62.4563 
G01 X-53.1738 Y62.3064 
G01 X-53.1738 Y62.1536 
G01 X-53.2036 Y62.0037 
G01 X-53.2621 Y61.8625 
G01 X-53.3470 Y61.7355 
G01 X-53.4551 Y61.6274 
G01 X-53.5821 Y61.5425 
G01 X-53.7233 Y61.4840 
G01 X-53.8732 Y61.4542 
G01 X-55.3468 Y61.4542 
G01 X-55.4967 Y61.4840 
G01 X-55.6379 Y61.5425 
G01 X-55.7649 Y61.6274 
G01 X-55.8730 Y61.7355 
G01 X-55.9579 Y61.8625 
G01 X-56.0164 Y62.0037 
G01 X-56.0462 Y62.1536 
G01 X-56.0462 Y62.3064 
G01 X-56.0164 Y62.4563 
G01 X-55.9579 Y62.5975 
G01 X-55.8730 Y62.7245 
G01 X-55.7649 Y62.8326 
G01 X-55.6379 Y62.9175 
G01 X-55.4967 Y62.9760 
G01 X-55.3468 Y63.0058 
G00 Z2.5400 
G00 X-55.3468 Y65.5458 
G01 Z-0.1500 F254.00 
G01 X-53.8732 Y65.5458 F508.00 
G01 X-53.7233 Y65.5160 
G01 X-53.5821 Y65.4575 
G01 X-53.4551 Y65.3726 
G01 X-53.3470 Y65.2645 
G01 X-53.2621 Y65.1375 
G01 X-53.2036 Y64.9963 
G01 X-53.1738 Y64.8464 
G01 X-53.1738 Y64.6936 
G01 X-53.2036 Y64.5437 
G01 X-53.2621 Y64.4025 
G01 X-53.3470 Y64.2755 
G01 X-53.4551 Y64.1674 
G01 X-53.5821 Y64.0825 
G01 X-53.7233 Y64.0240 
G01 X-53.8732 Y63.9942 
G01 X-55.3468 Y63.9942 
G01 X-55.4967 Y64.0240 
G01 X-55.6379 Y64.0825 
G01 X-55.7649 Y64.1674 
G01 X-55.8730 Y64.2755 
G01 X-55.9579 Y64.4025 
G01 X-56.0164 Y64.5437 
G01 X-56.0462 Y64.6936 
G01 X-56.0462 Y64.8464 
G01 X-56.0164 Y64.9963 
G01 X-55.9579 Y65.1375 
G01 X-55.8730 Y65.2645 
G01 X-55.7649 Y65.3726 
G01 X-55.6379 Y65.4575 
G01 X-55.4967 Y65.5160 
G01 X-55.3468 Y65.5458 
G00 Z2.5400 
G00 X-55.3468 Y68.0858 
G01 Z-0.1500 F254.00 
G01 X-53.8732 Y68.0858 F508.00 
G01 X-53.7233 Y68.0560 
G01 X-53.5821 Y67.9975 
G01 X-53.4551 Y67.9126 
G01 X-53.3470 Y67.8045 
G01 X-53.2621 Y67.6775 
G01 X-53.2036 Y67.5363 
G01 X-53.1738 Y67.3864 
G01 X-53.1738 Y67.2336 
G01 X-53.2036 Y67.0837 
G01 X-53.2621 Y66.9425 
G01 X-53.3470 Y66.8155 
G01 X-53.4551 Y66.7074 
G01 X-53.5821 Y66.6225 
G01 X-53.7233 Y66.5640 
G01 X-53.8732 Y66.5342 
G01 X-55.3468 Y66.5342 
G01 X-55.4967 Y66.5640 
G01 X-55.6379 Y66.6225 
G01 X-55.7649 Y66.7074 
G01 X-55.8730 Y66.8155 
G01 X-55.9579 Y66.9425 
G01 X-56.0164 Y67.0837 
G01 X-56.0462 Y67.2336 
G01 X-56.0462 Y67.3864 
G01 X-56.0164 Y67.5363 
G01 X-55.9579 Y67.6775 
G01 X-55.8730 Y67.8045 
G01 X-55.7649 Y67.9126 
G01 X-55.6379 Y67.9975 
G01 X-55.4967 Y68.0560 
G01 X-55.3468 Y68.0858 
G00 Z2.5400 
G00 X-55.3468 Y70.6258 
G01 Z-0.1500 F254.00 
G01 X-53.8732 Y70.6258 F508.00 
G01 X-53.7233 Y70.5960 
G01 X-53.5821 Y70.5375 
G01 X-53.4551 Y70.4526 
G01 X-53.3470 Y70.3445 
G01 X-53.2621 Y70.2175 
G01 X-53.2036 Y70.0763 
G01 X-53.1738 Y69.9264 
G01 X-53.1738 Y69.7736 
G01 X-53.2036 Y69.6237 
G01 X-53.2621 Y69.4825 
G01 X-53.3470 Y69.3555 
G01 X-53.4551 Y69.2474 
G01 X-53.5821 Y69.1625 
G01 X-53.7233 Y69.1040 
G01 X-53.8732 Y69.0742 
G01 X-55.3468 Y69.0742 
G01 X-55.4967 Y69.1040 
G01 X-55.6379 Y69.1625 
G01 X-55.7649 Y69.2474 
G01 X-55.8730 Y69.3555 
G01 X-55.9579 Y69.4825 
G01 X-56.0164 Y69.6237 
G01 X-56.0462 Y69.7736 
G01 X-56.0462 Y69.9264 
G01 X-56.0164 Y70.0763 
G01 X-55.9579 Y70.2175 
G01 X-55.8730 Y70.3445 
G01 X-55.7649 Y70.4526 
G01 X-55.6379 Y70.5375 
G01 X-55.4967 Y70.5960 
G01 X-55.3468 Y70.6258 
G00 Z2.5400 
G00 X-55.3468 Y73.1658 
G01 Z-0.1500 F254.00 
G01 X-53.8732 Y73.1658 F508.00 
G01 X-53.7233 Y73.1360 
G01 X-53.5821 Y73.0775 
G01 X-53.4551 Y72.9926 
G01 X-53.3470 Y72.8845 
G01 X-53.2621 Y72.7575 
G01 X-53.2036 Y72.6163 
G01 X-53.1738 Y72.4664 
G01 X-53.1738 Y72.3136 
G01 X-53.2036 Y72.1637 
G01 X-53.2621 Y72.0225 
G01 X-53.3470 Y71.8955 
G01 X-53.4551 Y71.7874 
G01 X-53.5821 Y71.7025 
G01 X-53.7233 Y71.6440 
G01 X-53.8732 Y71.6142 
G01 X-55.3468 Y71.6142 
G01 X-55.4967 Y71.6440 
G01 X-55.6379 Y71.7025 
G01 X-55.7649 Y71.7874 
G01 X-55.8730 Y71.8955 
G01 X-55.9579 Y72.0225 
G01 X-56.0164 Y72.1637 
G01 X-56.0462 Y72.3136 
G01 X-56.0462 Y72.4664 
G01 X-56.0164 Y72.6163 
G01 X-55.9579 Y72.7575 
G01 X-55.8730 Y72.8845 
G01 X-55.7649 Y72.9926 
G01 X-55.6379 Y73.0775 
G01 X-55.4967 Y73.1360 
G01 X-55.3468 Y73.1658 
G00 Z2.5400 
G00 X-55.3468 Y75.7058 
G01 Z-0.1500 F254.00 
G01 X-53.8732 Y75.7058 F508.00 
G01 X-53.7233 Y75.6760 
G01 X-53.5821 Y75.6175 
G01 X-53.4551 Y75.5326 
G01 X-53.3470 Y75.4245 
G01 X-53.2621 Y75.2975 
G01 X-53.2036 Y75.1563 
G01 X-53.1738 Y75.0064 
G01 X-53.1738 Y74.8536 
G01 X-53.2036 Y74.7037 
G01 X-53.2621 Y74.5625 
G01 X-53.3470 Y74.4355 
G01 X-53.4551 Y74.3274 
G01 X-53.5821 Y74.2425 
G01 X-53.7233 Y74.1840 
G01 X-53.8732 Y74.1542 
G01 X-55.3468 Y74.1542 
G01 X-55.4967 Y74.1840 
G01 X-55.6379 Y74.2425 
G01 X-55.7649 Y74.3274 
G01 X-55.8730 Y74.4355 
G01 X-55.9579 Y74.5625 
G01 X-56.0164 Y74.7037 
G01 X-56.0462 Y74.8536 
G01 X-56.0462 Y75.0064 
G01 X-56.0164 Y75.1563 
G01 X-55.9579 Y75.2975 
G01 X-55.8730 Y75.4245 
G01 X-55.7649 Y75.5326 
G01 X-55.6379 Y75.6175 
G01 X-55.4967 Y75.6760 
G01 X-55.3468 Y75.7058 
G00 Z2.5400 
G00 X-55.3468 Y78.2458 
G01 Z-0.1500 F254.00 
G01 X-53.8732 Y78.2458 F508.00 
G01 X-53.7233 Y78.2160 
G01 X-53.5821 Y78.1575 
G01 X-53.4551 Y78.0726 
G01 X-53.3470 Y77.9645 
G01 X-53.2621 Y77.8375 
G01 X-53.2036 Y77.6963 
G01 X-53.1738 Y77.5464 
G01 X-53.1738 Y77.3936 
G01 X-53.2036 Y77.2437 
G01 X-53.2621 Y77.1025 
G01 X-53.3470 Y76.9755 
G01 X-53.4551 Y76.8674 
G01 X-53.5821 Y76.7825 
G01 X-53.7233 Y76.7240 
G01 X-53.8732 Y76.6942 
G01 X-55.3468 Y76.6942 
G01 X-55.4967 Y76.7240 
G01 X-55.6379 Y76.7825 
G01 X-55.7649 Y76.8674 
G01 X-55.8730 Y76.9755 
G01 X-55.9579 Y77.1025 
G01 X-56.0164 Y77.2437 
G01 X-56.0462 Y77.3936 
G01 X-56.0462 Y77.5464 
G01 X-56.0164 Y77.6963 
G01 X-55.9579 Y77.8375 
G01 X-55.8730 Y77.9645 
G01 X-55.7649 Y78.0726 
G01 X-55.6379 Y78.1575 
G01 X-55.4967 Y78.2160 
G01 X-55.3468 Y78.2458 
G00 Z2.5400 
G00 X-23.2040 Y75.8376 
G01 Z-0.1500 F254.00 
G01 X-23.2040 Y76.0036 F508.00 
G01 X-23.1780 Y76.1677 
G01 X-23.1762 Y76.1734 
G01 X-24.2304 Y77.2276 
G01 X-31.5076 Y77.2276 
G01 X-31.5076 Y71.6944 
G01 X-31.4547 Y71.6724 
G01 X-31.3526 Y71.6042 
G01 X-31.2658 Y71.5174 
G01 X-31.1976 Y71.4153 
G01 X-31.1506 Y71.3018 
G01 X-31.1266 Y71.1814 
G01 X-31.1266 Y71.0586 
G01 X-31.1506 Y70.9382 
G01 X-31.1976 Y70.8247 
G01 X-31.2658 Y70.7226 
G01 X-31.3526 Y70.6358 
G01 X-31.4547 Y70.5675 
G01 X-31.5682 Y70.5206 
G01 X-31.6886 Y70.4966 
G01 X-31.8114 Y70.4966 
G01 X-31.9318 Y70.5206 
G01 X-32.0453 Y70.5675 
G01 X-32.1474 Y70.6358 
G01 X-32.2342 Y70.7226 
G01 X-32.3024 Y70.8247 
G01 X-32.3494 Y70.9382 
G01 X-32.3734 Y71.0586 
G01 X-32.3734 Y71.1814 
G01 X-32.3494 Y71.3018 
G01 X-32.3024 Y71.4153 
G01 X-32.2342 Y71.5174 
G01 X-32.1474 Y71.6042 
G01 X-32.0453 Y71.6724 
G01 X-31.9924 Y71.6944 
G01 X-31.9924 Y77.2276 
G01 X-45.5903 Y77.2276 
G01 X-45.6421 Y77.1025 
G01 X-45.7270 Y76.9755 
G01 X-45.8351 Y76.8674 
G01 X-45.9621 Y76.7825 
G01 X-46.1033 Y76.7240 
G01 X-46.2532 Y76.6942 
G01 X-47.7268 Y76.6942 
G01 X-47.8767 Y76.7240 
G01 X-48.0179 Y76.7825 
G01 X-48.1449 Y76.8674 
G01 X-48.2530 Y76.9755 
G01 X-48.3379 Y77.1025 
G01 X-48.3964 Y77.2437 
G01 X-48.4262 Y77.3936 
G01 X-48.4262 Y77.5464 
G01 X-48.3964 Y77.6963 
G01 X-48.3379 Y77.8375 
G01 X-48.2530 Y77.9645 
G01 X-48.1449 Y78.0726 
G01 X-48.0179 Y78.1575 
G01 X-47.8767 Y78.2160 
G01 X-47.7268 Y78.2458 
G01 X-46.2532 Y78.2458 
G01 X-46.1033 Y78.2160 
G01 X-45.9621 Y78.1575 
G01 X-45.8351 Y78.0726 
G01 X-45.7270 Y77.9645 
G01 X-45.6421 Y77.8375 
G01 X-45.5903 Y77.7124 
G01 X-24.0818 Y77.7124 
G01 X-23.9927 Y77.6755 
G01 X-22.9394 Y76.6222 
G01 X-22.8362 Y76.7255 
G01 X-22.7018 Y76.8231 
G01 X-22.5539 Y76.8985 
G01 X-22.3959 Y76.9498 
G01 X-22.2318 Y76.9758 
G01 X-22.0658 Y76.9758 
G01 X-21.9017 Y76.9498 
G01 X-21.7437 Y76.8985 
G01 X-21.5958 Y76.8231 
G01 X-21.4614 Y76.7255 
G01 X-21.3439 Y76.6080 
G01 X-21.2463 Y76.4736 
G01 X-21.1709 Y76.3257 
G01 X-21.1196 Y76.1677 
G01 X-21.0936 Y76.0036 
G01 X-21.0936 Y75.8376 
G01 X-21.1196 Y75.6735 
G01 X-21.1709 Y75.5155 
G01 X-21.2463 Y75.3676 
G01 X-21.3439 Y75.2332 
G01 X-21.4614 Y75.1157 
G01 X-21.5958 Y75.0181 
G01 X-21.7437 Y74.9427 
G01 X-21.9017 Y74.8914 
G01 X-22.0658 Y74.8654 
G01 X-22.2318 Y74.8654 
G01 X-22.3959 Y74.8914 
G01 X-22.5539 Y74.9427 
G01 X-22.7018 Y75.0181 
G01 X-22.8362 Y75.1157 
G01 X-22.9537 Y75.2332 
G01 X-23.0513 Y75.3676 
G01 X-23.1267 Y75.5155 
G01 X-23.1780 Y75.6735 
G01 X-23.2040 Y75.8376 
G00 Z2.5400 
G00 X-29.7064 Y75.8376 
G01 Z-0.1500 F254.00 
G01 X-29.7064 Y76.0036 F508.00 
G01 X-29.6804 Y76.1677 
G01 X-29.6291 Y76.3257 
G01 X-29.5537 Y76.4736 
G01 X-29.4561 Y76.6080 
G01 X-29.3386 Y76.7255 
G01 X-29.2042 Y76.8231 
G01 X-29.0563 Y76.8985 
G01 X-28.8983 Y76.9498 
G01 X-28.7342 Y76.9758 
G01 X-28.5682 Y76.9758 
G01 X-28.4041 Y76.9498 
G01 X-28.2461 Y76.8985 
G01 X-28.0982 Y76.8231 
G01 X-27.9638 Y76.7255 
G01 X-27.8463 Y76.6080 
G01 X-27.7487 Y76.4736 
G01 X-27.6733 Y76.3257 
G01 X-27.6220 Y76.1677 
G01 X-27.5960 Y76.0036 
G01 X-27.5960 Y75.8376 
G01 X-27.6220 Y75.6735 
G01 X-27.6733 Y75.5155 
G01 X-27.7487 Y75.3676 
G01 X-27.8463 Y75.2332 
G01 X-27.9638 Y75.1157 
G01 X-28.0982 Y75.0181 
G01 X-28.2461 Y74.9427 
G01 X-28.4041 Y74.8914 
G01 X-28.5682 Y74.8654 
G01 X-28.7342 Y74.8654 
G01 X-28.8983 Y74.8914 
G01 X-29.0563 Y74.9427 
G01 X-29.2042 Y75.0181 
G01 X-29.3386 Y75.1157 
G01 X-29.4561 Y75.2332 
G01 X-29.5537 Y75.3676 
G01 X-29.6291 Y75.5155 
G01 X-29.6804 Y75.6735 
G01 X-29.7064 Y75.8376 
G00 Z2.5400 
G00 X-23.2040 Y71.3163 
G01 Z-0.1500 F254.00 
G01 X-23.2040 Y71.4824 F508.00 
G01 X-23.1780 Y71.6465 
G01 X-23.1267 Y71.8045 
G01 X-23.0513 Y71.9524 
G01 X-22.9537 Y72.0868 
G01 X-22.8362 Y72.2043 
G01 X-22.7018 Y72.3019 
G01 X-22.5539 Y72.3773 
G01 X-22.3959 Y72.4286 
G01 X-22.2318 Y72.4546 
G01 X-22.0658 Y72.4546 
G01 X-21.9017 Y72.4286 
G01 X-21.7437 Y72.3773 
G01 X-21.5958 Y72.3019 
G01 X-21.4614 Y72.2043 
G01 X-21.3439 Y72.0868 
G01 X-21.2463 Y71.9524 
G01 X-21.1709 Y71.8045 
G01 X-21.1196 Y71.6465 
G01 X-21.0936 Y71.4824 
G01 X-21.0936 Y71.3163 
G01 X-21.1196 Y71.1523 
G01 X-21.1709 Y70.9943 
G01 X-21.2463 Y70.8464 
G01 X-21.3439 Y70.7120 
G01 X-21.4614 Y70.5945 
G01 X-21.5958 Y70.4969 
G01 X-21.7437 Y70.4215 
G01 X-21.9017 Y70.3702 
G01 X-22.0658 Y70.3442 
G01 X-22.2318 Y70.3442 
G01 X-22.3959 Y70.3702 
G01 X-22.5539 Y70.4215 
G01 X-22.7018 Y70.4969 
G01 X-22.8362 Y70.5945 
G01 X-22.9537 Y70.7120 
G01 X-23.0513 Y70.8464 
G01 X-23.1267 Y70.9943 
G01 X-23.1780 Y71.1523 
G01 X-23.2040 Y71.3163 
G00 Z2.5400 
G00 X-29.7064 Y71.3163 
G01 Z-0.1500 F254.00 
G01 X-29.7064 Y71.4824 F508.00 
G01 X-29.6804 Y71.6465 
G01 X-29.6291 Y71.8045 
G01 X-29.5537 Y71.9524 
G01 X-29.4561 Y72.0868 
G01 X-29.3386 Y72.2043 
G01 X-29.2042 Y72.3019 
G01 X-29.0563 Y72.3773 
G01 X-28.8983 Y72.4286 
G01 X-28.7342 Y72.4546 
G01 X-28.5682 Y72.4546 
G01 X-28.4041 Y72.4286 
G01 X-28.2461 Y72.3773 
G01 X-28.0982 Y72.3019 
G01 X-27.9638 Y72.2043 
G01 X-27.8463 Y72.0868 
G01 X-27.7487 Y71.9524 
G01 X-27.6733 Y71.8045 
G01 X-27.6220 Y71.6465 
G01 X-27.5960 Y71.4824 
G01 X-27.5960 Y71.3163 
G01 X-27.6220 Y71.1523 
G01 X-27.6733 Y70.9943 
G01 X-27.7487 Y70.8464 
G01 X-27.8463 Y70.7120 
G01 X-27.9638 Y70.5945 
G01 X-28.0982 Y70.4969 
G01 X-28.2461 Y70.4215 
G01 X-28.4041 Y70.3702 
G01 X-28.5682 Y70.3442 
G01 X-28.7342 Y70.3442 
G01 X-28.8983 Y70.3702 
G01 X-29.0563 Y70.4215 
G01 X-29.2042 Y70.4969 
G01 X-29.3386 Y70.5945 
G01 X-29.4561 Y70.7120 
G01 X-29.5537 Y70.8464 
G01 X-29.6291 Y70.9943 
G01 X-29.6804 Y71.1523 
G01 X-29.7064 Y71.3163 
G00 Z2.5400 
G00 X-2.8779 Y82.8664 
G01 Z-0.1500 F254.00 
G01 X-4.7421 Y82.8664 F508.00 
G01 X-4.9264 Y82.9030 
G01 X-5.0999 Y82.9749 
G01 X-5.2561 Y83.0793 
G01 X-5.3889 Y83.2121 
G01 X-5.4933 Y83.3683 
G01 X-5.5652 Y83.5418 
G01 X-5.6018 Y83.7261 
G01 X-5.6018 Y83.9139 
G01 X-5.5652 Y84.0982 
G01 X-5.4933 Y84.2717 
G01 X-5.3889 Y84.4279 
G01 X-5.2561 Y84.5607 
G01 X-5.0999 Y84.6651 
G01 X-4.9264 Y84.7370 
G01 X-4.7421 Y84.7736 
G01 X-2.8779 Y84.7736 
G01 X-2.6936 Y84.7370 
G01 X-2.5201 Y84.6651 
G01 X-2.3639 Y84.5607 
G01 X-2.2311 Y84.4279 
G01 X-2.1267 Y84.2717 
G01 X-2.0548 Y84.0982 
G01 X-2.0182 Y83.9139 
G01 X-2.0182 Y83.7261 
G01 X-2.0548 Y83.5418 
G01 X-2.1267 Y83.3683 
G01 X-2.2311 Y83.2121 
G01 X-2.3639 Y83.0793 
G01 X-2.5201 Y82.9749 
G01 X-2.6936 Y82.9030 
G01 X-2.8779 Y82.8664 
G00 Z2.5400 
G00 X-2.8779 Y86.6764 
G01 Z-0.1500 F254.00 
G01 X-4.7421 Y86.6764 F508.00 
G01 X-4.9264 Y86.7130 
G01 X-5.0999 Y86.7849 
G01 X-5.2561 Y86.8893 
G01 X-5.3889 Y87.0221 
G01 X-5.4933 Y87.1783 
G01 X-5.5652 Y87.3518 
G01 X-5.5723 Y87.3876 
G01 X-7.5196 Y87.3876 
G01 X-11.2245 Y83.6827 
G01 X-11.2557 Y83.6515 
G01 X-11.2702 Y83.5789 
G01 X-11.3325 Y83.4285 
G01 X-11.4229 Y83.2931 
G01 X-11.5381 Y83.1779 
G01 X-11.6735 Y83.0875 
G01 X-11.8239 Y83.0252 
G01 X-11.9836 Y82.9934 
G01 X-12.1464 Y82.9934 
G01 X-12.3061 Y83.0252 
G01 X-12.4565 Y83.0875 
G01 X-12.5919 Y83.1779 
G01 X-12.7071 Y83.2931 
G01 X-12.7975 Y83.4285 
G01 X-12.8598 Y83.5789 
G01 X-12.8916 Y83.7386 
G01 X-12.8916 Y83.9014 
G01 X-12.8598 Y84.0611 
G01 X-12.7975 Y84.2115 
G01 X-12.7071 Y84.3469 
G01 X-12.5919 Y84.4621 
G01 X-12.4565 Y84.5525 
G01 X-12.3061 Y84.6148 
G01 X-12.1464 Y84.6466 
G01 X-11.9836 Y84.6466 
G01 X-11.8239 Y84.6148 
G01 X-11.6735 Y84.5525 
G01 X-11.5381 Y84.4621 
G01 X-11.4229 Y84.3469 
G01 X-11.3520 Y84.2408 
G01 X-7.8255 Y87.7673 
G01 X-7.7573 Y87.8355 
G01 X-7.6682 Y87.8724 
G01 X-5.5723 Y87.8724 
G01 X-5.5652 Y87.9082 
G01 X-5.4933 Y88.0817 
G01 X-5.3889 Y88.2379 
G01 X-5.2561 Y88.3707 
G01 X-5.0999 Y88.4751 
G01 X-4.9264 Y88.5470 
G01 X-4.7421 Y88.5836 
G01 X-2.8779 Y88.5836 
G01 X-2.6936 Y88.5470 
G01 X-2.5201 Y88.4751 
G01 X-2.3639 Y88.3707 
G01 X-2.2311 Y88.2379 
G01 X-2.1267 Y88.0817 
G01 X-2.0548 Y87.9082 
G01 X-2.0182 Y87.7239 
G01 X-2.0182 Y87.5361 
G01 X-2.0548 Y87.3518 
G01 X-2.1267 Y87.1783 
G01 X-2.2311 Y87.0221 
G01 X-2.3639 Y86.8893 
G01 X-2.5201 Y86.7849 
G01 X-2.6936 Y86.7130 
G01 X-2.8779 Y86.6764 
G00 Z2.5400 
G00 X-2.8779 Y90.4864 
G01 Z-0.1500 F254.00 
G01 X-4.7421 Y90.4864 F508.00 
G01 X-4.9264 Y90.5230 
G01 X-5.0999 Y90.5949 
G01 X-5.2561 Y90.6993 
G01 X-5.3889 Y90.8321 
G01 X-5.4933 Y90.9883 
G01 X-5.5652 Y91.1618 
G01 X-5.6018 Y91.3461 
G01 X-5.6018 Y91.5339 
G01 X-5.5652 Y91.7182 
G01 X-5.4933 Y91.8917 
G01 X-5.3889 Y92.0479 
G01 X-5.2561 Y92.1807 
G01 X-5.0999 Y92.2851 
G01 X-4.9264 Y92.3569 
G01 X-4.7421 Y92.3936 
G01 X-2.8779 Y92.3936 
G01 X-2.6936 Y92.3569 
G01 X-2.5201 Y92.2851 
G01 X-2.3639 Y92.1807 
G01 X-2.2311 Y92.0479 
G01 X-2.1267 Y91.8917 
G01 X-2.0548 Y91.7182 
G01 X-2.0182 Y91.5339 
G01 X-2.0182 Y91.3461 
G01 X-2.0548 Y91.1618 
G01 X-2.1267 Y90.9883 
G01 X-2.2311 Y90.8321 
G01 X-2.3639 Y90.6993 
G01 X-2.5201 Y90.5949 
G01 X-2.6936 Y90.5230 
G01 X-2.8779 Y90.4864 
G00 Z2.5400 
G00 X-37.4044 Y81.5224 
G01 Z-0.1500 F254.00 
G01 X-37.3824 Y81.5753 F508.00 
G01 X-37.3142 Y81.6774 
G01 X-37.2274 Y81.7642 
G01 X-37.1253 Y81.8324 
G01 X-37.0118 Y81.8794 
G01 X-36.8914 Y81.9034 
G01 X-36.7686 Y81.9034 
G01 X-36.6482 Y81.8794 
G01 X-36.5347 Y81.8324 
G01 X-36.4326 Y81.7642 
G01 X-36.3458 Y81.6774 
G01 X-36.2776 Y81.5753 
G01 X-36.2306 Y81.4618 
G01 X-36.2066 Y81.3414 
G01 X-36.2066 Y81.2186 
G01 X-36.2306 Y81.0982 
G01 X-36.2776 Y80.9847 
G01 X-36.3458 Y80.8826 
G01 X-36.4326 Y80.7958 
G01 X-36.5347 Y80.7276 
G01 X-36.6482 Y80.6806 
G01 X-36.7686 Y80.6566 
G01 X-36.8914 Y80.6566 
G01 X-37.0118 Y80.6806 
G01 X-37.1253 Y80.7276 
G01 X-37.2274 Y80.7958 
G01 X-37.3142 Y80.8826 
G01 X-37.3824 Y80.9847 
G01 X-37.4044 Y81.0376 
G01 X-43.8756 Y81.0376 
G01 X-43.8976 Y80.9847 
G01 X-43.9658 Y80.8826 
G01 X-44.0526 Y80.7958 
G01 X-44.1547 Y80.7276 
G01 X-44.2682 Y80.6806 
G01 X-44.3886 Y80.6566 
G01 X-44.5114 Y80.6566 
G01 X-44.6318 Y80.6806 
G01 X-44.7453 Y80.7276 
G01 X-44.8474 Y80.7958 
G01 X-44.9342 Y80.8826 
G01 X-45.0024 Y80.9847 
G01 X-45.0494 Y81.0982 
G01 X-45.0734 Y81.2186 
G01 X-45.0734 Y81.3414 
G01 X-45.0494 Y81.4618 
G01 X-45.0024 Y81.5753 
G01 X-44.9342 Y81.6774 
G01 X-44.8474 Y81.7642 
G01 X-44.7453 Y81.8324 
G01 X-44.6318 Y81.8794 
G01 X-44.5114 Y81.9034 
G01 X-44.3886 Y81.9034 
G01 X-44.2682 Y81.8794 
G01 X-44.1547 Y81.8324 
G01 X-44.0526 Y81.7642 
G01 X-43.9658 Y81.6774 
G01 X-43.8976 Y81.5753 
G01 X-43.8756 Y81.5224 
G01 X-37.4044 Y81.5224 
G00 Z2.5400 
G00 X-81.0904 Y3.6780 
G01 Z-0.1500 F254.00 
G01 X-81.0904 Y3.9420 F508.00 
G01 X-81.0608 Y4.2043 
G01 X-81.0021 Y4.4617 
G01 X-80.9149 Y4.7109 
G01 X-80.8004 Y4.9487 
G01 X-80.6599 Y5.1723 
G01 X-80.4953 Y5.3786 
G01 X-80.3086 Y5.5653 
G01 X-80.1022 Y5.7299 
G01 X-79.8787 Y5.8704 
G01 X-79.6409 Y5.9849 
G01 X-79.3917 Y6.0721 
G01 X-79.1343 Y6.1308 
G01 X-78.8720 Y6.1604 
G01 X-78.6080 Y6.1604 
G01 X-78.3457 Y6.1308 
G01 X-78.0883 Y6.0721 
G01 X-77.8391 Y5.9849 
G01 X-77.6013 Y5.8704 
G01 X-77.3777 Y5.7299 
G01 X-77.1714 Y5.5653 
G01 X-76.9847 Y5.3786 
G01 X-76.8201 Y5.1723 
G01 X-76.6796 Y4.9487 
G01 X-76.5651 Y4.7109 
G01 X-76.4779 Y4.4617 
G01 X-76.4192 Y4.2043 
G01 X-76.3896 Y3.9420 
G01 X-76.3896 Y3.6780 
G01 X-76.4192 Y3.4157 
G01 X-76.4779 Y3.1583 
G01 X-76.5651 Y2.9091 
G01 X-76.6796 Y2.6713 
G01 X-76.8201 Y2.4477 
G01 X-76.9847 Y2.2414 
G01 X-77.1714 Y2.0547 
G01 X-77.3777 Y1.8901 
G01 X-77.6013 Y1.7496 
G01 X-77.8391 Y1.6351 
G01 X-78.0883 Y1.5479 
G01 X-78.3457 Y1.4892 
G01 X-78.6080 Y1.4596 
G01 X-78.8720 Y1.4596 
G01 X-79.1343 Y1.4892 
G01 X-79.3917 Y1.5479 
G01 X-79.6409 Y1.6351 
G01 X-79.8787 Y1.7496 
G01 X-80.1022 Y1.8901 
G01 X-80.3086 Y2.0547 
G01 X-80.4953 Y2.2414 
G01 X-80.6599 Y2.4477 
G01 X-80.8004 Y2.6713 
G01 X-80.9149 Y2.9091 
G01 X-81.0021 Y3.1583 
G01 X-81.0608 Y3.4157 
G01 X-81.0904 Y3.6780 
G00 Z2.5400 
G00 X-79.8204 Y96.3880 
G01 Z-0.1500 F254.00 
G01 X-79.8204 Y96.6520 F508.00 
G01 X-79.7908 Y96.9143 
G01 X-79.7321 Y97.1717 
G01 X-79.6449 Y97.4209 
G01 X-79.5304 Y97.6587 
G01 X-79.3899 Y97.8822 
G01 X-79.2253 Y98.0886 
G01 X-79.0386 Y98.2753 
G01 X-78.8323 Y98.4399 
G01 X-78.6087 Y98.5804 
G01 X-78.3709 Y98.6949 
G01 X-78.1217 Y98.7821 
G01 X-77.8643 Y98.8408 
G01 X-77.6020 Y98.8704 
G01 X-77.3380 Y98.8704 
G01 X-77.0757 Y98.8408 
G01 X-76.8183 Y98.7821 
G01 X-76.5691 Y98.6949 
G01 X-76.3313 Y98.5804 
G01 X-76.1077 Y98.4399 
G01 X-75.9014 Y98.2753 
G01 X-75.7147 Y98.0886 
G01 X-75.5501 Y97.8822 
G01 X-75.4096 Y97.6587 
G01 X-75.2951 Y97.4209 
G01 X-75.2079 Y97.1717 
G01 X-75.1492 Y96.9143 
G01 X-75.1196 Y96.6520 
G01 X-75.1196 Y96.3880 
G01 X-75.1492 Y96.1257 
G01 X-75.2079 Y95.8683 
G01 X-75.2951 Y95.6191 
G01 X-75.4096 Y95.3813 
G01 X-75.5501 Y95.1577 
G01 X-75.7147 Y94.9514 
G01 X-75.9014 Y94.7647 
G01 X-76.1077 Y94.6001 
G01 X-76.3313 Y94.4596 
G01 X-76.5691 Y94.3451 
G01 X-76.8183 Y94.2579 
G01 X-77.0757 Y94.1992 
G01 X-77.3380 Y94.1696 
G01 X-77.6020 Y94.1696 
G01 X-77.8643 Y94.1992 
G01 X-78.1217 Y94.2579 
G01 X-78.3709 Y94.3451 
G01 X-78.6087 Y94.4596 
G01 X-78.8323 Y94.6001 
G01 X-79.0386 Y94.7647 
G01 X-79.2253 Y94.9514 
G01 X-79.3899 Y95.1577 
G01 X-79.5304 Y95.3813 
G01 X-79.6449 Y95.6191 
G01 X-79.7321 Y95.8683 
G01 X-79.7908 Y96.1257 
G01 X-79.8204 Y96.3880 
G00 Z2.5400 
G00 X-6.1604 Y3.6780 
G01 Z-0.1500 F254.00 
G01 X-6.1604 Y3.9420 F508.00 
G01 X-6.1308 Y4.2043 
G01 X-6.0721 Y4.4617 
G01 X-5.9849 Y4.7109 
G01 X-5.8704 Y4.9487 
G01 X-5.7299 Y5.1723 
G01 X-5.5653 Y5.3786 
G01 X-5.3786 Y5.5653 
G01 X-5.1723 Y5.7299 
G01 X-4.9487 Y5.8704 
G01 X-4.7109 Y5.9849 
G01 X-4.4617 Y6.0721 
G01 X-4.2043 Y6.1308 
G01 X-3.9420 Y6.1604 
G01 X-3.6780 Y6.1604 
G01 X-3.4157 Y6.1308 
G01 X-3.1583 Y6.0721 
G01 X-2.9091 Y5.9849 
G01 X-2.6713 Y5.8704 
G01 X-2.4477 Y5.7299 
G01 X-2.2414 Y5.5653 
G01 X-2.0547 Y5.3786 
G01 X-1.8901 Y5.1723 
G01 X-1.7496 Y4.9487 
G01 X-1.6351 Y4.7109 
G01 X-1.5479 Y4.4617 
G01 X-1.4892 Y4.2043 
G01 X-1.4596 Y3.9420 
G01 X-1.4596 Y3.6780 
G01 X-1.4892 Y3.4157 
G01 X-1.5479 Y3.1583 
G01 X-1.6351 Y2.9091 
G01 X-1.7496 Y2.6713 
G01 X-1.8901 Y2.4477 
G01 X-2.0547 Y2.2414 
G01 X-2.2414 Y2.0547 
G01 X-2.4477 Y1.8901 
G01 X-2.6713 Y1.7496 
G01 X-2.9091 Y1.6351 
G01 X-3.1583 Y1.5479 
G01 X-3.4157 Y1.4892 
G01 X-3.6780 Y1.4596 
G01 X-3.9420 Y1.4596 
G01 X-4.2043 Y1.4892 
G01 X-4.4617 Y1.5479 
G01 X-4.7109 Y1.6351 
G01 X-4.9487 Y1.7496 
G01 X-5.1723 Y1.8901 
G01 X-5.3786 Y2.0547 
G01 X-5.5653 Y2.2414 
G01 X-5.7299 Y2.4477 
G01 X-5.8704 Y2.6713 
G01 X-5.9849 Y2.9091 
G01 X-6.0721 Y3.1583 
G01 X-6.1308 Y3.4157 
G01 X-6.1604 Y3.6780 
G00 Z2.5400 
G00 X-6.1604 Y96.3880 
G01 Z-0.1500 F254.00 
G01 X-6.1604 Y96.6520 F508.00 
G01 X-6.1308 Y96.9143 
G01 X-6.0721 Y97.1717 
G01 X-5.9849 Y97.4209 
G01 X-5.8704 Y97.6587 
G01 X-5.7299 Y97.8822 
G01 X-5.5653 Y98.0886 
G01 X-5.3786 Y98.2753 
G01 X-5.1723 Y98.4399 
G01 X-4.9487 Y98.5804 
G01 X-4.7109 Y98.6949 
G01 X-4.4617 Y98.7821 
G01 X-4.2043 Y98.8408 
G01 X-3.9420 Y98.8704 
G01 X-3.6780 Y98.8704 
G01 X-3.4157 Y98.8408 
G01 X-3.1583 Y98.7821 
G01 X-2.9091 Y98.6949 
G01 X-2.6713 Y98.5804 
G01 X-2.4477 Y98.4399 
G01 X-2.2414 Y98.2753 
G01 X-2.0547 Y98.0886 
G01 X-1.8901 Y97.8822 
G01 X-1.7496 Y97.6587 
G01 X-1.6351 Y97.4209 
G01 X-1.5479 Y97.1717 
G01 X-1.4892 Y96.9143 
G01 X-1.4596 Y96.6520 
G01 X-1.4596 Y96.3880 
G01 X-1.4892 Y96.1257 
G01 X-1.5479 Y95.8683 
G01 X-1.6351 Y95.6191 
G01 X-1.7496 Y95.3813 
G01 X-1.8901 Y95.1577 
G01 X-2.0547 Y94.9514 
G01 X-2.2414 Y94.7647 
G01 X-2.4477 Y94.6001 
G01 X-2.6713 Y94.4596 
G01 X-2.9091 Y94.3451 
G01 X-3.1583 Y94.2579 
G01 X-3.4157 Y94.1992 
G01 X-3.6780 Y94.1696 
G01 X-3.9420 Y94.1696 
G01 X-4.2043 Y94.1992 
G01 X-4.4617 Y94.2579 
G01 X-4.7109 Y94.3451 
G01 X-4.9487 Y94.4596 
G01 X-5.1723 Y94.6001 
G01 X-5.3786 Y94.7647 
G01 X-5.5653 Y94.9514 
G01 X-5.7299 Y95.1577 
G01 X-5.8704 Y95.3813 
G01 X-5.9849 Y95.6191 
G01 X-6.0721 Y95.8683 
G01 X-6.1308 Y96.1257 
G01 X-6.1604 Y96.3880 
G00 Z2.5400 
G00 X-37.4857 Y81.6494 
G01 Z-0.1500 F254.00 
G01 X-37.4129 Y81.7584 F508.00 
G01 X-37.3084 Y81.8629 
G01 X-37.1854 Y81.9450 
G01 X-37.0489 Y82.0016 
G01 X-36.9039 Y82.0304 
G01 X-36.7561 Y82.0304 
G01 X-36.6111 Y82.0016 
G01 X-36.4746 Y81.9450 
G01 X-36.3516 Y81.8629 
G01 X-36.2471 Y81.7584 
G01 X-36.1650 Y81.6354 
G01 X-36.1084 Y81.4989 
G01 X-36.0796 Y81.3539 
G01 X-36.0796 Y81.2061 
G01 X-36.1084 Y81.0611 
G01 X-36.1650 Y80.9246 
G01 X-36.2471 Y80.8016 
G01 X-36.3516 Y80.6971 
G01 X-36.4746 Y80.6150 
G01 X-36.6111 Y80.5584 
G01 X-36.7561 Y80.5296 
G01 X-36.9039 Y80.5296 
G01 X-37.0489 Y80.5584 
G01 X-37.1854 Y80.6150 
G01 X-37.3084 Y80.6971 
G01 X-37.4129 Y80.8016 
G01 X-37.4857 Y80.9106 
G01 X-43.7943 Y80.9106 
G01 X-43.8671 Y80.8016 
G01 X-43.9716 Y80.6971 
G01 X-44.0946 Y80.6150 
G01 X-44.2311 Y80.5584 
G01 X-44.3761 Y80.5296 
G01 X-44.5239 Y80.5296 
G01 X-44.6689 Y80.5584 
G01 X-44.8054 Y80.6150 
G01 X-44.9284 Y80.6971 
G01 X-45.0329 Y80.8016 
G01 X-45.1150 Y80.9246 
G01 X-45.1716 Y81.0611 
G01 X-45.2004 Y81.2061 
G01 X-45.2004 Y81.3539 
G01 X-45.1716 Y81.4989 
G01 X-45.1150 Y81.6354 
G01 X-45.0329 Y81.7584 
G01 X-44.9284 Y81.8629 
G01 X-44.8054 Y81.9450 
G01 X-44.6689 Y82.0016 
G01 X-44.5239 Y82.0304 
G01 X-44.3761 Y82.0304 
G01 X-44.2311 Y82.0016 
G01 X-44.0946 Y81.9450 
G01 X-43.9716 Y81.8629 
G01 X-43.8671 Y81.7584 
G01 X-43.7943 Y81.6494 
G01 X-37.4857 Y81.6494 
G00 Z2.5400 
G00 X-2.8868 Y90.3594 
G01 Z-0.1500 F254.00 
G01 X-4.7332 Y90.3594 F508.00 
G01 X-4.9012 Y90.3860 
G01 X-5.0630 Y90.4386 
G01 X-5.2146 Y90.5158 
G01 X-5.3522 Y90.6158 
G01 X-5.4724 Y90.7360 
G01 X-5.5724 Y90.8736 
G01 X-5.6496 Y91.0252 
G01 X-5.7022 Y91.1870 
G01 X-5.7288 Y91.3550 
G01 X-5.7288 Y91.5250 
G01 X-5.7022 Y91.6930 
G01 X-5.6496 Y91.8548 
G01 X-5.5724 Y92.0064 
G01 X-5.4724 Y92.1440 
G01 X-5.3522 Y92.2642 
G01 X-5.2146 Y92.3642 
G01 X-5.0630 Y92.4414 
G01 X-4.9012 Y92.4940 
G01 X-4.7332 Y92.5206 
G01 X-2.8868 Y92.5206 
G01 X-2.7188 Y92.4940 
G01 X-2.5570 Y92.4414 
G01 X-2.4054 Y92.3642 
G01 X-2.2678 Y92.2642 
G01 X-2.1476 Y92.1440 
G01 X-2.0476 Y92.0064 
G01 X-1.9704 Y91.8548 
G01 X-1.9178 Y91.6930 
G01 X-1.8912 Y91.5250 
G01 X-1.8912 Y91.3550 
G01 X-1.9178 Y91.1870 
G01 X-1.9704 Y91.0252 
G01 X-2.0476 Y90.8736 
G01 X-2.1476 Y90.7360 
G01 X-2.2678 Y90.6158 
G01 X-2.4054 Y90.5158 
G01 X-2.5570 Y90.4386 
G01 X-2.7188 Y90.3860 
G01 X-2.8868 Y90.3594 
G00 Z2.5400 
G00 X-2.8868 Y82.7394 
G01 Z-0.1500 F254.00 
G01 X-4.7332 Y82.7394 F508.00 
G01 X-4.9012 Y82.7660 
G01 X-5.0630 Y82.8186 
G01 X-5.2146 Y82.8958 
G01 X-5.3522 Y82.9958 
G01 X-5.4724 Y83.1160 
G01 X-5.5724 Y83.2536 
G01 X-5.6496 Y83.4052 
G01 X-5.7022 Y83.5670 
G01 X-5.7288 Y83.7350 
G01 X-5.7288 Y83.9050 
G01 X-5.7022 Y84.0730 
G01 X-5.6496 Y84.2348 
G01 X-5.5724 Y84.3864 
G01 X-5.4724 Y84.5240 
G01 X-5.3522 Y84.6442 
G01 X-5.2146 Y84.7442 
G01 X-5.0630 Y84.8214 
G01 X-4.9012 Y84.8740 
G01 X-4.7332 Y84.9006 
G01 X-2.8868 Y84.9006 
G01 X-2.7188 Y84.8740 
G01 X-2.5570 Y84.8214 
G01 X-2.4054 Y84.7442 
G01 X-2.2678 Y84.6442 
G01 X-2.1476 Y84.5240 
G01 X-2.0476 Y84.3864 
G01 X-1.9704 Y84.2348 
G01 X-1.9178 Y84.0730 
G01 X-1.8912 Y83.9050 
G01 X-1.8912 Y83.7350 
G01 X-1.9178 Y83.5670 
G01 X-1.9704 Y83.4052 
G01 X-2.0476 Y83.2536 
G01 X-2.1476 Y83.1160 
G01 X-2.2678 Y82.9958 
G01 X-2.4054 Y82.8958 
G01 X-2.5570 Y82.8186 
G01 X-2.7188 Y82.7660 
G01 X-2.8868 Y82.7394 
G00 Z2.5400 
G00 X-29.8334 Y71.3064 
G01 Z-0.1500 F254.00 
G01 X-29.8334 Y71.4924 F508.00 
G01 X-29.8043 Y71.6762 
G01 X-29.7468 Y71.8532 
G01 X-29.6623 Y72.0190 
G01 X-29.5529 Y72.1696 
G01 X-29.4214 Y72.3011 
G01 X-29.2708 Y72.4105 
G01 X-29.1050 Y72.4950 
G01 X-28.9280 Y72.5525 
G01 X-28.7442 Y72.5816 
G01 X-28.5582 Y72.5816 
G01 X-28.3744 Y72.5525 
G01 X-28.1974 Y72.4950 
G01 X-28.0316 Y72.4105 
G01 X-27.8810 Y72.3011 
G01 X-27.7495 Y72.1696 
G01 X-27.6401 Y72.0190 
G01 X-27.5556 Y71.8532 
G01 X-27.4981 Y71.6762 
G01 X-27.4690 Y71.4924 
G01 X-27.4690 Y71.3064 
G01 X-27.4981 Y71.1226 
G01 X-27.5556 Y70.9456 
G01 X-27.6401 Y70.7798 
G01 X-27.7495 Y70.6292 
G01 X-27.8810 Y70.4977 
G01 X-28.0316 Y70.3883 
G01 X-28.1974 Y70.3038 
G01 X-28.3744 Y70.2463 
G01 X-28.5582 Y70.2172 
G01 X-28.7442 Y70.2172 
G01 X-28.9280 Y70.2463 
G01 X-29.1050 Y70.3038 
G01 X-29.2708 Y70.3883 
G01 X-29.4214 Y70.4977 
G01 X-29.5529 Y70.6292 
G01 X-29.6623 Y70.7798 
G01 X-29.7468 Y70.9456 
G01 X-29.8043 Y71.1226 
G01 X-29.8334 Y71.3064 
G00 Z2.5400 
G00 X-23.3310 Y71.3064 
G01 Z-0.1500 F254.00 
G01 X-23.3310 Y71.4924 F508.00 
G01 X-23.3019 Y71.6762 
G01 X-23.2444 Y71.8532 
G01 X-23.1599 Y72.0190 
G01 X-23.0505 Y72.1696 
G01 X-22.9190 Y72.3011 
G01 X-22.7684 Y72.4105 
G01 X-22.6026 Y72.4950 
G01 X-22.4256 Y72.5525 
G01 X-22.2418 Y72.5816 
G01 X-22.0558 Y72.5816 
G01 X-21.8720 Y72.5525 
G01 X-21.6950 Y72.4950 
G01 X-21.5292 Y72.4105 
G01 X-21.3786 Y72.3011 
G01 X-21.2471 Y72.1696 
G01 X-21.1377 Y72.0190 
G01 X-21.0532 Y71.8532 
G01 X-20.9957 Y71.6762 
G01 X-20.9666 Y71.4924 
G01 X-20.9666 Y71.3064 
G01 X-20.9957 Y71.1226 
G01 X-21.0532 Y70.9456 
G01 X-21.1377 Y70.7798 
G01 X-21.2471 Y70.6292 
G01 X-21.3786 Y70.4977 
G01 X-21.5292 Y70.3883 
G01 X-21.6950 Y70.3038 
G01 X-21.8720 Y70.2463 
G01 X-22.0558 Y70.2172 
G01 X-22.2418 Y70.2172 
G01 X-22.4256 Y70.2463 
G01 X-22.6026 Y70.3038 
G01 X-22.7684 Y70.3883 
G01 X-22.9190 Y70.4977 
G01 X-23.0505 Y70.6292 
G01 X-23.1599 Y70.7798 
G01 X-23.2444 Y70.9456 
G01 X-23.3019 Y71.1226 
G01 X-23.3310 Y71.3064 
G00 Z2.5400 
G00 X-23.3310 Y75.8276 
G01 Z-0.1500 F254.00 
G01 X-23.3310 Y76.0136 F508.00 
G01 X-23.3125 Y76.1301 
G01 X-24.2830 Y77.1006 
G01 X-28.5443 Y77.1006 
G01 X-28.3744 Y77.0737 
G01 X-28.1974 Y77.0162 
G01 X-28.0316 Y76.9317 
G01 X-27.8810 Y76.8223 
G01 X-27.7495 Y76.6908 
G01 X-27.6401 Y76.5402 
G01 X-27.5556 Y76.3744 
G01 X-27.4981 Y76.1974 
G01 X-27.4690 Y76.0136 
G01 X-27.4690 Y75.8276 
G01 X-27.4981 Y75.6438 
G01 X-27.5556 Y75.4668 
G01 X-27.6401 Y75.3010 
G01 X-27.7495 Y75.1504 
G01 X-27.8810 Y75.0189 
G01 X-28.0316 Y74.9095 
G01 X-28.1974 Y74.8250 
G01 X-28.3744 Y74.7675 
G01 X-28.5582 Y74.7384 
G01 X-28.7442 Y74.7384 
G01 X-28.9280 Y74.7675 
G01 X-29.1050 Y74.8250 
G01 X-29.2708 Y74.9095 
G01 X-29.4214 Y75.0189 
G01 X-29.5529 Y75.1504 
G01 X-29.6623 Y75.3010 
G01 X-29.7468 Y75.4668 
G01 X-29.8043 Y75.6438 
G01 X-29.8334 Y75.8276 
G01 X-29.8334 Y76.0136 
G01 X-29.8043 Y76.1974 
G01 X-29.7468 Y76.3744 
G01 X-29.6623 Y76.5402 
G01 X-29.5529 Y76.6908 
G01 X-29.4214 Y76.8223 
G01 X-29.2708 Y76.9317 
G01 X-29.1050 Y77.0162 
G01 X-28.9280 Y77.0737 
G01 X-28.7581 Y77.1006 
G01 X-31.3806 Y77.1006 
G01 X-31.3806 Y71.7757 
G01 X-31.2716 Y71.7029 
G01 X-31.1671 Y71.5983 
G01 X-31.0850 Y71.4754 
G01 X-31.0284 Y71.3389 
G01 X-30.9996 Y71.1939 
G01 X-30.9996 Y71.0461 
G01 X-31.0284 Y70.9011 
G01 X-31.0850 Y70.7645 
G01 X-31.1671 Y70.6416 
G01 X-31.2716 Y70.5371 
G01 X-31.3946 Y70.4550 
G01 X-31.5311 Y70.3984 
G01 X-31.6761 Y70.3696 
G01 X-31.8239 Y70.3696 
G01 X-31.9689 Y70.3984 
G01 X-32.1054 Y70.4550 
G01 X-32.2283 Y70.5371 
G01 X-32.3329 Y70.6416 
G01 X-32.4150 Y70.7645 
G01 X-32.4716 Y70.9011 
G01 X-32.5004 Y71.0461 
G01 X-32.5004 Y71.1939 
G01 X-32.4716 Y71.3389 
G01 X-32.4150 Y71.4754 
G01 X-32.3329 Y71.5983 
G01 X-32.2283 Y71.7029 
G01 X-32.1194 Y71.7757 
G01 X-32.1194 Y77.1006 
G01 X-45.5054 Y77.1006 
G01 X-45.5296 Y77.0424 
G01 X-45.6284 Y76.8945 
G01 X-45.7541 Y76.7687 
G01 X-45.9020 Y76.6700 
G01 X-46.0663 Y76.6019 
G01 X-46.2407 Y76.5672 
G01 X-47.7393 Y76.5672 
G01 X-47.9137 Y76.6019 
G01 X-48.0780 Y76.6700 
G01 X-48.2259 Y76.7687 
G01 X-48.3516 Y76.8945 
G01 X-48.4504 Y77.0424 
G01 X-48.5185 Y77.2067 
G01 X-48.5532 Y77.3811 
G01 X-48.5532 Y77.5589 
G01 X-48.5185 Y77.7333 
G01 X-48.4504 Y77.8976 
G01 X-48.3516 Y78.0455 
G01 X-48.2259 Y78.1712 
G01 X-48.0780 Y78.2700 
G01 X-47.9137 Y78.3381 
G01 X-47.7393 Y78.3728 
G01 X-46.2407 Y78.3728 
G01 X-46.0663 Y78.3381 
G01 X-45.9020 Y78.2700 
G01 X-45.7541 Y78.1712 
G01 X-45.6284 Y78.0455 
G01 X-45.5296 Y77.8976 
G01 X-45.5054 Y77.8394 
G01 X-24.0814 Y77.8394 
G01 X-23.9874 Y77.8142 
G01 X-23.9032 Y77.7656 
G01 X-22.9394 Y76.8018 
G01 X-22.9190 Y76.8223 
G01 X-22.7684 Y76.9317 
G01 X-22.6026 Y77.0162 
G01 X-22.4256 Y77.0737 
G01 X-22.2418 Y77.1028 
G01 X-22.0558 Y77.1028 
G01 X-21.8720 Y77.0737 
G01 X-21.6950 Y77.0162 
G01 X-21.5292 Y76.9317 
G01 X-21.3786 Y76.8223 
G01 X-21.2471 Y76.6908 
G01 X-21.1377 Y76.5402 
G01 X-21.0532 Y76.3744 
G01 X-20.9957 Y76.1974 
G01 X-20.9666 Y76.0136 
G01 X-20.9666 Y75.8276 
G01 X-20.9957 Y75.6438 
G01 X-21.0532 Y75.4668 
G01 X-21.1377 Y75.3010 
G01 X-21.2471 Y75.1504 
G01 X-21.3786 Y75.0189 
G01 X-21.5292 Y74.9095 
G01 X-21.6950 Y74.8250 
G01 X-21.8720 Y74.7675 
G01 X-22.0558 Y74.7384 
G01 X-22.2418 Y74.7384 
G01 X-22.4256 Y74.7675 
G01 X-22.6026 Y74.8250 
G01 X-22.7684 Y74.9095 
G01 X-22.9190 Y75.0189 
G01 X-23.0505 Y75.1504 
G01 X-23.1599 Y75.3010 
G01 X-23.2444 Y75.4668 
G01 X-23.3019 Y75.6438 
G01 X-23.3310 Y75.8276 
G00 Z2.5400 
G00 X-55.3593 Y78.3728 
G01 Z-0.1500 F254.00 
G01 X-53.8607 Y78.3728 F508.00 
G01 X-53.6863 Y78.3381 
G01 X-53.5220 Y78.2700 
G01 X-53.3741 Y78.1712 
G01 X-53.2484 Y78.0455 
G01 X-53.1496 Y77.8976 
G01 X-53.0815 Y77.7333 
G01 X-53.0468 Y77.5589 
G01 X-53.0468 Y77.3811 
G01 X-53.0815 Y77.2067 
G01 X-53.1496 Y77.0424 
G01 X-53.2484 Y76.8945 
G01 X-53.3741 Y76.7687 
G01 X-53.5220 Y76.6700 
G01 X-53.6863 Y76.6019 
G01 X-53.8607 Y76.5672 
G01 X-55.3593 Y76.5672 
G01 X-55.5337 Y76.6019 
G01 X-55.6980 Y76.6700 
G01 X-55.8459 Y76.7687 
G01 X-55.9716 Y76.8945 
G01 X-56.0704 Y77.0424 
G01 X-56.1385 Y77.2067 
G01 X-56.1732 Y77.3811 
G01 X-56.1732 Y77.5589 
G01 X-56.1385 Y77.7333 
G01 X-56.0704 Y77.8976 
G01 X-55.9716 Y78.0455 
G01 X-55.8459 Y78.1712 
G01 X-55.6980 Y78.2700 
G01 X-55.5337 Y78.3381 
G01 X-55.3593 Y78.3728 
G00 Z2.5400 
G00 X-55.3593 Y75.8328 
G01 Z-0.1500 F254.00 
G01 X-53.8607 Y75.8328 F508.00 
G01 X-53.6863 Y75.7981 
G01 X-53.5220 Y75.7300 
G01 X-53.3741 Y75.6312 
G01 X-53.2484 Y75.5055 
G01 X-53.1496 Y75.3576 
G01 X-53.0815 Y75.1933 
G01 X-53.0468 Y75.0189 
G01 X-53.0468 Y74.8411 
G01 X-53.0815 Y74.6667 
G01 X-53.1496 Y74.5024 
G01 X-53.2484 Y74.3545 
G01 X-53.3741 Y74.2288 
G01 X-53.5220 Y74.1300 
G01 X-53.6863 Y74.0619 
G01 X-53.8607 Y74.0272 
G01 X-55.3593 Y74.0272 
G01 X-55.5337 Y74.0619 
G01 X-55.6980 Y74.1300 
G01 X-55.8459 Y74.2288 
G01 X-55.9716 Y74.3545 
G01 X-56.0704 Y74.5024 
G01 X-56.1385 Y74.6667 
G01 X-56.1732 Y74.8411 
G01 X-56.1732 Y75.0189 
G01 X-56.1385 Y75.1933 
G01 X-56.0704 Y75.3576 
G01 X-55.9716 Y75.5055 
G01 X-55.8459 Y75.6312 
G01 X-55.6980 Y75.7300 
G01 X-55.5337 Y75.7981 
G01 X-55.3593 Y75.8328 
G00 Z2.5400 
G00 X-55.3593 Y73.2928 
G01 Z-0.1500 F254.00 
G01 X-53.8607 Y73.2928 F508.00 
G01 X-53.6863 Y73.2581 
G01 X-53.5220 Y73.1900 
G01 X-53.3741 Y73.0912 
G01 X-53.2484 Y72.9655 
G01 X-53.1496 Y72.8176 
G01 X-53.0815 Y72.6533 
G01 X-53.0468 Y72.4789 
G01 X-53.0468 Y72.3011 
G01 X-53.0815 Y72.1267 
G01 X-53.1496 Y71.9624 
G01 X-53.2484 Y71.8145 
G01 X-53.3741 Y71.6887 
G01 X-53.5220 Y71.5900 
G01 X-53.6863 Y71.5219 
G01 X-53.8607 Y71.4872 
G01 X-55.3593 Y71.4872 
G01 X-55.5337 Y71.5219 
G01 X-55.6980 Y71.5900 
G01 X-55.8459 Y71.6887 
G01 X-55.9716 Y71.8145 
G01 X-56.0704 Y71.9624 
G01 X-56.1385 Y72.1267 
G01 X-56.1732 Y72.3011 
G01 X-56.1732 Y72.4789 
G01 X-56.1385 Y72.6533 
G01 X-56.0704 Y72.8176 
G01 X-55.9716 Y72.9655 
G01 X-55.8459 Y73.0912 
G01 X-55.6980 Y73.1900 
G01 X-55.5337 Y73.2581 
G01 X-55.3593 Y73.2928 
G00 Z2.5400 
G00 X-55.3593 Y70.7528 
G01 Z-0.1500 F254.00 
G01 X-53.8607 Y70.7528 F508.00 
G01 X-53.6863 Y70.7181 
G01 X-53.5220 Y70.6500 
G01 X-53.3741 Y70.5512 
G01 X-53.2484 Y70.4255 
G01 X-53.1496 Y70.2776 
G01 X-53.0815 Y70.1133 
G01 X-53.0468 Y69.9389 
G01 X-53.0468 Y69.7611 
G01 X-53.0815 Y69.5867 
G01 X-53.1496 Y69.4224 
G01 X-53.2484 Y69.2745 
G01 X-53.3741 Y69.1488 
G01 X-53.5220 Y69.0500 
G01 X-53.6863 Y68.9819 
G01 X-53.8607 Y68.9472 
G01 X-55.3593 Y68.9472 
G01 X-55.5337 Y68.9819 
G01 X-55.6980 Y69.0500 
G01 X-55.8459 Y69.1488 
G01 X-55.9716 Y69.2745 
G01 X-56.0704 Y69.4224 
G01 X-56.1385 Y69.5867 
G01 X-56.1732 Y69.7611 
G01 X-56.1732 Y69.9389 
G01 X-56.1385 Y70.1133 
G01 X-56.0704 Y70.2776 
G01 X-55.9716 Y70.4255 
G01 X-55.8459 Y70.5512 
G01 X-55.6980 Y70.6500 
G01 X-55.5337 Y70.7181 
G01 X-55.3593 Y70.7528 
G00 Z2.5400 
G00 X-55.3593 Y68.2128 
G01 Z-0.1500 F254.00 
G01 X-53.8607 Y68.2128 F508.00 
G01 X-53.6863 Y68.1781 
G01 X-53.5220 Y68.1100 
G01 X-53.3741 Y68.0112 
G01 X-53.2484 Y67.8855 
G01 X-53.1496 Y67.7376 
G01 X-53.0815 Y67.5733 
G01 X-53.0468 Y67.3989 
G01 X-53.0468 Y67.2211 
G01 X-53.0815 Y67.0467 
G01 X-53.1496 Y66.8824 
G01 X-53.2484 Y66.7345 
G01 X-53.3741 Y66.6088 
G01 X-53.5220 Y66.5100 
G01 X-53.6863 Y66.4419 
G01 X-53.8607 Y66.4072 
G01 X-55.3593 Y66.4072 
G01 X-55.5337 Y66.4419 
G01 X-55.6980 Y66.5100 
G01 X-55.8459 Y66.6088 
G01 X-55.9716 Y66.7345 
G01 X-56.0704 Y66.8824 
G01 X-56.1385 Y67.0467 
G01 X-56.1732 Y67.2211 
G01 X-56.1732 Y67.3989 
G01 X-56.1385 Y67.5733 
G01 X-56.0704 Y67.7376 
G01 X-55.9716 Y67.8855 
G01 X-55.8459 Y68.0112 
G01 X-55.6980 Y68.1100 
G01 X-55.5337 Y68.1781 
G01 X-55.3593 Y68.2128 
G00 Z2.5400 
G00 X-55.3593 Y65.6728 
G01 Z-0.1500 F254.00 
G01 X-53.8607 Y65.6728 F508.00 
G01 X-53.6863 Y65.6381 
G01 X-53.5220 Y65.5700 
G01 X-53.3741 Y65.4712 
G01 X-53.2484 Y65.3455 
G01 X-53.1496 Y65.1976 
G01 X-53.0815 Y65.0333 
G01 X-53.0468 Y64.8589 
G01 X-53.0468 Y64.6811 
G01 X-53.0815 Y64.5067 
G01 X-53.1496 Y64.3424 
G01 X-53.2484 Y64.1945 
G01 X-53.3741 Y64.0688 
G01 X-53.5220 Y63.9700 
G01 X-53.6863 Y63.9019 
G01 X-53.8607 Y63.8672 
G01 X-55.3593 Y63.8672 
G01 X-55.5337 Y63.9019 
G01 X-55.6980 Y63.9700 
G01 X-55.8459 Y64.0688 
G01 X-55.9716 Y64.1945 
G01 X-56.0704 Y64.3424 
G01 X-56.1385 Y64.5067 
G01 X-56.1732 Y64.6811 
G01 X-56.1732 Y64.8589 
G01 X-56.1385 Y65.0333 
G01 X-56.0704 Y65.1976 
G01 X-55.9716 Y65.3455 
G01 X-55.8459 Y65.4712 
G01 X-55.6980 Y65.5700 
G01 X-55.5337 Y65.6381 
G01 X-55.3593 Y65.6728 
G00 Z2.5400 
G00 X-55.3593 Y63.1328 
G01 Z-0.1500 F254.00 
G01 X-53.8607 Y63.1328 F508.00 
G01 X-53.6863 Y63.0981 
G01 X-53.5220 Y63.0300 
G01 X-53.3741 Y62.9312 
G01 X-53.2484 Y62.8055 
G01 X-53.1496 Y62.6576 
G01 X-53.0815 Y62.4933 
G01 X-53.0468 Y62.3189 
G01 X-53.0468 Y62.1411 
G01 X-53.0815 Y61.9667 
G01 X-53.1496 Y61.8024 
G01 X-53.2484 Y61.6545 
G01 X-53.3741 Y61.5288 
G01 X-53.5220 Y61.4300 
G01 X-53.6863 Y61.3619 
G01 X-53.8607 Y61.3272 
G01 X-55.3593 Y61.3272 
G01 X-55.5337 Y61.3619 
G01 X-55.6980 Y61.4300 
G01 X-55.8459 Y61.5288 
G01 X-55.9716 Y61.6545 
G01 X-56.0704 Y61.8024 
G01 X-56.1385 Y61.9667 
G01 X-56.1732 Y62.1411 
G01 X-56.1732 Y62.3189 
G01 X-56.1385 Y62.4933 
G01 X-56.0704 Y62.6576 
G01 X-55.9716 Y62.8055 
G01 X-55.8459 Y62.9312 
G01 X-55.6980 Y63.0300 
G01 X-55.5337 Y63.0981 
G01 X-55.3593 Y63.1328 
G00 Z2.5400 
G00 X-55.3593 Y60.5928 
G01 Z-0.1500 F254.00 
G01 X-53.8607 Y60.5928 F508.00 
G01 X-53.6863 Y60.5581 
G01 X-53.5220 Y60.4900 
G01 X-53.3741 Y60.3912 
G01 X-53.2484 Y60.2655 
G01 X-53.1496 Y60.1176 
G01 X-53.0815 Y59.9533 
G01 X-53.0468 Y59.7789 
G01 X-53.0468 Y59.6011 
G01 X-53.0815 Y59.4267 
G01 X-53.1496 Y59.2624 
G01 X-53.2484 Y59.1145 
G01 X-53.3741 Y58.9888 
G01 X-53.5220 Y58.8900 
G01 X-53.6863 Y58.8219 
G01 X-53.8607 Y58.7872 
G01 X-55.3593 Y58.7872 
G01 X-55.5337 Y58.8219 
G01 X-55.6980 Y58.8900 
G01 X-55.8459 Y58.9888 
G01 X-55.9716 Y59.1145 
G01 X-56.0704 Y59.2624 
G01 X-56.1385 Y59.4267 
G01 X-56.1732 Y59.6011 
G01 X-56.1732 Y59.7789 
G01 X-56.1385 Y59.9533 
G01 X-56.0704 Y60.1176 
G01 X-55.9716 Y60.2655 
G01 X-55.8459 Y60.3912 
G01 X-55.6980 Y60.4900 
G01 X-55.5337 Y60.5581 
G01 X-55.3593 Y60.5928 
G00 Z2.5400 
G00 X-55.3593 Y55.5128 
G01 Z-0.1500 F254.00 
G01 X-53.8607 Y55.5128 F508.00 
G01 X-53.6863 Y55.4781 
G01 X-53.5220 Y55.4100 
G01 X-53.3741 Y55.3112 
G01 X-53.2484 Y55.1855 
G01 X-53.1496 Y55.0376 
G01 X-53.0815 Y54.8733 
G01 X-53.0468 Y54.6989 
G01 X-53.0468 Y54.5211 
G01 X-53.0815 Y54.3467 
G01 X-53.1496 Y54.1824 
G01 X-53.2484 Y54.0345 
G01 X-53.3741 Y53.9088 
G01 X-53.5220 Y53.8100 
G01 X-53.6863 Y53.7419 
G01 X-53.8607 Y53.7072 
G01 X-55.3593 Y53.7072 
G01 X-55.5337 Y53.7419 
G01 X-55.6980 Y53.8100 
G01 X-55.8459 Y53.9088 
G01 X-55.9716 Y54.0345 
G01 X-56.0704 Y54.1824 
G01 X-56.1385 Y54.3467 
G01 X-56.1732 Y54.5211 
G01 X-56.1732 Y54.6989 
G01 X-56.1385 Y54.8733 
G01 X-56.0704 Y55.0376 
G01 X-55.9716 Y55.1855 
G01 X-55.8459 Y55.3112 
G01 X-55.6980 Y55.4100 
G01 X-55.5337 Y55.4781 
G01 X-55.3593 Y55.5128 
G00 Z2.5400 
G00 X-55.3593 Y52.9728 
G01 Z-0.1500 F254.00 
G01 X-53.8607 Y52.9728 F508.00 
G01 X-53.6863 Y52.9381 
G01 X-53.5220 Y52.8700 
G01 X-53.3741 Y52.7712 
G01 X-53.2484 Y52.6455 
G01 X-53.1496 Y52.4976 
G01 X-53.0815 Y52.3333 
G01 X-53.0468 Y52.1589 
G01 X-53.0468 Y51.9811 
G01 X-53.0815 Y51.8067 
G01 X-53.1496 Y51.6424 
G01 X-53.2484 Y51.4945 
G01 X-53.3741 Y51.3688 
G01 X-53.5220 Y51.2700 
G01 X-53.6863 Y51.2019 
G01 X-53.8607 Y51.1672 
G01 X-55.3593 Y51.1672 
G01 X-55.5337 Y51.2019 
G01 X-55.6980 Y51.2700 
G01 X-55.8459 Y51.3688 
G01 X-55.9716 Y51.4945 
G01 X-56.0704 Y51.6424 
G01 X-56.1385 Y51.8067 
G01 X-56.1732 Y51.9811 
G01 X-56.1732 Y52.1589 
G01 X-56.1385 Y52.3333 
G01 X-56.0704 Y52.4976 
G01 X-55.9716 Y52.6455 
G01 X-55.8459 Y52.7712 
G01 X-55.6980 Y52.8700 
G01 X-55.5337 Y52.9381 
G01 X-55.3593 Y52.9728 
G00 Z2.5400 
G00 X-55.3593 Y50.4328 
G01 Z-0.1500 F254.00 
G01 X-53.8607 Y50.4328 F508.00 
G01 X-53.6863 Y50.3981 
G01 X-53.5220 Y50.3300 
G01 X-53.3741 Y50.2312 
G01 X-53.2484 Y50.1055 
G01 X-53.1496 Y49.9576 
G01 X-53.0815 Y49.7933 
G01 X-53.0468 Y49.6189 
G01 X-53.0468 Y49.4411 
G01 X-53.0815 Y49.2667 
G01 X-53.1496 Y49.1024 
G01 X-53.2484 Y48.9545 
G01 X-53.3741 Y48.8287 
G01 X-53.5220 Y48.7300 
G01 X-53.6863 Y48.6619 
G01 X-53.8607 Y48.6272 
G01 X-55.3593 Y48.6272 
G01 X-55.5337 Y48.6619 
G01 X-55.6980 Y48.7300 
G01 X-55.8459 Y48.8287 
G01 X-55.9716 Y48.9545 
G01 X-56.0704 Y49.1024 
G01 X-56.1385 Y49.2667 
G01 X-56.1732 Y49.4411 
G01 X-56.1732 Y49.6189 
G01 X-56.1385 Y49.7933 
G01 X-56.0704 Y49.9576 
G01 X-55.9716 Y50.1055 
G01 X-55.8459 Y50.2312 
G01 X-55.6980 Y50.3300 
G01 X-55.5337 Y50.3981 
G01 X-55.3593 Y50.4328 
G00 Z2.5400 
G00 X-55.3593 Y47.8928 
G01 Z-0.1500 F254.00 
G01 X-53.8607 Y47.8928 F508.00 
G01 X-53.6863 Y47.8581 
G01 X-53.5220 Y47.7900 
G01 X-53.3741 Y47.6912 
G01 X-53.2484 Y47.5655 
G01 X-53.1496 Y47.4176 
G01 X-53.0815 Y47.2533 
G01 X-53.0468 Y47.0789 
G01 X-53.0468 Y46.9011 
G01 X-53.0815 Y46.7267 
G01 X-53.1496 Y46.5624 
G01 X-53.2484 Y46.4145 
G01 X-53.3741 Y46.2888 
G01 X-53.5220 Y46.1900 
G01 X-53.6863 Y46.1219 
G01 X-53.8607 Y46.0872 
G01 X-55.3593 Y46.0872 
G01 X-55.5337 Y46.1219 
G01 X-55.6980 Y46.1900 
G01 X-55.8459 Y46.2888 
G01 X-55.9716 Y46.4145 
G01 X-56.0704 Y46.5624 
G01 X-56.1385 Y46.7267 
G01 X-56.1732 Y46.9011 
G01 X-56.1732 Y47.0789 
G01 X-56.1385 Y47.2533 
G01 X-56.0704 Y47.4176 
G01 X-55.9716 Y47.5655 
G01 X-55.8459 Y47.6912 
G01 X-55.6980 Y47.7900 
G01 X-55.5337 Y47.8581 
G01 X-55.3593 Y47.8928 
G00 Z2.5400 
G00 X-55.3593 Y45.3528 
G01 Z-0.1500 F254.00 
G01 X-53.8607 Y45.3528 F508.00 
G01 X-53.6863 Y45.3181 
G01 X-53.5220 Y45.2500 
G01 X-53.3741 Y45.1512 
G01 X-53.2484 Y45.0255 
G01 X-53.1496 Y44.8776 
G01 X-53.0815 Y44.7133 
G01 X-53.0468 Y44.5389 
G01 X-53.0468 Y44.3611 
G01 X-53.0815 Y44.1867 
G01 X-53.1496 Y44.0224 
G01 X-53.2484 Y43.8745 
G01 X-53.3741 Y43.7488 
G01 X-53.5220 Y43.6500 
G01 X-53.6863 Y43.5819 
G01 X-53.8607 Y43.5472 
G01 X-55.3593 Y43.5472 
G01 X-55.5337 Y43.5819 
G01 X-55.6980 Y43.6500 
G01 X-55.8459 Y43.7488 
G01 X-55.9716 Y43.8745 
G01 X-56.0704 Y44.0224 
G01 X-56.1385 Y44.1867 
G01 X-56.1732 Y44.3611 
G01 X-56.1732 Y44.5389 
G01 X-56.1385 Y44.7133 
G01 X-56.0704 Y44.8776 
G01 X-55.9716 Y45.0255 
G01 X-55.8459 Y45.1512 
G01 X-55.6980 Y45.2500 
G01 X-55.5337 Y45.3181 
G01 X-55.3593 Y45.3528 
G00 Z2.5400 
G00 X-47.7393 Y45.3528 
G01 Z-0.1500 F254.00 
G01 X-46.2407 Y45.3528 F508.00 
G01 X-46.0663 Y45.3181 
G01 X-45.9020 Y45.2500 
G01 X-45.7541 Y45.1512 
G01 X-45.6284 Y45.0255 
G01 X-45.5296 Y44.8776 
G01 X-45.4615 Y44.7133 
G01 X-45.4268 Y44.5389 
G01 X-45.4268 Y44.3611 
G01 X-45.4615 Y44.1867 
G01 X-45.5296 Y44.0224 
G01 X-45.6284 Y43.8745 
G01 X-45.7541 Y43.7488 
G01 X-45.9020 Y43.6500 
G01 X-46.0663 Y43.5819 
G01 X-46.2407 Y43.5472 
G01 X-47.7393 Y43.5472 
G01 X-47.9137 Y43.5819 
G01 X-48.0780 Y43.6500 
G01 X-48.2259 Y43.7488 
G01 X-48.3516 Y43.8745 
G01 X-48.4504 Y44.0224 
G01 X-48.5185 Y44.1867 
G01 X-48.5532 Y44.3611 
G01 X-48.5532 Y44.5389 
G01 X-48.5185 Y44.7133 
G01 X-48.4504 Y44.8776 
G01 X-48.3516 Y45.0255 
G01 X-48.2259 Y45.1512 
G01 X-48.0780 Y45.2500 
G01 X-47.9137 Y45.3181 
G01 X-47.7393 Y45.3528 
G00 Z2.5400 
G00 X-47.7393 Y47.8928 
G01 Z-0.1500 F254.00 
G01 X-46.2407 Y47.8928 F508.00 
G01 X-46.0663 Y47.8581 
G01 X-45.9020 Y47.7900 
G01 X-45.7541 Y47.6912 
G01 X-45.6284 Y47.5655 
G01 X-45.5296 Y47.4176 
G01 X-45.4615 Y47.2533 
G01 X-45.4268 Y47.0789 
G01 X-45.4268 Y46.9011 
G01 X-45.4615 Y46.7267 
G01 X-45.5296 Y46.5624 
G01 X-45.6284 Y46.4145 
G01 X-45.7541 Y46.2888 
G01 X-45.9020 Y46.1900 
G01 X-46.0663 Y46.1219 
G01 X-46.2407 Y46.0872 
G01 X-47.7393 Y46.0872 
G01 X-47.9137 Y46.1219 
G01 X-48.0780 Y46.1900 
G01 X-48.2259 Y46.2888 
G01 X-48.3516 Y46.4145 
G01 X-48.4504 Y46.5624 
G01 X-48.5185 Y46.7267 
G01 X-48.5532 Y46.9011 
G01 X-48.5532 Y47.0789 
G01 X-48.5185 Y47.2533 
G01 X-48.4504 Y47.4176 
G01 X-48.3516 Y47.5655 
G01 X-48.2259 Y47.6912 
G01 X-48.0780 Y47.7900 
G01 X-47.9137 Y47.8581 
G01 X-47.7393 Y47.8928 
G00 Z2.5400 
G00 X-47.7393 Y50.4328 
G01 Z-0.1500 F254.00 
G01 X-46.2407 Y50.4328 F508.00 
G01 X-46.0663 Y50.3981 
G01 X-45.9020 Y50.3300 
G01 X-45.7541 Y50.2312 
G01 X-45.6284 Y50.1055 
G01 X-45.5296 Y49.9576 
G01 X-45.4615 Y49.7933 
G01 X-45.4268 Y49.6189 
G01 X-45.4268 Y49.4411 
G01 X-45.4615 Y49.2667 
G01 X-45.5296 Y49.1024 
G01 X-45.6284 Y48.9545 
G01 X-45.7541 Y48.8287 
G01 X-45.9020 Y48.7300 
G01 X-46.0663 Y48.6619 
G01 X-46.2407 Y48.6272 
G01 X-47.7393 Y48.6272 
G01 X-47.9137 Y48.6619 
G01 X-48.0780 Y48.7300 
G01 X-48.2259 Y48.8287 
G01 X-48.3516 Y48.9545 
G01 X-48.4504 Y49.1024 
G01 X-48.5185 Y49.2667 
G01 X-48.5532 Y49.4411 
G01 X-48.5532 Y49.6189 
G01 X-48.5185 Y49.7933 
G01 X-48.4504 Y49.9576 
G01 X-48.3516 Y50.1055 
G01 X-48.2259 Y50.2312 
G01 X-48.0780 Y50.3300 
G01 X-47.9137 Y50.3981 
G01 X-47.7393 Y50.4328 
G00 Z2.5400 
G00 X-47.7393 Y52.9728 
G01 Z-0.1500 F254.00 
G01 X-46.2407 Y52.9728 F508.00 
G01 X-46.0663 Y52.9381 
G01 X-45.9020 Y52.8700 
G01 X-45.7541 Y52.7712 
G01 X-45.6284 Y52.6455 
G01 X-45.5296 Y52.4976 
G01 X-45.4615 Y52.3333 
G01 X-45.4268 Y52.1589 
G01 X-45.4268 Y51.9811 
G01 X-45.4615 Y51.8067 
G01 X-45.5296 Y51.6424 
G01 X-45.6284 Y51.4945 
G01 X-45.7541 Y51.3688 
G01 X-45.9020 Y51.2700 
G01 X-46.0663 Y51.2019 
G01 X-46.2407 Y51.1672 
G01 X-47.7393 Y51.1672 
G01 X-47.9137 Y51.2019 
G01 X-48.0780 Y51.2700 
G01 X-48.2259 Y51.3688 
G01 X-48.3516 Y51.4945 
G01 X-48.4504 Y51.6424 
G01 X-48.5185 Y51.8067 
G01 X-48.5532 Y51.9811 
G01 X-48.5532 Y52.1589 
G01 X-48.5185 Y52.3333 
G01 X-48.4504 Y52.4976 
G01 X-48.3516 Y52.6455 
G01 X-48.2259 Y52.7712 
G01 X-48.0780 Y52.8700 
G01 X-47.9137 Y52.9381 
G01 X-47.7393 Y52.9728 
G00 Z2.5400 
G00 X-47.7393 Y55.5128 
G01 Z-0.1500 F254.00 
G01 X-46.2407 Y55.5128 F508.00 
G01 X-46.0663 Y55.4781 
G01 X-45.9020 Y55.4100 
G01 X-45.7541 Y55.3112 
G01 X-45.6284 Y55.1855 
G01 X-45.5296 Y55.0376 
G01 X-45.4615 Y54.8733 
G01 X-45.4268 Y54.6989 
G01 X-45.4268 Y54.5211 
G01 X-45.4615 Y54.3467 
G01 X-45.5296 Y54.1824 
G01 X-45.6284 Y54.0345 
G01 X-45.7541 Y53.9088 
G01 X-45.9020 Y53.8100 
G01 X-46.0663 Y53.7419 
G01 X-46.2407 Y53.7072 
G01 X-47.7393 Y53.7072 
G01 X-47.9137 Y53.7419 
G01 X-48.0780 Y53.8100 
G01 X-48.2259 Y53.9088 
G01 X-48.3516 Y54.0345 
G01 X-48.4504 Y54.1824 
G01 X-48.5185 Y54.3467 
G01 X-48.5532 Y54.5211 
G01 X-48.5532 Y54.6989 
G01 X-48.5185 Y54.8733 
G01 X-48.4504 Y55.0376 
G01 X-48.3516 Y55.1855 
G01 X-48.2259 Y55.3112 
G01 X-48.0780 Y55.4100 
G01 X-47.9137 Y55.4781 
G01 X-47.7393 Y55.5128 
G00 Z2.5400 
G00 X-47.7393 Y58.0528 
G01 Z-0.1500 F254.00 
G01 X-46.2407 Y58.0528 F508.00 
G01 X-46.0663 Y58.0181 
G01 X-45.9020 Y57.9500 
G01 X-45.7541 Y57.8512 
G01 X-45.6284 Y57.7255 
G01 X-45.5296 Y57.5776 
G01 X-45.4615 Y57.4133 
G01 X-45.4268 Y57.2389 
G01 X-45.4268 Y57.0611 
G01 X-45.4615 Y56.8867 
G01 X-45.5296 Y56.7224 
G01 X-45.6284 Y56.5745 
G01 X-45.7541 Y56.4488 
G01 X-45.9020 Y56.3499 
G01 X-46.0663 Y56.2819 
G01 X-46.2407 Y56.2472 
G01 X-47.7393 Y56.2472 
G01 X-47.9137 Y56.2819 
G01 X-48.0780 Y56.3499 
G01 X-48.2259 Y56.4488 
G01 X-48.3516 Y56.5745 
G01 X-48.4504 Y56.7224 
G01 X-48.5185 Y56.8867 
G01 X-48.5532 Y57.0611 
G01 X-48.5532 Y57.2389 
G01 X-48.5185 Y57.4133 
G01 X-48.4504 Y57.5776 
G01 X-48.3516 Y57.7255 
G01 X-48.2259 Y57.8512 
G01 X-48.0780 Y57.9500 
G01 X-47.9137 Y58.0181 
G01 X-47.7393 Y58.0528 
G00 Z2.5400 
G00 X-47.7393 Y60.5928 
G01 Z-0.1500 F254.00 
G01 X-46.2407 Y60.5928 F508.00 
G01 X-46.0663 Y60.5581 
G01 X-45.9020 Y60.4900 
G01 X-45.7541 Y60.3912 
G01 X-45.6284 Y60.2655 
G01 X-45.5296 Y60.1176 
G01 X-45.4615 Y59.9533 
G01 X-45.4268 Y59.7789 
G01 X-45.4268 Y59.6011 
G01 X-45.4615 Y59.4267 
G01 X-45.5296 Y59.2624 
G01 X-45.6284 Y59.1145 
G01 X-45.7541 Y58.9888 
G01 X-45.9020 Y58.8900 
G01 X-46.0663 Y58.8219 
G01 X-46.2407 Y58.7872 
G01 X-47.7393 Y58.7872 
G01 X-47.9137 Y58.8219 
G01 X-48.0780 Y58.8900 
G01 X-48.2259 Y58.9888 
G01 X-48.3516 Y59.1145 
G01 X-48.4504 Y59.2624 
G01 X-48.5185 Y59.4267 
G01 X-48.5532 Y59.6011 
G01 X-48.5532 Y59.7789 
G01 X-48.5185 Y59.9533 
G01 X-48.4504 Y60.1176 
G01 X-48.3516 Y60.2655 
G01 X-48.2259 Y60.3912 
G01 X-48.0780 Y60.4900 
G01 X-47.9137 Y60.5581 
G01 X-47.7393 Y60.5928 
G00 Z2.5400 
G00 X-47.7393 Y63.1328 
G01 Z-0.1500 F254.00 
G01 X-46.2407 Y63.1328 F508.00 
G01 X-46.0663 Y63.0981 
G01 X-45.9020 Y63.0300 
G01 X-45.7541 Y62.9312 
G01 X-45.6284 Y62.8055 
G01 X-45.5296 Y62.6576 
G01 X-45.4615 Y62.4933 
G01 X-45.4268 Y62.3189 
G01 X-45.4268 Y62.1411 
G01 X-45.4615 Y61.9667 
G01 X-45.5296 Y61.8024 
G01 X-45.6284 Y61.6545 
G01 X-45.7541 Y61.5288 
G01 X-45.9020 Y61.4300 
G01 X-46.0663 Y61.3619 
G01 X-46.2407 Y61.3272 
G01 X-47.3704 Y61.3272 
G01 X-51.7744 Y56.9232 
G01 X-51.8432 Y56.8544 
G01 X-51.9274 Y56.8058 
G01 X-52.0214 Y56.7806 
G01 X-53.1254 Y56.7806 
G01 X-53.1496 Y56.7224 
G01 X-53.2484 Y56.5745 
G01 X-53.3741 Y56.4488 
G01 X-53.5220 Y56.3499 
G01 X-53.6863 Y56.2819 
G01 X-53.8607 Y56.2472 
G01 X-55.3593 Y56.2472 
G01 X-55.5337 Y56.2819 
G01 X-55.6980 Y56.3499 
G01 X-55.8459 Y56.4488 
G01 X-55.9716 Y56.5745 
G01 X-56.0704 Y56.7224 
G01 X-56.1385 Y56.8867 
G01 X-56.1732 Y57.0611 
G01 X-56.1732 Y57.2389 
G01 X-56.1385 Y57.4133 
G01 X-56.0704 Y57.5776 
G01 X-55.9716 Y57.7255 
G01 X-55.8459 Y57.8512 
G01 X-55.6980 Y57.9500 
G01 X-55.5337 Y58.0181 
G01 X-55.3593 Y58.0528 
G01 X-53.8607 Y58.0528 
G01 X-53.6863 Y58.0181 
G01 X-53.5220 Y57.9500 
G01 X-53.3741 Y57.8512 
G01 X-53.2484 Y57.7255 
G01 X-53.1496 Y57.5776 
G01 X-53.1254 Y57.5194 
G01 X-52.2230 Y57.5194 
G01 X-48.2186 Y61.5238 
G01 X-48.2259 Y61.5288 
G01 X-48.3516 Y61.6545 
G01 X-48.4504 Y61.8024 
G01 X-48.5185 Y61.9667 
G01 X-48.5532 Y62.1411 
G01 X-48.5532 Y62.3189 
G01 X-48.5185 Y62.4933 
G01 X-48.4504 Y62.6576 
G01 X-48.3516 Y62.8055 
G01 X-48.2259 Y62.9312 
G01 X-48.0780 Y63.0300 
G01 X-47.9137 Y63.0981 
G01 X-47.7393 Y63.1328 
G00 Z2.5400 
G00 X-47.7393 Y65.6728 
G01 Z-0.1500 F254.00 
G01 X-46.2407 Y65.6728 F508.00 
G01 X-46.0663 Y65.6381 
G01 X-45.9020 Y65.5700 
G01 X-45.7541 Y65.4712 
G01 X-45.6284 Y65.3455 
G01 X-45.5296 Y65.1976 
G01 X-45.4615 Y65.0333 
G01 X-45.4268 Y64.8589 
G01 X-45.4268 Y64.6811 
G01 X-45.4615 Y64.5067 
G01 X-45.5296 Y64.3424 
G01 X-45.6284 Y64.1945 
G01 X-45.7541 Y64.0688 
G01 X-45.9020 Y63.9700 
G01 X-46.0663 Y63.9019 
G01 X-46.2407 Y63.8672 
G01 X-47.7393 Y63.8672 
G01 X-47.9137 Y63.9019 
G01 X-48.0780 Y63.9700 
G01 X-48.2259 Y64.0688 
G01 X-48.3516 Y64.1945 
G01 X-48.4504 Y64.3424 
G01 X-48.5185 Y64.5067 
G01 X-48.5532 Y64.6811 
G01 X-48.5532 Y64.8589 
G01 X-48.5185 Y65.0333 
G01 X-48.4504 Y65.1976 
G01 X-48.3516 Y65.3455 
G01 X-48.2259 Y65.4712 
G01 X-48.0780 Y65.5700 
G01 X-47.9137 Y65.6381 
G01 X-47.7393 Y65.6728 
G00 Z2.5400 
G00 X-47.7393 Y68.2128 
G01 Z-0.1500 F254.00 
G01 X-46.2407 Y68.2128 F508.00 
G01 X-46.0663 Y68.1781 
G01 X-45.9020 Y68.1100 
G01 X-45.7541 Y68.0112 
G01 X-45.6284 Y67.8855 
G01 X-45.5296 Y67.7376 
G01 X-45.4615 Y67.5733 
G01 X-45.4268 Y67.3989 
G01 X-45.4268 Y67.2211 
G01 X-45.4615 Y67.0467 
G01 X-45.5296 Y66.8824 
G01 X-45.6284 Y66.7345 
G01 X-45.7541 Y66.6088 
G01 X-45.9020 Y66.5100 
G01 X-46.0663 Y66.4419 
G01 X-46.2407 Y66.4072 
G01 X-47.7393 Y66.4072 
G01 X-47.9137 Y66.4419 
G01 X-48.0780 Y66.5100 
G01 X-48.2259 Y66.6088 
G01 X-48.3516 Y66.7345 
G01 X-48.4504 Y66.8824 
G01 X-48.5185 Y67.0467 
G01 X-48.5532 Y67.2211 
G01 X-48.5532 Y67.3989 
G01 X-48.5185 Y67.5733 
G01 X-48.4504 Y67.7376 
G01 X-48.3516 Y67.8855 
G01 X-48.2259 Y68.0112 
G01 X-48.0780 Y68.1100 
G01 X-47.9137 Y68.1781 
G01 X-47.7393 Y68.2128 
G00 Z2.5400 
G00 X-47.7393 Y70.7528 
G01 Z-0.1500 F254.00 
G01 X-46.2407 Y70.7528 F508.00 
G01 X-46.0663 Y70.7181 
G01 X-45.9020 Y70.6500 
G01 X-45.7541 Y70.5512 
G01 X-45.6284 Y70.4255 
G01 X-45.5296 Y70.2776 
G01 X-45.4615 Y70.1133 
G01 X-45.4268 Y69.9389 
G01 X-45.4268 Y69.7611 
G01 X-45.4615 Y69.5867 
G01 X-45.5296 Y69.4224 
G01 X-45.6284 Y69.2745 
G01 X-45.7541 Y69.1488 
G01 X-45.9020 Y69.0500 
G01 X-46.0663 Y68.9819 
G01 X-46.2407 Y68.9472 
G01 X-47.7393 Y68.9472 
G01 X-47.9137 Y68.9819 
G01 X-48.0780 Y69.0500 
G01 X-48.2259 Y69.1488 
G01 X-48.3516 Y69.2745 
G01 X-48.4504 Y69.4224 
G01 X-48.5185 Y69.5867 
G01 X-48.5532 Y69.7611 
G01 X-48.5532 Y69.9389 
G01 X-48.5185 Y70.1133 
G01 X-48.4504 Y70.2776 
G01 X-48.3516 Y70.4255 
G01 X-48.2259 Y70.5512 
G01 X-48.0780 Y70.6500 
G01 X-47.9137 Y70.7181 
G01 X-47.7393 Y70.7528 
G00 Z2.5400 
G00 X-46.2407 Y73.2928 
G01 Z-0.1500 F254.00 
G01 X-46.0663 Y73.2581 F508.00 
G01 X-45.9020 Y73.1900 
G01 X-45.7541 Y73.0912 
G01 X-45.6284 Y72.9655 
G01 X-45.5296 Y72.8176 
G01 X-45.4615 Y72.6533 
G01 X-45.4268 Y72.4789 
G01 X-45.4268 Y72.3011 
G01 X-45.4615 Y72.1267 
G01 X-45.5296 Y71.9624 
G01 X-45.6284 Y71.8145 
G01 X-45.7541 Y71.6887 
G01 X-45.9020 Y71.5900 
G01 X-46.0663 Y71.5219 
G01 X-46.2407 Y71.4872 
G01 X-47.7393 Y71.4872 
G01 X-47.9137 Y71.5219 
G01 X-48.0780 Y71.5900 
G01 X-48.2259 Y71.6887 
G01 X-48.3516 Y71.8145 
G01 X-48.4504 Y71.9624 
G01 X-48.5185 Y72.1267 
G01 X-48.5532 Y72.3011 
G01 X-48.5532 Y72.4789 
G01 X-48.5185 Y72.6533 
G01 X-48.4504 Y72.8176 
G01 X-48.3516 Y72.9655 
G01 X-48.2259 Y73.0912 
G01 X-48.2186 Y73.0962 
G01 X-51.0268 Y75.9044 
G01 X-51.0956 Y75.9732 
G01 X-51.1442 Y76.0574 
G01 X-51.1694 Y76.1514 
G01 X-51.1694 Y94.0286 
G01 X-51.1442 Y94.1226 
G01 X-51.0956 Y94.2068 
G01 X-51.0268 Y94.2756 
G01 X-50.9426 Y94.3242 
G01 X-50.8486 Y94.3494 
G01 X-37.8725 Y94.3494 
G01 X-37.8725 Y94.4118 
G01 X-37.2618 Y95.0225 
G01 X-36.3982 Y95.0225 
G01 X-35.7875 Y94.4118 
G01 X-35.7875 Y93.5482 
G01 X-36.3982 Y92.9375 
G01 X-37.2618 Y92.9375 
G01 X-37.8725 Y93.5482 
G01 X-37.8725 Y93.6106 
G01 X-50.4306 Y93.6106 
G01 X-50.4306 Y76.3530 
G01 X-47.3704 Y73.2928 
G01 X-46.2407 Y73.2928 
G00 Z2.5400 
G00 X-30.2525 Y85.9282 
G01 Z-0.1500 F254.00 
G01 X-30.2525 Y86.7918 F508.00 
G01 X-29.6418 Y87.4025 
G01 X-28.7782 Y87.4025 
G01 X-28.1675 Y86.7918 
G01 X-28.1675 Y85.9282 
G01 X-28.2116 Y85.8840 
G01 X-12.9024 Y70.5748 
G01 X-12.7739 Y70.6004 
G01 X-12.6261 Y70.6004 
G01 X-12.4811 Y70.5716 
G01 X-12.3445 Y70.5150 
G01 X-12.2216 Y70.4329 
G01 X-12.1171 Y70.3284 
G01 X-12.0350 Y70.2054 
G01 X-11.9784 Y70.0689 
G01 X-11.9496 Y69.9239 
G01 X-11.9496 Y69.7761 
G01 X-11.9784 Y69.6311 
G01 X-12.0350 Y69.4946 
G01 X-12.1171 Y69.3716 
G01 X-12.2216 Y69.2671 
G01 X-12.3445 Y69.1850 
G01 X-12.4811 Y69.1284 
G01 X-12.6261 Y69.0996 
G01 X-12.7739 Y69.0996 
G01 X-12.9189 Y69.1284 
G01 X-13.0554 Y69.1850 
G01 X-13.1784 Y69.2671 
G01 X-13.2829 Y69.3716 
G01 X-13.3650 Y69.4946 
G01 X-13.4216 Y69.6311 
G01 X-13.4504 Y69.7761 
G01 X-13.4504 Y69.9239 
G01 X-13.4248 Y70.0524 
G01 X-28.7340 Y85.3616 
G01 X-28.7782 Y85.3175 
G01 X-29.6418 Y85.3175 
G01 X-30.2525 Y85.9282 
G00 Z2.5400 
G00 X-30.2525 Y88.4682 
G01 Z-0.1500 F254.00 
G01 X-30.2525 Y89.3318 F508.00 
G01 X-29.6418 Y89.9425 
G01 X-28.7782 Y89.9425 
G01 X-28.1675 Y89.3318 
G01 X-28.1675 Y89.2694 
G01 X-20.2714 Y89.2694 
G01 X-20.1774 Y89.2442 
G01 X-20.0932 Y89.1956 
G01 X-20.0244 Y89.1268 
G01 X-15.3356 Y84.4380 
G01 X-15.2129 Y84.5607 
G01 X-15.0567 Y84.6651 
G01 X-14.8832 Y84.7370 
G01 X-14.6989 Y84.7736 
G01 X-14.5111 Y84.7736 
G01 X-14.3268 Y84.7370 
G01 X-14.1533 Y84.6651 
G01 X-13.9971 Y84.5607 
G01 X-13.8643 Y84.4279 
G01 X-13.7599 Y84.2717 
G01 X-13.6880 Y84.0982 
G01 X-13.6514 Y83.9139 
G01 X-13.6514 Y83.7261 
G01 X-13.6880 Y83.5418 
G01 X-13.7599 Y83.3683 
G01 X-13.8643 Y83.2121 
G01 X-13.9971 Y83.0793 
G01 X-14.1533 Y82.9749 
G01 X-14.3268 Y82.9030 
G01 X-14.5111 Y82.8664 
G01 X-14.6989 Y82.8664 
G01 X-14.8832 Y82.9030 
G01 X-15.0567 Y82.9749 
G01 X-15.2129 Y83.0793 
G01 X-15.3457 Y83.2121 
G01 X-15.4501 Y83.3683 
G01 X-15.5220 Y83.5418 
G01 X-15.5313 Y83.5889 
G01 X-15.5356 Y83.5932 
G01 X-20.4730 Y88.5306 
G01 X-28.1675 Y88.5306 
G01 X-28.1675 Y88.4682 
G01 X-28.7782 Y87.8575 
G01 X-29.6418 Y87.8575 
G01 X-30.2525 Y88.4682 
G00 Z2.5400 
G00 X-30.2525 Y91.0082 
G01 Z-0.1500 F254.00 
G01 X-30.2525 Y91.8718 F508.00 
G01 X-29.6418 Y92.4825 
G01 X-28.7782 Y92.4825 
G01 X-28.1675 Y91.8718 
G01 X-28.1675 Y91.8094 
G01 X-21.5414 Y91.8094 
G01 X-21.4474 Y91.7842 
G01 X-21.3632 Y91.7356 
G01 X-21.2944 Y91.6668 
G01 X-16.6056 Y86.9780 
G01 X-16.4829 Y87.1007 
G01 X-16.3267 Y87.2051 
G01 X-16.1532 Y87.2769 
G01 X-15.9689 Y87.3136 
G01 X-15.7811 Y87.3136 
G01 X-15.5968 Y87.2769 
G01 X-15.4233 Y87.2051 
G01 X-15.2671 Y87.1007 
G01 X-15.1343 Y86.9679 
G01 X-15.0299 Y86.8117 
G01 X-14.9580 Y86.6382 
G01 X-14.9214 Y86.4539 
G01 X-14.9214 Y86.2661 
G01 X-14.9580 Y86.0818 
G01 X-15.0299 Y85.9083 
G01 X-15.1343 Y85.7521 
G01 X-15.2671 Y85.6193 
G01 X-15.4233 Y85.5149 
G01 X-15.5968 Y85.4430 
G01 X-15.7811 Y85.4064 
G01 X-15.9689 Y85.4064 
G01 X-16.1532 Y85.4430 
G01 X-16.3267 Y85.5149 
G01 X-16.4829 Y85.6193 
G01 X-16.6157 Y85.7521 
G01 X-16.7201 Y85.9083 
G01 X-16.7919 Y86.0818 
G01 X-16.8013 Y86.1289 
G01 X-16.8056 Y86.1332 
G01 X-21.7430 Y91.0706 
G01 X-28.1675 Y91.0706 
G01 X-28.1675 Y91.0082 
G01 X-28.7782 Y90.3975 
G01 X-29.6418 Y90.3975 
G01 X-29.6860 Y90.4416 
G01 X-30.2532 Y89.8744 
G01 X-30.3374 Y89.8258 
G01 X-30.4314 Y89.8006 
G01 X-36.2563 Y89.8006 
G01 X-35.7875 Y89.3318 
G01 X-35.7875 Y88.4682 
G01 X-36.3982 Y87.8575 
G01 X-37.2618 Y87.8575 
G01 X-37.8725 Y88.4682 
G01 X-37.8725 Y89.3318 
G01 X-37.4037 Y89.8006 
G01 X-37.9470 Y89.8006 
G01 X-38.6452 Y89.1024 
G01 X-38.6196 Y88.9739 
G01 X-38.6196 Y88.8261 
G01 X-38.6484 Y88.6811 
G01 X-38.7050 Y88.5446 
G01 X-38.7871 Y88.4216 
G01 X-38.8916 Y88.3171 
G01 X-39.0145 Y88.2350 
G01 X-39.1511 Y88.1784 
G01 X-39.2961 Y88.1496 
G01 X-39.4439 Y88.1496 
G01 X-39.5889 Y88.1784 
G01 X-39.7254 Y88.2350 
G01 X-39.8484 Y88.3171 
G01 X-39.9529 Y88.4216 
G01 X-40.0350 Y88.5446 
G01 X-40.0916 Y88.6811 
G01 X-40.1204 Y88.8261 
G01 X-40.1204 Y88.9739 
G01 X-40.0916 Y89.1189 
G01 X-40.0350 Y89.2554 
G01 X-39.9529 Y89.3783 
G01 X-39.8484 Y89.4829 
G01 X-39.7254 Y89.5650 
G01 X-39.5889 Y89.6216 
G01 X-39.4439 Y89.6504 
G01 X-39.2961 Y89.6504 
G01 X-39.1676 Y89.6248 
G01 X-38.3956 Y90.3968 
G01 X-38.3268 Y90.4656 
G01 X-38.2426 Y90.5142 
G01 X-38.1486 Y90.5394 
G01 X-37.4037 Y90.5394 
G01 X-37.8725 Y91.0082 
G01 X-37.8725 Y91.8718 
G01 X-37.2618 Y92.4825 
G01 X-36.3982 Y92.4825 
G01 X-35.7875 Y91.8718 
G01 X-35.7875 Y91.0082 
G01 X-36.2563 Y90.5394 
G01 X-30.6330 Y90.5394 
G01 X-30.2084 Y90.9640 
G01 X-30.2525 Y91.0082 
G00 Z2.5400 
G00 X-30.2525 Y93.5482 
G01 Z-0.1500 F254.00 
G01 X-30.2525 Y94.4118 F508.00 
G01 X-29.6418 Y95.0225 
G01 X-28.7782 Y95.0225 
G01 X-28.1675 Y94.4118 
G01 X-28.1675 Y93.5482 
G01 X-28.7782 Y92.9375 
G01 X-29.6418 Y92.9375 
G01 X-30.2525 Y93.5482 
G00 Z2.5400 
G00 X-37.8725 Y85.9282 
G01 Z-0.1500 F254.00 
G01 X-37.8725 Y85.9906 F508.00 
G01 X-49.1606 Y85.9906 
G01 X-49.1606 Y77.6230 
G01 X-47.3704 Y75.8328 
G01 X-46.2407 Y75.8328 
G01 X-46.0663 Y75.7981 
G01 X-45.9020 Y75.7300 
G01 X-45.7541 Y75.6312 
G01 X-45.6284 Y75.5055 
G01 X-45.5296 Y75.3576 
G01 X-45.4615 Y75.1933 
G01 X-45.4268 Y75.0189 
G01 X-45.4268 Y74.8411 
G01 X-45.4615 Y74.6667 
G01 X-45.5296 Y74.5024 
G01 X-45.6284 Y74.3545 
G01 X-45.7541 Y74.2288 
G01 X-45.9020 Y74.1300 
G01 X-46.0663 Y74.0619 
G01 X-46.2407 Y74.0272 
G01 X-47.7393 Y74.0272 
G01 X-47.9137 Y74.0619 
G01 X-48.0780 Y74.1300 
G01 X-48.2259 Y74.2288 
G01 X-48.3516 Y74.3545 
G01 X-48.4504 Y74.5024 
G01 X-48.5185 Y74.6667 
G01 X-48.5532 Y74.8411 
G01 X-48.5532 Y75.0189 
G01 X-48.5185 Y75.1933 
G01 X-48.4504 Y75.3576 
G01 X-48.3516 Y75.5055 
G01 X-48.2259 Y75.6312 
G01 X-48.2186 Y75.6362 
G01 X-49.7568 Y77.1744 
G01 X-49.8256 Y77.2432 
G01 X-49.8742 Y77.3274 
G01 X-49.8994 Y77.4214 
G01 X-49.8994 Y86.4086 
G01 X-49.8742 Y86.5026 
G01 X-49.8256 Y86.5868 
G01 X-49.7568 Y86.6556 
G01 X-49.6726 Y86.7042 
G01 X-49.5786 Y86.7294 
G01 X-37.8725 Y86.7294 
G01 X-37.8725 Y86.7918 
G01 X-37.2618 Y87.4025 
G01 X-36.3982 Y87.4025 
G01 X-35.7875 Y86.7918 
G01 X-35.7875 Y85.9282 
G01 X-36.3982 Y85.3175 
G01 X-37.2618 Y85.3175 
G01 X-37.8725 Y85.9282 
G00 Z2.5400 
G00 X-13.0186 Y83.7261 
G01 Z-0.1500 F254.00 
G01 X-13.0186 Y83.9139 F508.00 
G01 X-12.9820 Y84.0982 
G01 X-12.9101 Y84.2717 
G01 X-12.8057 Y84.4279 
G01 X-12.6729 Y84.5607 
G01 X-12.5167 Y84.6651 
G01 X-12.3432 Y84.7370 
G01 X-12.1589 Y84.7736 
G01 X-11.9711 Y84.7736 
G01 X-11.7868 Y84.7370 
G01 X-11.6133 Y84.6651 
G01 X-11.4571 Y84.5607 
G01 X-11.3344 Y84.4380 
G01 X-7.9156 Y87.8568 
G01 X-7.8468 Y87.9256 
G01 X-7.7626 Y87.9742 
G01 X-7.6686 Y87.9994 
G01 X-5.6644 Y87.9994 
G01 X-5.6496 Y88.0448 
G01 X-5.5724 Y88.1964 
G01 X-5.4724 Y88.3340 
G01 X-5.3522 Y88.4542 
G01 X-5.2146 Y88.5542 
G01 X-5.0630 Y88.6314 
G01 X-4.9012 Y88.6840 
G01 X-4.7332 Y88.7106 
G01 X-2.8868 Y88.7106 
G01 X-2.7188 Y88.6840 
G01 X-2.5570 Y88.6314 
G01 X-2.4054 Y88.5542 
G01 X-2.2678 Y88.4542 
G01 X-2.1476 Y88.3340 
G01 X-2.0476 Y88.1964 
G01 X-1.9704 Y88.0448 
G01 X-1.9178 Y87.8830 
G01 X-1.8912 Y87.7150 
G01 X-1.8912 Y87.5450 
G01 X-1.9178 Y87.3770 
G01 X-1.9704 Y87.2152 
G01 X-2.0476 Y87.0636 
G01 X-2.1476 Y86.9260 
G01 X-2.2678 Y86.8058 
G01 X-2.4054 Y86.7058 
G01 X-2.5570 Y86.6286 
G01 X-2.7188 Y86.5760 
G01 X-2.8868 Y86.5494 
G01 X-4.7332 Y86.5494 
G01 X-4.9012 Y86.5760 
G01 X-5.0630 Y86.6286 
G01 X-5.2146 Y86.7058 
G01 X-5.3522 Y86.8058 
G01 X-5.4724 Y86.9260 
G01 X-5.5724 Y87.0636 
G01 X-5.6496 Y87.2152 
G01 X-5.6644 Y87.2606 
G01 X-7.4670 Y87.2606 
G01 X-11.1344 Y83.5932 
G01 X-11.1387 Y83.5889 
G01 X-11.1480 Y83.5418 
G01 X-11.2199 Y83.3683 
G01 X-11.3243 Y83.2121 
G01 X-11.4571 Y83.0793 
G01 X-11.6133 Y82.9749 
G01 X-11.7868 Y82.9030 
G01 X-11.9711 Y82.8664 
G01 X-12.1589 Y82.8664 
G01 X-12.3432 Y82.9030 
G01 X-12.5167 Y82.9749 
G01 X-12.6729 Y83.0793 
G01 X-12.8057 Y83.2121 
G01 X-12.9101 Y83.3683 
G01 X-12.9820 Y83.5418 
G01 X-13.0186 Y83.7261 
G00 Z2.5400 
G00 X-14.2886 Y86.2661 
G01 Z-0.1500 F254.00 
G01 X-14.2886 Y86.4539 F508.00 
G01 X-14.2520 Y86.6382 
G01 X-14.1801 Y86.8117 
G01 X-14.0757 Y86.9679 
G01 X-13.9429 Y87.1007 
G01 X-13.7867 Y87.2051 
G01 X-13.6132 Y87.2769 
G01 X-13.4289 Y87.3136 
G01 X-13.2411 Y87.3136 
G01 X-13.0568 Y87.2769 
G01 X-12.8833 Y87.2051 
G01 X-12.7271 Y87.1007 
G01 X-12.5943 Y86.9679 
G01 X-12.4899 Y86.8117 
G01 X-12.4180 Y86.6382 
G01 X-12.3814 Y86.4539 
G01 X-12.3814 Y86.2661 
G01 X-12.4180 Y86.0818 
G01 X-12.4899 Y85.9083 
G01 X-12.5943 Y85.7521 
G01 X-12.7271 Y85.6193 
G01 X-12.8833 Y85.5149 
G01 X-13.0568 Y85.4430 
G01 X-13.2411 Y85.4064 
G01 X-13.4289 Y85.4064 
G01 X-13.6132 Y85.4430 
G01 X-13.7867 Y85.5149 
G01 X-13.9429 Y85.6193 
G01 X-14.0757 Y85.7521 
G01 X-14.1801 Y85.9083 
G01 X-14.2520 Y86.0818 
G01 X-14.2886 Y86.2661 
G00 Z2.5400 
G00 X-81.2174 Y3.6709 
G01 Z-0.1500 F254.00 
G01 X-81.2174 Y3.9491 F508.00 
G01 X-81.1862 Y4.2256 
G01 X-81.1243 Y4.4969 
G01 X-81.0324 Y4.7596 
G01 X-80.9117 Y5.0103 
G01 X-80.7636 Y5.2459 
G01 X-80.5902 Y5.4634 
G01 X-80.3934 Y5.6602 
G01 X-80.1759 Y5.8337 
G01 X-79.9403 Y5.9817 
G01 X-79.6896 Y6.1024 
G01 X-79.4269 Y6.1943 
G01 X-79.1556 Y6.2562 
G01 X-78.8791 Y6.2874 
G01 X-78.6009 Y6.2874 
G01 X-78.3244 Y6.2562 
G01 X-78.0531 Y6.1943 
G01 X-77.7904 Y6.1024 
G01 X-77.5397 Y5.9817 
G01 X-77.3041 Y5.8337 
G01 X-77.0866 Y5.6602 
G01 X-76.8898 Y5.4634 
G01 X-76.7163 Y5.2459 
G01 X-76.5683 Y5.0103 
G01 X-76.4476 Y4.7596 
G01 X-76.3557 Y4.4969 
G01 X-76.2938 Y4.2256 
G01 X-76.2626 Y3.9491 
G01 X-76.2626 Y3.6709 
G01 X-76.2938 Y3.3944 
G01 X-76.3557 Y3.1231 
G01 X-76.4476 Y2.8604 
G01 X-76.5683 Y2.6097 
G01 X-76.7163 Y2.3741 
G01 X-76.8898 Y2.1566 
G01 X-77.0866 Y1.9598 
G01 X-77.3041 Y1.7863 
G01 X-77.5397 Y1.6383 
G01 X-77.7904 Y1.5176 
G01 X-78.0531 Y1.4257 
G01 X-78.3244 Y1.3638 
G01 X-78.6009 Y1.3326 
G01 X-78.8791 Y1.3326 
G01 X-79.1556 Y1.3638 
G01 X-79.4269 Y1.4257 
G01 X-79.6896 Y1.5176 
G01 X-79.9403 Y1.6383 
G01 X-80.1759 Y1.7863 
G01 X-80.3934 Y1.9598 
G01 X-80.5902 Y2.1566 
G01 X-80.7636 Y2.3741 
G01 X-80.9117 Y2.6097 
G01 X-81.0324 Y2.8604 
G01 X-81.1243 Y3.1231 
G01 X-81.1862 Y3.3944 
G01 X-81.2174 Y3.6709 
G00 Z2.5400 
G00 X-79.9474 Y96.3809 
G01 Z-0.1500 F254.00 
G01 X-79.9474 Y96.6591 F508.00 
G01 X-79.9162 Y96.9356 
G01 X-79.8543 Y97.2069 
G01 X-79.7624 Y97.4696 
G01 X-79.6417 Y97.7203 
G01 X-79.4937 Y97.9559 
G01 X-79.3202 Y98.1734 
G01 X-79.1234 Y98.3702 
G01 X-78.9059 Y98.5436 
G01 X-78.6703 Y98.6917 
G01 X-78.4196 Y98.8124 
G01 X-78.1569 Y98.9043 
G01 X-77.8856 Y98.9662 
G01 X-77.6091 Y98.9974 
G01 X-77.3309 Y98.9974 
G01 X-77.0544 Y98.9662 
G01 X-76.7831 Y98.9043 
G01 X-76.5204 Y98.8124 
G01 X-76.2697 Y98.6917 
G01 X-76.0341 Y98.5436 
G01 X-75.8166 Y98.3702 
G01 X-75.6198 Y98.1734 
G01 X-75.4463 Y97.9559 
G01 X-75.2983 Y97.7203 
G01 X-75.1776 Y97.4696 
G01 X-75.0857 Y97.2069 
G01 X-75.0238 Y96.9356 
G01 X-74.9926 Y96.6591 
G01 X-74.9926 Y96.3809 
G01 X-75.0238 Y96.1044 
G01 X-75.0857 Y95.8331 
G01 X-75.1776 Y95.5704 
G01 X-75.2983 Y95.3197 
G01 X-75.4463 Y95.0841 
G01 X-75.6198 Y94.8666 
G01 X-75.8166 Y94.6698 
G01 X-76.0341 Y94.4963 
G01 X-76.2697 Y94.3483 
G01 X-76.5204 Y94.2276 
G01 X-76.7831 Y94.1357 
G01 X-77.0544 Y94.0738 
G01 X-77.3309 Y94.0426 
G01 X-77.6091 Y94.0426 
G01 X-77.8856 Y94.0738 
G01 X-78.1569 Y94.1357 
G01 X-78.4196 Y94.2276 
G01 X-78.6703 Y94.3483 
G01 X-78.9059 Y94.4963 
G01 X-79.1234 Y94.6698 
G01 X-79.3202 Y94.8666 
G01 X-79.4937 Y95.0841 
G01 X-79.6417 Y95.3197 
G01 X-79.7624 Y95.5704 
G01 X-79.8543 Y95.8331 
G01 X-79.9162 Y96.1044 
G01 X-79.9474 Y96.3809 
G00 Z2.5400 
G00 X-6.2874 Y3.6709 
G01 Z-0.1500 F254.00 
G01 X-6.2874 Y3.9491 F508.00 
G01 X-6.2562 Y4.2256 
G01 X-6.1943 Y4.4969 
G01 X-6.1024 Y4.7596 
G01 X-5.9817 Y5.0103 
G01 X-5.8337 Y5.2459 
G01 X-5.6602 Y5.4634 
G01 X-5.4634 Y5.6602 
G01 X-5.2459 Y5.8337 
G01 X-5.0103 Y5.9817 
G01 X-4.7596 Y6.1024 
G01 X-4.4969 Y6.1943 
G01 X-4.2256 Y6.2562 
G01 X-3.9491 Y6.2874 
G01 X-3.6709 Y6.2874 
G01 X-3.3944 Y6.2562 
G01 X-3.1231 Y6.1943 
G01 X-2.8604 Y6.1024 
G01 X-2.6097 Y5.9817 
G01 X-2.3741 Y5.8337 
G01 X-2.1566 Y5.6602 
G01 X-1.9598 Y5.4634 
G01 X-1.7863 Y5.2459 
G01 X-1.6383 Y5.0103 
G01 X-1.5176 Y4.7596 
G01 X-1.4257 Y4.4969 
G01 X-1.3638 Y4.2256 
G01 X-1.3326 Y3.9491 
G01 X-1.3326 Y3.6709 
G01 X-1.3638 Y3.3944 
G01 X-1.4257 Y3.1231 
G01 X-1.5176 Y2.8604 
G01 X-1.6383 Y2.6097 
G01 X-1.7863 Y2.3741 
G01 X-1.9598 Y2.1566 
G01 X-2.1566 Y1.9598 
G01 X-2.3741 Y1.7863 
G01 X-2.6097 Y1.6383 
G01 X-2.8604 Y1.5176 
G01 X-3.1231 Y1.4257 
G01 X-3.3944 Y1.3638 
G01 X-3.6709 Y1.3326 
G01 X-3.9491 Y1.3326 
G01 X-4.2256 Y1.3638 
G01 X-4.4969 Y1.4257 
G01 X-4.7596 Y1.5176 
G01 X-5.0103 Y1.6383 
G01 X-5.2459 Y1.7863 
G01 X-5.4634 Y1.9598 
G01 X-5.6602 Y2.1566 
G01 X-5.8337 Y2.3741 
G01 X-5.9817 Y2.6097 
G01 X-6.1024 Y2.8604 
G01 X-6.1943 Y3.1231 
G01 X-6.2562 Y3.3944 
G01 X-6.2874 Y3.6709 
G00 Z2.5400 
G00 X-6.2874 Y96.3809 
G01 Z-0.1500 F254.00 
G01 X-6.2874 Y96.6591 F508.00 
G01 X-6.2562 Y96.9356 
G01 X-6.1943 Y97.2069 
G01 X-6.1024 Y97.4696 
G01 X-5.9817 Y97.7203 
G01 X-5.8337 Y97.9559 
G01 X-5.6602 Y98.1734 
G01 X-5.4634 Y98.3702 
G01 X-5.2459 Y98.5436 
G01 X-5.0103 Y98.6917 
G01 X-4.7596 Y98.8124 
G01 X-4.4969 Y98.9043 
G01 X-4.2256 Y98.9662 
G01 X-3.9491 Y98.9974 
G01 X-3.6709 Y98.9974 
G01 X-3.3944 Y98.9662 
G01 X-3.1231 Y98.9043 
G01 X-2.8604 Y98.8124 
G01 X-2.6097 Y98.6917 
G01 X-2.3741 Y98.5436 
G01 X-2.1566 Y98.3702 
G01 X-1.9598 Y98.1734 
G01 X-1.7863 Y97.9559 
G01 X-1.6383 Y97.7203 
G01 X-1.5176 Y97.4696 
G01 X-1.4257 Y97.2069 
G01 X-1.3638 Y96.9356 
G01 X-1.3326 Y96.6591 
G01 X-1.3326 Y96.3809 
G01 X-1.3638 Y96.1044 
G01 X-1.4257 Y95.8331 
G01 X-1.5176 Y95.5704 
G01 X-1.6383 Y95.3197 
G01 X-1.7863 Y95.0841 
G01 X-1.9598 Y94.8666 
G01 X-2.1566 Y94.6698 
G01 X-2.3741 Y94.4963 
G01 X-2.6097 Y94.3483 
G01 X-2.8604 Y94.2276 
G01 X-3.1231 Y94.1357 
G01 X-3.3944 Y94.0738 
G01 X-3.6709 Y94.0426 
G01 X-3.9491 Y94.0426 
G01 X-4.2256 Y94.0738 
G01 X-4.4969 Y94.1357 
G01 X-4.7596 Y94.2276 
G01 X-5.0103 Y94.3483 
G01 X-5.2459 Y94.4963 
G01 X-5.4634 Y94.6698 
G01 X-5.6602 Y94.8666 
G01 X-5.8337 Y95.0841 
G01 X-5.9817 Y95.3197 
G01 X-6.1024 Y95.5704 
G01 X-6.1943 Y95.8331 
G01 X-6.2562 Y96.1044 
G01 X-6.2874 Y96.3809 
G00 Z2.5400 
G00 X-37.5536 Y81.7764 
G01 Z-0.1500 F254.00 
G01 X-37.5115 Y81.8393 F508.00 
G01 X-37.3893 Y81.9615 
G01 X-37.2456 Y82.0575 
G01 X-37.0859 Y82.1237 
G01 X-36.9164 Y82.1574 
G01 X-36.7436 Y82.1574 
G01 X-36.5741 Y82.1237 
G01 X-36.4144 Y82.0575 
G01 X-36.2707 Y81.9615 
G01 X-36.1485 Y81.8393 
G01 X-36.0525 Y81.6956 
G01 X-35.9863 Y81.5359 
G01 X-35.9526 Y81.3664 
G01 X-35.9526 Y81.1936 
G01 X-35.9863 Y81.0241 
G01 X-36.0525 Y80.8644 
G01 X-36.1485 Y80.7207 
G01 X-36.2707 Y80.5985 
G01 X-36.4144 Y80.5025 
G01 X-36.5741 Y80.4363 
G01 X-36.7436 Y80.4026 
G01 X-36.9164 Y80.4026 
G01 X-37.0859 Y80.4363 
G01 X-37.2456 Y80.5025 
G01 X-37.3893 Y80.5985 
G01 X-37.5115 Y80.7207 
G01 X-37.5536 Y80.7836 
G01 X-43.7264 Y80.7836 
G01 X-43.7685 Y80.7207 
G01 X-43.8907 Y80.5985 
G01 X-44.0344 Y80.5025 
G01 X-44.1941 Y80.4363 
G01 X-44.3636 Y80.4026 
G01 X-44.5364 Y80.4026 
G01 X-44.7059 Y80.4363 
G01 X-44.8656 Y80.5025 
G01 X-45.0093 Y80.5985 
G01 X-45.1315 Y80.7207 
G01 X-45.2275 Y80.8644 
G01 X-45.2937 Y81.0241 
G01 X-45.3274 Y81.1936 
G01 X-45.3274 Y81.3664 
G01 X-45.2937 Y81.5359 
G01 X-45.2275 Y81.6956 
G01 X-45.1315 Y81.8393 
G01 X-45.0093 Y81.9615 
G01 X-44.8656 Y82.0575 
G01 X-44.7059 Y82.1237 
G01 X-44.5364 Y82.1574 
G01 X-44.3636 Y82.1574 
G01 X-44.1941 Y82.1237 
G01 X-44.0344 Y82.0575 
G01 X-43.8907 Y81.9615 
G01 X-43.7685 Y81.8393 
G01 X-43.7264 Y81.7764 
G01 X-37.5536 Y81.7764 
G00 Z2.5400 
G00 X-2.8768 Y90.2324 
G01 Z-0.1500 F254.00 
G01 X-4.7432 Y90.2324 F508.00 
G01 X-4.9310 Y90.2621 
G01 X-5.1118 Y90.3209 
G01 X-5.2811 Y90.4072 
G01 X-5.4349 Y90.5189 
G01 X-5.5693 Y90.6533 
G01 X-5.6810 Y90.8071 
G01 X-5.7673 Y90.9764 
G01 X-5.8261 Y91.1572 
G01 X-5.8558 Y91.3450 
G01 X-5.8558 Y91.5350 
G01 X-5.8261 Y91.7228 
G01 X-5.7673 Y91.9036 
G01 X-5.6810 Y92.0729 
G01 X-5.5693 Y92.2267 
G01 X-5.4349 Y92.3611 
G01 X-5.2811 Y92.4728 
G01 X-5.1118 Y92.5591 
G01 X-4.9310 Y92.6179 
G01 X-4.7432 Y92.6476 
G01 X-2.8768 Y92.6476 
G01 X-2.6890 Y92.6179 
G01 X-2.5082 Y92.5591 
G01 X-2.3389 Y92.4728 
G01 X-2.1851 Y92.3611 
G01 X-2.0507 Y92.2267 
G01 X-1.9390 Y92.0729 
G01 X-1.8527 Y91.9036 
G01 X-1.7939 Y91.7228 
G01 X-1.7642 Y91.5350 
G01 X-1.7642 Y91.3450 
G01 X-1.7939 Y91.1572 
G01 X-1.8527 Y90.9764 
G01 X-1.9390 Y90.8071 
G01 X-2.0507 Y90.6533 
G01 X-2.1851 Y90.5189 
G01 X-2.3389 Y90.4072 
G01 X-2.5082 Y90.3209 
G01 X-2.6890 Y90.2621 
G01 X-2.8768 Y90.2324 
G00 Z2.5400 
G00 X-2.8768 Y82.6124 
G01 Z-0.1500 F254.00 
G01 X-4.7432 Y82.6124 F508.00 
G01 X-4.9310 Y82.6421 
G01 X-5.1118 Y82.7009 
G01 X-5.2811 Y82.7872 
G01 X-5.4349 Y82.8989 
G01 X-5.5693 Y83.0333 
G01 X-5.6810 Y83.1871 
G01 X-5.7673 Y83.3564 
G01 X-5.8261 Y83.5372 
G01 X-5.8558 Y83.7250 
G01 X-5.8558 Y83.9150 
G01 X-5.8261 Y84.1028 
G01 X-5.7673 Y84.2836 
G01 X-5.6810 Y84.4529 
G01 X-5.5693 Y84.6067 
G01 X-5.4349 Y84.7411 
G01 X-5.2811 Y84.8528 
G01 X-5.1118 Y84.9391 
G01 X-4.9310 Y84.9979 
G01 X-4.7432 Y85.0276 
G01 X-2.8768 Y85.0276 
G01 X-2.6890 Y84.9979 
G01 X-2.5082 Y84.9391 
G01 X-2.3389 Y84.8528 
G01 X-2.1851 Y84.7411 
G01 X-2.0507 Y84.6067 
G01 X-1.9390 Y84.4529 
G01 X-1.8527 Y84.2836 
G01 X-1.7939 Y84.1028 
G01 X-1.7642 Y83.9150 
G01 X-1.7642 Y83.7250 
G01 X-1.7939 Y83.5372 
G01 X-1.8527 Y83.3564 
G01 X-1.9390 Y83.1871 
G01 X-2.0507 Y83.0333 
G01 X-2.1851 Y82.8989 
G01 X-2.3389 Y82.7872 
G01 X-2.5082 Y82.7009 
G01 X-2.6890 Y82.6421 
G01 X-2.8768 Y82.6124 
G00 Z2.5400 
G00 X-29.9604 Y71.2964 
G01 Z-0.1500 F254.00 
G01 X-29.9604 Y71.5024 F508.00 
G01 X-29.9282 Y71.7060 
G01 X-29.8645 Y71.9020 
G01 X-29.7709 Y72.0856 
G01 X-29.6498 Y72.2523 
G01 X-29.5041 Y72.3980 
G01 X-29.3374 Y72.5191 
G01 X-29.1538 Y72.6127 
G01 X-28.9578 Y72.6764 
G01 X-28.7542 Y72.7086 
G01 X-28.5482 Y72.7086 
G01 X-28.3446 Y72.6764 
G01 X-28.1486 Y72.6127 
G01 X-27.9650 Y72.5191 
G01 X-27.7983 Y72.3980 
G01 X-27.6526 Y72.2523 
G01 X-27.5315 Y72.0856 
G01 X-27.4379 Y71.9020 
G01 X-27.3742 Y71.7060 
G01 X-27.3420 Y71.5024 
G01 X-27.3420 Y71.2964 
G01 X-27.3742 Y71.0928 
G01 X-27.4379 Y70.8968 
G01 X-27.5315 Y70.7132 
G01 X-27.6526 Y70.5465 
