(.../pcb-gcode-3.6.0.4/pcb-gcode.ulp)
(Copyright 2005 - 2012 by John Johnson)
(See readme.txt for licensing terms.)
(This file generated from the board:)
(.../eagle/ARMEDBASE_V0/RTU/RTU.brd)
(Current profile is .../pcb-gcode-3.6.0.4/profiles/emc.pp  )
(This file generated 6/25/2014 4:48:48 PM)
(Settings from pcb-machine.h)
(  Tool Size)
(0.2000 )
(Z Axis Settings)
(  High     Up        Down     Drill)
(12.7000 	2.5400 	-0.1500 	-0.8128 )
(spindle on time = 3.0000)
(milling depth = -0.1500)
(text depth = -0.1270)
(tool change at 12.7000 15.2400 25.4000 )
(feed rate xy = F508.00 )
(feed rate z  = F254.00 )
(Settings from pcb-defaults.h)
(isolate min = 0.0154)
(isolate max = 0.5080)
(isolate step = 0.1270)
(Generated top outlines, top drill, bottom outlines, bottom drill, )
(Unit of measure: mm)
(Metric Mode)
G21
(Absolute Coordinates)
G90
G00 X0.0000 Y0.0000 
M03
G04 P3.000000
G00 Z2.5400 
G00 X-19.2098 Y87.8711 
G01 Z-0.1500 F254.00 
G01 X-19.1475 Y88.0215 F508.00 
G01 X-19.0571 Y88.1569 
G01 X-18.9419 Y88.2721 
G01 X-18.8065 Y88.3625 
G01 X-18.6561 Y88.4248 
G01 X-18.4964 Y88.4566 
G01 X-18.3336 Y88.4566 
G01 X-18.1739 Y88.4248 
G01 X-18.0235 Y88.3625 
G01 X-17.8881 Y88.2721 
G01 X-17.7729 Y88.1569 
G01 X-17.6825 Y88.0215 
G01 X-17.6202 Y87.8711 
G01 X-17.5884 Y87.7114 
G01 X-17.5884 Y87.5486 
G01 X-17.6202 Y87.3889 
G01 X-17.6825 Y87.2385 
G01 X-17.7729 Y87.1031 
G01 X-17.8881 Y86.9879 
G01 X-18.0235 Y86.8975 
G01 X-18.1739 Y86.8352 
G01 X-18.3336 Y86.8034 
G01 X-18.4964 Y86.8034 
G01 X-18.6561 Y86.8352 
G01 X-18.8065 Y86.8975 
G01 X-18.9419 Y86.9879 
G01 X-19.0571 Y87.1031 
G01 X-19.1280 Y87.2092 
G01 X-20.1145 Y86.2227 
G01 X-20.1827 Y86.1545 
G01 X-20.2718 Y86.1176 
G01 X-34.1896 Y86.1176 
G01 X-36.6245 Y83.6827 
G01 X-36.6927 Y83.6145 
G01 X-36.7818 Y83.5776 
G01 X-40.9945 Y83.5776 
G01 X-40.9945 Y83.4408 
G01 X-41.5308 Y82.9045 
G01 X-42.2892 Y82.9045 
G01 X-42.8255 Y83.4408 
G01 X-42.8255 Y84.1992 
G01 X-42.2892 Y84.7355 
G01 X-41.5308 Y84.7355 
G01 X-40.9945 Y84.1992 
G01 X-40.9945 Y84.0624 
G01 X-36.9304 Y84.0624 
G01 X-34.4955 Y86.4973 
G01 X-34.4273 Y86.5655 
G01 X-33.2255 Y87.7673 
G01 X-33.1943 Y87.7985 
G01 X-33.1798 Y87.8711 
G01 X-33.1175 Y88.0215 
G01 X-33.0271 Y88.1569 
G01 X-32.9119 Y88.2721 
G01 X-32.7765 Y88.3625 
G01 X-32.6261 Y88.4248 
G01 X-32.4664 Y88.4566 
G01 X-32.3036 Y88.4566 
G01 X-32.1439 Y88.4248 
G01 X-31.9935 Y88.3625 
G01 X-31.8581 Y88.2721 
G01 X-31.7429 Y88.1569 
G01 X-31.6525 Y88.0215 
G01 X-31.5902 Y87.8711 
G01 X-31.5584 Y87.7114 
G01 X-31.5584 Y87.5486 
G01 X-31.5902 Y87.3889 
G01 X-31.6525 Y87.2385 
G01 X-31.7429 Y87.1031 
G01 X-31.8581 Y86.9879 
G01 X-31.9935 Y86.8975 
G01 X-32.1439 Y86.8352 
G01 X-32.3036 Y86.8034 
G01 X-32.4664 Y86.8034 
G01 X-32.6261 Y86.8352 
G01 X-32.7765 Y86.8975 
G01 X-32.9119 Y86.9879 
G01 X-33.0271 Y87.1031 
G01 X-33.0980 Y87.2092 
G01 X-33.7048 Y86.6024 
G01 X-20.4204 Y86.6024 
G01 X-19.2555 Y87.7673 
G01 X-19.2243 Y87.7985 
G01 X-19.2098 Y87.8711 
G00 Z2.5400 
G00 X-20.5116 Y90.0886 
G01 Z-0.1500 F254.00 
G01 X-20.5116 Y90.2514 F508.00 
G01 X-20.4798 Y90.4111 
G01 X-20.4175 Y90.5615 
G01 X-20.3271 Y90.6969 
G01 X-20.2119 Y90.8121 
G01 X-20.0765 Y90.9025 
G01 X-19.9261 Y90.9648 
G01 X-19.7664 Y90.9966 
G01 X-19.6036 Y90.9966 
G01 X-19.4439 Y90.9648 
G01 X-19.2935 Y90.9025 
G01 X-19.1581 Y90.8121 
G01 X-19.0429 Y90.6969 
G01 X-18.9525 Y90.5615 
G01 X-18.8902 Y90.4111 
G01 X-18.8584 Y90.2514 
G01 X-18.8584 Y90.0886 
G01 X-18.8902 Y89.9289 
G01 X-18.9525 Y89.7785 
G01 X-19.0429 Y89.6431 
G01 X-19.1581 Y89.5279 
G01 X-19.2935 Y89.4375 
G01 X-19.4439 Y89.3752 
G01 X-19.6036 Y89.3434 
G01 X-19.7664 Y89.3434 
G01 X-19.9261 Y89.3752 
G01 X-20.0765 Y89.4375 
G01 X-20.2119 Y89.5279 
G01 X-20.3271 Y89.6431 
G01 X-20.4175 Y89.7785 
G01 X-20.4798 Y89.9289 
G01 X-20.5116 Y90.0886 
G00 Z2.5400 
G00 X-1.6079 Y90.4864 
G01 Z-0.1500 F254.00 
G01 X-3.4721 Y90.4864 F508.00 
G01 X-3.6564 Y90.5230 
G01 X-3.8299 Y90.5949 
G01 X-3.9861 Y90.6993 
G01 X-4.1189 Y90.8321 
G01 X-4.2233 Y90.9883 
G01 X-4.2952 Y91.1618 
G01 X-4.3318 Y91.3461 
G01 X-4.3318 Y91.5339 
G01 X-4.2952 Y91.7182 
G01 X-4.2233 Y91.8917 
G01 X-4.1189 Y92.0479 
G01 X-3.9861 Y92.1807 
G01 X-3.8299 Y92.2851 
G01 X-3.6564 Y92.3569 
G01 X-3.4721 Y92.3936 
G01 X-1.6079 Y92.3936 
G01 X-1.4236 Y92.3569 
G01 X-1.2501 Y92.2851 
G01 X-1.0939 Y92.1807 
G01 X-0.9611 Y92.0479 
G01 X-0.8567 Y91.8917 
G01 X-0.7848 Y91.7182 
G01 X-0.7482 Y91.5339 
G01 X-0.7482 Y91.3461 
G01 X-0.7848 Y91.1618 
G01 X-0.8567 Y90.9883 
G01 X-0.9611 Y90.8321 
G01 X-1.0939 Y90.6993 
G01 X-1.2501 Y90.5949 
G01 X-1.4236 Y90.5230 
G01 X-1.6079 Y90.4864 
G00 Z2.5400 
G00 X-1.6079 Y86.6764 
G01 Z-0.1500 F254.00 
G01 X-3.4721 Y86.6764 F508.00 
G01 X-3.6564 Y86.7130 
G01 X-3.8299 Y86.7849 
G01 X-3.9861 Y86.8893 
G01 X-4.1189 Y87.0221 
G01 X-4.2233 Y87.1783 
G01 X-4.2952 Y87.3518 
G01 X-4.3023 Y87.3876 
G01 X-15.0807 Y87.3876 
G01 X-15.1425 Y87.2385 
G01 X-15.2329 Y87.1031 
G01 X-15.3481 Y86.9879 
G01 X-15.4835 Y86.8975 
G01 X-15.6339 Y86.8352 
G01 X-15.7936 Y86.8034 
G01 X-15.9564 Y86.8034 
G01 X-16.1161 Y86.8352 
G01 X-16.2665 Y86.8975 
G01 X-16.4019 Y86.9879 
G01 X-16.5171 Y87.1031 
G01 X-16.6075 Y87.2385 
G01 X-16.6698 Y87.3889 
G01 X-16.6843 Y87.4615 
G01 X-16.7155 Y87.4927 
G01 X-17.8804 Y88.6576 
G01 X-27.8396 Y88.6576 
G01 X-29.0045 Y87.4927 
G01 X-29.0357 Y87.4615 
G01 X-29.0502 Y87.3889 
G01 X-29.1125 Y87.2385 
G01 X-29.2029 Y87.1031 
G01 X-29.3181 Y86.9879 
G01 X-29.4535 Y86.8975 
G01 X-29.6039 Y86.8352 
G01 X-29.7636 Y86.8034 
G01 X-29.9264 Y86.8034 
G01 X-30.0861 Y86.8352 
G01 X-30.2365 Y86.8975 
G01 X-30.3719 Y86.9879 
G01 X-30.4871 Y87.1031 
G01 X-30.5775 Y87.2385 
G01 X-30.6398 Y87.3889 
G01 X-30.6716 Y87.5486 
G01 X-30.6716 Y87.7114 
G01 X-30.6398 Y87.8711 
G01 X-30.5775 Y88.0215 
G01 X-30.4871 Y88.1569 
G01 X-30.3719 Y88.2721 
G01 X-30.2365 Y88.3625 
G01 X-30.0861 Y88.4248 
G01 X-29.9264 Y88.4566 
G01 X-29.7636 Y88.4566 
G01 X-29.6039 Y88.4248 
G01 X-29.4535 Y88.3625 
G01 X-29.3181 Y88.2721 
G01 X-29.2029 Y88.1569 
G01 X-29.1320 Y88.0508 
G01 X-28.1455 Y89.0373 
G01 X-28.0773 Y89.1055 
G01 X-27.9882 Y89.1424 
G01 X-17.7318 Y89.1424 
G01 X-17.6427 Y89.1055 
G01 X-16.5880 Y88.0508 
G01 X-16.5171 Y88.1569 
G01 X-16.4019 Y88.2721 
G01 X-16.2665 Y88.3625 
G01 X-16.1161 Y88.4248 
G01 X-15.9564 Y88.4566 
G01 X-15.7936 Y88.4566 
G01 X-15.6339 Y88.4248 
G01 X-15.4835 Y88.3625 
G01 X-15.3481 Y88.2721 
G01 X-15.2329 Y88.1569 
G01 X-15.1425 Y88.0215 
G01 X-15.0807 Y87.8724 
G01 X-4.3023 Y87.8724 
G01 X-4.2952 Y87.9082 
G01 X-4.2233 Y88.0817 
G01 X-4.1189 Y88.2379 
G01 X-3.9861 Y88.3707 
G01 X-3.8299 Y88.4751 
G01 X-3.6564 Y88.5470 
G01 X-3.4721 Y88.5836 
G01 X-1.6079 Y88.5836 
G01 X-1.4236 Y88.5470 
G01 X-1.2501 Y88.4751 
G01 X-1.0939 Y88.3707 
G01 X-0.9611 Y88.2379 
G01 X-0.8567 Y88.0817 
G01 X-0.7848 Y87.9082 
G01 X-0.7482 Y87.7239 
G01 X-0.7482 Y87.5361 
G01 X-0.7848 Y87.3518 
G01 X-0.8567 Y87.1783 
G01 X-0.9611 Y87.0221 
G01 X-1.0939 Y86.8893 
G01 X-1.2501 Y86.7849 
G01 X-1.4236 Y86.7130 
G01 X-1.6079 Y86.6764 
G00 Z2.5400 
G00 X-1.6079 Y82.8664 
G01 Z-0.1500 F254.00 
G01 X-3.4721 Y82.8664 F508.00 
G01 X-3.6564 Y82.9030 
G01 X-3.8299 Y82.9749 
G01 X-3.9861 Y83.0793 
G01 X-4.1189 Y83.2121 
G01 X-4.2233 Y83.3683 
G01 X-4.2952 Y83.5418 
G01 X-4.3318 Y83.7261 
G01 X-4.3318 Y83.9139 
G01 X-4.2952 Y84.0982 
G01 X-4.2233 Y84.2717 
G01 X-4.1189 Y84.4279 
G01 X-3.9861 Y84.5607 
G01 X-3.8299 Y84.6651 
G01 X-3.6564 Y84.7370 
G01 X-3.4721 Y84.7736 
G01 X-1.6079 Y84.7736 
G01 X-1.4236 Y84.7370 
G01 X-1.2501 Y84.6651 
G01 X-1.0939 Y84.5607 
G01 X-0.9611 Y84.4279 
G01 X-0.8567 Y84.2717 
G01 X-0.7848 Y84.0982 
G01 X-0.7482 Y83.9139 
G01 X-0.7482 Y83.7261 
G01 X-0.7848 Y83.5418 
G01 X-0.8567 Y83.3683 
G01 X-0.9611 Y83.2121 
G01 X-1.0939 Y83.0793 
G01 X-1.2501 Y82.9749 
G01 X-1.4236 Y82.9030 
G01 X-1.6079 Y82.8664 
G00 Z2.5400 
G00 X-10.6564 Y75.1264 
G01 Z-0.1500 F254.00 
G01 X-10.6564 Y75.2924 F508.00 
G01 X-10.6304 Y75.4565 
G01 X-10.5791 Y75.6145 
G01 X-10.5037 Y75.7624 
G01 X-10.4061 Y75.8968 
G01 X-10.2886 Y76.0143 
G01 X-10.1542 Y76.1119 
G01 X-10.0063 Y76.1873 
G01 X-9.8483 Y76.2386 
G01 X-9.6842 Y76.2646 
G01 X-9.5182 Y76.2646 
G01 X-9.3541 Y76.2386 
G01 X-9.1961 Y76.1873 
G01 X-9.0482 Y76.1119 
G01 X-8.9138 Y76.0143 
G01 X-8.7963 Y75.8968 
G01 X-8.6987 Y75.7624 
G01 X-8.6233 Y75.6145 
G01 X-8.5720 Y75.4565 
G01 X-8.5460 Y75.2924 
G01 X-8.5460 Y75.1264 
G01 X-8.5720 Y74.9623 
G01 X-8.6233 Y74.8043 
G01 X-8.6987 Y74.6564 
G01 X-8.7963 Y74.5220 
G01 X-8.9138 Y74.4045 
G01 X-9.0482 Y74.3069 
G01 X-9.1961 Y74.2315 
G01 X-9.3541 Y74.1802 
G01 X-9.5182 Y74.1542 
G01 X-9.6842 Y74.1542 
G01 X-9.8483 Y74.1802 
G01 X-10.0063 Y74.2315 
G01 X-10.1542 Y74.3069 
G01 X-10.2886 Y74.4045 
G01 X-10.4061 Y74.5220 
G01 X-10.5037 Y74.6564 
G01 X-10.5791 Y74.8043 
G01 X-10.6304 Y74.9623 
G01 X-10.6564 Y75.1264 
G00 Z2.5400 
G00 X-4.1540 Y75.1264 
G01 Z-0.1500 F254.00 
G01 X-4.1540 Y75.2924 F508.00 
G01 X-4.1280 Y75.4565 
G01 X-4.0767 Y75.6145 
G01 X-4.0013 Y75.7624 
G01 X-3.9037 Y75.8968 
G01 X-3.7862 Y76.0143 
G01 X-3.6518 Y76.1119 
G01 X-3.5039 Y76.1873 
G01 X-3.3459 Y76.2386 
G01 X-3.1818 Y76.2646 
G01 X-3.0158 Y76.2646 
G01 X-2.8517 Y76.2386 
G01 X-2.6937 Y76.1873 
G01 X-2.5458 Y76.1119 
G01 X-2.4114 Y76.0143 
G01 X-2.2939 Y75.8968 
G01 X-2.1963 Y75.7624 
G01 X-2.1209 Y75.6145 
G01 X-2.0696 Y75.4565 
G01 X-2.0436 Y75.2924 
G01 X-2.0436 Y75.1264 
G01 X-2.0696 Y74.9623 
G01 X-2.1209 Y74.8043 
G01 X-2.1963 Y74.6564 
G01 X-2.2939 Y74.5220 
G01 X-2.4114 Y74.4045 
G01 X-2.5458 Y74.3069 
G01 X-2.6937 Y74.2315 
G01 X-2.8517 Y74.1802 
G01 X-3.0158 Y74.1542 
G01 X-3.1818 Y74.1542 
G01 X-3.3459 Y74.1802 
G01 X-3.5039 Y74.2315 
G01 X-3.6518 Y74.3069 
G01 X-3.7862 Y74.4045 
G01 X-3.9037 Y74.5220 
G01 X-4.0013 Y74.6564 
G01 X-4.0767 Y74.8043 
G01 X-4.1280 Y74.9623 
G01 X-4.1540 Y75.1264 
G00 Z2.5400 
G00 X-10.6564 Y79.6476 
G01 Z-0.1500 F254.00 
G01 X-10.6564 Y79.8136 F508.00 
G01 X-10.6304 Y79.9777 
G01 X-10.5791 Y80.1357 
G01 X-10.5037 Y80.2836 
G01 X-10.4061 Y80.4180 
G01 X-10.2886 Y80.5355 
G01 X-10.1542 Y80.6331 
G01 X-10.0063 Y80.7085 
G01 X-9.8483 Y80.7598 
G01 X-9.6842 Y80.7858 
G01 X-9.5182 Y80.7858 
G01 X-9.3541 Y80.7598 
G01 X-9.1961 Y80.7085 
G01 X-9.0482 Y80.6331 
G01 X-8.9138 Y80.5355 
G01 X-8.7963 Y80.4180 
G01 X-8.6987 Y80.2836 
G01 X-8.6233 Y80.1357 
G01 X-8.5720 Y79.9777 
G01 X-8.5460 Y79.8136 
G01 X-8.5460 Y79.6476 
G01 X-8.5720 Y79.4835 
G01 X-8.6233 Y79.3255 
G01 X-8.6987 Y79.1776 
G01 X-8.7963 Y79.0432 
G01 X-8.9138 Y78.9257 
G01 X-9.0482 Y78.8281 
G01 X-9.1961 Y78.7527 
G01 X-9.3541 Y78.7014 
G01 X-9.5182 Y78.6754 
G01 X-9.6842 Y78.6754 
G01 X-9.8483 Y78.7014 
G01 X-10.0063 Y78.7527 
G01 X-10.1542 Y78.8281 
G01 X-10.2886 Y78.9257 
G01 X-10.4061 Y79.0432 
G01 X-10.5037 Y79.1776 
G01 X-10.5791 Y79.3255 
G01 X-10.6304 Y79.4835 
G01 X-10.6564 Y79.6476 
G00 Z2.5400 
G00 X-51.5368 Y69.3558 
G01 Z-0.1500 F254.00 
G01 X-50.0632 Y69.3558 F508.00 
G01 X-49.9133 Y69.3260 
G01 X-49.7721 Y69.2675 
G01 X-49.6451 Y69.1826 
G01 X-49.5370 Y69.0745 
G01 X-49.4521 Y68.9475 
G01 X-49.3936 Y68.8063 
G01 X-49.3638 Y68.6564 
G01 X-49.3638 Y68.5036 
G01 X-49.3936 Y68.3537 
G01 X-49.4521 Y68.2125 
G01 X-49.5370 Y68.0855 
G01 X-49.6451 Y67.9774 
G01 X-49.7721 Y67.8925 
G01 X-49.9133 Y67.8340 
G01 X-50.0632 Y67.8042 
G01 X-51.5368 Y67.8042 
G01 X-51.6867 Y67.8340 
G01 X-51.8279 Y67.8925 
G01 X-51.9549 Y67.9774 
G01 X-52.0630 Y68.0855 
G01 X-52.1479 Y68.2125 
G01 X-52.2064 Y68.3537 
G01 X-52.2362 Y68.5036 
G01 X-52.2362 Y68.6564 
G01 X-52.2064 Y68.8063 
G01 X-52.1479 Y68.9475 
G01 X-52.0630 Y69.0745 
G01 X-51.9549 Y69.1826 
G01 X-51.8279 Y69.2675 
G01 X-51.6867 Y69.3260 
G01 X-51.5368 Y69.3558 
G00 Z2.5400 
G00 X-51.5368 Y66.8158 
G01 Z-0.1500 F254.00 
G01 X-50.0632 Y66.8158 F508.00 
G01 X-49.9133 Y66.7860 
G01 X-49.7721 Y66.7275 
G01 X-49.6451 Y66.6426 
G01 X-49.5370 Y66.5345 
G01 X-49.4521 Y66.4075 
G01 X-49.3936 Y66.2663 
G01 X-49.3638 Y66.1164 
G01 X-49.3638 Y65.9636 
G01 X-49.3936 Y65.8137 
G01 X-49.4521 Y65.6725 
G01 X-49.5370 Y65.5455 
G01 X-49.6451 Y65.4374 
G01 X-49.7721 Y65.3525 
G01 X-49.9133 Y65.2940 
G01 X-50.0632 Y65.2642 
G01 X-51.5368 Y65.2642 
G01 X-51.6867 Y65.2940 
G01 X-51.8279 Y65.3525 
G01 X-51.9549 Y65.4374 
G01 X-52.0630 Y65.5455 
G01 X-52.1479 Y65.6725 
G01 X-52.2064 Y65.8137 
G01 X-52.2362 Y65.9636 
G01 X-52.2362 Y66.1164 
G01 X-52.2064 Y66.2663 
G01 X-52.1479 Y66.4075 
G01 X-52.0630 Y66.5345 
G01 X-51.9549 Y66.6426 
G01 X-51.8279 Y66.7275 
G01 X-51.6867 Y66.7860 
G01 X-51.5368 Y66.8158 
G00 Z2.5400 
G00 X-51.5368 Y64.2758 
G01 Z-0.1500 F254.00 
G01 X-50.0632 Y64.2758 F508.00 
G01 X-49.9133 Y64.2460 
G01 X-49.7721 Y64.1875 
G01 X-49.6451 Y64.1026 
G01 X-49.5370 Y63.9945 
G01 X-49.4521 Y63.8675 
G01 X-49.3936 Y63.7263 
G01 X-49.3638 Y63.5764 
G01 X-49.3638 Y63.4236 
G01 X-49.3936 Y63.2737 
G01 X-49.4521 Y63.1325 
G01 X-49.5370 Y63.0055 
G01 X-49.6451 Y62.8974 
G01 X-49.7721 Y62.8125 
G01 X-49.9133 Y62.7540 
G01 X-50.0632 Y62.7242 
G01 X-51.5368 Y62.7242 
G01 X-51.6867 Y62.7540 
G01 X-51.8279 Y62.8125 
G01 X-51.9549 Y62.8974 
G01 X-52.0630 Y63.0055 
G01 X-52.1479 Y63.1325 
G01 X-52.2064 Y63.2737 
G01 X-52.2362 Y63.4236 
G01 X-52.2362 Y63.5764 
G01 X-52.2064 Y63.7263 
G01 X-52.1479 Y63.8675 
G01 X-52.0630 Y63.9945 
G01 X-51.9549 Y64.1026 
G01 X-51.8279 Y64.1875 
G01 X-51.6867 Y64.2460 
G01 X-51.5368 Y64.2758 
G00 Z2.5400 
G00 X-51.5368 Y61.7358 
G01 Z-0.1500 F254.00 
G01 X-50.0632 Y61.7358 F508.00 
G01 X-49.9133 Y61.7060 
G01 X-49.7721 Y61.6475 
G01 X-49.6451 Y61.5626 
G01 X-49.5370 Y61.4545 
G01 X-49.4521 Y61.3275 
G01 X-49.3936 Y61.1863 
G01 X-49.3638 Y61.0364 
G01 X-49.3638 Y60.8836 
G01 X-49.3936 Y60.7337 
G01 X-49.4521 Y60.5925 
G01 X-49.5370 Y60.4655 
G01 X-49.6451 Y60.3574 
G01 X-49.7721 Y60.2725 
G01 X-49.9133 Y60.2140 
G01 X-50.0632 Y60.1842 
G01 X-51.5368 Y60.1842 
G01 X-51.6867 Y60.2140 
G01 X-51.8279 Y60.2725 
G01 X-51.9549 Y60.3574 
G01 X-52.0630 Y60.4655 
G01 X-52.1479 Y60.5925 
G01 X-52.2064 Y60.7337 
G01 X-52.2362 Y60.8836 
G01 X-52.2362 Y61.0364 
G01 X-52.2064 Y61.1863 
G01 X-52.1479 Y61.3275 
G01 X-52.0630 Y61.4545 
G01 X-51.9549 Y61.5626 
G01 X-51.8279 Y61.6475 
G01 X-51.6867 Y61.7060 
G01 X-51.5368 Y61.7358 
G00 Z2.5400 
G00 X-51.5368 Y59.1958 
G01 Z-0.1500 F254.00 
G01 X-50.0632 Y59.1958 F508.00 
G01 X-49.9133 Y59.1660 
G01 X-49.7721 Y59.1075 
G01 X-49.6451 Y59.0226 
G01 X-49.5370 Y58.9145 
G01 X-49.4521 Y58.7875 
G01 X-49.3936 Y58.6463 
G01 X-49.3638 Y58.4964 
G01 X-49.3638 Y58.3436 
G01 X-49.3936 Y58.1937 
G01 X-49.4521 Y58.0525 
G01 X-49.5370 Y57.9255 
G01 X-49.6451 Y57.8174 
G01 X-49.7721 Y57.7325 
G01 X-49.9133 Y57.6740 
G01 X-50.0632 Y57.6442 
G01 X-51.5368 Y57.6442 
G01 X-51.6867 Y57.6740 
G01 X-51.8279 Y57.7325 
G01 X-51.9549 Y57.8174 
G01 X-52.0630 Y57.9255 
G01 X-52.1479 Y58.0525 
G01 X-52.2064 Y58.1937 
G01 X-52.2362 Y58.3436 
G01 X-52.2362 Y58.4964 
G01 X-52.2064 Y58.6463 
G01 X-52.1479 Y58.7875 
G01 X-52.0630 Y58.9145 
G01 X-51.9549 Y59.0226 
G01 X-51.8279 Y59.1075 
G01 X-51.6867 Y59.1660 
G01 X-51.5368 Y59.1958 
G00 Z2.5400 
G00 X-51.5368 Y56.6558 
G01 Z-0.1500 F254.00 
G01 X-50.0632 Y56.6558 F508.00 
G01 X-49.9133 Y56.6260 
G01 X-49.7721 Y56.5675 
G01 X-49.6451 Y56.4826 
G01 X-49.5370 Y56.3745 
G01 X-49.4521 Y56.2475 
G01 X-49.3936 Y56.1063 
G01 X-49.3638 Y55.9564 
G01 X-49.3638 Y55.8036 
G01 X-49.3936 Y55.6537 
G01 X-49.4521 Y55.5125 
G01 X-49.5370 Y55.3855 
G01 X-49.6451 Y55.2774 
G01 X-49.7721 Y55.1925 
G01 X-49.9133 Y55.1340 
G01 X-50.0632 Y55.1042 
G01 X-51.5368 Y55.1042 
G01 X-51.6867 Y55.1340 
G01 X-51.8279 Y55.1925 
G01 X-51.9549 Y55.2774 
G01 X-52.0630 Y55.3855 
G01 X-52.1479 Y55.5125 
G01 X-52.2064 Y55.6537 
G01 X-52.2362 Y55.8036 
G01 X-52.2362 Y55.9564 
G01 X-52.2064 Y56.1063 
G01 X-52.1479 Y56.2475 
G01 X-52.0630 Y56.3745 
G01 X-51.9549 Y56.4826 
G01 X-51.8279 Y56.5675 
G01 X-51.6867 Y56.6260 
G01 X-51.5368 Y56.6558 
G00 Z2.5400 
G00 X-51.5368 Y51.5758 
G01 Z-0.1500 F254.00 
G01 X-50.0632 Y51.5758 F508.00 
G01 X-49.9133 Y51.5460 
G01 X-49.7721 Y51.4875 
G01 X-49.6451 Y51.4026 
G01 X-49.5370 Y51.2945 
G01 X-49.4521 Y51.1675 
G01 X-49.3936 Y51.0263 
G01 X-49.3638 Y50.8764 
G01 X-49.3638 Y50.7236 
G01 X-49.3936 Y50.5737 
G01 X-49.4521 Y50.4325 
G01 X-49.5370 Y50.3055 
G01 X-49.6451 Y50.1974 
G01 X-49.7721 Y50.1125 
G01 X-49.9133 Y50.0540 
G01 X-50.0632 Y50.0242 
G01 X-51.5368 Y50.0242 
G01 X-51.6867 Y50.0540 
G01 X-51.8279 Y50.1125 
G01 X-51.9549 Y50.1974 
G01 X-52.0630 Y50.3055 
G01 X-52.1479 Y50.4325 
G01 X-52.2064 Y50.5737 
G01 X-52.2362 Y50.7236 
G01 X-52.2362 Y50.8764 
G01 X-52.2064 Y51.0263 
G01 X-52.1479 Y51.1675 
G01 X-52.0630 Y51.2945 
G01 X-51.9549 Y51.4026 
G01 X-51.8279 Y51.4875 
G01 X-51.6867 Y51.5460 
G01 X-51.5368 Y51.5758 
G00 Z2.5400 
G00 X-51.5368 Y49.0358 
G01 Z-0.1500 F254.00 
G01 X-50.0632 Y49.0358 F508.00 
G01 X-49.9133 Y49.0060 
G01 X-49.7721 Y48.9475 
G01 X-49.6451 Y48.8626 
G01 X-49.5370 Y48.7545 
G01 X-49.4521 Y48.6275 
G01 X-49.3936 Y48.4863 
G01 X-49.3638 Y48.3364 
G01 X-49.3638 Y48.1836 
G01 X-49.3936 Y48.0337 
G01 X-49.4521 Y47.8925 
G01 X-49.5370 Y47.7655 
G01 X-49.6451 Y47.6574 
G01 X-49.7721 Y47.5725 
G01 X-49.9133 Y47.5140 
G01 X-50.0632 Y47.4842 
G01 X-51.5368 Y47.4842 
G01 X-51.6867 Y47.5140 
G01 X-51.8279 Y47.5725 
G01 X-51.9549 Y47.6574 
G01 X-52.0630 Y47.7655 
G01 X-52.1479 Y47.8925 
G01 X-52.1997 Y48.0176 
G01 X-53.3882 Y48.0176 
G01 X-53.4773 Y48.0545 
G01 X-53.5455 Y48.1227 
G01 X-53.5824 Y48.2118 
G01 X-53.5824 Y80.0582 
G01 X-53.5455 Y80.1473 
G01 X-53.4773 Y80.2155 
G01 X-50.9373 Y82.7555 
G01 X-50.8482 Y82.7924 
G01 X-43.1318 Y82.7924 
G01 X-43.0427 Y82.7555 
G01 X-42.9745 Y82.6873 
G01 X-42.3860 Y82.0988 
G01 X-42.2892 Y82.1955 
G01 X-41.5308 Y82.1955 
G01 X-40.9945 Y81.6592 
G01 X-40.9945 Y81.5224 
G01 X-24.0818 Y81.5224 
G01 X-23.9927 Y81.4855 
G01 X-23.9245 Y81.4173 
G01 X-12.9347 Y70.4275 
G01 X-12.8818 Y70.4494 
G01 X-12.7614 Y70.4734 
G01 X-12.6386 Y70.4734 
G01 X-12.5182 Y70.4494 
G01 X-12.4047 Y70.4024 
G01 X-12.3026 Y70.3342 
G01 X-12.2158 Y70.2474 
G01 X-12.1476 Y70.1453 
G01 X-12.1006 Y70.0318 
G01 X-12.0766 Y69.9114 
G01 X-12.0766 Y69.7886 
G01 X-12.1006 Y69.6682 
G01 X-12.1476 Y69.5547 
G01 X-12.2158 Y69.4526 
G01 X-12.3026 Y69.3658 
G01 X-12.4047 Y69.2976 
G01 X-12.5182 Y69.2506 
G01 X-12.6386 Y69.2266 
G01 X-12.7614 Y69.2266 
G01 X-12.8818 Y69.2506 
G01 X-12.9953 Y69.2976 
G01 X-13.0974 Y69.3658 
G01 X-13.1842 Y69.4526 
G01 X-13.2524 Y69.5547 
G01 X-13.2994 Y69.6682 
G01 X-13.3234 Y69.7886 
G01 X-13.3234 Y69.9114 
G01 X-13.2994 Y70.0318 
G01 X-13.2775 Y70.0847 
G01 X-24.2304 Y81.0376 
G01 X-40.9945 Y81.0376 
G01 X-40.9945 Y80.9008 
G01 X-41.5308 Y80.3645 
G01 X-42.2892 Y80.3645 
G01 X-42.8255 Y80.9008 
G01 X-42.8255 Y81.6592 
G01 X-42.7288 Y81.7559 
G01 X-43.2804 Y82.3076 
G01 X-50.6996 Y82.3076 
G01 X-53.0976 Y79.9096 
G01 X-53.0976 Y48.5024 
G01 X-52.1997 Y48.5024 
G01 X-52.1479 Y48.6275 
G01 X-52.0630 Y48.7545 
G01 X-51.9549 Y48.8626 
G01 X-51.8279 Y48.9475 
G01 X-51.6867 Y49.0060 
G01 X-51.5368 Y49.0358 
G00 Z2.5400 
G00 X-51.5368 Y46.4958 
G01 Z-0.1500 F254.00 
G01 X-50.0632 Y46.4958 F508.00 
G01 X-49.9133 Y46.4660 
G01 X-49.7721 Y46.4075 
G01 X-49.6451 Y46.3226 
G01 X-49.5370 Y46.2145 
G01 X-49.4521 Y46.0875 
G01 X-49.3936 Y45.9463 
G01 X-49.3638 Y45.7964 
G01 X-49.3638 Y45.6436 
G01 X-49.3936 Y45.4937 
G01 X-49.4521 Y45.3525 
G01 X-49.5370 Y45.2255 
G01 X-49.6451 Y45.1174 
G01 X-49.7721 Y45.0325 
G01 X-49.9133 Y44.9740 
G01 X-50.0632 Y44.9442 
G01 X-51.5368 Y44.9442 
G01 X-51.6867 Y44.9740 
G01 X-51.8279 Y45.0325 
G01 X-51.9549 Y45.1174 
G01 X-52.0630 Y45.2255 
G01 X-52.1479 Y45.3525 
G01 X-52.2064 Y45.4937 
G01 X-52.2362 Y45.6436 
G01 X-52.2362 Y45.7964 
G01 X-52.2064 Y45.9463 
G01 X-52.1479 Y46.0875 
G01 X-52.0630 Y46.2145 
G01 X-51.9549 Y46.3226 
G01 X-51.8279 Y46.4075 
G01 X-51.6867 Y46.4660 
G01 X-51.5368 Y46.4958 
G00 Z2.5400 
G00 X-51.5368 Y43.9558 
G01 Z-0.1500 F254.00 
G01 X-50.0632 Y43.9558 F508.00 
G01 X-49.9133 Y43.9260 
G01 X-49.7721 Y43.8675 
G01 X-49.6451 Y43.7826 
G01 X-49.5370 Y43.6745 
G01 X-49.4521 Y43.5475 
G01 X-49.3936 Y43.4063 
G01 X-49.3638 Y43.2564 
G01 X-49.3638 Y43.1036 
G01 X-49.3936 Y42.9537 
G01 X-49.4521 Y42.8125 
G01 X-49.5370 Y42.6855 
G01 X-49.6451 Y42.5774 
G01 X-49.7721 Y42.4925 
G01 X-49.9133 Y42.4340 
G01 X-50.0632 Y42.4042 
G01 X-51.5368 Y42.4042 
G01 X-51.6867 Y42.4340 
G01 X-51.8279 Y42.4925 
G01 X-51.9549 Y42.5774 
G01 X-52.0630 Y42.6855 
G01 X-52.1479 Y42.8125 
G01 X-52.2064 Y42.9537 
G01 X-52.2362 Y43.1036 
G01 X-52.2362 Y43.2564 
G01 X-52.2064 Y43.4063 
G01 X-52.1479 Y43.5475 
G01 X-52.0630 Y43.6745 
G01 X-51.9549 Y43.7826 
G01 X-51.8279 Y43.8675 
G01 X-51.6867 Y43.9260 
G01 X-51.5368 Y43.9558 
G00 Z2.5400 
G00 X-51.5368 Y41.4158 
G01 Z-0.1500 F254.00 
G01 X-50.0632 Y41.4158 F508.00 
G01 X-49.9133 Y41.3860 
G01 X-49.7721 Y41.3275 
G01 X-49.6451 Y41.2426 
G01 X-49.5370 Y41.1345 
G01 X-49.4521 Y41.0075 
G01 X-49.3936 Y40.8663 
G01 X-49.3638 Y40.7164 
G01 X-49.3638 Y40.5636 
G01 X-49.3936 Y40.4137 
G01 X-49.4521 Y40.2725 
G01 X-49.5370 Y40.1455 
G01 X-49.6451 Y40.0374 
G01 X-49.7721 Y39.9525 
G01 X-49.9133 Y39.8940 
G01 X-50.0632 Y39.8642 
G01 X-51.5368 Y39.8642 
G01 X-51.6867 Y39.8940 
G01 X-51.8279 Y39.9525 
G01 X-51.9549 Y40.0374 
G01 X-52.0630 Y40.1455 
G01 X-52.1479 Y40.2725 
G01 X-52.2064 Y40.4137 
G01 X-52.2362 Y40.5636 
G01 X-52.2362 Y40.7164 
G01 X-52.2064 Y40.8663 
G01 X-52.1479 Y41.0075 
G01 X-52.0630 Y41.1345 
G01 X-51.9549 Y41.2426 
G01 X-51.8279 Y41.3275 
G01 X-51.6867 Y41.3860 
G01 X-51.5368 Y41.4158 
G00 Z2.5400 
G00 X-51.5368 Y38.8758 
G01 Z-0.1500 F254.00 
G01 X-50.0632 Y38.8758 F508.00 
G01 X-49.9133 Y38.8460 
G01 X-49.7721 Y38.7875 
G01 X-49.6451 Y38.7026 
G01 X-49.5370 Y38.5945 
G01 X-49.4521 Y38.4675 
G01 X-49.3936 Y38.3263 
G01 X-49.3638 Y38.1764 
G01 X-49.3638 Y38.0236 
G01 X-49.3936 Y37.8737 
G01 X-49.4521 Y37.7325 
G01 X-49.5370 Y37.6055 
G01 X-49.6451 Y37.4974 
G01 X-49.7721 Y37.4125 
G01 X-49.9133 Y37.3540 
G01 X-50.0632 Y37.3242 
G01 X-51.5368 Y37.3242 
G01 X-51.6867 Y37.3540 
G01 X-51.8279 Y37.4125 
G01 X-51.9549 Y37.4974 
G01 X-52.0630 Y37.6055 
G01 X-52.1479 Y37.7325 
G01 X-52.2064 Y37.8737 
G01 X-52.2362 Y38.0236 
G01 X-52.2362 Y38.1764 
G01 X-52.2064 Y38.3263 
G01 X-52.1479 Y38.4675 
G01 X-52.0630 Y38.5945 
G01 X-51.9549 Y38.7026 
G01 X-51.8279 Y38.7875 
G01 X-51.6867 Y38.8460 
G01 X-51.5368 Y38.8758 
G00 Z2.5400 
G00 X-51.5368 Y36.3358 
G01 Z-0.1500 F254.00 
G01 X-50.0632 Y36.3358 F508.00 
G01 X-49.9133 Y36.3060 
G01 X-49.7721 Y36.2475 
G01 X-49.6451 Y36.1626 
G01 X-49.5370 Y36.0545 
G01 X-49.4521 Y35.9275 
G01 X-49.3936 Y35.7863 
G01 X-49.3638 Y35.6364 
G01 X-49.3638 Y35.4836 
G01 X-49.3936 Y35.3337 
G01 X-49.4521 Y35.1925 
G01 X-49.5370 Y35.0655 
G01 X-49.6451 Y34.9574 
G01 X-49.7721 Y34.8725 
G01 X-49.9133 Y34.8140 
G01 X-50.0632 Y34.7842 
G01 X-51.5368 Y34.7842 
G01 X-51.6867 Y34.8140 
G01 X-51.8279 Y34.8725 
G01 X-51.9549 Y34.9574 
G01 X-52.0630 Y35.0655 
G01 X-52.1479 Y35.1925 
G01 X-52.2064 Y35.3337 
G01 X-52.2362 Y35.4836 
G01 X-52.2362 Y35.6364 
G01 X-52.2064 Y35.7863 
G01 X-52.1479 Y35.9275 
G01 X-52.0630 Y36.0545 
G01 X-51.9549 Y36.1626 
G01 X-51.8279 Y36.2475 
G01 X-51.6867 Y36.3060 
G01 X-51.5368 Y36.3358 
G00 Z2.5400 
G00 X-43.9168 Y36.3358 
G01 Z-0.1500 F254.00 
G01 X-42.4432 Y36.3358 F508.00 
G01 X-42.2933 Y36.3060 
G01 X-42.1521 Y36.2475 
G01 X-42.0251 Y36.1626 
G01 X-41.9170 Y36.0545 
G01 X-41.8321 Y35.9275 
G01 X-41.7736 Y35.7863 
G01 X-41.7438 Y35.6364 
G01 X-41.7438 Y35.4836 
G01 X-41.7736 Y35.3337 
G01 X-41.8321 Y35.1925 
G01 X-41.9170 Y35.0655 
G01 X-42.0251 Y34.9574 
G01 X-42.1521 Y34.8725 
G01 X-42.2933 Y34.8140 
G01 X-42.4432 Y34.7842 
G01 X-43.9168 Y34.7842 
G01 X-44.0667 Y34.8140 
G01 X-44.2079 Y34.8725 
G01 X-44.3349 Y34.9574 
G01 X-44.4430 Y35.0655 
G01 X-44.5279 Y35.1925 
G01 X-44.5864 Y35.3337 
G01 X-44.6162 Y35.4836 
G01 X-44.6162 Y35.6364 
G01 X-44.5864 Y35.7863 
G01 X-44.5279 Y35.9275 
G01 X-44.4430 Y36.0545 
G01 X-44.3349 Y36.1626 
G01 X-44.2079 Y36.2475 
G01 X-44.0667 Y36.3060 
G01 X-43.9168 Y36.3358 
G00 Z2.5400 
G00 X-43.9168 Y38.8758 
G01 Z-0.1500 F254.00 
G01 X-42.4432 Y38.8758 F508.00 
G01 X-42.2933 Y38.8460 
G01 X-42.1521 Y38.7875 
G01 X-42.0251 Y38.7026 
G01 X-41.9170 Y38.5945 
G01 X-41.8321 Y38.4675 
G01 X-41.7736 Y38.3263 
G01 X-41.7438 Y38.1764 
G01 X-41.7438 Y38.0236 
G01 X-41.7736 Y37.8737 
G01 X-41.8321 Y37.7325 
G01 X-41.9170 Y37.6055 
G01 X-42.0251 Y37.4974 
G01 X-42.1521 Y37.4125 
G01 X-42.2933 Y37.3540 
G01 X-42.4432 Y37.3242 
G01 X-43.9168 Y37.3242 
G01 X-44.0667 Y37.3540 
G01 X-44.2079 Y37.4125 
G01 X-44.3349 Y37.4974 
G01 X-44.4430 Y37.6055 
G01 X-44.5279 Y37.7325 
G01 X-44.5864 Y37.8737 
G01 X-44.6162 Y38.0236 
G01 X-44.6162 Y38.1764 
G01 X-44.5864 Y38.3263 
G01 X-44.5279 Y38.4675 
G01 X-44.4430 Y38.5945 
G01 X-44.3349 Y38.7026 
G01 X-44.2079 Y38.7875 
G01 X-44.0667 Y38.8460 
G01 X-43.9168 Y38.8758 
G00 Z2.5400 
G00 X-43.9168 Y41.4158 
G01 Z-0.1500 F254.00 
G01 X-42.4432 Y41.4158 F508.00 
G01 X-42.2933 Y41.3860 
G01 X-42.1521 Y41.3275 
G01 X-42.0251 Y41.2426 
G01 X-41.9170 Y41.1345 
G01 X-41.8321 Y41.0075 
G01 X-41.7736 Y40.8663 
G01 X-41.7438 Y40.7164 
G01 X-41.7438 Y40.5636 
G01 X-41.7736 Y40.4137 
G01 X-41.8321 Y40.2725 
G01 X-41.9170 Y40.1455 
G01 X-42.0251 Y40.0374 
G01 X-42.1521 Y39.9525 
G01 X-42.2933 Y39.8940 
G01 X-42.4432 Y39.8642 
G01 X-43.9168 Y39.8642 
G01 X-44.0667 Y39.8940 
G01 X-44.2079 Y39.9525 
G01 X-44.3349 Y40.0374 
G01 X-44.4430 Y40.1455 
G01 X-44.5279 Y40.2725 
G01 X-44.5864 Y40.4137 
G01 X-44.6162 Y40.5636 
G01 X-44.6162 Y40.7164 
G01 X-44.5864 Y40.8663 
G01 X-44.5279 Y41.0075 
G01 X-44.4430 Y41.1345 
G01 X-44.3349 Y41.2426 
G01 X-44.2079 Y41.3275 
G01 X-44.0667 Y41.3860 
G01 X-43.9168 Y41.4158 
G00 Z2.5400 
G00 X-43.9168 Y43.9558 
G01 Z-0.1500 F254.00 
G01 X-42.4432 Y43.9558 F508.00 
G01 X-42.2933 Y43.9260 
G01 X-42.1521 Y43.8675 
G01 X-42.0251 Y43.7826 
G01 X-41.9170 Y43.6745 
G01 X-41.8321 Y43.5475 
G01 X-41.7736 Y43.4063 
G01 X-41.7438 Y43.2564 
G01 X-41.7438 Y43.1036 
G01 X-41.7736 Y42.9537 
G01 X-41.8321 Y42.8125 
G01 X-41.9170 Y42.6855 
G01 X-42.0251 Y42.5774 
G01 X-42.1521 Y42.4925 
G01 X-42.2933 Y42.4340 
G01 X-42.4432 Y42.4042 
G01 X-43.9168 Y42.4042 
G01 X-44.0667 Y42.4340 
G01 X-44.2079 Y42.4925 
G01 X-44.3349 Y42.5774 
G01 X-44.4430 Y42.6855 
G01 X-44.5279 Y42.8125 
G01 X-44.5864 Y42.9537 
G01 X-44.6162 Y43.1036 
G01 X-44.6162 Y43.2564 
G01 X-44.5864 Y43.4063 
G01 X-44.5279 Y43.5475 
G01 X-44.4430 Y43.6745 
G01 X-44.3349 Y43.7826 
G01 X-44.2079 Y43.8675 
G01 X-44.0667 Y43.9260 
G01 X-43.9168 Y43.9558 
G00 Z2.5400 
G00 X-43.9168 Y46.4958 
G01 Z-0.1500 F254.00 
G01 X-42.4432 Y46.4958 F508.00 
G01 X-42.2933 Y46.4660 
G01 X-42.1521 Y46.4075 
G01 X-42.0251 Y46.3226 
G01 X-41.9170 Y46.2145 
G01 X-41.8321 Y46.0875 
G01 X-41.7736 Y45.9463 
G01 X-41.7438 Y45.7964 
G01 X-41.7438 Y45.6436 
G01 X-41.7736 Y45.4937 
G01 X-41.8321 Y45.3525 
G01 X-41.9170 Y45.2255 
G01 X-42.0251 Y45.1174 
G01 X-42.1521 Y45.0325 
G01 X-42.2933 Y44.9740 
G01 X-42.4432 Y44.9442 
G01 X-43.9168 Y44.9442 
G01 X-44.0667 Y44.9740 
G01 X-44.2079 Y45.0325 
G01 X-44.3349 Y45.1174 
G01 X-44.4430 Y45.2255 
G01 X-44.5279 Y45.3525 
G01 X-44.5864 Y45.4937 
G01 X-44.6162 Y45.6436 
G01 X-44.6162 Y45.7964 
G01 X-44.5864 Y45.9463 
G01 X-44.5279 Y46.0875 
G01 X-44.4430 Y46.2145 
G01 X-44.3349 Y46.3226 
G01 X-44.2079 Y46.4075 
G01 X-44.0667 Y46.4660 
G01 X-43.9168 Y46.4958 
G00 Z2.5400 
G00 X-43.9168 Y49.0358 
G01 Z-0.1500 F254.00 
G01 X-42.4432 Y49.0358 F508.00 
G01 X-42.2933 Y49.0060 
G01 X-42.1521 Y48.9475 
G01 X-42.0251 Y48.8626 
G01 X-41.9170 Y48.7545 
G01 X-41.8321 Y48.6275 
G01 X-41.7736 Y48.4863 
G01 X-41.7438 Y48.3364 
G01 X-41.7438 Y48.1836 
G01 X-41.7736 Y48.0337 
G01 X-41.8321 Y47.8925 
G01 X-41.9170 Y47.7655 
G01 X-42.0251 Y47.6574 
G01 X-42.1521 Y47.5725 
G01 X-42.2933 Y47.5140 
G01 X-42.4432 Y47.4842 
G01 X-43.9168 Y47.4842 
G01 X-44.0667 Y47.5140 
G01 X-44.2079 Y47.5725 
G01 X-44.3349 Y47.6574 
G01 X-44.4430 Y47.7655 
G01 X-44.5279 Y47.8925 
G01 X-44.5864 Y48.0337 
G01 X-44.6162 Y48.1836 
G01 X-44.6162 Y48.3364 
G01 X-44.5864 Y48.4863 
G01 X-44.5279 Y48.6275 
G01 X-44.4430 Y48.7545 
G01 X-44.3349 Y48.8626 
G01 X-44.2079 Y48.9475 
G01 X-44.0667 Y49.0060 
G01 X-43.9168 Y49.0358 
G00 Z2.5400 
G00 X-42.4432 Y51.5758 
G01 Z-0.1500 F254.00 
G01 X-42.2933 Y51.5460 F508.00 
G01 X-42.1521 Y51.4875 
G01 X-42.0251 Y51.4026 
G01 X-41.9170 Y51.2945 
G01 X-41.8321 Y51.1675 
G01 X-41.7736 Y51.0263 
G01 X-41.7438 Y50.8764 
G01 X-41.7438 Y50.7236 
G01 X-41.7736 Y50.5737 
G01 X-41.8321 Y50.4325 
G01 X-41.9170 Y50.3055 
G01 X-42.0251 Y50.1974 
G01 X-42.1521 Y50.1125 
G01 X-42.2933 Y50.0540 
G01 X-42.4432 Y50.0242 
G01 X-43.9168 Y50.0242 
G01 X-44.0667 Y50.0540 
G01 X-44.2079 Y50.1125 
G01 X-44.3349 Y50.1974 
G01 X-44.4430 Y50.3055 
G01 X-44.5279 Y50.4325 
G01 X-44.5864 Y50.5737 
G01 X-44.6162 Y50.7236 
G01 X-44.6162 Y50.8764 
G01 X-44.5864 Y51.0263 
G01 X-44.5279 Y51.1675 
G01 X-44.4430 Y51.2945 
G01 X-44.3349 Y51.4026 
G01 X-44.2093 Y51.4865 
G01 X-45.8204 Y53.0976 
G01 X-49.4003 Y53.0976 
G01 X-49.4521 Y52.9725 
G01 X-49.5370 Y52.8455 
G01 X-49.6451 Y52.7374 
G01 X-49.7721 Y52.6525 
G01 X-49.9133 Y52.5940 
G01 X-50.0632 Y52.5642 
G01 X-51.5368 Y52.5642 
G01 X-51.6867 Y52.5940 
G01 X-51.8279 Y52.6525 
G01 X-51.9549 Y52.7374 
G01 X-52.0630 Y52.8455 
G01 X-52.1479 Y52.9725 
G01 X-52.2064 Y53.1137 
G01 X-52.2362 Y53.2636 
G01 X-52.2362 Y53.4164 
G01 X-52.2064 Y53.5663 
G01 X-52.1479 Y53.7075 
G01 X-52.0630 Y53.8345 
G01 X-51.9549 Y53.9426 
G01 X-51.8279 Y54.0275 
G01 X-51.6867 Y54.0860 
G01 X-51.5368 Y54.1158 
G01 X-50.0632 Y54.1158 
G01 X-49.9133 Y54.0860 
G01 X-49.7721 Y54.0275 
G01 X-49.6451 Y53.9426 
G01 X-49.5370 Y53.8345 
G01 X-49.4521 Y53.7075 
G01 X-49.4003 Y53.5824 
G01 X-45.6718 Y53.5824 
G01 X-45.5827 Y53.5455 
G01 X-45.5145 Y53.4773 
G01 X-43.6130 Y51.5758 
G01 X-42.4432 Y51.5758 
G00 Z2.5400 
G00 X-43.9168 Y54.1158 
G01 Z-0.1500 F254.00 
G01 X-42.4432 Y54.1158 F508.00 
G01 X-42.2933 Y54.0860 
G01 X-42.1521 Y54.0275 
G01 X-42.0251 Y53.9426 
G01 X-41.9170 Y53.8345 
G01 X-41.8321 Y53.7075 
G01 X-41.7736 Y53.5663 
G01 X-41.7438 Y53.4164 
G01 X-41.7438 Y53.2636 
G01 X-41.7736 Y53.1137 
G01 X-41.8321 Y52.9725 
G01 X-41.9170 Y52.8455 
G01 X-42.0251 Y52.7374 
G01 X-42.1521 Y52.6525 
G01 X-42.2933 Y52.5940 
G01 X-42.4432 Y52.5642 
G01 X-43.9168 Y52.5642 
G01 X-44.0667 Y52.5940 
G01 X-44.2079 Y52.6525 
G01 X-44.3349 Y52.7374 
G01 X-44.4430 Y52.8455 
G01 X-44.5279 Y52.9725 
G01 X-44.5864 Y53.1137 
G01 X-44.6162 Y53.2636 
G01 X-44.6162 Y53.4164 
G01 X-44.5864 Y53.5663 
G01 X-44.5279 Y53.7075 
G01 X-44.4430 Y53.8345 
G01 X-44.3349 Y53.9426 
G01 X-44.2079 Y54.0275 
G01 X-44.0667 Y54.0860 
G01 X-43.9168 Y54.1158 
G00 Z2.5400 
G00 X-43.9168 Y56.6558 
G01 Z-0.1500 F254.00 
G01 X-42.4432 Y56.6558 F508.00 
G01 X-42.2933 Y56.6260 
G01 X-42.1521 Y56.5675 
G01 X-42.0251 Y56.4826 
G01 X-41.9170 Y56.3745 
G01 X-41.8321 Y56.2475 
G01 X-41.7736 Y56.1063 
G01 X-41.7438 Y55.9564 
G01 X-41.7438 Y55.8036 
G01 X-41.7736 Y55.6537 
G01 X-41.8321 Y55.5125 
G01 X-41.9170 Y55.3855 
G01 X-42.0251 Y55.2774 
G01 X-42.1521 Y55.1925 
G01 X-42.2933 Y55.1340 
G01 X-42.4432 Y55.1042 
G01 X-43.9168 Y55.1042 
G01 X-44.0667 Y55.1340 
G01 X-44.2079 Y55.1925 
G01 X-44.3349 Y55.2774 
G01 X-44.4430 Y55.3855 
G01 X-44.5279 Y55.5125 
G01 X-44.5864 Y55.6537 
G01 X-44.6162 Y55.8036 
G01 X-44.6162 Y55.9564 
G01 X-44.5864 Y56.1063 
G01 X-44.5279 Y56.2475 
G01 X-44.4430 Y56.3745 
G01 X-44.3349 Y56.4826 
G01 X-44.2079 Y56.5675 
G01 X-44.0667 Y56.6260 
G01 X-43.9168 Y56.6558 
G00 Z2.5400 
G00 X-43.9168 Y59.1958 
G01 Z-0.1500 F254.00 
G01 X-42.4432 Y59.1958 F508.00 
G01 X-42.2933 Y59.1660 
G01 X-42.1521 Y59.1075 
G01 X-42.0251 Y59.0226 
G01 X-41.9170 Y58.9145 
G01 X-41.8321 Y58.7875 
G01 X-41.7736 Y58.6463 
G01 X-41.7438 Y58.4964 
G01 X-41.7438 Y58.3436 
G01 X-41.7736 Y58.1937 
G01 X-41.8321 Y58.0525 
G01 X-41.9170 Y57.9255 
G01 X-42.0251 Y57.8174 
G01 X-42.1521 Y57.7325 
G01 X-42.2933 Y57.6740 
G01 X-42.4432 Y57.6442 
G01 X-43.9168 Y57.6442 
G01 X-44.0667 Y57.6740 
G01 X-44.2079 Y57.7325 
G01 X-44.3349 Y57.8174 
G01 X-44.4430 Y57.9255 
G01 X-44.5279 Y58.0525 
G01 X-44.5864 Y58.1937 
G01 X-44.6162 Y58.3436 
G01 X-44.6162 Y58.4964 
G01 X-44.5864 Y58.6463 
G01 X-44.5279 Y58.7875 
G01 X-44.4430 Y58.9145 
G01 X-44.3349 Y59.0226 
G01 X-44.2079 Y59.1075 
G01 X-44.0667 Y59.1660 
G01 X-43.9168 Y59.1958 
G00 Z2.5400 
G00 X-43.9168 Y61.7358 
G01 Z-0.1500 F254.00 
G01 X-42.4432 Y61.7358 F508.00 
G01 X-42.2933 Y61.7060 
G01 X-42.1521 Y61.6475 
G01 X-42.0251 Y61.5626 
G01 X-41.9170 Y61.4545 
G01 X-41.8321 Y61.3275 
G01 X-41.7736 Y61.1863 
G01 X-41.7438 Y61.0364 
G01 X-41.7438 Y60.8836 
G01 X-41.7736 Y60.7337 
G01 X-41.8321 Y60.5925 
G01 X-41.9170 Y60.4655 
G01 X-42.0251 Y60.3574 
G01 X-42.1521 Y60.2725 
G01 X-42.2933 Y60.2140 
G01 X-42.4432 Y60.1842 
G01 X-43.9168 Y60.1842 
G01 X-44.0667 Y60.2140 
G01 X-44.2079 Y60.2725 
G01 X-44.3349 Y60.3574 
G01 X-44.4430 Y60.4655 
G01 X-44.5279 Y60.5925 
G01 X-44.5864 Y60.7337 
G01 X-44.6162 Y60.8836 
G01 X-44.6162 Y61.0364 
G01 X-44.5864 Y61.1863 
G01 X-44.5279 Y61.3275 
G01 X-44.4430 Y61.4545 
G01 X-44.3349 Y61.5626 
G01 X-44.2079 Y61.6475 
G01 X-44.0667 Y61.7060 
G01 X-43.9168 Y61.7358 
G00 Z2.5400 
G00 X-43.9168 Y64.2758 
G01 Z-0.1500 F254.00 
G01 X-42.4432 Y64.2758 F508.00 
G01 X-42.2933 Y64.2460 
G01 X-42.1521 Y64.1875 
G01 X-42.0251 Y64.1026 
G01 X-41.9170 Y63.9945 
G01 X-41.8321 Y63.8675 
G01 X-41.7736 Y63.7263 
G01 X-41.7438 Y63.5764 
G01 X-41.7438 Y63.4236 
G01 X-41.7736 Y63.2737 
G01 X-41.8321 Y63.1325 
G01 X-41.9170 Y63.0055 
G01 X-42.0251 Y62.8974 
G01 X-42.1521 Y62.8125 
G01 X-42.2933 Y62.7540 
G01 X-42.4432 Y62.7242 
G01 X-43.9168 Y62.7242 
G01 X-44.0667 Y62.7540 
G01 X-44.2079 Y62.8125 
G01 X-44.3349 Y62.8974 
G01 X-44.4430 Y63.0055 
G01 X-44.5279 Y63.1325 
G01 X-44.5864 Y63.2737 
G01 X-44.6162 Y63.4236 
G01 X-44.6162 Y63.5764 
G01 X-44.5864 Y63.7263 
G01 X-44.5279 Y63.8675 
G01 X-44.4430 Y63.9945 
G01 X-44.3349 Y64.1026 
G01 X-44.2079 Y64.1875 
G01 X-44.0667 Y64.2460 
G01 X-43.9168 Y64.2758 
G00 Z2.5400 
G00 X-42.4432 Y66.8158 
G01 Z-0.1500 F254.00 
G01 X-42.2933 Y66.7860 F508.00 
G01 X-42.1521 Y66.7275 
G01 X-42.0251 Y66.6426 
G01 X-41.9170 Y66.5345 
G01 X-41.8321 Y66.4075 
G01 X-41.7736 Y66.2663 
G01 X-41.7438 Y66.1164 
G01 X-41.7438 Y65.9636 
G01 X-41.7736 Y65.8137 
G01 X-41.8321 Y65.6725 
G01 X-41.9170 Y65.5455 
G01 X-42.0251 Y65.4374 
G01 X-42.1521 Y65.3525 
G01 X-42.2933 Y65.2940 
G01 X-42.4432 Y65.2642 
G01 X-43.9168 Y65.2642 
G01 X-44.0667 Y65.2940 
G01 X-44.2079 Y65.3525 
G01 X-44.3349 Y65.4374 
G01 X-44.4430 Y65.5455 
G01 X-44.5279 Y65.6725 
G01 X-44.5864 Y65.8137 
G01 X-44.6162 Y65.9636 
G01 X-44.6162 Y66.1164 
G01 X-44.5864 Y66.2663 
G01 X-44.5279 Y66.4075 
G01 X-44.4430 Y66.5345 
G01 X-44.3349 Y66.6426 
G01 X-44.2093 Y66.7265 
G01 X-49.6673 Y72.1845 
G01 X-49.7355 Y72.2527 
G01 X-49.7724 Y72.3418 
G01 X-49.7724 Y80.3645 
G01 X-49.9092 Y80.3645 
G01 X-50.4455 Y80.9008 
G01 X-50.4455 Y81.6592 
G01 X-49.9092 Y82.1955 
G01 X-49.1508 Y82.1955 
G01 X-48.6145 Y81.6592 
G01 X-48.6145 Y80.9008 
G01 X-49.1508 Y80.3645 
G01 X-49.2876 Y80.3645 
G01 X-49.2876 Y72.4904 
G01 X-43.6130 Y66.8158 
G01 X-42.4432 Y66.8158 
G00 Z2.5400 
G00 X-43.9168 Y69.3558 
G01 Z-0.1500 F254.00 
G01 X-42.4432 Y69.3558 F508.00 
G01 X-42.2933 Y69.3260 
G01 X-42.1521 Y69.2675 
G01 X-42.0251 Y69.1826 
G01 X-41.9170 Y69.0745 
G01 X-41.8321 Y68.9475 
G01 X-41.7803 Y68.8224 
G01 X-12.8004 Y68.8224 
G01 X-4.0524 Y77.5704 
G01 X-4.0524 Y79.2779 
G01 X-4.0767 Y79.3255 
G01 X-4.1280 Y79.4835 
G01 X-4.1540 Y79.6476 
G01 X-4.1540 Y79.8136 
G01 X-4.1280 Y79.9777 
G01 X-4.0767 Y80.1357 
G01 X-4.0013 Y80.2836 
G01 X-3.9037 Y80.4180 
G01 X-3.7862 Y80.5355 
G01 X-3.6518 Y80.6331 
G01 X-3.5039 Y80.7085 
G01 X-3.3459 Y80.7598 
G01 X-3.1818 Y80.7858 
G01 X-3.0158 Y80.7858 
G01 X-2.8517 Y80.7598 
G01 X-2.6937 Y80.7085 
G01 X-2.5458 Y80.6331 
G01 X-2.4114 Y80.5355 
G01 X-2.2939 Y80.4180 
G01 X-2.1963 Y80.2836 
G01 X-2.1209 Y80.1357 
G01 X-2.0696 Y79.9777 
G01 X-2.0436 Y79.8136 
G01 X-2.0436 Y79.6476 
G01 X-2.0696 Y79.4835 
G01 X-2.1209 Y79.3255 
G01 X-2.1963 Y79.1776 
G01 X-2.2939 Y79.0432 
G01 X-2.4114 Y78.9257 
G01 X-2.5458 Y78.8281 
G01 X-2.6937 Y78.7527 
G01 X-2.8517 Y78.7014 
G01 X-3.0158 Y78.6754 
G01 X-3.1818 Y78.6754 
G01 X-3.3459 Y78.7014 
G01 X-3.5039 Y78.7527 
G01 X-3.5676 Y78.7852 
G01 X-3.5676 Y77.4218 
G01 X-3.6045 Y77.3327 
G01 X-12.4945 Y68.4427 
G01 X-12.5627 Y68.3745 
G01 X-12.6518 Y68.3376 
G01 X-41.7803 Y68.3376 
G01 X-41.8321 Y68.2125 
G01 X-41.9170 Y68.0855 
G01 X-42.0251 Y67.9774 
G01 X-42.1521 Y67.8925 
G01 X-42.2933 Y67.8340 
G01 X-42.4432 Y67.8042 
G01 X-43.9168 Y67.8042 
G01 X-44.0667 Y67.8340 
G01 X-44.2079 Y67.8925 
G01 X-44.3349 Y67.9774 
G01 X-44.4430 Y68.0855 
G01 X-44.5279 Y68.2125 
G01 X-44.5864 Y68.3537 
G01 X-44.6162 Y68.5036 
G01 X-44.6162 Y68.6564 
G01 X-44.5864 Y68.8063 
G01 X-44.5279 Y68.9475 
G01 X-44.4430 Y69.0745 
G01 X-44.3349 Y69.1826 
G01 X-44.2079 Y69.2675 
G01 X-44.0667 Y69.3260 
G01 X-43.9168 Y69.3558 
G00 Z2.5400 
G00 X-42.8255 Y88.5208 
G01 Z-0.1500 F254.00 
G01 X-42.8255 Y89.2792 F508.00 
G01 X-42.2892 Y89.8155 
G01 X-41.5308 Y89.8155 
G01 X-40.9945 Y89.2792 
G01 X-40.9945 Y88.5208 
G01 X-41.5308 Y87.9845 
G01 X-42.2892 Y87.9845 
G01 X-42.8255 Y88.5208 
G00 Z2.5400 
G00 X-50.4455 Y88.5208 
G01 Z-0.1500 F254.00 
G01 X-50.4455 Y89.2792 F508.00 
G01 X-49.9092 Y89.8155 
G01 X-49.1508 Y89.8155 
G01 X-48.6145 Y89.2792 
G01 X-48.6145 Y88.5208 
G01 X-49.1508 Y87.9845 
G01 X-49.9092 Y87.9845 
G01 X-50.4455 Y88.5208 
G00 Z2.5400 
G00 X-50.4455 Y85.9808 
G01 Z-0.1500 F254.00 
G01 X-50.4455 Y86.7392 F508.00 
G01 X-49.9092 Y87.2755 
G01 X-49.1508 Y87.2755 
G01 X-48.6145 Y86.7392 
G01 X-48.6145 Y85.9808 
G01 X-49.1508 Y85.4445 
G01 X-49.9092 Y85.4445 
G01 X-50.4455 Y85.9808 
G00 Z2.5400 
G00 X-50.4455 Y83.4408 
G01 Z-0.1500 F254.00 
G01 X-50.4455 Y84.1992 F508.00 
G01 X-49.9092 Y84.7355 
G01 X-49.1508 Y84.7355 
G01 X-48.6145 Y84.1992 
G01 X-48.6145 Y83.4408 
G01 X-49.1508 Y82.9045 
G01 X-49.9092 Y82.9045 
G01 X-50.4455 Y83.4408 
G00 Z2.5400 
G00 X-31.9416 Y90.0886 
G01 Z-0.1500 F254.00 
G01 X-31.9416 Y90.2514 F508.00 
G01 X-31.9098 Y90.4111 
G01 X-31.8475 Y90.5615 
G01 X-31.7571 Y90.6969 
G01 X-31.6419 Y90.8121 
G01 X-31.5065 Y90.9025 
G01 X-31.3561 Y90.9648 
G01 X-31.1964 Y90.9966 
G01 X-31.0336 Y90.9966 
G01 X-30.8739 Y90.9648 
G01 X-30.7235 Y90.9025 
G01 X-30.5881 Y90.8121 
G01 X-30.4729 Y90.6969 
G01 X-30.4020 Y90.5908 
G01 X-29.3473 Y91.6455 
G01 X-29.2582 Y91.6824 
G01 X-19.0018 Y91.6824 
G01 X-18.9127 Y91.6455 
G01 X-18.8445 Y91.5773 
G01 X-17.8580 Y90.5908 
G01 X-17.7871 Y90.6969 
G01 X-17.6719 Y90.8121 
G01 X-17.5365 Y90.9025 
G01 X-17.3861 Y90.9648 
G01 X-17.2264 Y90.9966 
G01 X-17.0636 Y90.9966 
G01 X-16.9039 Y90.9648 
G01 X-16.7535 Y90.9025 
G01 X-16.6181 Y90.8121 
G01 X-16.5029 Y90.6969 
G01 X-16.4125 Y90.5615 
G01 X-16.3502 Y90.4111 
G01 X-16.3184 Y90.2514 
G01 X-16.3184 Y90.0886 
G01 X-16.3502 Y89.9289 
G01 X-16.4125 Y89.7785 
G01 X-16.5029 Y89.6431 
G01 X-16.6181 Y89.5279 
G01 X-16.7535 Y89.4375 
G01 X-16.9039 Y89.3752 
G01 X-17.0636 Y89.3434 
G01 X-17.2264 Y89.3434 
G01 X-17.3861 Y89.3752 
G01 X-17.5365 Y89.4375 
G01 X-17.6719 Y89.5279 
G01 X-17.7871 Y89.6431 
G01 X-17.8775 Y89.7785 
G01 X-17.9398 Y89.9289 
G01 X-17.9543 Y90.0015 
G01 X-17.9855 Y90.0327 
G01 X-19.1504 Y91.1976 
G01 X-29.1096 Y91.1976 
G01 X-30.2745 Y90.0327 
G01 X-30.3057 Y90.0015 
G01 X-30.3202 Y89.9289 
G01 X-30.3825 Y89.7785 
G01 X-30.4729 Y89.6431 
G01 X-30.5881 Y89.5279 
G01 X-30.7235 Y89.4375 
G01 X-30.8739 Y89.3752 
G01 X-31.0336 Y89.3434 
G01 X-31.1964 Y89.3434 
G01 X-31.3561 Y89.3752 
G01 X-31.5065 Y89.4375 
G01 X-31.6419 Y89.5279 
G01 X-31.7571 Y89.6431 
G01 X-31.8475 Y89.7785 
G01 X-31.9098 Y89.9289 
G01 X-31.9416 Y90.0886 
G00 Z2.5400 
G00 X-34.4498 Y90.4111 
G01 Z-0.1500 F254.00 
G01 X-34.3875 Y90.5615 F508.00 
G01 X-34.2971 Y90.6969 
G01 X-34.1819 Y90.8121 
G01 X-34.0465 Y90.9025 
G01 X-33.8961 Y90.9648 
G01 X-33.7364 Y90.9966 
G01 X-33.5736 Y90.9966 
G01 X-33.4139 Y90.9648 
G01 X-33.2635 Y90.9025 
G01 X-33.1281 Y90.8121 
G01 X-33.0129 Y90.6969 
G01 X-32.9225 Y90.5615 
G01 X-32.8602 Y90.4111 
G01 X-32.8284 Y90.2514 
G01 X-32.8284 Y90.0886 
G01 X-32.8602 Y89.9289 
G01 X-32.9225 Y89.7785 
G01 X-33.0129 Y89.6431 
G01 X-33.1281 Y89.5279 
G01 X-33.2635 Y89.4375 
G01 X-33.4139 Y89.3752 
G01 X-33.5736 Y89.3434 
G01 X-33.7364 Y89.3434 
G01 X-33.8961 Y89.3752 
G01 X-34.0465 Y89.4375 
G01 X-34.1819 Y89.5279 
G01 X-34.2971 Y89.6431 
G01 X-34.3680 Y89.7492 
G01 X-37.8945 Y86.2227 
G01 X-37.9627 Y86.1545 
G01 X-38.0518 Y86.1176 
G01 X-40.9945 Y86.1176 
G01 X-40.9945 Y85.9808 
G01 X-41.5308 Y85.4445 
G01 X-42.2892 Y85.4445 
G01 X-42.8255 Y85.9808 
G01 X-42.8255 Y86.7392 
G01 X-42.2892 Y87.2755 
G01 X-41.5308 Y87.2755 
G01 X-40.9945 Y86.7392 
G01 X-40.9945 Y86.6024 
G01 X-38.2004 Y86.6024 
G01 X-34.4955 Y90.3073 
G01 X-34.4643 Y90.3385 
G01 X-34.4498 Y90.4111 
G00 Z2.5400 
G00 X-6.0334 Y96.3743 
G01 Z-0.1500 F254.00 
G01 X-6.0334 Y96.6657 F508.00 
G01 X-5.9954 Y96.9547 
G01 X-5.9199 Y97.2362 
G01 X-5.8084 Y97.5055 
G01 X-5.6627 Y97.7579 
G01 X-5.4852 Y97.9891 
G01 X-5.2791 Y98.1952 
G01 X-5.0479 Y98.3727 
G01 X-4.7955 Y98.5184 
G01 X-4.5262 Y98.6299 
G01 X-4.2447 Y98.7054 
G01 X-3.9557 Y98.7434 
G01 X-3.6643 Y98.7434 
G01 X-3.3753 Y98.7054 
G01 X-3.0938 Y98.6299 
G01 X-2.8245 Y98.5184 
G01 X-2.5721 Y98.3727 
G01 X-2.3409 Y98.1952 
G01 X-2.1348 Y97.9891 
G01 X-1.9573 Y97.7579 
G01 X-1.8116 Y97.5055 
G01 X-1.7001 Y97.2362 
G01 X-1.6246 Y96.9547 
G01 X-1.5866 Y96.6657 
G01 X-1.5866 Y96.3743 
G01 X-1.6246 Y96.0853 
G01 X-1.7001 Y95.8038 
G01 X-1.8116 Y95.5345 
G01 X-1.9573 Y95.2821 
G01 X-2.1348 Y95.0509 
G01 X-2.3409 Y94.8448 
G01 X-2.5721 Y94.6673 
G01 X-2.8245 Y94.5216 
G01 X-3.0938 Y94.4101 
G01 X-3.3753 Y94.3346 
G01 X-3.6643 Y94.2966 
G01 X-3.9557 Y94.2966 
G01 X-4.2447 Y94.3346 
G01 X-4.5262 Y94.4101 
G01 X-4.7955 Y94.5216 
G01 X-5.0479 Y94.6673 
G01 X-5.2791 Y94.8448 
G01 X-5.4852 Y95.0509 
G01 X-5.6627 Y95.2821 
G01 X-5.8084 Y95.5345 
G01 X-5.9199 Y95.8038 
G01 X-5.9954 Y96.0853 
G01 X-6.0334 Y96.3743 
G00 Z2.5400 
G00 X-6.0334 Y3.6643 
G01 Z-0.1500 F254.00 
G01 X-6.0334 Y3.9557 F508.00 
G01 X-5.9954 Y4.2447 
G01 X-5.9199 Y4.5262 
G01 X-5.8084 Y4.7955 
G01 X-5.6627 Y5.0479 
G01 X-5.4852 Y5.2791 
G01 X-5.2791 Y5.4852 
G01 X-5.0479 Y5.6627 
G01 X-4.7955 Y5.8084 
G01 X-4.5262 Y5.9199 
G01 X-4.2447 Y5.9954 
G01 X-3.9557 Y6.0334 
G01 X-3.6643 Y6.0334 
G01 X-3.3753 Y5.9954 
G01 X-3.0938 Y5.9199 
G01 X-2.8245 Y5.8084 
G01 X-2.5721 Y5.6627 
G01 X-2.3409 Y5.4852 
G01 X-2.1348 Y5.2791 
G01 X-1.9573 Y5.0479 
G01 X-1.8116 Y4.7955 
G01 X-1.7001 Y4.5262 
G01 X-1.6246 Y4.2447 
G01 X-1.5866 Y3.9557 
G01 X-1.5866 Y3.6643 
G01 X-1.6246 Y3.3753 
G01 X-1.7001 Y3.0938 
G01 X-1.8116 Y2.8245 
G01 X-1.9573 Y2.5721 
G01 X-2.1348 Y2.3409 
G01 X-2.3409 Y2.1348 
G01 X-2.5721 Y1.9573 
G01 X-2.8245 Y1.8116 
G01 X-3.0938 Y1.7001 
G01 X-3.3753 Y1.6246 
G01 X-3.6643 Y1.5866 
G01 X-3.9557 Y1.5866 
G01 X-4.2447 Y1.6246 
G01 X-4.5262 Y1.7001 
G01 X-4.7955 Y1.8116 
G01 X-5.0479 Y1.9573 
G01 X-5.2791 Y2.1348 
G01 X-5.4852 Y2.3409 
G01 X-5.6627 Y2.5721 
G01 X-5.8084 Y2.8245 
G01 X-5.9199 Y3.0938 
G01 X-5.9954 Y3.3753 
G01 X-6.0334 Y3.6643 
G00 Z2.5400 
G00 X-82.2334 Y96.3743 
G01 Z-0.1500 F254.00 
G01 X-82.2334 Y96.6657 F508.00 
G01 X-82.1954 Y96.9547 
G01 X-82.1199 Y97.2362 
G01 X-82.0084 Y97.5055 
G01 X-81.8627 Y97.7579 
G01 X-81.6852 Y97.9891 
G01 X-81.4791 Y98.1952 
G01 X-81.2479 Y98.3727 
G01 X-80.9955 Y98.5184 
G01 X-80.7262 Y98.6299 
G01 X-80.4447 Y98.7054 
G01 X-80.1557 Y98.7434 
G01 X-79.8643 Y98.7434 
G01 X-79.5753 Y98.7054 
G01 X-79.2938 Y98.6299 
G01 X-79.0245 Y98.5184 
G01 X-78.7721 Y98.3727 
G01 X-78.5409 Y98.1952 
G01 X-78.3348 Y97.9891 
G01 X-78.1573 Y97.7579 
G01 X-78.0116 Y97.5055 
G01 X-77.9001 Y97.2362 
G01 X-77.8246 Y96.9547 
G01 X-77.7866 Y96.6657 
G01 X-77.7866 Y96.3743 
G01 X-77.8246 Y96.0853 
G01 X-77.9001 Y95.8038 
G01 X-78.0116 Y95.5345 
G01 X-78.1573 Y95.2821 
G01 X-78.3348 Y95.0509 
G01 X-78.5409 Y94.8448 
G01 X-78.7721 Y94.6673 
G01 X-79.0245 Y94.5216 
G01 X-79.2938 Y94.4101 
G01 X-79.5753 Y94.3346 
G01 X-79.8643 Y94.2966 
G01 X-80.1557 Y94.2966 
G01 X-80.4447 Y94.3346 
G01 X-80.7262 Y94.4101 
G01 X-80.9955 Y94.5216 
G01 X-81.2479 Y94.6673 
G01 X-81.4791 Y94.8448 
G01 X-81.6852 Y95.0509 
G01 X-81.8627 Y95.2821 
G01 X-82.0084 Y95.5345 
G01 X-82.1199 Y95.8038 
G01 X-82.1954 Y96.0853 
G01 X-82.2334 Y96.3743 
G00 Z2.5400 
G00 X-82.2334 Y3.6643 
G01 Z-0.1500 F254.00 
G01 X-82.2334 Y3.9557 F508.00 
G01 X-82.1954 Y4.2447 
G01 X-82.1199 Y4.5262 
G01 X-82.0084 Y4.7955 
G01 X-81.8627 Y5.0479 
G01 X-81.6852 Y5.2791 
G01 X-81.4791 Y5.4852 
G01 X-81.2479 Y5.6627 
G01 X-80.9955 Y5.8084 
G01 X-80.7262 Y5.9199 
G01 X-80.4447 Y5.9954 
G01 X-80.1557 Y6.0334 
G01 X-79.8643 Y6.0334 
G01 X-79.5753 Y5.9954 
G01 X-79.2938 Y5.9199 
G01 X-79.0245 Y5.8084 
G01 X-78.7721 Y5.6627 
G01 X-78.5409 Y5.4852 
G01 X-78.3348 Y5.2791 
G01 X-78.1573 Y5.0479 
G01 X-78.0116 Y4.7955 
G01 X-77.9001 Y4.5262 
G01 X-77.8246 Y4.2447 
G01 X-77.7866 Y3.9557 
G01 X-77.7866 Y3.6643 
G01 X-77.8246 Y3.3753 
G01 X-77.9001 Y3.0938 
G01 X-78.0116 Y2.8245 
G01 X-78.1573 Y2.5721 
G01 X-78.3348 Y2.3409 
G01 X-78.5409 Y2.1348 
G01 X-78.7721 Y1.9573 
G01 X-79.0245 Y1.8116 
G01 X-79.2938 Y1.7001 
G01 X-79.5753 Y1.6246 
G01 X-79.8643 Y1.5866 
G01 X-80.1557 Y1.5866 
G01 X-80.4447 Y1.6246 
G01 X-80.7262 Y1.7001 
G01 X-80.9955 Y1.8116 
G01 X-81.2479 Y1.9573 
G01 X-81.4791 Y2.1348 
G01 X-81.6852 Y2.3409 
G01 X-81.8627 Y2.5721 
G01 X-82.0084 Y2.8245 
G01 X-82.1199 Y3.0938 
G01 X-82.1954 Y3.3753 
G01 X-82.2334 Y3.6643 
G00 Z2.5400 
G00 X-28.9280 Y87.3518 
G01 Z-0.1500 F254.00 
G01 X-28.9999 Y87.1783 F508.00 
G01 X-29.1043 Y87.0221 
G01 X-29.2371 Y86.8893 
G01 X-29.3933 Y86.7849 
G01 X-29.5274 Y86.7294 
G01 X-20.4730 Y86.7294 
G01 X-19.3456 Y87.8568 
G01 X-19.3413 Y87.8611 
G01 X-19.3320 Y87.9082 
G01 X-19.2601 Y88.0817 
G01 X-19.1557 Y88.2379 
G01 X-19.0229 Y88.3707 
G01 X-18.8667 Y88.4751 
G01 X-18.7326 Y88.5306 
G01 X-27.7870 Y88.5306 
G01 X-28.9144 Y87.4032 
G01 X-28.9187 Y87.3989 
G01 X-28.9280 Y87.3518 
G00 Z2.5400 
G00 X-32.8367 Y86.7849 
G01 Z-0.1500 F254.00 
G01 X-32.9929 Y86.8893 F508.00 
G01 X-33.1156 Y87.0120 
G01 X-33.3982 Y86.7294 
G01 X-32.7026 Y86.7294 
G01 X-32.8367 Y86.7849 
G00 Z2.5400 
G00 X-1.6168 Y90.3594 
G01 Z-0.1500 F254.00 
G01 X-3.4632 Y90.3594 F508.00 
G01 X-3.6312 Y90.3860 
G01 X-3.7930 Y90.4386 
G01 X-3.9446 Y90.5158 
G01 X-4.0822 Y90.6158 
G01 X-4.2024 Y90.7360 
G01 X-4.3024 Y90.8736 
G01 X-4.3796 Y91.0252 
G01 X-4.4322 Y91.1870 
G01 X-4.4588 Y91.3550 
G01 X-4.4588 Y91.5250 
G01 X-4.4322 Y91.6930 
G01 X-4.3796 Y91.8548 
G01 X-4.3024 Y92.0064 
G01 X-4.2024 Y92.1440 
G01 X-4.0822 Y92.2642 
G01 X-3.9446 Y92.3642 
G01 X-3.7930 Y92.4414 
G01 X-3.6312 Y92.4940 
G01 X-3.4632 Y92.5206 
G01 X-1.6168 Y92.5206 
G01 X-1.4488 Y92.4940 
G01 X-1.2870 Y92.4414 
G01 X-1.1354 Y92.3642 
G01 X-0.9978 Y92.2642 
G01 X-0.8776 Y92.1440 
G01 X-0.7776 Y92.0064 
G01 X-0.7004 Y91.8548 
G01 X-0.6478 Y91.6930 
G01 X-0.6212 Y91.5250 
G01 X-0.6212 Y91.3550 
G01 X-0.6478 Y91.1870 
G01 X-0.7004 Y91.0252 
G01 X-0.7776 Y90.8736 
G01 X-0.8776 Y90.7360 
G01 X-0.9978 Y90.6158 
G01 X-1.1354 Y90.5158 
G01 X-1.2870 Y90.4386 
G01 X-1.4488 Y90.3860 
G01 X-1.6168 Y90.3594 
G00 Z2.5400 
G00 X-1.6168 Y86.5494 
G01 Z-0.1500 F254.00 
G01 X-3.4632 Y86.5494 F508.00 
G01 X-3.6312 Y86.5760 
G01 X-3.7930 Y86.6286 
G01 X-3.9446 Y86.7058 
G01 X-4.0822 Y86.8058 
G01 X-4.2024 Y86.9260 
G01 X-4.3024 Y87.0636 
G01 X-4.3796 Y87.2152 
G01 X-4.3944 Y87.2606 
G01 X-14.9958 Y87.2606 
G01 X-15.0299 Y87.1783 
G01 X-15.1343 Y87.0221 
G01 X-15.2671 Y86.8893 
G01 X-15.4233 Y86.7849 
G01 X-15.5968 Y86.7130 
G01 X-15.7811 Y86.6764 
G01 X-15.9689 Y86.6764 
G01 X-16.1532 Y86.7130 
G01 X-16.3267 Y86.7849 
G01 X-16.4829 Y86.8893 
G01 X-16.6157 Y87.0221 
G01 X-16.7201 Y87.1783 
G01 X-16.7919 Y87.3518 
G01 X-16.8013 Y87.3989 
G01 X-16.8056 Y87.4032 
G01 X-17.9330 Y88.5306 
G01 X-18.0974 Y88.5306 
G01 X-17.9633 Y88.4751 
G01 X-17.8071 Y88.3707 
G01 X-17.6743 Y88.2379 
G01 X-17.5699 Y88.0817 
G01 X-17.4980 Y87.9082 
G01 X-17.4614 Y87.7239 
G01 X-17.4614 Y87.5361 
G01 X-17.4980 Y87.3518 
G01 X-17.5699 Y87.1783 
G01 X-17.6743 Y87.0221 
G01 X-17.8071 Y86.8893 
G01 X-17.9633 Y86.7849 
G01 X-18.1368 Y86.7130 
G01 X-18.3211 Y86.6764 
G01 X-18.5089 Y86.6764 
G01 X-18.6932 Y86.7130 
G01 X-18.8667 Y86.7849 
G01 X-19.0229 Y86.8893 
G01 X-19.1456 Y87.0120 
G01 X-20.0244 Y86.1332 
G01 X-20.0932 Y86.0644 
G01 X-20.1774 Y86.0158 
G01 X-20.2714 Y85.9906 
G01 X-34.1370 Y85.9906 
G01 X-36.5344 Y83.5932 
G01 X-36.6032 Y83.5244 
G01 X-36.6874 Y83.4758 
G01 X-36.7814 Y83.4506 
G01 X-40.8675 Y83.4506 
G01 X-40.8675 Y83.3882 
G01 X-41.4782 Y82.7775 
G01 X-42.3418 Y82.7775 
G01 X-42.9525 Y83.3882 
G01 X-42.9525 Y84.2518 
G01 X-42.3418 Y84.8625 
G01 X-41.4782 Y84.8625 
G01 X-40.8675 Y84.2518 
G01 X-40.8675 Y84.1894 
G01 X-36.9830 Y84.1894 
G01 X-34.5856 Y86.5868 
G01 X-34.5168 Y86.6556 
G01 X-33.3156 Y87.8568 
G01 X-33.3113 Y87.8611 
G01 X-33.3020 Y87.9082 
G01 X-33.2301 Y88.0817 
G01 X-33.1257 Y88.2379 
G01 X-32.9929 Y88.3707 
G01 X-32.8367 Y88.4751 
G01 X-32.6632 Y88.5470 
G01 X-32.4789 Y88.5836 
G01 X-32.2911 Y88.5836 
G01 X-32.1068 Y88.5470 
G01 X-31.9333 Y88.4751 
G01 X-31.7771 Y88.3707 
G01 X-31.6443 Y88.2379 
G01 X-31.5399 Y88.0817 
G01 X-31.4680 Y87.9082 
G01 X-31.4314 Y87.7239 
G01 X-31.4314 Y87.5361 
G01 X-31.4680 Y87.3518 
G01 X-31.5399 Y87.1783 
G01 X-31.6443 Y87.0221 
G01 X-31.7771 Y86.8893 
G01 X-31.9333 Y86.7849 
G01 X-32.0674 Y86.7294 
G01 X-30.1626 Y86.7294 
G01 X-30.2967 Y86.7849 
G01 X-30.4529 Y86.8893 
G01 X-30.5857 Y87.0221 
G01 X-30.6901 Y87.1783 
G01 X-30.7620 Y87.3518 
G01 X-30.7986 Y87.5361 
G01 X-30.7986 Y87.7239 
G01 X-30.7620 Y87.9082 
G01 X-30.6901 Y88.0817 
G01 X-30.5857 Y88.2379 
G01 X-30.4529 Y88.3707 
G01 X-30.2967 Y88.4751 
G01 X-30.1232 Y88.5470 
G01 X-29.9389 Y88.5836 
G01 X-29.7511 Y88.5836 
G01 X-29.5668 Y88.5470 
G01 X-29.3933 Y88.4751 
G01 X-29.2371 Y88.3707 
G01 X-29.1144 Y88.2480 
G01 X-28.2356 Y89.1268 
G01 X-28.1668 Y89.1956 
G01 X-28.0826 Y89.2442 
G01 X-27.9886 Y89.2694 
G01 X-20.0026 Y89.2694 
G01 X-20.1367 Y89.3249 
G01 X-20.2929 Y89.4293 
G01 X-20.4257 Y89.5621 
G01 X-20.5301 Y89.7183 
G01 X-20.6020 Y89.8918 
G01 X-20.6386 Y90.0761 
G01 X-20.6386 Y90.2639 
G01 X-20.6020 Y90.4482 
G01 X-20.5301 Y90.6217 
G01 X-20.4257 Y90.7779 
G01 X-20.2929 Y90.9107 
G01 X-20.1367 Y91.0151 
G01 X-20.0026 Y91.0706 
G01 X-29.0570 Y91.0706 
G01 X-30.1844 Y89.9432 
G01 X-30.1887 Y89.9389 
G01 X-30.1980 Y89.8918 
G01 X-30.2699 Y89.7183 
G01 X-30.3743 Y89.5621 
G01 X-30.5071 Y89.4293 
G01 X-30.6633 Y89.3249 
G01 X-30.8368 Y89.2530 
G01 X-31.0211 Y89.2164 
G01 X-31.2089 Y89.2164 
G01 X-31.3932 Y89.2530 
G01 X-31.5667 Y89.3249 
G01 X-31.7229 Y89.4293 
G01 X-31.8557 Y89.5621 
G01 X-31.9601 Y89.7183 
G01 X-32.0320 Y89.8918 
G01 X-32.0686 Y90.0761 
G01 X-32.0686 Y90.2639 
G01 X-32.0320 Y90.4482 
G01 X-31.9601 Y90.6217 
G01 X-31.8557 Y90.7779 
G01 X-31.7229 Y90.9107 
G01 X-31.5667 Y91.0151 
G01 X-31.3932 Y91.0870 
G01 X-31.2089 Y91.1236 
G01 X-31.0211 Y91.1236 
G01 X-30.8368 Y91.0870 
G01 X-30.6633 Y91.0151 
G01 X-30.5071 Y90.9107 
G01 X-30.3844 Y90.7880 
G01 X-29.4368 Y91.7356 
G01 X-29.3526 Y91.7842 
G01 X-29.2586 Y91.8094 
G01 X-19.0014 Y91.8094 
G01 X-18.9074 Y91.7842 
G01 X-18.8232 Y91.7356 
G01 X-18.7544 Y91.6668 
G01 X-17.8756 Y90.7880 
G01 X-17.7529 Y90.9107 
G01 X-17.5967 Y91.0151 
G01 X-17.4232 Y91.0870 
G01 X-17.2389 Y91.1236 
G01 X-17.0511 Y91.1236 
G01 X-16.8668 Y91.0870 
G01 X-16.6933 Y91.0151 
G01 X-16.5371 Y90.9107 
G01 X-16.4043 Y90.7779 
G01 X-16.2999 Y90.6217 
G01 X-16.2280 Y90.4482 
G01 X-16.1914 Y90.2639 
G01 X-16.1914 Y90.0761 
G01 X-16.2280 Y89.8918 
G01 X-16.2999 Y89.7183 
G01 X-16.4043 Y89.5621 
G01 X-16.5371 Y89.4293 
G01 X-16.6933 Y89.3249 
G01 X-16.8668 Y89.2530 
G01 X-17.0511 Y89.2164 
G01 X-17.2389 Y89.2164 
G01 X-17.4232 Y89.2530 
G01 X-17.5967 Y89.3249 
G01 X-17.7529 Y89.4293 
G01 X-17.8857 Y89.5621 
G01 X-17.9901 Y89.7183 
G01 X-18.0619 Y89.8918 
G01 X-18.0713 Y89.9389 
G01 X-18.0756 Y89.9432 
G01 X-19.2030 Y91.0706 
G01 X-19.3674 Y91.0706 
G01 X-19.2333 Y91.0151 
G01 X-19.0771 Y90.9107 
G01 X-18.9443 Y90.7779 
G01 X-18.8399 Y90.6217 
G01 X-18.7680 Y90.4482 
G01 X-18.7314 Y90.2639 
G01 X-18.7314 Y90.0761 
G01 X-18.7680 Y89.8918 
G01 X-18.8399 Y89.7183 
G01 X-18.9443 Y89.5621 
G01 X-19.0771 Y89.4293 
G01 X-19.2333 Y89.3249 
G01 X-19.3674 Y89.2694 
G01 X-17.7314 Y89.2694 
G01 X-17.6374 Y89.2442 
G01 X-17.5532 Y89.1956 
G01 X-16.6056 Y88.2480 
G01 X-16.4829 Y88.3707 
G01 X-16.3267 Y88.4751 
G01 X-16.1532 Y88.5470 
G01 X-15.9689 Y88.5836 
G01 X-15.7811 Y88.5836 
G01 X-15.5968 Y88.5470 
G01 X-15.4233 Y88.4751 
G01 X-15.2671 Y88.3707 
G01 X-15.1343 Y88.2379 
G01 X-15.0299 Y88.0817 
G01 X-14.9958 Y87.9994 
G01 X-4.3944 Y87.9994 
G01 X-4.3796 Y88.0448 
G01 X-4.3024 Y88.1964 
G01 X-4.2024 Y88.3340 
G01 X-4.0822 Y88.4542 
G01 X-3.9446 Y88.5542 
G01 X-3.7930 Y88.6314 
G01 X-3.6312 Y88.6840 
G01 X-3.4632 Y88.7106 
G01 X-1.6168 Y88.7106 
G01 X-1.4488 Y88.6840 
G01 X-1.2870 Y88.6314 
G01 X-1.1354 Y88.5542 
G01 X-0.9978 Y88.4542 
G01 X-0.8776 Y88.3340 
G01 X-0.7776 Y88.1964 
G01 X-0.7004 Y88.0448 
G01 X-0.6478 Y87.8830 
G01 X-0.6212 Y87.7150 
G01 X-0.6212 Y87.5450 
G01 X-0.6478 Y87.3770 
G01 X-0.7004 Y87.2152 
G01 X-0.7776 Y87.0636 
G01 X-0.8776 Y86.9260 
G01 X-0.9978 Y86.8058 
G01 X-1.1354 Y86.7058 
G01 X-1.2870 Y86.6286 
G01 X-1.4488 Y86.5760 
G01 X-1.6168 Y86.5494 
G00 Z2.5400 
G00 X-1.6168 Y82.7394 
G01 Z-0.1500 F254.00 
G01 X-3.4632 Y82.7394 F508.00 
G01 X-3.6312 Y82.7660 
G01 X-3.7930 Y82.8186 
G01 X-3.9446 Y82.8958 
G01 X-4.0822 Y82.9958 
G01 X-4.2024 Y83.1160 
G01 X-4.3024 Y83.2536 
G01 X-4.3796 Y83.4052 
G01 X-4.4322 Y83.5670 
G01 X-4.4588 Y83.7350 
G01 X-4.4588 Y83.9050 
G01 X-4.4322 Y84.0730 
G01 X-4.3796 Y84.2348 
G01 X-4.3024 Y84.3864 
G01 X-4.2024 Y84.5240 
G01 X-4.0822 Y84.6442 
G01 X-3.9446 Y84.7442 
G01 X-3.7930 Y84.8214 
G01 X-3.6312 Y84.8740 
G01 X-3.4632 Y84.9006 
G01 X-1.6168 Y84.9006 
G01 X-1.4488 Y84.8740 
G01 X-1.2870 Y84.8214 
G01 X-1.1354 Y84.7442 
G01 X-0.9978 Y84.6442 
G01 X-0.8776 Y84.5240 
G01 X-0.7776 Y84.3864 
G01 X-0.7004 Y84.2348 
G01 X-0.6478 Y84.0730 
G01 X-0.6212 Y83.9050 
G01 X-0.6212 Y83.7350 
G01 X-0.6478 Y83.5670 
G01 X-0.7004 Y83.4052 
G01 X-0.7776 Y83.2536 
G01 X-0.8776 Y83.1160 
G01 X-0.9978 Y82.9958 
G01 X-1.1354 Y82.8958 
G01 X-1.2870 Y82.8186 
G01 X-1.4488 Y82.7660 
G01 X-1.6168 Y82.7394 
G00 Z2.5400 
G00 X-10.7834 Y75.1164 
G01 Z-0.1500 F254.00 
G01 X-10.7834 Y75.3024 F508.00 
G01 X-10.7543 Y75.4862 
G01 X-10.6968 Y75.6632 
G01 X-10.6123 Y75.8290 
G01 X-10.5029 Y75.9796 
G01 X-10.3713 Y76.1111 
G01 X-10.2208 Y76.2205 
G01 X-10.0550 Y76.3050 
G01 X-9.8780 Y76.3625 
G01 X-9.6942 Y76.3916 
G01 X-9.5082 Y76.3916 
G01 X-9.3244 Y76.3625 
G01 X-9.1474 Y76.3050 
G01 X-8.9816 Y76.2205 
G01 X-8.8310 Y76.1111 
G01 X-8.6995 Y75.9796 
G01 X-8.5901 Y75.8290 
G01 X-8.5056 Y75.6632 
G01 X-8.4481 Y75.4862 
G01 X-8.4190 Y75.3024 
G01 X-8.4190 Y75.1164 
G01 X-8.4481 Y74.9326 
G01 X-8.5056 Y74.7556 
G01 X-8.5901 Y74.5898 
G01 X-8.6995 Y74.4392 
G01 X-8.8310 Y74.3077 
G01 X-8.9816 Y74.1983 
G01 X-9.1474 Y74.1138 
G01 X-9.3244 Y74.0563 
G01 X-9.5082 Y74.0272 
G01 X-9.6942 Y74.0272 
G01 X-9.8780 Y74.0563 
G01 X-10.0550 Y74.1138 
G01 X-10.2208 Y74.1983 
G01 X-10.3713 Y74.3077 
G01 X-10.5029 Y74.4392 
G01 X-10.6123 Y74.5898 
G01 X-10.6968 Y74.7556 
G01 X-10.7543 Y74.9326 
G01 X-10.7834 Y75.1164 
G00 Z2.5400 
G00 X-4.2810 Y75.1164 
G01 Z-0.1500 F254.00 
G01 X-4.2810 Y75.3024 F508.00 
G01 X-4.2519 Y75.4862 
G01 X-4.1944 Y75.6632 
G01 X-4.1099 Y75.8290 
G01 X-4.0005 Y75.9796 
G01 X-3.8690 Y76.1111 
G01 X-3.7184 Y76.2205 
G01 X-3.5526 Y76.3050 
G01 X-3.3756 Y76.3625 
G01 X-3.1918 Y76.3916 
G01 X-3.0058 Y76.3916 
G01 X-2.8220 Y76.3625 
G01 X-2.6450 Y76.3050 
G01 X-2.4792 Y76.2205 
G01 X-2.3286 Y76.1111 
G01 X-2.1971 Y75.9796 
G01 X-2.0877 Y75.8290 
G01 X-2.0032 Y75.6632 
G01 X-1.9457 Y75.4862 
G01 X-1.9166 Y75.3024 
G01 X-1.9166 Y75.1164 
G01 X-1.9457 Y74.9326 
G01 X-2.0032 Y74.7556 
G01 X-2.0877 Y74.5898 
G01 X-2.1971 Y74.4392 
G01 X-2.3286 Y74.3077 
G01 X-2.4792 Y74.1983 
G01 X-2.6450 Y74.1138 
G01 X-2.8220 Y74.0563 
G01 X-3.0058 Y74.0272 
G01 X-3.1918 Y74.0272 
G01 X-3.3756 Y74.0563 
G01 X-3.5526 Y74.1138 
G01 X-3.7184 Y74.1983 
G01 X-3.8690 Y74.3077 
G01 X-4.0005 Y74.4392 
G01 X-4.1099 Y74.5898 
G01 X-4.1944 Y74.7556 
G01 X-4.2519 Y74.9326 
G01 X-4.2810 Y75.1164 
G00 Z2.5400 
G00 X-10.7834 Y79.6376 
G01 Z-0.1500 F254.00 
G01 X-10.7834 Y79.8236 F508.00 
G01 X-10.7543 Y80.0074 
G01 X-10.6968 Y80.1844 
G01 X-10.6123 Y80.3502 
G01 X-10.5029 Y80.5008 
G01 X-10.3713 Y80.6323 
G01 X-10.2208 Y80.7417 
G01 X-10.0550 Y80.8262 
G01 X-9.8780 Y80.8837 
G01 X-9.6942 Y80.9128 
G01 X-9.5082 Y80.9128 
G01 X-9.3244 Y80.8837 
G01 X-9.1474 Y80.8262 
G01 X-8.9816 Y80.7417 
G01 X-8.8310 Y80.6323 
G01 X-8.6995 Y80.5008 
G01 X-8.5901 Y80.3502 
G01 X-8.5056 Y80.1844 
G01 X-8.4481 Y80.0074 
G01 X-8.4190 Y79.8236 
G01 X-8.4190 Y79.6376 
G01 X-8.4481 Y79.4538 
G01 X-8.5056 Y79.2768 
G01 X-8.5901 Y79.1110 
G01 X-8.6995 Y78.9604 
G01 X-8.8310 Y78.8289 
G01 X-8.9816 Y78.7195 
G01 X-9.1474 Y78.6350 
G01 X-9.3244 Y78.5775 
G01 X-9.5082 Y78.5484 
G01 X-9.6942 Y78.5484 
G01 X-9.8780 Y78.5775 
G01 X-10.0550 Y78.6350 
G01 X-10.2208 Y78.7195 
G01 X-10.3713 Y78.8289 
G01 X-10.5029 Y78.9604 
G01 X-10.6123 Y79.1110 
G01 X-10.6968 Y79.2768 
G01 X-10.7543 Y79.4538 
G01 X-10.7834 Y79.6376 
G00 Z2.5400 
G00 X-51.5493 Y69.4828 
G01 Z-0.1500 F254.00 
G01 X-50.0507 Y69.4828 F508.00 
G01 X-49.8763 Y69.4481 
G01 X-49.7120 Y69.3800 
G01 X-49.5641 Y69.2812 
G01 X-49.4383 Y69.1555 
G01 X-49.3396 Y69.0076 
G01 X-49.2715 Y68.8433 
G01 X-49.2368 Y68.6689 
G01 X-49.2368 Y68.4911 
G01 X-49.2715 Y68.3167 
G01 X-49.3396 Y68.1524 
G01 X-49.4383 Y68.0045 
G01 X-49.5641 Y67.8787 
G01 X-49.7120 Y67.7799 
G01 X-49.8763 Y67.7119 
G01 X-50.0507 Y67.6772 
G01 X-51.5493 Y67.6772 
G01 X-51.7237 Y67.7119 
G01 X-51.8880 Y67.7799 
G01 X-52.0359 Y67.8787 
G01 X-52.1616 Y68.0045 
G01 X-52.2604 Y68.1524 
G01 X-52.3285 Y68.3167 
G01 X-52.3632 Y68.4911 
G01 X-52.3632 Y68.6689 
G01 X-52.3285 Y68.8433 
G01 X-52.2604 Y69.0076 
G01 X-52.1616 Y69.1555 
G01 X-52.0359 Y69.2812 
G01 X-51.8880 Y69.3800 
G01 X-51.7237 Y69.4481 
G01 X-51.5493 Y69.4828 
G00 Z2.5400 
G00 X-51.5493 Y66.9428 
G01 Z-0.1500 F254.00 
G01 X-50.0507 Y66.9428 F508.00 
G01 X-49.8763 Y66.9081 
G01 X-49.7120 Y66.8400 
G01 X-49.5641 Y66.7412 
G01 X-49.4383 Y66.6155 
G01 X-49.3396 Y66.4676 
G01 X-49.2715 Y66.3033 
G01 X-49.2368 Y66.1289 
G01 X-49.2368 Y65.9511 
G01 X-49.2715 Y65.7767 
G01 X-49.3396 Y65.6124 
G01 X-49.4383 Y65.4645 
G01 X-49.5641 Y65.3388 
G01 X-49.7120 Y65.2400 
G01 X-49.8763 Y65.1719 
G01 X-50.0507 Y65.1372 
G01 X-51.5493 Y65.1372 
G01 X-51.7237 Y65.1719 
G01 X-51.8880 Y65.2400 
G01 X-52.0359 Y65.3388 
G01 X-52.1616 Y65.4645 
G01 X-52.2604 Y65.6124 
G01 X-52.3285 Y65.7767 
G01 X-52.3632 Y65.9511 
G01 X-52.3632 Y66.1289 
G01 X-52.3285 Y66.3033 
G01 X-52.2604 Y66.4676 
G01 X-52.1616 Y66.6155 
G01 X-52.0359 Y66.7412 
G01 X-51.8880 Y66.8400 
G01 X-51.7237 Y66.9081 
G01 X-51.5493 Y66.9428 
G00 Z2.5400 
G00 X-51.5493 Y64.4028 
G01 Z-0.1500 F254.00 
G01 X-50.0507 Y64.4028 F508.00 
G01 X-49.8763 Y64.3681 
G01 X-49.7120 Y64.3000 
G01 X-49.5641 Y64.2012 
G01 X-49.4383 Y64.0755 
G01 X-49.3396 Y63.9276 
G01 X-49.2715 Y63.7633 
G01 X-49.2368 Y63.5889 
G01 X-49.2368 Y63.4111 
G01 X-49.2715 Y63.2367 
G01 X-49.3396 Y63.0724 
G01 X-49.4383 Y62.9245 
G01 X-49.5641 Y62.7988 
G01 X-49.7120 Y62.7000 
G01 X-49.8763 Y62.6319 
G01 X-50.0507 Y62.5972 
G01 X-51.5493 Y62.5972 
G01 X-51.7237 Y62.6319 
G01 X-51.8880 Y62.7000 
G01 X-52.0359 Y62.7988 
G01 X-52.1616 Y62.9245 
G01 X-52.2604 Y63.0724 
G01 X-52.3285 Y63.2367 
G01 X-52.3632 Y63.4111 
G01 X-52.3632 Y63.5889 
G01 X-52.3285 Y63.7633 
G01 X-52.2604 Y63.9276 
G01 X-52.1616 Y64.0755 
G01 X-52.0359 Y64.2012 
G01 X-51.8880 Y64.3000 
G01 X-51.7237 Y64.3681 
G01 X-51.5493 Y64.4028 
G00 Z2.5400 
G00 X-51.5493 Y61.8628 
G01 Z-0.1500 F254.00 
G01 X-50.0507 Y61.8628 F508.00 
G01 X-49.8763 Y61.8281 
G01 X-49.7120 Y61.7600 
G01 X-49.5641 Y61.6612 
G01 X-49.4383 Y61.5355 
G01 X-49.3396 Y61.3876 
G01 X-49.2715 Y61.2233 
G01 X-49.2368 Y61.0489 
G01 X-49.2368 Y60.8711 
G01 X-49.2715 Y60.6967 
G01 X-49.3396 Y60.5324 
G01 X-49.4383 Y60.3845 
G01 X-49.5641 Y60.2588 
G01 X-49.7120 Y60.1600 
G01 X-49.8763 Y60.0919 
G01 X-50.0507 Y60.0572 
G01 X-51.5493 Y60.0572 
G01 X-51.7237 Y60.0919 
G01 X-51.8880 Y60.1600 
G01 X-52.0359 Y60.2588 
G01 X-52.1616 Y60.3845 
G01 X-52.2604 Y60.5324 
G01 X-52.3285 Y60.6967 
G01 X-52.3632 Y60.8711 
G01 X-52.3632 Y61.0489 
G01 X-52.3285 Y61.2233 
G01 X-52.2604 Y61.3876 
G01 X-52.1616 Y61.5355 
G01 X-52.0359 Y61.6612 
G01 X-51.8880 Y61.7600 
G01 X-51.7237 Y61.8281 
G01 X-51.5493 Y61.8628 
G00 Z2.5400 
G00 X-51.5493 Y59.3228 
G01 Z-0.1500 F254.00 
G01 X-50.0507 Y59.3228 F508.00 
G01 X-49.8763 Y59.2881 
G01 X-49.7120 Y59.2200 
G01 X-49.5641 Y59.1212 
G01 X-49.4383 Y58.9955 
G01 X-49.3396 Y58.8476 
G01 X-49.2715 Y58.6833 
G01 X-49.2368 Y58.5089 
G01 X-49.2368 Y58.3311 
G01 X-49.2715 Y58.1567 
G01 X-49.3396 Y57.9924 
G01 X-49.4383 Y57.8445 
G01 X-49.5641 Y57.7188 
G01 X-49.7120 Y57.6200 
G01 X-49.8763 Y57.5519 
G01 X-50.0507 Y57.5172 
G01 X-51.5493 Y57.5172 
G01 X-51.7237 Y57.5519 
G01 X-51.8880 Y57.6200 
G01 X-52.0359 Y57.7188 
G01 X-52.1616 Y57.8445 
G01 X-52.2604 Y57.9924 
G01 X-52.3285 Y58.1567 
G01 X-52.3632 Y58.3311 
G01 X-52.3632 Y58.5089 
G01 X-52.3285 Y58.6833 
G01 X-52.2604 Y58.8476 
G01 X-52.1616 Y58.9955 
G01 X-52.0359 Y59.1212 
G01 X-51.8880 Y59.2200 
G01 X-51.7237 Y59.2881 
G01 X-51.5493 Y59.3228 
G00 Z2.5400 
G00 X-51.5493 Y56.7828 
G01 Z-0.1500 F254.00 
G01 X-50.0507 Y56.7828 F508.00 
G01 X-49.8763 Y56.7481 
G01 X-49.7120 Y56.6800 
G01 X-49.5641 Y56.5812 
G01 X-49.4383 Y56.4555 
G01 X-49.3396 Y56.3076 
G01 X-49.2715 Y56.1433 
G01 X-49.2368 Y55.9689 
G01 X-49.2368 Y55.7911 
G01 X-49.2715 Y55.6167 
G01 X-49.3396 Y55.4524 
G01 X-49.4383 Y55.3045 
G01 X-49.5641 Y55.1788 
G01 X-49.7120 Y55.0800 
G01 X-49.8763 Y55.0119 
G01 X-50.0507 Y54.9772 
G01 X-51.5493 Y54.9772 
G01 X-51.7237 Y55.0119 
G01 X-51.8880 Y55.0800 
G01 X-52.0359 Y55.1788 
G01 X-52.1616 Y55.3045 
G01 X-52.2604 Y55.4524 
G01 X-52.3285 Y55.6167 
G01 X-52.3632 Y55.7911 
G01 X-52.3632 Y55.9689 
G01 X-52.3285 Y56.1433 
G01 X-52.2604 Y56.3076 
G01 X-52.1616 Y56.4555 
G01 X-52.0359 Y56.5812 
G01 X-51.8880 Y56.6800 
G01 X-51.7237 Y56.7481 
G01 X-51.5493 Y56.7828 
G00 Z2.5400 
G00 X-51.5493 Y51.7028 
G01 Z-0.1500 F254.00 
G01 X-50.0507 Y51.7028 F508.00 
G01 X-49.8763 Y51.6681 
G01 X-49.7120 Y51.6000 
G01 X-49.5641 Y51.5012 
G01 X-49.4383 Y51.3755 
G01 X-49.3396 Y51.2276 
G01 X-49.2715 Y51.0633 
G01 X-49.2368 Y50.8889 
G01 X-49.2368 Y50.7111 
G01 X-49.2715 Y50.5367 
G01 X-49.3396 Y50.3724 
G01 X-49.4383 Y50.2245 
G01 X-49.5641 Y50.0988 
G01 X-49.7120 Y50.0000 
G01 X-49.8763 Y49.9319 
G01 X-50.0507 Y49.8972 
G01 X-51.5493 Y49.8972 
G01 X-51.7237 Y49.9319 
G01 X-51.8880 Y50.0000 
G01 X-52.0359 Y50.0988 
G01 X-52.1616 Y50.2245 
G01 X-52.2604 Y50.3724 
G01 X-52.3285 Y50.5367 
G01 X-52.3632 Y50.7111 
G01 X-52.3632 Y50.8889 
G01 X-52.3285 Y51.0633 
G01 X-52.2604 Y51.2276 
G01 X-52.1616 Y51.3755 
G01 X-52.0359 Y51.5012 
G01 X-51.8880 Y51.6000 
G01 X-51.7237 Y51.6681 
G01 X-51.5493 Y51.7028 
G00 Z2.5400 
G00 X-51.5493 Y46.6228 
G01 Z-0.1500 F254.00 
G01 X-50.0507 Y46.6228 F508.00 
G01 X-49.8763 Y46.5881 
G01 X-49.7120 Y46.5200 
G01 X-49.5641 Y46.4212 
G01 X-49.4383 Y46.2955 
G01 X-49.3396 Y46.1476 
G01 X-49.2715 Y45.9833 
G01 X-49.2368 Y45.8089 
G01 X-49.2368 Y45.6311 
G01 X-49.2715 Y45.4567 
G01 X-49.3396 Y45.2924 
G01 X-49.4383 Y45.1445 
G01 X-49.5641 Y45.0188 
G01 X-49.7120 Y44.9200 
G01 X-49.8763 Y44.8519 
G01 X-50.0507 Y44.8172 
G01 X-51.5493 Y44.8172 
G01 X-51.7237 Y44.8519 
G01 X-51.8880 Y44.9200 
G01 X-52.0359 Y45.0188 
G01 X-52.1616 Y45.1445 
G01 X-52.2604 Y45.2924 
G01 X-52.3285 Y45.4567 
G01 X-52.3632 Y45.6311 
G01 X-52.3632 Y45.8089 
G01 X-52.3285 Y45.9833 
G01 X-52.2604 Y46.1476 
G01 X-52.1616 Y46.2955 
G01 X-52.0359 Y46.4212 
G01 X-51.8880 Y46.5200 
G01 X-51.7237 Y46.5881 
G01 X-51.5493 Y46.6228 
G00 Z2.5400 
G00 X-51.5493 Y44.0828 
G01 Z-0.1500 F254.00 
G01 X-50.0507 Y44.0828 F508.00 
G01 X-49.8763 Y44.0481 
G01 X-49.7120 Y43.9800 
G01 X-49.5641 Y43.8812 
G01 X-49.4383 Y43.7555 
G01 X-49.3396 Y43.6076 
G01 X-49.2715 Y43.4433 
G01 X-49.2368 Y43.2689 
G01 X-49.2368 Y43.0911 
G01 X-49.2715 Y42.9167 
G01 X-49.3396 Y42.7524 
G01 X-49.4383 Y42.6045 
G01 X-49.5641 Y42.4788 
G01 X-49.7120 Y42.3800 
G01 X-49.8763 Y42.3119 
G01 X-50.0507 Y42.2772 
G01 X-51.5493 Y42.2772 
G01 X-51.7237 Y42.3119 
G01 X-51.8880 Y42.3800 
G01 X-52.0359 Y42.4788 
G01 X-52.1616 Y42.6045 
G01 X-52.2604 Y42.7524 
G01 X-52.3285 Y42.9167 
G01 X-52.3632 Y43.0911 
G01 X-52.3632 Y43.2689 
G01 X-52.3285 Y43.4433 
G01 X-52.2604 Y43.6076 
G01 X-52.1616 Y43.7555 
G01 X-52.0359 Y43.8812 
G01 X-51.8880 Y43.9800 
G01 X-51.7237 Y44.0481 
G01 X-51.5493 Y44.0828 
G00 Z2.5400 
G00 X-51.5493 Y41.5428 
G01 Z-0.1500 F254.00 
G01 X-50.0507 Y41.5428 F508.00 
G01 X-49.8763 Y41.5081 
G01 X-49.7120 Y41.4400 
G01 X-49.5641 Y41.3412 
G01 X-49.4383 Y41.2155 
G01 X-49.3396 Y41.0676 
G01 X-49.2715 Y40.9033 
G01 X-49.2368 Y40.7289 
G01 X-49.2368 Y40.5511 
G01 X-49.2715 Y40.3767 
G01 X-49.3396 Y40.2124 
G01 X-49.4383 Y40.0645 
G01 X-49.5641 Y39.9387 
G01 X-49.7120 Y39.8400 
G01 X-49.8763 Y39.7719 
G01 X-50.0507 Y39.7372 
G01 X-51.5493 Y39.7372 
G01 X-51.7237 Y39.7719 
G01 X-51.8880 Y39.8400 
G01 X-52.0359 Y39.9387 
G01 X-52.1616 Y40.0645 
G01 X-52.2604 Y40.2124 
G01 X-52.3285 Y40.3767 
G01 X-52.3632 Y40.5511 
G01 X-52.3632 Y40.7289 
G01 X-52.3285 Y40.9033 
G01 X-52.2604 Y41.0676 
G01 X-52.1616 Y41.2155 
G01 X-52.0359 Y41.3412 
G01 X-51.8880 Y41.4400 
G01 X-51.7237 Y41.5081 
G01 X-51.5493 Y41.5428 
G00 Z2.5400 
G00 X-51.5493 Y39.0028 
G01 Z-0.1500 F254.00 
G01 X-50.0507 Y39.0028 F508.00 
G01 X-49.8763 Y38.9681 
G01 X-49.7120 Y38.9000 
G01 X-49.5641 Y38.8012 
G01 X-49.4383 Y38.6755 
G01 X-49.3396 Y38.5276 
G01 X-49.2715 Y38.3633 
G01 X-49.2368 Y38.1889 
G01 X-49.2368 Y38.0111 
G01 X-49.2715 Y37.8367 
G01 X-49.3396 Y37.6724 
G01 X-49.4383 Y37.5245 
G01 X-49.5641 Y37.3987 
G01 X-49.7120 Y37.3000 
G01 X-49.8763 Y37.2319 
G01 X-50.0507 Y37.1972 
G01 X-51.5493 Y37.1972 
G01 X-51.7237 Y37.2319 
G01 X-51.8880 Y37.3000 
G01 X-52.0359 Y37.3987 
G01 X-52.1616 Y37.5245 
G01 X-52.2604 Y37.6724 
G01 X-52.3285 Y37.8367 
G01 X-52.3632 Y38.0111 
G01 X-52.3632 Y38.1889 
G01 X-52.3285 Y38.3633 
G01 X-52.2604 Y38.5276 
G01 X-52.1616 Y38.6755 
G01 X-52.0359 Y38.8012 
G01 X-51.8880 Y38.9000 
G01 X-51.7237 Y38.9681 
G01 X-51.5493 Y39.0028 
G00 Z2.5400 
G00 X-51.5493 Y36.4628 
G01 Z-0.1500 F254.00 
G01 X-50.0507 Y36.4628 F508.00 
G01 X-49.8763 Y36.4281 
G01 X-49.7120 Y36.3600 
G01 X-49.5641 Y36.2612 
G01 X-49.4383 Y36.1355 
G01 X-49.3396 Y35.9876 
G01 X-49.2715 Y35.8233 
G01 X-49.2368 Y35.6489 
G01 X-49.2368 Y35.4711 
G01 X-49.2715 Y35.2967 
G01 X-49.3396 Y35.1324 
G01 X-49.4383 Y34.9845 
G01 X-49.5641 Y34.8588 
G01 X-49.7120 Y34.7600 
G01 X-49.8763 Y34.6919 
G01 X-50.0507 Y34.6572 
G01 X-51.5493 Y34.6572 
G01 X-51.7237 Y34.6919 
G01 X-51.8880 Y34.7600 
G01 X-52.0359 Y34.8588 
G01 X-52.1616 Y34.9845 
G01 X-52.2604 Y35.1324 
G01 X-52.3285 Y35.2967 
G01 X-52.3632 Y35.4711 
G01 X-52.3632 Y35.6489 
G01 X-52.3285 Y35.8233 
G01 X-52.2604 Y35.9876 
G01 X-52.1616 Y36.1355 
G01 X-52.0359 Y36.2612 
G01 X-51.8880 Y36.3600 
G01 X-51.7237 Y36.4281 
G01 X-51.5493 Y36.4628 
G00 Z2.5400 
G00 X-43.9293 Y36.4628 
G01 Z-0.1500 F254.00 
G01 X-42.4307 Y36.4628 F508.00 
G01 X-42.2563 Y36.4281 
G01 X-42.0920 Y36.3600 
G01 X-41.9441 Y36.2612 
G01 X-41.8184 Y36.1355 
G01 X-41.7196 Y35.9876 
G01 X-41.6515 Y35.8233 
G01 X-41.6168 Y35.6489 
G01 X-41.6168 Y35.4711 
G01 X-41.6515 Y35.2967 
G01 X-41.7196 Y35.1324 
G01 X-41.8184 Y34.9845 
G01 X-41.9441 Y34.8588 
G01 X-42.0920 Y34.7600 
G01 X-42.2563 Y34.6919 
G01 X-42.4307 Y34.6572 
G01 X-43.9293 Y34.6572 
G01 X-44.1037 Y34.6919 
G01 X-44.2680 Y34.7600 
G01 X-44.4159 Y34.8588 
G01 X-44.5416 Y34.9845 
G01 X-44.6404 Y35.1324 
G01 X-44.7085 Y35.2967 
G01 X-44.7432 Y35.4711 
G01 X-44.7432 Y35.6489 
G01 X-44.7085 Y35.8233 
G01 X-44.6404 Y35.9876 
G01 X-44.5416 Y36.1355 
G01 X-44.4159 Y36.2612 
G01 X-44.2680 Y36.3600 
G01 X-44.1037 Y36.4281 
G01 X-43.9293 Y36.4628 
G00 Z2.5400 
G00 X-43.9293 Y39.0028 
G01 Z-0.1500 F254.00 
G01 X-42.4307 Y39.0028 F508.00 
G01 X-42.2563 Y38.9681 
G01 X-42.0920 Y38.9000 
G01 X-41.9441 Y38.8012 
G01 X-41.8184 Y38.6755 
G01 X-41.7196 Y38.5276 
G01 X-41.6515 Y38.3633 
G01 X-41.6168 Y38.1889 
G01 X-41.6168 Y38.0111 
G01 X-41.6515 Y37.8367 
G01 X-41.7196 Y37.6724 
G01 X-41.8184 Y37.5245 
G01 X-41.9441 Y37.3987 
G01 X-42.0920 Y37.3000 
G01 X-42.2563 Y37.2319 
G01 X-42.4307 Y37.1972 
G01 X-43.9293 Y37.1972 
G01 X-44.1037 Y37.2319 
G01 X-44.2680 Y37.3000 
G01 X-44.4159 Y37.3987 
G01 X-44.5416 Y37.5245 
G01 X-44.6404 Y37.6724 
G01 X-44.7085 Y37.8367 
G01 X-44.7432 Y38.0111 
G01 X-44.7432 Y38.1889 
G01 X-44.7085 Y38.3633 
G01 X-44.6404 Y38.5276 
G01 X-44.5416 Y38.6755 
G01 X-44.4159 Y38.8012 
G01 X-44.2680 Y38.9000 
G01 X-44.1037 Y38.9681 
G01 X-43.9293 Y39.0028 
G00 Z2.5400 
G00 X-43.9293 Y41.5428 
G01 Z-0.1500 F254.00 
G01 X-42.4307 Y41.5428 F508.00 
G01 X-42.2563 Y41.5081 
G01 X-42.0920 Y41.4400 
G01 X-41.9441 Y41.3412 
G01 X-41.8184 Y41.2155 
G01 X-41.7196 Y41.0676 
G01 X-41.6515 Y40.9033 
G01 X-41.6168 Y40.7289 
G01 X-41.6168 Y40.5511 
G01 X-41.6515 Y40.3767 
G01 X-41.7196 Y40.2124 
G01 X-41.8184 Y40.0645 
G01 X-41.9441 Y39.9387 
G01 X-42.0920 Y39.8400 
G01 X-42.2563 Y39.7719 
G01 X-42.4307 Y39.7372 
G01 X-43.9293 Y39.7372 
G01 X-44.1037 Y39.7719 
G01 X-44.2680 Y39.8400 
G01 X-44.4159 Y39.9387 
G01 X-44.5416 Y40.0645 
G01 X-44.6404 Y40.2124 
G01 X-44.7085 Y40.3767 
G01 X-44.7432 Y40.5511 
G01 X-44.7432 Y40.7289 
G01 X-44.7085 Y40.9033 
G01 X-44.6404 Y41.0676 
G01 X-44.5416 Y41.2155 
G01 X-44.4159 Y41.3412 
G01 X-44.2680 Y41.4400 
G01 X-44.1037 Y41.5081 
G01 X-43.9293 Y41.5428 
G00 Z2.5400 
G00 X-43.9293 Y44.0828 
G01 Z-0.1500 F254.00 
G01 X-42.4307 Y44.0828 F508.00 
G01 X-42.2563 Y44.0481 
G01 X-42.0920 Y43.9800 
G01 X-41.9441 Y43.8812 
G01 X-41.8184 Y43.7555 
G01 X-41.7196 Y43.6076 
G01 X-41.6515 Y43.4433 
G01 X-41.6168 Y43.2689 
G01 X-41.6168 Y43.0911 
G01 X-41.6515 Y42.9167 
G01 X-41.7196 Y42.7524 
G01 X-41.8184 Y42.6045 
G01 X-41.9441 Y42.4788 
G01 X-42.0920 Y42.3800 
G01 X-42.2563 Y42.3119 
G01 X-42.4307 Y42.2772 
G01 X-43.9293 Y42.2772 
G01 X-44.1037 Y42.3119 
G01 X-44.2680 Y42.3800 
G01 X-44.4159 Y42.4788 
G01 X-44.5416 Y42.6045 
G01 X-44.6404 Y42.7524 
G01 X-44.7085 Y42.9167 
G01 X-44.7432 Y43.0911 
G01 X-44.7432 Y43.2689 
G01 X-44.7085 Y43.4433 
G01 X-44.6404 Y43.6076 
G01 X-44.5416 Y43.7555 
G01 X-44.4159 Y43.8812 
G01 X-44.2680 Y43.9800 
G01 X-44.1037 Y44.0481 
G01 X-43.9293 Y44.0828 
G00 Z2.5400 
G00 X-43.9293 Y46.6228 
G01 Z-0.1500 F254.00 
G01 X-42.4307 Y46.6228 F508.00 
G01 X-42.2563 Y46.5881 
G01 X-42.0920 Y46.5200 
G01 X-41.9441 Y46.4212 
G01 X-41.8184 Y46.2955 
G01 X-41.7196 Y46.1476 
G01 X-41.6515 Y45.9833 
G01 X-41.6168 Y45.8089 
G01 X-41.6168 Y45.6311 
G01 X-41.6515 Y45.4567 
G01 X-41.7196 Y45.2924 
G01 X-41.8184 Y45.1445 
G01 X-41.9441 Y45.0188 
G01 X-42.0920 Y44.9200 
G01 X-42.2563 Y44.8519 
G01 X-42.4307 Y44.8172 
G01 X-43.9293 Y44.8172 
G01 X-44.1037 Y44.8519 
G01 X-44.2680 Y44.9200 
G01 X-44.4159 Y45.0188 
G01 X-44.5416 Y45.1445 
G01 X-44.6404 Y45.2924 
G01 X-44.7085 Y45.4567 
G01 X-44.7432 Y45.6311 
G01 X-44.7432 Y45.8089 
G01 X-44.7085 Y45.9833 
G01 X-44.6404 Y46.1476 
G01 X-44.5416 Y46.2955 
G01 X-44.4159 Y46.4212 
G01 X-44.2680 Y46.5200 
G01 X-44.1037 Y46.5881 
G01 X-43.9293 Y46.6228 
G00 Z2.5400 
G00 X-43.9293 Y49.1628 
G01 Z-0.1500 F254.00 
G01 X-42.4307 Y49.1628 F508.00 
G01 X-42.2563 Y49.1281 
G01 X-42.0920 Y49.0600 
G01 X-41.9441 Y48.9612 
G01 X-41.8184 Y48.8355 
G01 X-41.7196 Y48.6876 
G01 X-41.6515 Y48.5233 
G01 X-41.6168 Y48.3489 
G01 X-41.6168 Y48.1711 
G01 X-41.6515 Y47.9967 
G01 X-41.7196 Y47.8324 
G01 X-41.8184 Y47.6845 
G01 X-41.9441 Y47.5588 
G01 X-42.0920 Y47.4599 
G01 X-42.2563 Y47.3919 
G01 X-42.4307 Y47.3572 
G01 X-43.9293 Y47.3572 
G01 X-44.1037 Y47.3919 
G01 X-44.2680 Y47.4599 
G01 X-44.4159 Y47.5588 
G01 X-44.5416 Y47.6845 
G01 X-44.6404 Y47.8324 
G01 X-44.7085 Y47.9967 
G01 X-44.7432 Y48.1711 
G01 X-44.7432 Y48.3489 
G01 X-44.7085 Y48.5233 
G01 X-44.6404 Y48.6876 
G01 X-44.5416 Y48.8355 
G01 X-44.4159 Y48.9612 
G01 X-44.2680 Y49.0600 
G01 X-44.1037 Y49.1281 
G01 X-43.9293 Y49.1628 
G00 Z2.5400 
G00 X-42.4307 Y51.7028 
G01 Z-0.1500 F254.00 
G01 X-42.2563 Y51.6681 F508.00 
G01 X-42.0920 Y51.6000 
G01 X-41.9441 Y51.5012 
G01 X-41.8184 Y51.3755 
G01 X-41.7196 Y51.2276 
G01 X-41.6515 Y51.0633 
G01 X-41.6168 Y50.8889 
G01 X-41.6168 Y50.7111 
G01 X-41.6515 Y50.5367 
G01 X-41.7196 Y50.3724 
G01 X-41.8184 Y50.2245 
G01 X-41.9441 Y50.0988 
G01 X-42.0920 Y50.0000 
G01 X-42.2563 Y49.9319 
G01 X-42.4307 Y49.8972 
G01 X-43.9293 Y49.8972 
G01 X-44.1037 Y49.9319 
G01 X-44.2680 Y50.0000 
G01 X-44.4159 Y50.0988 
G01 X-44.5416 Y50.2245 
G01 X-44.6404 Y50.3724 
G01 X-44.7085 Y50.5367 
G01 X-44.7432 Y50.7111 
G01 X-44.7432 Y50.8889 
G01 X-44.7085 Y51.0633 
G01 X-44.6404 Y51.2276 
G01 X-44.5416 Y51.3755 
G01 X-44.4159 Y51.5012 
G01 X-44.4086 Y51.5062 
G01 X-45.8730 Y52.9706 
G01 X-49.3154 Y52.9706 
G01 X-49.3396 Y52.9124 
G01 X-49.4383 Y52.7645 
G01 X-49.5641 Y52.6388 
G01 X-49.7120 Y52.5400 
G01 X-49.8763 Y52.4719 
G01 X-50.0507 Y52.4372 
G01 X-51.5493 Y52.4372 
G01 X-51.7237 Y52.4719 
G01 X-51.8880 Y52.5400 
G01 X-52.0359 Y52.6388 
G01 X-52.1616 Y52.7645 
G01 X-52.2604 Y52.9124 
G01 X-52.3285 Y53.0767 
G01 X-52.3632 Y53.2511 
G01 X-52.3632 Y53.4289 
G01 X-52.3285 Y53.6033 
G01 X-52.2604 Y53.7676 
G01 X-52.1616 Y53.9155 
G01 X-52.0359 Y54.0412 
G01 X-51.8880 Y54.1400 
G01 X-51.7237 Y54.2081 
G01 X-51.5493 Y54.2428 
G01 X-50.0507 Y54.2428 
G01 X-49.8763 Y54.2081 
G01 X-49.7120 Y54.1400 
G01 X-49.5641 Y54.0412 
G01 X-49.4383 Y53.9155 
G01 X-49.3396 Y53.7676 
G01 X-49.3154 Y53.7094 
G01 X-45.6714 Y53.7094 
G01 X-45.5774 Y53.6842 
G01 X-45.4932 Y53.6356 
G01 X-45.4244 Y53.5668 
G01 X-43.5604 Y51.7028 
G01 X-42.4307 Y51.7028 
G00 Z2.5400 
G00 X-43.9293 Y54.2428 
G01 Z-0.1500 F254.00 
G01 X-42.4307 Y54.2428 F508.00 
G01 X-42.2563 Y54.2081 
G01 X-42.0920 Y54.1400 
G01 X-41.9441 Y54.0412 
G01 X-41.8184 Y53.9155 
G01 X-41.7196 Y53.7676 
G01 X-41.6515 Y53.6033 
G01 X-41.6168 Y53.4289 
G01 X-41.6168 Y53.2511 
G01 X-41.6515 Y53.0767 
G01 X-41.7196 Y52.9124 
G01 X-41.8184 Y52.7645 
G01 X-41.9441 Y52.6388 
G01 X-42.0920 Y52.5400 
G01 X-42.2563 Y52.4719 
G01 X-42.4307 Y52.4372 
G01 X-43.9293 Y52.4372 
G01 X-44.1037 Y52.4719 
G01 X-44.2680 Y52.5400 
G01 X-44.4159 Y52.6388 
G01 X-44.5416 Y52.7645 
G01 X-44.6404 Y52.9124 
G01 X-44.7085 Y53.0767 
G01 X-44.7432 Y53.2511 
G01 X-44.7432 Y53.4289 
G01 X-44.7085 Y53.6033 
G01 X-44.6404 Y53.7676 
G01 X-44.5416 Y53.9155 
G01 X-44.4159 Y54.0412 
G01 X-44.2680 Y54.1400 
G01 X-44.1037 Y54.2081 
G01 X-43.9293 Y54.2428 
G00 Z2.5400 
G00 X-43.9293 Y56.7828 
G01 Z-0.1500 F254.00 
G01 X-42.4307 Y56.7828 F508.00 
G01 X-42.2563 Y56.7481 
G01 X-42.0920 Y56.6800 
G01 X-41.9441 Y56.5812 
G01 X-41.8184 Y56.4555 
G01 X-41.7196 Y56.3076 
G01 X-41.6515 Y56.1433 
G01 X-41.6168 Y55.9689 
G01 X-41.6168 Y55.7911 
G01 X-41.6515 Y55.6167 
G01 X-41.7196 Y55.4524 
G01 X-41.8184 Y55.3045 
G01 X-41.9441 Y55.1788 
G01 X-42.0920 Y55.0800 
G01 X-42.2563 Y55.0119 
G01 X-42.4307 Y54.9772 
G01 X-43.9293 Y54.9772 
G01 X-44.1037 Y55.0119 
G01 X-44.2680 Y55.0800 
G01 X-44.4159 Y55.1788 
G01 X-44.5416 Y55.3045 
G01 X-44.6404 Y55.4524 
G01 X-44.7085 Y55.6167 
G01 X-44.7432 Y55.7911 
G01 X-44.7432 Y55.9689 
G01 X-44.7085 Y56.1433 
G01 X-44.6404 Y56.3076 
G01 X-44.5416 Y56.4555 
G01 X-44.4159 Y56.5812 
G01 X-44.2680 Y56.6800 
G01 X-44.1037 Y56.7481 
G01 X-43.9293 Y56.7828 
G00 Z2.5400 
G00 X-43.9293 Y59.3228 
G01 Z-0.1500 F254.00 
G01 X-42.4307 Y59.3228 F508.00 
G01 X-42.2563 Y59.2881 
G01 X-42.0920 Y59.2200 
G01 X-41.9441 Y59.1212 
G01 X-41.8184 Y58.9955 
G01 X-41.7196 Y58.8476 
G01 X-41.6515 Y58.6833 
G01 X-41.6168 Y58.5089 
G01 X-41.6168 Y58.3311 
G01 X-41.6515 Y58.1567 
G01 X-41.7196 Y57.9924 
G01 X-41.8184 Y57.8445 
G01 X-41.9441 Y57.7188 
G01 X-42.0920 Y57.6200 
G01 X-42.2563 Y57.5519 
G01 X-42.4307 Y57.5172 
G01 X-43.9293 Y57.5172 
G01 X-44.1037 Y57.5519 
G01 X-44.2680 Y57.6200 
G01 X-44.4159 Y57.7188 
G01 X-44.5416 Y57.8445 
G01 X-44.6404 Y57.9924 
G01 X-44.7085 Y58.1567 
G01 X-44.7432 Y58.3311 
G01 X-44.7432 Y58.5089 
G01 X-44.7085 Y58.6833 
G01 X-44.6404 Y58.8476 
G01 X-44.5416 Y58.9955 
G01 X-44.4159 Y59.1212 
G01 X-44.2680 Y59.2200 
G01 X-44.1037 Y59.2881 
G01 X-43.9293 Y59.3228 
G00 Z2.5400 
G00 X-43.9293 Y61.8628 
G01 Z-0.1500 F254.00 
G01 X-42.4307 Y61.8628 F508.00 
G01 X-42.2563 Y61.8281 
G01 X-42.0920 Y61.7600 
G01 X-41.9441 Y61.6612 
G01 X-41.8184 Y61.5355 
G01 X-41.7196 Y61.3876 
G01 X-41.6515 Y61.2233 
G01 X-41.6168 Y61.0489 
G01 X-41.6168 Y60.8711 
G01 X-41.6515 Y60.6967 
G01 X-41.7196 Y60.5324 
G01 X-41.8184 Y60.3845 
G01 X-41.9441 Y60.2588 
G01 X-42.0920 Y60.1600 
G01 X-42.2563 Y60.0919 
G01 X-42.4307 Y60.0572 
G01 X-43.9293 Y60.0572 
G01 X-44.1037 Y60.0919 
G01 X-44.2680 Y60.1600 
G01 X-44.4159 Y60.2588 
G01 X-44.5416 Y60.3845 
G01 X-44.6404 Y60.5324 
G01 X-44.7085 Y60.6967 
G01 X-44.7432 Y60.8711 
G01 X-44.7432 Y61.0489 
G01 X-44.7085 Y61.2233 
G01 X-44.6404 Y61.3876 
G01 X-44.5416 Y61.5355 
G01 X-44.4159 Y61.6612 
G01 X-44.2680 Y61.7600 
G01 X-44.1037 Y61.8281 
G01 X-43.9293 Y61.8628 
G00 Z2.5400 
G00 X-43.9293 Y64.4028 
G01 Z-0.1500 F254.00 
G01 X-42.4307 Y64.4028 F508.00 
G01 X-42.2563 Y64.3681 
G01 X-42.0920 Y64.3000 
G01 X-41.9441 Y64.2012 
G01 X-41.8184 Y64.0755 
G01 X-41.7196 Y63.9276 
G01 X-41.6515 Y63.7633 
G01 X-41.6168 Y63.5889 
G01 X-41.6168 Y63.4111 
G01 X-41.6515 Y63.2367 
G01 X-41.7196 Y63.0724 
G01 X-41.8184 Y62.9245 
G01 X-41.9441 Y62.7988 
G01 X-42.0920 Y62.7000 
G01 X-42.2563 Y62.6319 
G01 X-42.4307 Y62.5972 
G01 X-43.9293 Y62.5972 
G01 X-44.1037 Y62.6319 
G01 X-44.2680 Y62.7000 
G01 X-44.4159 Y62.7988 
G01 X-44.5416 Y62.9245 
G01 X-44.6404 Y63.0724 
G01 X-44.7085 Y63.2367 
G01 X-44.7432 Y63.4111 
G01 X-44.7432 Y63.5889 
G01 X-44.7085 Y63.7633 
G01 X-44.6404 Y63.9276 
G01 X-44.5416 Y64.0755 
G01 X-44.4159 Y64.2012 
G01 X-44.2680 Y64.3000 
G01 X-44.1037 Y64.3681 
G01 X-43.9293 Y64.4028 
G00 Z2.5400 
G00 X-43.9293 Y69.4828 
G01 Z-0.1500 F254.00 
G01 X-42.4307 Y69.4828 F508.00 
G01 X-42.2563 Y69.4481 
G01 X-42.0920 Y69.3800 
G01 X-41.9441 Y69.2812 
G01 X-41.8184 Y69.1555 
G01 X-41.7196 Y69.0076 
G01 X-41.6954 Y68.9494 
G01 X-12.8530 Y68.9494 
G01 X-12.7028 Y69.0996 
G01 X-12.7739 Y69.0996 
G01 X-12.9189 Y69.1284 
G01 X-13.0554 Y69.1850 
G01 X-13.1784 Y69.2671 
G01 X-13.2829 Y69.3716 
G01 X-13.3650 Y69.4946 
G01 X-13.4216 Y69.6311 
G01 X-13.4504 Y69.7761 
G01 X-13.4504 Y69.9239 
G01 X-13.4248 Y70.0524 
G01 X-24.2830 Y80.9106 
G01 X-40.8675 Y80.9106 
G01 X-40.8675 Y80.8482 
G01 X-41.4782 Y80.2375 
G01 X-42.3418 Y80.2375 
G01 X-42.9525 Y80.8482 
G01 X-42.9525 Y81.7118 
G01 X-42.9084 Y81.7559 
G01 X-43.3330 Y82.1806 
G01 X-48.9563 Y82.1806 
G01 X-48.4875 Y81.7118 
G01 X-48.4875 Y80.8482 
G01 X-49.0982 Y80.2375 
G01 X-49.1606 Y80.2375 
G01 X-49.1606 Y72.5430 
G01 X-43.5604 Y66.9428 
G01 X-42.4307 Y66.9428 
G01 X-42.2563 Y66.9081 
G01 X-42.0920 Y66.8400 
G01 X-41.9441 Y66.7412 
G01 X-41.8184 Y66.6155 
G01 X-41.7196 Y66.4676 
G01 X-41.6515 Y66.3033 
G01 X-41.6168 Y66.1289 
G01 X-41.6168 Y65.9511 
G01 X-41.6515 Y65.7767 
G01 X-41.7196 Y65.6124 
G01 X-41.8184 Y65.4645 
G01 X-41.9441 Y65.3388 
G01 X-42.0920 Y65.2400 
G01 X-42.2563 Y65.1719 
G01 X-42.4307 Y65.1372 
G01 X-43.9293 Y65.1372 
G01 X-44.1037 Y65.1719 
G01 X-44.2680 Y65.2400 
G01 X-44.4159 Y65.3388 
G01 X-44.5416 Y65.4645 
G01 X-44.6404 Y65.6124 
G01 X-44.7085 Y65.7767 
G01 X-44.7432 Y65.9511 
G01 X-44.7432 Y66.1289 
G01 X-44.7085 Y66.3033 
G01 X-44.6404 Y66.4676 
G01 X-44.5416 Y66.6155 
G01 X-44.4159 Y66.7412 
G01 X-44.4086 Y66.7462 
G01 X-49.7568 Y72.0944 
G01 X-49.8256 Y72.1632 
G01 X-49.8742 Y72.2474 
G01 X-49.8994 Y72.3414 
G01 X-49.8994 Y80.2375 
G01 X-49.9618 Y80.2375 
G01 X-50.5725 Y80.8482 
G01 X-50.5725 Y81.7118 
G01 X-50.1037 Y82.1806 
G01 X-50.6470 Y82.1806 
G01 X-52.9706 Y79.8570 
G01 X-52.9706 Y48.6294 
G01 X-52.2846 Y48.6294 
G01 X-52.2604 Y48.6876 
G01 X-52.1616 Y48.8355 
G01 X-52.0359 Y48.9612 
G01 X-51.8880 Y49.0600 
G01 X-51.7237 Y49.1281 
G01 X-51.5493 Y49.1628 
G01 X-50.0507 Y49.1628 
G01 X-49.8763 Y49.1281 
G01 X-49.7120 Y49.0600 
G01 X-49.5641 Y48.9612 
G01 X-49.4383 Y48.8355 
G01 X-49.3396 Y48.6876 
G01 X-49.2715 Y48.5233 
G01 X-49.2368 Y48.3489 
G01 X-49.2368 Y48.1711 
G01 X-49.2715 Y47.9967 
G01 X-49.3396 Y47.8324 
G01 X-49.4383 Y47.6845 
G01 X-49.5641 Y47.5588 
G01 X-49.7120 Y47.4599 
G01 X-49.8763 Y47.3919 
G01 X-50.0507 Y47.3572 
G01 X-51.5493 Y47.3572 
G01 X-51.7237 Y47.3919 
G01 X-51.8880 Y47.4599 
G01 X-52.0359 Y47.5588 
G01 X-52.1616 Y47.6845 
G01 X-52.2604 Y47.8324 
G01 X-52.2846 Y47.8906 
G01 X-53.3886 Y47.8906 
G01 X-53.4826 Y47.9158 
G01 X-53.5668 Y47.9644 
G01 X-53.6356 Y48.0332 
G01 X-53.6842 Y48.1174 
G01 X-53.7094 Y48.2114 
G01 X-53.7094 Y80.0586 
G01 X-53.6842 Y80.1526 
G01 X-53.6356 Y80.2368 
G01 X-53.5668 Y80.3056 
G01 X-51.0268 Y82.8456 
G01 X-50.9426 Y82.8942 
G01 X-50.8486 Y82.9194 
G01 X-50.1037 Y82.9194 
G01 X-50.5725 Y83.3882 
G01 X-50.5725 Y84.2518 
G01 X-49.9618 Y84.8625 
G01 X-49.0982 Y84.8625 
G01 X-48.4875 Y84.2518 
G01 X-48.4875 Y83.3882 
G01 X-48.9563 Y82.9194 
G01 X-43.1314 Y82.9194 
G01 X-43.0374 Y82.8942 
G01 X-42.9532 Y82.8456 
G01 X-42.8844 Y82.7768 
G01 X-42.3860 Y82.2784 
G01 X-42.3418 Y82.3225 
G01 X-41.4782 Y82.3225 
G01 X-40.8675 Y81.7118 
G01 X-40.8675 Y81.6494 
G01 X-24.0814 Y81.6494 
G01 X-23.9874 Y81.6242 
G01 X-23.9032 Y81.5756 
G01 X-23.8344 Y81.5068 
G01 X-12.9024 Y70.5748 
G01 X-12.7739 Y70.6004 
G01 X-12.6261 Y70.6004 
G01 X-12.4811 Y70.5716 
G01 X-12.3445 Y70.5150 
G01 X-12.2216 Y70.4329 
G01 X-12.1171 Y70.3284 
G01 X-12.0350 Y70.2054 
G01 X-11.9784 Y70.0689 
G01 X-11.9496 Y69.9239 
G01 X-11.9496 Y69.8528 
G01 X-4.1794 Y77.6230 
G01 X-4.1794 Y79.2474 
G01 X-4.1944 Y79.2768 
G01 X-4.2519 Y79.4538 
G01 X-4.2810 Y79.6376 
G01 X-4.2810 Y79.8236 
G01 X-4.2519 Y80.0074 
G01 X-4.1944 Y80.1844 
G01 X-4.1099 Y80.3502 
G01 X-4.0005 Y80.5008 
G01 X-3.8690 Y80.6323 
G01 X-3.7184 Y80.7417 
G01 X-3.5526 Y80.8262 
G01 X-3.3756 Y80.8837 
G01 X-3.1918 Y80.9128 
G01 X-3.0058 Y80.9128 
G01 X-2.8220 Y80.8837 
G01 X-2.6450 Y80.8262 
G01 X-2.4792 Y80.7417 
G01 X-2.3286 Y80.6323 
G01 X-2.1971 Y80.5008 
G01 X-2.0877 Y80.3502 
G01 X-2.0032 Y80.1844 
G01 X-1.9457 Y80.0074 
G01 X-1.9166 Y79.8236 
G01 X-1.9166 Y79.6376 
G01 X-1.9457 Y79.4538 
G01 X-2.0032 Y79.2768 
G01 X-2.0877 Y79.1110 
G01 X-2.1971 Y78.9604 
G01 X-2.3286 Y78.8289 
G01 X-2.4792 Y78.7195 
G01 X-2.6450 Y78.6350 
G01 X-2.8220 Y78.5775 
G01 X-3.0058 Y78.5484 
G01 X-3.1918 Y78.5484 
G01 X-3.3756 Y78.5775 
G01 X-3.4406 Y78.5986 
G01 X-3.4406 Y77.4214 
G01 X-3.4658 Y77.3274 
G01 X-3.5144 Y77.2432 
G01 X-12.4044 Y68.3532 
G01 X-12.4732 Y68.2844 
G01 X-12.5574 Y68.2358 
G01 X-12.6514 Y68.2106 
G01 X-41.6954 Y68.2106 
G01 X-41.7196 Y68.1524 
G01 X-41.8184 Y68.0045 
G01 X-41.9441 Y67.8787 
G01 X-42.0920 Y67.7799 
G01 X-42.2563 Y67.7119 
G01 X-42.4307 Y67.6772 
G01 X-43.9293 Y67.6772 
G01 X-44.1037 Y67.7119 
G01 X-44.2680 Y67.7799 
G01 X-44.4159 Y67.8787 
G01 X-44.5416 Y68.0045 
G01 X-44.6404 Y68.1524 
G01 X-44.7085 Y68.3167 
G01 X-44.7432 Y68.4911 
G01 X-44.7432 Y68.6689 
G01 X-44.7085 Y68.8433 
G01 X-44.6404 Y69.0076 
G01 X-44.5416 Y69.1555 
G01 X-44.4159 Y69.2812 
G01 X-44.2680 Y69.3800 
G01 X-44.1037 Y69.4481 
G01 X-43.9293 Y69.4828 
G00 Z2.5400 
G00 X-42.9525 Y88.4682 
G01 Z-0.1500 F254.00 
G01 X-42.9525 Y89.3318 F508.00 
G01 X-42.3418 Y89.9425 
G01 X-41.4782 Y89.9425 
G01 X-40.8675 Y89.3318 
G01 X-40.8675 Y88.4682 
G01 X-41.4782 Y87.8575 
G01 X-42.3418 Y87.8575 
G01 X-42.9525 Y88.4682 
G00 Z2.5400 
G00 X-50.5725 Y88.4682 
G01 Z-0.1500 F254.00 
G01 X-50.5725 Y89.3318 F508.00 
G01 X-49.9618 Y89.9425 
G01 X-49.0982 Y89.9425 
G01 X-48.4875 Y89.3318 
G01 X-48.4875 Y88.4682 
G01 X-49.0982 Y87.8575 
G01 X-49.9618 Y87.8575 
G01 X-50.5725 Y88.4682 
G00 Z2.5400 
G00 X-50.5725 Y85.9282 
G01 Z-0.1500 F254.00 
G01 X-50.5725 Y86.7918 F508.00 
G01 X-49.9618 Y87.4025 
G01 X-49.0982 Y87.4025 
G01 X-48.4875 Y86.7918 
G01 X-48.4875 Y85.9282 
G01 X-49.0982 Y85.3175 
G01 X-49.9618 Y85.3175 
G01 X-50.5725 Y85.9282 
G00 Z2.5400 
G00 X-34.5720 Y90.4482 
G01 Z-0.1500 F254.00 
G01 X-34.5001 Y90.6217 F508.00 
G01 X-34.3957 Y90.7779 
G01 X-34.2629 Y90.9107 
G01 X-34.1067 Y91.0151 
G01 X-33.9332 Y91.0870 
G01 X-33.7489 Y91.1236 
G01 X-33.5611 Y91.1236 
G01 X-33.3768 Y91.0870 
G01 X-33.2033 Y91.0151 
G01 X-33.0471 Y90.9107 
G01 X-32.9143 Y90.7779 
G01 X-32.8099 Y90.6217 
G01 X-32.7380 Y90.4482 
G01 X-32.7014 Y90.2639 
G01 X-32.7014 Y90.0761 
G01 X-32.7380 Y89.8918 
G01 X-32.8099 Y89.7183 
G01 X-32.9143 Y89.5621 
G01 X-33.0471 Y89.4293 
G01 X-33.2033 Y89.3249 
G01 X-33.3768 Y89.2530 
G01 X-33.5611 Y89.2164 
G01 X-33.7489 Y89.2164 
G01 X-33.9332 Y89.2530 
G01 X-34.1067 Y89.3249 
G01 X-34.2629 Y89.4293 
G01 X-34.3856 Y89.5520 
G01 X-37.8044 Y86.1332 
G01 X-37.8732 Y86.0644 
G01 X-37.9574 Y86.0158 
G01 X-38.0514 Y85.9906 
G01 X-40.8675 Y85.9906 
G01 X-40.8675 Y85.9282 
G01 X-41.4782 Y85.3175 
G01 X-42.3418 Y85.3175 
G01 X-42.9525 Y85.9282 
G01 X-42.9525 Y86.7918 
G01 X-42.3418 Y87.4025 
G01 X-41.4782 Y87.4025 
G01 X-40.8675 Y86.7918 
G01 X-40.8675 Y86.7294 
G01 X-38.2530 Y86.7294 
G01 X-34.5856 Y90.3968 
G01 X-34.5813 Y90.4011 
G01 X-34.5720 Y90.4482 
G00 Z2.5400 
G00 X-6.1604 Y96.3880 
G01 Z-0.1500 F254.00 
G01 X-6.1604 Y96.6520 F508.00 
G01 X-6.1308 Y96.9143 
G01 X-6.0721 Y97.1717 
G01 X-5.9849 Y97.4209 
G01 X-5.8704 Y97.6587 
G01 X-5.7299 Y97.8822 
G01 X-5.5653 Y98.0886 
G01 X-5.3786 Y98.2753 
G01 X-5.1723 Y98.4399 
G01 X-4.9487 Y98.5804 
G01 X-4.7109 Y98.6949 
G01 X-4.4617 Y98.7821 
G01 X-4.2043 Y98.8408 
G01 X-3.9420 Y98.8704 
G01 X-3.6780 Y98.8704 
G01 X-3.4157 Y98.8408 
G01 X-3.1583 Y98.7821 
G01 X-2.9091 Y98.6949 
G01 X-2.6713 Y98.5804 
G01 X-2.4477 Y98.4399 
G01 X-2.2414 Y98.2753 
G01 X-2.0547 Y98.0886 
G01 X-1.8901 Y97.8822 
G01 X-1.7496 Y97.6587 
G01 X-1.6351 Y97.4209 
G01 X-1.5479 Y97.1717 
G01 X-1.4892 Y96.9143 
G01 X-1.4596 Y96.6520 
G01 X-1.4596 Y96.3880 
G01 X-1.4892 Y96.1257 
G01 X-1.5479 Y95.8683 
G01 X-1.6351 Y95.6191 
G01 X-1.7496 Y95.3813 
G01 X-1.8901 Y95.1577 
G01 X-2.0547 Y94.9514 
G01 X-2.2414 Y94.7647 
G01 X-2.4477 Y94.6001 
G01 X-2.6713 Y94.4596 
G01 X-2.9091 Y94.3451 
G01 X-3.1583 Y94.2579 
G01 X-3.4157 Y94.1992 
G01 X-3.6780 Y94.1696 
G01 X-3.9420 Y94.1696 
G01 X-4.2043 Y94.1992 
G01 X-4.4617 Y94.2579 
G01 X-4.7109 Y94.3451 
G01 X-4.9487 Y94.4596 
G01 X-5.1723 Y94.6001 
G01 X-5.3786 Y94.7647 
G01 X-5.5653 Y94.9514 
G01 X-5.7299 Y95.1577 
G01 X-5.8704 Y95.3813 
G01 X-5.9849 Y95.6191 
G01 X-6.0721 Y95.8683 
G01 X-6.1308 Y96.1257 
G01 X-6.1604 Y96.3880 
G00 Z2.5400 
G00 X-6.1604 Y3.6780 
G01 Z-0.1500 F254.00 
G01 X-6.1604 Y3.9420 F508.00 
G01 X-6.1308 Y4.2043 
G01 X-6.0721 Y4.4617 
G01 X-5.9849 Y4.7109 
G01 X-5.8704 Y4.9487 
G01 X-5.7299 Y5.1723 
G01 X-5.5653 Y5.3786 
G01 X-5.3786 Y5.5653 
G01 X-5.1723 Y5.7299 
G01 X-4.9487 Y5.8704 
G01 X-4.7109 Y5.9849 
G01 X-4.4617 Y6.0721 
G01 X-4.2043 Y6.1308 
G01 X-3.9420 Y6.1604 
G01 X-3.6780 Y6.1604 
G01 X-3.4157 Y6.1308 
G01 X-3.1583 Y6.0721 
G01 X-2.9091 Y5.9849 
G01 X-2.6713 Y5.8704 
G01 X-2.4477 Y5.7299 
G01 X-2.2414 Y5.5653 
G01 X-2.0547 Y5.3786 
G01 X-1.8901 Y5.1723 
G01 X-1.7496 Y4.9487 
G01 X-1.6351 Y4.7109 
G01 X-1.5479 Y4.4617 
G01 X-1.4892 Y4.2043 
G01 X-1.4596 Y3.9420 
G01 X-1.4596 Y3.6780 
G01 X-1.4892 Y3.4157 
G01 X-1.5479 Y3.1583 
G01 X-1.6351 Y2.9091 
G01 X-1.7496 Y2.6713 
G01 X-1.8901 Y2.4477 
G01 X-2.0547 Y2.2414 
G01 X-2.2414 Y2.0547 
G01 X-2.4477 Y1.8901 
G01 X-2.6713 Y1.7496 
G01 X-2.9091 Y1.6351 
G01 X-3.1583 Y1.5479 
G01 X-3.4157 Y1.4892 
G01 X-3.6780 Y1.4596 
G01 X-3.9420 Y1.4596 
G01 X-4.2043 Y1.4892 
G01 X-4.4617 Y1.5479 
G01 X-4.7109 Y1.6351 
G01 X-4.9487 Y1.7496 
G01 X-5.1723 Y1.8901 
G01 X-5.3786 Y2.0547 
G01 X-5.5653 Y2.2414 
G01 X-5.7299 Y2.4477 
G01 X-5.8704 Y2.6713 
G01 X-5.9849 Y2.9091 
G01 X-6.0721 Y3.1583 
G01 X-6.1308 Y3.4157 
G01 X-6.1604 Y3.6780 
G00 Z2.5400 
G00 X-82.3604 Y96.3880 
G01 Z-0.1500 F254.00 
G01 X-82.3604 Y96.6520 F508.00 
G01 X-82.3308 Y96.9143 
G01 X-82.2721 Y97.1717 
G01 X-82.1849 Y97.4209 
G01 X-82.0704 Y97.6587 
G01 X-81.9299 Y97.8822 
G01 X-81.7653 Y98.0886 
G01 X-81.5786 Y98.2753 
G01 X-81.3723 Y98.4399 
G01 X-81.1487 Y98.5804 
G01 X-80.9109 Y98.6949 
G01 X-80.6617 Y98.7821 
G01 X-80.4043 Y98.8408 
G01 X-80.1420 Y98.8704 
G01 X-79.8780 Y98.8704 
G01 X-79.6157 Y98.8408 
G01 X-79.3583 Y98.7821 
G01 X-79.1091 Y98.6949 
G01 X-78.8713 Y98.5804 
G01 X-78.6477 Y98.4399 
G01 X-78.4413 Y98.2753 
G01 X-78.2547 Y98.0886 
G01 X-78.0901 Y97.8822 
G01 X-77.9496 Y97.6587 
G01 X-77.8351 Y97.4209 
G01 X-77.7479 Y97.1717 
G01 X-77.6892 Y96.9143 
G01 X-77.6596 Y96.6520 
G01 X-77.6596 Y96.3880 
G01 X-77.6892 Y96.1257 
G01 X-77.7479 Y95.8683 
G01 X-77.8351 Y95.6191 
G01 X-77.9496 Y95.3813 
G01 X-78.0901 Y95.1577 
G01 X-78.2547 Y94.9514 
G01 X-78.4413 Y94.7647 
G01 X-78.6477 Y94.6001 
G01 X-78.8713 Y94.4596 
G01 X-79.1091 Y94.3451 
G01 X-79.3583 Y94.2579 
G01 X-79.6157 Y94.1992 
G01 X-79.8780 Y94.1696 
G01 X-80.1420 Y94.1696 
G01 X-80.4043 Y94.1992 
G01 X-80.6617 Y94.2579 
G01 X-80.9109 Y94.3451 
G01 X-81.1487 Y94.4596 
G01 X-81.3723 Y94.6001 
G01 X-81.5786 Y94.7647 
G01 X-81.7653 Y94.9514 
G01 X-81.9299 Y95.1577 
G01 X-82.0704 Y95.3813 
G01 X-82.1849 Y95.6191 
G01 X-82.2721 Y95.8683 
G01 X-82.3308 Y96.1257 
G01 X-82.3604 Y96.3880 
G00 Z2.5400 
G00 X-82.3604 Y3.6780 
G01 Z-0.1500 F254.00 
G01 X-82.3604 Y3.9420 F508.00 
G01 X-82.3308 Y4.2043 
G01 X-82.2721 Y4.4617 
G01 X-82.1849 Y4.7109 
G01 X-82.0704 Y4.9487 
G01 X-81.9299 Y5.1723 
G01 X-81.7653 Y5.3786 
G01 X-81.5786 Y5.5653 
G01 X-81.3723 Y5.7299 
G01 X-81.1487 Y5.8704 
G01 X-80.9109 Y5.9849 
G01 X-80.6617 Y6.0721 
G01 X-80.4043 Y6.1308 
G01 X-80.1420 Y6.1604 
G01 X-79.8780 Y6.1604 
G01 X-79.6157 Y6.1308 
G01 X-79.3583 Y6.0721 
G01 X-79.1091 Y5.9849 
G01 X-78.8713 Y5.8704 
G01 X-78.6477 Y5.7299 
G01 X-78.4413 Y5.5653 
G01 X-78.2547 Y5.3786 
G01 X-78.0901 Y5.1723 
G01 X-77.9496 Y4.9487 
G01 X-77.8351 Y4.7109 
G01 X-77.7479 Y4.4617 
G01 X-77.6892 Y4.2043 
G01 X-77.6596 Y3.9420 
G01 X-77.6596 Y3.6780 
G01 X-77.6892 Y3.4157 
G01 X-77.7479 Y3.1583 
G01 X-77.8351 Y2.9091 
G01 X-77.9496 Y2.6713 
G01 X-78.0901 Y2.4477 
G01 X-78.2547 Y2.2414 
G01 X-78.4413 Y2.0547 
G01 X-78.6477 Y1.8901 
G01 X-78.8713 Y1.7496 
G01 X-79.1091 Y1.6351 
G01 X-79.3583 Y1.5479 
G01 X-79.6157 Y1.4892 
G01 X-79.8780 Y1.4596 
G01 X-80.1420 Y1.4596 
G01 X-80.4043 Y1.4892 
G01 X-80.6617 Y1.5479 
G01 X-80.9109 Y1.6351 
G01 X-81.1487 Y1.7496 
G01 X-81.3723 Y1.8901 
G01 X-81.5786 Y2.0547 
G01 X-81.7653 Y2.2414 
G01 X-81.9299 Y2.4477 
G01 X-82.0704 Y2.6713 
G01 X-82.1849 Y2.9091 
G01 X-82.2721 Y3.1583 
G01 X-82.3308 Y3.4157 
G01 X-82.3604 Y3.6780 
G00 Z2.5400 
G00 X-28.8054 Y87.3325 
G01 Z-0.1500 F254.00 
G01 X-28.8436 Y87.2152 F508.00 
G01 X-28.9208 Y87.0636 
G01 X-29.0208 Y86.9260 
G01 X-29.0904 Y86.8564 
G01 X-20.5256 Y86.8564 
G01 X-19.4546 Y87.9275 
G01 X-19.4164 Y88.0448 
G01 X-19.3392 Y88.1964 
G01 X-19.2392 Y88.3340 
G01 X-19.1696 Y88.4036 
G01 X-27.7344 Y88.4036 
G01 X-28.8054 Y87.3325 
G00 Z2.5400 
G00 X-17.9692 Y89.4660 
G01 Z-0.1500 F254.00 
G01 X-18.0692 Y89.6036 F508.00 
G01 X-18.1464 Y89.7552 
G01 X-18.1846 Y89.8725 
G01 X-18.6114 Y90.2994 
G01 X-18.6044 Y90.2550 
G01 X-18.6044 Y90.0850 
G01 X-18.6310 Y89.9170 
G01 X-18.6836 Y89.7552 
G01 X-18.7608 Y89.6036 
G01 X-18.8608 Y89.4660 
G01 X-18.9304 Y89.3964 
G01 X-17.8996 Y89.3964 
G01 X-17.9692 Y89.4660 
G00 Z2.5400 
G00 X-13.2593 Y69.1685 
G01 Z-0.1500 F254.00 
G01 X-13.3815 Y69.2907 F508.00 
G01 X-13.4775 Y69.4344 
G01 X-13.5437 Y69.5941 
G01 X-13.5774 Y69.7636 
G01 X-13.5774 Y69.9364 
G01 X-13.5626 Y70.0106 
G01 X-24.3356 Y80.7836 
G01 X-40.7525 Y80.7836 
G01 X-41.4256 Y80.1105 
G01 X-42.3944 Y80.1105 
G01 X-43.0795 Y80.7956 
G01 X-43.0795 Y81.7475 
G01 X-43.3856 Y82.0536 
G01 X-48.6497 Y82.0536 
G01 X-48.3605 Y81.7644 
G01 X-48.3605 Y80.7956 
G01 X-49.0336 Y80.1225 
G01 X-49.0336 Y72.5956 
G01 X-44.8587 Y68.4207 
G01 X-44.8702 Y68.4786 
G01 X-44.8702 Y68.6814 
G01 X-44.8306 Y68.8804 
G01 X-44.7530 Y69.0678 
G01 X-44.6403 Y69.2365 
G01 X-44.4969 Y69.3799 
G01 X-44.3282 Y69.4926 
G01 X-44.1408 Y69.5702 
G01 X-43.9418 Y69.6098 
G01 X-42.4182 Y69.6098 
G01 X-42.2192 Y69.5702 
G01 X-42.0318 Y69.4926 
G01 X-41.8631 Y69.3799 
G01 X-41.7197 Y69.2365 
G01 X-41.6128 Y69.0764 
G01 X-13.1215 Y69.0764 
G01 X-13.2593 Y69.1685 
G00 Z2.5400 
G00 X-1.6068 Y90.2324 
G01 Z-0.1500 F254.00 
G01 X-3.4732 Y90.2324 F508.00 
G01 X-3.6610 Y90.2621 
G01 X-3.8418 Y90.3209 
G01 X-4.0111 Y90.4072 
G01 X-4.1649 Y90.5189 
G01 X-4.2993 Y90.6533 
G01 X-4.4110 Y90.8071 
G01 X-4.4973 Y90.9764 
G01 X-4.5561 Y91.1572 
G01 X-4.5858 Y91.3450 
G01 X-4.5858 Y91.5350 
G01 X-4.5561 Y91.7228 
G01 X-4.4973 Y91.9036 
G01 X-4.4110 Y92.0729 
G01 X-4.2993 Y92.2267 
G01 X-4.1649 Y92.3611 
G01 X-4.0111 Y92.4728 
G01 X-3.8418 Y92.5591 
G01 X-3.6610 Y92.6179 
G01 X-3.4732 Y92.6476 
G01 X-1.6068 Y92.6476 
G01 X-1.4190 Y92.6179 
G01 X-1.2382 Y92.5591 
G01 X-1.0689 Y92.4728 
G01 X-0.9151 Y92.3611 
G01 X-0.7807 Y92.2267 
G01 X-0.6690 Y92.0729 
G01 X-0.5827 Y91.9036 
G01 X-0.5239 Y91.7228 
G01 X-0.4942 Y91.5350 
G01 X-0.4942 Y91.3450 
G01 X-0.5239 Y91.1572 
G01 X-0.5827 Y90.9764 
G01 X-0.6690 Y90.8071 
G01 X-0.7807 Y90.6533 
G01 X-0.9151 Y90.5189 
G01 X-1.0689 Y90.4072 
G01 X-1.2382 Y90.3209 
G01 X-1.4190 Y90.2621 
G01 X-1.6068 Y90.2324 
G00 Z2.5400 
G00 X-1.6068 Y86.4224 
G01 Z-0.1500 F254.00 
G01 X-3.4732 Y86.4224 F508.00 
G01 X-3.6610 Y86.4521 
G01 X-3.8418 Y86.5109 
G01 X-4.0111 Y86.5972 
G01 X-4.1649 Y86.7089 
G01 X-4.2993 Y86.8433 
G01 X-4.4110 Y86.9971 
G01 X-4.4806 Y87.1336 
G01 X-14.9151 Y87.1336 
G01 X-14.9508 Y87.0636 
G01 X-15.0508 Y86.9260 
G01 X-15.1710 Y86.8058 
G01 X-15.3086 Y86.7058 
G01 X-15.4602 Y86.6286 
G01 X-15.6220 Y86.5760 
G01 X-15.7900 Y86.5494 
G01 X-15.9600 Y86.5494 
G01 X-16.1280 Y86.5760 
G01 X-16.2898 Y86.6286 
G01 X-16.4414 Y86.7058 
G01 X-16.5790 Y86.8058 
G01 X-16.6992 Y86.9260 
G01 X-16.7992 Y87.0636 
G01 X-16.8764 Y87.2152 
G01 X-16.9146 Y87.3325 
G01 X-17.3414 Y87.7594 
G01 X-17.3344 Y87.7150 
G01 X-17.3344 Y87.5450 
G01 X-17.3610 Y87.3770 
G01 X-17.4136 Y87.2152 
G01 X-17.4908 Y87.0636 
G01 X-17.5908 Y86.9260 
G01 X-17.7110 Y86.8058 
G01 X-17.8486 Y86.7058 
G01 X-18.0002 Y86.6286 
G01 X-18.1620 Y86.5760 
G01 X-18.3300 Y86.5494 
G01 X-18.5000 Y86.5494 
G01 X-18.6680 Y86.5760 
G01 X-18.8298 Y86.6286 
G01 X-18.9814 Y86.7058 
G01 X-19.1190 Y86.8058 
G01 X-19.1456 Y86.8324 
G01 X-19.9228 Y86.0552 
G01 X-20.0152 Y85.9628 
G01 X-20.1284 Y85.8974 
G01 X-20.2546 Y85.8636 
G01 X-34.0844 Y85.8636 
G01 X-36.4328 Y83.5152 
G01 X-36.5252 Y83.4228 
G01 X-36.6384 Y83.3574 
G01 X-36.7646 Y83.3236 
G01 X-40.7525 Y83.3236 
G01 X-41.4256 Y82.6505 
G01 X-42.3944 Y82.6505 
G01 X-43.0795 Y83.3356 
G01 X-43.0795 Y84.3044 
G01 X-42.3944 Y84.9895 
G01 X-41.4256 Y84.9895 
G01 X-40.7525 Y84.3164 
G01 X-37.0356 Y84.3164 
G01 X-34.6872 Y86.6648 
G01 X-34.5948 Y86.7572 
G01 X-33.4246 Y87.9275 
G01 X-33.3864 Y88.0448 
G01 X-33.3092 Y88.1964 
G01 X-33.2092 Y88.3340 
G01 X-33.0890 Y88.4542 
G01 X-32.9514 Y88.5542 
G01 X-32.7998 Y88.6314 
G01 X-32.6380 Y88.6840 
G01 X-32.4700 Y88.7106 
G01 X-32.3000 Y88.7106 
G01 X-32.1320 Y88.6840 
G01 X-31.9702 Y88.6314 
G01 X-31.8186 Y88.5542 
G01 X-31.6810 Y88.4542 
G01 X-31.5608 Y88.3340 
G01 X-31.4608 Y88.1964 
G01 X-31.3836 Y88.0448 
G01 X-31.3310 Y87.8830 
G01 X-31.3044 Y87.7150 
G01 X-31.3044 Y87.5450 
G01 X-31.3310 Y87.3770 
G01 X-31.3836 Y87.2152 
G01 X-31.4608 Y87.0636 
G01 X-31.5608 Y86.9260 
G01 X-31.6304 Y86.8564 
G01 X-30.5996 Y86.8564 
G01 X-30.6692 Y86.9260 
G01 X-30.7692 Y87.0636 
G01 X-30.8464 Y87.2152 
G01 X-30.8990 Y87.3770 
G01 X-30.9256 Y87.5450 
G01 X-30.9256 Y87.7150 
G01 X-30.8990 Y87.8830 
G01 X-30.8464 Y88.0448 
G01 X-30.7692 Y88.1964 
G01 X-30.6692 Y88.3340 
G01 X-30.5490 Y88.4542 
G01 X-30.4114 Y88.5542 
G01 X-30.2598 Y88.6314 
G01 X-30.0980 Y88.6840 
G01 X-29.9300 Y88.7106 
G01 X-29.7600 Y88.7106 
G01 X-29.5920 Y88.6840 
G01 X-29.4302 Y88.6314 
G01 X-29.2786 Y88.5542 
G01 X-29.1410 Y88.4542 
G01 X-29.1144 Y88.4276 
G01 X-28.3372 Y89.2048 
G01 X-28.2448 Y89.2972 
G01 X-28.1316 Y89.3626 
G01 X-28.0054 Y89.3964 
G01 X-20.4396 Y89.3964 
G01 X-20.5092 Y89.4660 
G01 X-20.6092 Y89.6036 
G01 X-20.6864 Y89.7552 
G01 X-20.7390 Y89.9170 
G01 X-20.7656 Y90.0850 
G01 X-20.7656 Y90.2550 
G01 X-20.7390 Y90.4230 
G01 X-20.6864 Y90.5848 
G01 X-20.6092 Y90.7364 
G01 X-20.5092 Y90.8740 
G01 X-20.4396 Y90.9436 
G01 X-29.0044 Y90.9436 
G01 X-30.0754 Y89.8725 
G01 X-30.1136 Y89.7552 
G01 X-30.1908 Y89.6036 
G01 X-30.2908 Y89.4660 
G01 X-30.4110 Y89.3458 
G01 X-30.5486 Y89.2458 
G01 X-30.7002 Y89.1686 
G01 X-30.8620 Y89.1160 
G01 X-31.0300 Y89.0894 
G01 X-31.2000 Y89.0894 
G01 X-31.3680 Y89.1160 
G01 X-31.5298 Y89.1686 
G01 X-31.6814 Y89.2458 
G01 X-31.8190 Y89.3458 
G01 X-31.9392 Y89.4660 
G01 X-32.0392 Y89.6036 
G01 X-32.1164 Y89.7552 
G01 X-32.1690 Y89.9170 
G01 X-32.1956 Y90.0850 
G01 X-32.1956 Y90.2550 
G01 X-32.1690 Y90.4230 
G01 X-32.1164 Y90.5848 
G01 X-32.0392 Y90.7364 
G01 X-31.9392 Y90.8740 
G01 X-31.8190 Y90.9942 
G01 X-31.6814 Y91.0942 
G01 X-31.5298 Y91.1714 
G01 X-31.3680 Y91.2240 
G01 X-31.2000 Y91.2506 
G01 X-31.0300 Y91.2506 
G01 X-30.8620 Y91.2240 
G01 X-30.7002 Y91.1714 
G01 X-30.5486 Y91.0942 
G01 X-30.4110 Y90.9942 
G01 X-30.3844 Y90.9676 
G01 X-29.5148 Y91.8372 
G01 X-29.4016 Y91.9026 
G01 X-29.2754 Y91.9364 
G01 X-18.9846 Y91.9364 
G01 X-18.8584 Y91.9026 
G01 X-18.7452 Y91.8372 
G01 X-18.6528 Y91.7448 
G01 X-17.8756 Y90.9676 
G01 X-17.8490 Y90.9942 
G01 X-17.7114 Y91.0942 
G01 X-17.5598 Y91.1714 
G01 X-17.3980 Y91.2240 
G01 X-17.2300 Y91.2506 
G01 X-17.0600 Y91.2506 
G01 X-16.8920 Y91.2240 
G01 X-16.7302 Y91.1714 
G01 X-16.5786 Y91.0942 
G01 X-16.4410 Y90.9942 
G01 X-16.3208 Y90.8740 
G01 X-16.2208 Y90.7364 
G01 X-16.1436 Y90.5848 
G01 X-16.0910 Y90.4230 
G01 X-16.0644 Y90.2550 
G01 X-16.0644 Y90.0850 
G01 X-16.0910 Y89.9170 
G01 X-16.1436 Y89.7552 
G01 X-16.2208 Y89.6036 
G01 X-16.3208 Y89.4660 
G01 X-16.4410 Y89.3458 
G01 X-16.5786 Y89.2458 
G01 X-16.7302 Y89.1686 
G01 X-16.8920 Y89.1160 
G01 X-17.0600 Y89.0894 
G01 X-17.2300 Y89.0894 
G01 X-17.2744 Y89.0964 
G01 X-16.6056 Y88.4276 
G01 X-16.5790 Y88.4542 
G01 X-16.4414 Y88.5542 
G01 X-16.2898 Y88.6314 
G01 X-16.1280 Y88.6840 
G01 X-15.9600 Y88.7106 
G01 X-15.7900 Y88.7106 
G01 X-15.6220 Y88.6840 
G01 X-15.4602 Y88.6314 
G01 X-15.3086 Y88.5542 
G01 X-15.1710 Y88.4542 
G01 X-15.0508 Y88.3340 
G01 X-14.9508 Y88.1964 
G01 X-14.9151 Y88.1264 
G01 X-4.4806 Y88.1264 
G01 X-4.4110 Y88.2629 
G01 X-4.2993 Y88.4167 
G01 X-4.1649 Y88.5511 
G01 X-4.0111 Y88.6628 
G01 X-3.8418 Y88.7491 
G01 X-3.6610 Y88.8079 
G01 X-3.4732 Y88.8376 
G01 X-1.6068 Y88.8376 
G01 X-1.4190 Y88.8079 
G01 X-1.2382 Y88.7491 
G01 X-1.0689 Y88.6628 
G01 X-0.9151 Y88.5511 
G01 X-0.7807 Y88.4167 
G01 X-0.6690 Y88.2629 
G01 X-0.5827 Y88.0936 
G01 X-0.5239 Y87.9128 
G01 X-0.4942 Y87.7250 
G01 X-0.4942 Y87.5350 
G01 X-0.5239 Y87.3472 
G01 X-0.5827 Y87.1664 
G01 X-0.6690 Y86.9971 
G01 X-0.7807 Y86.8433 
G01 X-0.9151 Y86.7089 
G01 X-1.0689 Y86.5972 
G01 X-1.2382 Y86.5109 
G01 X-1.4190 Y86.4521 
G01 X-1.6068 Y86.4224 
G00 Z2.5400 
G00 X-1.6068 Y82.6124 
G01 Z-0.1500 F254.00 
G01 X-3.4732 Y82.6124 F508.00 
G01 X-3.6610 Y82.6421 
G01 X-3.8418 Y82.7009 
G01 X-4.0111 Y82.7872 
G01 X-4.1649 Y82.8989 
G01 X-4.2993 Y83.0333 
G01 X-4.4110 Y83.1871 
G01 X-4.4973 Y83.3564 
G01 X-4.5561 Y83.5372 
G01 X-4.5858 Y83.7250 
G01 X-4.5858 Y83.9150 
G01 X-4.5561 Y84.1028 
G01 X-4.4973 Y84.2836 
G01 X-4.4110 Y84.4529 
G01 X-4.2993 Y84.6067 
G01 X-4.1649 Y84.7411 
G01 X-4.0111 Y84.8528 
G01 X-3.8418 Y84.9391 
G01 X-3.6610 Y84.9979 
G01 X-3.4732 Y85.0276 
G01 X-1.6068 Y85.0276 
G01 X-1.4190 Y84.9979 
G01 X-1.2382 Y84.9391 
G01 X-1.0689 Y84.8528 
G01 X-0.9151 Y84.7411 
G01 X-0.7807 Y84.6067 
G01 X-0.6690 Y84.4529 
G01 X-0.5827 Y84.2836 
G01 X-0.5239 Y84.1028 
G01 X-0.4942 Y83.9150 
