(.../pcb-gcode-3.6.0.4/pcb-gcode.ulp)
(Copyright 2005 - 2012 by John Johnson)
(See readme.txt for licensing terms.)
(This file generated from the board:)
(.../eagle/ARMEDBASE_V0/RTU/RTU.brd)
(Current profile is .../pcb-gcode-3.6.0.4/profiles/emc.pp  )
(This file generated 6/25/2014 4:48:38 PM)
(Settings from pcb-machine.h)
(  Tool Size)
(0.2000 )
(Z Axis Settings)
(  High     Up        Down     Drill)
(12.7000 	2.5400 	-0.1500 	-0.8128 )
(spindle on time = 3.0000)
(milling depth = -0.1500)
(text depth = -0.1270)
(tool change at 12.7000 15.2400 25.4000 )
(feed rate xy = F508.00 )
(feed rate z  = F254.00 )
(Settings from pcb-defaults.h)
(isolate min = 0.0154)
(isolate max = 0.5080)
(isolate step = 0.1270)
(Generated top outlines, top drill, bottom outlines, bottom drill, )
(Unit of measure: mm)
(Metric Mode)
G21
(Absolute Coordinates)
G90
G00 X0.0000 Y0.0000 
M03
G04 P3.000000
G00 Z2.5400 
G00 X16.7016 Y87.5486 
G01 Z-0.1500 F254.00 
G01 X16.7016 Y87.7114 F508.00 
G01 X16.6698 Y87.8711 
G01 X16.6075 Y88.0215 
G01 X16.5171 Y88.1569 
G01 X16.4019 Y88.2721 
G01 X16.2665 Y88.3625 
G01 X16.1161 Y88.4248 
G01 X15.9564 Y88.4566 
G01 X15.7936 Y88.4566 
G01 X15.6339 Y88.4248 
G01 X15.4835 Y88.3625 
G01 X15.3481 Y88.2721 
G01 X15.2329 Y88.1569 
G01 X15.1425 Y88.0215 
G01 X15.0802 Y87.8711 
G01 X15.0484 Y87.7114 
G01 X15.0484 Y87.5486 
G01 X15.0802 Y87.3889 
G01 X15.1425 Y87.2385 
G01 X15.2329 Y87.1031 
G01 X15.3481 Y86.9879 
G01 X15.4835 Y86.8975 
G01 X15.6339 Y86.8352 
G01 X15.7936 Y86.8034 
G01 X15.9564 Y86.8034 
G01 X16.1161 Y86.8352 
G01 X16.2665 Y86.8975 
G01 X16.4019 Y86.9879 
G01 X16.5171 Y87.1031 
G01 X16.6075 Y87.2385 
G01 X16.6698 Y87.3889 
G01 X16.7016 Y87.5486 
G00 Z2.5400 
G00 X19.2098 Y87.8711 
G01 Z-0.1500 F254.00 
G01 X19.1475 Y88.0215 F508.00 
G01 X19.0571 Y88.1569 
G01 X18.9419 Y88.2721 
G01 X18.8065 Y88.3625 
G01 X18.6561 Y88.4248 
G01 X18.4964 Y88.4566 
G01 X18.3336 Y88.4566 
G01 X18.1739 Y88.4248 
G01 X18.0235 Y88.3625 
G01 X17.8881 Y88.2721 
G01 X17.7729 Y88.1569 
G01 X17.6825 Y88.0215 
G01 X17.6202 Y87.8711 
G01 X17.5884 Y87.7114 
G01 X17.5884 Y87.5486 
G01 X17.6202 Y87.3889 
G01 X17.6825 Y87.2385 
G01 X17.7729 Y87.1031 
G01 X17.8881 Y86.9879 
G01 X18.0235 Y86.8975 
G01 X18.1739 Y86.8352 
G01 X18.3336 Y86.8034 
G01 X18.4964 Y86.8034 
G01 X18.6561 Y86.8352 
G01 X18.8065 Y86.8975 
G01 X18.8076 Y83.2654 
G01 X18.2570 Y83.2654 
G01 X18.2146 Y83.2478 
G01 X18.1822 Y83.2154 
G01 X18.1646 Y83.1730 
G01 X18.1646 Y81.9270 
G01 X18.1822 Y81.8846 
G01 X18.2146 Y81.8522 
G01 X18.2570 Y81.8346 
G01 X19.1030 Y81.8346 
G01 X19.1454 Y81.8522 
G01 X19.1778 Y81.8846 
G01 X19.1954 Y81.9270 
G01 X19.1954 Y82.3076 
G01 X21.4446 Y82.3076 
G01 X21.4446 Y81.9270 
G01 X21.4622 Y81.8846 
G01 X21.4946 Y81.8522 
G01 X21.5370 Y81.8346 
G01 X22.3830 Y81.8346 
G01 X22.4254 Y81.8522 
G01 X22.4578 Y81.8846 
G01 X22.4754 Y81.9270 
G01 X22.4754 Y83.1730 
G01 X22.4578 Y83.2154 
G01 X22.4254 Y83.2478 
G01 X22.3830 Y83.2654 
G01 X21.5370 Y83.2654 
G01 X21.4946 Y83.2478 
G01 X21.4622 Y83.2154 
G01 X21.4446 Y83.1730 
G01 X21.4446 Y82.7924 
G01 X19.2924 Y82.7924 
G01 X19.2924 Y87.6782 
G01 X19.2555 Y87.7673 
G01 X19.2243 Y87.7985 
G01 X19.2098 Y87.8711 
G00 Z2.5400 
G00 X20.7046 Y66.6630 
G01 Z-0.1500 F254.00 
G01 X20.7046 Y65.4170 F508.00 
G01 X20.7222 Y65.3746 
G01 X20.7546 Y65.3422 
G01 X20.7970 Y65.3246 
G01 X21.3476 Y65.3246 
G01 X21.3476 Y64.8704 
G01 X19.4226 Y62.9454 
G01 X18.2070 Y62.9454 
G01 X18.1646 Y62.9278 
G01 X18.1322 Y62.8954 
G01 X18.1146 Y62.8530 
G01 X18.1146 Y61.6070 
G01 X18.1322 Y61.5646 
G01 X18.1646 Y61.5322 
G01 X18.2070 Y61.5146 
G01 X19.4530 Y61.5146 
G01 X19.4954 Y61.5322 
G01 X19.5278 Y61.5646 
G01 X19.5454 Y61.6070 
G01 X19.5454 Y62.3826 
G01 X21.7273 Y64.5645 
G01 X21.7955 Y64.6327 
G01 X21.8324 Y64.7218 
G01 X21.8324 Y66.0882 
G01 X21.7955 Y66.1773 
G01 X21.7354 Y66.2374 
G01 X21.7354 Y66.6630 
G01 X21.7178 Y66.7054 
G01 X21.6854 Y66.7378 
G01 X21.6430 Y66.7554 
G01 X20.7970 Y66.7554 
G01 X20.7546 Y66.7378 
G01 X20.7222 Y66.7054 
G01 X20.7046 Y66.6630 
G00 Z2.5400 
G00 X16.6554 Y69.2270 
G01 Z-0.1500 F254.00 
G01 X16.6554 Y69.6526 F508.00 
G01 X16.7155 Y69.7127 
G01 X16.7524 Y69.8018 
G01 X16.7524 Y69.8982 
G01 X16.7155 Y69.9873 
G01 X16.6554 Y70.0474 
G01 X16.6554 Y70.4730 
G01 X16.6378 Y70.5154 
G01 X16.6054 Y70.5478 
G01 X16.5630 Y70.5654 
G01 X16.1374 Y70.5654 
G01 X15.4824 Y71.2204 
G01 X15.4824 Y74.5696 
G01 X15.9980 Y74.5696 
G01 X16.0404 Y74.5872 
G01 X16.0728 Y74.6196 
G01 X16.0904 Y74.6620 
G01 X16.0904 Y75.9780 
G01 X16.0728 Y76.0204 
G01 X16.0404 Y76.0528 
G01 X15.9980 Y76.0704 
G01 X14.4820 Y76.0704 
G01 X14.4396 Y76.0528 
G01 X14.4072 Y76.0204 
G01 X14.3896 Y75.9780 
G01 X14.3896 Y74.6620 
G01 X14.4072 Y74.6196 
G01 X14.4396 Y74.5872 
G01 X14.4820 Y74.5696 
G01 X14.9976 Y74.5696 
G01 X14.9976 Y71.3624 
G01 X11.8883 Y71.3624 
G01 X11.8883 Y71.6637 
G01 X11.8707 Y71.7061 
G01 X11.8383 Y71.7385 
G01 X11.7959 Y71.7561 
G01 X9.7433 Y71.7561 
G01 X9.7009 Y71.7385 
G01 X9.6685 Y71.7061 
G01 X9.6509 Y71.6637 
G01 X9.6509 Y70.1191 
G01 X9.6685 Y70.0767 
G01 X9.7009 Y70.0443 
G01 X9.7433 Y70.0267 
G01 X11.7959 Y70.0267 
G01 X11.8383 Y70.0443 
G01 X11.8707 Y70.0767 
G01 X11.8883 Y70.1191 
G01 X11.8883 Y70.8776 
G01 X15.1396 Y70.8776 
G01 X15.6246 Y70.3926 
G01 X15.6246 Y69.2270 
G01 X15.6422 Y69.1846 
G01 X15.6746 Y69.1522 
G01 X15.7170 Y69.1346 
G01 X16.5630 Y69.1346 
G01 X16.6054 Y69.1522 
G01 X16.6378 Y69.1846 
G01 X16.6554 Y69.2270 
G00 Z2.5400 
G00 X1.6079 Y90.4864 
G01 Z-0.1500 F254.00 
G01 X3.4721 Y90.4864 F508.00 
G01 X3.6564 Y90.5230 
G01 X3.8299 Y90.5949 
G01 X3.9861 Y90.6993 
G01 X4.1189 Y90.8321 
G01 X4.2233 Y90.9883 
G01 X4.2952 Y91.1618 
G01 X4.3318 Y91.3461 
G01 X4.3318 Y91.5339 
G01 X4.2952 Y91.7182 
G01 X4.2233 Y91.8917 
G01 X4.1189 Y92.0479 
G01 X3.9861 Y92.1807 
G01 X3.8299 Y92.2851 
G01 X3.6564 Y92.3569 
G01 X3.4721 Y92.3936 
G01 X1.6079 Y92.3936 
G01 X1.4236 Y92.3569 
G01 X1.2501 Y92.2851 
G01 X1.0939 Y92.1807 
G01 X0.9611 Y92.0479 
G01 X0.8567 Y91.8917 
G01 X0.7848 Y91.7182 
G01 X0.7482 Y91.5339 
G01 X0.7482 Y91.3461 
G01 X0.7848 Y91.1618 
G01 X0.8567 Y90.9883 
G01 X0.9611 Y90.8321 
G01 X1.0939 Y90.6993 
G01 X1.2501 Y90.5949 
G01 X1.4236 Y90.5230 
G01 X1.6079 Y90.4864 
G00 Z2.5400 
G00 X1.6079 Y86.6764 
G01 Z-0.1500 F254.00 
G01 X3.4721 Y86.6764 F508.00 
G01 X3.6564 Y86.7130 
G01 X3.8299 Y86.7849 
G01 X3.9861 Y86.8893 
G01 X4.1189 Y87.0221 
G01 X4.2233 Y87.1783 
G01 X4.2952 Y87.3518 
G01 X4.3318 Y87.5361 
G01 X4.3318 Y87.7239 
G01 X4.2952 Y87.9082 
G01 X4.2233 Y88.0817 
G01 X4.1189 Y88.2379 
G01 X3.9861 Y88.3707 
G01 X3.8299 Y88.4751 
G01 X3.6564 Y88.5470 
G01 X3.4721 Y88.5836 
G01 X1.6079 Y88.5836 
G01 X1.4236 Y88.5470 
G01 X1.2501 Y88.4751 
G01 X1.0939 Y88.3707 
G01 X0.9611 Y88.2379 
G01 X0.8567 Y88.0817 
G01 X0.7848 Y87.9082 
G01 X0.7482 Y87.7239 
G01 X0.7482 Y87.5361 
G01 X0.7848 Y87.3518 
G01 X0.8567 Y87.1783 
G01 X0.9611 Y87.0221 
G01 X1.0939 Y86.8893 
G01 X1.2501 Y86.7849 
G01 X1.4236 Y86.7130 
G01 X1.6079 Y86.6764 
G00 Z2.5400 
G00 X1.6079 Y82.8664 
G01 Z-0.1500 F254.00 
G01 X3.4721 Y82.8664 F508.00 
G01 X3.6564 Y82.9030 
G01 X3.8299 Y82.9749 
G01 X3.9861 Y83.0793 
G01 X4.1189 Y83.2121 
G01 X4.2233 Y83.3683 
G01 X4.2952 Y83.5418 
G01 X4.3023 Y83.5776 
G01 X7.5196 Y83.5776 
G01 X11.2927 Y79.8045 
G01 X11.3818 Y79.7676 
G01 X14.3896 Y79.7676 
G01 X14.3896 Y78.9620 
G01 X14.4072 Y78.9196 
G01 X14.4396 Y78.8872 
G01 X14.4820 Y78.8696 
G01 X15.9980 Y78.8696 
G01 X16.0404 Y78.8872 
G01 X16.0728 Y78.9196 
G01 X16.0904 Y78.9620 
G01 X16.0904 Y80.2780 
G01 X16.0728 Y80.3204 
G01 X16.0404 Y80.3528 
G01 X15.9980 Y80.3704 
G01 X14.4820 Y80.3704 
G01 X14.4396 Y80.3528 
G01 X14.4072 Y80.3204 
G01 X14.3896 Y80.2780 
G01 X14.3896 Y80.2524 
G01 X11.5304 Y80.2524 
G01 X7.8255 Y83.9573 
G01 X7.7573 Y84.0255 
G01 X7.6682 Y84.0624 
G01 X4.3023 Y84.0624 
G01 X4.2952 Y84.0982 
G01 X4.2233 Y84.2717 
G01 X4.1189 Y84.4279 
G01 X3.9861 Y84.5607 
G01 X3.8299 Y84.6651 
G01 X3.6564 Y84.7370 
G01 X3.4721 Y84.7736 
G01 X1.6079 Y84.7736 
G01 X1.4236 Y84.7370 
G01 X1.2501 Y84.6651 
G01 X1.0939 Y84.5607 
G01 X0.9611 Y84.4279 
G01 X0.8567 Y84.2717 
G01 X0.7848 Y84.0982 
G01 X0.7482 Y83.9139 
G01 X0.7482 Y83.7261 
G01 X0.7848 Y83.5418 
G01 X0.8567 Y83.3683 
G01 X0.9611 Y83.2121 
G01 X1.0939 Y83.0793 
G01 X1.2501 Y82.9749 
G01 X1.4236 Y82.9030 
G01 X1.6079 Y82.8664 
G00 Z2.5400 
G00 X17.3530 Y62.9454 
G01 Z-0.1500 F254.00 
G01 X16.1374 Y62.9454 F508.00 
G01 X14.2124 Y64.8704 
G01 X14.2124 Y65.3246 
G01 X14.7630 Y65.3246 
G01 X14.8054 Y65.3422 
G01 X14.8378 Y65.3746 
G01 X14.8554 Y65.4170 
G01 X14.8554 Y66.5826 
G01 X17.9855 Y69.7127 
G01 X18.0224 Y69.8018 
G01 X18.0224 Y81.3282 
G01 X17.9855 Y81.4173 
G01 X17.9173 Y81.4855 
G01 X17.3954 Y82.0074 
G01 X17.3954 Y83.1730 
G01 X17.3778 Y83.2154 
G01 X17.3454 Y83.2478 
G01 X17.3030 Y83.2654 
G01 X16.4570 Y83.2654 
G01 X16.4146 Y83.2478 
G01 X16.3822 Y83.2154 
G01 X16.3646 Y83.1730 
G01 X16.3646 Y83.0382 
G01 X14.2124 Y85.1904 
G01 X14.2124 Y87.5296 
G01 X16.4320 Y89.7492 
G01 X16.5029 Y89.6431 
G01 X16.6181 Y89.5279 
G01 X16.7535 Y89.4375 
G01 X16.9039 Y89.3752 
G01 X17.0636 Y89.3434 
G01 X17.2264 Y89.3434 
G01 X17.3861 Y89.3752 
G01 X17.5365 Y89.4375 
G01 X17.6719 Y89.5279 
G01 X17.7871 Y89.6431 
G01 X17.8775 Y89.7785 
G01 X17.9398 Y89.9289 
G01 X17.9716 Y90.0886 
G01 X17.9716 Y90.2514 
G01 X17.9398 Y90.4111 
G01 X17.8775 Y90.5615 
G01 X17.7871 Y90.6969 
G01 X17.6719 Y90.8121 
G01 X17.5365 Y90.9025 
G01 X17.3861 Y90.9648 
G01 X17.2264 Y90.9966 
G01 X17.0636 Y90.9966 
G01 X16.9039 Y90.9648 
G01 X16.7535 Y90.9025 
G01 X16.6181 Y90.8121 
G01 X16.5029 Y90.6969 
G01 X16.4125 Y90.5615 
G01 X16.3502 Y90.4111 
G01 X16.3357 Y90.3385 
G01 X16.3045 Y90.3073 
G01 X13.7645 Y87.7673 
G01 X13.7276 Y87.6782 
G01 X13.7276 Y85.0418 
G01 X13.7645 Y84.9527 
G01 X13.8327 Y84.8845 
G01 X16.3045 Y82.4127 
G01 X16.3646 Y82.3526 
G01 X16.3646 Y81.9270 
G01 X16.3822 Y81.8846 
G01 X16.4146 Y81.8522 
G01 X16.4570 Y81.8346 
G01 X16.8826 Y81.8346 
G01 X17.5376 Y81.1796 
G01 X17.5376 Y69.9504 
G01 X14.3426 Y66.7554 
G01 X14.2124 Y66.7554 
G01 X14.2124 Y69.1346 
G01 X14.7630 Y69.1346 
G01 X14.8054 Y69.1522 
G01 X14.8378 Y69.1846 
G01 X14.8554 Y69.2270 
G01 X14.8554 Y70.4730 
G01 X14.8378 Y70.5154 
G01 X14.8054 Y70.5478 
G01 X14.7630 Y70.5654 
G01 X13.9170 Y70.5654 
G01 X13.8746 Y70.5478 
G01 X13.8422 Y70.5154 
G01 X13.8246 Y70.4730 
G01 X13.8246 Y70.0474 
G01 X13.7645 Y69.9873 
G01 X13.7276 Y69.8982 
G01 X13.7276 Y66.2824 
G01 X11.8883 Y66.2824 
G01 X11.8883 Y67.0917 
G01 X11.8707 Y67.1341 
G01 X11.8383 Y67.1665 
G01 X11.7959 Y67.1841 
G01 X9.7433 Y67.1841 
G01 X9.7009 Y67.1665 
G01 X9.6685 Y67.1341 
G01 X9.6509 Y67.0917 
G01 X9.6509 Y66.8919 
G01 X9.1324 Y67.4104 
G01 X9.1324 Y69.8982 
G01 X9.0955 Y69.9873 
G01 X9.0273 Y70.0555 
G01 X4.1262 Y74.9566 
G01 X4.1280 Y74.9623 
G01 X4.1540 Y75.1264 
G01 X4.1540 Y75.2924 
G01 X4.1280 Y75.4565 
G01 X4.0767 Y75.6145 
G01 X4.0013 Y75.7624 
G01 X3.9037 Y75.8968 
G01 X3.7862 Y76.0143 
G01 X3.6518 Y76.1119 
G01 X3.5039 Y76.1873 
G01 X3.3459 Y76.2386 
G01 X3.1818 Y76.2646 
G01 X3.0158 Y76.2646 
G01 X2.8517 Y76.2386 
G01 X2.6937 Y76.1873 
G01 X2.5458 Y76.1119 
G01 X2.4114 Y76.0143 
G01 X2.2939 Y75.8968 
G01 X2.1963 Y75.7624 
G01 X2.1209 Y75.6145 
G01 X2.0696 Y75.4565 
G01 X2.0436 Y75.2924 
G01 X2.0436 Y75.1264 
G01 X2.0696 Y74.9623 
G01 X2.1209 Y74.8043 
G01 X2.1963 Y74.6564 
G01 X2.2939 Y74.5220 
G01 X2.4114 Y74.4045 
G01 X2.5458 Y74.3069 
G01 X2.6937 Y74.2315 
G01 X2.8517 Y74.1802 
G01 X3.0158 Y74.1542 
G01 X3.1818 Y74.1542 
G01 X3.3459 Y74.1802 
G01 X3.5039 Y74.2315 
G01 X3.6518 Y74.3069 
G01 X3.7862 Y74.4045 
G01 X3.8894 Y74.5078 
G01 X8.6476 Y69.7496 
G01 X8.6476 Y67.2618 
G01 X8.6845 Y67.1727 
G01 X9.6509 Y66.2063 
G01 X9.6509 Y65.5471 
G01 X9.6685 Y65.5047 
G01 X9.7009 Y65.4723 
G01 X9.7433 Y65.4547 
G01 X11.7959 Y65.4547 
G01 X11.8383 Y65.4723 
G01 X11.8707 Y65.5047 
G01 X11.8883 Y65.5471 
G01 X11.8883 Y65.7976 
G01 X13.7276 Y65.7976 
G01 X13.7276 Y64.7218 
G01 X13.7645 Y64.6327 
G01 X13.8327 Y64.5645 
G01 X16.0146 Y62.3826 
G01 X16.0146 Y61.6070 
G01 X16.0322 Y61.5646 
G01 X16.0646 Y61.5322 
G01 X16.1070 Y61.5146 
G01 X16.8826 Y61.5146 
G01 X25.1576 Y53.2396 
G01 X25.1576 Y45.6718 
G01 X25.1945 Y45.5827 
G01 X25.2546 Y45.5226 
G01 X25.2546 Y45.0970 
G01 X25.2722 Y45.0546 
G01 X25.3046 Y45.0222 
G01 X25.3470 Y45.0046 
G01 X26.1930 Y45.0046 
G01 X26.2354 Y45.0222 
G01 X26.2678 Y45.0546 
G01 X26.2854 Y45.0970 
G01 X26.2854 Y46.3430 
G01 X26.2678 Y46.3854 
G01 X26.2354 Y46.4178 
G01 X26.1930 Y46.4354 
G01 X25.6424 Y46.4354 
G01 X25.6424 Y48.8146 
G01 X26.1930 Y48.8146 
G01 X26.2354 Y48.8322 
G01 X26.2678 Y48.8646 
G01 X26.2854 Y48.9070 
G01 X26.2854 Y50.0726 
G01 X29.4155 Y53.2027 
G01 X29.4524 Y53.2918 
G01 X29.4524 Y59.4476 
G01 X34.1896 Y59.4476 
G01 X42.1507 Y51.4865 
G01 X42.0251 Y51.4026 
G01 X41.9170 Y51.2945 
G01 X41.8321 Y51.1675 
G01 X41.7736 Y51.0263 
G01 X41.7438 Y50.8764 
G01 X41.7438 Y50.7236 
G01 X41.7736 Y50.5737 
G01 X41.8321 Y50.4325 
G01 X41.9170 Y50.3055 
G01 X42.0251 Y50.1974 
G01 X42.1521 Y50.1125 
G01 X42.2933 Y50.0540 
G01 X42.4432 Y50.0242 
G01 X43.9168 Y50.0242 
G01 X44.0667 Y50.0540 
G01 X44.2079 Y50.1125 
G01 X44.3349 Y50.1974 
G01 X44.4430 Y50.3055 
G01 X44.5279 Y50.4325 
G01 X44.5864 Y50.5737 
G01 X44.6162 Y50.7236 
G01 X44.6162 Y50.8764 
G01 X44.5864 Y51.0263 
G01 X44.5279 Y51.1675 
G01 X44.4430 Y51.2945 
G01 X44.3349 Y51.4026 
G01 X44.2079 Y51.4875 
G01 X44.0667 Y51.5460 
G01 X43.9168 Y51.5758 
G01 X42.7470 Y51.5758 
G01 X34.4955 Y59.8273 
G01 X34.4273 Y59.8955 
G01 X34.3382 Y59.9324 
G01 X29.1618 Y59.9324 
G01 X29.0727 Y59.8955 
G01 X29.0045 Y59.8273 
G01 X28.9676 Y59.7382 
G01 X28.9676 Y53.4404 
G01 X25.7726 Y50.2454 
G01 X25.6424 Y50.2454 
G01 X25.6424 Y52.6246 
G01 X26.1930 Y52.6246 
G01 X26.2354 Y52.6422 
G01 X26.2678 Y52.6746 
G01 X26.2854 Y52.7170 
G01 X26.2854 Y53.9630 
G01 X26.2678 Y54.0054 
G01 X26.2354 Y54.0378 
G01 X26.1930 Y54.0554 
G01 X25.3470 Y54.0554 
G01 X25.3046 Y54.0378 
G01 X25.2722 Y54.0054 
G01 X25.2546 Y53.9630 
G01 X25.2546 Y53.8282 
G01 X17.4454 Y61.6374 
G01 X17.4454 Y62.8530 
G01 X17.4278 Y62.8954 
G01 X17.3954 Y62.9278 
G01 X17.3530 Y62.9454 
G00 Z2.5400 
G00 X5.4967 Y70.6004 
G01 Z-0.1500 F254.00 
G01 X3.4441 Y70.6004 F508.00 
G01 X3.4017 Y70.5828 
G01 X3.3693 Y70.5504 
G01 X3.3517 Y70.5080 
G01 X3.3517 Y66.6520 
G01 X3.3693 Y66.6096 
G01 X3.4017 Y66.5772 
G01 X3.4441 Y66.5596 
G01 X5.4967 Y66.5596 
G01 X5.5391 Y66.5772 
G01 X5.5715 Y66.6096 
G01 X5.5891 Y66.6520 
G01 X5.5891 Y70.5080 
G01 X5.5715 Y70.5504 
G01 X5.5391 Y70.5828 
G01 X5.4967 Y70.6004 
G00 Z2.5400 
G00 X11.7959 Y69.4701 
G01 Z-0.1500 F254.00 
G01 X9.7433 Y69.4701 F508.00 
G01 X9.7009 Y69.4525 
G01 X9.6685 Y69.4201 
G01 X9.6509 Y69.3777 
G01 X9.6509 Y67.8331 
G01 X9.6685 Y67.7907 
G01 X9.7009 Y67.7583 
G01 X9.7433 Y67.7407 
G01 X11.7959 Y67.7407 
G01 X11.8383 Y67.7583 
G01 X11.8707 Y67.7907 
G01 X11.8883 Y67.8331 
G01 X11.8883 Y68.6955 
G01 X12.4653 Y69.2725 
G01 X12.5182 Y69.2506 
G01 X12.6386 Y69.2266 
G01 X12.7614 Y69.2266 
G01 X12.8818 Y69.2506 
G01 X12.9953 Y69.2976 
G01 X13.0974 Y69.3658 
G01 X13.1842 Y69.4526 
G01 X13.2524 Y69.5547 
G01 X13.2994 Y69.6682 
G01 X13.3234 Y69.7886 
G01 X13.3234 Y69.9114 
G01 X13.2994 Y70.0318 
G01 X13.2524 Y70.1453 
G01 X13.1842 Y70.2474 
G01 X13.0974 Y70.3342 
G01 X12.9953 Y70.4024 
G01 X12.8818 Y70.4494 
G01 X12.7614 Y70.4734 
G01 X12.6386 Y70.4734 
G01 X12.5182 Y70.4494 
G01 X12.4047 Y70.4024 
G01 X12.3026 Y70.3342 
G01 X12.2158 Y70.2474 
G01 X12.1476 Y70.1453 
G01 X12.1006 Y70.0318 
G01 X12.0766 Y69.9114 
G01 X12.0766 Y69.7886 
G01 X12.1006 Y69.6682 
G01 X12.1225 Y69.6153 
G01 X11.8873 Y69.3801 
G01 X11.8707 Y69.4201 
G01 X11.8383 Y69.4525 
G01 X11.7959 Y69.4701 
G00 Z2.5400 
G00 X10.6564 Y75.1264 
G01 Z-0.1500 F254.00 
G01 X10.6564 Y75.2924 F508.00 
G01 X10.6304 Y75.4565 
G01 X10.5791 Y75.6145 
G01 X10.5037 Y75.7624 
G01 X10.4061 Y75.8968 
G01 X10.2886 Y76.0143 
G01 X10.1542 Y76.1119 
G01 X10.0063 Y76.1873 
G01 X9.8483 Y76.2386 
G01 X9.6842 Y76.2646 
G01 X9.5182 Y76.2646 
G01 X9.3541 Y76.2386 
G01 X9.1961 Y76.1873 
G01 X9.0482 Y76.1119 
G01 X8.9138 Y76.0143 
G01 X8.7963 Y75.8968 
G01 X8.6987 Y75.7624 
G01 X8.6233 Y75.6145 
G01 X8.5720 Y75.4565 
G01 X8.5460 Y75.2924 
G01 X8.5460 Y75.1264 
G01 X8.5720 Y74.9623 
G01 X8.6233 Y74.8043 
G01 X8.6987 Y74.6564 
G01 X8.7963 Y74.5220 
G01 X8.9138 Y74.4045 
G01 X9.0482 Y74.3069 
G01 X9.1961 Y74.2315 
G01 X9.3541 Y74.1802 
G01 X9.5182 Y74.1542 
G01 X9.6842 Y74.1542 
G01 X9.8483 Y74.1802 
G01 X10.0063 Y74.2315 
G01 X10.1542 Y74.3069 
G01 X10.2886 Y74.4045 
G01 X10.4061 Y74.5220 
G01 X10.5037 Y74.6564 
G01 X10.5791 Y74.8043 
G01 X10.6304 Y74.9623 
G01 X10.6564 Y75.1264 
G00 Z2.5400 
G00 X10.6564 Y79.6476 
G01 Z-0.1500 F254.00 
G01 X10.6564 Y79.8136 F508.00 
G01 X10.6304 Y79.9777 
G01 X10.5791 Y80.1357 
G01 X10.5037 Y80.2836 
G01 X10.4061 Y80.4180 
G01 X10.2886 Y80.5355 
G01 X10.1542 Y80.6331 
G01 X10.0063 Y80.7085 
G01 X9.8483 Y80.7598 
G01 X9.6842 Y80.7858 
G01 X9.5182 Y80.7858 
G01 X9.3541 Y80.7598 
G01 X9.1961 Y80.7085 
G01 X9.0482 Y80.6331 
G01 X8.9138 Y80.5355 
G01 X8.7963 Y80.4180 
G01 X8.6987 Y80.2836 
G01 X8.6233 Y80.1357 
G01 X8.5720 Y79.9777 
G01 X8.5460 Y79.8136 
G01 X8.5460 Y79.6476 
G01 X8.5720 Y79.4835 
G01 X8.6233 Y79.3255 
G01 X8.6987 Y79.1776 
G01 X8.7963 Y79.0432 
G01 X8.9138 Y78.9257 
G01 X9.0482 Y78.8281 
G01 X9.1961 Y78.7527 
G01 X9.3541 Y78.7014 
G01 X9.5182 Y78.6754 
G01 X9.6842 Y78.6754 
G01 X9.8483 Y78.7014 
G01 X10.0063 Y78.7527 
G01 X10.1542 Y78.8281 
G01 X10.2886 Y78.9257 
G01 X10.4061 Y79.0432 
G01 X10.5037 Y79.1776 
G01 X10.5791 Y79.3255 
G01 X10.6304 Y79.4835 
G01 X10.6564 Y79.6476 
G00 Z2.5400 
G00 X4.1540 Y79.6476 
G01 Z-0.1500 F254.00 
G01 X4.1540 Y79.8136 F508.00 
G01 X4.1280 Y79.9777 
G01 X4.0767 Y80.1357 
G01 X4.0013 Y80.2836 
G01 X3.9037 Y80.4180 
G01 X3.7862 Y80.5355 
G01 X3.6518 Y80.6331 
G01 X3.5039 Y80.7085 
G01 X3.3459 Y80.7598 
G01 X3.1818 Y80.7858 
G01 X3.0158 Y80.7858 
G01 X2.8517 Y80.7598 
G01 X2.6937 Y80.7085 
G01 X2.5458 Y80.6331 
G01 X2.4114 Y80.5355 
G01 X2.2939 Y80.4180 
G01 X2.1963 Y80.2836 
G01 X2.1209 Y80.1357 
G01 X2.0696 Y79.9777 
G01 X2.0436 Y79.8136 
G01 X2.0436 Y79.6476 
G01 X2.0696 Y79.4835 
G01 X2.1209 Y79.3255 
G01 X2.1963 Y79.1776 
G01 X2.2939 Y79.0432 
G01 X2.4114 Y78.9257 
G01 X2.5458 Y78.8281 
G01 X2.6937 Y78.7527 
G01 X2.8517 Y78.7014 
G01 X3.0158 Y78.6754 
G01 X3.1818 Y78.6754 
G01 X3.3459 Y78.7014 
G01 X3.5039 Y78.7527 
G01 X3.6518 Y78.8281 
G01 X3.7862 Y78.9257 
G01 X3.9037 Y79.0432 
G01 X4.0013 Y79.1776 
G01 X4.0767 Y79.3255 
G01 X4.1280 Y79.4835 
G01 X4.1540 Y79.6476 
G00 Z2.5400 
G00 X21.7354 Y69.2270 
G01 Z-0.1500 F254.00 
G01 X21.7354 Y69.3618 F508.00 
G01 X22.6176 Y68.4796 
G01 X22.6176 Y58.3718 
G01 X22.6545 Y58.2827 
G01 X22.7227 Y58.2145 
G01 X27.0546 Y53.8826 
G01 X27.0546 Y52.7170 
G01 X27.0722 Y52.6746 
G01 X27.1046 Y52.6422 
G01 X27.1470 Y52.6246 
G01 X27.9930 Y52.6246 
G01 X28.0354 Y52.6422 
G01 X28.0678 Y52.6746 
G01 X28.0854 Y52.7170 
G01 X28.0854 Y53.1426 
G01 X28.1455 Y53.2027 
G01 X28.1824 Y53.2918 
G01 X28.1824 Y53.3882 
G01 X28.1455 Y53.4773 
G01 X28.0854 Y53.5374 
G01 X28.0854 Y53.9630 
G01 X28.0678 Y54.0054 
G01 X28.0354 Y54.0378 
G01 X27.9930 Y54.0554 
G01 X27.5674 Y54.0554 
G01 X23.1024 Y58.5204 
G01 X23.1024 Y68.3376 
G01 X41.7803 Y68.3376 
G01 X41.8321 Y68.2125 
G01 X41.9170 Y68.0855 
G01 X42.0251 Y67.9774 
G01 X42.1521 Y67.8925 
G01 X42.2933 Y67.8340 
G01 X42.4432 Y67.8042 
G01 X43.9168 Y67.8042 
G01 X44.0667 Y67.8340 
G01 X44.2079 Y67.8925 
G01 X44.3349 Y67.9774 
G01 X44.4430 Y68.0855 
G01 X44.5279 Y68.2125 
G01 X44.5864 Y68.3537 
G01 X44.6162 Y68.5036 
G01 X44.6162 Y68.6564 
G01 X44.5864 Y68.8063 
G01 X44.5279 Y68.9475 
G01 X44.4430 Y69.0745 
G01 X44.3349 Y69.1826 
G01 X44.2079 Y69.2675 
G01 X44.0667 Y69.3260 
G01 X43.9168 Y69.3558 
G01 X42.4432 Y69.3558 
G01 X42.2933 Y69.3260 
G01 X42.1521 Y69.2675 
G01 X42.0251 Y69.1826 
G01 X41.9170 Y69.0745 
G01 X41.8321 Y68.9475 
G01 X41.7803 Y68.8224 
G01 X22.9604 Y68.8224 
G01 X21.7955 Y69.9873 
G01 X21.7354 Y70.0474 
G01 X21.7354 Y70.4730 
G01 X21.7178 Y70.5154 
G01 X21.6854 Y70.5478 
G01 X21.6430 Y70.5654 
G01 X20.7970 Y70.5654 
G01 X20.7546 Y70.5478 
G01 X20.7222 Y70.5154 
G01 X20.7046 Y70.4730 
G01 X20.7046 Y69.2270 
G01 X20.7222 Y69.1846 
G01 X20.7546 Y69.1522 
G01 X20.7970 Y69.1346 
G01 X21.6430 Y69.1346 
G01 X21.6854 Y69.1522 
G01 X21.7178 Y69.1846 
G01 X21.7354 Y69.2270 
G00 Z2.5400 
G00 X35.2020 Y48.6294 
G01 Z-0.1500 F254.00 
G01 X33.3780 Y48.6294 F508.00 
G01 X33.3356 Y48.6118 
G01 X33.3032 Y48.5794 
G01 X33.2856 Y48.5370 
G01 X33.2856 Y45.9624 
G01 X28.0854 Y45.9624 
G01 X28.0854 Y46.3430 
G01 X28.0678 Y46.3854 
G01 X28.0354 Y46.4178 
G01 X27.9930 Y46.4354 
G01 X27.1470 Y46.4354 
G01 X27.1046 Y46.4178 
G01 X27.0722 Y46.3854 
G01 X27.0546 Y46.3430 
G01 X27.0546 Y45.0970 
G01 X27.0722 Y45.0546 
G01 X27.1046 Y45.0222 
G01 X27.1470 Y45.0046 
G01 X27.9930 Y45.0046 
G01 X28.0354 Y45.0222 
G01 X28.0678 Y45.0546 
G01 X28.0854 Y45.0970 
G01 X28.0854 Y45.4776 
G01 X33.2856 Y45.4776 
G01 X33.2856 Y43.4110 
G01 X33.3032 Y43.3686 
G01 X33.3356 Y43.3362 
G01 X33.3780 Y43.3186 
G01 X35.2020 Y43.3186 
G01 X35.2444 Y43.3362 
G01 X35.2768 Y43.3686 
G01 X35.2944 Y43.4110 
G01 X35.2944 Y45.4776 
G01 X41.7803 Y45.4776 
G01 X41.8321 Y45.3525 
G01 X41.9170 Y45.2255 
G01 X42.0251 Y45.1174 
G01 X42.1521 Y45.0325 
G01 X42.2933 Y44.9740 
G01 X42.4432 Y44.9442 
G01 X43.9168 Y44.9442 
G01 X44.0667 Y44.9740 
G01 X44.2079 Y45.0325 
G01 X44.3349 Y45.1174 
G01 X44.4430 Y45.2255 
G01 X44.5279 Y45.3525 
G01 X44.5864 Y45.4937 
G01 X44.6162 Y45.6436 
G01 X44.6162 Y45.7964 
G01 X44.5864 Y45.9463 
G01 X44.5279 Y46.0875 
G01 X44.4430 Y46.2145 
G01 X44.3349 Y46.3226 
G01 X44.2079 Y46.4075 
G01 X44.0667 Y46.4660 
G01 X43.9168 Y46.4958 
G01 X42.4432 Y46.4958 
G01 X42.2933 Y46.4660 
G01 X42.1521 Y46.4075 
G01 X42.0251 Y46.3226 
G01 X41.9170 Y46.2145 
G01 X41.8321 Y46.0875 
G01 X41.7803 Y45.9624 
G01 X35.2944 Y45.9624 
G01 X35.2944 Y48.5370 
G01 X35.2768 Y48.5794 
G01 X35.2444 Y48.6118 
G01 X35.2020 Y48.6294 
G00 Z2.5400 
G00 X51.5368 Y69.3558 
G01 Z-0.1500 F254.00 
G01 X50.0632 Y69.3558 F508.00 
G01 X49.9133 Y69.3260 
G01 X49.7721 Y69.2675 
G01 X49.6451 Y69.1826 
G01 X49.5370 Y69.0745 
G01 X49.4521 Y68.9475 
G01 X49.3936 Y68.8063 
G01 X49.3638 Y68.6564 
G01 X49.3638 Y68.5036 
G01 X49.3936 Y68.3537 
G01 X49.4521 Y68.2125 
G01 X49.5370 Y68.0855 
G01 X49.6451 Y67.9774 
G01 X49.7721 Y67.8925 
G01 X49.9133 Y67.8340 
G01 X50.0632 Y67.8042 
G01 X51.5368 Y67.8042 
G01 X51.6867 Y67.8340 
G01 X51.8279 Y67.8925 
G01 X51.9549 Y67.9774 
G01 X52.0630 Y68.0855 
G01 X52.1479 Y68.2125 
G01 X52.2064 Y68.3537 
G01 X52.2362 Y68.5036 
G01 X52.2362 Y68.6564 
G01 X52.2064 Y68.8063 
G01 X52.1479 Y68.9475 
G01 X52.0630 Y69.0745 
G01 X51.9549 Y69.1826 
G01 X51.8279 Y69.2675 
G01 X51.6867 Y69.3260 
G01 X51.5368 Y69.3558 
G00 Z2.5400 
G00 X51.5368 Y66.8158 
G01 Z-0.1500 F254.00 
G01 X50.0632 Y66.8158 F508.00 
G01 X49.9133 Y66.7860 
G01 X49.7721 Y66.7275 
G01 X49.6451 Y66.6426 
G01 X49.5370 Y66.5345 
G01 X49.4521 Y66.4075 
G01 X49.3936 Y66.2663 
G01 X49.3638 Y66.1164 
G01 X49.3638 Y65.9636 
G01 X49.3936 Y65.8137 
G01 X49.4521 Y65.6725 
G01 X49.5370 Y65.5455 
G01 X49.6451 Y65.4374 
G01 X49.7721 Y65.3525 
G01 X49.9133 Y65.2940 
G01 X50.0632 Y65.2642 
G01 X51.5368 Y65.2642 
G01 X51.6867 Y65.2940 
G01 X51.8279 Y65.3525 
G01 X51.9549 Y65.4374 
G01 X52.0630 Y65.5455 
G01 X52.1479 Y65.6725 
G01 X52.2064 Y65.8137 
G01 X52.2362 Y65.9636 
G01 X52.2362 Y66.1164 
G01 X52.2064 Y66.2663 
G01 X52.1479 Y66.4075 
G01 X52.0630 Y66.5345 
G01 X51.9549 Y66.6426 
G01 X51.8279 Y66.7275 
G01 X51.6867 Y66.7860 
G01 X51.5368 Y66.8158 
G00 Z2.5400 
G00 X51.5368 Y64.2758 
G01 Z-0.1500 F254.00 
G01 X50.0632 Y64.2758 F508.00 
G01 X49.9133 Y64.2460 
G01 X49.7721 Y64.1875 
G01 X49.6451 Y64.1026 
G01 X49.5370 Y63.9945 
G01 X49.4521 Y63.8675 
G01 X49.3936 Y63.7263 
G01 X49.3638 Y63.5764 
G01 X49.3638 Y63.4236 
G01 X49.3936 Y63.2737 
G01 X49.4521 Y63.1325 
G01 X49.5370 Y63.0055 
G01 X49.6451 Y62.8974 
G01 X49.7721 Y62.8125 
G01 X49.9133 Y62.7540 
G01 X50.0632 Y62.7242 
G01 X51.5368 Y62.7242 
G01 X51.6867 Y62.7540 
G01 X51.8279 Y62.8125 
G01 X51.9549 Y62.8974 
G01 X52.0630 Y63.0055 
G01 X52.1479 Y63.1325 
G01 X52.2064 Y63.2737 
G01 X52.2362 Y63.4236 
G01 X52.2362 Y63.5764 
G01 X52.2064 Y63.7263 
G01 X52.1479 Y63.8675 
G01 X52.0630 Y63.9945 
G01 X51.9549 Y64.1026 
G01 X51.8279 Y64.1875 
G01 X51.6867 Y64.2460 
G01 X51.5368 Y64.2758 
G00 Z2.5400 
G00 X51.5368 Y61.7358 
G01 Z-0.1500 F254.00 
G01 X50.0632 Y61.7358 F508.00 
G01 X49.9133 Y61.7060 
G01 X49.7721 Y61.6475 
G01 X49.6451 Y61.5626 
G01 X49.5370 Y61.4545 
G01 X49.4521 Y61.3275 
G01 X49.3936 Y61.1863 
G01 X49.3638 Y61.0364 
G01 X49.3638 Y60.8836 
G01 X49.3936 Y60.7337 
G01 X49.4521 Y60.5925 
G01 X49.5370 Y60.4655 
G01 X49.6451 Y60.3574 
G01 X49.7721 Y60.2725 
G01 X49.9133 Y60.2140 
G01 X50.0632 Y60.1842 
G01 X51.5368 Y60.1842 
G01 X51.6867 Y60.2140 
G01 X51.8279 Y60.2725 
G01 X51.9549 Y60.3574 
G01 X52.0630 Y60.4655 
G01 X52.1479 Y60.5925 
G01 X52.2064 Y60.7337 
G01 X52.2362 Y60.8836 
G01 X52.2362 Y61.0364 
G01 X52.2064 Y61.1863 
G01 X52.1479 Y61.3275 
G01 X52.0630 Y61.4545 
G01 X51.9549 Y61.5626 
G01 X51.8279 Y61.6475 
G01 X51.6867 Y61.7060 
G01 X51.5368 Y61.7358 
G00 Z2.5400 
G00 X51.5368 Y59.1958 
G01 Z-0.1500 F254.00 
G01 X50.0632 Y59.1958 F508.00 
G01 X49.9133 Y59.1660 
G01 X49.7721 Y59.1075 
G01 X49.6451 Y59.0226 
G01 X49.5370 Y58.9145 
G01 X49.4521 Y58.7875 
G01 X49.3936 Y58.6463 
G01 X49.3638 Y58.4964 
G01 X49.3638 Y58.3436 
G01 X49.3936 Y58.1937 
G01 X49.4521 Y58.0525 
G01 X49.5370 Y57.9255 
G01 X49.6451 Y57.8174 
G01 X49.7721 Y57.7325 
G01 X49.9133 Y57.6740 
G01 X50.0632 Y57.6442 
G01 X51.5368 Y57.6442 
G01 X51.6867 Y57.6740 
G01 X51.8279 Y57.7325 
G01 X51.9549 Y57.8174 
G01 X52.0630 Y57.9255 
G01 X52.1479 Y58.0525 
G01 X52.2064 Y58.1937 
G01 X52.2362 Y58.3436 
G01 X52.2362 Y58.4964 
G01 X52.2064 Y58.6463 
G01 X52.1479 Y58.7875 
G01 X52.0630 Y58.9145 
G01 X51.9549 Y59.0226 
G01 X51.8279 Y59.1075 
G01 X51.6867 Y59.1660 
G01 X51.5368 Y59.1958 
G00 Z2.5400 
G00 X51.5368 Y56.6558 
G01 Z-0.1500 F254.00 
G01 X50.0632 Y56.6558 F508.00 
G01 X49.9133 Y56.6260 
G01 X49.7721 Y56.5675 
G01 X49.6451 Y56.4826 
G01 X49.5370 Y56.3745 
G01 X49.4521 Y56.2475 
G01 X49.3936 Y56.1063 
G01 X49.3638 Y55.9564 
G01 X49.3638 Y55.8036 
G01 X49.3936 Y55.6537 
G01 X49.4521 Y55.5125 
G01 X49.5370 Y55.3855 
G01 X49.6451 Y55.2774 
G01 X49.7721 Y55.1925 
G01 X49.9133 Y55.1340 
G01 X50.0632 Y55.1042 
G01 X51.5368 Y55.1042 
G01 X51.6867 Y55.1340 
G01 X51.8279 Y55.1925 
G01 X51.9549 Y55.2774 
G01 X52.0630 Y55.3855 
G01 X52.1479 Y55.5125 
G01 X52.2064 Y55.6537 
G01 X52.2362 Y55.8036 
G01 X52.2362 Y55.9564 
G01 X52.2064 Y56.1063 
G01 X52.1479 Y56.2475 
G01 X52.0630 Y56.3745 
G01 X51.9549 Y56.4826 
G01 X51.8279 Y56.5675 
G01 X51.6867 Y56.6260 
G01 X51.5368 Y56.6558 
G00 Z2.5400 
G00 X51.5368 Y54.1158 
G01 Z-0.1500 F254.00 
G01 X50.0632 Y54.1158 F508.00 
G01 X49.9133 Y54.0860 
G01 X49.7721 Y54.0275 
G01 X49.6451 Y53.9426 
G01 X49.5370 Y53.8345 
G01 X49.4521 Y53.7075 
G01 X49.3936 Y53.5663 
G01 X49.3638 Y53.4164 
G01 X49.3638 Y53.2636 
G01 X49.3936 Y53.1137 
G01 X49.4521 Y52.9725 
G01 X49.5370 Y52.8455 
G01 X49.6451 Y52.7374 
G01 X49.7721 Y52.6525 
G01 X49.9133 Y52.5940 
G01 X50.0632 Y52.5642 
G01 X51.5368 Y52.5642 
G01 X51.6867 Y52.5940 
G01 X51.8279 Y52.6525 
G01 X51.9549 Y52.7374 
G01 X52.0630 Y52.8455 
G01 X52.1479 Y52.9725 
G01 X52.2064 Y53.1137 
G01 X52.2362 Y53.2636 
G01 X52.2362 Y53.4164 
G01 X52.2064 Y53.5663 
G01 X52.1479 Y53.7075 
G01 X52.0630 Y53.8345 
G01 X51.9549 Y53.9426 
G01 X51.8279 Y54.0275 
G01 X51.6867 Y54.0860 
G01 X51.5368 Y54.1158 
G00 Z2.5400 
G00 X51.5368 Y51.5758 
G01 Z-0.1500 F254.00 
G01 X50.0632 Y51.5758 F508.00 
G01 X49.9133 Y51.5460 
G01 X49.7721 Y51.4875 
G01 X49.6451 Y51.4026 
G01 X49.5370 Y51.2945 
G01 X49.4521 Y51.1675 
G01 X49.3936 Y51.0263 
G01 X49.3638 Y50.8764 
G01 X49.3638 Y50.7236 
G01 X49.3936 Y50.5737 
G01 X49.4521 Y50.4325 
G01 X49.5370 Y50.3055 
G01 X49.6451 Y50.1974 
G01 X49.7721 Y50.1125 
G01 X49.9133 Y50.0540 
G01 X50.0632 Y50.0242 
G01 X51.5368 Y50.0242 
G01 X51.6867 Y50.0540 
G01 X51.8279 Y50.1125 
G01 X51.9549 Y50.1974 
G01 X52.0630 Y50.3055 
G01 X52.1479 Y50.4325 
G01 X52.2064 Y50.5737 
G01 X52.2362 Y50.7236 
G01 X52.2362 Y50.8764 
G01 X52.2064 Y51.0263 
G01 X52.1479 Y51.1675 
G01 X52.0630 Y51.2945 
G01 X51.9549 Y51.4026 
G01 X51.8279 Y51.4875 
G01 X51.6867 Y51.5460 
G01 X51.5368 Y51.5758 
G00 Z2.5400 
G00 X51.5368 Y46.4958 
G01 Z-0.1500 F254.00 
G01 X50.0632 Y46.4958 F508.00 
G01 X49.9133 Y46.4660 
G01 X49.7721 Y46.4075 
G01 X49.6451 Y46.3226 
G01 X49.5370 Y46.2145 
G01 X49.4521 Y46.0875 
G01 X49.3936 Y45.9463 
G01 X49.3638 Y45.7964 
G01 X49.3638 Y45.6436 
G01 X49.3936 Y45.4937 
G01 X49.4521 Y45.3525 
G01 X49.5370 Y45.2255 
G01 X49.6451 Y45.1174 
G01 X49.7721 Y45.0325 
G01 X49.9133 Y44.9740 
G01 X50.0632 Y44.9442 
G01 X51.5368 Y44.9442 
G01 X51.6867 Y44.9740 
G01 X51.8279 Y45.0325 
G01 X51.9549 Y45.1174 
G01 X52.0630 Y45.2255 
G01 X52.1479 Y45.3525 
G01 X52.2064 Y45.4937 
G01 X52.2362 Y45.6436 
G01 X52.2362 Y45.7964 
G01 X52.2064 Y45.9463 
G01 X52.1479 Y46.0875 
G01 X52.0630 Y46.2145 
G01 X51.9549 Y46.3226 
G01 X51.8279 Y46.4075 
G01 X51.6867 Y46.4660 
G01 X51.5368 Y46.4958 
G00 Z2.5400 
G00 X51.5368 Y43.9558 
G01 Z-0.1500 F254.00 
G01 X50.0632 Y43.9558 F508.00 
G01 X49.9133 Y43.9260 
G01 X49.7721 Y43.8675 
G01 X49.6451 Y43.7826 
G01 X49.5370 Y43.6745 
G01 X49.4521 Y43.5475 
G01 X49.3936 Y43.4063 
G01 X49.3638 Y43.2564 
G01 X49.3638 Y43.1036 
G01 X49.3936 Y42.9537 
G01 X49.4521 Y42.8125 
G01 X49.5370 Y42.6855 
G01 X49.6451 Y42.5774 
G01 X49.7721 Y42.4925 
G01 X49.9133 Y42.4340 
G01 X50.0632 Y42.4042 
G01 X51.5368 Y42.4042 
G01 X51.6867 Y42.4340 
G01 X51.8279 Y42.4925 
G01 X51.9549 Y42.5774 
G01 X52.0630 Y42.6855 
G01 X52.1479 Y42.8125 
G01 X52.2064 Y42.9537 
G01 X52.2362 Y43.1036 
G01 X52.2362 Y43.2564 
G01 X52.2064 Y43.4063 
G01 X52.1479 Y43.5475 
G01 X52.0630 Y43.6745 
G01 X51.9549 Y43.7826 
G01 X51.8279 Y43.8675 
G01 X51.6867 Y43.9260 
G01 X51.5368 Y43.9558 
G00 Z2.5400 
G00 X51.5368 Y41.4158 
G01 Z-0.1500 F254.00 
G01 X50.0632 Y41.4158 F508.00 
G01 X49.9133 Y41.3860 
G01 X49.7721 Y41.3275 
G01 X49.6451 Y41.2426 
G01 X49.5370 Y41.1345 
G01 X49.4521 Y41.0075 
G01 X49.3936 Y40.8663 
G01 X49.3638 Y40.7164 
G01 X49.3638 Y40.5636 
G01 X49.3936 Y40.4137 
G01 X49.4521 Y40.2725 
G01 X49.5370 Y40.1455 
G01 X49.6451 Y40.0374 
G01 X49.7721 Y39.9525 
G01 X49.9133 Y39.8940 
G01 X50.0632 Y39.8642 
G01 X51.5368 Y39.8642 
G01 X51.6867 Y39.8940 
G01 X51.8279 Y39.9525 
G01 X51.9549 Y40.0374 
G01 X52.0630 Y40.1455 
G01 X52.1479 Y40.2725 
G01 X52.2064 Y40.4137 
G01 X52.2362 Y40.5636 
G01 X52.2362 Y40.7164 
G01 X52.2064 Y40.8663 
G01 X52.1479 Y41.0075 
G01 X52.0630 Y41.1345 
G01 X51.9549 Y41.2426 
G01 X51.8279 Y41.3275 
G01 X51.6867 Y41.3860 
G01 X51.5368 Y41.4158 
G00 Z2.5400 
G00 X51.5368 Y38.8758 
G01 Z-0.1500 F254.00 
G01 X50.0632 Y38.8758 F508.00 
G01 X49.9133 Y38.8460 
G01 X49.7721 Y38.7875 
G01 X49.6451 Y38.7026 
G01 X49.5370 Y38.5945 
G01 X49.4521 Y38.4675 
G01 X49.3936 Y38.3263 
G01 X49.3638 Y38.1764 
G01 X49.3638 Y38.0236 
G01 X49.3936 Y37.8737 
G01 X49.4521 Y37.7325 
G01 X49.5370 Y37.6055 
G01 X49.6451 Y37.4974 
G01 X49.7721 Y37.4125 
G01 X49.9133 Y37.3540 
G01 X50.0632 Y37.3242 
G01 X51.5368 Y37.3242 
G01 X51.6867 Y37.3540 
G01 X51.8279 Y37.4125 
G01 X51.9549 Y37.4974 
G01 X52.0630 Y37.6055 
G01 X52.1479 Y37.7325 
G01 X52.2064 Y37.8737 
G01 X52.2362 Y38.0236 
G01 X52.2362 Y38.1764 
G01 X52.2064 Y38.3263 
G01 X52.1479 Y38.4675 
G01 X52.0630 Y38.5945 
G01 X51.9549 Y38.7026 
G01 X51.8279 Y38.7875 
G01 X51.6867 Y38.8460 
G01 X51.5368 Y38.8758 
G00 Z2.5400 
G00 X51.5368 Y36.3358 
G01 Z-0.1500 F254.00 
G01 X50.0632 Y36.3358 F508.00 
G01 X49.9133 Y36.3060 
G01 X49.7721 Y36.2475 
G01 X49.6451 Y36.1626 
G01 X49.5370 Y36.0545 
G01 X49.4521 Y35.9275 
G01 X49.3936 Y35.7863 
G01 X49.3638 Y35.6364 
G01 X49.3638 Y35.4836 
G01 X49.3936 Y35.3337 
G01 X49.4521 Y35.1925 
G01 X49.5370 Y35.0655 
G01 X49.6451 Y34.9574 
G01 X49.7721 Y34.8725 
G01 X49.9133 Y34.8140 
G01 X50.0632 Y34.7842 
G01 X51.5368 Y34.7842 
G01 X51.6867 Y34.8140 
G01 X51.8279 Y34.8725 
G01 X51.9549 Y34.9574 
G01 X52.0630 Y35.0655 
G01 X52.1479 Y35.1925 
G01 X52.2064 Y35.3337 
G01 X52.2362 Y35.4836 
G01 X52.2362 Y35.6364 
G01 X52.2064 Y35.7863 
G01 X52.1479 Y35.9275 
G01 X52.0630 Y36.0545 
G01 X51.9549 Y36.1626 
G01 X51.8279 Y36.2475 
G01 X51.6867 Y36.3060 
G01 X51.5368 Y36.3358 
G00 Z2.5400 
G00 X43.9168 Y36.3358 
G01 Z-0.1500 F254.00 
G01 X42.4432 Y36.3358 F508.00 
G01 X42.2933 Y36.3060 
G01 X42.1521 Y36.2475 
G01 X42.0251 Y36.1626 
G01 X41.9170 Y36.0545 
G01 X41.8321 Y35.9275 
G01 X41.7736 Y35.7863 
G01 X41.7438 Y35.6364 
G01 X41.7438 Y35.4836 
G01 X41.7736 Y35.3337 
G01 X41.8321 Y35.1925 
G01 X41.9170 Y35.0655 
G01 X42.0251 Y34.9574 
G01 X42.1521 Y34.8725 
G01 X42.2933 Y34.8140 
G01 X42.4432 Y34.7842 
G01 X43.9168 Y34.7842 
G01 X44.0667 Y34.8140 
G01 X44.2079 Y34.8725 
G01 X44.3349 Y34.9574 
G01 X44.4430 Y35.0655 
G01 X44.5279 Y35.1925 
G01 X44.5864 Y35.3337 
G01 X44.6162 Y35.4836 
G01 X44.6162 Y35.6364 
G01 X44.5864 Y35.7863 
G01 X44.5279 Y35.9275 
G01 X44.4430 Y36.0545 
G01 X44.3349 Y36.1626 
G01 X44.2079 Y36.2475 
G01 X44.0667 Y36.3060 
G01 X43.9168 Y36.3358 
G00 Z2.5400 
G00 X43.9168 Y38.8758 
G01 Z-0.1500 F254.00 
G01 X42.4432 Y38.8758 F508.00 
G01 X42.2933 Y38.8460 
G01 X42.1521 Y38.7875 
G01 X42.0251 Y38.7026 
G01 X41.9170 Y38.5945 
G01 X41.8321 Y38.4675 
G01 X41.7736 Y38.3263 
G01 X41.7438 Y38.1764 
G01 X41.7438 Y38.0236 
G01 X41.7736 Y37.8737 
G01 X41.8321 Y37.7325 
G01 X41.9170 Y37.6055 
G01 X42.0251 Y37.4974 
G01 X42.1521 Y37.4125 
G01 X42.2933 Y37.3540 
G01 X42.4432 Y37.3242 
G01 X43.9168 Y37.3242 
G01 X44.0667 Y37.3540 
G01 X44.2079 Y37.4125 
G01 X44.3349 Y37.4974 
G01 X44.4430 Y37.6055 
G01 X44.5279 Y37.7325 
G01 X44.5864 Y37.8737 
G01 X44.6162 Y38.0236 
G01 X44.6162 Y38.1764 
G01 X44.5864 Y38.3263 
G01 X44.5279 Y38.4675 
G01 X44.4430 Y38.5945 
G01 X44.3349 Y38.7026 
G01 X44.2079 Y38.7875 
G01 X44.0667 Y38.8460 
G01 X43.9168 Y38.8758 
G00 Z2.5400 
G00 X43.9168 Y41.4158 
G01 Z-0.1500 F254.00 
G01 X42.4432 Y41.4158 F508.00 
G01 X42.2933 Y41.3860 
G01 X42.1521 Y41.3275 
G01 X42.0251 Y41.2426 
G01 X41.9170 Y41.1345 
G01 X41.8321 Y41.0075 
G01 X41.7736 Y40.8663 
G01 X41.7438 Y40.7164 
G01 X41.7438 Y40.5636 
G01 X41.7736 Y40.4137 
G01 X41.8321 Y40.2725 
G01 X41.9170 Y40.1455 
G01 X42.0251 Y40.0374 
G01 X42.1521 Y39.9525 
G01 X42.2933 Y39.8940 
G01 X42.4432 Y39.8642 
G01 X43.9168 Y39.8642 
G01 X44.0667 Y39.8940 
G01 X44.2079 Y39.9525 
G01 X44.3349 Y40.0374 
G01 X44.4430 Y40.1455 
G01 X44.5279 Y40.2725 
G01 X44.5864 Y40.4137 
G01 X44.6162 Y40.5636 
G01 X44.6162 Y40.7164 
G01 X44.5864 Y40.8663 
G01 X44.5279 Y41.0075 
G01 X44.4430 Y41.1345 
G01 X44.3349 Y41.2426 
G01 X44.2079 Y41.3275 
G01 X44.0667 Y41.3860 
G01 X43.9168 Y41.4158 
G00 Z2.5400 
G00 X43.9168 Y43.9558 
G01 Z-0.1500 F254.00 
G01 X42.4432 Y43.9558 F508.00 
G01 X42.2933 Y43.9260 
G01 X42.1521 Y43.8675 
G01 X42.0251 Y43.7826 
G01 X41.9170 Y43.6745 
G01 X41.8321 Y43.5475 
G01 X41.7736 Y43.4063 
G01 X41.7438 Y43.2564 
G01 X41.7438 Y43.1036 
G01 X41.7736 Y42.9537 
G01 X41.8321 Y42.8125 
G01 X41.9170 Y42.6855 
G01 X42.0251 Y42.5774 
G01 X42.1521 Y42.4925 
G01 X42.2933 Y42.4340 
G01 X42.4432 Y42.4042 
G01 X43.9168 Y42.4042 
G01 X44.0667 Y42.4340 
G01 X44.2079 Y42.4925 
G01 X44.3349 Y42.5774 
G01 X44.4430 Y42.6855 
G01 X44.5279 Y42.8125 
G01 X44.5864 Y42.9537 
G01 X44.6162 Y43.1036 
G01 X44.6162 Y43.2564 
G01 X44.5864 Y43.4063 
G01 X44.5279 Y43.5475 
G01 X44.4430 Y43.6745 
G01 X44.3349 Y43.7826 
G01 X44.2079 Y43.8675 
G01 X44.0667 Y43.9260 
G01 X43.9168 Y43.9558 
G00 Z2.5400 
G00 X43.9168 Y49.0358 
G01 Z-0.1500 F254.00 
G01 X42.7470 Y49.0358 F508.00 
G01 X35.7655 Y56.0173 
G01 X35.6973 Y56.0855 
G01 X35.6082 Y56.1224 
G01 X35.2944 Y56.1224 
G01 X35.2944 Y58.1890 
G01 X35.2768 Y58.2314 
G01 X35.2444 Y58.2638 
G01 X35.2020 Y58.2814 
G01 X33.3780 Y58.2814 
G01 X33.3356 Y58.2638 
G01 X33.3032 Y58.2314 
G01 X33.2856 Y58.1890 
G01 X33.2856 Y55.2184 
G01 X28.0854 Y50.0182 
G01 X28.0854 Y50.1530 
G01 X28.0678 Y50.1954 
G01 X28.0354 Y50.2278 
G01 X27.9930 Y50.2454 
G01 X27.1470 Y50.2454 
G01 X27.1046 Y50.2278 
G01 X27.0722 Y50.1954 
G01 X27.0546 Y50.1530 
G01 X27.0546 Y48.9070 
G01 X27.0722 Y48.8646 
G01 X27.1046 Y48.8322 
G01 X27.1470 Y48.8146 
G01 X27.9930 Y48.8146 
G01 X28.0354 Y48.8322 
G01 X28.0678 Y48.8646 
G01 X28.0854 Y48.9070 
G01 X28.0854 Y49.3326 
G01 X28.1455 Y49.3927 
G01 X33.2856 Y54.5328 
G01 X33.2856 Y53.0630 
G01 X33.3032 Y53.0206 
G01 X33.3356 Y52.9882 
G01 X33.3780 Y52.9706 
G01 X35.2020 Y52.9706 
G01 X35.2444 Y52.9882 
G01 X35.2768 Y53.0206 
G01 X35.2944 Y53.0630 
G01 X35.2944 Y55.6376 
G01 X35.4596 Y55.6376 
G01 X42.1507 Y48.9465 
G01 X42.0251 Y48.8626 
G01 X41.9170 Y48.7545 
G01 X41.8321 Y48.6275 
G01 X41.7736 Y48.4863 
G01 X41.7438 Y48.3364 
G01 X41.7438 Y48.1836 
G01 X41.7736 Y48.0337 
G01 X41.8321 Y47.8925 
G01 X41.9170 Y47.7655 
G01 X42.0251 Y47.6574 
G01 X42.1521 Y47.5725 
G01 X42.2933 Y47.5140 
G01 X42.4432 Y47.4842 
G01 X43.9168 Y47.4842 
G01 X44.0667 Y47.5140 
G01 X44.2079 Y47.5725 
G01 X44.3349 Y47.6574 
G01 X44.4430 Y47.7655 
G01 X44.5279 Y47.8925 
G01 X44.5864 Y48.0337 
G01 X44.6162 Y48.1836 
G01 X44.6162 Y48.3364 
G01 X44.5864 Y48.4863 
G01 X44.5279 Y48.6275 
G01 X44.4430 Y48.7545 
G01 X44.3349 Y48.8626 
G01 X44.2079 Y48.9475 
G01 X44.0667 Y49.0060 
G01 X43.9168 Y49.0358 
G00 Z2.5400 
G00 X43.9168 Y54.1158 
G01 Z-0.1500 F254.00 
G01 X42.4432 Y54.1158 F508.00 
G01 X42.2933 Y54.0860 
G01 X42.1521 Y54.0275 
G01 X42.0251 Y53.9426 
G01 X41.9170 Y53.8345 
G01 X41.8321 Y53.7075 
G01 X41.7736 Y53.5663 
G01 X41.7438 Y53.4164 
G01 X41.7438 Y53.2636 
G01 X41.7736 Y53.1137 
G01 X41.8321 Y52.9725 
G01 X41.9170 Y52.8455 
G01 X42.0251 Y52.7374 
G01 X42.1521 Y52.6525 
G01 X42.2933 Y52.5940 
G01 X42.4432 Y52.5642 
G01 X43.6130 Y52.5642 
G01 X48.0545 Y48.1227 
G01 X48.1227 Y48.0545 
G01 X48.2118 Y48.0176 
G01 X49.4003 Y48.0176 
G01 X49.4521 Y47.8925 
G01 X49.5370 Y47.7655 
G01 X49.6451 Y47.6574 
G01 X49.7721 Y47.5725 
G01 X49.9133 Y47.5140 
G01 X50.0632 Y47.4842 
G01 X51.5368 Y47.4842 
G01 X51.6867 Y47.5140 
G01 X51.8279 Y47.5725 
G01 X51.9549 Y47.6574 
G01 X52.0630 Y47.7655 
G01 X52.1479 Y47.8925 
G01 X52.2064 Y48.0337 
G01 X52.2362 Y48.1836 
G01 X52.2362 Y48.3364 
G01 X52.2064 Y48.4863 
G01 X52.1479 Y48.6275 
G01 X52.0630 Y48.7545 
G01 X51.9549 Y48.8626 
G01 X51.8293 Y48.9465 
G01 X53.5455 Y50.6627 
G01 X53.5824 Y50.7518 
G01 X53.5824 Y81.1796 
G01 X56.7774 Y84.3746 
G01 X57.2030 Y84.3746 
G01 X57.2454 Y84.3922 
G01 X57.2778 Y84.4246 
G01 X57.2954 Y84.4670 
G01 X57.2954 Y84.8926 
G01 X57.3555 Y84.9527 
G01 X57.3924 Y85.0418 
G01 X57.3924 Y88.9482 
G01 X57.3555 Y89.0373 
G01 X57.2954 Y89.0974 
G01 X57.2954 Y89.5230 
G01 X57.2778 Y89.5654 
G01 X57.2454 Y89.5978 
G01 X57.2030 Y89.6154 
G01 X56.3570 Y89.6154 
G01 X56.3146 Y89.5978 
G01 X56.2822 Y89.5654 
G01 X56.2646 Y89.5230 
G01 X56.2646 Y88.2770 
G01 X56.2822 Y88.2346 
G01 X56.3146 Y88.2022 
G01 X56.3570 Y88.1846 
G01 X56.9076 Y88.1846 
G01 X56.9076 Y85.8054 
G01 X56.3570 Y85.8054 
G01 X56.3146 Y85.7878 
G01 X56.2822 Y85.7554 
G01 X56.2646 Y85.7130 
G01 X56.2646 Y84.5474 
G01 X53.2027 Y81.4855 
G01 X53.1345 Y81.4173 
G01 X53.0976 Y81.3282 
G01 X53.0976 Y50.9004 
G01 X51.2330 Y49.0358 
G01 X50.0632 Y49.0358 
G01 X49.9133 Y49.0060 
G01 X49.7721 Y48.9475 
G01 X49.6451 Y48.8626 
G01 X49.5370 Y48.7545 
G01 X49.4521 Y48.6275 
G01 X49.4003 Y48.5024 
G01 X48.3604 Y48.5024 
G01 X44.2093 Y52.6535 
G01 X44.3349 Y52.7374 
G01 X44.4430 Y52.8455 
G01 X44.5279 Y52.9725 
G01 X44.5864 Y53.1137 
G01 X44.6162 Y53.2636 
G01 X44.6162 Y53.4164 
G01 X44.5864 Y53.5663 
G01 X44.5279 Y53.7075 
G01 X44.4430 Y53.8345 
G01 X44.3349 Y53.9426 
G01 X44.2079 Y54.0275 
G01 X44.0667 Y54.0860 
G01 X43.9168 Y54.1158 
G00 Z2.5400 
G00 X43.9168 Y56.6558 
G01 Z-0.1500 F254.00 
G01 X42.4432 Y56.6558 F508.00 
G01 X42.2933 Y56.6260 
G01 X42.1521 Y56.5675 
G01 X42.0251 Y56.4826 
G01 X41.9170 Y56.3745 
G01 X41.8321 Y56.2475 
G01 X41.7736 Y56.1063 
G01 X41.7438 Y55.9564 
G01 X41.7438 Y55.8036 
G01 X41.7736 Y55.6537 
G01 X41.8321 Y55.5125 
G01 X41.9170 Y55.3855 
G01 X42.0251 Y55.2774 
G01 X42.1521 Y55.1925 
G01 X42.2933 Y55.1340 
G01 X42.4432 Y55.1042 
G01 X43.9168 Y55.1042 
G01 X44.0667 Y55.1340 
G01 X44.2079 Y55.1925 
G01 X44.3349 Y55.2774 
G01 X44.4430 Y55.3855 
G01 X44.5279 Y55.5125 
G01 X44.5864 Y55.6537 
G01 X44.6162 Y55.8036 
G01 X44.6162 Y55.9564 
G01 X44.5864 Y56.1063 
G01 X44.5279 Y56.2475 
G01 X44.4430 Y56.3745 
G01 X44.3349 Y56.4826 
G01 X44.2079 Y56.5675 
G01 X44.0667 Y56.6260 
G01 X43.9168 Y56.6558 
G00 Z2.5400 
G00 X43.9168 Y59.1958 
G01 Z-0.1500 F254.00 
G01 X42.4432 Y59.1958 F508.00 
G01 X42.2933 Y59.1660 
G01 X42.1521 Y59.1075 
G01 X42.0251 Y59.0226 
G01 X41.9170 Y58.9145 
G01 X41.8321 Y58.7875 
G01 X41.7736 Y58.6463 
G01 X41.7438 Y58.4964 
G01 X41.7438 Y58.3436 
G01 X41.7736 Y58.1937 
G01 X41.8321 Y58.0525 
G01 X41.9170 Y57.9255 
G01 X42.0251 Y57.8174 
G01 X42.1521 Y57.7325 
G01 X42.2933 Y57.6740 
G01 X42.4432 Y57.6442 
G01 X43.9168 Y57.6442 
G01 X44.0667 Y57.6740 
G01 X44.2079 Y57.7325 
G01 X44.3349 Y57.8174 
G01 X44.4430 Y57.9255 
G01 X44.5279 Y58.0525 
G01 X44.5864 Y58.1937 
G01 X44.6162 Y58.3436 
G01 X44.6162 Y58.4964 
G01 X44.5864 Y58.6463 
G01 X44.5279 Y58.7875 
G01 X44.4430 Y58.9145 
G01 X44.3349 Y59.0226 
G01 X44.2079 Y59.1075 
G01 X44.0667 Y59.1660 
G01 X43.9168 Y59.1958 
G00 Z2.5400 
G00 X43.9168 Y61.7358 
G01 Z-0.1500 F254.00 
G01 X42.4432 Y61.7358 F508.00 
G01 X42.2933 Y61.7060 
G01 X42.1521 Y61.6475 
G01 X42.0251 Y61.5626 
G01 X41.9170 Y61.4545 
G01 X41.8321 Y61.3275 
G01 X41.7736 Y61.1863 
G01 X41.7438 Y61.0364 
G01 X41.7438 Y60.8836 
G01 X41.7736 Y60.7337 
G01 X41.8321 Y60.5925 
G01 X41.9170 Y60.4655 
G01 X42.0251 Y60.3574 
G01 X42.1521 Y60.2725 
G01 X42.2933 Y60.2140 
G01 X42.4432 Y60.1842 
G01 X43.9168 Y60.1842 
G01 X44.0667 Y60.2140 
G01 X44.2079 Y60.2725 
G01 X44.3349 Y60.3574 
G01 X44.4430 Y60.4655 
G01 X44.5279 Y60.5925 
G01 X44.5864 Y60.7337 
G01 X44.6162 Y60.8836 
G01 X44.6162 Y61.0364 
G01 X44.5864 Y61.1863 
G01 X44.5279 Y61.3275 
G01 X44.4430 Y61.4545 
G01 X44.3349 Y61.5626 
G01 X44.2079 Y61.6475 
G01 X44.0667 Y61.7060 
G01 X43.9168 Y61.7358 
G00 Z2.5400 
G00 X42.4432 Y64.2758 
G01 Z-0.1500 F254.00 
G01 X42.2933 Y64.2460 F508.00 
G01 X42.1521 Y64.1875 
G01 X42.0251 Y64.1026 
G01 X41.9170 Y63.9945 
G01 X41.8321 Y63.8675 
G01 X41.7736 Y63.7263 
G01 X41.7438 Y63.5764 
G01 X41.7438 Y63.4236 
G01 X41.7736 Y63.2737 
G01 X41.8321 Y63.1325 
G01 X41.9170 Y63.0055 
G01 X42.0251 Y62.8974 
G01 X42.1521 Y62.8125 
G01 X42.2933 Y62.7540 
G01 X42.4432 Y62.7242 
G01 X43.9168 Y62.7242 
G01 X44.0667 Y62.7540 
G01 X44.2079 Y62.8125 
G01 X44.3349 Y62.8974 
G01 X44.4430 Y63.0055 
G01 X44.5279 Y63.1325 
G01 X44.5864 Y63.2737 
G01 X44.6162 Y63.4236 
G01 X44.6162 Y63.5764 
G01 X44.5864 Y63.7263 
G01 X44.5279 Y63.8675 
G01 X44.4430 Y63.9945 
G01 X44.3349 Y64.1026 
G01 X44.2093 Y64.1865 
G01 X48.3973 Y68.3745 
G01 X48.4655 Y68.4427 
G01 X48.5024 Y68.5318 
G01 X48.5024 Y89.5848 
G01 X48.7112 Y89.3760 
G01 X48.6145 Y89.2792 
G01 X48.6145 Y88.5208 
G01 X49.1508 Y87.9845 
G01 X49.9092 Y87.9845 
G01 X50.4455 Y88.5208 
G01 X50.4455 Y89.2792 
G01 X49.9092 Y89.8155 
G01 X49.1508 Y89.8155 
G01 X49.0540 Y89.7188 
G01 X48.4655 Y90.3073 
G01 X48.3973 Y90.3755 
G01 X46.2082 Y92.5646 
G01 X46.3430 Y92.5646 
G01 X46.3854 Y92.5822 
G01 X46.4178 Y92.6146 
G01 X46.4354 Y92.6570 
G01 X46.4354 Y93.5030 
G01 X46.4178 Y93.5454 
G01 X46.3854 Y93.5778 
G01 X46.3430 Y93.5954 
G01 X45.0970 Y93.5954 
G01 X45.0546 Y93.5778 
G01 X45.0222 Y93.5454 
G01 X45.0046 Y93.5030 
G01 X45.0046 Y92.6570 
G01 X45.0222 Y92.6146 
G01 X45.0546 Y92.5822 
G01 X45.0970 Y92.5646 
G01 X45.5226 Y92.5646 
G01 X45.5827 Y92.5045 
G01 X48.0176 Y90.0696 
G01 X48.0176 Y68.6804 
G01 X43.6130 Y64.2758 
G01 X42.4432 Y64.2758 
G00 Z2.5400 
G00 X43.9168 Y66.8158 
G01 Z-0.1500 F254.00 
G01 X42.4432 Y66.8158 F508.00 
G01 X42.2933 Y66.7860 
G01 X42.1521 Y66.7275 
G01 X42.0251 Y66.6426 
G01 X41.9170 Y66.5345 
G01 X41.8321 Y66.4075 
G01 X41.7736 Y66.2663 
G01 X41.7438 Y66.1164 
G01 X41.7438 Y65.9636 
G01 X41.7736 Y65.8137 
G01 X41.8321 Y65.6725 
G01 X41.9170 Y65.5455 
G01 X42.0251 Y65.4374 
G01 X42.1521 Y65.3525 
G01 X42.2933 Y65.2940 
G01 X42.4432 Y65.2642 
G01 X43.9168 Y65.2642 
G01 X44.0667 Y65.2940 
G01 X44.2079 Y65.3525 
G01 X44.3349 Y65.4374 
G01 X44.4430 Y65.5455 
G01 X44.5279 Y65.6725 
G01 X44.5864 Y65.8137 
G01 X44.6162 Y65.9636 
G01 X44.6162 Y66.1164 
G01 X44.5864 Y66.2663 
G01 X44.5279 Y66.4075 
G01 X44.4430 Y66.5345 
G01 X44.3349 Y66.6426 
G01 X44.2079 Y66.7275 
G01 X44.0667 Y66.7860 
G01 X43.9168 Y66.8158 
G00 Z2.5400 
G00 X41.2870 Y95.3954 
G01 Z-0.1500 F254.00 
G01 X41.2446 Y95.3778 F508.00 
G01 X41.2122 Y95.3454 
G01 X41.1946 Y95.3030 
G01 X41.1946 Y94.4570 
G01 X41.2122 Y94.4146 
G01 X41.2446 Y94.3822 
G01 X41.2870 Y94.3646 
G01 X42.5330 Y94.3646 
G01 X42.5754 Y94.3822 
G01 X42.6078 Y94.4146 
G01 X42.6254 Y94.4570 
G01 X42.6254 Y95.0076 
G01 X45.0046 Y95.0076 
G01 X45.0046 Y94.4570 
G01 X45.0222 Y94.4146 
G01 X45.0546 Y94.3822 
G01 X45.0970 Y94.3646 
G01 X46.3430 Y94.3646 
G01 X46.3854 Y94.3822 
G01 X46.4178 Y94.4146 
G01 X46.4354 Y94.4570 
G01 X46.4354 Y95.0076 
G01 X55.6376 Y95.0076 
G01 X55.6376 Y93.9318 
G01 X55.6745 Y93.8427 
G01 X55.7427 Y93.7745 
G01 X56.1646 Y93.3526 
G01 X56.1646 Y92.5070 
G01 X56.1822 Y92.4646 
G01 X56.2146 Y92.4322 
G01 X56.2570 Y92.4146 
G01 X57.7030 Y92.4146 
G01 X57.7454 Y92.4322 
G01 X57.7778 Y92.4646 
G01 X57.7954 Y92.5070 
G01 X57.7954 Y93.5530 
G01 X57.7778 Y93.5954 
G01 X57.7454 Y93.6278 
G01 X57.7030 Y93.6454 
G01 X56.5574 Y93.6454 
G01 X56.1224 Y94.0804 
G01 X56.1224 Y95.2982 
G01 X56.0855 Y95.3873 
G01 X56.0173 Y95.4555 
G01 X55.9282 Y95.4924 
G01 X41.8618 Y95.4924 
G01 X41.7727 Y95.4555 
G01 X41.7126 Y95.3954 
G01 X41.2870 Y95.3954 
G00 Z2.5400 
G00 X21.4446 Y79.3630 
G01 Z-0.1500 F254.00 
G01 X21.4446 Y78.9374 F508.00 
G01 X21.3845 Y78.8773 
G01 X18.9127 Y76.4055 
G01 X18.8445 Y76.3373 
G01 X18.8076 Y76.2482 
G01 X18.8076 Y66.2824 
G01 X16.6554 Y66.2824 
G01 X16.6554 Y66.6630 
G01 X16.6378 Y66.7054 
G01 X16.6054 Y66.7378 
G01 X16.5630 Y66.7554 
G01 X15.7170 Y66.7554 
G01 X15.6746 Y66.7378 
G01 X15.6422 Y66.7054 
G01 X15.6246 Y66.6630 
G01 X15.6246 Y65.4170 
G01 X15.6422 Y65.3746 
G01 X15.6746 Y65.3422 
G01 X15.7170 Y65.3246 
G01 X16.5630 Y65.3246 
G01 X16.6054 Y65.3422 
G01 X16.6378 Y65.3746 
G01 X16.6554 Y65.4170 
G01 X16.6554 Y65.7976 
G01 X18.9046 Y65.7976 
G01 X18.9046 Y65.4170 
G01 X18.9222 Y65.3746 
G01 X18.9546 Y65.3422 
G01 X18.9970 Y65.3246 
G01 X19.8430 Y65.3246 
G01 X19.8854 Y65.3422 
G01 X19.9178 Y65.3746 
G01 X19.9354 Y65.4170 
G01 X19.9354 Y66.6630 
G01 X19.9178 Y66.7054 
G01 X19.8854 Y66.7378 
G01 X19.8430 Y66.7554 
G01 X19.2924 Y66.7554 
G01 X19.2924 Y69.1346 
G01 X19.8430 Y69.1346 
G01 X19.8854 Y69.1522 
G01 X19.9178 Y69.1846 
G01 X19.9354 Y69.2270 
G01 X19.9354 Y70.4730 
G01 X19.9178 Y70.5154 
G01 X19.8854 Y70.5478 
G01 X19.8430 Y70.5654 
G01 X19.2924 Y70.5654 
G01 X19.2924 Y72.1476 
G01 X41.9582 Y72.1476 
G01 X42.0473 Y72.1845 
G01 X42.1155 Y72.2527 
G01 X42.1524 Y72.3418 
G01 X42.1524 Y80.3645 
G01 X42.2892 Y80.3645 
G01 X42.8255 Y80.9008 
G01 X42.8255 Y81.6592 
G01 X42.2892 Y82.1955 
G01 X41.5308 Y82.1955 
G01 X40.9945 Y81.6592 
G01 X40.9945 Y80.9008 
G01 X41.5308 Y80.3645 
G01 X41.6676 Y80.3645 
G01 X41.6676 Y72.6324 
G01 X19.2924 Y72.6324 
G01 X19.2924 Y76.0996 
G01 X21.4446 Y78.2518 
G01 X21.4446 Y78.1170 
G01 X21.4622 Y78.0746 
G01 X21.4946 Y78.0422 
G01 X21.5370 Y78.0246 
G01 X22.3830 Y78.0246 
G01 X22.4254 Y78.0422 
G01 X22.4578 Y78.0746 
G01 X22.4754 Y78.1170 
G01 X22.4754 Y79.3630 
G01 X22.4578 Y79.4054 
G01 X22.4254 Y79.4378 
G01 X22.3830 Y79.4554 
G01 X21.5370 Y79.4554 
G01 X21.4946 Y79.4378 
G01 X21.4622 Y79.4054 
G01 X21.4446 Y79.3630 
G00 Z2.5400 
G00 X55.4954 Y84.4670 
G01 Z-0.1500 F254.00 
G01 X55.4954 Y85.7130 F508.00 
G01 X55.4778 Y85.7554 
G01 X55.4454 Y85.7878 
G01 X55.4030 Y85.8054 
G01 X54.5570 Y85.8054 
G01 X54.5146 Y85.7878 
G01 X54.4822 Y85.7554 
G01 X54.4646 Y85.7130 
G01 X54.4646 Y85.2874 
G01 X54.4045 Y85.2273 
G01 X50.6996 Y81.5224 
G01 X50.4455 Y81.5224 
G01 X50.4455 Y81.6592 
G01 X49.9092 Y82.1955 
G01 X49.1508 Y82.1955 
G01 X48.6145 Y81.6592 
G01 X48.6145 Y80.9008 
G01 X49.1508 Y80.3645 
G01 X49.9092 Y80.3645 
G01 X50.4455 Y80.9008 
G01 X50.4455 Y81.0376 
G01 X50.8482 Y81.0376 
G01 X50.9373 Y81.0745 
G01 X51.0055 Y81.1427 
G01 X54.4646 Y84.6018 
G01 X54.4646 Y84.4670 
G01 X54.4822 Y84.4246 
G01 X54.5146 Y84.3922 
G01 X54.5570 Y84.3746 
G01 X55.4030 Y84.3746 
G01 X55.4454 Y84.3922 
G01 X55.4778 Y84.4246 
G01 X55.4954 Y84.4670 
G00 Z2.5400 
G00 X42.8255 Y83.4408 
G01 Z-0.1500 F254.00 
G01 X42.8255 Y84.1992 F508.00 
G01 X42.2892 Y84.7355 
G01 X41.5308 Y84.7355 
G01 X40.9945 Y84.1992 
G01 X40.9945 Y83.4408 
G01 X41.5308 Y82.9045 
G01 X42.2892 Y82.9045 
G01 X42.8255 Y83.4408 
G00 Z2.5400 
G00 X42.8255 Y85.9808 
G01 Z-0.1500 F254.00 
G01 X42.8255 Y86.7392 F508.00 
G01 X42.2892 Y87.2755 
G01 X41.5308 Y87.2755 
G01 X40.9945 Y86.7392 
G01 X40.9945 Y85.9808 
G01 X41.5308 Y85.4445 
G01 X42.2892 Y85.4445 
G01 X42.8255 Y85.9808 
G00 Z2.5400 
G00 X30.6716 Y87.5486 
G01 Z-0.1500 F254.00 
G01 X30.6716 Y87.7114 F508.00 
G01 X30.6398 Y87.8711 
G01 X30.5775 Y88.0215 
G01 X30.4871 Y88.1569 
G01 X30.3719 Y88.2721 
G01 X30.2365 Y88.3625 
G01 X30.0861 Y88.4248 
G01 X29.9264 Y88.4566 
G01 X29.7636 Y88.4566 
G01 X29.6039 Y88.4248 
G01 X29.4535 Y88.3625 
G01 X29.3181 Y88.2721 
G01 X29.2029 Y88.1569 
G01 X29.1125 Y88.0215 
G01 X29.0502 Y87.8711 
G01 X29.0184 Y87.7114 
G01 X29.0184 Y87.5486 
G01 X29.0502 Y87.3889 
G01 X29.1125 Y87.2385 
G01 X29.2029 Y87.1031 
G01 X29.3181 Y86.9879 
G01 X29.4535 Y86.8975 
G01 X29.6039 Y86.8352 
G01 X29.7636 Y86.8034 
G01 X29.9264 Y86.8034 
G01 X30.0861 Y86.8352 
G01 X30.2365 Y86.8975 
G01 X30.3719 Y86.9879 
G01 X30.4871 Y87.1031 
G01 X30.5775 Y87.2385 
G01 X30.6398 Y87.3889 
G01 X30.6716 Y87.5486 
G00 Z2.5400 
G00 X31.7571 Y90.6969 
G01 Z-0.1500 F254.00 
G01 X31.6419 Y90.8121 F508.00 
G01 X31.5065 Y90.9025 
G01 X31.3561 Y90.9648 
G01 X31.1964 Y90.9966 
G01 X31.0336 Y90.9966 
G01 X30.8739 Y90.9648 
G01 X30.7235 Y90.9025 
G01 X30.5881 Y90.8121 
G01 X30.4729 Y90.6969 
G01 X30.3825 Y90.5615 
G01 X30.3202 Y90.4111 
G01 X30.2884 Y90.2514 
G01 X30.2884 Y90.0886 
G01 X30.3202 Y89.9289 
G01 X30.3825 Y89.7785 
G01 X30.4729 Y89.6431 
G01 X30.5881 Y89.5279 
G01 X30.7235 Y89.4375 
G01 X30.8739 Y89.3752 
G01 X31.0336 Y89.3434 
G01 X31.1964 Y89.3434 
G01 X31.3561 Y89.3752 
G01 X31.5065 Y89.4375 
G01 X31.6419 Y89.5279 
G01 X31.7571 Y89.6431 
G01 X31.8475 Y89.7785 
G01 X31.9098 Y89.9289 
G01 X31.9243 Y90.0015 
G01 X31.9555 Y90.0327 
G01 X33.1204 Y91.1976 
G01 X41.6676 Y91.1976 
G01 X41.6676 Y89.8155 
G01 X41.5308 Y89.8155 
G01 X40.9945 Y89.2792 
G01 X40.9945 Y88.5208 
G01 X41.5308 Y87.9845 
G01 X42.2892 Y87.9845 
G01 X42.8255 Y88.5208 
G01 X42.8255 Y89.2792 
G01 X42.2892 Y89.8155 
G01 X42.1524 Y89.8155 
G01 X42.1524 Y92.5646 
G01 X42.5330 Y92.5646 
G01 X42.5754 Y92.5822 
G01 X42.6078 Y92.6146 
G01 X42.6254 Y92.6570 
G01 X42.6254 Y93.5030 
G01 X42.6078 Y93.5454 
G01 X42.5754 Y93.5778 
G01 X42.5330 Y93.5954 
G01 X41.3674 Y93.5954 
G01 X40.8824 Y94.0804 
G01 X40.8824 Y96.2776 
G01 X55.7796 Y96.2776 
G01 X56.5118 Y95.5454 
G01 X56.2570 Y95.5454 
G01 X56.2146 Y95.5278 
G01 X56.1822 Y95.4954 
G01 X56.1646 Y95.4530 
G01 X56.1646 Y94.4070 
G01 X56.1822 Y94.3646 
G01 X56.2146 Y94.3322 
G01 X56.2570 Y94.3146 
G01 X57.7030 Y94.3146 
G01 X57.7454 Y94.3322 
G01 X57.7778 Y94.3646 
G01 X57.7954 Y94.4070 
G01 X57.7954 Y95.4530 
G01 X57.7778 Y95.4954 
G01 X57.7454 Y95.5278 
G01 X57.7030 Y95.5454 
G01 X57.1974 Y95.5454 
G01 X56.0855 Y96.6573 
G01 X56.0173 Y96.7255 
G01 X55.9282 Y96.7624 
G01 X40.5918 Y96.7624 
G01 X40.5027 Y96.7255 
G01 X40.4345 Y96.6573 
G01 X40.3976 Y96.5682 
G01 X40.3976 Y93.9318 
G01 X40.4345 Y93.8427 
G01 X41.1946 Y93.0826 
G01 X41.1946 Y92.6570 
G01 X41.2122 Y92.6146 
G01 X41.2446 Y92.5822 
G01 X41.2870 Y92.5646 
G01 X41.6676 Y92.5646 
G01 X41.6676 Y91.6824 
G01 X32.9718 Y91.6824 
G01 X32.8827 Y91.6455 
G01 X32.8145 Y91.5773 
G01 X31.8280 Y90.5908 
G01 X31.7571 Y90.6969 
G00 Z2.5400 
G00 X33.2116 Y87.5486 
G01 Z-0.1500 F254.00 
G01 X33.2116 Y87.7114 F508.00 
G01 X33.1798 Y87.8711 
G01 X33.1175 Y88.0215 
G01 X33.0271 Y88.1569 
G01 X32.9119 Y88.2721 
G01 X32.7765 Y88.3625 
G01 X32.6261 Y88.4248 
G01 X32.4664 Y88.4566 
G01 X32.3036 Y88.4566 
G01 X32.1439 Y88.4248 
G01 X31.9935 Y88.3625 
G01 X31.8581 Y88.2721 
G01 X31.7429 Y88.1569 
G01 X31.6525 Y88.0215 
G01 X31.5902 Y87.8711 
G01 X31.5584 Y87.7114 
G01 X31.5584 Y87.5486 
G01 X31.5902 Y87.3889 
G01 X31.6525 Y87.2385 
G01 X31.7429 Y87.1031 
G01 X31.8581 Y86.9879 
G01 X31.9935 Y86.8975 
G01 X32.1439 Y86.8352 
G01 X32.3036 Y86.8034 
G01 X32.4664 Y86.8034 
G01 X32.6261 Y86.8352 
G01 X32.7765 Y86.8975 
G01 X32.9119 Y86.9879 
G01 X33.0271 Y87.1031 
G01 X33.1175 Y87.2385 
G01 X33.1798 Y87.3889 
G01 X33.2116 Y87.5486 
G00 Z2.5400 
G00 X34.4816 Y90.0886 
G01 Z-0.1500 F254.00 
G01 X34.4816 Y90.2514 F508.00 
G01 X34.4498 Y90.4111 
G01 X34.3875 Y90.5615 
G01 X34.2971 Y90.6969 
G01 X34.1819 Y90.8121 
G01 X34.0465 Y90.9025 
G01 X33.8961 Y90.9648 
G01 X33.7364 Y90.9966 
G01 X33.5736 Y90.9966 
G01 X33.4139 Y90.9648 
G01 X33.2635 Y90.9025 
G01 X33.1281 Y90.8121 
G01 X33.0129 Y90.6969 
G01 X32.9225 Y90.5615 
G01 X32.8602 Y90.4111 
G01 X32.8457 Y90.3385 
G01 X32.8145 Y90.3073 
G01 X31.6496 Y89.1424 
G01 X20.5624 Y89.1424 
G01 X20.5624 Y90.2182 
G01 X20.5255 Y90.3073 
G01 X20.4943 Y90.3385 
G01 X20.4798 Y90.4111 
G01 X20.4175 Y90.5615 
G01 X20.3271 Y90.6969 
G01 X20.2119 Y90.8121 
G01 X20.0765 Y90.9025 
G01 X19.9261 Y90.9648 
G01 X19.7664 Y90.9966 
G01 X19.6036 Y90.9966 
G01 X19.4439 Y90.9648 
G01 X19.2935 Y90.9025 
G01 X19.1581 Y90.8121 
G01 X19.0429 Y90.6969 
G01 X18.9525 Y90.5615 
G01 X18.8902 Y90.4111 
G01 X18.8584 Y90.2514 
G01 X18.8584 Y90.0886 
G01 X18.8902 Y89.9289 
G01 X18.9525 Y89.7785 
G01 X19.0429 Y89.6431 
G01 X19.1581 Y89.5279 
G01 X19.2935 Y89.4375 
G01 X19.4439 Y89.3752 
G01 X19.6036 Y89.3434 
G01 X19.7664 Y89.3434 
G01 X19.9261 Y89.3752 
G01 X20.0765 Y89.4375 
G01 X20.0776 Y86.3118 
G01 X20.1145 Y86.2227 
G01 X20.1827 Y86.1545 
G01 X23.2446 Y83.0926 
G01 X23.2446 Y81.9270 
G01 X23.2622 Y81.8846 
G01 X23.2946 Y81.8522 
G01 X23.3370 Y81.8346 
G01 X23.8876 Y81.8346 
G01 X23.8876 Y79.4554 
G01 X23.3370 Y79.4554 
G01 X23.2946 Y79.4378 
G01 X23.2622 Y79.4054 
G01 X23.2446 Y79.3630 
G01 X23.2446 Y78.1170 
G01 X23.2622 Y78.0746 
G01 X23.2946 Y78.0422 
G01 X23.3370 Y78.0246 
G01 X24.1830 Y78.0246 
G01 X24.2254 Y78.0422 
G01 X24.2578 Y78.0746 
G01 X24.2754 Y78.1170 
G01 X24.2754 Y78.5426 
G01 X24.3355 Y78.6027 
G01 X24.3724 Y78.6918 
G01 X24.3724 Y82.5982 
G01 X24.3355 Y82.6873 
G01 X24.2754 Y82.7474 
G01 X24.2754 Y83.1730 
G01 X24.2578 Y83.2154 
G01 X24.2254 Y83.2478 
G01 X24.1830 Y83.2654 
G01 X23.7574 Y83.2654 
G01 X20.5624 Y86.4604 
G01 X20.5624 Y88.6576 
G01 X31.7982 Y88.6576 
G01 X31.8873 Y88.6945 
G01 X31.9555 Y88.7627 
G01 X32.9420 Y89.7492 
G01 X33.0129 Y89.6431 
G01 X33.1281 Y89.5279 
G01 X33.2635 Y89.4375 
G01 X33.4139 Y89.3752 
G01 X33.5736 Y89.3434 
G01 X33.7364 Y89.3434 
G01 X33.8961 Y89.3752 
G01 X34.0465 Y89.4375 
G01 X34.1819 Y89.5279 
G01 X34.2971 Y89.6431 
G01 X34.3875 Y89.7785 
G01 X34.4498 Y89.9289 
G01 X34.4816 Y90.0886 
G00 Z2.5400 
G00 X55.4954 Y88.2770 
G01 Z-0.1500 F254.00 
G01 X55.4954 Y89.5230 F508.00 
G01 X55.4778 Y89.5654 
G01 X55.4454 Y89.5978 
G01 X55.4030 Y89.6154 
G01 X54.8524 Y89.6154 
G01 X54.8524 Y93.3646 
G01 X55.5030 Y93.3646 
G01 X55.5454 Y93.3822 
G01 X55.5778 Y93.4146 
G01 X55.5954 Y93.4570 
G01 X55.5954 Y94.5030 
G01 X55.5778 Y94.5454 
G01 X55.5454 Y94.5778 
G01 X55.5030 Y94.5954 
G01 X54.0570 Y94.5954 
G01 X54.0146 Y94.5778 
G01 X53.9822 Y94.5454 
G01 X53.9646 Y94.5030 
G01 X53.9646 Y93.4570 
G01 X53.9822 Y93.4146 
G01 X54.0146 Y93.3822 
G01 X54.0570 Y93.3646 
G01 X54.3676 Y93.3646 
G01 X54.3676 Y89.0004 
G01 X50.8000 Y85.4328 
G01 X50.3488 Y85.8840 
G01 X50.4455 Y85.9808 
G01 X50.4455 Y86.7392 
G01 X49.9092 Y87.2755 
G01 X49.1508 Y87.2755 
G01 X48.6145 Y86.7392 
G01 X48.6145 Y85.9808 
G01 X49.1508 Y85.4445 
G01 X49.9092 Y85.4445 
G01 X50.0060 Y85.5412 
G01 X50.4572 Y85.0900 
G01 X50.0060 Y84.6388 
G01 X49.9092 Y84.7355 
G01 X49.1508 Y84.7355 
G01 X48.6145 Y84.1992 
G01 X48.6145 Y83.4408 
G01 X49.1508 Y82.9045 
G01 X49.9092 Y82.9045 
G01 X50.4455 Y83.4408 
G01 X50.4455 Y84.1992 
G01 X50.3488 Y84.2960 
G01 X50.9373 Y84.8845 
G01 X51.0055 Y84.9527 
G01 X54.4646 Y88.4118 
G01 X54.4646 Y88.2770 
G01 X54.4822 Y88.2346 
G01 X54.5146 Y88.2022 
G01 X54.5570 Y88.1846 
G01 X55.4030 Y88.1846 
G01 X55.4454 Y88.2022 
G01 X55.4778 Y88.2346 
G01 X55.4954 Y88.2770 
G00 Z2.5400 
G00 X6.0334 Y96.3743 
G01 Z-0.1500 F254.00 
G01 X6.0334 Y96.6657 F508.00 
G01 X5.9954 Y96.9547 
G01 X5.9199 Y97.2362 
G01 X5.8084 Y97.5055 
G01 X5.6627 Y97.7579 
G01 X5.4852 Y97.9891 
G01 X5.2791 Y98.1952 
G01 X5.0479 Y98.3727 
G01 X4.7955 Y98.5184 
G01 X4.5262 Y98.6299 
G01 X4.2447 Y98.7054 
G01 X3.9557 Y98.7434 
G01 X3.6643 Y98.7434 
G01 X3.3753 Y98.7054 
G01 X3.0938 Y98.6299 
G01 X2.8245 Y98.5184 
G01 X2.5721 Y98.3727 
G01 X2.3409 Y98.1952 
G01 X2.1348 Y97.9891 
G01 X1.9573 Y97.7579 
G01 X1.8116 Y97.5055 
G01 X1.7001 Y97.2362 
G01 X1.6246 Y96.9547 
G01 X1.5866 Y96.6657 
G01 X1.5866 Y96.3743 
G01 X1.6246 Y96.0853 
G01 X1.7001 Y95.8038 
G01 X1.8116 Y95.5345 
G01 X1.9573 Y95.2821 
G01 X2.1348 Y95.0509 
G01 X2.3409 Y94.8448 
G01 X2.5721 Y94.6673 
G01 X2.8245 Y94.5216 
G01 X3.0938 Y94.4101 
G01 X3.3753 Y94.3346 
G01 X3.6643 Y94.2966 
G01 X3.9557 Y94.2966 
G01 X4.2447 Y94.3346 
G01 X4.5262 Y94.4101 
G01 X4.7955 Y94.5216 
G01 X5.0479 Y94.6673 
G01 X5.2791 Y94.8448 
G01 X5.4852 Y95.0509 
G01 X5.6627 Y95.2821 
G01 X5.8084 Y95.5345 
G01 X5.9199 Y95.8038 
G01 X5.9954 Y96.0853 
G01 X6.0334 Y96.3743 
G00 Z2.5400 
G00 X6.0334 Y3.6643 
G01 Z-0.1500 F254.00 
G01 X6.0334 Y3.9557 F508.00 
G01 X5.9954 Y4.2447 
G01 X5.9199 Y4.5262 
G01 X5.8084 Y4.7955 
G01 X5.6627 Y5.0479 
G01 X5.4852 Y5.2791 
G01 X5.2791 Y5.4852 
G01 X5.0479 Y5.6627 
G01 X4.7955 Y5.8084 
G01 X4.5262 Y5.9199 
G01 X4.2447 Y5.9954 
G01 X3.9557 Y6.0334 
G01 X3.6643 Y6.0334 
G01 X3.3753 Y5.9954 
G01 X3.0938 Y5.9199 
G01 X2.8245 Y5.8084 
G01 X2.5721 Y5.6627 
G01 X2.3409 Y5.4852 
G01 X2.1348 Y5.2791 
G01 X1.9573 Y5.0479 
G01 X1.8116 Y4.7955 
G01 X1.7001 Y4.5262 
G01 X1.6246 Y4.2447 
G01 X1.5866 Y3.9557 
G01 X1.5866 Y3.6643 
G01 X1.6246 Y3.3753 
G01 X1.7001 Y3.0938 
G01 X1.8116 Y2.8245 
G01 X1.9573 Y2.5721 
G01 X2.1348 Y2.3409 
G01 X2.3409 Y2.1348 
G01 X2.5721 Y1.9573 
G01 X2.8245 Y1.8116 
G01 X3.0938 Y1.7001 
G01 X3.3753 Y1.6246 
G01 X3.6643 Y1.5866 
G01 X3.9557 Y1.5866 
G01 X4.2447 Y1.6246 
G01 X4.5262 Y1.7001 
G01 X4.7955 Y1.8116 
G01 X5.0479 Y1.9573 
G01 X5.2791 Y2.1348 
G01 X5.4852 Y2.3409 
G01 X5.6627 Y2.5721 
G01 X5.8084 Y2.8245 
G01 X5.9199 Y3.0938 
G01 X5.9954 Y3.3753 
G01 X6.0334 Y3.6643 
G00 Z2.5400 
G00 X82.2334 Y96.3743 
G01 Z-0.1500 F254.00 
G01 X82.2334 Y96.6657 F508.00 
G01 X82.1954 Y96.9547 
G01 X82.1199 Y97.2362 
G01 X82.0084 Y97.5055 
G01 X81.8627 Y97.7579 
G01 X81.6852 Y97.9891 
G01 X81.4791 Y98.1952 
G01 X81.2479 Y98.3727 
G01 X80.9955 Y98.5184 
G01 X80.7262 Y98.6299 
G01 X80.4447 Y98.7054 
G01 X80.1557 Y98.7434 
G01 X79.8643 Y98.7434 
G01 X79.5753 Y98.7054 
G01 X79.2938 Y98.6299 
G01 X79.0245 Y98.5184 
G01 X78.7721 Y98.3727 
G01 X78.5409 Y98.1952 
G01 X78.3348 Y97.9891 
G01 X78.1573 Y97.7579 
G01 X78.0116 Y97.5055 
G01 X77.9001 Y97.2362 
G01 X77.8246 Y96.9547 
G01 X77.7866 Y96.6657 
G01 X77.7866 Y96.3743 
G01 X77.8246 Y96.0853 
G01 X77.9001 Y95.8038 
G01 X78.0116 Y95.5345 
G01 X78.1573 Y95.2821 
G01 X78.3348 Y95.0509 
G01 X78.5409 Y94.8448 
G01 X78.7721 Y94.6673 
G01 X79.0245 Y94.5216 
G01 X79.2938 Y94.4101 
G01 X79.5753 Y94.3346 
G01 X79.8643 Y94.2966 
G01 X80.1557 Y94.2966 
G01 X80.4447 Y94.3346 
G01 X80.7262 Y94.4101 
G01 X80.9955 Y94.5216 
G01 X81.2479 Y94.6673 
G01 X81.4791 Y94.8448 
G01 X81.6852 Y95.0509 
G01 X81.8627 Y95.2821 
G01 X82.0084 Y95.5345 
G01 X82.1199 Y95.8038 
G01 X82.1954 Y96.0853 
G01 X82.2334 Y96.3743 
G00 Z2.5400 
G00 X82.2334 Y3.6643 
G01 Z-0.1500 F254.00 
G01 X82.2334 Y3.9557 F508.00 
G01 X82.1954 Y4.2447 
G01 X82.1199 Y4.5262 
G01 X82.0084 Y4.7955 
G01 X81.8627 Y5.0479 
G01 X81.6852 Y5.2791 
G01 X81.4791 Y5.4852 
G01 X81.2479 Y5.6627 
G01 X80.9955 Y5.8084 
G01 X80.7262 Y5.9199 
G01 X80.4447 Y5.9954 
G01 X80.1557 Y6.0334 
G01 X79.8643 Y6.0334 
G01 X79.5753 Y5.9954 
G01 X79.2938 Y5.9199 
G01 X79.0245 Y5.8084 
G01 X78.7721 Y5.6627 
G01 X78.5409 Y5.4852 
G01 X78.3348 Y5.2791 
G01 X78.1573 Y5.0479 
G01 X78.0116 Y4.7955 
G01 X77.9001 Y4.5262 
G01 X77.8246 Y4.2447 
G01 X77.7866 Y3.9557 
G01 X77.7866 Y3.6643 
G01 X77.8246 Y3.3753 
G01 X77.9001 Y3.0938 
G01 X78.0116 Y2.8245 
G01 X78.1573 Y2.5721 
G01 X78.3348 Y2.3409 
G01 X78.5409 Y2.1348 
G01 X78.7721 Y1.9573 
G01 X79.0245 Y1.8116 
G01 X79.2938 Y1.7001 
G01 X79.5753 Y1.6246 
G01 X79.8643 Y1.5866 
G01 X80.1557 Y1.5866 
G01 X80.4447 Y1.6246 
G01 X80.7262 Y1.7001 
G01 X80.9955 Y1.8116 
G01 X81.2479 Y1.9573 
G01 X81.4791 Y2.1348 
G01 X81.6852 Y2.3409 
G01 X81.8627 Y2.5721 
G01 X82.0084 Y2.8245 
G01 X82.1199 Y3.0938 
G01 X82.1954 Y3.3753 
G01 X82.2334 Y3.6643 
G00 Z2.5400 
G00 X31.5667 Y89.3249 
G01 Z-0.1500 F254.00 
G01 X31.7229 Y89.4293 F508.00 
G01 X31.8557 Y89.5621 
G01 X31.9601 Y89.7183 
G01 X32.0320 Y89.8918 
G01 X32.0413 Y89.9389 
G01 X32.0456 Y89.9432 
G01 X33.1730 Y91.0706 
G01 X33.3374 Y91.0706 
G01 X33.2033 Y91.0151 
G01 X33.0471 Y90.9107 
G01 X32.9143 Y90.7779 
G01 X32.8099 Y90.6217 
G01 X32.7380 Y90.4482 
G01 X32.7287 Y90.4011 
G01 X32.7244 Y90.3968 
G01 X31.5970 Y89.2694 
G01 X31.4326 Y89.2694 
G01 X31.5667 Y89.3249 
G00 Z2.5400 
G00 X49.0982 Y85.3175 
G01 Z-0.1500 F254.00 
G01 X49.9618 Y85.3175 F508.00 
G01 X50.0060 Y85.3616 
G01 X50.2776 Y85.0900 
G01 X50.0060 Y84.8184 
G01 X49.9618 Y84.8625 
G01 X49.0982 Y84.8625 
G01 X48.6294 Y84.3937 
G01 X48.6294 Y85.7863 
G01 X49.0982 Y85.3175 
G00 Z2.5400 
G00 X16.8286 Y87.5361 
G01 Z-0.1500 F254.00 
G01 X16.8286 Y87.7239 F508.00 
G01 X16.7919 Y87.9082 
G01 X16.7201 Y88.0817 
G01 X16.6157 Y88.2379 
G01 X16.4829 Y88.3707 
G01 X16.3267 Y88.4751 
G01 X16.1532 Y88.5470 
G01 X15.9689 Y88.5836 
G01 X15.7811 Y88.5836 
G01 X15.5968 Y88.5470 
G01 X15.4233 Y88.4751 
G01 X15.2671 Y88.3707 
G01 X15.1343 Y88.2379 
G01 X15.0299 Y88.0817 
G01 X14.9580 Y87.9082 
G01 X14.9214 Y87.7239 
G01 X14.9214 Y87.5361 
G01 X14.9580 Y87.3518 
G01 X15.0299 Y87.1783 
G01 X15.1343 Y87.0221 
G01 X15.2671 Y86.8893 
G01 X15.4233 Y86.7849 
G01 X15.5968 Y86.7130 
G01 X15.7811 Y86.6764 
G01 X15.9689 Y86.6764 
G01 X16.1532 Y86.7130 
G01 X16.3267 Y86.7849 
G01 X16.4829 Y86.8893 
G01 X16.6157 Y87.0221 
G01 X16.7201 Y87.1783 
G01 X16.7919 Y87.3518 
G01 X16.8286 Y87.5361 
G00 Z2.5400 
G00 X19.3320 Y87.9082 
G01 Z-0.1500 F254.00 
G01 X19.2601 Y88.0817 F508.00 
G01 X19.1557 Y88.2379 
G01 X19.0229 Y88.3707 
G01 X18.8667 Y88.4751 
G01 X18.6932 Y88.5470 
G01 X18.5089 Y88.5836 
G01 X18.3211 Y88.5836 
G01 X18.1368 Y88.5470 
G01 X17.9633 Y88.4751 
G01 X17.8071 Y88.3707 
G01 X17.6743 Y88.2379 
G01 X17.5699 Y88.0817 
G01 X17.4980 Y87.9082 
G01 X17.4614 Y87.7239 
G01 X17.4614 Y87.5361 
G01 X17.4980 Y87.3518 
G01 X17.5699 Y87.1783 
G01 X17.6743 Y87.0221 
G01 X17.8071 Y86.8893 
G01 X17.9633 Y86.7849 
G01 X18.1368 Y86.7130 
G01 X18.3211 Y86.6764 
G01 X18.5089 Y86.6764 
G01 X18.6806 Y86.7105 
G01 X18.6806 Y83.3924 
G01 X18.2318 Y83.3924 
G01 X18.1427 Y83.3555 
G01 X18.0745 Y83.2873 
G01 X18.0376 Y83.1982 
G01 X18.0376 Y81.9018 
G01 X18.0745 Y81.8127 
G01 X18.1427 Y81.7445 
G01 X18.2318 Y81.7076 
G01 X19.1282 Y81.7076 
G01 X19.2173 Y81.7445 
G01 X19.2855 Y81.8127 
G01 X19.3224 Y81.9018 
G01 X19.3224 Y82.1806 
G01 X21.3176 Y82.1806 
G01 X21.3176 Y81.9018 
G01 X21.3545 Y81.8127 
G01 X21.4227 Y81.7445 
G01 X21.5118 Y81.7076 
G01 X22.4082 Y81.7076 
G01 X22.4973 Y81.7445 
G01 X22.5655 Y81.8127 
G01 X22.6024 Y81.9018 
G01 X22.6024 Y83.1982 
G01 X22.5655 Y83.2873 
G01 X22.4973 Y83.3555 
G01 X22.4082 Y83.3924 
G01 X21.5118 Y83.3924 
G01 X21.4227 Y83.3555 
G01 X21.3545 Y83.2873 
G01 X21.3176 Y83.1982 
G01 X21.3176 Y82.9194 
G01 X19.4194 Y82.9194 
G01 X19.4194 Y87.6786 
G01 X19.3942 Y87.7726 
G01 X19.3456 Y87.8568 
G01 X19.3413 Y87.8611 
G01 X19.3320 Y87.9082 
G00 Z2.5400 
G00 X20.5776 Y66.6882 
G01 Z-0.1500 F254.00 
G01 X20.5776 Y65.3918 F508.00 
G01 X20.6145 Y65.3027 
G01 X20.6827 Y65.2345 
G01 X20.7718 Y65.1976 
G01 X21.2206 Y65.1976 
G01 X21.2206 Y64.9230 
G01 X19.3700 Y63.0724 
G01 X18.1818 Y63.0724 
G01 X18.0927 Y63.0355 
G01 X18.0245 Y62.9673 
G01 X17.9876 Y62.8782 
G01 X17.9876 Y61.5818 
G01 X18.0245 Y61.4927 
G01 X18.0927 Y61.4245 
G01 X18.1818 Y61.3876 
G01 X19.4782 Y61.3876 
G01 X19.5673 Y61.4245 
G01 X19.6355 Y61.4927 
G01 X19.6724 Y61.5818 
G01 X19.6724 Y62.3300 
G01 X21.8168 Y64.4744 
G01 X21.8856 Y64.5432 
G01 X21.9342 Y64.6274 
G01 X21.9594 Y64.7214 
G01 X21.9594 Y66.0886 
G01 X21.9342 Y66.1826 
G01 X21.8856 Y66.2668 
G01 X21.8624 Y66.2900 
G01 X21.8624 Y66.6882 
G01 X21.8255 Y66.7773 
G01 X21.7573 Y66.8455 
G01 X21.6682 Y66.8824 
G01 X20.7718 Y66.8824 
G01 X20.6827 Y66.8455 
G01 X20.6145 Y66.7773 
G01 X20.5776 Y66.6882 
G00 Z2.5400 
G00 X1.6168 Y90.3594 
G01 Z-0.1500 F254.00 
G01 X3.4632 Y90.3594 F508.00 
G01 X3.6312 Y90.3860 
G01 X3.7930 Y90.4386 
G01 X3.9446 Y90.5158 
G01 X4.0822 Y90.6158 
G01 X4.2024 Y90.7360 
G01 X4.3024 Y90.8736 
G01 X4.3796 Y91.0252 
G01 X4.4322 Y91.1870 
G01 X4.4588 Y91.3550 
G01 X4.4588 Y91.5250 
G01 X4.4322 Y91.6930 
G01 X4.3796 Y91.8548 
G01 X4.3024 Y92.0064 
G01 X4.2024 Y92.1440 
G01 X4.0822 Y92.2642 
G01 X3.9446 Y92.3642 
G01 X3.7930 Y92.4414 
G01 X3.6312 Y92.4940 
G01 X3.4632 Y92.5206 
G01 X1.6168 Y92.5206 
G01 X1.4488 Y92.4940 
G01 X1.2870 Y92.4414 
G01 X1.1354 Y92.3642 
G01 X0.9978 Y92.2642 
G01 X0.8776 Y92.1440 
G01 X0.7776 Y92.0064 
G01 X0.7004 Y91.8548 
G01 X0.6478 Y91.6930 
G01 X0.6212 Y91.5250 
G01 X0.6212 Y91.3550 
G01 X0.6478 Y91.1870 
G01 X0.7004 Y91.0252 
G01 X0.7776 Y90.8736 
G01 X0.8776 Y90.7360 
G01 X0.9978 Y90.6158 
G01 X1.1354 Y90.5158 
G01 X1.2870 Y90.4386 
G01 X1.4488 Y90.3860 
G01 X1.6168 Y90.3594 
G00 Z2.5400 
G00 X1.6168 Y86.5494 
G01 Z-0.1500 F254.00 
G01 X3.4632 Y86.5494 F508.00 
G01 X3.6312 Y86.5760 
G01 X3.7930 Y86.6286 
G01 X3.9446 Y86.7058 
G01 X4.0822 Y86.8058 
G01 X4.2024 Y86.9260 
G01 X4.3024 Y87.0636 
G01 X4.3796 Y87.2152 
G01 X4.4322 Y87.3770 
G01 X4.4588 Y87.5450 
G01 X4.4588 Y87.7150 
G01 X4.4322 Y87.8830 
G01 X4.3796 Y88.0448 
G01 X4.3024 Y88.1964 
G01 X4.2024 Y88.3340 
G01 X4.0822 Y88.4542 
G01 X3.9446 Y88.5542 
G01 X3.7930 Y88.6314 
G01 X3.6312 Y88.6840 
G01 X3.4632 Y88.7106 
G01 X1.6168 Y88.7106 
G01 X1.4488 Y88.6840 
G01 X1.2870 Y88.6314 
G01 X1.1354 Y88.5542 
G01 X0.9978 Y88.4542 
G01 X0.8776 Y88.3340 
G01 X0.7776 Y88.1964 
G01 X0.7004 Y88.0448 
G01 X0.6478 Y87.8830 
G01 X0.6212 Y87.7150 
G01 X0.6212 Y87.5450 
G01 X0.6478 Y87.3770 
G01 X0.7004 Y87.2152 
G01 X0.7776 Y87.0636 
G01 X0.8776 Y86.9260 
G01 X0.9978 Y86.8058 
G01 X1.1354 Y86.7058 
G01 X1.2870 Y86.6286 
G01 X1.4488 Y86.5760 
G01 X1.6168 Y86.5494 
G00 Z2.5400 
G00 X1.6168 Y82.7394 
G01 Z-0.1500 F254.00 
G01 X3.4632 Y82.7394 F508.00 
G01 X3.6312 Y82.7660 
G01 X3.7930 Y82.8186 
G01 X3.9446 Y82.8958 
G01 X4.0822 Y82.9958 
G01 X4.2024 Y83.1160 
G01 X4.3024 Y83.2536 
G01 X4.3796 Y83.4052 
G01 X4.3944 Y83.4506 
G01 X7.4670 Y83.4506 
G01 X10.1292 Y80.7884 
G01 X10.0550 Y80.8262 
G01 X9.8780 Y80.8837 
G01 X9.6942 Y80.9128 
G01 X9.5082 Y80.9128 
G01 X9.3244 Y80.8837 
G01 X9.1474 Y80.8262 
G01 X8.9816 Y80.7417 
G01 X8.8310 Y80.6323 
G01 X8.6995 Y80.5008 
G01 X8.5901 Y80.3502 
G01 X8.5056 Y80.1844 
G01 X8.4481 Y80.0074 
G01 X8.4190 Y79.8236 
G01 X8.4190 Y79.6376 
G01 X8.4481 Y79.4538 
G01 X8.5056 Y79.2768 
G01 X8.5901 Y79.1110 
G01 X8.6995 Y78.9604 
G01 X8.8310 Y78.8289 
G01 X8.9816 Y78.7195 
G01 X9.1474 Y78.6350 
G01 X9.3244 Y78.5775 
G01 X9.5082 Y78.5484 
G01 X9.6942 Y78.5484 
G01 X9.8780 Y78.5775 
G01 X10.0550 Y78.6350 
G01 X10.2208 Y78.7195 
G01 X10.3713 Y78.8289 
G01 X10.5029 Y78.9604 
G01 X10.6123 Y79.1110 
G01 X10.6968 Y79.2768 
G01 X10.7543 Y79.4538 
G01 X10.7834 Y79.6376 
G01 X10.7834 Y79.8236 
G01 X10.7543 Y80.0074 
G01 X10.6968 Y80.1844 
G01 X10.6590 Y80.2586 
G01 X11.2032 Y79.7144 
G01 X11.2874 Y79.6658 
G01 X11.3814 Y79.6406 
G01 X14.2626 Y79.6406 
G01 X14.2626 Y78.9368 
G01 X14.2995 Y78.8477 
G01 X14.3677 Y78.7795 
G01 X14.4568 Y78.7426 
G01 X16.0232 Y78.7426 
G01 X16.1123 Y78.7795 
G01 X16.1805 Y78.8477 
G01 X16.2174 Y78.9368 
G01 X16.2174 Y80.3032 
G01 X16.1805 Y80.3923 
G01 X16.1123 Y80.4605 
G01 X16.0232 Y80.4974 
G01 X14.4568 Y80.4974 
G01 X14.3677 Y80.4605 
G01 X14.2995 Y80.3923 
G01 X14.2942 Y80.3794 
G01 X11.5830 Y80.3794 
G01 X7.9156 Y84.0468 
G01 X7.8468 Y84.1156 
G01 X7.7626 Y84.1642 
G01 X7.6686 Y84.1894 
G01 X4.3944 Y84.1894 
G01 X4.3796 Y84.2348 
G01 X4.3024 Y84.3864 
G01 X4.2024 Y84.5240 
G01 X4.0822 Y84.6442 
G01 X3.9446 Y84.7442 
G01 X3.7930 Y84.8214 
G01 X3.6312 Y84.8740 
G01 X3.4632 Y84.9006 
G01 X1.6168 Y84.9006 
G01 X1.4488 Y84.8740 
G01 X1.2870 Y84.8214 
G01 X1.1354 Y84.7442 
G01 X0.9978 Y84.6442 
G01 X0.8776 Y84.5240 
G01 X0.7776 Y84.3864 
G01 X0.7004 Y84.2348 
G01 X0.6478 Y84.0730 
G01 X0.6212 Y83.9050 
G01 X0.6212 Y83.7350 
G01 X0.6478 Y83.5670 
G01 X0.7004 Y83.4052 
G01 X0.7776 Y83.2536 
G01 X0.8776 Y83.1160 
G01 X0.9978 Y82.9958 
G01 X1.1354 Y82.8958 
G01 X1.2870 Y82.8186 
G01 X1.4488 Y82.7660 
G01 X1.6168 Y82.7394 
G00 Z2.5400 
G00 X5.5219 Y70.7274 
G01 Z-0.1500 F254.00 
G01 X3.4189 Y70.7274 F508.00 
G01 X3.3298 Y70.6905 
G01 X3.2616 Y70.6223 
G01 X3.2247 Y70.5332 
G01 X3.2247 Y66.6268 
G01 X3.2616 Y66.5377 
G01 X3.3298 Y66.4695 
G01 X3.4189 Y66.4326 
G01 X5.5219 Y66.4326 
G01 X5.6110 Y66.4695 
G01 X5.6792 Y66.5377 
G01 X5.7161 Y66.6268 
G01 X5.7161 Y70.5332 
G01 X5.6792 Y70.6223 
G01 X5.6110 Y70.6905 
G01 X5.5219 Y70.7274 
G00 Z2.5400 
G00 X10.7834 Y75.1164 
G01 Z-0.1500 F254.00 
G01 X10.7834 Y75.3024 F508.00 
G01 X10.7543 Y75.4862 
G01 X10.6968 Y75.6632 
G01 X10.6123 Y75.8290 
G01 X10.5029 Y75.9796 
G01 X10.3713 Y76.1111 
G01 X10.2208 Y76.2205 
G01 X10.0550 Y76.3050 
G01 X9.8780 Y76.3625 
G01 X9.6942 Y76.3916 
G01 X9.5082 Y76.3916 
G01 X9.3244 Y76.3625 
G01 X9.1474 Y76.3050 
G01 X8.9816 Y76.2205 
G01 X8.8310 Y76.1111 
G01 X8.6995 Y75.9796 
G01 X8.5901 Y75.8290 
G01 X8.5056 Y75.6632 
G01 X8.4481 Y75.4862 
G01 X8.4190 Y75.3024 
G01 X8.4190 Y75.1164 
G01 X8.4481 Y74.9326 
G01 X8.5056 Y74.7556 
G01 X8.5901 Y74.5898 
G01 X8.6995 Y74.4392 
G01 X8.8310 Y74.3077 
G01 X8.9816 Y74.1983 
G01 X9.1474 Y74.1138 
G01 X9.3244 Y74.0563 
G01 X9.5082 Y74.0272 
G01 X9.6942 Y74.0272 
G01 X9.8780 Y74.0563 
G01 X10.0550 Y74.1138 
G01 X10.2208 Y74.1983 
G01 X10.3713 Y74.3077 
G01 X10.5029 Y74.4392 
G01 X10.6123 Y74.5898 
G01 X10.6968 Y74.7556 
G01 X10.7543 Y74.9326 
G01 X10.7834 Y75.1164 
G00 Z2.5400 
G00 X4.2810 Y79.6376 
G01 Z-0.1500 F254.00 
G01 X4.2810 Y79.8236 F508.00 
G01 X4.2519 Y80.0074 
G01 X4.1944 Y80.1844 
G01 X4.1099 Y80.3502 
G01 X4.0005 Y80.5008 
G01 X3.8690 Y80.6323 
G01 X3.7184 Y80.7417 
G01 X3.5526 Y80.8262 
G01 X3.3756 Y80.8837 
G01 X3.1918 Y80.9128 
G01 X3.0058 Y80.9128 
G01 X2.8220 Y80.8837 
G01 X2.6450 Y80.8262 
G01 X2.4792 Y80.7417 
G01 X2.3286 Y80.6323 
G01 X2.1971 Y80.5008 
G01 X2.0877 Y80.3502 
G01 X2.0032 Y80.1844 
G01 X1.9457 Y80.0074 
G01 X1.9166 Y79.8236 
G01 X1.9166 Y79.6376 
G01 X1.9457 Y79.4538 
G01 X2.0032 Y79.2768 
G01 X2.0877 Y79.1110 
G01 X2.1971 Y78.9604 
G01 X2.3286 Y78.8289 
G01 X2.4792 Y78.7195 
G01 X2.6450 Y78.6350 
G01 X2.8220 Y78.5775 
G01 X3.0058 Y78.5484 
G01 X3.1918 Y78.5484 
G01 X3.3756 Y78.5775 
G01 X3.5526 Y78.6350 
G01 X3.7184 Y78.7195 
G01 X3.8690 Y78.8289 
G01 X4.0005 Y78.9604 
G01 X4.1099 Y79.1110 
G01 X4.1944 Y79.2768 
G01 X4.2519 Y79.4538 
G01 X4.2810 Y79.6376 
G00 Z2.5400 
G00 X21.8624 Y70.4982 
G01 Z-0.1500 F254.00 
G01 X21.8255 Y70.5873 F508.00 
G01 X21.7573 Y70.6555 
G01 X21.6682 Y70.6924 
G01 X20.7718 Y70.6924 
G01 X20.6827 Y70.6555 
G01 X20.6145 Y70.5873 
G01 X20.5776 Y70.4982 
G01 X20.5776 Y69.2018 
G01 X20.6145 Y69.1127 
G01 X20.6827 Y69.0445 
G01 X20.7718 Y69.0076 
G01 X21.6682 Y69.0076 
G01 X21.7573 Y69.0445 
G01 X21.8152 Y69.1024 
G01 X22.4906 Y68.4270 
G01 X22.4906 Y58.3714 
G01 X22.5158 Y58.2774 
G01 X22.5644 Y58.1932 
G01 X22.6332 Y58.1244 
G01 X26.9276 Y53.8300 
G01 X26.9276 Y52.6918 
G01 X26.9645 Y52.6027 
G01 X27.0327 Y52.5345 
G01 X27.1218 Y52.4976 
G01 X27.8452 Y52.4976 
G01 X25.7694 Y50.4218 
G01 X25.7694 Y52.4976 
G01 X26.2182 Y52.4976 
G01 X26.3073 Y52.5345 
G01 X26.3755 Y52.6027 
G01 X26.4124 Y52.6918 
G01 X26.4124 Y53.9882 
G01 X26.3755 Y54.0773 
G01 X26.3073 Y54.1455 
G01 X26.2182 Y54.1824 
G01 X25.3218 Y54.1824 
G01 X25.2327 Y54.1455 
G01 X25.1748 Y54.0876 
G01 X17.5724 Y61.6900 
G01 X17.5724 Y62.8782 
G01 X17.5355 Y62.9673 
G01 X17.4673 Y63.0355 
G01 X17.3782 Y63.0724 
G01 X16.1900 Y63.0724 
G01 X14.3394 Y64.9230 
G01 X14.3394 Y65.1976 
G01 X14.7882 Y65.1976 
G01 X14.8773 Y65.2345 
G01 X14.9455 Y65.3027 
G01 X14.9824 Y65.3918 
G01 X14.9824 Y66.5300 
G01 X18.0756 Y69.6232 
G01 X18.1242 Y69.7074 
G01 X18.1494 Y69.8014 
G01 X18.1494 Y81.3286 
G01 X18.1242 Y81.4226 
G01 X18.0756 Y81.5068 
G01 X18.0068 Y81.5756 
G01 X17.5224 Y82.0600 
G01 X17.5224 Y83.1982 
G01 X17.4855 Y83.2873 
G01 X17.4173 Y83.3555 
G01 X17.3282 Y83.3924 
G01 X16.4318 Y83.3924 
G01 X16.3427 Y83.3555 
G01 X16.2848 Y83.2976 
G01 X14.3394 Y85.2430 
G01 X14.3394 Y87.4770 
G01 X16.4144 Y89.5520 
G01 X16.5371 Y89.4293 
G01 X16.6933 Y89.3249 
G01 X16.8668 Y89.2530 
G01 X17.0511 Y89.2164 
G01 X17.2389 Y89.2164 
G01 X17.4232 Y89.2530 
G01 X17.5967 Y89.3249 
G01 X17.7529 Y89.4293 
G01 X17.8857 Y89.5621 
G01 X17.9901 Y89.7183 
G01 X18.0619 Y89.8918 
G01 X18.0986 Y90.0761 
G01 X18.0986 Y90.2639 
G01 X18.0619 Y90.4482 
G01 X17.9901 Y90.6217 
G01 X17.8857 Y90.7779 
G01 X17.7529 Y90.9107 
G01 X17.5967 Y91.0151 
G01 X17.4232 Y91.0870 
G01 X17.2389 Y91.1236 
G01 X17.0511 Y91.1236 
G01 X16.8668 Y91.0870 
G01 X16.6933 Y91.0151 
G01 X16.5371 Y90.9107 
G01 X16.4043 Y90.7779 
G01 X16.2999 Y90.6217 
G01 X16.2280 Y90.4482 
G01 X16.2187 Y90.4011 
G01 X16.2144 Y90.3968 
G01 X13.6744 Y87.8568 
G01 X13.6258 Y87.7726 
G01 X13.6006 Y87.6786 
G01 X13.6006 Y85.0414 
G01 X13.6258 Y84.9474 
G01 X13.6744 Y84.8632 
G01 X13.7432 Y84.7944 
G01 X16.2144 Y82.3232 
G01 X16.2376 Y82.3000 
G01 X16.2376 Y81.9018 
G01 X16.2745 Y81.8127 
G01 X16.3427 Y81.7445 
G01 X16.4318 Y81.7076 
G01 X16.8300 Y81.7076 
G01 X17.4106 Y81.1270 
G01 X17.4106 Y70.0030 
G01 X16.7824 Y69.3748 
G01 X16.7824 Y69.6000 
G01 X16.8056 Y69.6232 
G01 X16.8542 Y69.7074 
G01 X16.8794 Y69.8014 
G01 X16.8794 Y69.8986 
G01 X16.8542 Y69.9926 
G01 X16.8056 Y70.0768 
G01 X16.7824 Y70.1000 
G01 X16.7824 Y70.4982 
G01 X16.7455 Y70.5873 
G01 X16.6773 Y70.6555 
G01 X16.5882 Y70.6924 
G01 X16.1900 Y70.6924 
G01 X15.6094 Y71.2730 
G01 X15.6094 Y74.4426 
G01 X16.0232 Y74.4426 
G01 X16.1123 Y74.4795 
G01 X16.1805 Y74.5477 
G01 X16.2174 Y74.6368 
G01 X16.2174 Y76.0032 
G01 X16.1805 Y76.0923 
G01 X16.1123 Y76.1605 
G01 X16.0232 Y76.1974 
G01 X14.4568 Y76.1974 
G01 X14.3677 Y76.1605 
G01 X14.2995 Y76.0923 
G01 X14.2626 Y76.0032 
G01 X14.2626 Y74.6368 
G01 X14.2995 Y74.5477 
G01 X14.3677 Y74.4795 
G01 X14.4568 Y74.4426 
G01 X14.8706 Y74.4426 
G01 X14.8706 Y71.4894 
G01 X12.0153 Y71.4894 
G01 X12.0153 Y71.6889 
G01 X11.9784 Y71.7780 
G01 X11.9102 Y71.8462 
G01 X11.8211 Y71.8831 
G01 X9.7181 Y71.8831 
G01 X9.6290 Y71.8462 
G01 X9.5608 Y71.7780 
G01 X9.5239 Y71.6889 
G01 X9.5239 Y70.0939 
G01 X9.5608 Y70.0048 
G01 X9.6290 Y69.9366 
G01 X9.7181 Y69.8997 
G01 X11.8211 Y69.8997 
G01 X11.9102 Y69.9366 
G01 X11.9625 Y69.9889 
G01 X11.9496 Y69.9239 
G01 X11.9496 Y69.7761 
G01 X11.9752 Y69.6476 
G01 X11.8944 Y69.5668 
G01 X11.8211 Y69.5971 
G01 X9.7181 Y69.5971 
G01 X9.6290 Y69.5602 
G01 X9.5608 Y69.4920 
G01 X9.5239 Y69.4029 
G01 X9.5239 Y67.8079 
G01 X9.5608 Y67.7188 
G01 X9.6290 Y67.6506 
G01 X9.7181 Y67.6137 
G01 X11.8211 Y67.6137 
G01 X11.9102 Y67.6506 
G01 X11.9784 Y67.7188 
G01 X12.0153 Y67.8079 
G01 X12.0153 Y68.6429 
G01 X12.4976 Y69.1252 
G01 X12.6261 Y69.0996 
G01 X12.7739 Y69.0996 
G01 X12.9189 Y69.1284 
G01 X13.0554 Y69.1850 
G01 X13.1784 Y69.2671 
G01 X13.2829 Y69.3716 
G01 X13.3650 Y69.4946 
G01 X13.4216 Y69.6311 
G01 X13.4504 Y69.7761 
G01 X13.4504 Y69.9239 
G01 X13.4216 Y70.0689 
G01 X13.3650 Y70.2054 
G01 X13.2829 Y70.3284 
G01 X13.1784 Y70.4329 
G01 X13.0554 Y70.5150 
G01 X12.9189 Y70.5716 
G01 X12.7739 Y70.6004 
G01 X12.6261 Y70.6004 
G01 X12.4811 Y70.5716 
G01 X12.3445 Y70.5150 
G01 X12.2216 Y70.4329 
G01 X12.1171 Y70.3284 
G01 X12.0350 Y70.2054 
G01 X12.0153 Y70.1579 
G01 X12.0153 Y70.7506 
G01 X15.0870 Y70.7506 
G01 X15.4976 Y70.3400 
G01 X15.4976 Y69.2018 
G01 X15.5345 Y69.1127 
G01 X15.6027 Y69.0445 
G01 X15.6918 Y69.0076 
G01 X16.4152 Y69.0076 
G01 X14.3394 Y66.9318 
G01 X14.3394 Y69.0076 
G01 X14.7882 Y69.0076 
G01 X14.8773 Y69.0445 
G01 X14.9455 Y69.1127 
G01 X14.9824 Y69.2018 
G01 X14.9824 Y70.4982 
G01 X14.9455 Y70.5873 
G01 X14.8773 Y70.6555 
G01 X14.7882 Y70.6924 
G01 X13.8918 Y70.6924 
G01 X13.8027 Y70.6555 
G01 X13.7345 Y70.5873 
G01 X13.6976 Y70.4982 
G01 X13.6976 Y70.1000 
G01 X13.6744 Y70.0768 
G01 X13.6258 Y69.9926 
G01 X13.6006 Y69.8986 
G01 X13.6006 Y66.4094 
G01 X12.0153 Y66.4094 
G01 X12.0153 Y67.1169 
G01 X11.9784 Y67.2060 
G01 X11.9102 Y67.2742 
G01 X11.8211 Y67.3111 
G01 X9.7181 Y67.3111 
G01 X9.6290 Y67.2742 
G01 X9.5608 Y67.2060 
G01 X9.5478 Y67.1746 
G01 X9.2594 Y67.4630 
G01 X9.2594 Y69.8986 
G01 X9.2342 Y69.9926 
G01 X9.1856 Y70.0768 
G01 X9.1168 Y70.1456 
G01 X4.2625 Y74.9999 
G01 X4.2810 Y75.1164 
G01 X4.2810 Y75.3024 
G01 X4.2519 Y75.4862 
G01 X4.1944 Y75.6632 
G01 X4.1099 Y75.8290 
G01 X4.0005 Y75.9796 
G01 X3.8690 Y76.1111 
G01 X3.7184 Y76.2205 
G01 X3.5526 Y76.3050 
G01 X3.3756 Y76.3625 
G01 X3.1918 Y76.3916 
G01 X3.0058 Y76.3916 
G01 X2.8220 Y76.3625 
G01 X2.6450 Y76.3050 
G01 X2.4792 Y76.2205 
G01 X2.3286 Y76.1111 
G01 X2.1971 Y75.9796 
G01 X2.0877 Y75.8290 
G01 X2.0032 Y75.6632 
G01 X1.9457 Y75.4862 
G01 X1.9166 Y75.3024 
G01 X1.9166 Y75.1164 
G01 X1.9457 Y74.9326 
G01 X2.0032 Y74.7556 
G01 X2.0877 Y74.5898 
G01 X2.1971 Y74.4392 
G01 X2.3286 Y74.3077 
G01 X2.4792 Y74.1983 
G01 X2.6450 Y74.1138 
G01 X2.8220 Y74.0563 
G01 X3.0058 Y74.0272 
G01 X3.1918 Y74.0272 
G01 X3.3756 Y74.0563 
G01 X3.5526 Y74.1138 
G01 X3.7184 Y74.1983 
G01 X3.8690 Y74.3077 
G01 X3.8894 Y74.3282 
G01 X8.5206 Y69.6970 
G01 X8.5206 Y67.2614 
G01 X8.5458 Y67.1674 
G01 X8.5944 Y67.0832 
G01 X9.5239 Y66.1537 
G01 X9.5239 Y65.5219 
G01 X9.5608 Y65.4328 
G01 X9.6290 Y65.3646 
G01 X9.7181 Y65.3277 
G01 X11.8211 Y65.3277 
G01 X11.9102 Y65.3646 
G01 X11.9784 Y65.4328 
G01 X12.0153 Y65.5219 
G01 X12.0153 Y65.6706 
G01 X13.6006 Y65.6706 
G01 X13.6006 Y64.7214 
G01 X13.6258 Y64.6274 
G01 X13.6744 Y64.5432 
G01 X13.7432 Y64.4744 
G01 X15.8876 Y62.3300 
G01 X15.8876 Y61.5818 
G01 X15.9245 Y61.4927 
G01 X15.9927 Y61.4245 
G01 X16.0818 Y61.3876 
G01 X16.8300 Y61.3876 
G01 X25.0306 Y53.1870 
G01 X25.0306 Y45.6714 
G01 X25.0558 Y45.5774 
G01 X25.1044 Y45.4932 
G01 X25.1276 Y45.4700 
G01 X25.1276 Y45.0718 
G01 X25.1645 Y44.9827 
G01 X25.2327 Y44.9145 
G01 X25.3218 Y44.8776 
G01 X26.2182 Y44.8776 
G01 X26.3073 Y44.9145 
G01 X26.3755 Y44.9827 
G01 X26.4124 Y45.0718 
G01 X26.4124 Y46.3682 
G01 X26.3755 Y46.4573 
G01 X26.3073 Y46.5255 
G01 X26.2182 Y46.5624 
G01 X25.7694 Y46.5624 
G01 X25.7694 Y48.6876 
G01 X26.2182 Y48.6876 
G01 X26.3073 Y48.7245 
G01 X26.3755 Y48.7927 
G01 X26.4124 Y48.8818 
G01 X26.4124 Y50.0200 
G01 X29.5056 Y53.1132 
G01 X29.5542 Y53.1974 
G01 X29.5794 Y53.2914 
G01 X29.5794 Y59.3206 
G01 X34.1370 Y59.3206 
G01 X35.0492 Y58.4084 
G01 X33.3528 Y58.4084 
G01 X33.2637 Y58.3715 
G01 X33.1955 Y58.3033 
G01 X33.1586 Y58.2142 
G01 X33.1586 Y55.2710 
G01 X28.1652 Y50.2776 
G01 X28.1073 Y50.3355 
G01 X28.0182 Y50.3724 
G01 X27.1218 Y50.3724 
G01 X27.0327 Y50.3355 
G01 X26.9645 Y50.2673 
G01 X26.9276 Y50.1782 
G01 X26.9276 Y48.8818 
G01 X26.9645 Y48.7927 
G01 X27.0327 Y48.7245 
G01 X27.1218 Y48.6876 
G01 X28.0182 Y48.6876 
G01 X28.1073 Y48.7245 
G01 X28.1755 Y48.7927 
G01 X28.2124 Y48.8818 
G01 X28.2124 Y49.2800 
G01 X28.2356 Y49.3032 
G01 X33.1586 Y54.2262 
G01 X33.1586 Y53.0378 
G01 X33.1955 Y52.9487 
G01 X33.2637 Y52.8805 
G01 X33.3528 Y52.8436 
G01 X35.2272 Y52.8436 
G01 X35.3163 Y52.8805 
G01 X35.3845 Y52.9487 
G01 X35.4214 Y53.0378 
G01 X35.4214 Y55.4962 
G01 X41.9514 Y48.9661 
G01 X41.9441 Y48.9612 
G01 X41.8184 Y48.8355 
G01 X41.7196 Y48.6876 
G01 X41.6515 Y48.5233 
G01 X41.6168 Y48.3489 
G01 X41.6168 Y48.1711 
G01 X41.6515 Y47.9967 
G01 X41.7196 Y47.8324 
G01 X41.8184 Y47.6845 
G01 X41.9441 Y47.5588 
G01 X42.0920 Y47.4599 
G01 X42.2563 Y47.3919 
G01 X42.4307 Y47.3572 
G01 X43.9293 Y47.3572 
G01 X44.1037 Y47.3919 
G01 X44.2680 Y47.4599 
G01 X44.4159 Y47.5588 
G01 X44.5416 Y47.6845 
G01 X44.6404 Y47.8324 
G01 X44.7085 Y47.9967 
G01 X44.7432 Y48.1711 
G01 X44.7432 Y48.3489 
G01 X44.7085 Y48.5233 
G01 X44.6404 Y48.6876 
G01 X44.5416 Y48.8355 
G01 X44.4159 Y48.9612 
G01 X44.2680 Y49.0600 
G01 X44.1037 Y49.1281 
G01 X43.9293 Y49.1628 
G01 X42.7996 Y49.1628 
G01 X35.8556 Y56.1068 
G01 X35.7868 Y56.1756 
G01 X35.7026 Y56.2242 
G01 X35.6086 Y56.2494 
G01 X35.4214 Y56.2494 
G01 X35.4214 Y58.0362 
G01 X41.9514 Y51.5062 
G01 X41.9441 Y51.5012 
G01 X41.8184 Y51.3755 
G01 X41.7196 Y51.2276 
G01 X41.6515 Y51.0633 
G01 X41.6168 Y50.8889 
G01 X41.6168 Y50.7111 
G01 X41.6515 Y50.5367 
G01 X41.7196 Y50.3724 
G01 X41.8184 Y50.2245 
G01 X41.9441 Y50.0988 
G01 X42.0920 Y50.0000 
G01 X42.2563 Y49.9319 
G01 X42.4307 Y49.8972 
G01 X43.9293 Y49.8972 
G01 X44.1037 Y49.9319 
G01 X44.2680 Y50.0000 
G01 X44.4159 Y50.0988 
G01 X44.5416 Y50.2245 
G01 X44.6404 Y50.3724 
G01 X44.7085 Y50.5367 
G01 X44.7432 Y50.7111 
G01 X44.7432 Y50.8889 
G01 X44.7085 Y51.0633 
G01 X44.6404 Y51.2276 
G01 X44.5416 Y51.3755 
G01 X44.4159 Y51.5012 
G01 X44.2680 Y51.6000 
G01 X44.1037 Y51.6681 
G01 X43.9293 Y51.7028 
G01 X42.7996 Y51.7028 
G01 X34.5856 Y59.9168 
G01 X34.5168 Y59.9856 
G01 X34.4326 Y60.0342 
G01 X34.3386 Y60.0594 
G01 X29.1614 Y60.0594 
G01 X29.0674 Y60.0342 
G01 X28.9832 Y59.9856 
G01 X28.9144 Y59.9168 
G01 X28.8658 Y59.8326 
G01 X28.8406 Y59.7386 
G01 X28.8406 Y53.4930 
G01 X28.2124 Y52.8648 
G01 X28.2124 Y53.0900 
G01 X28.2356 Y53.1132 
G01 X28.2842 Y53.1974 
G01 X28.3094 Y53.2914 
G01 X28.3094 Y53.3886 
G01 X28.2842 Y53.4826 
G01 X28.2356 Y53.5668 
G01 X28.2124 Y53.5900 
G01 X28.2124 Y53.9882 
G01 X28.1755 Y54.0773 
G01 X28.1073 Y54.1455 
G01 X28.0182 Y54.1824 
G01 X27.6200 Y54.1824 
G01 X23.2294 Y58.5730 
G01 X23.2294 Y68.2106 
G01 X41.6954 Y68.2106 
G01 X41.7196 Y68.1524 
G01 X41.8184 Y68.0045 
G01 X41.9441 Y67.8787 
G01 X42.0920 Y67.7799 
G01 X42.2563 Y67.7119 
G01 X42.4307 Y67.6772 
G01 X43.9293 Y67.6772 
G01 X44.1037 Y67.7119 
G01 X44.2680 Y67.7799 
G01 X44.4159 Y67.8787 
G01 X44.5416 Y68.0045 
G01 X44.6404 Y68.1524 
G01 X44.7085 Y68.3167 
G01 X44.7432 Y68.4911 
G01 X44.7432 Y68.6689 
G01 X44.7085 Y68.8433 
G01 X44.6404 Y69.0076 
G01 X44.5416 Y69.1555 
G01 X44.4159 Y69.2812 
G01 X44.2680 Y69.3800 
G01 X44.1037 Y69.4481 
G01 X43.9293 Y69.4828 
G01 X42.4307 Y69.4828 
G01 X42.2563 Y69.4481 
G01 X42.0920 Y69.3800 
G01 X41.9441 Y69.2812 
G01 X41.8184 Y69.1555 
G01 X41.7196 Y69.0076 
G01 X41.6954 Y68.9494 
G01 X23.0130 Y68.9494 
G01 X21.8856 Y70.0768 
G01 X21.8624 Y70.1000 
G01 X21.8624 Y70.4982 
G00 Z2.5400 
G00 X35.2272 Y48.7564 
G01 Z-0.1500 F254.00 
G01 X33.3528 Y48.7564 F508.00 
G01 X33.2637 Y48.7195 
G01 X33.1955 Y48.6513 
G01 X33.1586 Y48.5622 
G01 X33.1586 Y46.0894 
G01 X28.2124 Y46.0894 
G01 X28.2124 Y46.3682 
G01 X28.1755 Y46.4573 
G01 X28.1073 Y46.5255 
G01 X28.0182 Y46.5624 
G01 X27.1218 Y46.5624 
G01 X27.0327 Y46.5255 
G01 X26.9645 Y46.4573 
G01 X26.9276 Y46.3682 
G01 X26.9276 Y45.0718 
G01 X26.9645 Y44.9827 
G01 X27.0327 Y44.9145 
G01 X27.1218 Y44.8776 
G01 X28.0182 Y44.8776 
G01 X28.1073 Y44.9145 
G01 X28.1755 Y44.9827 
G01 X28.2124 Y45.0718 
G01 X28.2124 Y45.3506 
G01 X33.1586 Y45.3506 
G01 X33.1586 Y43.3858 
G01 X33.1955 Y43.2967 
G01 X33.2637 Y43.2285 
G01 X33.3528 Y43.1916 
G01 X35.2272 Y43.1916 
G01 X35.3163 Y43.2285 
G01 X35.3845 Y43.2967 
G01 X35.4214 Y43.3858 
G01 X35.4214 Y45.3506 
G01 X41.6954 Y45.3506 
G01 X41.7196 Y45.2924 
G01 X41.8184 Y45.1445 
G01 X41.9441 Y45.0188 
G01 X42.0920 Y44.9200 
G01 X42.2563 Y44.8519 
G01 X42.4307 Y44.8172 
G01 X43.9293 Y44.8172 
G01 X44.1037 Y44.8519 
G01 X44.2680 Y44.9200 
G01 X44.4159 Y45.0188 
G01 X44.5416 Y45.1445 
G01 X44.6404 Y45.2924 
G01 X44.7085 Y45.4567 
G01 X44.7432 Y45.6311 
G01 X44.7432 Y45.8089 
G01 X44.7085 Y45.9833 
G01 X44.6404 Y46.1476 
G01 X44.5416 Y46.2955 
G01 X44.4159 Y46.4212 
G01 X44.2680 Y46.5200 
G01 X44.1037 Y46.5881 
G01 X43.9293 Y46.6228 
G01 X42.4307 Y46.6228 
G01 X42.2563 Y46.5881 
G01 X42.0920 Y46.5200 
G01 X41.9441 Y46.4212 
G01 X41.8184 Y46.2955 
G01 X41.7196 Y46.1476 
G01 X41.6954 Y46.0894 
G01 X35.4214 Y46.0894 
G01 X35.4214 Y48.5622 
G01 X35.3845 Y48.6513 
G01 X35.3163 Y48.7195 
G01 X35.2272 Y48.7564 
G00 Z2.5400 
G00 X51.5493 Y69.4828 
G01 Z-0.1500 F254.00 
G01 X50.0507 Y69.4828 F508.00 
G01 X49.8763 Y69.4481 
G01 X49.7120 Y69.3800 
G01 X49.5641 Y69.2812 
G01 X49.4383 Y69.1555 
G01 X49.3396 Y69.0076 
G01 X49.2715 Y68.8433 
G01 X49.2368 Y68.6689 
G01 X49.2368 Y68.4911 
G01 X49.2715 Y68.3167 
G01 X49.3396 Y68.1524 
G01 X49.4383 Y68.0045 
G01 X49.5641 Y67.8787 
G01 X49.7120 Y67.7799 
G01 X49.8763 Y67.7119 
G01 X50.0507 Y67.6772 
G01 X51.5493 Y67.6772 
G01 X51.7237 Y67.7119 
G01 X51.8880 Y67.7799 
G01 X52.0359 Y67.8787 
G01 X52.1616 Y68.0045 
G01 X52.2604 Y68.1524 
G01 X52.3285 Y68.3167 
G01 X52.3632 Y68.4911 
G01 X52.3632 Y68.6689 
G01 X52.3285 Y68.8433 
G01 X52.2604 Y69.0076 
G01 X52.1616 Y69.1555 
G01 X52.0359 Y69.2812 
G01 X51.8880 Y69.3800 
G01 X51.7237 Y69.4481 
G01 X51.5493 Y69.4828 
G00 Z2.5400 
G00 X51.5493 Y66.9428 
G01 Z-0.1500 F254.00 
G01 X50.0507 Y66.9428 F508.00 
G01 X49.8763 Y66.9081 
G01 X49.7120 Y66.8400 
G01 X49.5641 Y66.7412 
G01 X49.4383 Y66.6155 
G01 X49.3396 Y66.4676 
G01 X49.2715 Y66.3033 
G01 X49.2368 Y66.1289 
G01 X49.2368 Y65.9511 
G01 X49.2715 Y65.7767 
G01 X49.3396 Y65.6124 
G01 X49.4383 Y65.4645 
G01 X49.5641 Y65.3388 
G01 X49.7120 Y65.2400 
G01 X49.8763 Y65.1719 
G01 X50.0507 Y65.1372 
G01 X51.5493 Y65.1372 
G01 X51.7237 Y65.1719 
G01 X51.8880 Y65.2400 
G01 X52.0359 Y65.3388 
G01 X52.1616 Y65.4645 
G01 X52.2604 Y65.6124 
G01 X52.3285 Y65.7767 
G01 X52.3632 Y65.9511 
G01 X52.3632 Y66.1289 
G01 X52.3285 Y66.3033 
G01 X52.2604 Y66.4676 
G01 X52.1616 Y66.6155 
G01 X52.0359 Y66.7412 
G01 X51.8880 Y66.8400 
G01 X51.7237 Y66.9081 
G01 X51.5493 Y66.9428 
G00 Z2.5400 
G00 X51.5493 Y64.4028 
G01 Z-0.1500 F254.00 
G01 X50.0507 Y64.4028 F508.00 
G01 X49.8763 Y64.3681 
G01 X49.7120 Y64.3000 
G01 X49.5641 Y64.2012 
G01 X49.4383 Y64.0755 
G01 X49.3396 Y63.9276 
G01 X49.2715 Y63.7633 
G01 X49.2368 Y63.5889 
G01 X49.2368 Y63.4111 
G01 X49.2715 Y63.2367 
G01 X49.3396 Y63.0724 
G01 X49.4383 Y62.9245 
G01 X49.5641 Y62.7988 
G01 X49.7120 Y62.7000 
G01 X49.8763 Y62.6319 
G01 X50.0507 Y62.5972 
G01 X51.5493 Y62.5972 
G01 X51.7237 Y62.6319 
G01 X51.8880 Y62.7000 
G01 X52.0359 Y62.7988 
G01 X52.1616 Y62.9245 
G01 X52.2604 Y63.0724 
G01 X52.3285 Y63.2367 
G01 X52.3632 Y63.4111 
G01 X52.3632 Y63.5889 
G01 X52.3285 Y63.7633 
G01 X52.2604 Y63.9276 
G01 X52.1616 Y64.0755 
G01 X52.0359 Y64.2012 
G01 X51.8880 Y64.3000 
G01 X51.7237 Y64.3681 
G01 X51.5493 Y64.4028 
G00 Z2.5400 
G00 X51.5493 Y61.8628 
G01 Z-0.1500 F254.00 
G01 X50.0507 Y61.8628 F508.00 
G01 X49.8763 Y61.8281 
G01 X49.7120 Y61.7600 
G01 X49.5641 Y61.6612 
G01 X49.4383 Y61.5355 
G01 X49.3396 Y61.3876 
G01 X49.2715 Y61.2233 
G01 X49.2368 Y61.0489 
G01 X49.2368 Y60.8711 
G01 X49.2715 Y60.6967 
G01 X49.3396 Y60.5324 
G01 X49.4383 Y60.3845 
G01 X49.5641 Y60.2588 
G01 X49.7120 Y60.1600 
G01 X49.8763 Y60.0919 
G01 X50.0507 Y60.0572 
G01 X51.5493 Y60.0572 
G01 X51.7237 Y60.0919 
G01 X51.8880 Y60.1600 
G01 X52.0359 Y60.2588 
G01 X52.1616 Y60.3845 
G01 X52.2604 Y60.5324 
G01 X52.3285 Y60.6967 
G01 X52.3632 Y60.8711 
G01 X52.3632 Y61.0489 
G01 X52.3285 Y61.2233 
G01 X52.2604 Y61.3876 
G01 X52.1616 Y61.5355 
G01 X52.0359 Y61.6612 
G01 X51.8880 Y61.7600 
G01 X51.7237 Y61.8281 
G01 X51.5493 Y61.8628 
G00 Z2.5400 
G00 X51.5493 Y59.3228 
G01 Z-0.1500 F254.00 
G01 X50.0507 Y59.3228 F508.00 
G01 X49.8763 Y59.2881 
G01 X49.7120 Y59.2200 
G01 X49.5641 Y59.1212 
G01 X49.4383 Y58.9955 
G01 X49.3396 Y58.8476 
G01 X49.2715 Y58.6833 
G01 X49.2368 Y58.5089 
G01 X49.2368 Y58.3311 
G01 X49.2715 Y58.1567 
G01 X49.3396 Y57.9924 
G01 X49.4383 Y57.8445 
G01 X49.5641 Y57.7188 
G01 X49.7120 Y57.6200 
G01 X49.8763 Y57.5519 
G01 X50.0507 Y57.5172 
G01 X51.5493 Y57.5172 
G01 X51.7237 Y57.5519 
G01 X51.8880 Y57.6200 
G01 X52.0359 Y57.7188 
G01 X52.1616 Y57.8445 
G01 X52.2604 Y57.9924 
G01 X52.3285 Y58.1567 
G01 X52.3632 Y58.3311 
G01 X52.3632 Y58.5089 
G01 X52.3285 Y58.6833 
G01 X52.2604 Y58.8476 
G01 X52.1616 Y58.9955 
G01 X52.0359 Y59.1212 
G01 X51.8880 Y59.2200 
G01 X51.7237 Y59.2881 
G01 X51.5493 Y59.3228 
G00 Z2.5400 
G00 X51.5493 Y56.7828 
G01 Z-0.1500 F254.00 
G01 X50.0507 Y56.7828 F508.00 
G01 X49.8763 Y56.7481 
G01 X49.7120 Y56.6800 
G01 X49.5641 Y56.5812 
G01 X49.4383 Y56.4555 
G01 X49.3396 Y56.3076 
G01 X49.2715 Y56.1433 
G01 X49.2368 Y55.9689 
G01 X49.2368 Y55.7911 
G01 X49.2715 Y55.6167 
G01 X49.3396 Y55.4524 
G01 X49.4383 Y55.3045 
G01 X49.5641 Y55.1788 
G01 X49.7120 Y55.0800 
G01 X49.8763 Y55.0119 
G01 X50.0507 Y54.9772 
G01 X51.5493 Y54.9772 
G01 X51.7237 Y55.0119 
G01 X51.8880 Y55.0800 
G01 X52.0359 Y55.1788 
G01 X52.1616 Y55.3045 
G01 X52.2604 Y55.4524 
G01 X52.3285 Y55.6167 
G01 X52.3632 Y55.7911 
G01 X52.3632 Y55.9689 
G01 X52.3285 Y56.1433 
G01 X52.2604 Y56.3076 
G01 X52.1616 Y56.4555 
G01 X52.0359 Y56.5812 
G01 X51.8880 Y56.6800 
G01 X51.7237 Y56.7481 
G01 X51.5493 Y56.7828 
G00 Z2.5400 
G00 X51.5493 Y54.2428 
G01 Z-0.1500 F254.00 
G01 X50.0507 Y54.2428 F508.00 
G01 X49.8763 Y54.2081 
G01 X49.7120 Y54.1400 
G01 X49.5641 Y54.0412 
G01 X49.4383 Y53.9155 
G01 X49.3396 Y53.7676 
G01 X49.2715 Y53.6033 
G01 X49.2368 Y53.4289 
G01 X49.2368 Y53.2511 
G01 X49.2715 Y53.0767 
G01 X49.3396 Y52.9124 
G01 X49.4383 Y52.7645 
G01 X49.5641 Y52.6388 
G01 X49.7120 Y52.5400 
G01 X49.8763 Y52.4719 
G01 X50.0507 Y52.4372 
G01 X51.5493 Y52.4372 
G01 X51.7237 Y52.4719 
G01 X51.8880 Y52.5400 
G01 X52.0359 Y52.6388 
G01 X52.1616 Y52.7645 
G01 X52.2604 Y52.9124 
G01 X52.3285 Y53.0767 
G01 X52.3632 Y53.2511 
G01 X52.3632 Y53.4289 
G01 X52.3285 Y53.6033 
G01 X52.2604 Y53.7676 
G01 X52.1616 Y53.9155 
G01 X52.0359 Y54.0412 
G01 X51.8880 Y54.1400 
G01 X51.7237 Y54.2081 
G01 X51.5493 Y54.2428 
G00 Z2.5400 
G00 X51.5493 Y51.7028 
G01 Z-0.1500 F254.00 
G01 X50.0507 Y51.7028 F508.00 
G01 X49.8763 Y51.6681 
G01 X49.7120 Y51.6000 
G01 X49.5641 Y51.5012 
G01 X49.4383 Y51.3755 
G01 X49.3396 Y51.2276 
G01 X49.2715 Y51.0633 
G01 X49.2368 Y50.8889 
G01 X49.2368 Y50.7111 
G01 X49.2715 Y50.5367 
G01 X49.3396 Y50.3724 
G01 X49.4383 Y50.2245 
G01 X49.5641 Y50.0988 
G01 X49.7120 Y50.0000 
G01 X49.8763 Y49.9319 
G01 X50.0507 Y49.8972 
G01 X51.5493 Y49.8972 
G01 X51.7237 Y49.9319 
G01 X51.8880 Y50.0000 
G01 X52.0359 Y50.0988 
G01 X52.1616 Y50.2245 
G01 X52.2604 Y50.3724 
G01 X52.3285 Y50.5367 
G01 X52.3632 Y50.7111 
G01 X52.3632 Y50.8889 
G01 X52.3285 Y51.0633 
G01 X52.2604 Y51.2276 
G01 X52.1616 Y51.3755 
G01 X52.0359 Y51.5012 
G01 X51.8880 Y51.6000 
G01 X51.7237 Y51.6681 
G01 X51.5493 Y51.7028 
G00 Z2.5400 
G00 X51.5493 Y46.6228 
G01 Z-0.1500 F254.00 
G01 X50.0507 Y46.6228 F508.00 
G01 X49.8763 Y46.5881 
G01 X49.7120 Y46.5200 
G01 X49.5641 Y46.4212 
G01 X49.4383 Y46.2955 
G01 X49.3396 Y46.1476 
G01 X49.2715 Y45.9833 
G01 X49.2368 Y45.8089 
G01 X49.2368 Y45.6311 
G01 X49.2715 Y45.4567 
G01 X49.3396 Y45.2924 
G01 X49.4383 Y45.1445 
G01 X49.5641 Y45.0188 
G01 X49.7120 Y44.9200 
G01 X49.8763 Y44.8519 
G01 X50.0507 Y44.8172 
G01 X51.5493 Y44.8172 
G01 X51.7237 Y44.8519 
G01 X51.8880 Y44.9200 
G01 X52.0359 Y45.0188 
G01 X52.1616 Y45.1445 
G01 X52.2604 Y45.2924 
G01 X52.3285 Y45.4567 
G01 X52.3632 Y45.6311 
G01 X52.3632 Y45.8089 
G01 X52.3285 Y45.9833 
G01 X52.2604 Y46.1476 
G01 X52.1616 Y46.2955 
G01 X52.0359 Y46.4212 
G01 X51.8880 Y46.5200 
G01 X51.7237 Y46.5881 
G01 X51.5493 Y46.6228 
G00 Z2.5400 
G00 X51.5493 Y44.0828 
G01 Z-0.1500 F254.00 
G01 X50.0507 Y44.0828 F508.00 
G01 X49.8763 Y44.0481 
G01 X49.7120 Y43.9800 
G01 X49.5641 Y43.8812 
G01 X49.4383 Y43.7555 
G01 X49.3396 Y43.6076 
G01 X49.2715 Y43.4433 
G01 X49.2368 Y43.2689 
G01 X49.2368 Y43.0911 
G01 X49.2715 Y42.9167 
G01 X49.3396 Y42.7524 
G01 X49.4383 Y42.6045 
G01 X49.5641 Y42.4788 
G01 X49.7120 Y42.3800 
G01 X49.8763 Y42.3119 
G01 X50.0507 Y42.2772 
G01 X51.5493 Y42.2772 
G01 X51.7237 Y42.3119 
G01 X51.8880 Y42.3800 
G01 X52.0359 Y42.4788 
G01 X52.1616 Y42.6045 
G01 X52.2604 Y42.7524 
G01 X52.3285 Y42.9167 
G01 X52.3632 Y43.0911 
G01 X52.3632 Y43.2689 
G01 X52.3285 Y43.4433 
G01 X52.2604 Y43.6076 
G01 X52.1616 Y43.7555 
G01 X52.0359 Y43.8812 
G01 X51.8880 Y43.9800 
G01 X51.7237 Y44.0481 
G01 X51.5493 Y44.0828 
G00 Z2.5400 
G00 X51.5493 Y41.5428 
G01 Z-0.1500 F254.00 
G01 X50.0507 Y41.5428 F508.00 
G01 X49.8763 Y41.5081 
G01 X49.7120 Y41.4400 
G01 X49.5641 Y41.3412 
G01 X49.4383 Y41.2155 
G01 X49.3396 Y41.0676 
G01 X49.2715 Y40.9033 
G01 X49.2368 Y40.7289 
G01 X49.2368 Y40.5511 
G01 X49.2715 Y40.3767 
G01 X49.3396 Y40.2124 
G01 X49.4383 Y40.0645 
G01 X49.5641 Y39.9387 
G01 X49.7120 Y39.8400 
G01 X49.8763 Y39.7719 
G01 X50.0507 Y39.7372 
G01 X51.5493 Y39.7372 
G01 X51.7237 Y39.7719 
G01 X51.8880 Y39.8400 
G01 X52.0359 Y39.9387 
G01 X52.1616 Y40.0645 
G01 X52.2604 Y40.2124 
G01 X52.3285 Y40.3767 
G01 X52.3632 Y40.5511 
G01 X52.3632 Y40.7289 
G01 X52.3285 Y40.9033 
G01 X52.2604 Y41.0676 
G01 X52.1616 Y41.2155 
G01 X52.0359 Y41.3412 
G01 X51.8880 Y41.4400 
G01 X51.7237 Y41.5081 
G01 X51.5493 Y41.5428 
G00 Z2.5400 
G00 X51.5493 Y39.0028 
G01 Z-0.1500 F254.00 
G01 X50.0507 Y39.0028 F508.00 
G01 X49.8763 Y38.9681 
G01 X49.7120 Y38.9000 
G01 X49.5641 Y38.8012 
G01 X49.4383 Y38.6755 
G01 X49.3396 Y38.5276 
G01 X49.2715 Y38.3633 
G01 X49.2368 Y38.1889 
G01 X49.2368 Y38.0111 
G01 X49.2715 Y37.8367 
G01 X49.3396 Y37.6724 
G01 X49.4383 Y37.5245 
G01 X49.5641 Y37.3987 
G01 X49.7120 Y37.3000 
G01 X49.8763 Y37.2319 
G01 X50.0507 Y37.1972 
G01 X51.5493 Y37.1972 
G01 X51.7237 Y37.2319 
G01 X51.8880 Y37.3000 
G01 X52.0359 Y37.3987 
G01 X52.1616 Y37.5245 
G01 X52.2604 Y37.6724 
G01 X52.3285 Y37.8367 
G01 X52.3632 Y38.0111 
G01 X52.3632 Y38.1889 
G01 X52.3285 Y38.3633 
G01 X52.2604 Y38.5276 
G01 X52.1616 Y38.6755 
G01 X52.0359 Y38.8012 
G01 X51.8880 Y38.9000 
G01 X51.7237 Y38.9681 
G01 X51.5493 Y39.0028 
G00 Z2.5400 
G00 X51.5493 Y36.4628 
G01 Z-0.1500 F254.00 
G01 X50.0507 Y36.4628 F508.00 
G01 X49.8763 Y36.4281 
G01 X49.7120 Y36.3600 
G01 X49.5641 Y36.2612 
G01 X49.4383 Y36.1355 
G01 X49.3396 Y35.9876 
G01 X49.2715 Y35.8233 
G01 X49.2368 Y35.6489 
G01 X49.2368 Y35.4711 
G01 X49.2715 Y35.2967 
G01 X49.3396 Y35.1324 
G01 X49.4383 Y34.9845 
G01 X49.5641 Y34.8588 
G01 X49.7120 Y34.7600 
G01 X49.8763 Y34.6919 
G01 X50.0507 Y34.6572 
G01 X51.5493 Y34.6572 
G01 X51.7237 Y34.6919 
G01 X51.8880 Y34.7600 
G01 X52.0359 Y34.8588 
G01 X52.1616 Y34.9845 
G01 X52.2604 Y35.1324 
G01 X52.3285 Y35.2967 
G01 X52.3632 Y35.4711 
G01 X52.3632 Y35.6489 
G01 X52.3285 Y35.8233 
G01 X52.2604 Y35.9876 
G01 X52.1616 Y36.1355 
G01 X52.0359 Y36.2612 
G01 X51.8880 Y36.3600 
G01 X51.7237 Y36.4281 
G01 X51.5493 Y36.4628 
G00 Z2.5400 
G00 X43.9293 Y36.4628 
G01 Z-0.1500 F254.00 
G01 X42.4307 Y36.4628 F508.00 
G01 X42.2563 Y36.4281 
G01 X42.0920 Y36.3600 
G01 X41.9441 Y36.2612 
G01 X41.8184 Y36.1355 
G01 X41.7196 Y35.9876 
G01 X41.6515 Y35.8233 
G01 X41.6168 Y35.6489 
G01 X41.6168 Y35.4711 
G01 X41.6515 Y35.2967 
G01 X41.7196 Y35.1324 
G01 X41.8184 Y34.9845 
G01 X41.9441 Y34.8588 
G01 X42.0920 Y34.7600 
G01 X42.2563 Y34.6919 
G01 X42.4307 Y34.6572 
G01 X43.9293 Y34.6572 
G01 X44.1037 Y34.6919 
G01 X44.2680 Y34.7600 
G01 X44.4159 Y34.8588 
G01 X44.5416 Y34.9845 
G01 X44.6404 Y35.1324 
G01 X44.7085 Y35.2967 
G01 X44.7432 Y35.4711 
G01 X44.7432 Y35.6489 
G01 X44.7085 Y35.8233 
G01 X44.6404 Y35.9876 
G01 X44.5416 Y36.1355 
G01 X44.4159 Y36.2612 
G01 X44.2680 Y36.3600 
G01 X44.1037 Y36.4281 
G01 X43.9293 Y36.4628 
G00 Z2.5400 
G00 X43.9293 Y39.0028 
G01 Z-0.1500 F254.00 
G01 X42.4307 Y39.0028 F508.00 
G01 X42.2563 Y38.9681 
G01 X42.0920 Y38.9000 
G01 X41.9441 Y38.8012 
G01 X41.8184 Y38.6755 
G01 X41.7196 Y38.5276 
G01 X41.6515 Y38.3633 
G01 X41.6168 Y38.1889 
G01 X41.6168 Y38.0111 
G01 X41.6515 Y37.8367 
G01 X41.7196 Y37.6724 
G01 X41.8184 Y37.5245 
G01 X41.9441 Y37.3987 
G01 X42.0920 Y37.3000 
G01 X42.2563 Y37.2319 
G01 X42.4307 Y37.1972 
G01 X43.9293 Y37.1972 
G01 X44.1037 Y37.2319 
G01 X44.2680 Y37.3000 
G01 X44.4159 Y37.3987 
G01 X44.5416 Y37.5245 
G01 X44.6404 Y37.6724 
G01 X44.7085 Y37.8367 
G01 X44.7432 Y38.0111 
G01 X44.7432 Y38.1889 
G01 X44.7085 Y38.3633 
G01 X44.6404 Y38.5276 
G01 X44.5416 Y38.6755 
G01 X44.4159 Y38.8012 
G01 X44.2680 Y38.9000 
G01 X44.1037 Y38.9681 
G01 X43.9293 Y39.0028 
G00 Z2.5400 
G00 X43.9293 Y41.5428 
G01 Z-0.1500 F254.00 
G01 X42.4307 Y41.5428 F508.00 
G01 X42.2563 Y41.5081 
G01 X42.0920 Y41.4400 
G01 X41.9441 Y41.3412 
G01 X41.8184 Y41.2155 
G01 X41.7196 Y41.0676 
G01 X41.6515 Y40.9033 
G01 X41.6168 Y40.7289 
G01 X41.6168 Y40.5511 
G01 X41.6515 Y40.3767 
G01 X41.7196 Y40.2124 
G01 X41.8184 Y40.0645 
G01 X41.9441 Y39.9387 
G01 X42.0920 Y39.8400 
G01 X42.2563 Y39.7719 
G01 X42.4307 Y39.7372 
G01 X43.9293 Y39.7372 
G01 X44.1037 Y39.7719 
G01 X44.2680 Y39.8400 
G01 X44.4159 Y39.9387 
G01 X44.5416 Y40.0645 
G01 X44.6404 Y40.2124 
G01 X44.7085 Y40.3767 
G01 X44.7432 Y40.5511 
G01 X44.7432 Y40.7289 
G01 X44.7085 Y40.9033 
G01 X44.6404 Y41.0676 
G01 X44.5416 Y41.2155 
G01 X44.4159 Y41.3412 
G01 X44.2680 Y41.4400 
G01 X44.1037 Y41.5081 
G01 X43.9293 Y41.5428 
G00 Z2.5400 
G00 X43.9293 Y44.0828 
G01 Z-0.1500 F254.00 
G01 X42.4307 Y44.0828 F508.00 
G01 X42.2563 Y44.0481 
G01 X42.0920 Y43.9800 
G01 X41.9441 Y43.8812 
G01 X41.8184 Y43.7555 
G01 X41.7196 Y43.6076 
G01 X41.6515 Y43.4433 
G01 X41.6168 Y43.2689 
G01 X41.6168 Y43.0911 
G01 X41.6515 Y42.9167 
G01 X41.7196 Y42.7524 
G01 X41.8184 Y42.6045 
G01 X41.9441 Y42.4788 
G01 X42.0920 Y42.3800 
G01 X42.2563 Y42.3119 
G01 X42.4307 Y42.2772 
G01 X43.9293 Y42.2772 
G01 X44.1037 Y42.3119 
G01 X44.2680 Y42.3800 
G01 X44.4159 Y42.4788 
G01 X44.5416 Y42.6045 
G01 X44.6404 Y42.7524 
G01 X44.7085 Y42.9167 
G01 X44.7432 Y43.0911 
G01 X44.7432 Y43.2689 
G01 X44.7085 Y43.4433 
G01 X44.6404 Y43.6076 
G01 X44.5416 Y43.7555 
G01 X44.4159 Y43.8812 
G01 X44.2680 Y43.9800 
G01 X44.1037 Y44.0481 
G01 X43.9293 Y44.0828 
G00 Z2.5400 
G00 X43.9293 Y54.2428 
G01 Z-0.1500 F254.00 
G01 X42.4307 Y54.2428 F508.00 
G01 X42.2563 Y54.2081 
G01 X42.0920 Y54.1400 
G01 X41.9441 Y54.0412 
G01 X41.8184 Y53.9155 
G01 X41.7196 Y53.7676 
G01 X41.6515 Y53.6033 
G01 X41.6168 Y53.4289 
G01 X41.6168 Y53.2511 
G01 X41.6515 Y53.0767 
G01 X41.7196 Y52.9124 
G01 X41.8184 Y52.7645 
G01 X41.9441 Y52.6388 
G01 X42.0920 Y52.5400 
G01 X42.2563 Y52.4719 
G01 X42.4307 Y52.4372 
G01 X43.5604 Y52.4372 
G01 X47.9644 Y48.0332 
G01 X48.0332 Y47.9644 
G01 X48.1174 Y47.9158 
G01 X48.2114 Y47.8906 
G01 X49.3154 Y47.8906 
G01 X49.3396 Y47.8324 
G01 X49.4383 Y47.6845 
G01 X49.5641 Y47.5588 
G01 X49.7120 Y47.4599 
G01 X49.8763 Y47.3919 
G01 X50.0507 Y47.3572 
G01 X51.5493 Y47.3572 
G01 X51.7237 Y47.3919 
G01 X51.8880 Y47.4599 
G01 X52.0359 Y47.5588 
G01 X52.1616 Y47.6845 
G01 X52.2604 Y47.8324 
G01 X52.3285 Y47.9967 
G01 X52.3632 Y48.1711 
G01 X52.3632 Y48.3489 
G01 X52.3285 Y48.5233 
G01 X52.2604 Y48.6876 
G01 X52.1616 Y48.8355 
G01 X52.0359 Y48.9612 
G01 X52.0286 Y48.9661 
G01 X53.6356 Y50.5732 
G01 X53.6842 Y50.6574 
G01 X53.7094 Y50.7514 
G01 X53.7094 Y81.1270 
G01 X56.8300 Y84.2476 
G01 X57.2282 Y84.2476 
G01 X57.3173 Y84.2845 
G01 X57.3855 Y84.3527 
G01 X57.4224 Y84.4418 
G01 X57.4224 Y84.8400 
G01 X57.4456 Y84.8632 
G01 X57.4942 Y84.9474 
G01 X57.5194 Y85.0414 
G01 X57.5194 Y88.9486 
G01 X57.4942 Y89.0426 
G01 X57.4456 Y89.1268 
G01 X57.4224 Y89.1500 
G01 X57.4224 Y89.5482 
G01 X57.3855 Y89.6373 
G01 X57.3173 Y89.7055 
G01 X57.2282 Y89.7424 
G01 X56.3318 Y89.7424 
