(.../pcb-gcode-3.6.0.4/pcb-gcode.ulp)
(Copyright 2005 - 2012 by John Johnson)
(See readme.txt for licensing terms.)
(This file generated from the board:)
(.../eagle/ARMEDBASE_V0/RTU/RTU.brd)
(Current profile is .../pcb-gcode-3.6.0.4/profiles/emc.pp  )
(This file generated 7/2/2014 12:54:31 PM)
(Settings from pcb-machine.h)
(  Tool Size)
(0.1000 )
(Z Axis Settings)
(  High     Up        Down     Drill)
(15.0000 	2.0000 	-0.1000 	-1.0000 )
(spindle on time = 1.0000)
(milling depth = -0.1000)
(text depth = -0.1000)
(tool change at 15.0000 15.0000 15.0000 )
(feed rate xy = F508.00 )
(feed rate z  = F254.00 )
(Settings from pcb-defaults.h)
(isolate min = 0.0200)
(isolate max = 0.3000)
(isolate step = 0.1000)
(Generated top outlines, top drill, bottom outlines, bottom drill, )
(Unit of measure: mm)
(Metric Mode)
G21
(Absolute Coordinates)
G90
G00 X0.0000 Y0.0000 
M03
G04 P1.000000
G00 Z2.0000 
G00 X57.6939 Y65.0200 
G01 Z-0.1000 F254.00 
G01 X56.2661 Y65.0200 F508.00 
G01 X56.2403 Y65.0093 
G01 X56.2207 Y64.9896 
G01 X56.2100 Y64.9639 
G01 X56.2100 Y64.7200 
G01 X46.7062 Y64.7200 
G01 X46.6254 Y64.6865 
G01 X46.5635 Y64.6246 
G01 X46.5300 Y64.5438 
G01 X46.5300 Y63.8411 
G01 X46.4089 Y63.7200 
G01 X41.9562 Y63.7200 
G01 X41.8754 Y63.6865 
G01 X41.8135 Y63.6246 
G01 X41.7800 Y63.5438 
G01 X41.7800 Y63.0700 
G01 X41.2961 Y63.0700 
G01 X41.2703 Y63.0593 
G01 X41.2507 Y63.0397 
G01 X41.2400 Y63.0139 
G01 X41.2400 Y62.1861 
G01 X41.2507 Y62.1603 
G01 X41.2703 Y62.1407 
G01 X41.2961 Y62.1300 
G01 X41.7800 Y62.1300 
G01 X41.7800 Y59.2901 
G01 X41.5496 Y59.2901 
G01 X41.0399 Y58.7804 
G01 X41.0399 Y58.7200 
G01 X31.4700 Y58.7200 
G01 X31.4700 Y58.9915 
G01 X31.4850 Y58.9977 
G01 X31.6130 Y59.0832 
G01 X31.7218 Y59.1920 
G01 X31.8073 Y59.3200 
G01 X31.8662 Y59.4621 
G01 X31.8962 Y59.6131 
G01 X31.8962 Y59.7669 
G01 X31.8662 Y59.9179 
G01 X31.8073 Y60.0600 
G01 X31.7218 Y60.1880 
G01 X31.6130 Y60.2968 
G01 X31.4850 Y60.3823 
G01 X31.3429 Y60.4412 
G01 X31.1919 Y60.4712 
G01 X31.0381 Y60.4712 
G01 X30.8871 Y60.4412 
G01 X30.7450 Y60.3823 
G01 X30.6170 Y60.2968 
G01 X30.5082 Y60.1880 
G01 X30.4227 Y60.0600 
G01 X30.3638 Y59.9179 
G01 X30.3338 Y59.7669 
G01 X30.3338 Y59.6131 
G01 X30.3638 Y59.4621 
G01 X30.4227 Y59.3200 
G01 X30.5082 Y59.1920 
G01 X30.6170 Y59.0832 
G01 X30.7450 Y58.9977 
G01 X30.8871 Y58.9388 
G01 X31.0300 Y58.9104 
G01 X31.0300 Y48.3600 
G01 X29.8661 Y48.3600 
G01 X29.8403 Y48.3493 
G01 X29.8207 Y48.3297 
G01 X29.8100 Y48.3039 
G01 X29.8100 Y47.4761 
G01 X29.8207 Y47.4503 
G01 X29.8403 Y47.4307 
G01 X29.8661 Y47.4200 
G01 X31.0939 Y47.4200 
G01 X31.1197 Y47.4307 
G01 X31.1393 Y47.4503 
G01 X31.1500 Y47.4761 
G01 X31.1500 Y47.7800 
G01 X33.6200 Y47.7800 
G01 X33.6200 Y47.4761 
G01 X33.6307 Y47.4503 
G01 X33.6503 Y47.4307 
G01 X33.6761 Y47.4200 
G01 X34.9039 Y47.4200 
G01 X34.9297 Y47.4307 
G01 X34.9493 Y47.4503 
G01 X34.9600 Y47.4761 
G01 X34.9600 Y47.7800 
G01 X37.4300 Y47.7800 
G01 X37.4300 Y47.4761 
G01 X37.4407 Y47.4503 
G01 X37.4603 Y47.4307 
G01 X37.4861 Y47.4200 
G01 X38.2689 Y47.4200 
G01 X39.0300 Y46.6589 
G01 X39.0300 Y44.8411 
G01 X37.0635 Y42.8746 
G01 X37.0300 Y42.7938 
G01 X37.0300 Y26.7653 
G01 X36.9019 Y26.7908 
G01 X36.7581 Y26.7908 
G01 X36.6169 Y26.7627 
G01 X36.4840 Y26.7077 
G01 X36.3644 Y26.6277 
G01 X36.2627 Y26.5260 
G01 X36.1827 Y26.4064 
G01 X36.1277 Y26.2735 
G01 X36.0996 Y26.1323 
G01 X36.0996 Y24.6677 
G01 X36.1277 Y24.5265 
G01 X36.1827 Y24.3936 
G01 X36.2627 Y24.2740 
G01 X36.3644 Y24.1723 
G01 X36.4840 Y24.0923 
G01 X36.6169 Y24.0373 
G01 X36.7581 Y24.0092 
G01 X36.9019 Y24.0092 
G01 X37.0431 Y24.0373 
G01 X37.1760 Y24.0923 
G01 X37.2956 Y24.1723 
G01 X37.3973 Y24.2740 
G01 X37.4773 Y24.3936 
G01 X37.5323 Y24.5265 
G01 X37.5604 Y24.6677 
G01 X37.5604 Y26.1323 
G01 X37.5323 Y26.2735 
G01 X37.4773 Y26.4064 
G01 X37.4700 Y26.4173 
G01 X37.4700 Y42.6589 
G01 X39.3746 Y44.5635 
G01 X39.4365 Y44.6254 
G01 X39.4700 Y44.7062 
G01 X39.4700 Y46.7938 
G01 X39.4365 Y46.8746 
G01 X38.7700 Y47.5411 
G01 X38.7700 Y48.3039 
G01 X38.7593 Y48.3297 
G01 X38.7397 Y48.3493 
G01 X38.7139 Y48.3600 
G01 X37.4861 Y48.3600 
G01 X37.4603 Y48.3493 
G01 X37.4407 Y48.3297 
G01 X37.4300 Y48.3039 
G01 X37.4300 Y48.2200 
G01 X34.9600 Y48.2200 
G01 X34.9600 Y48.3039 
G01 X34.9493 Y48.3297 
G01 X34.9297 Y48.3493 
G01 X34.9039 Y48.3600 
G01 X33.6761 Y48.3600 
G01 X33.6503 Y48.3493 
G01 X33.6307 Y48.3297 
G01 X33.6200 Y48.3039 
G01 X33.6200 Y48.2200 
G01 X31.4700 Y48.2200 
G01 X31.4700 Y58.2800 
G01 X41.0399 Y58.2800 
G01 X41.0399 Y58.0596 
G01 X41.5496 Y57.5499 
G01 X42.2704 Y57.5499 
G01 X42.7801 Y58.0596 
G01 X42.7801 Y58.7804 
G01 X42.2704 Y59.2901 
G01 X42.2200 Y59.2901 
G01 X42.2200 Y62.1300 
G01 X42.5239 Y62.1300 
G01 X42.5496 Y62.1407 
G01 X42.5693 Y62.1603 
G01 X42.5800 Y62.1861 
G01 X42.5800 Y63.0139 
G01 X42.5693 Y63.0397 
G01 X42.5496 Y63.0593 
G01 X42.5239 Y63.0700 
G01 X42.2200 Y63.0700 
G01 X42.2200 Y63.2800 
G01 X46.5438 Y63.2800 
G01 X46.6246 Y63.3135 
G01 X46.6865 Y63.3754 
G01 X46.9365 Y63.6254 
G01 X46.9700 Y63.7062 
G01 X46.9700 Y64.2800 
G01 X56.2100 Y64.2800 
G01 X56.2100 Y63.9361 
G01 X56.2207 Y63.9103 
G01 X56.2403 Y63.8907 
G01 X56.2661 Y63.8800 
G01 X57.6939 Y63.8800 
G01 X57.7197 Y63.8907 
G01 X57.7393 Y63.9103 
G01 X57.7500 Y63.9361 
G01 X57.7500 Y64.9639 
G01 X57.7393 Y64.9896 
G01 X57.7197 Y65.0093 
G01 X57.6939 Y65.0200 
G00 Z2.0000 
G00 X57.6939 Y63.1200 
G01 Z-0.1000 F254.00 
G01 X56.2661 Y63.1200 F508.00 
G01 X56.2403 Y63.1093 
G01 X56.2207 Y63.0897 
G01 X56.2100 Y63.0639 
G01 X56.2100 Y62.0361 
G01 X56.2207 Y62.0103 
G01 X56.2403 Y61.9907 
G01 X56.2661 Y61.9800 
G01 X57.6939 Y61.9800 
G01 X57.7197 Y61.9907 
G01 X57.7393 Y62.0103 
G01 X57.7500 Y62.0361 
G01 X57.7500 Y62.5300 
G01 X58.2938 Y62.5300 
G01 X58.3746 Y62.5635 
G01 X58.4365 Y62.6254 
G01 X58.4700 Y62.7062 
G01 X58.4700 Y65.0438 
G01 X58.4365 Y65.1246 
G01 X57.9365 Y65.6246 
G01 X57.8746 Y65.6865 
G01 X57.7938 Y65.7200 
G01 X45.7062 Y65.7200 
G01 X45.6254 Y65.6865 
G01 X45.5635 Y65.6246 
G01 X45.5300 Y65.5438 
G01 X45.5300 Y64.8700 
G01 X45.1061 Y64.8700 
G01 X45.0803 Y64.8593 
G01 X45.0607 Y64.8397 
G01 X45.0500 Y64.8139 
G01 X45.0500 Y64.7200 
G01 X42.5800 Y64.7200 
G01 X42.5800 Y64.8139 
G01 X42.5693 Y64.8397 
G01 X42.5496 Y64.8593 
G01 X42.5239 Y64.8700 
G01 X41.2961 Y64.8700 
G01 X41.2703 Y64.8593 
G01 X41.2507 Y64.8397 
G01 X41.2400 Y64.8139 
G01 X41.2400 Y63.9861 
G01 X41.2507 Y63.9603 
G01 X41.2703 Y63.9407 
G01 X41.2961 Y63.9300 
G01 X42.5239 Y63.9300 
G01 X42.5496 Y63.9407 
G01 X42.5693 Y63.9603 
G01 X42.5800 Y63.9861 
G01 X42.5800 Y64.2800 
G01 X45.0500 Y64.2800 
G01 X45.0500 Y63.9861 
G01 X45.0607 Y63.9603 
G01 X45.0803 Y63.9407 
G01 X45.1061 Y63.9300 
G01 X46.3339 Y63.9300 
G01 X46.3597 Y63.9407 
G01 X46.3793 Y63.9603 
G01 X46.3900 Y63.9861 
G01 X46.3900 Y64.8139 
G01 X46.3793 Y64.8397 
G01 X46.3597 Y64.8593 
G01 X46.3339 Y64.8700 
G01 X45.9700 Y64.8700 
G01 X45.9700 Y65.2800 
G01 X57.6589 Y65.2800 
G01 X58.0300 Y64.9089 
G01 X58.0300 Y62.9700 
G01 X57.7500 Y62.9700 
G01 X57.7500 Y63.0639 
G01 X57.7393 Y63.0897 
G01 X57.7197 Y63.1093 
G01 X57.6939 Y63.1200 
G00 Z2.0000 
G00 X34.4362 Y59.6131 
G01 Z-0.1000 F254.00 
G01 X34.4362 Y59.7669 F508.00 
G01 X34.4062 Y59.9179 
G01 X34.3473 Y60.0600 
G01 X34.2618 Y60.1880 
G01 X34.1530 Y60.2968 
G01 X34.0250 Y60.3823 
G01 X33.8829 Y60.4412 
G01 X33.7319 Y60.4712 
G01 X33.5781 Y60.4712 
G01 X33.4271 Y60.4412 
G01 X33.2850 Y60.3823 
G01 X33.1570 Y60.2968 
G01 X33.0482 Y60.1880 
G01 X32.9627 Y60.0600 
G01 X32.9038 Y59.9179 
G01 X32.8738 Y59.7669 
G01 X32.8738 Y59.6131 
G01 X32.9038 Y59.4621 
G01 X32.9627 Y59.3200 
G01 X33.0482 Y59.1920 
G01 X33.1570 Y59.0832 
G01 X33.2850 Y58.9977 
G01 X33.4271 Y58.9388 
G01 X33.5781 Y58.9088 
G01 X33.7319 Y58.9088 
G01 X33.8829 Y58.9388 
G01 X34.0250 Y58.9977 
G01 X34.1530 Y59.0832 
G01 X34.2618 Y59.1920 
G01 X34.3473 Y59.3200 
G01 X34.4062 Y59.4621 
G01 X34.4362 Y59.6131 
G00 Z2.0000 
G00 X33.1662 Y57.0731 
G01 Z-0.1000 F254.00 
G01 X33.1662 Y57.2269 F508.00 
G01 X33.1362 Y57.3779 
G01 X33.0773 Y57.5200 
G01 X32.9918 Y57.6480 
G01 X32.8830 Y57.7568 
G01 X32.7550 Y57.8423 
G01 X32.6129 Y57.9012 
G01 X32.4619 Y57.9312 
G01 X32.3081 Y57.9312 
G01 X32.1571 Y57.9012 
G01 X32.0150 Y57.8423 
G01 X31.8870 Y57.7568 
G01 X31.7782 Y57.6480 
G01 X31.6927 Y57.5200 
G01 X31.6338 Y57.3779 
G01 X31.6038 Y57.2269 
G01 X31.6038 Y57.0731 
G01 X31.6338 Y56.9221 
G01 X31.6927 Y56.7800 
G01 X31.7782 Y56.6520 
G01 X31.8870 Y56.5432 
G01 X32.0150 Y56.4577 
G01 X32.1571 Y56.3988 
G01 X32.3081 Y56.3688 
G01 X32.4619 Y56.3688 
G01 X32.6129 Y56.3988 
G01 X32.7550 Y56.4577 
G01 X32.8830 Y56.5432 
G01 X32.9918 Y56.6520 
G01 X33.0773 Y56.7800 
G01 X33.1362 Y56.9221 
G01 X33.1662 Y57.0731 
G00 Z2.0000 
G00 X30.6262 Y57.0731 
G01 Z-0.1000 F254.00 
G01 X30.6262 Y57.2269 F508.00 
G01 X30.5962 Y57.3779 
G01 X30.5373 Y57.5200 
G01 X30.4518 Y57.6480 
G01 X30.3430 Y57.7568 
G01 X30.2150 Y57.8423 
G01 X30.0729 Y57.9012 
G01 X29.9219 Y57.9312 
G01 X29.7681 Y57.9312 
G01 X29.6171 Y57.9012 
G01 X29.4750 Y57.8423 
G01 X29.3470 Y57.7568 
G01 X29.2382 Y57.6480 
G01 X29.1527 Y57.5200 
G01 X29.0938 Y57.3779 
G01 X29.0638 Y57.2269 
G01 X29.0638 Y57.0731 
G01 X29.0938 Y56.9221 
G01 X29.1527 Y56.7800 
G01 X29.2382 Y56.6520 
G01 X29.3470 Y56.5432 
G01 X29.4750 Y56.4577 
G01 X29.6171 Y56.3988 
G01 X29.7681 Y56.3688 
G01 X29.9219 Y56.3688 
G01 X30.0729 Y56.3988 
G01 X30.2150 Y56.4577 
G01 X30.3430 Y56.5432 
G01 X30.4518 Y56.6520 
G01 X30.5373 Y56.7800 
G01 X30.5962 Y56.9221 
G01 X30.6262 Y57.0731 
G00 Z2.0000 
G00 X50.4001 Y52.9796 
G01 Z-0.1000 F254.00 
G01 X50.4001 Y53.5890 F508.00 
G01 X51.1246 Y54.3135 
G01 X51.1865 Y54.3754 
G01 X54.5626 Y57.7515 
G01 X54.5661 Y57.7500 
G01 X55.3939 Y57.7500 
G01 X55.4197 Y57.7607 
G01 X55.4393 Y57.7803 
G01 X55.4500 Y57.8061 
G01 X55.4500 Y59.0339 
G01 X55.4393 Y59.0597 
G01 X55.4197 Y59.0793 
G01 X55.3939 Y59.0900 
G01 X55.2200 Y59.0900 
G01 X55.2200 Y62.9300 
G01 X55.4939 Y62.9300 
G01 X55.5197 Y62.9407 
G01 X55.5393 Y62.9603 
G01 X55.5500 Y62.9861 
G01 X55.5500 Y64.0139 
G01 X55.5393 Y64.0397 
G01 X55.5197 Y64.0593 
G01 X55.4939 Y64.0700 
G01 X54.0661 Y64.0700 
G01 X54.0403 Y64.0593 
G01 X54.0207 Y64.0397 
G01 X54.0100 Y64.0139 
G01 X54.0100 Y62.9861 
G01 X54.0207 Y62.9603 
G01 X54.0403 Y62.9407 
G01 X54.0661 Y62.9300 
G01 X54.7800 Y62.9300 
G01 X54.7800 Y59.0900 
G01 X54.5661 Y59.0900 
G01 X54.5403 Y59.0793 
G01 X54.5207 Y59.0597 
G01 X54.5100 Y59.0339 
G01 X54.5100 Y58.3211 
G01 X51.0000 Y54.8111 
G01 X50.3458 Y55.4653 
G01 X50.4001 Y55.5196 
G01 X50.4001 Y56.2404 
G01 X49.8904 Y56.7501 
G01 X49.1696 Y56.7501 
G01 X48.6599 Y56.2404 
G01 X48.6599 Y55.5196 
G01 X49.1696 Y55.0099 
G01 X49.8904 Y55.0099 
G01 X50.0347 Y55.1542 
G01 X50.6889 Y54.5000 
G01 X50.1447 Y53.9558 
G01 X49.8904 Y54.2101 
G01 X49.1696 Y54.2101 
G01 X48.6599 Y53.7004 
G01 X48.6599 Y52.9796 
G01 X49.1696 Y52.4699 
G01 X49.8904 Y52.4699 
G01 X50.4001 Y52.9796 
G00 Z2.0000 
G00 X50.4001 Y58.0596 
G01 Z-0.1000 F254.00 
G01 X50.4001 Y58.7804 F508.00 
G01 X49.8904 Y59.2901 
G01 X49.2710 Y59.2901 
G01 X48.4365 Y60.1246 
G01 X46.3856 Y62.1755 
G01 X46.3900 Y62.1861 
G01 X46.3900 Y63.0139 
G01 X46.3793 Y63.0397 
G01 X46.3597 Y63.0593 
G01 X46.3339 Y63.0700 
G01 X45.1061 Y63.0700 
G01 X45.0803 Y63.0593 
G01 X45.0607 Y63.0397 
G01 X45.0500 Y63.0139 
G01 X45.0500 Y62.1861 
G01 X45.0607 Y62.1603 
G01 X45.0803 Y62.1407 
G01 X45.1061 Y62.1300 
G01 X45.8089 Y62.1300 
G01 X48.0300 Y59.9089 
G01 X48.0300 Y26.7062 
G01 X48.0635 Y26.6254 
G01 X48.1254 Y26.5635 
G01 X48.7996 Y25.8893 
G01 X48.7996 Y24.6677 
G01 X48.8277 Y24.5265 
G01 X48.8827 Y24.3936 
G01 X48.9627 Y24.2740 
G01 X49.0644 Y24.1723 
G01 X49.1840 Y24.0923 
G01 X49.3169 Y24.0373 
G01 X49.4581 Y24.0092 
G01 X49.6019 Y24.0092 
G01 X49.7431 Y24.0373 
G01 X49.8760 Y24.0923 
G01 X49.9956 Y24.1723 
G01 X50.0973 Y24.2740 
G01 X50.1773 Y24.3936 
G01 X50.2323 Y24.5265 
G01 X50.2604 Y24.6677 
G01 X50.2604 Y26.1323 
G01 X50.2323 Y26.2735 
G01 X50.1773 Y26.4064 
G01 X50.0973 Y26.5260 
G01 X49.9956 Y26.6277 
G01 X49.8760 Y26.7077 
G01 X49.7431 Y26.7627 
G01 X49.6019 Y26.7908 
G01 X49.4581 Y26.7908 
G01 X49.3169 Y26.7627 
G01 X49.1840 Y26.7077 
G01 X49.0644 Y26.6277 
G01 X48.9627 Y26.5260 
G01 X48.8915 Y26.4196 
G01 X48.4700 Y26.8411 
G01 X48.4700 Y59.4689 
G01 X48.9092 Y59.0297 
G01 X48.6599 Y58.7804 
G01 X48.6599 Y58.0596 
G01 X49.1696 Y57.5499 
G01 X49.8904 Y57.5499 
G01 X50.4001 Y58.0596 
G00 Z2.0000 
G00 X42.7801 Y55.5196 
G01 Z-0.1000 F254.00 
G01 X42.7801 Y56.2404 F508.00 
G01 X42.2704 Y56.7501 
G01 X41.5496 Y56.7501 
G01 X41.0399 Y56.2404 
G01 X41.0399 Y55.5196 
G01 X41.5496 Y55.0099 
G01 X42.2704 Y55.0099 
G01 X42.7801 Y55.5196 
G00 Z2.0000 
G00 X42.7801 Y52.9796 
G01 Z-0.1000 F254.00 
G01 X42.7801 Y53.7004 F508.00 
G01 X42.2704 Y54.2101 
G01 X41.5496 Y54.2101 
G01 X41.0399 Y53.7004 
G01 X41.0399 Y52.9796 
G01 X41.5496 Y52.4699 
G01 X42.2704 Y52.4699 
G01 X42.7801 Y52.9796 
G00 Z2.0000 
G00 X42.7801 Y50.4396 
G01 Z-0.1000 F254.00 
G01 X42.7801 Y51.1604 F508.00 
G01 X42.2704 Y51.6701 
G01 X41.5496 Y51.6701 
G01 X41.0399 Y51.1604 
G01 X41.0399 Y50.4396 
G01 X41.5496 Y49.9299 
G01 X42.2704 Y49.9299 
G01 X42.3897 Y50.0492 
G01 X43.2800 Y49.1589 
G01 X43.2800 Y29.5911 
G01 X40.0401 Y26.3512 
G01 X40.0173 Y26.4064 
G01 X39.9373 Y26.5260 
G01 X39.8356 Y26.6277 
G01 X39.7160 Y26.7077 
G01 X39.5831 Y26.7627 
G01 X39.4419 Y26.7908 
G01 X39.2981 Y26.7908 
G01 X39.1569 Y26.7627 
G01 X39.0240 Y26.7077 
G01 X38.9044 Y26.6277 
G01 X38.8027 Y26.5260 
G01 X38.7227 Y26.4064 
G01 X38.6677 Y26.2735 
G01 X38.6396 Y26.1323 
G01 X38.6396 Y24.6677 
G01 X38.6677 Y24.5265 
G01 X38.7227 Y24.3936 
G01 X38.8027 Y24.2740 
G01 X38.9044 Y24.1723 
G01 X39.0240 Y24.0923 
G01 X39.0300 Y24.0899 
G01 X39.0300 Y22.8411 
G01 X34.9484 Y18.7595 
G01 X34.9373 Y18.7864 
G01 X34.8573 Y18.9060 
G01 X34.7556 Y19.0077 
G01 X34.6360 Y19.0877 
G01 X34.5031 Y19.1427 
G01 X34.3619 Y19.1708 
G01 X34.2181 Y19.1708 
G01 X34.0769 Y19.1427 
G01 X33.9440 Y19.0877 
G01 X33.8244 Y19.0077 
G01 X33.7227 Y18.9060 
G01 X33.6956 Y18.8655 
G01 X28.9365 Y23.6246 
G01 X28.8746 Y23.6865 
G01 X28.7938 Y23.7200 
G01 X17.9700 Y23.7200 
G01 X17.9700 Y35.2800 
G01 X18.9500 Y35.2800 
G01 X18.9500 Y34.9461 
G01 X18.9607 Y34.9203 
G01 X18.9803 Y34.9007 
G01 X19.0061 Y34.8900 
G01 X19.8339 Y34.8900 
G01 X19.8597 Y34.9007 
G01 X19.8793 Y34.9203 
G01 X19.8900 Y34.9461 
G01 X19.8900 Y36.1739 
G01 X19.8793 Y36.1996 
G01 X19.8597 Y36.2193 
G01 X19.8339 Y36.2300 
G01 X19.7200 Y36.2300 
G01 X19.7200 Y38.7000 
G01 X19.8339 Y38.7000 
G01 X19.8597 Y38.7107 
G01 X19.8793 Y38.7303 
G01 X19.8900 Y38.7561 
G01 X19.8900 Y39.9839 
G01 X19.8793 Y40.0097 
G01 X19.8597 Y40.0293 
G01 X19.8339 Y40.0400 
G01 X19.7200 Y40.0400 
G01 X19.7200 Y45.9089 
G01 X21.4900 Y47.6789 
G01 X21.4900 Y47.6461 
G01 X21.5007 Y47.6203 
G01 X21.5203 Y47.6007 
G01 X21.5461 Y47.5900 
G01 X22.3739 Y47.5900 
G01 X22.3997 Y47.6007 
G01 X22.4193 Y47.6203 
G01 X22.4300 Y47.6461 
G01 X22.4300 Y48.8739 
G01 X22.4193 Y48.8997 
G01 X22.3997 Y48.9193 
G01 X22.3739 Y48.9300 
G01 X21.5461 Y48.9300 
G01 X21.5203 Y48.9193 
G01 X21.5007 Y48.8997 
G01 X21.4900 Y48.8739 
G01 X21.4900 Y48.3011 
G01 X19.3754 Y46.1865 
G01 X19.3135 Y46.1246 
G01 X19.2800 Y46.0438 
G01 X19.2800 Y40.0400 
G01 X19.0061 Y40.0400 
G01 X18.9803 Y40.0293 
G01 X18.9607 Y40.0097 
G01 X18.9500 Y39.9839 
G01 X18.9500 Y38.7561 
G01 X18.9607 Y38.7303 
G01 X18.9803 Y38.7107 
G01 X19.0061 Y38.7000 
G01 X19.2800 Y38.7000 
G01 X19.2800 Y36.2300 
G01 X19.0061 Y36.2300 
G01 X18.9803 Y36.2193 
G01 X18.9607 Y36.1996 
G01 X18.9500 Y36.1739 
G01 X18.9500 Y35.7200 
G01 X16.6100 Y35.7200 
G01 X16.6100 Y36.1739 
G01 X16.5993 Y36.1996 
G01 X16.5797 Y36.2193 
G01 X16.5539 Y36.2300 
G01 X15.7261 Y36.2300 
G01 X15.7003 Y36.2193 
G01 X15.6807 Y36.1996 
G01 X15.6700 Y36.1739 
G01 X15.6700 Y34.9461 
G01 X15.6807 Y34.9203 
G01 X15.7003 Y34.9007 
G01 X15.7261 Y34.8900 
G01 X16.5539 Y34.8900 
G01 X16.5797 Y34.9007 
G01 X16.5993 Y34.9203 
G01 X16.6100 Y34.9461 
G01 X16.6100 Y35.2800 
G01 X17.5300 Y35.2800 
G01 X17.5300 Y24.7200 
G01 X7.8411 Y24.7200 
G01 X7.7200 Y24.8411 
G01 X7.7200 Y28.4089 
G01 X8.9365 Y29.6254 
G01 X8.9700 Y29.7062 
G01 X8.9700 Y36.2938 
G01 X8.9365 Y36.3746 
G01 X8.8746 Y36.4365 
G01 X7.1439 Y38.1672 
G01 X7.1439 Y39.7268 
G01 X7.1332 Y39.7525 
G01 X7.1136 Y39.7722 
G01 X7.0878 Y39.7829 
G01 X5.5614 Y39.7829 
G01 X5.5356 Y39.7722 
G01 X5.5160 Y39.7525 
G01 X5.5053 Y39.7268 
G01 X5.5053 Y37.6924 
G01 X5.5160 Y37.6666 
G01 X5.5356 Y37.6470 
G01 X5.5614 Y37.6363 
G01 X7.0526 Y37.6363 
G01 X8.5300 Y36.1589 
G01 X8.5300 Y29.8411 
G01 X7.3754 Y28.6865 
G01 X7.3135 Y28.6246 
G01 X7.2800 Y28.5438 
G01 X7.2800 Y24.7062 
G01 X7.3135 Y24.6254 
G01 X7.5635 Y24.3754 
G01 X7.6254 Y24.3135 
G01 X7.7062 Y24.2800 
G01 X17.5300 Y24.2800 
G01 X17.5300 Y23.4562 
G01 X17.5635 Y23.3754 
G01 X17.6254 Y23.3135 
G01 X17.7062 Y23.2800 
G01 X28.6589 Y23.2800 
G01 X33.5596 Y18.3793 
G01 X33.5596 Y17.0477 
G01 X33.5877 Y16.9065 
G01 X33.6427 Y16.7736 
G01 X33.7227 Y16.6540 
G01 X33.8244 Y16.5523 
G01 X33.9440 Y16.4723 
G01 X34.0769 Y16.4173 
G01 X34.2181 Y16.3892 
G01 X34.3619 Y16.3892 
G01 X34.5031 Y16.4173 
G01 X34.6360 Y16.4723 
G01 X34.7556 Y16.5523 
G01 X34.8573 Y16.6540 
G01 X34.9373 Y16.7736 
G01 X34.9923 Y16.9065 
G01 X35.0204 Y17.0477 
G01 X35.0204 Y18.2093 
G01 X39.3746 Y22.5635 
G01 X39.4365 Y22.6254 
G01 X39.4700 Y22.7062 
G01 X39.4700 Y24.0148 
G01 X39.5831 Y24.0373 
G01 X39.7160 Y24.0923 
G01 X39.8356 Y24.1723 
G01 X39.9373 Y24.2740 
G01 X40.0173 Y24.3936 
G01 X40.0723 Y24.5265 
G01 X40.1004 Y24.6677 
G01 X40.1004 Y25.7893 
G01 X43.6865 Y29.3754 
G01 X43.7200 Y29.4562 
G01 X43.7200 Y49.2938 
G01 X43.6865 Y49.3746 
G01 X43.6246 Y49.4365 
G01 X42.7008 Y50.3603 
G01 X42.7801 Y50.4396 
G00 Z2.0000 
G00 X57.2500 Y53.9961 
G01 Z-0.1000 F254.00 
G01 X57.2500 Y55.2239 F508.00 
G01 X57.2393 Y55.2497 
G01 X57.2197 Y55.2693 
G01 X57.1939 Y55.2800 
G01 X56.9700 Y55.2800 
G01 X56.9700 Y57.7500 
G01 X57.1939 Y57.7500 
G01 X57.2197 Y57.7607 
G01 X57.2393 Y57.7803 
G01 X57.2500 Y57.8061 
G01 X57.2500 Y59.0339 
G01 X57.2393 Y59.0597 
G01 X57.2197 Y59.0793 
G01 X57.1939 Y59.0900 
G01 X56.3661 Y59.0900 
G01 X56.3403 Y59.0793 
G01 X56.3207 Y59.0597 
G01 X56.3100 Y59.0339 
G01 X56.3100 Y57.8061 
G01 X56.3207 Y57.7803 
G01 X56.3403 Y57.7607 
G01 X56.3661 Y57.7500 
G01 X56.5300 Y57.7500 
G01 X56.5300 Y55.2800 
G01 X56.3661 Y55.2800 
G01 X56.3403 Y55.2693 
G01 X56.3207 Y55.2497 
G01 X56.3100 Y55.2239 
G01 X56.3100 Y54.3711 
G01 X51.9759 Y50.0370 
G01 X51.9731 Y50.0386 
G01 X51.8261 Y50.0780 
G01 X51.6739 Y50.0780 
G01 X51.5269 Y50.0386 
G01 X51.3951 Y49.9625 
G01 X51.2875 Y49.8549 
G01 X51.2114 Y49.7231 
G01 X51.1720 Y49.5761 
G01 X51.1720 Y49.4239 
G01 X51.2114 Y49.2769 
G01 X51.2875 Y49.1451 
G01 X51.3951 Y49.0375 
G01 X51.5269 Y48.9614 
G01 X51.6739 Y48.9220 
G01 X51.8261 Y48.9220 
G01 X51.9731 Y48.9614 
G01 X52.1049 Y49.0375 
G01 X52.2125 Y49.1451 
G01 X52.2886 Y49.2769 
G01 X52.3280 Y49.4239 
G01 X52.3280 Y49.5761 
G01 X52.2886 Y49.7231 
G01 X52.2870 Y49.7259 
G01 X56.5011 Y53.9400 
G01 X57.1939 Y53.9400 
G01 X57.2197 Y53.9507 
G01 X57.2393 Y53.9703 
G01 X57.2500 Y53.9961 
G00 Z2.0000 
G00 X22.4300 Y51.4561 
G01 Z-0.1000 F254.00 
G01 X22.4300 Y52.6839 F508.00 
G01 X22.4193 Y52.7097 
G01 X22.3997 Y52.7293 
G01 X22.3739 Y52.7400 
G01 X21.5461 Y52.7400 
G01 X21.5203 Y52.7293 
G01 X21.5007 Y52.7097 
G01 X21.4900 Y52.6839 
G01 X21.4900 Y52.2200 
G01 X19.1500 Y52.2200 
G01 X19.1500 Y52.6839 
G01 X19.1393 Y52.7097 
G01 X19.1197 Y52.7293 
G01 X19.0939 Y52.7400 
G01 X18.7200 Y52.7400 
G01 X18.7200 Y56.4308 
G01 X18.7850 Y56.4577 
G01 X18.9130 Y56.5432 
G01 X19.0218 Y56.6520 
G01 X19.1073 Y56.7800 
G01 X19.1662 Y56.9221 
G01 X19.1962 Y57.0731 
G01 X19.1962 Y57.2269 
G01 X19.1662 Y57.3779 
G01 X19.1073 Y57.5200 
G01 X19.0218 Y57.6480 
G01 X18.9130 Y57.7568 
G01 X18.7850 Y57.8423 
G01 X18.6429 Y57.9012 
G01 X18.4919 Y57.9312 
G01 X18.3381 Y57.9312 
G01 X18.1871 Y57.9012 
G01 X18.0450 Y57.8423 
G01 X17.9170 Y57.7568 
G01 X17.8082 Y57.6480 
G01 X17.7227 Y57.5200 
G01 X17.6638 Y57.3779 
G01 X17.6338 Y57.2269 
G01 X17.6338 Y57.0731 
G01 X17.6638 Y56.9221 
G01 X17.7227 Y56.7800 
G01 X17.8082 Y56.6520 
G01 X17.9170 Y56.5432 
G01 X18.0450 Y56.4577 
G01 X18.1871 Y56.3988 
G01 X18.2800 Y56.3803 
G01 X18.2800 Y52.7400 
G01 X18.2661 Y52.7400 
G01 X18.2403 Y52.7293 
G01 X18.2207 Y52.7097 
G01 X18.2100 Y52.6839 
G01 X18.2100 Y51.4561 
G01 X18.2207 Y51.4303 
G01 X18.2403 Y51.4107 
G01 X18.2661 Y51.4000 
G01 X19.0939 Y51.4000 
G01 X19.1197 Y51.4107 
G01 X19.1393 Y51.4303 
G01 X19.1500 Y51.4561 
G01 X19.1500 Y51.7800 
G01 X21.4900 Y51.7800 
G01 X21.4900 Y51.4561 
G01 X21.5007 Y51.4303 
G01 X21.5203 Y51.4107 
G01 X21.5461 Y51.4000 
G01 X22.3739 Y51.4000 
G01 X22.3997 Y51.4107 
G01 X22.4193 Y51.4303 
G01 X22.4300 Y51.4561 
G00 Z2.0000 
G00 X55.3404 Y24.6677 
G01 Z-0.1000 F254.00 
G01 X55.3404 Y26.1323 F508.00 
G01 X55.3123 Y26.2735 
G01 X55.2573 Y26.4064 
G01 X55.1773 Y26.5260 
G01 X55.0756 Y26.6277 
G01 X54.9560 Y26.7077 
G01 X54.8231 Y26.7627 
G01 X54.6819 Y26.7908 
G01 X54.5381 Y26.7908 
G01 X54.3969 Y26.7627 
G01 X54.2640 Y26.7077 
G01 X54.1444 Y26.6277 
G01 X54.0427 Y26.5260 
G01 X53.9627 Y26.4064 
G01 X53.9077 Y26.2735 
G01 X53.8796 Y26.1323 
G01 X53.8796 Y24.6677 
G01 X53.9077 Y24.5265 
G01 X53.9627 Y24.3936 
G01 X54.0427 Y24.2740 
G01 X54.1444 Y24.1723 
G01 X54.2640 Y24.0923 
G01 X54.3969 Y24.0373 
G01 X54.5381 Y24.0092 
G01 X54.6819 Y24.0092 
G01 X54.8231 Y24.0373 
G01 X54.9560 Y24.0923 
G01 X55.0756 Y24.1723 
G01 X55.1773 Y24.2740 
G01 X55.2573 Y24.3936 
G01 X55.3123 Y24.5265 
G01 X55.3404 Y24.6677 
G00 Z2.0000 
G00 X52.8004 Y24.6677 
G01 Z-0.1000 F254.00 
G01 X52.8004 Y26.1323 F508.00 
G01 X52.7723 Y26.2735 
G01 X52.7173 Y26.4064 
G01 X52.6373 Y26.5260 
G01 X52.5356 Y26.6277 
G01 X52.4160 Y26.7077 
G01 X52.2831 Y26.7627 
G01 X52.1419 Y26.7908 
G01 X51.9981 Y26.7908 
G01 X51.8569 Y26.7627 
G01 X51.7240 Y26.7077 
G01 X51.6044 Y26.6277 
G01 X51.5027 Y26.5260 
G01 X51.4227 Y26.4064 
G01 X51.4175 Y26.3937 
G01 X50.9700 Y26.8411 
G01 X50.9700 Y50.4089 
G01 X54.5261 Y53.9649 
G01 X54.5403 Y53.9507 
G01 X54.5661 Y53.9400 
G01 X55.3939 Y53.9400 
G01 X55.4197 Y53.9507 
G01 X55.4393 Y53.9703 
G01 X55.4500 Y53.9961 
G01 X55.4500 Y55.2239 
G01 X55.4393 Y55.2497 
G01 X55.4197 Y55.2693 
G01 X55.3939 Y55.2800 
G01 X54.5661 Y55.2800 
G01 X54.5403 Y55.2693 
G01 X54.5207 Y55.2497 
G01 X54.5100 Y55.2239 
G01 X54.5100 Y54.5711 
G01 X50.6589 Y50.7200 
G01 X50.4001 Y50.7200 
G01 X50.4001 Y51.1604 
G01 X49.8904 Y51.6701 
G01 X49.1696 Y51.6701 
G01 X48.6599 Y51.1604 
G01 X48.6599 Y50.4396 
G01 X49.1696 Y49.9299 
G01 X49.8904 Y49.9299 
G01 X50.2405 Y50.2800 
G01 X50.5300 Y50.2800 
G01 X50.5300 Y26.7062 
G01 X50.5635 Y26.6254 
G01 X50.6254 Y26.5635 
G01 X51.3396 Y25.8493 
G01 X51.3396 Y24.6677 
G01 X51.3677 Y24.5265 
G01 X51.4227 Y24.3936 
G01 X51.5027 Y24.2740 
G01 X51.6044 Y24.1723 
G01 X51.7240 Y24.0923 
G01 X51.8569 Y24.0373 
G01 X51.9981 Y24.0092 
G01 X52.1419 Y24.0092 
G01 X52.2831 Y24.0373 
G01 X52.4160 Y24.0923 
G01 X52.5356 Y24.1723 
G01 X52.6373 Y24.2740 
G01 X52.7173 Y24.3936 
G01 X52.7723 Y24.5265 
G01 X52.8004 Y24.6677 
G00 Z2.0000 
G00 X47.7204 Y24.6677 
G01 Z-0.1000 F254.00 
G01 X47.7204 Y26.1323 F508.00 
G01 X47.6923 Y26.2735 
G01 X47.6373 Y26.4064 
G01 X47.5573 Y26.5260 
G01 X47.4556 Y26.6277 
G01 X47.3360 Y26.7077 
G01 X47.2031 Y26.7627 
G01 X47.0619 Y26.7908 
G01 X46.9181 Y26.7908 
G01 X46.7769 Y26.7627 
G01 X46.6440 Y26.7077 
G01 X46.5244 Y26.6277 
G01 X46.4227 Y26.5260 
G01 X46.3427 Y26.4064 
G01 X46.2877 Y26.2735 
G01 X46.2596 Y26.1323 
G01 X46.2596 Y24.6677 
G01 X46.2877 Y24.5265 
G01 X46.3427 Y24.3936 
G01 X46.4227 Y24.2740 
G01 X46.5244 Y24.1723 
G01 X46.6440 Y24.0923 
G01 X46.7769 Y24.0373 
G01 X46.9181 Y24.0092 
G01 X47.0619 Y24.0092 
G01 X47.2031 Y24.0373 
G01 X47.3360 Y24.0923 
G01 X47.4556 Y24.1723 
G01 X47.5573 Y24.2740 
G01 X47.6373 Y24.3936 
G01 X47.6923 Y24.5265 
G01 X47.7204 Y24.6677 
G00 Z2.0000 
G00 X45.1804 Y24.6677 
G01 Z-0.1000 F254.00 
G01 X45.1804 Y26.1323 F508.00 
G01 X45.1523 Y26.2735 
G01 X45.0973 Y26.4064 
G01 X45.0173 Y26.5260 
G01 X44.9156 Y26.6277 
G01 X44.7960 Y26.7077 
G01 X44.6631 Y26.7627 
G01 X44.5219 Y26.7908 
G01 X44.3781 Y26.7908 
G01 X44.2369 Y26.7627 
G01 X44.1040 Y26.7077 
G01 X43.9844 Y26.6277 
G01 X43.8827 Y26.5260 
G01 X43.8027 Y26.4064 
G01 X43.7477 Y26.2735 
G01 X43.7196 Y26.1323 
G01 X43.7196 Y24.6677 
G01 X43.7477 Y24.5265 
G01 X43.8027 Y24.3936 
G01 X43.8827 Y24.2740 
G01 X43.9844 Y24.1723 
G01 X44.1040 Y24.0923 
G01 X44.2369 Y24.0373 
G01 X44.3781 Y24.0092 
G01 X44.5219 Y24.0092 
G01 X44.6631 Y24.0373 
G01 X44.7960 Y24.0923 
G01 X44.9156 Y24.1723 
G01 X45.0173 Y24.2740 
G01 X45.0973 Y24.3936 
G01 X45.1523 Y24.5265 
G01 X45.1804 Y24.6677 
G00 Z2.0000 
G00 X42.6404 Y24.6677 
G01 Z-0.1000 F254.00 
G01 X42.6404 Y26.1323 F508.00 
G01 X42.6123 Y26.2735 
G01 X42.5573 Y26.4064 
G01 X42.4773 Y26.5260 
G01 X42.3756 Y26.6277 
G01 X42.2560 Y26.7077 
G01 X42.1230 Y26.7627 
G01 X41.9819 Y26.7908 
G01 X41.8381 Y26.7908 
G01 X41.6969 Y26.7627 
G01 X41.5640 Y26.7077 
G01 X41.4444 Y26.6277 
G01 X41.3427 Y26.5260 
G01 X41.2627 Y26.4064 
G01 X41.2077 Y26.2735 
G01 X41.1796 Y26.1323 
G01 X41.1796 Y24.6677 
G01 X41.2077 Y24.5265 
G01 X41.2627 Y24.3936 
G01 X41.3427 Y24.2740 
G01 X41.4444 Y24.1723 
G01 X41.5640 Y24.0923 
G01 X41.6969 Y24.0373 
G01 X41.8381 Y24.0092 
G01 X41.9819 Y24.0092 
G01 X42.1230 Y24.0373 
G01 X42.2560 Y24.0923 
G01 X42.3756 Y24.1723 
G01 X42.4773 Y24.2740 
G01 X42.5573 Y24.3936 
G01 X42.6123 Y24.5265 
G01 X42.6404 Y24.6677 
G00 Z2.0000 
G00 X32.4804 Y24.6677 
G01 Z-0.1000 F254.00 
G01 X32.4804 Y26.1323 F508.00 
G01 X32.4523 Y26.2735 
G01 X32.3973 Y26.4064 
G01 X32.3173 Y26.5260 
G01 X32.2156 Y26.6277 
G01 X32.0960 Y26.7077 
G01 X31.9631 Y26.7627 
G01 X31.8219 Y26.7908 
G01 X31.6781 Y26.7908 
G01 X31.5369 Y26.7627 
G01 X31.4040 Y26.7077 
G01 X31.2844 Y26.6277 
G01 X31.1827 Y26.5260 
G01 X31.1236 Y26.4376 
G01 X30.9700 Y26.5911 
G01 X30.9700 Y38.4110 
G01 X33.2879 Y38.4110 
G01 X33.3137 Y38.4217 
G01 X33.3333 Y38.4413 
G01 X33.3440 Y38.4671 
G01 X33.3440 Y40.2729 
G01 X33.3333 Y40.2987 
G01 X33.3137 Y40.3183 
G01 X33.2879 Y40.3290 
G01 X30.7200 Y40.3290 
G01 X30.7200 Y45.6200 
G01 X31.0939 Y45.6200 
G01 X31.1197 Y45.6307 
G01 X31.1393 Y45.6503 
G01 X31.1500 Y45.6761 
G01 X31.1500 Y46.5039 
G01 X31.1393 Y46.5297 
G01 X31.1197 Y46.5493 
G01 X31.0939 Y46.5600 
G01 X29.8661 Y46.5600 
G01 X29.8403 Y46.5493 
G01 X29.8207 Y46.5297 
G01 X29.8100 Y46.5039 
G01 X29.8100 Y45.6761 
G01 X29.8207 Y45.6503 
G01 X29.8403 Y45.6307 
G01 X29.8661 Y45.6200 
G01 X30.2800 Y45.6200 
G01 X30.2800 Y40.3290 
G01 X28.1801 Y40.3290 
G01 X28.1543 Y40.3183 
G01 X28.1347 Y40.2987 
G01 X28.1240 Y40.2729 
G01 X28.1240 Y38.4671 
G01 X28.1347 Y38.4413 
G01 X28.1543 Y38.4217 
G01 X28.1801 Y38.4110 
G01 X30.5300 Y38.4110 
G01 X30.5300 Y26.4562 
G01 X30.5635 Y26.3754 
G01 X30.6254 Y26.3135 
G01 X31.0196 Y25.9193 
G01 X31.0196 Y24.6677 
G01 X31.0477 Y24.5265 
G01 X31.1027 Y24.3936 
G01 X31.1827 Y24.2740 
G01 X31.2844 Y24.1723 
G01 X31.4040 Y24.0923 
G01 X31.5369 Y24.0373 
G01 X31.6781 Y24.0092 
G01 X31.8219 Y24.0092 
G01 X31.9631 Y24.0373 
G01 X32.0960 Y24.0923 
G01 X32.2156 Y24.1723 
G01 X32.3173 Y24.2740 
G01 X32.3973 Y24.3936 
G01 X32.4523 Y24.5265 
G01 X32.4804 Y24.6677 
G00 Z2.0000 
G00 X29.9404 Y24.6677 
G01 Z-0.1000 F254.00 
G01 X29.9404 Y26.1323 F508.00 
G01 X29.9123 Y26.2735 
G01 X29.8573 Y26.4064 
G01 X29.7773 Y26.5260 
G01 X29.6756 Y26.6277 
G01 X29.5560 Y26.7077 
G01 X29.4230 Y26.7627 
G01 X29.2819 Y26.7908 
G01 X29.1381 Y26.7908 
G01 X28.9969 Y26.7627 
G01 X28.8640 Y26.7077 
G01 X28.7444 Y26.6277 
G01 X28.6427 Y26.5260 
G01 X28.5627 Y26.4064 
G01 X28.5077 Y26.2735 
G01 X28.4796 Y26.1323 
G01 X28.4796 Y24.6677 
G01 X28.5077 Y24.5265 
G01 X28.5627 Y24.3936 
G01 X28.6427 Y24.2740 
G01 X28.7444 Y24.1723 
G01 X28.8640 Y24.0923 
G01 X28.9969 Y24.0373 
G01 X29.1381 Y24.0092 
G01 X29.2819 Y24.0092 
G01 X29.4230 Y24.0373 
G01 X29.5560 Y24.0923 
G01 X29.6756 Y24.1723 
G01 X29.7773 Y24.2740 
G01 X29.8573 Y24.3936 
G01 X29.9123 Y24.5265 
G01 X29.9404 Y24.6677 
G00 Z2.0000 
G00 X27.4004 Y24.6677 
G01 Z-0.1000 F254.00 
G01 X27.4004 Y26.1323 F508.00 
G01 X27.3723 Y26.2735 
G01 X27.3173 Y26.4064 
G01 X27.2373 Y26.5260 
G01 X27.1356 Y26.6277 
G01 X27.0160 Y26.7077 
G01 X26.8831 Y26.7627 
G01 X26.7419 Y26.7908 
G01 X26.5981 Y26.7908 
G01 X26.4569 Y26.7627 
G01 X26.3240 Y26.7077 
G01 X26.2044 Y26.6277 
G01 X26.1027 Y26.5260 
G01 X26.0227 Y26.4064 
G01 X25.9677 Y26.2735 
G01 X25.9396 Y26.1323 
G01 X25.9396 Y24.6677 
G01 X25.9677 Y24.5265 
G01 X26.0227 Y24.3936 
G01 X26.1027 Y24.2740 
G01 X26.2044 Y24.1723 
G01 X26.3240 Y24.0923 
G01 X26.4569 Y24.0373 
G01 X26.5981 Y24.0092 
G01 X26.7419 Y24.0092 
G01 X26.8831 Y24.0373 
G01 X27.0160 Y24.0923 
G01 X27.1356 Y24.1723 
G01 X27.2373 Y24.2740 
G01 X27.3173 Y24.3936 
G01 X27.3723 Y24.5265 
G01 X27.4004 Y24.6677 
G00 Z2.0000 
G00 X24.8604 Y24.6677 
G01 Z-0.1000 F254.00 
G01 X24.8604 Y26.1323 F508.00 
G01 X24.8323 Y26.2735 
G01 X24.7773 Y26.4064 
G01 X24.6973 Y26.5260 
G01 X24.5956 Y26.6277 
G01 X24.4760 Y26.7077 
G01 X24.3431 Y26.7627 
G01 X24.2019 Y26.7908 
G01 X24.0581 Y26.7908 
G01 X23.9169 Y26.7627 
G01 X23.7840 Y26.7077 
G01 X23.6644 Y26.6277 
G01 X23.5627 Y26.5260 
G01 X23.4827 Y26.4064 
G01 X23.4277 Y26.2735 
G01 X23.3996 Y26.1323 
G01 X23.3996 Y24.6677 
G01 X23.4277 Y24.5265 
G01 X23.4827 Y24.3936 
G01 X23.5627 Y24.2740 
G01 X23.6644 Y24.1723 
G01 X23.7840 Y24.0923 
G01 X23.9169 Y24.0373 
G01 X24.0581 Y24.0092 
G01 X24.2019 Y24.0092 
G01 X24.3431 Y24.0373 
G01 X24.4760 Y24.0923 
G01 X24.5956 Y24.1723 
G01 X24.6973 Y24.2740 
G01 X24.7773 Y24.3936 
G01 X24.8323 Y24.5265 
G01 X24.8604 Y24.6677 
G00 Z2.0000 
G00 X22.3204 Y24.6677 
G01 Z-0.1000 F254.00 
G01 X22.3204 Y26.1323 F508.00 
G01 X22.2923 Y26.2735 
G01 X22.2373 Y26.4064 
G01 X22.1573 Y26.5260 
G01 X22.0556 Y26.6277 
G01 X21.9360 Y26.7077 
G01 X21.8031 Y26.7627 
G01 X21.6619 Y26.7908 
G01 X21.5181 Y26.7908 
G01 X21.3769 Y26.7627 
G01 X21.2440 Y26.7077 
G01 X21.1244 Y26.6277 
G01 X21.0227 Y26.5260 
G01 X20.9427 Y26.4064 
G01 X20.8877 Y26.2735 
G01 X20.8596 Y26.1323 
G01 X20.8596 Y24.6677 
G01 X20.8877 Y24.5265 
G01 X20.9427 Y24.3936 
G01 X21.0227 Y24.2740 
G01 X21.1244 Y24.1723 
G01 X21.2440 Y24.0923 
G01 X21.3769 Y24.0373 
G01 X21.5181 Y24.0092 
G01 X21.6619 Y24.0092 
G01 X21.8031 Y24.0373 
G01 X21.9360 Y24.0923 
G01 X22.0556 Y24.1723 
G01 X22.1573 Y24.2740 
G01 X22.2373 Y24.3936 
G01 X22.2923 Y24.5265 
G01 X22.3204 Y24.6677 
G00 Z2.0000 
G00 X22.3204 Y17.0477 
G01 Z-0.1000 F254.00 
G01 X22.3204 Y18.5123 F508.00 
G01 X22.2923 Y18.6534 
G01 X22.2373 Y18.7864 
G01 X22.1573 Y18.9060 
G01 X22.0556 Y19.0077 
G01 X21.9360 Y19.0877 
G01 X21.8031 Y19.1427 
G01 X21.6619 Y19.1708 
G01 X21.5181 Y19.1708 
G01 X21.3769 Y19.1427 
G01 X21.2440 Y19.0877 
G01 X21.1244 Y19.0077 
G01 X21.0227 Y18.9060 
G01 X20.9427 Y18.7864 
G01 X20.8877 Y18.6534 
G01 X20.8596 Y18.5123 
G01 X20.8596 Y17.0477 
G01 X20.8877 Y16.9065 
G01 X20.9427 Y16.7736 
G01 X21.0227 Y16.6540 
G01 X21.1244 Y16.5523 
G01 X21.2440 Y16.4723 
G01 X21.3769 Y16.4173 
G01 X21.5181 Y16.3892 
G01 X21.6619 Y16.3892 
G01 X21.8031 Y16.4173 
G01 X21.9360 Y16.4723 
G01 X22.0556 Y16.5523 
G01 X22.1573 Y16.6540 
G01 X22.2373 Y16.7736 
G01 X22.2923 Y16.9065 
G01 X22.3204 Y17.0477 
G00 Z2.0000 
G00 X24.8604 Y17.0477 
G01 Z-0.1000 F254.00 
G01 X24.8604 Y18.5123 F508.00 
G01 X24.8323 Y18.6534 
G01 X24.7773 Y18.7864 
G01 X24.6973 Y18.9060 
G01 X24.5956 Y19.0077 
G01 X24.4760 Y19.0877 
G01 X24.3431 Y19.1427 
G01 X24.2019 Y19.1708 
G01 X24.0581 Y19.1708 
G01 X23.9169 Y19.1427 
G01 X23.7840 Y19.0877 
G01 X23.6644 Y19.0077 
G01 X23.5627 Y18.9060 
G01 X23.4827 Y18.7864 
G01 X23.4277 Y18.6534 
G01 X23.3996 Y18.5123 
G01 X23.3996 Y17.0477 
G01 X23.4277 Y16.9065 
G01 X23.4827 Y16.7736 
G01 X23.5627 Y16.6540 
G01 X23.6644 Y16.5523 
G01 X23.7840 Y16.4723 
G01 X23.9169 Y16.4173 
G01 X24.0581 Y16.3892 
G01 X24.2019 Y16.3892 
G01 X24.3431 Y16.4173 
G01 X24.4760 Y16.4723 
G01 X24.5956 Y16.5523 
G01 X24.6973 Y16.6540 
G01 X24.7773 Y16.7736 
G01 X24.8323 Y16.9065 
G01 X24.8604 Y17.0477 
G00 Z2.0000 
G00 X27.4004 Y17.0477 
G01 Z-0.1000 F254.00 
G01 X27.4004 Y18.5123 F508.00 
G01 X27.3723 Y18.6534 
G01 X27.3173 Y18.7864 
G01 X27.2373 Y18.9060 
G01 X27.1356 Y19.0077 
G01 X27.0160 Y19.0877 
G01 X26.8831 Y19.1427 
G01 X26.7419 Y19.1708 
G01 X26.5981 Y19.1708 
G01 X26.4569 Y19.1427 
G01 X26.3240 Y19.0877 
G01 X26.2044 Y19.0077 
G01 X26.1027 Y18.9060 
G01 X26.0227 Y18.7864 
G01 X25.9677 Y18.6534 
G01 X25.9396 Y18.5123 
G01 X25.9396 Y17.0477 
G01 X25.9677 Y16.9065 
G01 X26.0227 Y16.7736 
G01 X26.1027 Y16.6540 
G01 X26.2044 Y16.5523 
G01 X26.3240 Y16.4723 
G01 X26.4569 Y16.4173 
G01 X26.5981 Y16.3892 
G01 X26.7419 Y16.3892 
G01 X26.8831 Y16.4173 
G01 X27.0160 Y16.4723 
G01 X27.1356 Y16.5523 
G01 X27.2373 Y16.6540 
G01 X27.3173 Y16.7736 
G01 X27.3723 Y16.9065 
G01 X27.4004 Y17.0477 
G00 Z2.0000 
G00 X29.9404 Y17.0477 
G01 Z-0.1000 F254.00 
G01 X29.9404 Y18.5123 F508.00 
G01 X29.9123 Y18.6534 
G01 X29.8573 Y18.7864 
G01 X29.7773 Y18.9060 
G01 X29.6756 Y19.0077 
G01 X29.5560 Y19.0877 
G01 X29.4230 Y19.1427 
G01 X29.2819 Y19.1708 
G01 X29.1381 Y19.1708 
G01 X28.9969 Y19.1427 
G01 X28.8640 Y19.0877 
G01 X28.7444 Y19.0077 
G01 X28.6427 Y18.9060 
G01 X28.5627 Y18.7864 
G01 X28.5077 Y18.6534 
G01 X28.4796 Y18.5123 
G01 X28.4796 Y17.0477 
G01 X28.5077 Y16.9065 
G01 X28.5627 Y16.7736 
G01 X28.6427 Y16.6540 
G01 X28.7444 Y16.5523 
G01 X28.8640 Y16.4723 
G01 X28.9969 Y16.4173 
G01 X29.1381 Y16.3892 
G01 X29.2819 Y16.3892 
G01 X29.4230 Y16.4173 
G01 X29.5560 Y16.4723 
G01 X29.6756 Y16.5523 
G01 X29.7773 Y16.6540 
G01 X29.8573 Y16.7736 
G01 X29.9123 Y16.9065 
G01 X29.9404 Y17.0477 
G00 Z2.0000 
G00 X32.4804 Y17.0477 
G01 Z-0.1000 F254.00 
G01 X32.4804 Y18.5123 F508.00 
G01 X32.4523 Y18.6534 
G01 X32.3973 Y18.7864 
G01 X32.3173 Y18.9060 
G01 X32.2156 Y19.0077 
G01 X32.0960 Y19.0877 
G01 X31.9631 Y19.1427 
G01 X31.8219 Y19.1708 
G01 X31.6781 Y19.1708 
G01 X31.5369 Y19.1427 
G01 X31.4040 Y19.0877 
G01 X31.2844 Y19.0077 
G01 X31.1827 Y18.9060 
G01 X31.1027 Y18.7864 
G01 X31.0477 Y18.6534 
G01 X31.0196 Y18.5123 
G01 X31.0196 Y17.0477 
G01 X31.0477 Y16.9065 
G01 X31.1027 Y16.7736 
G01 X31.1827 Y16.6540 
G01 X31.2844 Y16.5523 
G01 X31.4040 Y16.4723 
G01 X31.5369 Y16.4173 
G01 X31.6781 Y16.3892 
G01 X31.8219 Y16.3892 
G01 X31.9631 Y16.4173 
G01 X32.0960 Y16.4723 
G01 X32.2156 Y16.5523 
G01 X32.3173 Y16.6540 
G01 X32.3973 Y16.7736 
G01 X32.4523 Y16.9065 
G01 X32.4804 Y17.0477 
G00 Z2.0000 
G00 X37.5604 Y17.0477 
G01 Z-0.1000 F254.00 
G01 X37.5604 Y18.5123 F508.00 
G01 X37.5323 Y18.6534 
G01 X37.4773 Y18.7864 
G01 X37.3973 Y18.9060 
G01 X37.2956 Y19.0077 
G01 X37.1760 Y19.0877 
G01 X37.0431 Y19.1427 
G01 X36.9019 Y19.1708 
G01 X36.7581 Y19.1708 
G01 X36.6169 Y19.1427 
G01 X36.4840 Y19.0877 
G01 X36.3644 Y19.0077 
G01 X36.2627 Y18.9060 
G01 X36.1827 Y18.7864 
G01 X36.1277 Y18.6534 
G01 X36.0996 Y18.5123 
G01 X36.0996 Y17.0477 
G01 X36.1277 Y16.9065 
G01 X36.1827 Y16.7736 
G01 X36.2627 Y16.6540 
G01 X36.3644 Y16.5523 
G01 X36.4840 Y16.4723 
G01 X36.6169 Y16.4173 
G01 X36.7581 Y16.3892 
G01 X36.9019 Y16.3892 
G01 X37.0431 Y16.4173 
G01 X37.1760 Y16.4723 
G01 X37.2956 Y16.5523 
G01 X37.3973 Y16.6540 
G01 X37.4773 Y16.7736 
G01 X37.5323 Y16.9065 
G01 X37.5604 Y17.0477 
G00 Z2.0000 
G00 X40.1004 Y17.0477 
G01 Z-0.1000 F254.00 
G01 X40.1004 Y18.5123 F508.00 
G01 X40.0723 Y18.6534 
G01 X40.0173 Y18.7864 
G01 X39.9373 Y18.9060 
G01 X39.8356 Y19.0077 
G01 X39.7160 Y19.0877 
G01 X39.5831 Y19.1427 
G01 X39.4419 Y19.1708 
G01 X39.2981 Y19.1708 
G01 X39.1569 Y19.1427 
G01 X39.0240 Y19.0877 
G01 X38.9044 Y19.0077 
G01 X38.8027 Y18.9060 
G01 X38.7227 Y18.7864 
G01 X38.6677 Y18.6534 
G01 X38.6396 Y18.5123 
G01 X38.6396 Y17.0477 
G01 X38.6677 Y16.9065 
G01 X38.7227 Y16.7736 
G01 X38.8027 Y16.6540 
G01 X38.9044 Y16.5523 
G01 X39.0240 Y16.4723 
G01 X39.1569 Y16.4173 
G01 X39.2981 Y16.3892 
G01 X39.4419 Y16.3892 
G01 X39.5831 Y16.4173 
G01 X39.7160 Y16.4723 
G01 X39.8356 Y16.5523 
G01 X39.9373 Y16.6540 
G01 X40.0173 Y16.7736 
G01 X40.0723 Y16.9065 
G01 X40.1004 Y17.0477 
G00 Z2.0000 
G00 X42.6404 Y17.0477 
G01 Z-0.1000 F254.00 
G01 X42.6404 Y18.5123 F508.00 
G01 X42.6123 Y18.6534 
G01 X42.5573 Y18.7864 
G01 X42.4773 Y18.9060 
G01 X42.3756 Y19.0077 
G01 X42.2560 Y19.0877 
G01 X42.1230 Y19.1427 
G01 X41.9819 Y19.1708 
G01 X41.8381 Y19.1708 
G01 X41.6969 Y19.1427 
G01 X41.5640 Y19.0877 
G01 X41.4444 Y19.0077 
G01 X41.3427 Y18.9060 
G01 X41.2627 Y18.7864 
G01 X41.2077 Y18.6534 
G01 X41.1796 Y18.5123 
G01 X41.1796 Y17.0477 
G01 X41.2077 Y16.9065 
G01 X41.2627 Y16.7736 
G01 X41.3427 Y16.6540 
G01 X41.4444 Y16.5523 
G01 X41.5640 Y16.4723 
G01 X41.6969 Y16.4173 
G01 X41.8381 Y16.3892 
G01 X41.9819 Y16.3892 
G01 X42.1230 Y16.4173 
G01 X42.2560 Y16.4723 
G01 X42.3756 Y16.5523 
G01 X42.4773 Y16.6540 
G01 X42.5573 Y16.7736 
G01 X42.6123 Y16.9065 
G01 X42.6404 Y17.0477 
G00 Z2.0000 
G00 X45.1804 Y17.0477 
G01 Z-0.1000 F254.00 
G01 X45.1804 Y18.5123 F508.00 
G01 X45.1523 Y18.6534 
G01 X45.0973 Y18.7864 
G01 X45.0173 Y18.9060 
G01 X44.9156 Y19.0077 
G01 X44.7960 Y19.0877 
G01 X44.6631 Y19.1427 
G01 X44.5219 Y19.1708 
G01 X44.3781 Y19.1708 
G01 X44.2369 Y19.1427 
G01 X44.1040 Y19.0877 
G01 X43.9844 Y19.0077 
G01 X43.8827 Y18.9060 
G01 X43.8027 Y18.7864 
G01 X43.7477 Y18.6534 
G01 X43.7196 Y18.5123 
G01 X43.7196 Y17.0477 
G01 X43.7477 Y16.9065 
G01 X43.8027 Y16.7736 
G01 X43.8827 Y16.6540 
G01 X43.9844 Y16.5523 
G01 X44.1040 Y16.4723 
G01 X44.2369 Y16.4173 
G01 X44.3781 Y16.3892 
G01 X44.5219 Y16.3892 
G01 X44.6631 Y16.4173 
G01 X44.7960 Y16.4723 
G01 X44.9156 Y16.5523 
G01 X45.0173 Y16.6540 
G01 X45.0973 Y16.7736 
G01 X45.1523 Y16.9065 
G01 X45.1804 Y17.0477 
G00 Z2.0000 
G00 X47.7204 Y17.0477 
G01 Z-0.1000 F254.00 
G01 X47.7204 Y18.5123 F508.00 
G01 X47.6923 Y18.6534 
G01 X47.6373 Y18.7864 
G01 X47.5573 Y18.9060 
G01 X47.4556 Y19.0077 
G01 X47.3360 Y19.0877 
G01 X47.2031 Y19.1427 
G01 X47.0619 Y19.1708 
G01 X46.9181 Y19.1708 
G01 X46.7769 Y19.1427 
G01 X46.6440 Y19.0877 
G01 X46.5244 Y19.0077 
G01 X46.4227 Y18.9060 
G01 X46.3427 Y18.7864 
G01 X46.2877 Y18.6534 
G01 X46.2596 Y18.5123 
G01 X46.2596 Y17.0477 
G01 X46.2877 Y16.9065 
G01 X46.3427 Y16.7736 
G01 X46.4227 Y16.6540 
G01 X46.5244 Y16.5523 
G01 X46.6440 Y16.4723 
G01 X46.7769 Y16.4173 
G01 X46.9181 Y16.3892 
G01 X47.0619 Y16.3892 
G01 X47.2031 Y16.4173 
G01 X47.3360 Y16.4723 
G01 X47.4556 Y16.5523 
G01 X47.5573 Y16.6540 
G01 X47.6373 Y16.7736 
G01 X47.6923 Y16.9065 
G01 X47.7204 Y17.0477 
G00 Z2.0000 
G00 X50.2604 Y17.0477 
G01 Z-0.1000 F254.00 
G01 X50.2604 Y18.5123 F508.00 
G01 X50.2323 Y18.6534 
G01 X50.1773 Y18.7864 
G01 X50.0973 Y18.9060 
G01 X49.9956 Y19.0077 
G01 X49.8760 Y19.0877 
G01 X49.7431 Y19.1427 
G01 X49.6019 Y19.1708 
G01 X49.4581 Y19.1708 
G01 X49.3169 Y19.1427 
G01 X49.1840 Y19.0877 
G01 X49.0644 Y19.0077 
G01 X48.9627 Y18.9060 
G01 X48.8827 Y18.7864 
G01 X48.8277 Y18.6534 
G01 X48.7996 Y18.5123 
G01 X48.7996 Y17.0477 
G01 X48.8277 Y16.9065 
G01 X48.8827 Y16.7736 
G01 X48.9627 Y16.6540 
G01 X49.0644 Y16.5523 
G01 X49.1840 Y16.4723 
G01 X49.3169 Y16.4173 
G01 X49.4581 Y16.3892 
G01 X49.6019 Y16.3892 
G01 X49.7431 Y16.4173 
G01 X49.8760 Y16.4723 
G01 X49.9956 Y16.5523 
G01 X50.0973 Y16.6540 
G01 X50.1773 Y16.7736 
G01 X50.2323 Y16.9065 
G01 X50.2604 Y17.0477 
G00 Z2.0000 
G00 X52.8004 Y17.0477 
G01 Z-0.1000 F254.00 
G01 X52.8004 Y18.5123 F508.00 
G01 X52.7723 Y18.6534 
G01 X52.7173 Y18.7864 
G01 X52.6373 Y18.9060 
G01 X52.5356 Y19.0077 
G01 X52.4160 Y19.0877 
G01 X52.2831 Y19.1427 
G01 X52.1419 Y19.1708 
G01 X51.9981 Y19.1708 
G01 X51.8569 Y19.1427 
G01 X51.7240 Y19.0877 
G01 X51.6044 Y19.0077 
G01 X51.5027 Y18.9060 
G01 X51.4227 Y18.7864 
G01 X51.3677 Y18.6534 
G01 X51.3396 Y18.5123 
G01 X51.3396 Y17.0477 
G01 X51.3677 Y16.9065 
G01 X51.4227 Y16.7736 
G01 X51.5027 Y16.6540 
G01 X51.6044 Y16.5523 
G01 X51.7240 Y16.4723 
G01 X51.8569 Y16.4173 
G01 X51.9981 Y16.3892 
G01 X52.1419 Y16.3892 
G01 X52.2831 Y16.4173 
G01 X52.4160 Y16.4723 
G01 X52.5356 Y16.5523 
G01 X52.6373 Y16.6540 
G01 X52.7173 Y16.7736 
G01 X52.7723 Y16.9065 
G01 X52.8004 Y17.0477 
G00 Z2.0000 
G00 X55.3404 Y17.0477 
G01 Z-0.1000 F254.00 
G01 X55.3404 Y18.5123 F508.00 
G01 X55.3123 Y18.6534 
G01 X55.2573 Y18.7864 
G01 X55.1773 Y18.9060 
G01 X55.0756 Y19.0077 
G01 X54.9560 Y19.0877 
G01 X54.8231 Y19.1427 
G01 X54.6819 Y19.1708 
G01 X54.5381 Y19.1708 
G01 X54.3969 Y19.1427 
G01 X54.2640 Y19.0877 
G01 X54.1444 Y19.0077 
G01 X54.0427 Y18.9060 
G01 X53.9627 Y18.7864 
G01 X53.9077 Y18.6534 
G01 X53.8796 Y18.5123 
G01 X53.8796 Y17.0477 
G01 X53.9077 Y16.9065 
G01 X53.9627 Y16.7736 
G01 X54.0427 Y16.6540 
G01 X54.1444 Y16.5523 
G01 X54.2640 Y16.4723 
G01 X54.3969 Y16.4173 
G01 X54.5381 Y16.3892 
G01 X54.6819 Y16.3892 
G01 X54.8231 Y16.4173 
G01 X54.9560 Y16.4723 
G01 X55.0756 Y16.5523 
G01 X55.1773 Y16.6540 
G01 X55.2573 Y16.7736 
G01 X55.3123 Y16.9065 
G01 X55.3404 Y17.0477 
G00 Z2.0000 
G00 X42.9960 Y38.4671 
G01 Z-0.1000 F254.00 
G01 X42.9960 Y40.2729 F508.00 
G01 X42.9853 Y40.2987 
G01 X42.9657 Y40.3183 
G01 X42.9399 Y40.3290 
G01 X37.8321 Y40.3290 
G01 X37.8063 Y40.3183 
G01 X37.7867 Y40.2987 
G01 X37.7760 Y40.2729 
G01 X37.7760 Y38.4671 
G01 X37.7867 Y38.4413 
G01 X37.8063 Y38.4217 
G01 X37.8321 Y38.4110 
G01 X39.0999 Y38.4110 
G01 X37.8754 Y37.1865 
G01 X37.8135 Y37.1246 
G01 X37.7800 Y37.0438 
G01 X37.7800 Y24.3411 
G01 X37.1589 Y23.7200 
G01 X34.7200 Y23.7200 
G01 X34.7200 Y24.1485 
G01 X34.7556 Y24.1723 
G01 X34.8573 Y24.2740 
G01 X34.9373 Y24.3936 
G01 X34.9923 Y24.5265 
G01 X35.0204 Y24.6677 
G01 X35.0204 Y26.1323 
G01 X34.9923 Y26.2735 
G01 X34.9373 Y26.4064 
G01 X34.8573 Y26.5260 
G01 X34.7556 Y26.6277 
G01 X34.6360 Y26.7077 
G01 X34.5031 Y26.7627 
G01 X34.4700 Y26.7693 
G01 X34.4700 Y45.6200 
G01 X34.9039 Y45.6200 
G01 X34.9297 Y45.6307 
G01 X34.9493 Y45.6503 
G01 X34.9600 Y45.6761 
G01 X34.9600 Y46.5039 
G01 X34.9493 Y46.5297 
G01 X34.9297 Y46.5493 
G01 X34.9039 Y46.5600 
G01 X33.6761 Y46.5600 
G01 X33.6503 Y46.5493 
G01 X33.6307 Y46.5297 
G01 X33.6200 Y46.5039 
G01 X33.6200 Y45.6761 
G01 X33.6307 Y45.6503 
G01 X33.6503 Y45.6307 
G01 X33.6761 Y45.6200 
G01 X34.0300 Y45.6200 
G01 X34.0300 Y26.7433 
G01 X33.9440 Y26.7077 
G01 X33.8244 Y26.6277 
G01 X33.7227 Y26.5260 
G01 X33.6427 Y26.4064 
G01 X33.5877 Y26.2735 
G01 X33.5596 Y26.1323 
G01 X33.5596 Y24.6677 
G01 X33.5877 Y24.5265 
G01 X33.6427 Y24.3936 
G01 X33.7227 Y24.2740 
G01 X33.8244 Y24.1723 
G01 X33.9440 Y24.0923 
G01 X34.0769 Y24.0373 
G01 X34.2181 Y24.0092 
G01 X34.2800 Y24.0092 
G01 X34.2800 Y23.4562 
G01 X34.3135 Y23.3754 
G01 X34.3754 Y23.3135 
G01 X34.4562 Y23.2800 
G01 X37.2938 Y23.2800 
G01 X37.3746 Y23.3135 
G01 X37.4365 Y23.3754 
G01 X38.1865 Y24.1254 
G01 X38.2200 Y24.2062 
G01 X38.2200 Y36.9089 
G01 X39.7221 Y38.4110 
G01 X42.9399 Y38.4110 
G01 X42.9657 Y38.4217 
G01 X42.9853 Y38.4413 
G01 X42.9960 Y38.4671 
G00 Z2.0000 
G00 X4.1086 Y49.1511 
G01 Z-0.1000 F254.00 
G01 X4.1086 Y49.3501 F508.00 
G01 X4.0698 Y49.5451 
G01 X3.9937 Y49.7289 
G01 X3.8832 Y49.8943 
G01 X3.7425 Y50.0350 
G01 X3.5771 Y50.1455 
G01 X3.3933 Y50.2216 
G01 X3.1983 Y50.2604 
G01 X2.9993 Y50.2604 
G01 X2.8043 Y50.2216 
G01 X2.6205 Y50.1455 
G01 X2.4551 Y50.0350 
G01 X2.3144 Y49.8943 
G01 X2.2039 Y49.7289 
G01 X2.1278 Y49.5451 
G01 X2.0890 Y49.3501 
G01 X2.0890 Y49.1511 
G01 X2.1278 Y48.9561 
G01 X2.2039 Y48.7723 
G01 X2.3144 Y48.6069 
G01 X2.4551 Y48.4662 
G01 X2.6205 Y48.3557 
G01 X2.8043 Y48.2796 
G01 X2.9993 Y48.2408 
G01 X3.1983 Y48.2408 
G01 X3.3933 Y48.2796 
G01 X3.5771 Y48.3557 
G01 X3.7425 Y48.4662 
G01 X3.8832 Y48.6069 
G01 X3.9937 Y48.7723 
G01 X4.0698 Y48.9561 
G01 X4.1086 Y49.1511 
G00 Z2.0000 
G00 X10.6110 Y49.1511 
G01 Z-0.1000 F254.00 
G01 X10.6110 Y49.3501 F508.00 
G01 X10.5722 Y49.5451 
G01 X10.4961 Y49.7289 
G01 X10.3856 Y49.8943 
G01 X10.2449 Y50.0350 
G01 X10.0795 Y50.1455 
G01 X9.8957 Y50.2216 
G01 X9.7007 Y50.2604 
G01 X9.5017 Y50.2604 
G01 X9.3067 Y50.2216 
G01 X9.1229 Y50.1455 
G01 X8.9575 Y50.0350 
G01 X8.8168 Y49.8943 
G01 X8.7063 Y49.7289 
G01 X8.6302 Y49.5451 
G01 X8.5914 Y49.3501 
G01 X8.5914 Y49.1511 
G01 X8.6302 Y48.9561 
G01 X8.7063 Y48.7723 
G01 X8.8168 Y48.6069 
G01 X8.9575 Y48.4662 
G01 X9.1229 Y48.3557 
G01 X9.3067 Y48.2796 
G01 X9.5017 Y48.2408 
G01 X9.7007 Y48.2408 
G01 X9.8957 Y48.2796 
G01 X10.0795 Y48.3557 
G01 X10.2449 Y48.4662 
G01 X10.3856 Y48.6069 
G01 X10.4961 Y48.7723 
G01 X10.5722 Y48.9561 
G01 X10.6110 Y49.1511 
G00 Z2.0000 
G00 X4.1086 Y44.6299 
G01 Z-0.1000 F254.00 
G01 X4.1086 Y44.8289 F508.00 
G01 X4.0698 Y45.0239 
G01 X3.9937 Y45.2077 
G01 X3.8832 Y45.3731 
G01 X3.7425 Y45.5138 
G01 X3.5771 Y45.6243 
G01 X3.3933 Y45.7004 
G01 X3.1983 Y45.7392 
G01 X2.9993 Y45.7392 
G01 X2.8043 Y45.7004 
G01 X2.6205 Y45.6243 
G01 X2.4551 Y45.5138 
G01 X2.3144 Y45.3731 
G01 X2.2039 Y45.2077 
G01 X2.1278 Y45.0239 
G01 X2.0890 Y44.8289 
G01 X2.0890 Y44.6299 
G01 X2.1278 Y44.4349 
G01 X2.2039 Y44.2511 
G01 X2.3144 Y44.0857 
G01 X2.4551 Y43.9450 
G01 X2.6205 Y43.8345 
G01 X2.8043 Y43.7584 
G01 X2.9993 Y43.7196 
G01 X3.1983 Y43.7196 
G01 X3.3933 Y43.7584 
G01 X3.5771 Y43.8345 
G01 X3.5934 Y43.8454 
G01 X7.2800 Y40.1589 
G01 X7.2800 Y39.7062 
G01 X7.3135 Y39.6254 
G01 X7.3754 Y39.5635 
G01 X7.7913 Y39.1476 
G01 X7.7913 Y37.6924 
G01 X7.8020 Y37.6666 
G01 X7.8216 Y37.6470 
G01 X7.8474 Y37.6363 
G01 X9.3738 Y37.6363 
G01 X9.3995 Y37.6470 
G01 X9.4192 Y37.6666 
G01 X9.4299 Y37.6924 
G01 X9.4299 Y39.7268 
G01 X9.4192 Y39.7525 
G01 X9.3995 Y39.7722 
G01 X9.3738 Y39.7829 
G01 X7.8474 Y39.7829 
G01 X7.8216 Y39.7722 
G01 X7.8053 Y39.7559 
G01 X7.7200 Y39.8411 
G01 X7.7200 Y40.1589 
G01 X14.0911 Y46.5300 
G01 X16.7800 Y46.5300 
G01 X16.7800 Y38.4700 
G01 X14.4700 Y38.4700 
G01 X14.4700 Y38.7000 
G01 X14.7539 Y38.7000 
G01 X14.7797 Y38.7107 
G01 X14.7993 Y38.7303 
G01 X14.8100 Y38.7561 
G01 X14.8100 Y39.9839 
G01 X14.7993 Y40.0097 
G01 X14.7797 Y40.0293 
G01 X14.7539 Y40.0400 
G01 X13.9261 Y40.0400 
G01 X13.9003 Y40.0293 
G01 X13.8807 Y40.0097 
G01 X13.8700 Y39.9839 
G01 X13.8700 Y38.7561 
G01 X13.8807 Y38.7303 
G01 X13.9003 Y38.7107 
G01 X13.9261 Y38.7000 
G01 X14.0300 Y38.7000 
G01 X14.0300 Y36.2300 
G01 X13.9261 Y36.2300 
G01 X13.9003 Y36.2193 
G01 X13.8807 Y36.1996 
G01 X13.8700 Y36.1739 
G01 X13.8700 Y34.9461 
G01 X13.8807 Y34.9203 
G01 X13.9003 Y34.9007 
G01 X13.9261 Y34.8900 
G01 X14.2800 Y34.8900 
G01 X14.2800 Y33.7062 
G01 X14.3135 Y33.6254 
G01 X14.3754 Y33.5635 
G01 X16.0600 Y31.8789 
G01 X16.0600 Y31.1361 
G01 X16.0707 Y31.1103 
G01 X16.0903 Y31.0907 
G01 X16.1161 Y31.0800 
G01 X17.3439 Y31.0800 
G01 X17.3697 Y31.0907 
G01 X17.3893 Y31.1103 
G01 X17.4000 Y31.1361 
G01 X17.4000 Y32.3639 
G01 X17.3893 Y32.3897 
G01 X17.3697 Y32.4093 
G01 X17.3439 Y32.4200 
G01 X16.1411 Y32.4200 
G01 X14.7200 Y33.8411 
G01 X14.7200 Y34.8900 
G01 X14.7539 Y34.8900 
G01 X14.7797 Y34.9007 
G01 X14.7993 Y34.9203 
G01 X14.8100 Y34.9461 
G01 X14.8100 Y36.1739 
G01 X14.7993 Y36.1996 
G01 X14.7797 Y36.2193 
G01 X14.7539 Y36.2300 
G01 X14.4700 Y36.2300 
G01 X14.4700 Y38.0300 
G01 X17.0438 Y38.0300 
G01 X17.1246 Y38.0635 
G01 X17.1865 Y38.1254 
G01 X17.2200 Y38.2062 
G01 X17.2200 Y51.4000 
G01 X17.2939 Y51.4000 
G01 X17.3196 Y51.4107 
G01 X17.3393 Y51.4303 
G01 X17.3500 Y51.4561 
G01 X17.3500 Y52.6839 
G01 X17.3393 Y52.7097 
G01 X17.3196 Y52.7293 
G01 X17.2939 Y52.7400 
G01 X17.2200 Y52.7400 
G01 X17.2200 Y58.9088 
G01 X17.3729 Y58.9388 
G01 X17.5150 Y58.9977 
G01 X17.6430 Y59.0832 
G01 X17.7518 Y59.1920 
G01 X17.8373 Y59.3200 
G01 X17.8962 Y59.4621 
G01 X17.9262 Y59.6131 
G01 X17.9262 Y59.7669 
G01 X17.8962 Y59.9179 
G01 X17.8373 Y60.0600 
G01 X17.7518 Y60.1880 
G01 X17.6430 Y60.2968 
G01 X17.5150 Y60.3823 
G01 X17.3729 Y60.4412 
G01 X17.2219 Y60.4712 
G01 X17.0681 Y60.4712 
G01 X16.9171 Y60.4412 
G01 X16.7750 Y60.3823 
G01 X16.6470 Y60.2968 
G01 X16.5382 Y60.1880 
G01 X16.4527 Y60.0600 
G01 X16.3938 Y59.9179 
G01 X16.3638 Y59.7669 
G01 X16.3638 Y59.6131 
G01 X16.3938 Y59.4621 
G01 X16.4527 Y59.3200 
G01 X16.5382 Y59.1920 
G01 X16.6470 Y59.0832 
G01 X16.7750 Y58.9977 
G01 X16.7800 Y58.9956 
G01 X16.7800 Y52.7400 
G01 X16.4661 Y52.7400 
G01 X16.4403 Y52.7293 
G01 X16.4207 Y52.7097 
G01 X16.4100 Y52.6839 
G01 X16.4100 Y51.4561 
G01 X16.4207 Y51.4303 
G01 X16.4403 Y51.4107 
G01 X16.4661 Y51.4000 
G01 X16.7800 Y51.4000 
G01 X16.7800 Y46.9700 
G01 X13.9562 Y46.9700 
G01 X13.8754 Y46.9365 
G01 X13.8135 Y46.8746 
G01 X7.5000 Y40.5611 
G01 X3.9201 Y44.1410 
G01 X3.9937 Y44.2511 
G01 X4.0698 Y44.4349 
G01 X4.1086 Y44.6299 
G00 Z2.0000 
G00 X10.6110 Y44.6299 
G01 Z-0.1000 F254.00 
G01 X10.6110 Y44.8289 F508.00 
G01 X10.5722 Y45.0239 
G01 X10.4961 Y45.2077 
G01 X10.3856 Y45.3731 
G01 X10.2449 Y45.5138 
G01 X10.0795 Y45.6243 
G01 X9.8957 Y45.7004 
G01 X9.7007 Y45.7392 
G01 X9.5017 Y45.7392 
G01 X9.3067 Y45.7004 
G01 X9.1229 Y45.6243 
G01 X8.9575 Y45.5138 
G01 X8.8168 Y45.3731 
G01 X8.7063 Y45.2077 
G01 X8.6302 Y45.0239 
G01 X8.5914 Y44.8289 
G01 X8.5914 Y44.6299 
G01 X8.6302 Y44.4349 
G01 X8.7063 Y44.2511 
G01 X8.8168 Y44.0857 
G01 X8.9575 Y43.9450 
G01 X9.1229 Y43.8345 
G01 X9.3067 Y43.7584 
G01 X9.5017 Y43.7196 
G01 X9.7007 Y43.7196 
G01 X9.8957 Y43.7584 
G01 X10.0795 Y43.8345 
G01 X10.2449 Y43.9450 
G01 X10.3856 Y44.0857 
G01 X10.4961 Y44.2511 
G01 X10.5722 Y44.4349 
G01 X10.6110 Y44.6299 
G00 Z2.0000 
G00 X3.2193 Y39.7268 
G01 Z-0.1000 F254.00 
G01 X3.2193 Y37.6924 F508.00 
G01 X3.2300 Y37.6666 
G01 X3.2496 Y37.6470 
G01 X3.2754 Y37.6363 
G01 X3.7800 Y37.6363 
G01 X3.7800 Y28.3400 
G01 X2.9561 Y28.3400 
G01 X2.9303 Y28.3293 
G01 X2.9107 Y28.3097 
G01 X2.9000 Y28.2839 
G01 X2.9000 Y25.0561 
G01 X2.9107 Y25.0303 
G01 X2.9303 Y25.0107 
G01 X2.9561 Y25.0000 
G01 X4.7639 Y25.0000 
G01 X4.7896 Y25.0107 
G01 X4.8093 Y25.0303 
G01 X4.8200 Y25.0561 
G01 X4.8200 Y28.2839 
G01 X4.8093 Y28.3097 
G01 X4.7896 Y28.3293 
G01 X4.7639 Y28.3400 
G01 X4.2200 Y28.3400 
G01 X4.2200 Y37.6363 
G01 X4.8018 Y37.6363 
G01 X4.8276 Y37.6470 
G01 X4.8472 Y37.6666 
G01 X4.8579 Y37.6924 
G01 X4.8579 Y39.7268 
G01 X4.8472 Y39.7525 
G01 X4.8276 Y39.7722 
G01 X4.8018 Y39.7829 
G01 X3.2754 Y39.7829 
G01 X3.2496 Y39.7722 
G01 X3.2300 Y39.7525 
G01 X3.2193 Y39.7268 
G00 Z2.0000 
G00 X4.3750 Y33.4276 
G01 Z-0.1000 F254.00 
G01 X4.3750 Y31.3932 F508.00 
G01 X4.3857 Y31.3674 
G01 X4.4053 Y31.3478 
G01 X4.4311 Y31.3371 
G01 X8.2689 Y31.3371 
G01 X8.2947 Y31.3478 
G01 X8.3143 Y31.3674 
G01 X8.3250 Y31.3932 
G01 X8.3250 Y33.4276 
G01 X8.3143 Y33.4534 
G01 X8.2947 Y33.4730 
G01 X8.2689 Y33.4837 
G01 X4.4311 Y33.4837 
G01 X4.4053 Y33.4730 
G01 X4.3857 Y33.4534 
G01 X4.3750 Y33.4276 
G00 Z2.0000 
G00 X18.2161 Y32.4200 
G01 Z-0.1000 F254.00 
G01 X18.1903 Y32.4093 F508.00 
G01 X18.1707 Y32.3897 
G01 X18.1600 Y32.3639 
G01 X18.1600 Y31.1361 
G01 X18.1707 Y31.1103 
G01 X18.1903 Y31.0907 
G01 X18.2161 Y31.0800 
G01 X19.4439 Y31.0800 
G01 X19.4697 Y31.0907 
G01 X19.4893 Y31.1103 
G01 X19.5000 Y31.1361 
G01 X19.5000 Y31.9389 
G01 X21.1246 Y33.5635 
G01 X21.1865 Y33.6254 
G01 X21.2200 Y33.7062 
G01 X21.2200 Y34.8900 
G01 X21.6339 Y34.8900 
G01 X21.6597 Y34.9007 
G01 X21.6793 Y34.9203 
G01 X21.6900 Y34.9461 
G01 X21.6900 Y36.1739 
G01 X21.6793 Y36.1996 
G01 X21.6597 Y36.2193 
G01 X21.6339 Y36.2300 
G01 X20.8061 Y36.2300 
G01 X20.7803 Y36.2193 
G01 X20.7607 Y36.1996 
G01 X20.7500 Y36.1739 
G01 X20.7500 Y34.9461 
G01 X20.7607 Y34.9203 
G01 X20.7800 Y34.9010 
G01 X20.7800 Y33.8411 
G01 X19.3589 Y32.4200 
G01 X18.2161 Y32.4200 
G00 Z2.0000 
G00 X1.6123 Y52.4318 
G01 Z-0.1000 F254.00 
G01 X3.4677 Y52.4318 F508.00 
G01 X3.6431 Y52.4667 
G01 X3.8084 Y52.5352 
G01 X3.9571 Y52.6346 
G01 X4.0836 Y52.7611 
G01 X4.1830 Y52.9098 
G01 X4.2328 Y53.0300 
G01 X10.9089 Y53.0300 
G01 X14.4350 Y49.5039 
G01 X14.4350 Y48.4911 
G01 X14.4457 Y48.4653 
G01 X14.4653 Y48.4457 
G01 X14.4911 Y48.4350 
G01 X15.9889 Y48.4350 
G01 X16.0146 Y48.4457 
G01 X16.0343 Y48.4653 
G01 X16.0450 Y48.4911 
G01 X16.0450 Y49.7889 
G01 X16.0343 Y49.8147 
G01 X16.0146 Y49.8343 
G01 X15.9889 Y49.8450 
G01 X14.7161 Y49.8450 
G01 X11.1865 Y53.3746 
G01 X11.1246 Y53.4365 
G01 X11.0438 Y53.4700 
G01 X4.2783 Y53.4700 
G01 X4.2515 Y53.6049 
G01 X4.1830 Y53.7702 
G01 X4.0836 Y53.9189 
G01 X3.9571 Y54.0454 
G01 X3.8084 Y54.1448 
G01 X3.6431 Y54.2133 
G01 X3.4677 Y54.2482 
G01 X1.6123 Y54.2482 
G01 X1.4369 Y54.2133 
G01 X1.2716 Y54.1448 
G01 X1.1229 Y54.0454 
G01 X0.9964 Y53.9189 
G01 X0.8970 Y53.7702 
G01 X0.8285 Y53.6049 
G01 X0.7936 Y53.4295 
G01 X0.7936 Y53.2505 
G01 X0.8285 Y53.0751 
G01 X0.8970 Y52.9098 
G01 X0.9964 Y52.7611 
G01 X1.1229 Y52.6346 
G01 X1.2716 Y52.5352 
G01 X1.4369 Y52.4667 
G01 X1.6123 Y52.4318 
G00 Z2.0000 
G00 X1.6123 Y60.0518 
G01 Z-0.1000 F254.00 
G01 X3.4677 Y60.0518 F508.00 
G01 X3.6431 Y60.0867 
G01 X3.8084 Y60.1552 
G01 X3.9571 Y60.2546 
G01 X4.0836 Y60.3811 
G01 X4.1830 Y60.5298 
G01 X4.2515 Y60.6951 
G01 X4.2864 Y60.8705 
G01 X4.2864 Y61.0495 
G01 X4.2515 Y61.2249 
G01 X4.1830 Y61.3902 
G01 X4.0836 Y61.5389 
G01 X3.9571 Y61.6654 
G01 X3.8084 Y61.7648 
G01 X3.6431 Y61.8333 
G01 X3.4677 Y61.8682 
G01 X1.6123 Y61.8682 
G01 X1.4369 Y61.8333 
G01 X1.2716 Y61.7648 
G01 X1.1229 Y61.6654 
G01 X0.9964 Y61.5389 
G01 X0.8970 Y61.3902 
G01 X0.8285 Y61.2249 
G01 X0.7936 Y61.0495 
G01 X0.7936 Y60.8705 
G01 X0.8285 Y60.6951 
G01 X0.8970 Y60.5298 
G01 X0.9964 Y60.3811 
G01 X1.1229 Y60.2546 
G01 X1.2716 Y60.1552 
G01 X1.4369 Y60.0867 
G01 X1.6123 Y60.0518 
G00 Z2.0000 
G00 X16.6100 Y38.7561 
G01 Z-0.1000 F254.00 
G01 X16.6100 Y39.9839 F508.00 
G01 X16.5993 Y40.0097 
G01 X16.5797 Y40.0293 
G01 X16.5539 Y40.0400 
G01 X15.7711 Y40.0400 
G01 X15.4700 Y40.3411 
G01 X15.4700 Y44.1350 
G01 X15.9889 Y44.1350 
G01 X16.0146 Y44.1457 
G01 X16.0343 Y44.1653 
G01 X16.0450 Y44.1911 
G01 X16.0450 Y45.4889 
G01 X16.0343 Y45.5147 
G01 X16.0146 Y45.5343 
G01 X15.9889 Y45.5450 
G01 X14.4911 Y45.5450 
G01 X14.4653 Y45.5343 
G01 X14.4457 Y45.5147 
G01 X14.4350 Y45.4889 
G01 X14.4350 Y44.1911 
G01 X14.4457 Y44.1653 
G01 X14.4653 Y44.1457 
G01 X14.4911 Y44.1350 
G01 X15.0300 Y44.1350 
G01 X15.0300 Y42.0911 
G01 X13.3135 Y40.3746 
G01 X13.2800 Y40.2938 
G01 X13.2800 Y31.3411 
G01 X9.8000 Y27.8611 
G01 X9.8000 Y28.2839 
G01 X9.7893 Y28.3097 
G01 X9.7697 Y28.3293 
G01 X9.7439 Y28.3400 
G01 X7.9361 Y28.3400 
G01 X7.9103 Y28.3293 
G01 X7.8907 Y28.3097 
G01 X7.8800 Y28.2839 
G01 X7.8800 Y25.0561 
G01 X7.8907 Y25.0303 
G01 X7.9103 Y25.0107 
G01 X7.9361 Y25.0000 
G01 X9.7439 Y25.0000 
G01 X9.7697 Y25.0107 
G01 X9.7893 Y25.0303 
G01 X9.8000 Y25.0561 
G01 X9.8000 Y27.2389 
G01 X13.6246 Y31.0635 
G01 X13.6865 Y31.1254 
G01 X13.7200 Y31.2062 
G01 X13.7200 Y40.1589 
G01 X15.0300 Y41.4689 
G01 X15.0300 Y40.2062 
G01 X15.0635 Y40.1254 
G01 X15.1254 Y40.0635 
G01 X15.6700 Y39.5189 
G01 X15.6700 Y38.7561 
G01 X15.6807 Y38.7303 
G01 X15.7003 Y38.7107 
G01 X15.7261 Y38.7000 
G01 X16.5539 Y38.7000 
G01 X16.5797 Y38.7107 
G01 X16.5993 Y38.7303 
G01 X16.6100 Y38.7561 
G00 Z2.0000 
G00 X20.4662 Y59.6131 
G01 Z-0.1000 F254.00 
G01 X20.4662 Y59.7669 F508.00 
G01 X20.4362 Y59.9179 
G01 X20.3773 Y60.0600 
G01 X20.2918 Y60.1880 
G01 X20.1830 Y60.2968 
G01 X20.0550 Y60.3823 
G01 X19.9129 Y60.4412 
G01 X19.7619 Y60.4712 
G01 X19.6081 Y60.4712 
G01 X19.4571 Y60.4412 
G01 X19.3150 Y60.3823 
G01 X19.1870 Y60.2968 
G01 X19.0782 Y60.1880 
G01 X18.9927 Y60.0600 
G01 X18.9338 Y59.9179 
G01 X18.9038 Y59.7669 
G01 X18.9038 Y59.6131 
G01 X18.9338 Y59.4621 
G01 X18.9927 Y59.3200 
G01 X19.0782 Y59.1920 
G01 X19.1870 Y59.0832 
G01 X19.3150 Y58.9977 
G01 X19.4571 Y58.9388 
G01 X19.5300 Y58.9243 
G01 X19.5300 Y56.2062 
G01 X19.5635 Y56.1254 
G01 X19.6254 Y56.0635 
G01 X23.2900 Y52.3989 
G01 X23.2900 Y51.4561 
G01 X23.3007 Y51.4303 
G01 X23.3203 Y51.4107 
G01 X23.3461 Y51.4000 
G01 X23.5300 Y51.4000 
G01 X23.5300 Y48.9300 
G01 X23.3461 Y48.9300 
G01 X23.3203 Y48.9193 
G01 X23.3007 Y48.8997 
G01 X23.2900 Y48.8739 
G01 X23.2900 Y47.6461 
G01 X23.3007 Y47.6203 
G01 X23.3203 Y47.6007 
G01 X23.3461 Y47.5900 
G01 X24.1739 Y47.5900 
G01 X24.1997 Y47.6007 
G01 X24.2193 Y47.6203 
G01 X24.2300 Y47.6461 
G01 X24.2300 Y48.8739 
G01 X24.2193 Y48.8997 
G01 X24.1997 Y48.9193 
G01 X24.1739 Y48.9300 
G01 X23.9700 Y48.9300 
G01 X23.9700 Y51.4000 
G01 X24.1739 Y51.4000 
G01 X24.1997 Y51.4107 
G01 X24.2193 Y51.4303 
G01 X24.2300 Y51.4561 
G01 X24.2300 Y52.6839 
G01 X24.2193 Y52.7097 
G01 X24.1997 Y52.7293 
G01 X24.1739 Y52.7400 
G01 X23.5711 Y52.7400 
G01 X19.9700 Y56.3411 
G01 X19.9700 Y58.9625 
G01 X20.0550 Y58.9977 
G01 X20.1830 Y59.0832 
G01 X20.2918 Y59.1920 
G01 X20.3773 Y59.3200 
G01 X20.4362 Y59.4621 
G01 X20.4662 Y59.6131 
G00 Z2.0000 
G00 X16.6562 Y57.0731 
G01 Z-0.1000 F254.00 
G01 X16.6562 Y57.2269 F508.00 
G01 X16.6262 Y57.3779 
G01 X16.5673 Y57.5200 
G01 X16.4818 Y57.6480 
G01 X16.3730 Y57.7568 
G01 X16.2450 Y57.8423 
G01 X16.1029 Y57.9012 
G01 X15.9519 Y57.9312 
G01 X15.7981 Y57.9312 
G01 X15.6471 Y57.9012 
G01 X15.5050 Y57.8423 
G01 X15.3770 Y57.7568 
G01 X15.2682 Y57.6480 
G01 X15.1827 Y57.5200 
G01 X15.1620 Y57.4700 
G01 X4.2287 Y57.4700 
G01 X4.1830 Y57.5802 
G01 X4.0836 Y57.7289 
G01 X3.9571 Y57.8554 
G01 X3.8084 Y57.9548 
G01 X3.6431 Y58.0233 
G01 X3.4677 Y58.0582 
G01 X1.6123 Y58.0582 
G01 X1.4369 Y58.0233 
G01 X1.2716 Y57.9548 
G01 X1.1229 Y57.8554 
G01 X0.9964 Y57.7289 
G01 X0.8970 Y57.5802 
G01 X0.8285 Y57.4149 
G01 X0.7936 Y57.2395 
G01 X0.7936 Y57.0605 
G01 X0.8285 Y56.8851 
G01 X0.8970 Y56.7198 
G01 X0.9964 Y56.5711 
G01 X1.1229 Y56.4446 
G01 X1.2716 Y56.3452 
G01 X1.4369 Y56.2767 
G01 X1.6123 Y56.2418 
G01 X3.4677 Y56.2418 
G01 X3.6431 Y56.2767 
G01 X3.8084 Y56.3452 
G01 X3.9571 Y56.4446 
G01 X4.0836 Y56.5711 
G01 X4.1830 Y56.7198 
G01 X4.2515 Y56.8851 
G01 X4.2803 Y57.0300 
G01 X15.1024 Y57.0300 
G01 X15.1238 Y56.9221 
G01 X15.1827 Y56.7800 
G01 X15.2682 Y56.6520 
G01 X15.3770 Y56.5432 
G01 X15.5050 Y56.4577 
G01 X15.6471 Y56.3988 
G01 X15.7981 Y56.3688 
G01 X15.9519 Y56.3688 
G01 X16.1029 Y56.3988 
G01 X16.2450 Y56.4577 
G01 X16.3730 Y56.5432 
G01 X16.4818 Y56.6520 
G01 X16.5673 Y56.7800 
G01 X16.6262 Y56.9221 
G01 X16.6562 Y57.0731 
G00 Z2.0000 
G00 X38.1246 Y44.8135 
G01 Z-0.1000 F254.00 
G01 X38.1865 Y44.8754 F508.00 
G01 X38.2200 Y44.9562 
G01 X38.2200 Y45.6200 
G01 X38.7139 Y45.6200 
G01 X38.7397 Y45.6307 
G01 X38.7593 Y45.6503 
G01 X38.7700 Y45.6761 
G01 X38.7700 Y46.5039 
G01 X38.7593 Y46.5297 
G01 X38.7397 Y46.5493 
G01 X38.7139 Y46.5600 
G01 X38.2200 Y46.5600 
G01 X38.2200 Y47.0438 
G01 X38.1865 Y47.1246 
G01 X38.1246 Y47.1865 
G01 X38.0438 Y47.2200 
G01 X28.7062 Y47.2200 
G01 X28.6254 Y47.1865 
G01 X28.5635 Y47.1246 
G01 X21.4789 Y40.0400 
G01 X20.8061 Y40.0400 
G01 X20.7803 Y40.0293 
G01 X20.7607 Y40.0097 
G01 X20.7500 Y39.9839 
G01 X20.7500 Y38.7561 
G01 X20.7607 Y38.7303 
G01 X20.7803 Y38.7107 
G01 X20.8061 Y38.7000 
G01 X21.6339 Y38.7000 
G01 X21.6597 Y38.7107 
G01 X21.6793 Y38.7303 
G01 X21.6900 Y38.7561 
G01 X21.6900 Y39.6289 
G01 X28.8411 Y46.7800 
G01 X37.7800 Y46.7800 
G01 X37.7800 Y46.5600 
G01 X37.4861 Y46.5600 
G01 X37.4603 Y46.5493 
G01 X37.4407 Y46.5297 
G01 X37.4300 Y46.5039 
G01 X37.4300 Y45.6761 
G01 X37.4407 Y45.6503 
G01 X37.4603 Y45.6307 
G01 X37.4861 Y45.6200 
G01 X37.7800 Y45.6200 
G01 X37.7800 Y45.0911 
G01 X36.7259 Y44.0370 
G01 X36.7231 Y44.0386 
G01 X36.5761 Y44.0780 
G01 X36.4239 Y44.0780 
G01 X36.2769 Y44.0386 
G01 X36.1451 Y43.9625 
G01 X36.0375 Y43.8549 
G01 X35.9614 Y43.7231 
G01 X35.9220 Y43.5761 
G01 X35.9220 Y43.4239 
G01 X35.9614 Y43.2769 
G01 X36.0375 Y43.1451 
G01 X36.1451 Y43.0375 
G01 X36.2769 Y42.9614 
G01 X36.4239 Y42.9220 
G01 X36.5761 Y42.9220 
G01 X36.7231 Y42.9614 
G01 X36.8549 Y43.0375 
G01 X36.9625 Y43.1451 
G01 X37.0386 Y43.2769 
G01 X37.0780 Y43.4239 
G01 X37.0780 Y43.5761 
G01 X37.0386 Y43.7231 
G01 X37.0370 Y43.7259 
G01 X38.1246 Y44.8135 
G00 Z2.0000 
G00 X5.9880 Y65.8972 
G01 Z-0.1000 F254.00 
G01 X5.9880 Y66.1828 F508.00 
G01 X5.9507 Y66.4658 
G01 X5.8768 Y66.7416 
G01 X5.7676 Y67.0054 
G01 X5.6248 Y67.2526 
G01 X5.4510 Y67.4791 
G01 X5.2491 Y67.6810 
G01 X5.0226 Y67.8548 
G01 X4.7754 Y67.9976 
G01 X4.5116 Y68.1068 
G01 X4.2358 Y68.1807 
G01 X3.9528 Y68.2180 
G01 X3.6672 Y68.2180 
G01 X3.3842 Y68.1807 
G01 X3.1084 Y68.1068 
G01 X2.8446 Y67.9976 
G01 X2.5974 Y67.8548 
G01 X2.3709 Y67.6810 
G01 X2.1690 Y67.4791 
G01 X1.9952 Y67.2526 
G01 X1.8524 Y67.0054 
G01 X1.7432 Y66.7416 
G01 X1.6693 Y66.4658 
G01 X1.6320 Y66.1828 
G01 X1.6320 Y65.8972 
G01 X1.6693 Y65.6142 
G01 X1.7432 Y65.3384 
G01 X1.8524 Y65.0746 
G01 X1.9952 Y64.8274 
G01 X2.1690 Y64.6009 
G01 X2.3709 Y64.3990 
G01 X2.5974 Y64.2252 
G01 X2.8446 Y64.0824 
G01 X3.1084 Y63.9732 
G01 X3.3842 Y63.8993 
G01 X3.6672 Y63.8620 
G01 X3.9528 Y63.8620 
G01 X4.2358 Y63.8993 
G01 X4.5116 Y63.9732 
G01 X4.7754 Y64.0824 
G01 X5.0226 Y64.2252 
G01 X5.2491 Y64.3990 
G01 X5.4510 Y64.6009 
G01 X5.6248 Y64.8274 
G01 X5.7676 Y65.0746 
G01 X5.8768 Y65.3384 
G01 X5.9507 Y65.6142 
G01 X5.9880 Y65.8972 
G00 Z2.0000 
G00 X5.9880 Y3.6672 
G01 Z-0.1000 F254.00 
G01 X5.9880 Y3.9528 F508.00 
G01 X5.9507 Y4.2358 
G01 X5.8768 Y4.5116 
G01 X5.7676 Y4.7754 
G01 X5.6248 Y5.0226 
G01 X5.4510 Y5.2491 
G01 X5.2491 Y5.4510 
G01 X5.0226 Y5.6248 
G01 X4.7754 Y5.7676 
G01 X4.5116 Y5.8768 
G01 X4.2358 Y5.9507 
G01 X3.9528 Y5.9880 
G01 X3.6672 Y5.9880 
G01 X3.3842 Y5.9507 
G01 X3.1084 Y5.8768 
G01 X2.8446 Y5.7676 
G01 X2.5974 Y5.6248 
G01 X2.3709 Y5.4510 
G01 X2.1690 Y5.2491 
G01 X1.9952 Y5.0226 
G01 X1.8524 Y4.7754 
G01 X1.7432 Y4.5116 
G01 X1.6693 Y4.2358 
G01 X1.6320 Y3.9528 
G01 X1.6320 Y3.6672 
G01 X1.6693 Y3.3842 
G01 X1.7432 Y3.1084 
G01 X1.8524 Y2.8446 
G01 X1.9952 Y2.5974 
G01 X2.1690 Y2.3709 
G01 X2.3709 Y2.1690 
G01 X2.5974 Y1.9952 
G01 X2.8446 Y1.8524 
G01 X3.1084 Y1.7432 
G01 X3.3842 Y1.6693 
G01 X3.6672 Y1.6320 
G01 X3.9528 Y1.6320 
G01 X4.2358 Y1.6693 
G01 X4.5116 Y1.7432 
G01 X4.7754 Y1.8524 
G01 X5.0226 Y1.9952 
G01 X5.2491 Y2.1690 
G01 X5.4510 Y2.3709 
G01 X5.6248 Y2.5974 
G01 X5.7676 Y2.8446 
G01 X5.8768 Y3.1084 
G01 X5.9507 Y3.3842 
G01 X5.9880 Y3.6672 
G00 Z2.0000 
G00 X97.4280 Y65.8972 
G01 Z-0.1000 F254.00 
G01 X97.4280 Y66.1828 F508.00 
G01 X97.3907 Y66.4658 
G01 X97.3168 Y66.7416 
G01 X97.2076 Y67.0054 
G01 X97.0648 Y67.2526 
G01 X96.8910 Y67.4791 
G01 X96.6891 Y67.6810 
G01 X96.4626 Y67.8548 
G01 X96.2154 Y67.9976 
G01 X95.9516 Y68.1068 
G01 X95.6758 Y68.1807 
G01 X95.3928 Y68.2180 
G01 X95.1072 Y68.2180 
G01 X94.8242 Y68.1807 
G01 X94.5484 Y68.1068 
G01 X94.2846 Y67.9976 
G01 X94.0374 Y67.8548 
G01 X93.8109 Y67.6810 
G01 X93.6090 Y67.4791 
G01 X93.4352 Y67.2526 
G01 X93.2924 Y67.0054 
G01 X93.1832 Y66.7416 
G01 X93.1093 Y66.4658 
G01 X93.0720 Y66.1828 
G01 X93.0720 Y65.8972 
G01 X93.1093 Y65.6142 
G01 X93.1832 Y65.3384 
G01 X93.2924 Y65.0746 
G01 X93.4352 Y64.8274 
G01 X93.6090 Y64.6009 
G01 X93.8109 Y64.3990 
G01 X94.0374 Y64.2252 
G01 X94.2846 Y64.0824 
G01 X94.5484 Y63.9732 
G01 X94.8242 Y63.8993 
G01 X95.1072 Y63.8620 
G01 X95.3928 Y63.8620 
G01 X95.6758 Y63.8993 
G01 X95.9516 Y63.9732 
G01 X96.2154 Y64.0824 
G01 X96.4626 Y64.2252 
G01 X96.6891 Y64.3990 
G01 X96.8910 Y64.6009 
G01 X97.0648 Y64.8274 
G01 X97.2076 Y65.0746 
G01 X97.3168 Y65.3384 
G01 X97.3907 Y65.6142 
G01 X97.4280 Y65.8972 
G00 Z2.0000 
G00 X97.4280 Y3.6672 
G01 Z-0.1000 F254.00 
G01 X97.4280 Y3.9528 F508.00 
G01 X97.3907 Y4.2358 
G01 X97.3168 Y4.5116 
G01 X97.2076 Y4.7754 
G01 X97.0648 Y5.0226 
G01 X96.8910 Y5.2491 
G01 X96.6891 Y5.4510 
G01 X96.4626 Y5.6248 
G01 X96.2154 Y5.7676 
G01 X95.9516 Y5.8768 
G01 X95.6758 Y5.9507 
G01 X95.3928 Y5.9880 
G01 X95.1072 Y5.9880 
G01 X94.8242 Y5.9507 
G01 X94.5484 Y5.8768 
G01 X94.2846 Y5.7676 
G01 X94.0374 Y5.6248 
G01 X93.8109 Y5.4510 
G01 X93.6090 Y5.2491 
G01 X93.4352 Y5.0226 
G01 X93.2924 Y4.7754 
G01 X93.1832 Y4.5116 
G01 X93.1093 Y4.2358 
G01 X93.0720 Y3.9528 
G01 X93.0720 Y3.6672 
G01 X93.1093 Y3.3842 
G01 X93.1832 Y3.1084 
G01 X93.2924 Y2.8446 
G01 X93.4352 Y2.5974 
G01 X93.6090 Y2.3709 
G01 X93.8109 Y2.1690 
G01 X94.0374 Y1.9952 
G01 X94.2846 Y1.8524 
G01 X94.5484 Y1.7432 
G01 X94.8242 Y1.6693 
G01 X95.1072 Y1.6320 
G01 X95.3928 Y1.6320 
G01 X95.6758 Y1.6693 
G01 X95.9516 Y1.7432 
G01 X96.2154 Y1.8524 
G01 X96.4626 Y1.9952 
G01 X96.6891 Y2.1690 
G01 X96.8910 Y2.3709 
G01 X97.0648 Y2.5974 
G01 X97.2076 Y2.8446 
G01 X97.3168 Y3.1084 
G01 X97.3907 Y3.3842 
G01 X97.4280 Y3.6672 
G00 Z2.0000 
G00 X7.6913 Y37.7612 
G01 Z-0.1000 F254.00 
G01 X7.2439 Y38.2086 F508.00 
G01 X7.2439 Y39.5536 
G01 X7.3035 Y39.4939 
G01 X7.6913 Y39.1061 
G01 X7.6913 Y37.7612 
G00 Z2.0000 
G00 X57.6175 Y65.1800 
G01 Z-0.1000 F254.00 
G01 X57.6775 Y65.1200 F508.00 
G01 X56.2462 Y65.1200 
G01 X56.1837 Y65.0941 
G01 X56.1359 Y65.0463 
G01 X56.1100 Y64.9838 
G01 X56.1100 Y64.8200 
G01 X46.7079 Y64.8200 
G01 X46.6265 Y64.7982 
G01 X46.5535 Y64.7561 
G01 X46.4939 Y64.6965 
G01 X46.4900 Y64.6897 
G01 X46.4900 Y64.8338 
G01 X46.4641 Y64.8963 
G01 X46.4163 Y64.9441 
G01 X46.3538 Y64.9700 
G01 X46.0700 Y64.9700 
G01 X46.0700 Y65.1800 
G01 X57.6175 Y65.1800 
G00 Z2.0000 
G00 X49.1282 Y54.9099 
G01 Z-0.1000 F254.00 
G01 X49.9318 Y54.9099 F508.00 
G01 X50.0347 Y55.0128 
G01 X50.5475 Y54.5000 
G01 X50.1447 Y54.0972 
G01 X49.9318 Y54.3101 
G01 X49.1282 Y54.3101 
G01 X48.5700 Y53.7519 
G01 X48.5700 Y55.4681 
G01 X49.1282 Y54.9099 
G00 Z2.0000 
G00 X48.7678 Y59.0297 
G01 Z-0.1000 F254.00 
G01 X48.5700 Y58.8319 F508.00 
G01 X48.5700 Y59.2275 
G01 X48.7678 Y59.0297 
G00 Z2.0000 
G00 X13.8437 Y34.8159 
G01 Z-0.1000 F254.00 
G01 X13.9062 Y34.7900 F508.00 
G01 X14.1800 Y34.7900 
G01 X14.1800 Y33.7079 
G01 X14.2018 Y33.6265 
G01 X14.2439 Y33.5535 
G01 X14.3035 Y33.4939 
G01 X15.9600 Y31.8375 
G01 X15.9600 Y31.1162 
G01 X15.9859 Y31.0537 
G01 X16.0337 Y31.0059 
G01 X16.0962 Y30.9800 
G01 X17.3638 Y30.9800 
G01 X17.4263 Y31.0059 
G01 X17.4300 Y31.0096 
G01 X17.4300 Y24.8200 
G01 X7.8825 Y24.8200 
G01 X7.8200 Y24.8825 
G01 X7.8200 Y24.9596 
G01 X7.8537 Y24.9259 
G01 X7.9162 Y24.9000 
G01 X9.7638 Y24.9000 
G01 X9.8263 Y24.9259 
G01 X9.8741 Y24.9737 
G01 X9.9000 Y25.0362 
G01 X9.9000 Y27.1975 
G01 X13.6965 Y30.9939 
G01 X13.7561 Y31.0535 
G01 X13.7982 Y31.1265 
G01 X13.8200 Y31.2079 
G01 X13.8200 Y34.8396 
G01 X13.8437 Y34.8159 
G00 Z2.0000 
G00 X13.8437 Y38.6259 
G01 Z-0.1000 F254.00 
G01 X13.9062 Y38.6000 F508.00 
G01 X13.9300 Y38.6000 
G01 X13.9300 Y36.3300 
G01 X13.9062 Y36.3300 
G01 X13.8437 Y36.3041 
G01 X13.8200 Y36.2804 
G01 X13.8200 Y38.6496 
G01 X13.8437 Y38.6259 
G00 Z2.0000 
G00 X14.4712 Y44.0350 
G01 Z-0.1000 F254.00 
G01 X14.9300 Y44.0350 F508.00 
G01 X14.9300 Y42.1325 
G01 X13.2439 Y40.4465 
G01 X13.2018 Y40.3735 
G01 X13.1800 Y40.2921 
G01 X13.1800 Y31.3825 
G01 X9.9000 Y28.1025 
G01 X9.9000 Y28.3038 
G01 X9.8741 Y28.3663 
G01 X9.8263 Y28.4141 
G01 X9.7638 Y28.4400 
G01 X7.9162 Y28.4400 
G01 X7.8758 Y28.4233 
G01 X9.0061 Y29.5535 
G01 X9.0482 Y29.6265 
G01 X9.0700 Y29.7079 
G01 X9.0700 Y36.2921 
G01 X9.0482 Y36.3735 
G01 X9.0061 Y36.4465 
G01 X8.9465 Y36.5061 
G01 X7.9162 Y37.5363 
G01 X9.3937 Y37.5363 
G01 X9.4562 Y37.5622 
G01 X9.5040 Y37.6100 
G01 X9.5299 Y37.6725 
G01 X9.5299 Y39.7467 
G01 X9.5040 Y39.8092 
G01 X9.4562 Y39.8570 
G01 X9.3937 Y39.8829 
G01 X7.8275 Y39.8829 
G01 X7.8219 Y39.8806 
G01 X7.8200 Y40.1175 
G01 X14.1325 Y46.4300 
G01 X16.6800 Y46.4300 
G01 X16.6800 Y40.0704 
G01 X16.6363 Y40.1141 
G01 X16.5738 Y40.1400 
G01 X15.8125 Y40.1400 
G01 X15.5700 Y40.3825 
G01 X15.5700 Y44.0350 
G01 X16.0088 Y44.0350 
G01 X16.0713 Y44.0609 
G01 X16.1191 Y44.1087 
G01 X16.1450 Y44.1712 
G01 X16.1450 Y45.5088 
G01 X16.1191 Y45.5713 
G01 X16.0713 Y45.6191 
G01 X16.0088 Y45.6450 
G01 X14.4712 Y45.6450 
G01 X14.4087 Y45.6191 
G01 X14.3609 Y45.5713 
G01 X14.3350 Y45.5088 
G01 X14.3350 Y44.1712 
G01 X14.3609 Y44.1087 
G01 X14.4087 Y44.0609 
G01 X14.4712 Y44.0350 
G00 Z2.0000 
G00 X14.9300 Y40.2079 
G01 Z-0.1000 F254.00 
G01 X14.9518 Y40.1265 F508.00 
G01 X14.9939 Y40.0535 
G01 X15.0535 Y39.9939 
G01 X15.5700 Y39.4775 
G01 X15.5700 Y38.7362 
G01 X15.5959 Y38.6737 
G01 X15.6437 Y38.6259 
G01 X15.7062 Y38.6000 
G01 X16.5738 Y38.6000 
G01 X16.6363 Y38.6259 
G01 X16.6800 Y38.6696 
G01 X16.6800 Y38.5700 
G01 X14.5700 Y38.5700 
G01 X14.5700 Y38.6000 
G01 X14.7738 Y38.6000 
G01 X14.8363 Y38.6259 
G01 X14.8841 Y38.6737 
G01 X14.9100 Y38.7362 
G01 X14.9100 Y40.0038 
G01 X14.8841 Y40.0663 
G01 X14.8363 Y40.1141 
G01 X14.7738 Y40.1400 
G01 X13.9062 Y40.1400 
G01 X13.8437 Y40.1141 
G01 X13.8200 Y40.0904 
G01 X13.8200 Y40.1175 
G01 X14.9300 Y41.2275 
G01 X14.9300 Y40.2079 
G00 Z2.0000 
G00 X2.8000 Y28.3038 
G01 Z-0.1000 F254.00 
G01 X2.8000 Y25.0362 F508.00 
G01 X2.8259 Y24.9737 
G01 X2.8737 Y24.9259 
G01 X2.9362 Y24.9000 
G01 X4.7838 Y24.9000 
G01 X4.8463 Y24.9259 
G01 X4.8941 Y24.9737 
G01 X4.9200 Y25.0362 
G01 X4.9200 Y28.3038 
G01 X4.8941 Y28.3663 
G01 X4.8463 Y28.4141 
G01 X4.7838 Y28.4400 
G01 X4.3200 Y28.4400 
G01 X4.3200 Y31.2917 
G01 X4.3487 Y31.2630 
G01 X4.4112 Y31.2371 
G01 X8.2888 Y31.2371 
G01 X8.3513 Y31.2630 
G01 X8.3991 Y31.3108 
G01 X8.4250 Y31.3733 
G01 X8.4250 Y33.4475 
G01 X8.3991 Y33.5100 
G01 X8.3513 Y33.5578 
G01 X8.2888 Y33.5837 
G01 X4.4112 Y33.5837 
G01 X4.3487 Y33.5578 
G01 X4.3200 Y33.5291 
G01 X4.3200 Y37.5363 
G01 X4.8217 Y37.5363 
G01 X4.8842 Y37.5622 
G01 X4.9320 Y37.6100 
G01 X4.9579 Y37.6725 
G01 X4.9579 Y39.7467 
G01 X4.9320 Y39.8092 
G01 X4.8842 Y39.8570 
G01 X4.8217 Y39.8829 
G01 X3.2555 Y39.8829 
G01 X3.1930 Y39.8570 
G01 X3.1452 Y39.8092 
G01 X3.1193 Y39.7467 
G01 X3.1193 Y37.6725 
G01 X3.1452 Y37.6100 
G01 X3.1930 Y37.5622 
G01 X3.2555 Y37.5363 
G01 X3.6800 Y37.5363 
G01 X3.6800 Y28.4400 
G01 X2.9362 Y28.4400 
G01 X2.8737 Y28.4141 
G01 X2.8259 Y28.3663 
G01 X2.8000 Y28.3038 
G00 Z2.0000 
G00 X19.2962 Y57.0632 
G01 Z-0.1000 F254.00 
G01 X19.2962 Y57.2368 F508.00 
G01 X19.2623 Y57.4070 
G01 X19.1959 Y57.5674 
G01 X19.0995 Y57.7117 
G01 X18.9767 Y57.8345 
G01 X18.8324 Y57.9309 
G01 X18.6720 Y57.9973 
G01 X18.5018 Y58.0312 
G01 X18.3282 Y58.0312 
G01 X18.1580 Y57.9973 
G01 X17.9976 Y57.9309 
G01 X17.8533 Y57.8345 
G01 X17.7305 Y57.7117 
G01 X17.6341 Y57.5674 
G01 X17.5677 Y57.4070 
G01 X17.5338 Y57.2368 
G01 X17.5338 Y57.0632 
G01 X17.5677 Y56.8930 
G01 X17.6341 Y56.7326 
G01 X17.7305 Y56.5883 
G01 X17.8533 Y56.4655 
G01 X17.9976 Y56.3691 
G01 X18.1580 Y56.3027 
G01 X18.1800 Y56.2983 
G01 X18.1800 Y52.8104 
G01 X18.1359 Y52.7663 
G01 X18.1100 Y52.7038 
G01 X18.1100 Y51.4362 
G01 X18.1359 Y51.3737 
G01 X18.1837 Y51.3259 
G01 X18.2462 Y51.3000 
G01 X19.1138 Y51.3000 
G01 X19.1763 Y51.3259 
G01 X19.2241 Y51.3737 
G01 X19.2500 Y51.4362 
G01 X19.2500 Y51.6800 
G01 X21.3900 Y51.6800 
G01 X21.3900 Y51.4362 
G01 X21.4159 Y51.3737 
G01 X21.4637 Y51.3259 
G01 X21.5262 Y51.3000 
G01 X22.3938 Y51.3000 
G01 X22.4563 Y51.3259 
G01 X22.5041 Y51.3737 
G01 X22.5300 Y51.4362 
G01 X22.5300 Y52.7038 
G01 X22.5041 Y52.7663 
G01 X22.4563 Y52.8141 
G01 X22.3938 Y52.8400 
G01 X21.5262 Y52.8400 
G01 X21.4637 Y52.8141 
G01 X21.4159 Y52.7663 
G01 X21.3900 Y52.7038 
G01 X21.3900 Y52.3200 
G01 X19.2500 Y52.3200 
G01 X19.2500 Y52.7038 
G01 X19.2241 Y52.7663 
G01 X19.1763 Y52.8141 
G01 X19.1138 Y52.8400 
G01 X18.8200 Y52.8400 
G01 X18.8200 Y56.3640 
G01 X18.8324 Y56.3691 
G01 X18.9767 Y56.4655 
G01 X19.0995 Y56.5883 
G01 X19.1959 Y56.7326 
G01 X19.2623 Y56.8930 
G01 X19.2962 Y57.0632 
G00 Z2.0000 
G00 X1.6025 Y59.9518 
G01 Z-0.1000 F254.00 
G01 X3.4775 Y59.9518 F508.00 
G01 X3.6723 Y59.9905 
G01 X3.8558 Y60.0665 
G01 X4.0209 Y60.1769 
G01 X4.1613 Y60.3173 
G01 X4.2717 Y60.4824 
G01 X4.3477 Y60.6659 
G01 X4.3864 Y60.8607 
G01 X4.3864 Y61.0593 
G01 X4.3477 Y61.2541 
G01 X4.2717 Y61.4376 
G01 X4.1613 Y61.6027 
G01 X4.0209 Y61.7431 
G01 X3.8558 Y61.8535 
G01 X3.6723 Y61.9295 
G01 X3.4775 Y61.9682 
G01 X1.6025 Y61.9682 
G01 X1.4077 Y61.9295 
G01 X1.2242 Y61.8535 
G01 X1.0591 Y61.7431 
G01 X0.9187 Y61.6027 
G01 X0.8083 Y61.4376 
G01 X0.7323 Y61.2541 
G01 X0.6936 Y61.0593 
G01 X0.6936 Y60.8607 
G01 X0.7323 Y60.6659 
G01 X0.8083 Y60.4824 
G01 X0.9187 Y60.3173 
G01 X1.0591 Y60.1769 
G01 X1.2242 Y60.0665 
G01 X1.4077 Y59.9905 
G01 X1.6025 Y59.9518 
G00 Z2.0000 
G00 X1.6025 Y56.1418 
G01 Z-0.1000 F254.00 
G01 X3.4775 Y56.1418 F508.00 
G01 X3.6723 Y56.1805 
G01 X3.8558 Y56.2565 
G01 X4.0209 Y56.3669 
G01 X4.1613 Y56.5073 
G01 X4.2717 Y56.6724 
G01 X4.3477 Y56.8559 
G01 X4.3624 Y56.9300 
G01 X15.0203 Y56.9300 
G01 X15.0277 Y56.8930 
G01 X15.0941 Y56.7326 
G01 X15.1905 Y56.5883 
G01 X15.3133 Y56.4655 
G01 X15.4576 Y56.3691 
G01 X15.6180 Y56.3027 
G01 X15.7882 Y56.2688 
G01 X15.9618 Y56.2688 
G01 X16.1320 Y56.3027 
G01 X16.2924 Y56.3691 
G01 X16.4367 Y56.4655 
G01 X16.5595 Y56.5883 
G01 X16.6559 Y56.7326 
G01 X16.6800 Y56.7908 
G01 X16.6800 Y52.8400 
G01 X16.4462 Y52.8400 
G01 X16.3837 Y52.8141 
G01 X16.3359 Y52.7663 
G01 X16.3100 Y52.7038 
G01 X16.3100 Y51.4362 
G01 X16.3359 Y51.3737 
G01 X16.3837 Y51.3259 
G01 X16.4462 Y51.3000 
G01 X16.6800 Y51.3000 
G01 X16.6800 Y47.0700 
G01 X13.9579 Y47.0700 
G01 X13.8765 Y47.0482 
G01 X13.8035 Y47.0061 
G01 X13.7439 Y46.9465 
G01 X7.5000 Y40.7025 
G01 X4.0503 Y44.1523 
G01 X4.1273 Y44.3034 
G01 X4.1813 Y44.4695 
G01 X4.2086 Y44.6421 
G01 X4.2086 Y44.8167 
G01 X4.1813 Y44.9893 
G01 X4.1273 Y45.1554 
G01 X4.0480 Y45.3111 
G01 X3.9453 Y45.4524 
G01 X3.8218 Y45.5759 
G01 X3.6805 Y45.6786 
G01 X3.5248 Y45.7579 
G01 X3.3587 Y45.8119 
G01 X3.1861 Y45.8392 
G01 X3.0115 Y45.8392 
G01 X2.8389 Y45.8119 
G01 X2.6728 Y45.7579 
G01 X2.5171 Y45.6786 
G01 X2.3758 Y45.5759 
G01 X2.2523 Y45.4524 
G01 X2.1496 Y45.3111 
G01 X2.0703 Y45.1554 
G01 X2.0163 Y44.9893 
G01 X1.9890 Y44.8167 
G01 X1.9890 Y44.6421 
G01 X2.0163 Y44.4695 
G01 X2.0703 Y44.3034 
G01 X2.1496 Y44.1477 
G01 X2.2523 Y44.0064 
G01 X2.3758 Y43.8829 
G01 X2.5171 Y43.7802 
G01 X2.6728 Y43.7009 
G01 X2.8389 Y43.6469 
G01 X3.0115 Y43.6196 
G01 X3.1861 Y43.6196 
G01 X3.3587 Y43.6469 
G01 X3.5248 Y43.7009 
G01 X3.5723 Y43.7251 
G01 X7.1800 Y40.1175 
G01 X7.1800 Y39.8472 
G01 X7.1702 Y39.8570 
G01 X7.1077 Y39.8829 
G01 X5.5415 Y39.8829 
G01 X5.4790 Y39.8570 
G01 X5.4312 Y39.8092 
G01 X5.4053 Y39.7467 
G01 X5.4053 Y37.6725 
G01 X5.4312 Y37.6100 
G01 X5.4790 Y37.5622 
G01 X5.5415 Y37.5363 
G01 X7.0112 Y37.5363 
G01 X8.4300 Y36.1175 
G01 X8.4300 Y29.8825 
G01 X7.3035 Y28.7561 
G01 X7.2439 Y28.6965 
G01 X7.2018 Y28.6235 
G01 X7.1800 Y28.5421 
G01 X7.1800 Y24.7079 
G01 X7.2018 Y24.6265 
G01 X7.2439 Y24.5535 
G01 X7.4939 Y24.3035 
G01 X7.5535 Y24.2439 
G01 X7.6265 Y24.2018 
G01 X7.7079 Y24.1800 
G01 X17.4300 Y24.1800 
G01 X17.4300 Y23.4579 
G01 X17.4518 Y23.3765 
G01 X17.4939 Y23.3035 
G01 X17.5535 Y23.2439 
G01 X17.6265 Y23.2018 
G01 X17.7079 Y23.1800 
G01 X28.6175 Y23.1800 
G01 X33.4596 Y18.3378 
G01 X33.4596 Y17.0378 
G01 X33.4915 Y16.8774 
G01 X33.5541 Y16.7263 
G01 X33.6450 Y16.5903 
G01 X33.7606 Y16.4746 
G01 X33.8967 Y16.3837 
G01 X34.0478 Y16.3211 
G01 X34.2082 Y16.2892 
G01 X34.3718 Y16.2892 
G01 X34.5322 Y16.3211 
G01 X34.6833 Y16.3837 
G01 X34.8193 Y16.4746 
G01 X34.9350 Y16.5903 
G01 X35.0259 Y16.7263 
G01 X35.0885 Y16.8774 
G01 X35.1204 Y17.0378 
G01 X35.1204 Y18.1679 
G01 X39.4465 Y22.4939 
G01 X39.5061 Y22.5535 
G01 X39.5482 Y22.6265 
G01 X39.5700 Y22.7079 
G01 X39.5700 Y23.9327 
G01 X39.6122 Y23.9411 
G01 X39.7633 Y24.0037 
G01 X39.8993 Y24.0946 
G01 X40.0150 Y24.2103 
G01 X40.1059 Y24.3463 
G01 X40.1685 Y24.4974 
G01 X40.2004 Y24.6578 
G01 X40.2004 Y25.7479 
G01 X43.7561 Y29.3035 
G01 X43.7982 Y29.3765 
G01 X43.8200 Y29.4579 
G01 X43.8200 Y49.2921 
G01 X43.7982 Y49.3735 
G01 X43.7561 Y49.4465 
G01 X43.6965 Y49.5061 
G01 X42.8422 Y50.3603 
G01 X42.8801 Y50.3982 
G01 X42.8801 Y51.2018 
G01 X42.3118 Y51.7701 
G01 X41.5082 Y51.7701 
G01 X40.9399 Y51.2018 
G01 X40.9399 Y50.3982 
G01 X41.5082 Y49.8299 
G01 X42.3118 Y49.8299 
G01 X42.3897 Y49.9078 
G01 X43.1800 Y49.1175 
G01 X43.1800 Y29.6325 
G01 X40.0640 Y26.5165 
G01 X40.0150 Y26.5897 
G01 X39.8993 Y26.7054 
G01 X39.7633 Y26.7963 
G01 X39.6122 Y26.8589 
G01 X39.4518 Y26.8908 
G01 X39.2882 Y26.8908 
G01 X39.1278 Y26.8589 
G01 X38.9767 Y26.7963 
G01 X38.8407 Y26.7054 
G01 X38.7250 Y26.5897 
G01 X38.6341 Y26.4537 
G01 X38.5715 Y26.3026 
G01 X38.5396 Y26.1422 
G01 X38.5396 Y24.6578 
G01 X38.5715 Y24.4974 
G01 X38.6341 Y24.3463 
G01 X38.7250 Y24.2103 
G01 X38.8407 Y24.0946 
G01 X38.9300 Y24.0349 
G01 X38.9300 Y22.8825 
G01 X34.9679 Y18.9205 
G01 X34.9350 Y18.9697 
G01 X34.8193 Y19.0854 
G01 X34.6833 Y19.1763 
G01 X34.5322 Y19.2389 
G01 X34.3718 Y19.2708 
G01 X34.2082 Y19.2708 
G01 X34.0478 Y19.2389 
G01 X33.8967 Y19.1763 
G01 X33.7606 Y19.0854 
G01 X33.6889 Y19.0137 
G01 X29.0061 Y23.6965 
G01 X28.9465 Y23.7561 
G01 X28.8735 Y23.7982 
G01 X28.7921 Y23.8200 
G01 X18.0700 Y23.8200 
G01 X18.0700 Y31.0921 
G01 X18.0859 Y31.0537 
G01 X18.1337 Y31.0059 
G01 X18.1962 Y30.9800 
G01 X19.4638 Y30.9800 
G01 X19.5263 Y31.0059 
G01 X19.5741 Y31.0537 
G01 X19.6000 Y31.1162 
G01 X19.6000 Y31.8975 
G01 X21.1965 Y33.4939 
G01 X21.2561 Y33.5535 
G01 X21.2982 Y33.6265 
G01 X21.3200 Y33.7079 
G01 X21.3200 Y34.7900 
G01 X21.6538 Y34.7900 
G01 X21.7163 Y34.8159 
G01 X21.7641 Y34.8637 
G01 X21.7900 Y34.9262 
G01 X21.7900 Y36.1938 
G01 X21.7641 Y36.2563 
G01 X21.7163 Y36.3041 
G01 X21.6538 Y36.3300 
G01 X20.7862 Y36.3300 
G01 X20.7237 Y36.3041 
G01 X20.6759 Y36.2563 
G01 X20.6500 Y36.1938 
G01 X20.6500 Y34.9262 
G01 X20.6759 Y34.8637 
G01 X20.6800 Y34.8596 
G01 X20.6800 Y33.8825 
G01 X19.3175 Y32.5200 
G01 X18.1962 Y32.5200 
G01 X18.1337 Y32.4941 
G01 X18.0859 Y32.4463 
G01 X18.0700 Y32.4079 
G01 X18.0700 Y35.1800 
G01 X18.8500 Y35.1800 
G01 X18.8500 Y34.9262 
G01 X18.8759 Y34.8637 
G01 X18.9237 Y34.8159 
G01 X18.9862 Y34.7900 
G01 X19.8538 Y34.7900 
G01 X19.9163 Y34.8159 
G01 X19.9641 Y34.8637 
G01 X19.9900 Y34.9262 
G01 X19.9900 Y36.1938 
G01 X19.9641 Y36.2563 
G01 X19.9163 Y36.3041 
G01 X19.8538 Y36.3300 
G01 X19.8200 Y36.3300 
G01 X19.8200 Y38.6000 
G01 X19.8538 Y38.6000 
G01 X19.9163 Y38.6259 
G01 X19.9641 Y38.6737 
G01 X19.9900 Y38.7362 
G01 X19.9900 Y40.0038 
G01 X19.9641 Y40.0663 
G01 X19.9163 Y40.1141 
G01 X19.8538 Y40.1400 
G01 X19.8200 Y40.1400 
G01 X19.8200 Y45.8675 
G01 X21.4670 Y47.5145 
G01 X21.5262 Y47.4900 
G01 X22.3938 Y47.4900 
G01 X22.4563 Y47.5159 
G01 X22.5041 Y47.5637 
G01 X22.5300 Y47.6262 
G01 X22.5300 Y48.8938 
G01 X22.5041 Y48.9563 
G01 X22.4563 Y49.0041 
G01 X22.3938 Y49.0300 
G01 X21.5262 Y49.0300 
G01 X21.4637 Y49.0041 
G01 X21.4159 Y48.9563 
G01 X21.3900 Y48.8938 
G01 X21.3900 Y48.3425 
G01 X19.3035 Y46.2561 
G01 X19.2439 Y46.1965 
G01 X19.2018 Y46.1235 
G01 X19.1800 Y46.0421 
G01 X19.1800 Y40.1400 
G01 X18.9862 Y40.1400 
G01 X18.9237 Y40.1141 
G01 X18.8759 Y40.0663 
G01 X18.8500 Y40.0038 
G01 X18.8500 Y38.7362 
G01 X18.8759 Y38.6737 
G01 X18.9237 Y38.6259 
G01 X18.9862 Y38.6000 
G01 X19.1800 Y38.6000 
G01 X19.1800 Y36.3300 
G01 X18.9862 Y36.3300 
G01 X18.9237 Y36.3041 
G01 X18.8759 Y36.2563 
G01 X18.8500 Y36.1938 
G01 X18.8500 Y35.8200 
G01 X16.7100 Y35.8200 
G01 X16.7100 Y36.1938 
G01 X16.6841 Y36.2563 
G01 X16.6363 Y36.3041 
G01 X16.5738 Y36.3300 
G01 X15.7062 Y36.3300 
G01 X15.6437 Y36.3041 
G01 X15.5959 Y36.2563 
G01 X15.5700 Y36.1938 
G01 X15.5700 Y34.9262 
G01 X15.5959 Y34.8637 
G01 X15.6437 Y34.8159 
G01 X15.7062 Y34.7900 
G01 X16.5738 Y34.7900 
G01 X16.6363 Y34.8159 
G01 X16.6841 Y34.8637 
G01 X16.7100 Y34.9262 
G01 X16.7100 Y35.1800 
G01 X17.4300 Y35.1800 
G01 X17.4300 Y32.4904 
G01 X17.4263 Y32.4941 
G01 X17.3638 Y32.5200 
G01 X16.1825 Y32.5200 
G01 X14.8200 Y33.8825 
G01 X14.8200 Y34.8091 
G01 X14.8363 Y34.8159 
G01 X14.8841 Y34.8637 
G01 X14.9100 Y34.9262 
G01 X14.9100 Y36.1938 
G01 X14.8841 Y36.2563 
G01 X14.8363 Y36.3041 
G01 X14.7738 Y36.3300 
G01 X14.5700 Y36.3300 
G01 X14.5700 Y37.9300 
G01 X17.0421 Y37.9300 
G01 X17.1235 Y37.9518 
G01 X17.1965 Y37.9939 
G01 X17.2561 Y38.0535 
G01 X17.2982 Y38.1265 
G01 X17.3200 Y38.2079 
G01 X17.3200 Y51.3026 
G01 X17.3763 Y51.3259 
G01 X17.4241 Y51.3737 
G01 X17.4500 Y51.4362 
G01 X17.4500 Y52.7038 
G01 X17.4241 Y52.7663 
G01 X17.3763 Y52.8141 
G01 X17.3200 Y52.8374 
G01 X17.3200 Y58.8263 
G01 X17.4020 Y58.8427 
G01 X17.5624 Y58.9091 
G01 X17.7067 Y59.0055 
G01 X17.8295 Y59.1283 
G01 X17.9259 Y59.2726 
G01 X17.9923 Y59.4330 
G01 X18.0262 Y59.6032 
G01 X18.0262 Y59.7768 
G01 X17.9923 Y59.9470 
G01 X17.9259 Y60.1074 
G01 X17.8295 Y60.2517 
G01 X17.7067 Y60.3745 
G01 X17.5624 Y60.4709 
G01 X17.4020 Y60.5373 
G01 X17.2318 Y60.5712 
G01 X17.0582 Y60.5712 
G01 X16.8880 Y60.5373 
G01 X16.7276 Y60.4709 
G01 X16.5833 Y60.3745 
G01 X16.4605 Y60.2517 
G01 X16.3641 Y60.1074 
G01 X16.2977 Y59.9470 
G01 X16.2638 Y59.7768 
G01 X16.2638 Y59.6032 
G01 X16.2977 Y59.4330 
G01 X16.3641 Y59.2726 
G01 X16.4605 Y59.1283 
G01 X16.5833 Y59.0055 
G01 X16.6800 Y58.9409 
G01 X16.6800 Y57.5092 
G01 X16.6559 Y57.5674 
G01 X16.5595 Y57.7117 
G01 X16.4367 Y57.8345 
G01 X16.2924 Y57.9309 
G01 X16.1320 Y57.9973 
G01 X15.9618 Y58.0312 
G01 X15.7882 Y58.0312 
G01 X15.6180 Y57.9973 
G01 X15.4576 Y57.9309 
G01 X15.3133 Y57.8345 
G01 X15.1905 Y57.7117 
G01 X15.0958 Y57.5700 
G01 X4.2955 Y57.5700 
G01 X4.2717 Y57.6276 
G01 X4.1613 Y57.7927 
G01 X4.0209 Y57.9331 
G01 X3.8558 Y58.0435 
G01 X3.6723 Y58.1195 
G01 X3.4775 Y58.1582 
G01 X1.6025 Y58.1582 
G01 X1.4077 Y58.1195 
G01 X1.2242 Y58.0435 
G01 X1.0591 Y57.9331 
G01 X0.9187 Y57.7927 
G01 X0.8083 Y57.6276 
G01 X0.7323 Y57.4441 
G01 X0.6936 Y57.2493 
G01 X0.6936 Y57.0507 
G01 X0.7323 Y56.8559 
G01 X0.8083 Y56.6724 
G01 X0.9187 Y56.5073 
G01 X1.0591 Y56.3669 
G01 X1.2242 Y56.2565 
G01 X1.4077 Y56.1805 
G01 X1.6025 Y56.1418 
G00 Z2.0000 
G00 X16.0088 Y49.9450 
G01 Z-0.1000 F254.00 
G01 X14.7575 Y49.9450 F508.00 
G01 X11.2561 Y53.4465 
G01 X11.1965 Y53.5061 
G01 X11.1235 Y53.5482 
G01 X11.0421 Y53.5700 
G01 X4.3604 Y53.5700 
G01 X4.3477 Y53.6341 
G01 X4.2717 Y53.8176 
G01 X4.1613 Y53.9827 
G01 X4.0209 Y54.1231 
G01 X3.8558 Y54.2335 
G01 X3.6723 Y54.3095 
G01 X3.4775 Y54.3482 
G01 X1.6025 Y54.3482 
G01 X1.4077 Y54.3095 
G01 X1.2242 Y54.2335 
G01 X1.0591 Y54.1231 
G01 X0.9187 Y53.9827 
G01 X0.8083 Y53.8176 
G01 X0.7323 Y53.6341 
G01 X0.6936 Y53.4393 
G01 X0.6936 Y53.2407 
G01 X0.7323 Y53.0459 
G01 X0.8083 Y52.8624 
G01 X0.9187 Y52.6973 
G01 X1.0591 Y52.5569 
G01 X1.2242 Y52.4465 
G01 X1.4077 Y52.3705 
G01 X1.6025 Y52.3318 
G01 X3.4775 Y52.3318 
G01 X3.6723 Y52.3705 
G01 X3.8558 Y52.4465 
G01 X4.0209 Y52.5569 
G01 X4.1613 Y52.6973 
G01 X4.2717 Y52.8624 
G01 X4.2996 Y52.9300 
G01 X10.8674 Y52.9300 
G01 X14.3350 Y49.4625 
G01 X14.3350 Y48.4712 
G01 X14.3609 Y48.4087 
G01 X14.4087 Y48.3609 
G01 X14.4712 Y48.3350 
G01 X16.0088 Y48.3350 
G01 X16.0713 Y48.3609 
G01 X16.1191 Y48.4087 
G01 X16.1450 Y48.4712 
G01 X16.1450 Y49.8088 
G01 X16.1191 Y49.8713 
G01 X16.0713 Y49.9191 
G01 X16.0088 Y49.9450 
G00 Z2.0000 
G00 X10.7110 Y44.6421 
G01 Z-0.1000 F254.00 
G01 X10.7110 Y44.8167 F508.00 
G01 X10.6837 Y44.9893 
G01 X10.6297 Y45.1554 
G01 X10.5504 Y45.3111 
G01 X10.4477 Y45.4524 
G01 X10.3242 Y45.5759 
G01 X10.1829 Y45.6786 
G01 X10.0272 Y45.7579 
G01 X9.8611 Y45.8119 
G01 X9.6885 Y45.8392 
G01 X9.5139 Y45.8392 
G01 X9.3413 Y45.8119 
G01 X9.1752 Y45.7579 
G01 X9.0195 Y45.6786 
G01 X8.8782 Y45.5759 
G01 X8.7547 Y45.4524 
G01 X8.6520 Y45.3111 
G01 X8.5727 Y45.1554 
G01 X8.5187 Y44.9893 
G01 X8.4914 Y44.8167 
G01 X8.4914 Y44.6421 
G01 X8.5187 Y44.4695 
G01 X8.5727 Y44.3034 
G01 X8.6520 Y44.1477 
G01 X8.7547 Y44.0064 
G01 X8.8782 Y43.8829 
G01 X9.0195 Y43.7802 
G01 X9.1752 Y43.7009 
G01 X9.3413 Y43.6469 
G01 X9.5139 Y43.6196 
G01 X9.6885 Y43.6196 
G01 X9.8611 Y43.6469 
G01 X10.0272 Y43.7009 
G01 X10.1829 Y43.7802 
G01 X10.3242 Y43.8829 
G01 X10.4477 Y44.0064 
G01 X10.5504 Y44.1477 
G01 X10.6297 Y44.3034 
G01 X10.6837 Y44.4695 
G01 X10.7110 Y44.6421 
G00 Z2.0000 
G00 X10.7110 Y49.1633 
G01 Z-0.1000 F254.00 
G01 X10.7110 Y49.3379 F508.00 
G01 X10.6837 Y49.5105 
G01 X10.6297 Y49.6766 
G01 X10.5504 Y49.8323 
G01 X10.4477 Y49.9736 
G01 X10.3242 Y50.0971 
G01 X10.1829 Y50.1998 
G01 X10.0272 Y50.2791 
G01 X9.8611 Y50.3331 
G01 X9.6885 Y50.3604 
G01 X9.5139 Y50.3604 
G01 X9.3413 Y50.3331 
G01 X9.1752 Y50.2791 
G01 X9.0195 Y50.1998 
G01 X8.8782 Y50.0971 
G01 X8.7547 Y49.9736 
G01 X8.6520 Y49.8323 
G01 X8.5727 Y49.6766 
G01 X8.5187 Y49.5105 
G01 X8.4914 Y49.3379 
G01 X8.4914 Y49.1633 
G01 X8.5187 Y48.9907 
G01 X8.5727 Y48.8246 
G01 X8.6520 Y48.6689 
G01 X8.7547 Y48.5276 
G01 X8.8782 Y48.4041 
G01 X9.0195 Y48.3014 
G01 X9.1752 Y48.2221 
G01 X9.3413 Y48.1681 
G01 X9.5139 Y48.1408 
G01 X9.6885 Y48.1408 
G01 X9.8611 Y48.1681 
G01 X10.0272 Y48.2221 
G01 X10.1829 Y48.3014 
G01 X10.3242 Y48.4041 
G01 X10.4477 Y48.5276 
G01 X10.5504 Y48.6689 
G01 X10.6297 Y48.8246 
G01 X10.6837 Y48.9907 
G01 X10.7110 Y49.1633 
G00 Z2.0000 
G00 X4.2086 Y49.1633 
G01 Z-0.1000 F254.00 
G01 X4.2086 Y49.3379 F508.00 
G01 X4.1813 Y49.5105 
G01 X4.1273 Y49.6766 
G01 X4.0480 Y49.8323 
G01 X3.9453 Y49.9736 
G01 X3.8218 Y50.0971 
G01 X3.6805 Y50.1998 
G01 X3.5248 Y50.2791 
G01 X3.3587 Y50.3331 
G01 X3.1861 Y50.3604 
G01 X3.0115 Y50.3604 
G01 X2.8389 Y50.3331 
G01 X2.6728 Y50.2791 
G01 X2.5171 Y50.1998 
G01 X2.3758 Y50.0971 
G01 X2.2523 Y49.9736 
G01 X2.1496 Y49.8323 
G01 X2.0703 Y49.6766 
G01 X2.0163 Y49.5105 
G01 X1.9890 Y49.3379 
G01 X1.9890 Y49.1633 
G01 X2.0163 Y48.9907 
G01 X2.0703 Y48.8246 
G01 X2.1496 Y48.6689 
G01 X2.2523 Y48.5276 
G01 X2.3758 Y48.4041 
G01 X2.5171 Y48.3014 
G01 X2.6728 Y48.2221 
G01 X2.8389 Y48.1681 
G01 X3.0115 Y48.1408 
G01 X3.1861 Y48.1408 
G01 X3.3587 Y48.1681 
G01 X3.5248 Y48.2221 
G01 X3.6805 Y48.3014 
G01 X3.8218 Y48.4041 
G01 X3.9453 Y48.5276 
G01 X4.0480 Y48.6689 
G01 X4.1273 Y48.8246 
G01 X4.1813 Y48.9907 
G01 X4.2086 Y49.1633 
G00 Z2.0000 
G00 X29.8462 Y45.5200 
G01 Z-0.1000 F254.00 
G01 X30.1800 Y45.5200 F508.00 
G01 X30.1800 Y40.4290 
G01 X28.1602 Y40.4290 
G01 X28.0977 Y40.4031 
G01 X28.0499 Y40.3553 
G01 X28.0240 Y40.2928 
G01 X28.0240 Y38.4472 
G01 X28.0499 Y38.3847 
G01 X28.0977 Y38.3369 
G01 X28.1602 Y38.3110 
G01 X30.4300 Y38.3110 
G01 X30.4300 Y26.4579 
G01 X30.4518 Y26.3765 
G01 X30.4939 Y26.3035 
G01 X30.5535 Y26.2439 
G01 X30.9196 Y25.8779 
G01 X30.9196 Y24.6578 
G01 X30.9515 Y24.4974 
G01 X31.0141 Y24.3463 
G01 X31.1050 Y24.2103 
G01 X31.2207 Y24.0946 
G01 X31.3567 Y24.0037 
G01 X31.5078 Y23.9411 
G01 X31.6682 Y23.9092 
G01 X31.8318 Y23.9092 
G01 X31.9922 Y23.9411 
G01 X32.1433 Y24.0037 
G01 X32.2793 Y24.0946 
G01 X32.3950 Y24.2103 
G01 X32.4859 Y24.3463 
G01 X32.5485 Y24.4974 
G01 X32.5804 Y24.6578 
G01 X32.5804 Y26.1422 
G01 X32.5485 Y26.3026 
G01 X32.4859 Y26.4537 
G01 X32.3950 Y26.5897 
G01 X32.2793 Y26.7054 
G01 X32.1433 Y26.7963 
G01 X31.9922 Y26.8589 
G01 X31.8318 Y26.8908 
G01 X31.6682 Y26.8908 
G01 X31.5078 Y26.8589 
G01 X31.3567 Y26.7963 
G01 X31.2207 Y26.7054 
G01 X31.1089 Y26.5937 
G01 X31.0700 Y26.6325 
G01 X31.0700 Y38.3110 
G01 X33.3078 Y38.3110 
G01 X33.3703 Y38.3369 
G01 X33.4181 Y38.3847 
G01 X33.4440 Y38.4472 
G01 X33.4440 Y40.2928 
G01 X33.4181 Y40.3553 
G01 X33.3703 Y40.4031 
G01 X33.3078 Y40.4290 
G01 X30.8200 Y40.4290 
G01 X30.8200 Y45.5200 
G01 X31.1138 Y45.5200 
G01 X31.1763 Y45.5459 
G01 X31.2241 Y45.5937 
G01 X31.2500 Y45.6562 
G01 X31.2500 Y46.5238 
G01 X31.2241 Y46.5863 
G01 X31.1763 Y46.6341 
G01 X31.1138 Y46.6600 
G01 X29.8462 Y46.6600 
G01 X29.7837 Y46.6341 
G01 X29.7359 Y46.5863 
G01 X29.7100 Y46.5238 
G01 X29.7100 Y45.6562 
G01 X29.7359 Y45.5937 
G01 X29.7837 Y45.5459 
G01 X29.8462 Y45.5200 
G00 Z2.0000 
G00 X43.0960 Y38.4472 
G01 Z-0.1000 F254.00 
G01 X43.0960 Y40.2928 F508.00 
G01 X43.0701 Y40.3553 
G01 X43.0223 Y40.4031 
G01 X42.9598 Y40.4290 
G01 X37.8122 Y40.4290 
G01 X37.7497 Y40.4031 
G01 X37.7019 Y40.3553 
G01 X37.6760 Y40.2928 
G01 X37.6760 Y38.4472 
G01 X37.7019 Y38.3847 
G01 X37.7497 Y38.3369 
G01 X37.8122 Y38.3110 
G01 X38.8585 Y38.3110 
G01 X37.8035 Y37.2561 
G01 X37.7439 Y37.1965 
G01 X37.7018 Y37.1235 
G01 X37.6800 Y37.0421 
G01 X37.6800 Y24.3825 
G01 X37.1175 Y23.8200 
G01 X34.8200 Y23.8200 
G01 X34.8200 Y24.0952 
G01 X34.9350 Y24.2103 
G01 X35.0259 Y24.3463 
G01 X35.0885 Y24.4974 
G01 X35.1204 Y24.6578 
G01 X35.1204 Y26.1422 
G01 X35.0885 Y26.3026 
G01 X35.0259 Y26.4537 
G01 X34.9350 Y26.5897 
G01 X34.8193 Y26.7054 
G01 X34.6833 Y26.7963 
G01 X34.5700 Y26.8432 
G01 X34.5700 Y45.5200 
G01 X34.9238 Y45.5200 
G01 X34.9863 Y45.5459 
G01 X35.0341 Y45.5937 
G01 X35.0600 Y45.6562 
G01 X35.0600 Y46.5238 
G01 X35.0341 Y46.5863 
G01 X34.9863 Y46.6341 
G01 X34.9238 Y46.6600 
G01 X33.6562 Y46.6600 
G01 X33.5937 Y46.6341 
G01 X33.5459 Y46.5863 
G01 X33.5200 Y46.5238 
G01 X33.5200 Y45.6562 
G01 X33.5459 Y45.5937 
G01 X33.5937 Y45.5459 
G01 X33.6562 Y45.5200 
G01 X33.9300 Y45.5200 
G01 X33.9300 Y26.8101 
G01 X33.8967 Y26.7963 
G01 X33.7606 Y26.7054 
G01 X33.6450 Y26.5897 
G01 X33.5541 Y26.4537 
G01 X33.4915 Y26.3026 
G01 X33.4596 Y26.1422 
G01 X33.4596 Y24.6578 
G01 X33.4915 Y24.4974 
G01 X33.5541 Y24.3463 
G01 X33.6450 Y24.2103 
G01 X33.7606 Y24.0946 
G01 X33.8967 Y24.0037 
G01 X34.0478 Y23.9411 
G01 X34.1800 Y23.9148 
G01 X34.1800 Y23.4579 
G01 X34.2018 Y23.3765 
G01 X34.2439 Y23.3035 
G01 X34.3035 Y23.2439 
G01 X34.3765 Y23.2018 
G01 X34.4579 Y23.1800 
G01 X37.2921 Y23.1800 
G01 X37.3735 Y23.2018 
G01 X37.4465 Y23.2439 
G01 X37.5061 Y23.3035 
G01 X38.2561 Y24.0535 
G01 X38.2982 Y24.1265 
G01 X38.3200 Y24.2079 
G01 X38.3200 Y36.8675 
G01 X39.7635 Y38.3110 
G01 X42.9598 Y38.3110 
G01 X43.0223 Y38.3369 
G01 X43.0701 Y38.3847 
G01 X43.0960 Y38.4472 
G00 Z2.0000 
G00 X55.4404 Y17.0378 
G01 Z-0.1000 F254.00 
G01 X55.4404 Y18.5222 F508.00 
G01 X55.4085 Y18.6826 
G01 X55.3459 Y18.8337 
G01 X55.2550 Y18.9697 
G01 X55.1393 Y19.0854 
G01 X55.0033 Y19.1763 
G01 X54.8522 Y19.2389 
G01 X54.6918 Y19.2708 
G01 X54.5282 Y19.2708 
G01 X54.3678 Y19.2389 
G01 X54.2167 Y19.1763 
G01 X54.0807 Y19.0854 
G01 X53.9650 Y18.9697 
G01 X53.8741 Y18.8337 
G01 X53.8115 Y18.6826 
G01 X53.7796 Y18.5222 
G01 X53.7796 Y17.0378 
G01 X53.8115 Y16.8774 
G01 X53.8741 Y16.7263 
G01 X53.9650 Y16.5903 
G01 X54.0807 Y16.4746 
G01 X54.2167 Y16.3837 
G01 X54.3678 Y16.3211 
G01 X54.5282 Y16.2892 
G01 X54.6918 Y16.2892 
G01 X54.8522 Y16.3211 
G01 X55.0033 Y16.3837 
G01 X55.1393 Y16.4746 
G01 X55.2550 Y16.5903 
G01 X55.3459 Y16.7263 
G01 X55.4085 Y16.8774 
G01 X55.4404 Y17.0378 
G00 Z2.0000 
G00 X52.9004 Y17.0378 
G01 Z-0.1000 F254.00 
G01 X52.9004 Y18.5222 F508.00 
G01 X52.8685 Y18.6826 
G01 X52.8059 Y18.8337 
G01 X52.7150 Y18.9697 
G01 X52.5993 Y19.0854 
G01 X52.4633 Y19.1763 
G01 X52.3122 Y19.2389 
G01 X52.1518 Y19.2708 
G01 X51.9882 Y19.2708 
G01 X51.8278 Y19.2389 
G01 X51.6767 Y19.1763 
G01 X51.5406 Y19.0854 
G01 X51.4250 Y18.9697 
G01 X51.3341 Y18.8337 
G01 X51.2715 Y18.6826 
G01 X51.2396 Y18.5222 
G01 X51.2396 Y17.0378 
G01 X51.2715 Y16.8774 
G01 X51.3341 Y16.7263 
G01 X51.4250 Y16.5903 
G01 X51.5406 Y16.4746 
G01 X51.6767 Y16.3837 
G01 X51.8278 Y16.3211 
G01 X51.9882 Y16.2892 
G01 X52.1518 Y16.2892 
G01 X52.3122 Y16.3211 
G01 X52.4633 Y16.3837 
G01 X52.5993 Y16.4746 
G01 X52.7150 Y16.5903 
G01 X52.8059 Y16.7263 
G01 X52.8685 Y16.8774 
G01 X52.9004 Y17.0378 
G00 Z2.0000 
G00 X50.3604 Y17.0378 
G01 Z-0.1000 F254.00 
G01 X50.3604 Y18.5222 F508.00 
G01 X50.3285 Y18.6826 
G01 X50.2659 Y18.8337 
G01 X50.1750 Y18.9697 
G01 X50.0593 Y19.0854 
G01 X49.9233 Y19.1763 
G01 X49.7722 Y19.2389 
G01 X49.6118 Y19.2708 
G01 X49.4482 Y19.2708 
G01 X49.2878 Y19.2389 
G01 X49.1367 Y19.1763 
G01 X49.0007 Y19.0854 
G01 X48.8850 Y18.9697 
G01 X48.7941 Y18.8337 
G01 X48.7315 Y18.6826 
G01 X48.6996 Y18.5222 
G01 X48.6996 Y17.0378 
G01 X48.7315 Y16.8774 
G01 X48.7941 Y16.7263 
G01 X48.8850 Y16.5903 
G01 X49.0007 Y16.4746 
G01 X49.1367 Y16.3837 
G01 X49.2878 Y16.3211 
G01 X49.4482 Y16.2892 
G01 X49.6118 Y16.2892 
G01 X49.7722 Y16.3211 
G01 X49.9233 Y16.3837 
G01 X50.0593 Y16.4746 
G01 X50.1750 Y16.5903 
G01 X50.2659 Y16.7263 
G01 X50.3285 Y16.8774 
G01 X50.3604 Y17.0378 
G00 Z2.0000 
G00 X47.8204 Y17.0378 
G01 Z-0.1000 F254.00 
G01 X47.8204 Y18.5222 F508.00 
G01 X47.7885 Y18.6826 
G01 X47.7259 Y18.8337 
G01 X47.6350 Y18.9697 
G01 X47.5193 Y19.0854 
G01 X47.3833 Y19.1763 
G01 X47.2322 Y19.2389 
G01 X47.0718 Y19.2708 
G01 X46.9082 Y19.2708 
G01 X46.7478 Y19.2389 
G01 X46.5967 Y19.1763 
G01 X46.4607 Y19.0854 
G01 X46.3450 Y18.9697 
G01 X46.2541 Y18.8337 
G01 X46.1915 Y18.6826 
G01 X46.1596 Y18.5222 
G01 X46.1596 Y17.0378 
G01 X46.1915 Y16.8774 
G01 X46.2541 Y16.7263 
G01 X46.3450 Y16.5903 
G01 X46.4607 Y16.4746 
G01 X46.5967 Y16.3837 
G01 X46.7478 Y16.3211 
G01 X46.9082 Y16.2892 
G01 X47.0718 Y16.2892 
G01 X47.2322 Y16.3211 
G01 X47.3833 Y16.3837 
G01 X47.5193 Y16.4746 
G01 X47.6350 Y16.5903 
G01 X47.7259 Y16.7263 
G01 X47.7885 Y16.8774 
G01 X47.8204 Y17.0378 
G00 Z2.0000 
G00 X45.2804 Y17.0378 
G01 Z-0.1000 F254.00 
G01 X45.2804 Y18.5222 F508.00 
G01 X45.2485 Y18.6826 
G01 X45.1859 Y18.8337 
G01 X45.0950 Y18.9697 
G01 X44.9793 Y19.0854 
G01 X44.8433 Y19.1763 
G01 X44.6922 Y19.2389 
G01 X44.5318 Y19.2708 
G01 X44.3682 Y19.2708 
G01 X44.2078 Y19.2389 
G01 X44.0567 Y19.1763 
G01 X43.9207 Y19.0854 
G01 X43.8050 Y18.9697 
G01 X43.7141 Y18.8337 
G01 X43.6515 Y18.6826 
G01 X43.6196 Y18.5222 
G01 X43.6196 Y17.0378 
G01 X43.6515 Y16.8774 
G01 X43.7141 Y16.7263 
G01 X43.8050 Y16.5903 
G01 X43.9207 Y16.4746 
G01 X44.0567 Y16.3837 
G01 X44.2078 Y16.3211 
G01 X44.3682 Y16.2892 
G01 X44.5318 Y16.2892 
G01 X44.6922 Y16.3211 
G01 X44.8433 Y16.3837 
G01 X44.9793 Y16.4746 
G01 X45.0950 Y16.5903 
G01 X45.1859 Y16.7263 
G01 X45.2485 Y16.8774 
G01 X45.2804 Y17.0378 
G00 Z2.0000 
G00 X42.7404 Y17.0378 
G01 Z-0.1000 F254.00 
G01 X42.7404 Y18.5222 F508.00 
G01 X42.7085 Y18.6826 
G01 X42.6459 Y18.8337 
G01 X42.5550 Y18.9697 
G01 X42.4393 Y19.0854 
G01 X42.3033 Y19.1763 
G01 X42.1522 Y19.2389 
G01 X41.9918 Y19.2708 
G01 X41.8282 Y19.2708 
G01 X41.6678 Y19.2389 
G01 X41.5167 Y19.1763 
G01 X41.3807 Y19.0854 
G01 X41.2650 Y18.9697 
G01 X41.1741 Y18.8337 
G01 X41.1115 Y18.6826 
G01 X41.0796 Y18.5222 
G01 X41.0796 Y17.0378 
G01 X41.1115 Y16.8774 
G01 X41.1741 Y16.7263 
G01 X41.2650 Y16.5903 
G01 X41.3807 Y16.4746 
G01 X41.5167 Y16.3837 
G01 X41.6678 Y16.3211 
G01 X41.8282 Y16.2892 
G01 X41.9918 Y16.2892 
G01 X42.1522 Y16.3211 
G01 X42.3033 Y16.3837 
G01 X42.4393 Y16.4746 
G01 X42.5550 Y16.5903 
G01 X42.6459 Y16.7263 
G01 X42.7085 Y16.8774 
G01 X42.7404 Y17.0378 
G00 Z2.0000 
G00 X40.2004 Y17.0378 
G01 Z-0.1000 F254.00 
G01 X40.2004 Y18.5222 F508.00 
G01 X40.1685 Y18.6826 
G01 X40.1059 Y18.8337 
G01 X40.0150 Y18.9697 
G01 X39.8993 Y19.0854 
G01 X39.7633 Y19.1763 
G01 X39.6122 Y19.2389 
G01 X39.4518 Y19.2708 
G01 X39.2882 Y19.2708 
G01 X39.1278 Y19.2389 
G01 X38.9767 Y19.1763 
G01 X38.8407 Y19.0854 
G01 X38.7250 Y18.9697 
G01 X38.6341 Y18.8337 
G01 X38.5715 Y18.6826 
G01 X38.5396 Y18.5222 
G01 X38.5396 Y17.0378 
G01 X38.5715 Y16.8774 
G01 X38.6341 Y16.7263 
G01 X38.7250 Y16.5903 
G01 X38.8407 Y16.4746 
G01 X38.9767 Y16.3837 
G01 X39.1278 Y16.3211 
G01 X39.2882 Y16.2892 
G01 X39.4518 Y16.2892 
G01 X39.6122 Y16.3211 
G01 X39.7633 Y16.3837 
G01 X39.8993 Y16.4746 
G01 X40.0150 Y16.5903 
G01 X40.1059 Y16.7263 
G01 X40.1685 Y16.8774 
G01 X40.2004 Y17.0378 
G00 Z2.0000 
G00 X37.6604 Y17.0378 
G01 Z-0.1000 F254.00 
G01 X37.6604 Y18.5222 F508.00 
G01 X37.6285 Y18.6826 
G01 X37.5659 Y18.8337 
G01 X37.4750 Y18.9697 
G01 X37.3593 Y19.0854 
G01 X37.2233 Y19.1763 
G01 X37.0722 Y19.2389 
G01 X36.9118 Y19.2708 
G01 X36.7482 Y19.2708 
G01 X36.5878 Y19.2389 
G01 X36.4367 Y19.1763 
G01 X36.3007 Y19.0854 
G01 X36.1850 Y18.9697 
G01 X36.0941 Y18.8337 
G01 X36.0315 Y18.6826 
G01 X35.9996 Y18.5222 
G01 X35.9996 Y17.0378 
G01 X36.0315 Y16.8774 
G01 X36.0941 Y16.7263 
G01 X36.1850 Y16.5903 
G01 X36.3007 Y16.4746 
G01 X36.4367 Y16.3837 
G01 X36.5878 Y16.3211 
G01 X36.7482 Y16.2892 
G01 X36.9118 Y16.2892 
G01 X37.0722 Y16.3211 
G01 X37.2233 Y16.3837 
G01 X37.3593 Y16.4746 
G01 X37.4750 Y16.5903 
G01 X37.5659 Y16.7263 
G01 X37.6285 Y16.8774 
G01 X37.6604 Y17.0378 
G00 Z2.0000 
G00 X32.5804 Y17.0378 
G01 Z-0.1000 F254.00 
G01 X32.5804 Y18.5222 F508.00 
G01 X32.5485 Y18.6826 
G01 X32.4859 Y18.8337 
G01 X32.3950 Y18.9697 
G01 X32.2793 Y19.0854 
G01 X32.1433 Y19.1763 
G01 X31.9922 Y19.2389 
G01 X31.8318 Y19.2708 
G01 X31.6682 Y19.2708 
G01 X31.5078 Y19.2389 
G01 X31.3567 Y19.1763 
G01 X31.2207 Y19.0854 
G01 X31.1050 Y18.9697 
G01 X31.0141 Y18.8337 
G01 X30.9515 Y18.6826 
G01 X30.9196 Y18.5222 
G01 X30.9196 Y17.0378 
G01 X30.9515 Y16.8774 
G01 X31.0141 Y16.7263 
G01 X31.1050 Y16.5903 
G01 X31.2207 Y16.4746 
G01 X31.3567 Y16.3837 
G01 X31.5078 Y16.3211 
G01 X31.6682 Y16.2892 
G01 X31.8318 Y16.2892 
G01 X31.9922 Y16.3211 
G01 X32.1433 Y16.3837 
G01 X32.2793 Y16.4746 
G01 X32.3950 Y16.5903 
G01 X32.4859 Y16.7263 
G01 X32.5485 Y16.8774 
G01 X32.5804 Y17.0378 
G00 Z2.0000 
G00 X30.0404 Y17.0378 
G01 Z-0.1000 F254.00 
G01 X30.0404 Y18.5222 F508.00 
G01 X30.0085 Y18.6826 
G01 X29.9459 Y18.8337 
G01 X29.8550 Y18.9697 
G01 X29.7393 Y19.0854 
G01 X29.6033 Y19.1763 
G01 X29.4522 Y19.2389 
G01 X29.2918 Y19.2708 
G01 X29.1282 Y19.2708 
G01 X28.9678 Y19.2389 
G01 X28.8167 Y19.1763 
G01 X28.6806 Y19.0854 
G01 X28.5650 Y18.9697 
G01 X28.4741 Y18.8337 
G01 X28.4115 Y18.6826 
G01 X28.3796 Y18.5222 
G01 X28.3796 Y17.0378 
G01 X28.4115 Y16.8774 
G01 X28.4741 Y16.7263 
G01 X28.5650 Y16.5903 
G01 X28.6806 Y16.4746 
G01 X28.8167 Y16.3837 
G01 X28.9678 Y16.3211 
G01 X29.1282 Y16.2892 
G01 X29.2918 Y16.2892 
G01 X29.4522 Y16.3211 
G01 X29.6033 Y16.3837 
G01 X29.7393 Y16.4746 
G01 X29.8550 Y16.5903 
G01 X29.9459 Y16.7263 
G01 X30.0085 Y16.8774 
G01 X30.0404 Y17.0378 
G00 Z2.0000 
G00 X27.5004 Y17.0378 
G01 Z-0.1000 F254.00 
G01 X27.5004 Y18.5222 F508.00 
G01 X27.4685 Y18.6826 
G01 X27.4059 Y18.8337 
G01 X27.3150 Y18.9697 
G01 X27.1993 Y19.0854 
G01 X27.0633 Y19.1763 
G01 X26.9122 Y19.2389 
G01 X26.7518 Y19.2708 
G01 X26.5882 Y19.2708 
G01 X26.4278 Y19.2389 
G01 X26.2767 Y19.1763 
G01 X26.1407 Y19.0854 
G01 X26.0250 Y18.9697 
G01 X25.9341 Y18.8337 
G01 X25.8715 Y18.6826 
G01 X25.8396 Y18.5222 
G01 X25.8396 Y17.0378 
G01 X25.8715 Y16.8774 
G01 X25.9341 Y16.7263 
G01 X26.0250 Y16.5903 
G01 X26.1407 Y16.4746 
G01 X26.2767 Y16.3837 
G01 X26.4278 Y16.3211 
G01 X26.5882 Y16.2892 
G01 X26.7518 Y16.2892 
G01 X26.9122 Y16.3211 
G01 X27.0633 Y16.3837 
G01 X27.1993 Y16.4746 
G01 X27.3150 Y16.5903 
G01 X27.4059 Y16.7263 
G01 X27.4685 Y16.8774 
G01 X27.5004 Y17.0378 
G00 Z2.0000 
G00 X24.9604 Y17.0378 
G01 Z-0.1000 F254.00 
G01 X24.9604 Y18.5222 F508.00 
G01 X24.9285 Y18.6826 
G01 X24.8659 Y18.8337 
G01 X24.7750 Y18.9697 
G01 X24.6593 Y19.0854 
G01 X24.5233 Y19.1763 
G01 X24.3722 Y19.2389 
G01 X24.2118 Y19.2708 
G01 X24.0482 Y19.2708 
G01 X23.8878 Y19.2389 
G01 X23.7367 Y19.1763 
G01 X23.6007 Y19.0854 
G01 X23.4850 Y18.9697 
G01 X23.3941 Y18.8337 
G01 X23.3315 Y18.6826 
G01 X23.2996 Y18.5222 
G01 X23.2996 Y17.0378 
G01 X23.3315 Y16.8774 
G01 X23.3941 Y16.7263 
G01 X23.4850 Y16.5903 
G01 X23.6007 Y16.4746 
G01 X23.7367 Y16.3837 
G01 X23.8878 Y16.3211 
G01 X24.0482 Y16.2892 
G01 X24.2118 Y16.2892 
G01 X24.3722 Y16.3211 
G01 X24.5233 Y16.3837 
G01 X24.6593 Y16.4746 
G01 X24.7750 Y16.5903 
G01 X24.8659 Y16.7263 
G01 X24.9285 Y16.8774 
G01 X24.9604 Y17.0378 
G00 Z2.0000 
G00 X22.4204 Y17.0378 
G01 Z-0.1000 F254.00 
G01 X22.4204 Y18.5222 F508.00 
G01 X22.3885 Y18.6826 
G01 X22.3259 Y18.8337 
G01 X22.2350 Y18.9697 
G01 X22.1193 Y19.0854 
G01 X21.9833 Y19.1763 
G01 X21.8322 Y19.2389 
G01 X21.6718 Y19.2708 
G01 X21.5082 Y19.2708 
G01 X21.3478 Y19.2389 
G01 X21.1967 Y19.1763 
G01 X21.0607 Y19.0854 
G01 X20.9450 Y18.9697 
G01 X20.8541 Y18.8337 
G01 X20.7915 Y18.6826 
G01 X20.7596 Y18.5222 
G01 X20.7596 Y17.0378 
G01 X20.7915 Y16.8774 
G01 X20.8541 Y16.7263 
G01 X20.9450 Y16.5903 
G01 X21.0607 Y16.4746 
G01 X21.1967 Y16.3837 
G01 X21.3478 Y16.3211 
G01 X21.5082 Y16.2892 
G01 X21.6718 Y16.2892 
G01 X21.8322 Y16.3211 
G01 X21.9833 Y16.3837 
G01 X22.1193 Y16.4746 
G01 X22.2350 Y16.5903 
G01 X22.3259 Y16.7263 
G01 X22.3885 Y16.8774 
G01 X22.4204 Y17.0378 
G00 Z2.0000 
G00 X22.4204 Y24.6578 
G01 Z-0.1000 F254.00 
G01 X22.4204 Y26.1422 F508.00 
G01 X22.3885 Y26.3026 
G01 X22.3259 Y26.4537 
G01 X22.2350 Y26.5897 
G01 X22.1193 Y26.7054 
G01 X21.9833 Y26.7963 
G01 X21.8322 Y26.8589 
G01 X21.6718 Y26.8908 
G01 X21.5082 Y26.8908 
G01 X21.3478 Y26.8589 
G01 X21.1967 Y26.7963 
G01 X21.0607 Y26.7054 
G01 X20.9450 Y26.5897 
G01 X20.8541 Y26.4537 
G01 X20.7915 Y26.3026 
G01 X20.7596 Y26.1422 
G01 X20.7596 Y24.6578 
G01 X20.7915 Y24.4974 
G01 X20.8541 Y24.3463 
G01 X20.9450 Y24.2103 
G01 X21.0607 Y24.0946 
G01 X21.1967 Y24.0037 
G01 X21.3478 Y23.9411 
G01 X21.5082 Y23.9092 
G01 X21.6718 Y23.9092 
G01 X21.8322 Y23.9411 
G01 X21.9833 Y24.0037 
G01 X22.1193 Y24.0946 
