(.../pcb-gcode-3.6.0.4/pcb-gcode.ulp)
(Copyright 2005 - 2012 by John Johnson)
(See readme.txt for licensing terms.)
(This file generated from the board:)
(.../eagle/ARMEDBASE_V0/RTU/RTU.brd)
(Current profile is .../pcb-gcode-3.6.0.4/profiles/emc.pp  )
(This file generated 7/2/2014 12:55:01 PM)
(Settings from pcb-machine.h)
(  Tool Size)
(0.1000 )
(Z Axis Settings)
(  High     Up        Down     Drill)
(15.0000 	2.0000 	-0.1000 	-1.0000 )
(spindle on time = 1.0000)
(milling depth = -0.1000)
(text depth = -0.1000)
(tool change at 15.0000 15.0000 15.0000 )
(feed rate xy = F508.00 )
(feed rate z  = F254.00 )
(Settings from pcb-defaults.h)
(isolate min = 0.0200)
(isolate max = 0.3000)
(isolate step = 0.1000)
(Generated top outlines, top drill, bottom outlines, bottom drill, )
(Unit of measure: mm)
( Tool|       Size       |  Min Sub |  Max Sub |   Count )
( T01  3.200mm 0.1260in 0.0000in 0.0000in )
( T02  0.610mm 0.0240in 0.0000in 0.0000in )
( T03  0.813mm 0.0320in 0.0000in 0.0000in )
( T04  0.900mm 0.0354in 0.0000in 0.0000in )
( T05  1.016mm 0.0400in 0.0000in 0.0000in )
( T06  1.118mm 0.0440in 0.0000in 0.0000in )
(Metric Mode)
G21
(Absolute Coordinates)
G90
M05
G00 Z15.0000 
G00 X15.0000 Y15.0000 
M06 T01  ; 3.2000 
G01 Z0.0000 F254.00 
M06 T01  ; 3.2000 
G00 Z2.0000 
M03
G04 P1.000000
G00 Z2.000000
G00 X35.5600 Y66.0400 
G01 Z-1.0000 F254.00 
G01 Z2.000000
(R2.0000  P1.000000)
(G00 Z2.000000)
G00 X3.8100 Y3.8100 
G01 Z-1.000000
G01 Z2.000000
(G00 Z2.000000)
G00 X3.8100 Y66.0400 
G01 Z-1.000000
G01 Z2.000000
(G00 Z2.000000)
G00 X95.2500 Y3.8100 
G01 Z-1.000000
G01 Z2.000000
(G00 Z2.000000)
G00 X95.2500 Y66.0400 
G01 Z-1.000000
G01 Z2.000000
(G00 Z2.000000)
G00 X13.9700 Y66.0400 
G01 Z-1.000000
G01 Z2.000000
(G00 Z2.000000)
G00 X21.5900 Y66.0400 
G01 Z-1.000000
G01 Z2.000000
(G00 Z2.000000)
G00 X27.9400 Y66.0400 
G01 Z-1.000000
G01 Z2.000000
M05
G00 Z15.0000 
M06 T02  ; 0.6096 
G01 Z0.0000 F254.00 
M06 T02  ; 0.6096 
G00 Z2.0000 
M03
G04 P1.000000
G00 Z2.000000
G00 X36.5000 Y43.5000 
G01 Z-1.0000 F254.00 
G01 Z2.000000
(R2.0000  P1.000000)
(G00 Z2.000000)
G00 X51.7500 Y49.5000 
G01 Z-1.000000
G01 Z2.000000
M05
G00 Z15.0000 
M06 T03  ; 0.8128 
G01 Z0.0000 F254.00 
M06 T03  ; 0.8128 
G00 Z2.0000 
M03
G04 P1.000000
G00 Z2.000000
G00 X31.7500 Y17.7800 
G01 Z-1.0000 F254.00 
G01 Z2.000000
(R2.0000  P1.000000)
(G00 Z2.000000)
G00 X31.7500 Y25.4000 
G01 Z-1.000000
G01 Z2.000000
(G00 Z2.000000)
G00 X34.2900 Y17.7800 
G01 Z-1.000000
G01 Z2.000000
(G00 Z2.000000)
G00 X34.2900 Y25.4000 
G01 Z-1.000000
G01 Z2.000000
(G00 Z2.000000)
G00 X36.8300 Y17.7800 
G01 Z-1.000000
G01 Z2.000000
(G00 Z2.000000)
G00 X36.8300 Y25.4000 
G01 Z-1.000000
G01 Z2.000000
(G00 Z2.000000)
G00 X39.3700 Y17.7800 
G01 Z-1.000000
G01 Z2.000000
(G00 Z2.000000)
G00 X39.3700 Y25.4000 
G01 Z-1.000000
G01 Z2.000000
(G00 Z2.000000)
G00 X41.9100 Y50.8000 
G01 Z-1.000000
G01 Z2.000000
(G00 Z2.000000)
G00 X41.9100 Y53.3400 
G01 Z-1.000000
G01 Z2.000000
(G00 Z2.000000)
G00 X41.9100 Y55.8800 
G01 Z-1.000000
G01 Z2.000000
(G00 Z2.000000)
G00 X41.9100 Y58.4200 
G01 Z-1.000000
G01 Z2.000000
(G00 Z2.000000)
G00 X41.9100 Y17.7800 
G01 Z-1.000000
G01 Z2.000000
(G00 Z2.000000)
G00 X41.9100 Y25.4000 
G01 Z-1.000000
G01 Z2.000000
(G00 Z2.000000)
G00 X44.4500 Y17.7800 
G01 Z-1.000000
G01 Z2.000000
(G00 Z2.000000)
G00 X44.4500 Y25.4000 
G01 Z-1.000000
G01 Z2.000000
(G00 Z2.000000)
G00 X46.9900 Y17.7800 
G01 Z-1.000000
G01 Z2.000000
(G00 Z2.000000)
G00 X46.9900 Y25.4000 
G01 Z-1.000000
G01 Z2.000000
(G00 Z2.000000)
G00 X49.5300 Y50.8000 
G01 Z-1.000000
G01 Z2.000000
(G00 Z2.000000)
G00 X49.5300 Y53.3400 
G01 Z-1.000000
G01 Z2.000000
(G00 Z2.000000)
G00 X49.5300 Y55.8800 
G01 Z-1.000000
G01 Z2.000000
(G00 Z2.000000)
G00 X49.5300 Y58.4200 
G01 Z-1.000000
G01 Z2.000000
(G00 Z2.000000)
G00 X49.5300 Y17.7800 
G01 Z-1.000000
G01 Z2.000000
(G00 Z2.000000)
G00 X49.5300 Y25.4000 
G01 Z-1.000000
G01 Z2.000000
(G00 Z2.000000)
G00 X52.0700 Y17.7800 
G01 Z-1.000000
G01 Z2.000000
(G00 Z2.000000)
G00 X52.0700 Y25.4000 
G01 Z-1.000000
G01 Z2.000000
(G00 Z2.000000)
G00 X54.6100 Y17.7800 
G01 Z-1.000000
G01 Z2.000000
(G00 Z2.000000)
G00 X54.6100 Y25.4000 
G01 Z-1.000000
G01 Z2.000000
(G00 Z2.000000)
G00 X21.5900 Y17.7800 
G01 Z-1.000000
G01 Z2.000000
(G00 Z2.000000)
G00 X21.5900 Y25.4000 
G01 Z-1.000000
G01 Z2.000000
(G00 Z2.000000)
G00 X24.1300 Y17.7800 
G01 Z-1.000000
G01 Z2.000000
(G00 Z2.000000)
G00 X24.1300 Y25.4000 
G01 Z-1.000000
G01 Z2.000000
(G00 Z2.000000)
G00 X26.6700 Y17.7800 
G01 Z-1.000000
G01 Z2.000000
(G00 Z2.000000)
G00 X26.6700 Y25.4000 
G01 Z-1.000000
G01 Z2.000000
(G00 Z2.000000)
G00 X29.2100 Y17.7800 
G01 Z-1.000000
G01 Z2.000000
(G00 Z2.000000)
G00 X29.2100 Y25.4000 
G01 Z-1.000000
G01 Z2.000000
M05
G00 Z15.0000 
M06 T04  ; 0.9000 
G01 Z0.0000 F254.00 
M06 T04  ; 0.9000 
G00 Z2.0000 
M03
G04 P1.000000
G00 Z2.000000
G00 X32.3850 Y57.1500 
G01 Z-1.0000 F254.00 
G01 Z2.000000
(R2.0000  P1.000000)
(G00 Z2.000000)
G00 X33.6550 Y59.6900 
G01 Z-1.000000
G01 Z2.000000
(G00 Z2.000000)
G00 X15.8750 Y57.1500 
G01 Z-1.000000
G01 Z2.000000
(G00 Z2.000000)
G00 X17.1450 Y59.6900 
G01 Z-1.000000
G01 Z2.000000
(G00 Z2.000000)
G00 X18.4150 Y57.1500 
G01 Z-1.000000
G01 Z2.000000
(G00 Z2.000000)
G00 X19.6850 Y59.6900 
G01 Z-1.000000
G01 Z2.000000
(G00 Z2.000000)
G00 X29.8450 Y57.1500 
G01 Z-1.000000
G01 Z2.000000
(G00 Z2.000000)
G00 X31.1150 Y59.6900 
G01 Z-1.000000
G01 Z2.000000
M05
G00 Z15.0000 
M06 T05  ; 1.0160 
G01 Z0.0000 F254.00 
M06 T05  ; 1.0160 
G00 Z2.0000 
M03
G04 P1.000000
G00 Z2.000000
G00 X9.6012 Y44.7294 
G01 Z-1.0000 F254.00 
G01 Z2.000000
(R2.0000  P1.000000)
(G00 Z2.000000)
G00 X9.6012 Y49.2506 
G01 Z-1.000000
G01 Z2.000000
(G00 Z2.000000)
G00 X3.0988 Y44.7294 
G01 Z-1.000000
G01 Z2.000000
(G00 Z2.000000)
G00 X3.0988 Y49.2506 
G01 Z-1.000000
G01 Z2.000000
M05
G00 Z15.0000 
M06 T06  ; 1.1176 
G01 Z0.0000 F254.00 
M06 T06  ; 1.1176 
G00 Z2.0000 
M03
G04 P1.000000
G00 Z2.000000
G00 X2.5400 Y53.3400 
G01 Z-1.0000 F254.00 
G01 Z2.000000
(R2.0000  P1.000000)
(G00 Z2.000000)
G00 X2.5400 Y57.1500 
G01 Z-1.000000
G01 Z2.000000
(G00 Z2.000000)
G00 X2.5400 Y60.9600 
G01 Z-1.000000
G01 Z2.000000
T01 
G00 Z15.0000 
M05
M02
