(.../pcb-gcode-3.6.0.4/pcb-gcode.ulp)
(Copyright 2005 - 2012 by John Johnson)
(See readme.txt for licensing terms.)
(This file generated from the board:)
(.../eagle/ARMEDBASE_V0/RTU/RTU.brd)
(Current profile is .../pcb-gcode-3.6.0.4/profiles/emc.pp  )
(This file generated 7/2/2014 12:54:55 PM)
(Settings from pcb-machine.h)
(  Tool Size)
(0.1000 )
(Z Axis Settings)
(  High     Up        Down     Drill)
(15.0000 	2.0000 	-0.1000 	-1.0000 )
(spindle on time = 1.0000)
(milling depth = -0.1000)
(text depth = -0.1000)
(tool change at 15.0000 15.0000 15.0000 )
(feed rate xy = F508.00 )
(feed rate z  = F254.00 )
(Settings from pcb-defaults.h)
(isolate min = 0.0200)
(isolate max = 0.3000)
(isolate step = 0.1000)
(Generated top outlines, top drill, bottom outlines, bottom drill, )
(Unit of measure: mm)
(Metric Mode)
G21
(Absolute Coordinates)
G90
G00 X0.0000 Y0.0000 
M03
G04 P1.000000
G00 Z2.0000 
G00 X-97.4280 Y3.6672 
G01 Z-0.1000 F254.00 
G01 X-97.4280 Y3.9528 F508.00 
G01 X-97.3907 Y4.2358 
G01 X-97.3168 Y4.5116 
G01 X-97.2076 Y4.7754 
G01 X-97.0648 Y5.0226 
G01 X-96.8910 Y5.2491 
G01 X-96.6891 Y5.4510 
G01 X-96.4626 Y5.6248 
G01 X-96.2154 Y5.7676 
G01 X-95.9516 Y5.8768 
G01 X-95.6758 Y5.9507 
G01 X-95.3928 Y5.9880 
G01 X-95.1072 Y5.9880 
G01 X-94.8242 Y5.9507 
G01 X-94.5484 Y5.8768 
G01 X-94.2846 Y5.7676 
G01 X-94.0374 Y5.6248 
G01 X-93.8109 Y5.4510 
G01 X-93.6090 Y5.2491 
G01 X-93.4352 Y5.0226 
G01 X-93.2924 Y4.7754 
G01 X-93.1832 Y4.5116 
G01 X-93.1093 Y4.2358 
G01 X-93.0720 Y3.9528 
G01 X-93.0720 Y3.6672 
G01 X-93.1093 Y3.3842 
G01 X-93.1832 Y3.1084 
G01 X-93.2924 Y2.8446 
G01 X-93.4352 Y2.5974 
G01 X-93.6090 Y2.3709 
G01 X-93.8109 Y2.1690 
G01 X-94.0374 Y1.9952 
G01 X-94.2846 Y1.8524 
G01 X-94.5484 Y1.7432 
G01 X-94.8242 Y1.6693 
G01 X-95.1072 Y1.6320 
G01 X-95.3928 Y1.6320 
G01 X-95.6758 Y1.6693 
G01 X-95.9516 Y1.7432 
G01 X-96.2154 Y1.8524 
G01 X-96.4626 Y1.9952 
G01 X-96.6891 Y2.1690 
G01 X-96.8910 Y2.3709 
G01 X-97.0648 Y2.5974 
G01 X-97.2076 Y2.8446 
G01 X-97.3168 Y3.1084 
G01 X-97.3907 Y3.3842 
G01 X-97.4280 Y3.6672 
G00 Z2.0000 
G00 X-97.4280 Y65.8972 
G01 Z-0.1000 F254.00 
G01 X-97.4280 Y66.1828 F508.00 
G01 X-97.3907 Y66.4658 
G01 X-97.3168 Y66.7416 
G01 X-97.2076 Y67.0054 
G01 X-97.0648 Y67.2526 
G01 X-96.8910 Y67.4791 
G01 X-96.6891 Y67.6810 
G01 X-96.4626 Y67.8548 
G01 X-96.2154 Y67.9976 
G01 X-95.9516 Y68.1068 
G01 X-95.6758 Y68.1807 
G01 X-95.3928 Y68.2180 
G01 X-95.1072 Y68.2180 
G01 X-94.8242 Y68.1807 
G01 X-94.5484 Y68.1068 
G01 X-94.2846 Y67.9976 
G01 X-94.0374 Y67.8548 
G01 X-93.8109 Y67.6810 
G01 X-93.6090 Y67.4791 
G01 X-93.4352 Y67.2526 
G01 X-93.2924 Y67.0054 
G01 X-93.1832 Y66.7416 
G01 X-93.1093 Y66.4658 
G01 X-93.0720 Y66.1828 
G01 X-93.0720 Y65.8972 
G01 X-93.1093 Y65.6142 
G01 X-93.1832 Y65.3384 
G01 X-93.2924 Y65.0746 
G01 X-93.4352 Y64.8274 
G01 X-93.6090 Y64.6009 
G01 X-93.8109 Y64.3990 
G01 X-94.0374 Y64.2252 
G01 X-94.2846 Y64.0824 
G01 X-94.5484 Y63.9732 
G01 X-94.8242 Y63.8993 
G01 X-95.1072 Y63.8620 
G01 X-95.3928 Y63.8620 
G01 X-95.6758 Y63.8993 
G01 X-95.9516 Y63.9732 
G01 X-96.2154 Y64.0824 
G01 X-96.4626 Y64.2252 
G01 X-96.6891 Y64.3990 
G01 X-96.8910 Y64.6009 
G01 X-97.0648 Y64.8274 
G01 X-97.2076 Y65.0746 
G01 X-97.3168 Y65.3384 
G01 X-97.3907 Y65.6142 
G01 X-97.4280 Y65.8972 
G00 Z2.0000 
G00 X-5.9880 Y3.6672 
G01 Z-0.1000 F254.00 
G01 X-5.9880 Y3.9528 F508.00 
G01 X-5.9507 Y4.2358 
G01 X-5.8768 Y4.5116 
G01 X-5.7676 Y4.7754 
G01 X-5.6248 Y5.0226 
G01 X-5.4510 Y5.2491 
G01 X-5.2491 Y5.4510 
G01 X-5.0226 Y5.6248 
G01 X-4.7754 Y5.7676 
G01 X-4.5116 Y5.8768 
G01 X-4.2358 Y5.9507 
G01 X-3.9528 Y5.9880 
G01 X-3.6672 Y5.9880 
G01 X-3.3842 Y5.9507 
G01 X-3.1084 Y5.8768 
G01 X-2.8446 Y5.7676 
G01 X-2.5974 Y5.6248 
G01 X-2.3709 Y5.4510 
G01 X-2.1690 Y5.2491 
G01 X-1.9952 Y5.0226 
G01 X-1.8524 Y4.7754 
G01 X-1.7432 Y4.5116 
G01 X-1.6693 Y4.2358 
G01 X-1.6320 Y3.9528 
G01 X-1.6320 Y3.6672 
G01 X-1.6693 Y3.3842 
G01 X-1.7432 Y3.1084 
G01 X-1.8524 Y2.8446 
G01 X-1.9952 Y2.5974 
G01 X-2.1690 Y2.3709 
G01 X-2.3709 Y2.1690 
G01 X-2.5974 Y1.9952 
G01 X-2.8446 Y1.8524 
G01 X-3.1084 Y1.7432 
G01 X-3.3842 Y1.6693 
G01 X-3.6672 Y1.6320 
G01 X-3.9528 Y1.6320 
G01 X-4.2358 Y1.6693 
G01 X-4.5116 Y1.7432 
G01 X-4.7754 Y1.8524 
G01 X-5.0226 Y1.9952 
G01 X-5.2491 Y2.1690 
G01 X-5.4510 Y2.3709 
G01 X-5.6248 Y2.5974 
G01 X-5.7676 Y2.8446 
G01 X-5.8768 Y3.1084 
G01 X-5.9507 Y3.3842 
G01 X-5.9880 Y3.6672 
G00 Z2.0000 
G00 X-5.9880 Y65.8972 
G01 Z-0.1000 F254.00 
G01 X-5.9880 Y66.1828 F508.00 
G01 X-5.9507 Y66.4658 
G01 X-5.8768 Y66.7416 
G01 X-5.7676 Y67.0054 
G01 X-5.6248 Y67.2526 
G01 X-5.4510 Y67.4791 
G01 X-5.2491 Y67.6810 
G01 X-5.0226 Y67.8548 
G01 X-4.7754 Y67.9976 
G01 X-4.5116 Y68.1068 
G01 X-4.2358 Y68.1807 
G01 X-3.9528 Y68.2180 
G01 X-3.6672 Y68.2180 
G01 X-3.3842 Y68.1807 
G01 X-3.1084 Y68.1068 
G01 X-2.8446 Y67.9976 
G01 X-2.5974 Y67.8548 
G01 X-2.3709 Y67.6810 
G01 X-2.1690 Y67.4791 
G01 X-1.9952 Y67.2526 
G01 X-1.8524 Y67.0054 
G01 X-1.7432 Y66.7416 
G01 X-1.6693 Y66.4658 
G01 X-1.6320 Y66.1828 
G01 X-1.6320 Y65.8972 
G01 X-1.6693 Y65.6142 
G01 X-1.7432 Y65.3384 
G01 X-1.8524 Y65.0746 
G01 X-1.9952 Y64.8274 
G01 X-2.1690 Y64.6009 
G01 X-2.3709 Y64.3990 
G01 X-2.5974 Y64.2252 
G01 X-2.8446 Y64.0824 
G01 X-3.1084 Y63.9732 
G01 X-3.3842 Y63.8993 
G01 X-3.6672 Y63.8620 
G01 X-3.9528 Y63.8620 
G01 X-4.2358 Y63.8993 
G01 X-4.5116 Y63.9732 
G01 X-4.7754 Y64.0824 
G01 X-5.0226 Y64.2252 
G01 X-5.2491 Y64.3990 
G01 X-5.4510 Y64.6009 
G01 X-5.6248 Y64.8274 
G01 X-5.7676 Y65.0746 
G01 X-5.8768 Y65.3384 
G01 X-5.9507 Y65.6142 
G01 X-5.9880 Y65.8972 
G00 Z2.0000 
G00 X-43.3411 Y49.7200 
G01 Z-0.1000 F254.00 
G01 X-42.7008 Y50.3603 F508.00 
G01 X-42.7801 Y50.4396 
G01 X-42.7801 Y51.1604 
G01 X-42.2704 Y51.6701 
G01 X-41.5496 Y51.6701 
G01 X-41.0399 Y51.1604 
G01 X-41.0399 Y50.4396 
G01 X-41.5496 Y49.9299 
G01 X-42.2704 Y49.9299 
G01 X-42.3897 Y50.0492 
G01 X-43.1254 Y49.3135 
G01 X-43.2062 Y49.2800 
G01 X-51.2106 Y49.2800 
G01 X-51.2114 Y49.2769 
G01 X-51.2875 Y49.1451 
G01 X-51.3951 Y49.0375 
G01 X-51.5269 Y48.9614 
G01 X-51.6739 Y48.9220 
G01 X-51.8261 Y48.9220 
G01 X-51.9731 Y48.9614 
G01 X-52.1049 Y49.0375 
G01 X-52.2125 Y49.1451 
G01 X-52.2886 Y49.2769 
G01 X-52.3280 Y49.4239 
G01 X-52.3280 Y49.5761 
G01 X-52.2886 Y49.7231 
G01 X-52.2125 Y49.8549 
G01 X-52.1049 Y49.9625 
G01 X-51.9731 Y50.0386 
G01 X-51.8261 Y50.0780 
G01 X-51.6739 Y50.0780 
G01 X-51.5269 Y50.0386 
G01 X-51.3951 Y49.9625 
G01 X-51.2875 Y49.8549 
G01 X-51.2114 Y49.7231 
G01 X-51.2106 Y49.7200 
G01 X-43.3411 Y49.7200 
G00 Z2.0000 
G00 X-16.6562 Y57.0731 
G01 Z-0.1000 F254.00 
G01 X-16.6562 Y57.2269 F508.00 
G01 X-16.6262 Y57.3779 
G01 X-16.5714 Y57.5102 
G01 X-17.3411 Y58.2800 
G01 X-28.4089 Y58.2800 
G01 X-29.1592 Y57.5297 
G01 X-29.1527 Y57.5200 
G01 X-29.0938 Y57.3779 
G01 X-29.0638 Y57.2269 
G01 X-29.0638 Y57.0731 
G01 X-29.0938 Y56.9221 
G01 X-29.1527 Y56.7800 
G01 X-29.2382 Y56.6520 
G01 X-29.3470 Y56.5432 
G01 X-29.4750 Y56.4577 
G01 X-29.6171 Y56.3988 
G01 X-29.7681 Y56.3688 
G01 X-29.9219 Y56.3688 
G01 X-30.0729 Y56.3988 
G01 X-30.2150 Y56.4577 
G01 X-30.3430 Y56.5432 
G01 X-30.4518 Y56.6520 
G01 X-30.5373 Y56.7800 
G01 X-30.5962 Y56.9221 
G01 X-30.6262 Y57.0731 
G01 X-30.6262 Y57.2269 
G01 X-30.5962 Y57.3779 
G01 X-30.5373 Y57.5200 
G01 X-30.4518 Y57.6480 
G01 X-30.3430 Y57.7568 
G01 X-30.2150 Y57.8423 
G01 X-30.0729 Y57.9012 
G01 X-29.9219 Y57.9312 
G01 X-29.7681 Y57.9312 
G01 X-29.6171 Y57.9012 
G01 X-29.4750 Y57.8423 
G01 X-29.4713 Y57.8398 
G01 X-28.6865 Y58.6246 
G01 X-28.6246 Y58.6865 
G01 X-28.5438 Y58.7200 
G01 X-17.2062 Y58.7200 
G01 X-17.1254 Y58.6865 
G01 X-16.2667 Y57.8278 
G01 X-16.2450 Y57.8423 
G01 X-16.1029 Y57.9012 
G01 X-15.9519 Y57.9312 
G01 X-15.7981 Y57.9312 
G01 X-15.6471 Y57.9012 
G01 X-15.5050 Y57.8423 
G01 X-15.3770 Y57.7568 
G01 X-15.2682 Y57.6480 
G01 X-15.1827 Y57.5200 
G01 X-15.1238 Y57.3779 
G01 X-15.0938 Y57.2269 
G01 X-15.0938 Y57.0731 
G01 X-15.1238 Y56.9221 
G01 X-15.1827 Y56.7800 
G01 X-15.2682 Y56.6520 
G01 X-15.3770 Y56.5432 
G01 X-15.5050 Y56.4577 
G01 X-15.6471 Y56.3988 
G01 X-15.7981 Y56.3688 
G01 X-15.9519 Y56.3688 
G01 X-16.1029 Y56.3988 
G01 X-16.2450 Y56.4577 
G01 X-16.3730 Y56.5432 
G01 X-16.4818 Y56.6520 
G01 X-16.5673 Y56.7800 
G01 X-16.6262 Y56.9221 
G01 X-16.6562 Y57.0731 
G00 Z2.0000 
G00 X-19.1962 Y57.0731 
G01 Z-0.1000 F254.00 
G01 X-19.1962 Y57.2269 F508.00 
G01 X-19.1662 Y57.3779 
G01 X-19.1073 Y57.5200 
G01 X-19.0218 Y57.6480 
G01 X-18.9130 Y57.7568 
G01 X-18.7850 Y57.8423 
G01 X-18.6429 Y57.9012 
G01 X-18.4919 Y57.9312 
G01 X-18.3381 Y57.9312 
G01 X-18.1871 Y57.9012 
G01 X-18.0450 Y57.8423 
G01 X-17.9170 Y57.7568 
G01 X-17.8082 Y57.6480 
G01 X-17.7227 Y57.5200 
G01 X-17.6638 Y57.3779 
G01 X-17.6338 Y57.2269 
G01 X-17.6338 Y57.0731 
G01 X-17.6638 Y56.9221 
G01 X-17.7227 Y56.7800 
G01 X-17.8082 Y56.6520 
G01 X-17.9170 Y56.5432 
G01 X-18.0450 Y56.4577 
G01 X-18.1871 Y56.3988 
G01 X-18.3381 Y56.3688 
G01 X-18.4919 Y56.3688 
G01 X-18.6429 Y56.3988 
G01 X-18.7469 Y56.4419 
G01 X-19.3135 Y55.8754 
G01 X-19.3754 Y55.8135 
G01 X-19.4562 Y55.7800 
G01 X-33.4089 Y55.7800 
G01 X-35.8135 Y53.3754 
G01 X-35.8754 Y53.3135 
G01 X-35.9562 Y53.2800 
G01 X-41.0399 Y53.2800 
G01 X-41.0399 Y52.9796 
G01 X-41.5496 Y52.4699 
G01 X-42.2704 Y52.4699 
G01 X-42.7801 Y52.9796 
G01 X-42.7801 Y53.7004 
G01 X-42.2704 Y54.2101 
G01 X-41.5496 Y54.2101 
G01 X-41.0595 Y53.7200 
G01 X-36.0911 Y53.7200 
G01 X-33.6865 Y56.1246 
G01 X-33.6246 Y56.1865 
G01 X-33.0588 Y56.7523 
G01 X-33.0773 Y56.7800 
G01 X-33.1362 Y56.9221 
G01 X-33.1662 Y57.0731 
G01 X-33.1662 Y57.2269 
G01 X-33.1362 Y57.3779 
G01 X-33.0773 Y57.5200 
G01 X-32.9918 Y57.6480 
G01 X-32.8830 Y57.7568 
G01 X-32.7550 Y57.8423 
G01 X-32.6129 Y57.9012 
G01 X-32.4619 Y57.9312 
G01 X-32.3081 Y57.9312 
G01 X-32.1571 Y57.9012 
G01 X-32.0150 Y57.8423 
G01 X-31.8870 Y57.7568 
G01 X-31.7782 Y57.6480 
G01 X-31.6927 Y57.5200 
G01 X-31.6338 Y57.3779 
G01 X-31.6038 Y57.2269 
G01 X-31.6038 Y57.0731 
G01 X-31.6338 Y56.9221 
G01 X-31.6927 Y56.7800 
G01 X-31.7782 Y56.6520 
G01 X-31.8870 Y56.5432 
G01 X-32.0150 Y56.4577 
G01 X-32.1571 Y56.3988 
G01 X-32.3081 Y56.3688 
G01 X-32.4619 Y56.3688 
G01 X-32.6129 Y56.3988 
G01 X-32.7382 Y56.4507 
G01 X-32.9689 Y56.2200 
G01 X-19.5911 Y56.2200 
G01 X-19.0768 Y56.7343 
G01 X-19.1073 Y56.7800 
G01 X-19.1662 Y56.9221 
G01 X-19.1962 Y57.0731 
G00 Z2.0000 
G00 X-20.4662 Y59.7669 
G01 Z-0.1000 F254.00 
G01 X-20.4362 Y59.9179 F508.00 
G01 X-20.3773 Y60.0600 
G01 X-20.2918 Y60.1880 
G01 X-20.1830 Y60.2968 
G01 X-20.0550 Y60.3823 
G01 X-19.9129 Y60.4412 
G01 X-19.7619 Y60.4712 
G01 X-19.6081 Y60.4712 
G01 X-19.4571 Y60.4412 
G01 X-19.3150 Y60.3823 
G01 X-19.1870 Y60.2968 
G01 X-19.0782 Y60.1880 
G01 X-18.9927 Y60.0600 
G01 X-18.9338 Y59.9179 
G01 X-18.9038 Y59.7669 
G01 X-18.9038 Y59.6131 
G01 X-18.9338 Y59.4621 
G01 X-18.9927 Y59.3200 
G01 X-19.0782 Y59.1920 
G01 X-19.1870 Y59.0832 
G01 X-19.3150 Y58.9977 
G01 X-19.4571 Y58.9388 
G01 X-19.6081 Y58.9088 
G01 X-19.7619 Y58.9088 
G01 X-19.9129 Y58.9388 
G01 X-20.0550 Y58.9977 
G01 X-20.1830 Y59.0832 
G01 X-20.2918 Y59.1920 
G01 X-20.3506 Y59.2800 
G01 X-28.4089 Y59.2800 
G01 X-29.3754 Y58.3135 
G01 X-29.4562 Y58.2800 
G01 X-32.5438 Y58.2800 
G01 X-32.6246 Y58.3135 
G01 X-32.6865 Y58.3754 
G01 X-33.3018 Y58.9907 
G01 X-33.4271 Y58.9388 
G01 X-33.5781 Y58.9088 
G01 X-33.7319 Y58.9088 
G01 X-33.8829 Y58.9388 
G01 X-33.9657 Y58.9731 
G01 X-37.0635 Y55.8754 
G01 X-37.1254 Y55.8135 
G01 X-37.2062 Y55.7800 
G01 X-41.0399 Y55.7800 
G01 X-41.0399 Y55.5196 
G01 X-41.5496 Y55.0099 
G01 X-42.2704 Y55.0099 
G01 X-42.7801 Y55.5196 
G01 X-42.7801 Y56.2404 
G01 X-42.2704 Y56.7501 
G01 X-41.5496 Y56.7501 
G01 X-41.0399 Y56.2404 
G01 X-41.0399 Y56.2200 
G01 X-37.3411 Y56.2200 
G01 X-34.3048 Y59.2563 
G01 X-34.3473 Y59.3200 
G01 X-34.4062 Y59.4621 
G01 X-34.4362 Y59.6131 
G01 X-34.4362 Y59.7669 
G01 X-34.4062 Y59.9179 
G01 X-34.3473 Y60.0600 
G01 X-34.2618 Y60.1880 
G01 X-34.1530 Y60.2968 
G01 X-34.0250 Y60.3823 
G01 X-33.8829 Y60.4412 
G01 X-33.7319 Y60.4712 
G01 X-33.5781 Y60.4712 
G01 X-33.4271 Y60.4412 
G01 X-33.2850 Y60.3823 
G01 X-33.1570 Y60.2968 
G01 X-33.0482 Y60.1880 
G01 X-32.9627 Y60.0600 
G01 X-32.9038 Y59.9179 
G01 X-32.8738 Y59.7669 
G01 X-32.8738 Y59.6131 
G01 X-32.9038 Y59.4621 
G01 X-32.9627 Y59.3200 
G01 X-32.9812 Y59.2923 
G01 X-32.4089 Y58.7200 
G01 X-29.5911 Y58.7200 
G01 X-28.6865 Y59.6246 
G01 X-28.6246 Y59.6865 
G01 X-28.5438 Y59.7200 
G01 X-20.4662 Y59.7200 
G01 X-20.4662 Y59.7669 
G00 Z2.0000 
G00 X-1.6123 Y60.0518 
G01 Z-0.1000 F254.00 
G01 X-3.4677 Y60.0518 F508.00 
G01 X-3.6431 Y60.0867 
G01 X-3.8084 Y60.1552 
G01 X-3.9571 Y60.2546 
G01 X-4.0836 Y60.3811 
G01 X-4.1830 Y60.5298 
G01 X-4.2515 Y60.6951 
G01 X-4.2864 Y60.8705 
G01 X-4.2864 Y61.0495 
G01 X-4.2515 Y61.2249 
G01 X-4.1830 Y61.3902 
G01 X-4.0836 Y61.5389 
G01 X-3.9571 Y61.6654 
G01 X-3.8084 Y61.7648 
G01 X-3.6431 Y61.8333 
G01 X-3.4677 Y61.8682 
G01 X-1.6123 Y61.8682 
G01 X-1.4369 Y61.8333 
G01 X-1.2716 Y61.7648 
G01 X-1.1229 Y61.6654 
G01 X-0.9964 Y61.5389 
G01 X-0.8970 Y61.3902 
G01 X-0.8285 Y61.2249 
G01 X-0.7936 Y61.0495 
G01 X-0.7936 Y60.8705 
G01 X-0.8285 Y60.6951 
G01 X-0.8970 Y60.5298 
G01 X-0.9964 Y60.3811 
G01 X-1.1229 Y60.2546 
G01 X-1.2716 Y60.1552 
G01 X-1.4369 Y60.0867 
G01 X-1.6123 Y60.0518 
G00 Z2.0000 
G00 X-1.6123 Y56.2418 
G01 Z-0.1000 F254.00 
G01 X-3.4677 Y56.2418 F508.00 
G01 X-3.6431 Y56.2767 
G01 X-3.8084 Y56.3452 
G01 X-3.9571 Y56.4446 
G01 X-4.0836 Y56.5711 
G01 X-4.1830 Y56.7198 
G01 X-4.2515 Y56.8851 
G01 X-4.2864 Y57.0605 
G01 X-4.2864 Y57.2395 
G01 X-4.2515 Y57.4149 
G01 X-4.1830 Y57.5802 
G01 X-4.0836 Y57.7289 
G01 X-3.9571 Y57.8554 
G01 X-3.8084 Y57.9548 
G01 X-3.6431 Y58.0233 
G01 X-3.4677 Y58.0582 
G01 X-1.6123 Y58.0582 
G01 X-1.4369 Y58.0233 
G01 X-1.2716 Y57.9548 
G01 X-1.1229 Y57.8554 
G01 X-0.9964 Y57.7289 
G01 X-0.8970 Y57.5802 
G01 X-0.8285 Y57.4149 
G01 X-0.7936 Y57.2395 
G01 X-0.7936 Y57.0605 
G01 X-0.8285 Y56.8851 
G01 X-0.8970 Y56.7198 
G01 X-0.9964 Y56.5711 
G01 X-1.1229 Y56.4446 
G01 X-1.2716 Y56.3452 
G01 X-1.4369 Y56.2767 
G01 X-1.6123 Y56.2418 
G00 Z2.0000 
G00 X-1.6123 Y52.4318 
G01 Z-0.1000 F254.00 
G01 X-3.4677 Y52.4318 F508.00 
G01 X-3.6431 Y52.4667 
G01 X-3.8084 Y52.5352 
G01 X-3.9571 Y52.6346 
G01 X-4.0836 Y52.7611 
G01 X-4.1830 Y52.9098 
G01 X-4.2515 Y53.0751 
G01 X-4.2864 Y53.2505 
G01 X-4.2864 Y53.4295 
G01 X-4.2515 Y53.6049 
G01 X-4.1830 Y53.7702 
G01 X-4.0836 Y53.9189 
G01 X-3.9571 Y54.0454 
G01 X-3.8084 Y54.1448 
G01 X-3.6431 Y54.2133 
G01 X-3.4677 Y54.2482 
G01 X-1.6123 Y54.2482 
G01 X-1.4369 Y54.2133 
G01 X-1.2716 Y54.1448 
G01 X-1.1229 Y54.0454 
G01 X-0.9964 Y53.9189 
G01 X-0.8970 Y53.7702 
G01 X-0.8285 Y53.6049 
G01 X-0.7936 Y53.4295 
G01 X-0.7936 Y53.2505 
G01 X-0.8285 Y53.0751 
G01 X-0.8970 Y52.9098 
G01 X-0.9964 Y52.7611 
G01 X-1.1229 Y52.6346 
G01 X-1.2716 Y52.5352 
G01 X-1.4369 Y52.4667 
G01 X-1.6123 Y52.4318 
G00 Z2.0000 
G00 X-10.6110 Y44.6299 
G01 Z-0.1000 F254.00 
G01 X-10.6110 Y44.8289 F508.00 
G01 X-10.5722 Y45.0239 
G01 X-10.4961 Y45.2077 
G01 X-10.3856 Y45.3731 
G01 X-10.2449 Y45.5138 
G01 X-10.0795 Y45.6243 
G01 X-9.8957 Y45.7004 
G01 X-9.7007 Y45.7392 
G01 X-9.5017 Y45.7392 
G01 X-9.3067 Y45.7004 
G01 X-9.1229 Y45.6243 
G01 X-8.9575 Y45.5138 
G01 X-8.8168 Y45.3731 
G01 X-8.7063 Y45.2077 
G01 X-8.6302 Y45.0239 
G01 X-8.5914 Y44.8289 
G01 X-8.5914 Y44.6299 
G01 X-8.6302 Y44.4349 
G01 X-8.7063 Y44.2511 
G01 X-8.8168 Y44.0857 
G01 X-8.9575 Y43.9450 
G01 X-9.1229 Y43.8345 
G01 X-9.3067 Y43.7584 
G01 X-9.5017 Y43.7196 
G01 X-9.7007 Y43.7196 
G01 X-9.8957 Y43.7584 
G01 X-10.0795 Y43.8345 
G01 X-10.2449 Y43.9450 
G01 X-10.3856 Y44.0857 
G01 X-10.4961 Y44.2511 
G01 X-10.5722 Y44.4349 
G01 X-10.6110 Y44.6299 
G00 Z2.0000 
G00 X-4.1086 Y44.6299 
G01 Z-0.1000 F254.00 
G01 X-4.1086 Y44.8289 F508.00 
G01 X-4.0698 Y45.0239 
G01 X-3.9937 Y45.2077 
G01 X-3.8832 Y45.3731 
G01 X-3.7425 Y45.5138 
G01 X-3.5771 Y45.6243 
G01 X-3.3933 Y45.7004 
G01 X-3.1983 Y45.7392 
G01 X-2.9993 Y45.7392 
G01 X-2.8043 Y45.7004 
G01 X-2.6205 Y45.6243 
G01 X-2.4551 Y45.5138 
G01 X-2.3144 Y45.3731 
G01 X-2.2039 Y45.2077 
G01 X-2.1278 Y45.0239 
G01 X-2.0890 Y44.8289 
G01 X-2.0890 Y44.6299 
G01 X-2.1278 Y44.4349 
G01 X-2.2039 Y44.2511 
G01 X-2.3144 Y44.0857 
G01 X-2.4551 Y43.9450 
G01 X-2.6205 Y43.8345 
G01 X-2.8043 Y43.7584 
G01 X-2.9993 Y43.7196 
G01 X-3.1983 Y43.7196 
G01 X-3.3933 Y43.7584 
G01 X-3.5771 Y43.8345 
G01 X-3.7425 Y43.9450 
G01 X-3.8832 Y44.0857 
G01 X-3.9937 Y44.2511 
G01 X-4.0698 Y44.4349 
G01 X-4.1086 Y44.6299 
G00 Z2.0000 
G00 X-10.6110 Y49.1511 
G01 Z-0.1000 F254.00 
G01 X-10.6110 Y49.3501 F508.00 
G01 X-10.5722 Y49.5451 
G01 X-10.4961 Y49.7289 
G01 X-10.3856 Y49.8943 
G01 X-10.2449 Y50.0350 
G01 X-10.0795 Y50.1455 
G01 X-9.8957 Y50.2216 
G01 X-9.7007 Y50.2604 
G01 X-9.5017 Y50.2604 
G01 X-9.3067 Y50.2216 
G01 X-9.1229 Y50.1455 
G01 X-8.9575 Y50.0350 
G01 X-8.8168 Y49.8943 
G01 X-8.7063 Y49.7289 
G01 X-8.6302 Y49.5451 
G01 X-8.5914 Y49.3501 
G01 X-8.5914 Y49.1511 
G01 X-8.6302 Y48.9561 
G01 X-8.7063 Y48.7723 
G01 X-8.8168 Y48.6069 
G01 X-8.9575 Y48.4662 
G01 X-9.1229 Y48.3557 
G01 X-9.3067 Y48.2796 
G01 X-9.5017 Y48.2408 
G01 X-9.7007 Y48.2408 
G01 X-9.8957 Y48.2796 
G01 X-10.0795 Y48.3557 
G01 X-10.2449 Y48.4662 
G01 X-10.3856 Y48.6069 
G01 X-10.4961 Y48.7723 
G01 X-10.5722 Y48.9561 
G01 X-10.6110 Y49.1511 
G00 Z2.0000 
G00 X-4.1086 Y49.1511 
G01 Z-0.1000 F254.00 
G01 X-4.1086 Y49.3501 F508.00 
G01 X-4.0698 Y49.5451 
G01 X-3.9937 Y49.7289 
G01 X-3.8832 Y49.8943 
G01 X-3.7425 Y50.0350 
G01 X-3.5771 Y50.1455 
G01 X-3.3933 Y50.2216 
G01 X-3.1983 Y50.2604 
G01 X-2.9993 Y50.2604 
G01 X-2.8043 Y50.2216 
G01 X-2.6205 Y50.1455 
G01 X-2.4551 Y50.0350 
G01 X-2.3144 Y49.8943 
G01 X-2.2039 Y49.7289 
G01 X-2.1278 Y49.5451 
G01 X-2.0890 Y49.3501 
G01 X-2.0890 Y49.1511 
G01 X-2.1278 Y48.9561 
G01 X-2.2039 Y48.7723 
G01 X-2.3144 Y48.6069 
G01 X-2.4551 Y48.4662 
G01 X-2.6205 Y48.3557 
G01 X-2.8043 Y48.2796 
G01 X-2.9993 Y48.2408 
G01 X-3.1983 Y48.2408 
G01 X-3.3933 Y48.2796 
G01 X-3.5771 Y48.3557 
G01 X-3.7306 Y48.4583 
G01 X-6.0635 Y46.1254 
G01 X-6.1254 Y46.0635 
G01 X-6.2062 Y46.0300 
G01 X-33.6589 Y46.0300 
G01 X-35.9630 Y43.7259 
G01 X-35.9614 Y43.7231 
G01 X-35.9220 Y43.5761 
G01 X-35.9220 Y43.4239 
G01 X-35.9614 Y43.2769 
G01 X-36.0375 Y43.1451 
G01 X-36.1451 Y43.0375 
G01 X-36.2769 Y42.9614 
G01 X-36.4239 Y42.9220 
G01 X-36.5761 Y42.9220 
G01 X-36.7231 Y42.9614 
G01 X-36.7259 Y42.9630 
G01 X-53.8796 Y25.8093 
G01 X-53.8796 Y24.6677 
G01 X-53.9077 Y24.5265 
G01 X-53.9627 Y24.3936 
G01 X-54.0427 Y24.2740 
G01 X-54.1444 Y24.1723 
G01 X-54.2640 Y24.0923 
G01 X-54.3969 Y24.0373 
G01 X-54.5381 Y24.0092 
G01 X-54.6819 Y24.0092 
G01 X-54.8231 Y24.0373 
G01 X-54.9560 Y24.0923 
G01 X-55.0756 Y24.1723 
G01 X-55.1773 Y24.2740 
G01 X-55.2573 Y24.3936 
G01 X-55.3123 Y24.5265 
G01 X-55.3404 Y24.6677 
G01 X-55.3404 Y26.1323 
G01 X-55.3123 Y26.2735 
G01 X-55.2573 Y26.4064 
G01 X-55.1773 Y26.5260 
G01 X-55.0756 Y26.6277 
G01 X-54.9560 Y26.7077 
G01 X-54.8231 Y26.7627 
G01 X-54.6819 Y26.7908 
G01 X-54.5381 Y26.7908 
G01 X-54.3969 Y26.7627 
G01 X-54.2640 Y26.7077 
G01 X-54.1444 Y26.6277 
G01 X-54.0427 Y26.5260 
G01 X-53.9627 Y26.4064 
G01 X-53.9457 Y26.3654 
G01 X-37.0370 Y43.2741 
G01 X-37.0386 Y43.2769 
G01 X-37.0780 Y43.4239 
G01 X-37.0780 Y43.5761 
G01 X-37.0386 Y43.7231 
G01 X-36.9625 Y43.8549 
G01 X-36.8549 Y43.9625 
G01 X-36.7231 Y44.0386 
G01 X-36.5761 Y44.0780 
G01 X-36.4239 Y44.0780 
G01 X-36.2769 Y44.0386 
G01 X-36.2741 Y44.0370 
G01 X-33.8746 Y46.4365 
G01 X-33.7938 Y46.4700 
G01 X-6.3411 Y46.4700 
G01 X-4.0069 Y48.8042 
G01 X-4.0698 Y48.9561 
G01 X-4.1086 Y49.1511 
G00 Z2.0000 
G00 X-55.3404 Y17.0477 
G01 Z-0.1000 F254.00 
G01 X-55.3404 Y18.5123 F508.00 
G01 X-55.3123 Y18.6534 
G01 X-55.2573 Y18.7864 
G01 X-55.1773 Y18.9060 
G01 X-55.0756 Y19.0077 
G01 X-54.9560 Y19.0877 
G01 X-54.8231 Y19.1427 
G01 X-54.6819 Y19.1708 
G01 X-54.5381 Y19.1708 
G01 X-54.3969 Y19.1427 
G01 X-54.2640 Y19.0877 
G01 X-54.1444 Y19.0077 
G01 X-54.0427 Y18.9060 
G01 X-53.9627 Y18.7864 
G01 X-53.9077 Y18.6534 
G01 X-53.8796 Y18.5123 
G01 X-53.8796 Y17.0477 
G01 X-53.9077 Y16.9065 
G01 X-53.9627 Y16.7736 
G01 X-54.0427 Y16.6540 
G01 X-54.1444 Y16.5523 
G01 X-54.2640 Y16.4723 
G01 X-54.3969 Y16.4173 
G01 X-54.5381 Y16.3892 
G01 X-54.6819 Y16.3892 
G01 X-54.8231 Y16.4173 
G01 X-54.9560 Y16.4723 
G01 X-55.0756 Y16.5523 
G01 X-55.1773 Y16.6540 
G01 X-55.2573 Y16.7736 
G01 X-55.3123 Y16.9065 
G01 X-55.3404 Y17.0477 
G00 Z2.0000 
G00 X-52.8004 Y17.0477 
G01 Z-0.1000 F254.00 
G01 X-52.8004 Y18.5123 F508.00 
G01 X-52.7723 Y18.6534 
G01 X-52.7173 Y18.7864 
G01 X-52.6373 Y18.9060 
G01 X-52.5356 Y19.0077 
G01 X-52.4160 Y19.0877 
G01 X-52.2831 Y19.1427 
G01 X-52.1419 Y19.1708 
G01 X-51.9981 Y19.1708 
G01 X-51.8569 Y19.1427 
G01 X-51.7240 Y19.0877 
G01 X-51.6044 Y19.0077 
G01 X-51.5027 Y18.9060 
G01 X-51.4227 Y18.7864 
G01 X-51.3677 Y18.6534 
G01 X-51.3396 Y18.5123 
G01 X-51.3396 Y17.0477 
G01 X-51.3677 Y16.9065 
G01 X-51.4227 Y16.7736 
G01 X-51.5027 Y16.6540 
G01 X-51.6044 Y16.5523 
G01 X-51.7240 Y16.4723 
G01 X-51.8569 Y16.4173 
G01 X-51.9981 Y16.3892 
G01 X-52.1419 Y16.3892 
G01 X-52.2831 Y16.4173 
G01 X-52.4160 Y16.4723 
G01 X-52.5356 Y16.5523 
G01 X-52.6373 Y16.6540 
G01 X-52.7173 Y16.7736 
G01 X-52.7723 Y16.9065 
G01 X-52.8004 Y17.0477 
G00 Z2.0000 
G00 X-50.2604 Y17.0477 
G01 Z-0.1000 F254.00 
G01 X-50.2604 Y18.5123 F508.00 
G01 X-50.2323 Y18.6534 
G01 X-50.1773 Y18.7864 
G01 X-50.0973 Y18.9060 
G01 X-49.9956 Y19.0077 
G01 X-49.8760 Y19.0877 
G01 X-49.7431 Y19.1427 
G01 X-49.6019 Y19.1708 
G01 X-49.4581 Y19.1708 
G01 X-49.3169 Y19.1427 
G01 X-49.1840 Y19.0877 
G01 X-49.0644 Y19.0077 
G01 X-48.9627 Y18.9060 
G01 X-48.8827 Y18.7864 
G01 X-48.8277 Y18.6534 
G01 X-48.7996 Y18.5123 
G01 X-48.7996 Y17.0477 
G01 X-48.8277 Y16.9065 
G01 X-48.8827 Y16.7736 
G01 X-48.9627 Y16.6540 
G01 X-49.0644 Y16.5523 
G01 X-49.1840 Y16.4723 
G01 X-49.3169 Y16.4173 
G01 X-49.4581 Y16.3892 
G01 X-49.6019 Y16.3892 
G01 X-49.7431 Y16.4173 
G01 X-49.8760 Y16.4723 
G01 X-49.9956 Y16.5523 
G01 X-50.0973 Y16.6540 
G01 X-50.1773 Y16.7736 
G01 X-50.2323 Y16.9065 
G01 X-50.2604 Y17.0477 
G00 Z2.0000 
G00 X-47.7204 Y17.0477 
G01 Z-0.1000 F254.00 
G01 X-47.7204 Y18.5123 F508.00 
G01 X-47.6923 Y18.6534 
G01 X-47.6373 Y18.7864 
G01 X-47.5573 Y18.9060 
G01 X-47.4556 Y19.0077 
G01 X-47.3360 Y19.0877 
G01 X-47.2031 Y19.1427 
G01 X-47.0619 Y19.1708 
G01 X-46.9181 Y19.1708 
G01 X-46.7769 Y19.1427 
G01 X-46.6440 Y19.0877 
G01 X-46.5244 Y19.0077 
G01 X-46.4227 Y18.9060 
G01 X-46.3427 Y18.7864 
G01 X-46.2877 Y18.6534 
G01 X-46.2596 Y18.5123 
G01 X-46.2596 Y17.0477 
G01 X-46.2877 Y16.9065 
G01 X-46.3427 Y16.7736 
G01 X-46.4227 Y16.6540 
G01 X-46.5244 Y16.5523 
G01 X-46.6440 Y16.4723 
G01 X-46.7769 Y16.4173 
G01 X-46.9181 Y16.3892 
G01 X-47.0619 Y16.3892 
G01 X-47.2031 Y16.4173 
G01 X-47.3360 Y16.4723 
G01 X-47.4556 Y16.5523 
G01 X-47.5573 Y16.6540 
G01 X-47.6373 Y16.7736 
G01 X-47.6923 Y16.9065 
G01 X-47.7204 Y17.0477 
G00 Z2.0000 
G00 X-45.1804 Y17.0477 
G01 Z-0.1000 F254.00 
G01 X-45.1804 Y18.5123 F508.00 
G01 X-45.1523 Y18.6534 
G01 X-45.0973 Y18.7864 
G01 X-45.0173 Y18.9060 
G01 X-44.9156 Y19.0077 
G01 X-44.7960 Y19.0877 
G01 X-44.6631 Y19.1427 
G01 X-44.5219 Y19.1708 
G01 X-44.3781 Y19.1708 
G01 X-44.2369 Y19.1427 
G01 X-44.1040 Y19.0877 
G01 X-43.9844 Y19.0077 
G01 X-43.8827 Y18.9060 
G01 X-43.8027 Y18.7864 
G01 X-43.7477 Y18.6534 
G01 X-43.7196 Y18.5123 
G01 X-43.7196 Y17.0477 
G01 X-43.7477 Y16.9065 
G01 X-43.8027 Y16.7736 
G01 X-43.8827 Y16.6540 
G01 X-43.9844 Y16.5523 
G01 X-44.1040 Y16.4723 
G01 X-44.2369 Y16.4173 
G01 X-44.3781 Y16.3892 
G01 X-44.5219 Y16.3892 
G01 X-44.6631 Y16.4173 
G01 X-44.7960 Y16.4723 
G01 X-44.9156 Y16.5523 
G01 X-45.0173 Y16.6540 
G01 X-45.0973 Y16.7736 
G01 X-45.1523 Y16.9065 
G01 X-45.1804 Y17.0477 
G00 Z2.0000 
G00 X-42.6404 Y17.0477 
G01 Z-0.1000 F254.00 
G01 X-42.6404 Y18.5123 F508.00 
G01 X-42.6123 Y18.6534 
G01 X-42.5573 Y18.7864 
G01 X-42.4773 Y18.9060 
G01 X-42.3756 Y19.0077 
G01 X-42.2560 Y19.0877 
G01 X-42.1230 Y19.1427 
G01 X-41.9819 Y19.1708 
G01 X-41.8381 Y19.1708 
G01 X-41.6969 Y19.1427 
G01 X-41.5640 Y19.0877 
G01 X-41.4444 Y19.0077 
G01 X-41.3427 Y18.9060 
G01 X-41.2627 Y18.7864 
G01 X-41.2077 Y18.6534 
G01 X-41.1796 Y18.5123 
G01 X-41.1796 Y17.0477 
G01 X-41.2077 Y16.9065 
G01 X-41.2627 Y16.7736 
G01 X-41.3427 Y16.6540 
G01 X-41.4444 Y16.5523 
G01 X-41.5640 Y16.4723 
G01 X-41.6969 Y16.4173 
G01 X-41.8381 Y16.3892 
G01 X-41.9819 Y16.3892 
G01 X-42.1230 Y16.4173 
G01 X-42.2560 Y16.4723 
G01 X-42.3756 Y16.5523 
G01 X-42.4773 Y16.6540 
G01 X-42.5573 Y16.7736 
G01 X-42.6123 Y16.9065 
G01 X-42.6404 Y17.0477 
G00 Z2.0000 
G00 X-40.1004 Y17.0477 
G01 Z-0.1000 F254.00 
G01 X-40.1004 Y18.5123 F508.00 
G01 X-40.0723 Y18.6534 
G01 X-40.0173 Y18.7864 
G01 X-39.9373 Y18.9060 
G01 X-39.8356 Y19.0077 
G01 X-39.7160 Y19.0877 
G01 X-39.5831 Y19.1427 
G01 X-39.4700 Y19.1652 
G01 X-39.4700 Y23.5438 
G01 X-39.4365 Y23.6246 
G01 X-39.3746 Y23.6865 
G01 X-39.2938 Y23.7200 
G01 X-38.8411 Y23.7200 
G01 X-37.5604 Y25.0007 
G01 X-37.5604 Y26.1323 
G01 X-37.5323 Y26.2735 
G01 X-37.4773 Y26.4064 
G01 X-37.3973 Y26.5260 
G01 X-37.2956 Y26.6277 
G01 X-37.1760 Y26.7077 
G01 X-37.0431 Y26.7627 
G01 X-36.9019 Y26.7908 
G01 X-36.7581 Y26.7908 
G01 X-36.6169 Y26.7627 
G01 X-36.4840 Y26.7077 
G01 X-36.3644 Y26.6277 
G01 X-36.2627 Y26.5260 
G01 X-36.1827 Y26.4064 
G01 X-36.1277 Y26.2735 
G01 X-36.0996 Y26.1323 
G01 X-36.0996 Y24.6677 
G01 X-36.1277 Y24.5265 
G01 X-36.1827 Y24.3936 
G01 X-36.2627 Y24.2740 
G01 X-36.3644 Y24.1723 
G01 X-36.4840 Y24.0923 
G01 X-36.6169 Y24.0373 
G01 X-36.7581 Y24.0092 
G01 X-36.9019 Y24.0092 
G01 X-37.0431 Y24.0373 
G01 X-37.1760 Y24.0923 
G01 X-37.2956 Y24.1723 
G01 X-37.3973 Y24.2740 
G01 X-37.4773 Y24.3936 
G01 X-37.4972 Y24.4417 
G01 X-38.6254 Y23.3135 
G01 X-38.7062 Y23.2800 
G01 X-39.0300 Y23.2800 
G01 X-39.0300 Y19.0901 
G01 X-39.0240 Y19.0877 
G01 X-38.9044 Y19.0077 
G01 X-38.8027 Y18.9060 
G01 X-38.7227 Y18.7864 
G01 X-38.6677 Y18.6534 
G01 X-38.6396 Y18.5123 
G01 X-38.6396 Y17.0477 
G01 X-38.6677 Y16.9065 
G01 X-38.7227 Y16.7736 
G01 X-38.8027 Y16.6540 
G01 X-38.9044 Y16.5523 
G01 X-39.0240 Y16.4723 
G01 X-39.1569 Y16.4173 
G01 X-39.2981 Y16.3892 
G01 X-39.4419 Y16.3892 
G01 X-39.5831 Y16.4173 
G01 X-39.7160 Y16.4723 
G01 X-39.8356 Y16.5523 
G01 X-39.9373 Y16.6540 
G01 X-40.0173 Y16.7736 
G01 X-40.0723 Y16.9065 
G01 X-40.1004 Y17.0477 
G00 Z2.0000 
G00 X-37.5604 Y17.0477 
G01 Z-0.1000 F254.00 
G01 X-37.5604 Y18.5123 F508.00 
G01 X-37.5323 Y18.6534 
G01 X-37.4773 Y18.7864 
G01 X-37.3973 Y18.9060 
G01 X-37.2956 Y19.0077 
G01 X-37.1760 Y19.0877 
G01 X-37.0431 Y19.1427 
G01 X-36.9019 Y19.1708 
G01 X-36.7581 Y19.1708 
G01 X-36.6169 Y19.1427 
G01 X-36.4840 Y19.0877 
G01 X-36.3644 Y19.0077 
G01 X-36.2627 Y18.9060 
G01 X-36.1827 Y18.7864 
G01 X-36.1277 Y18.6534 
G01 X-36.0996 Y18.5123 
G01 X-36.0996 Y17.0477 
G01 X-36.1277 Y16.9065 
G01 X-36.1827 Y16.7736 
G01 X-36.2627 Y16.6540 
G01 X-36.3644 Y16.5523 
G01 X-36.4840 Y16.4723 
G01 X-36.6169 Y16.4173 
G01 X-36.7581 Y16.3892 
G01 X-36.9019 Y16.3892 
G01 X-37.0431 Y16.4173 
G01 X-37.1760 Y16.4723 
G01 X-37.2956 Y16.5523 
G01 X-37.3973 Y16.6540 
G01 X-37.4773 Y16.7736 
G01 X-37.5323 Y16.9065 
G01 X-37.5604 Y17.0477 
G00 Z2.0000 
G00 X-35.0204 Y17.0477 
G01 Z-0.1000 F254.00 
G01 X-35.0204 Y18.5123 F508.00 
G01 X-34.9923 Y18.6534 
G01 X-34.9373 Y18.7864 
G01 X-34.8573 Y18.9060 
G01 X-34.7556 Y19.0077 
G01 X-34.6360 Y19.0877 
G01 X-34.5031 Y19.1427 
G01 X-34.3619 Y19.1708 
G01 X-34.2181 Y19.1708 
G01 X-34.0769 Y19.1427 
G01 X-33.9440 Y19.0877 
G01 X-33.8244 Y19.0077 
G01 X-33.7227 Y18.9060 
G01 X-33.6427 Y18.7864 
G01 X-33.5877 Y18.6534 
G01 X-33.5596 Y18.5123 
G01 X-33.5596 Y17.0477 
G01 X-33.5877 Y16.9065 
G01 X-33.6427 Y16.7736 
G01 X-33.7227 Y16.6540 
G01 X-33.8244 Y16.5523 
G01 X-33.9440 Y16.4723 
G01 X-34.0769 Y16.4173 
G01 X-34.2181 Y16.3892 
G01 X-34.3619 Y16.3892 
G01 X-34.5031 Y16.4173 
G01 X-34.6360 Y16.4723 
G01 X-34.7556 Y16.5523 
G01 X-34.8573 Y16.6540 
G01 X-34.9373 Y16.7736 
G01 X-34.9923 Y16.9065 
G01 X-35.0204 Y17.0477 
G00 Z2.0000 
G00 X-32.4804 Y17.0477 
G01 Z-0.1000 F254.00 
G01 X-32.4804 Y18.5123 F508.00 
G01 X-32.4523 Y18.6534 
G01 X-32.3973 Y18.7864 
G01 X-32.3173 Y18.9060 
G01 X-32.2156 Y19.0077 
G01 X-32.0960 Y19.0877 
G01 X-31.9631 Y19.1427 
G01 X-31.8219 Y19.1708 
G01 X-31.6781 Y19.1708 
G01 X-31.5369 Y19.1427 
G01 X-31.4040 Y19.0877 
G01 X-31.2844 Y19.0077 
G01 X-31.1827 Y18.9060 
G01 X-31.1027 Y18.7864 
G01 X-31.0477 Y18.6534 
G01 X-31.0196 Y18.5123 
G01 X-31.0196 Y17.0477 
G01 X-31.0477 Y16.9065 
G01 X-31.1027 Y16.7736 
G01 X-31.1827 Y16.6540 
G01 X-31.2844 Y16.5523 
G01 X-31.4040 Y16.4723 
G01 X-31.5369 Y16.4173 
G01 X-31.6781 Y16.3892 
G01 X-31.8219 Y16.3892 
G01 X-31.9631 Y16.4173 
G01 X-32.0960 Y16.4723 
G01 X-32.2156 Y16.5523 
G01 X-32.3173 Y16.6540 
G01 X-32.3973 Y16.7736 
G01 X-32.4523 Y16.9065 
G01 X-32.4804 Y17.0477 
G00 Z2.0000 
G00 X-29.9404 Y17.0477 
G01 Z-0.1000 F254.00 
G01 X-29.9404 Y18.5123 F508.00 
G01 X-29.9123 Y18.6534 
G01 X-29.8573 Y18.7864 
G01 X-29.7773 Y18.9060 
G01 X-29.6756 Y19.0077 
G01 X-29.5560 Y19.0877 
G01 X-29.4230 Y19.1427 
G01 X-29.2819 Y19.1708 
G01 X-29.1381 Y19.1708 
G01 X-28.9969 Y19.1427 
G01 X-28.8640 Y19.0877 
G01 X-28.7444 Y19.0077 
G01 X-28.6427 Y18.9060 
G01 X-28.5627 Y18.7864 
G01 X-28.5077 Y18.6534 
G01 X-28.4796 Y18.5123 
G01 X-28.4796 Y17.0477 
G01 X-28.5077 Y16.9065 
G01 X-28.5627 Y16.7736 
G01 X-28.6427 Y16.6540 
G01 X-28.7444 Y16.5523 
G01 X-28.8640 Y16.4723 
G01 X-28.9969 Y16.4173 
G01 X-29.1381 Y16.3892 
G01 X-29.2819 Y16.3892 
G01 X-29.4230 Y16.4173 
G01 X-29.5560 Y16.4723 
G01 X-29.6756 Y16.5523 
G01 X-29.7773 Y16.6540 
G01 X-29.8573 Y16.7736 
G01 X-29.9123 Y16.9065 
G01 X-29.9404 Y17.0477 
G00 Z2.0000 
G00 X-27.4004 Y17.0477 
G01 Z-0.1000 F254.00 
G01 X-27.4004 Y18.5123 F508.00 
G01 X-27.3723 Y18.6534 
G01 X-27.3173 Y18.7864 
G01 X-27.2373 Y18.9060 
G01 X-27.1356 Y19.0077 
G01 X-27.0160 Y19.0877 
G01 X-26.8831 Y19.1427 
G01 X-26.7419 Y19.1708 
G01 X-26.5981 Y19.1708 
G01 X-26.4569 Y19.1427 
G01 X-26.3240 Y19.0877 
G01 X-26.2044 Y19.0077 
G01 X-26.1027 Y18.9060 
G01 X-26.0227 Y18.7864 
G01 X-25.9677 Y18.6534 
G01 X-25.9396 Y18.5123 
G01 X-25.9396 Y17.0477 
G01 X-25.9677 Y16.9065 
G01 X-26.0227 Y16.7736 
G01 X-26.1027 Y16.6540 
G01 X-26.2044 Y16.5523 
G01 X-26.3240 Y16.4723 
G01 X-26.4569 Y16.4173 
G01 X-26.5981 Y16.3892 
G01 X-26.7419 Y16.3892 
G01 X-26.8831 Y16.4173 
G01 X-27.0160 Y16.4723 
G01 X-27.1356 Y16.5523 
G01 X-27.2373 Y16.6540 
G01 X-27.3173 Y16.7736 
G01 X-27.3723 Y16.9065 
G01 X-27.4004 Y17.0477 
G00 Z2.0000 
G00 X-24.8604 Y17.0477 
G01 Z-0.1000 F254.00 
G01 X-24.8604 Y18.5123 F508.00 
G01 X-24.8323 Y18.6534 
G01 X-24.7773 Y18.7864 
G01 X-24.6973 Y18.9060 
G01 X-24.5956 Y19.0077 
G01 X-24.4760 Y19.0877 
G01 X-24.3431 Y19.1427 
G01 X-24.2019 Y19.1708 
G01 X-24.0581 Y19.1708 
G01 X-23.9169 Y19.1427 
G01 X-23.7840 Y19.0877 
G01 X-23.6644 Y19.0077 
G01 X-23.5627 Y18.9060 
G01 X-23.4827 Y18.7864 
G01 X-23.4277 Y18.6534 
G01 X-23.3996 Y18.5123 
G01 X-23.3996 Y17.0477 
G01 X-23.4277 Y16.9065 
G01 X-23.4827 Y16.7736 
G01 X-23.5627 Y16.6540 
G01 X-23.6644 Y16.5523 
G01 X-23.7840 Y16.4723 
G01 X-23.9169 Y16.4173 
G01 X-24.0581 Y16.3892 
G01 X-24.2019 Y16.3892 
G01 X-24.3431 Y16.4173 
G01 X-24.4760 Y16.4723 
G01 X-24.5956 Y16.5523 
G01 X-24.6973 Y16.6540 
G01 X-24.7773 Y16.7736 
G01 X-24.8323 Y16.9065 
G01 X-24.8604 Y17.0477 
G00 Z2.0000 
G00 X-22.3204 Y17.0477 
G01 Z-0.1000 F254.00 
G01 X-22.3204 Y18.5123 F508.00 
G01 X-22.2923 Y18.6534 
G01 X-22.2373 Y18.7864 
G01 X-22.1573 Y18.9060 
G01 X-22.0556 Y19.0077 
G01 X-21.9360 Y19.0877 
G01 X-21.8031 Y19.1427 
G01 X-21.6619 Y19.1708 
G01 X-21.5181 Y19.1708 
G01 X-21.3769 Y19.1427 
G01 X-21.2440 Y19.0877 
G01 X-21.1244 Y19.0077 
G01 X-21.0227 Y18.9060 
G01 X-20.9427 Y18.7864 
G01 X-20.8877 Y18.6534 
G01 X-20.8596 Y18.5123 
G01 X-20.8596 Y17.0477 
G01 X-20.8877 Y16.9065 
G01 X-20.9427 Y16.7736 
G01 X-21.0227 Y16.6540 
G01 X-21.1244 Y16.5523 
G01 X-21.2440 Y16.4723 
G01 X-21.3769 Y16.4173 
G01 X-21.5181 Y16.3892 
G01 X-21.6619 Y16.3892 
G01 X-21.8031 Y16.4173 
G01 X-21.9360 Y16.4723 
G01 X-22.0556 Y16.5523 
G01 X-22.1573 Y16.6540 
G01 X-22.2373 Y16.7736 
G01 X-22.2923 Y16.9065 
G01 X-22.3204 Y17.0477 
G00 Z2.0000 
G00 X-22.3204 Y24.6677 
G01 Z-0.1000 F254.00 
G01 X-22.3204 Y26.1323 F508.00 
G01 X-22.2923 Y26.2735 
G01 X-22.2373 Y26.4064 
G01 X-22.1573 Y26.5260 
G01 X-22.0556 Y26.6277 
G01 X-21.9360 Y26.7077 
G01 X-21.8031 Y26.7627 
G01 X-21.6619 Y26.7908 
G01 X-21.5181 Y26.7908 
G01 X-21.3769 Y26.7627 
G01 X-21.2440 Y26.7077 
G01 X-21.1244 Y26.6277 
G01 X-21.0227 Y26.5260 
G01 X-20.9427 Y26.4064 
G01 X-20.8877 Y26.2735 
G01 X-20.8596 Y26.1323 
G01 X-20.8596 Y24.6677 
G01 X-20.8877 Y24.5265 
G01 X-20.9427 Y24.3936 
G01 X-21.0227 Y24.2740 
G01 X-21.1244 Y24.1723 
G01 X-21.2440 Y24.0923 
G01 X-21.3769 Y24.0373 
G01 X-21.5181 Y24.0092 
G01 X-21.6619 Y24.0092 
G01 X-21.8031 Y24.0373 
G01 X-21.9360 Y24.0923 
G01 X-22.0556 Y24.1723 
G01 X-22.1573 Y24.2740 
G01 X-22.2373 Y24.3936 
G01 X-22.2923 Y24.5265 
G01 X-22.3204 Y24.6677 
G00 Z2.0000 
G00 X-24.8604 Y24.6677 
G01 Z-0.1000 F254.00 
G01 X-24.8604 Y26.1323 F508.00 
G01 X-24.8323 Y26.2735 
G01 X-24.7773 Y26.4064 
G01 X-24.6973 Y26.5260 
G01 X-24.5956 Y26.6277 
G01 X-24.4760 Y26.7077 
G01 X-24.3431 Y26.7627 
G01 X-24.2019 Y26.7908 
G01 X-24.0581 Y26.7908 
G01 X-23.9169 Y26.7627 
G01 X-23.7840 Y26.7077 
G01 X-23.6644 Y26.6277 
G01 X-23.5627 Y26.5260 
G01 X-23.4827 Y26.4064 
G01 X-23.4277 Y26.2735 
G01 X-23.3996 Y26.1323 
G01 X-23.3996 Y24.6677 
G01 X-23.4277 Y24.5265 
G01 X-23.4827 Y24.3936 
G01 X-23.5627 Y24.2740 
G01 X-23.6644 Y24.1723 
G01 X-23.7840 Y24.0923 
G01 X-23.9169 Y24.0373 
G01 X-24.0581 Y24.0092 
G01 X-24.2019 Y24.0092 
G01 X-24.3431 Y24.0373 
G01 X-24.4760 Y24.0923 
G01 X-24.5956 Y24.1723 
G01 X-24.6973 Y24.2740 
G01 X-24.7773 Y24.3936 
G01 X-24.8323 Y24.5265 
G01 X-24.8604 Y24.6677 
G00 Z2.0000 
G00 X-27.4004 Y24.6677 
G01 Z-0.1000 F254.00 
G01 X-27.4004 Y26.1323 F508.00 
G01 X-27.3723 Y26.2735 
G01 X-27.3173 Y26.4064 
G01 X-27.2373 Y26.5260 
G01 X-27.1356 Y26.6277 
G01 X-27.0160 Y26.7077 
G01 X-26.8831 Y26.7627 
G01 X-26.7419 Y26.7908 
G01 X-26.5981 Y26.7908 
G01 X-26.4569 Y26.7627 
G01 X-26.3240 Y26.7077 
G01 X-26.2044 Y26.6277 
G01 X-26.1027 Y26.5260 
G01 X-26.0227 Y26.4064 
G01 X-25.9677 Y26.2735 
G01 X-25.9396 Y26.1323 
G01 X-25.9396 Y24.6677 
G01 X-25.9677 Y24.5265 
G01 X-26.0227 Y24.3936 
G01 X-26.1027 Y24.2740 
G01 X-26.2044 Y24.1723 
G01 X-26.3240 Y24.0923 
G01 X-26.4569 Y24.0373 
G01 X-26.5981 Y24.0092 
G01 X-26.7419 Y24.0092 
G01 X-26.8831 Y24.0373 
G01 X-27.0160 Y24.0923 
G01 X-27.1356 Y24.1723 
G01 X-27.2373 Y24.2740 
G01 X-27.3173 Y24.3936 
G01 X-27.3723 Y24.5265 
G01 X-27.4004 Y24.6677 
G00 Z2.0000 
G00 X-29.9404 Y24.6677 
G01 Z-0.1000 F254.00 
G01 X-29.9404 Y26.1323 F508.00 
G01 X-29.9123 Y26.2735 
G01 X-29.8573 Y26.4064 
G01 X-29.7773 Y26.5260 
G01 X-29.6756 Y26.6277 
G01 X-29.5560 Y26.7077 
G01 X-29.4230 Y26.7627 
G01 X-29.2819 Y26.7908 
G01 X-29.1381 Y26.7908 
G01 X-28.9969 Y26.7627 
G01 X-28.8640 Y26.7077 
G01 X-28.7444 Y26.6277 
G01 X-28.6427 Y26.5260 
G01 X-28.5627 Y26.4064 
G01 X-28.5077 Y26.2735 
G01 X-28.4796 Y26.1323 
G01 X-28.4796 Y24.6677 
G01 X-28.5077 Y24.5265 
G01 X-28.5627 Y24.3936 
G01 X-28.6427 Y24.2740 
G01 X-28.7444 Y24.1723 
G01 X-28.8640 Y24.0923 
G01 X-28.9969 Y24.0373 
G01 X-29.1381 Y24.0092 
G01 X-29.2819 Y24.0092 
G01 X-29.4230 Y24.0373 
G01 X-29.5560 Y24.0923 
G01 X-29.6756 Y24.1723 
G01 X-29.7773 Y24.2740 
G01 X-29.8573 Y24.3936 
G01 X-29.9123 Y24.5265 
G01 X-29.9404 Y24.6677 
G00 Z2.0000 
G00 X-32.4804 Y24.6677 
G01 Z-0.1000 F254.00 
G01 X-32.4804 Y26.1323 F508.00 
G01 X-32.4523 Y26.2735 
G01 X-32.3973 Y26.4064 
G01 X-32.3173 Y26.5260 
G01 X-32.2156 Y26.6277 
G01 X-32.0960 Y26.7077 
G01 X-31.9631 Y26.7627 
G01 X-31.8219 Y26.7908 
G01 X-31.6781 Y26.7908 
G01 X-31.5369 Y26.7627 
G01 X-31.4040 Y26.7077 
G01 X-31.2844 Y26.6277 
G01 X-31.1827 Y26.5260 
G01 X-31.1027 Y26.4064 
G01 X-31.0477 Y26.2735 
G01 X-31.0196 Y26.1323 
G01 X-31.0196 Y24.6677 
G01 X-31.0477 Y24.5265 
G01 X-31.1027 Y24.3936 
G01 X-31.1827 Y24.2740 
G01 X-31.2844 Y24.1723 
G01 X-31.4040 Y24.0923 
G01 X-31.5369 Y24.0373 
G01 X-31.6781 Y24.0092 
G01 X-31.8219 Y24.0092 
G01 X-31.9631 Y24.0373 
G01 X-32.0960 Y24.0923 
G01 X-32.2156 Y24.1723 
G01 X-32.3173 Y24.2740 
G01 X-32.3973 Y24.3936 
G01 X-32.4523 Y24.5265 
G01 X-32.4804 Y24.6677 
G00 Z2.0000 
G00 X-35.0204 Y24.6677 
G01 Z-0.1000 F254.00 
G01 X-35.0204 Y26.1323 F508.00 
G01 X-34.9923 Y26.2735 
G01 X-34.9373 Y26.4064 
G01 X-34.8573 Y26.5260 
G01 X-34.7556 Y26.6277 
G01 X-34.6360 Y26.7077 
G01 X-34.5031 Y26.7627 
G01 X-34.3619 Y26.7908 
G01 X-34.2181 Y26.7908 
G01 X-34.0769 Y26.7627 
G01 X-33.9440 Y26.7077 
G01 X-33.8244 Y26.6277 
G01 X-33.7227 Y26.5260 
G01 X-33.6427 Y26.4064 
G01 X-33.5877 Y26.2735 
G01 X-33.5596 Y26.1323 
G01 X-33.5596 Y24.6677 
G01 X-33.5877 Y24.5265 
G01 X-33.6427 Y24.3936 
G01 X-33.7227 Y24.2740 
G01 X-33.8244 Y24.1723 
G01 X-33.9440 Y24.0923 
G01 X-34.0769 Y24.0373 
G01 X-34.2181 Y24.0092 
G01 X-34.3619 Y24.0092 
G01 X-34.5031 Y24.0373 
G01 X-34.6360 Y24.0923 
G01 X-34.7556 Y24.1723 
G01 X-34.8573 Y24.2740 
G01 X-34.9373 Y24.3936 
G01 X-34.9923 Y24.5265 
G01 X-35.0204 Y24.6677 
G00 Z2.0000 
G00 X-40.1004 Y24.6677 
G01 Z-0.1000 F254.00 
G01 X-40.1004 Y26.1323 F508.00 
G01 X-40.0723 Y26.2735 
G01 X-40.0173 Y26.4064 
G01 X-39.9373 Y26.5260 
G01 X-39.8356 Y26.6277 
G01 X-39.7160 Y26.7077 
G01 X-39.5831 Y26.7627 
G01 X-39.4419 Y26.7908 
G01 X-39.2981 Y26.7908 
G01 X-39.1569 Y26.7627 
G01 X-39.0240 Y26.7077 
G01 X-38.9044 Y26.6277 
G01 X-38.8027 Y26.5260 
G01 X-38.7227 Y26.4064 
G01 X-38.6677 Y26.2735 
G01 X-38.6396 Y26.1323 
G01 X-38.6396 Y24.6677 
G01 X-38.6677 Y24.5265 
G01 X-38.7227 Y24.3936 
G01 X-38.8027 Y24.2740 
G01 X-38.9044 Y24.1723 
G01 X-39.0240 Y24.0923 
G01 X-39.1569 Y24.0373 
G01 X-39.2981 Y24.0092 
G01 X-39.4419 Y24.0092 
G01 X-39.5831 Y24.0373 
G01 X-39.7160 Y24.0923 
G01 X-39.8356 Y24.1723 
G01 X-39.9373 Y24.2740 
G01 X-40.0173 Y24.3936 
G01 X-40.0723 Y24.5265 
G01 X-40.1004 Y24.6677 
G00 Z2.0000 
G00 X-42.6404 Y24.6677 
G01 Z-0.1000 F254.00 
G01 X-42.6404 Y26.1323 F508.00 
G01 X-42.6123 Y26.2735 
G01 X-42.5573 Y26.4064 
G01 X-42.4773 Y26.5260 
G01 X-42.3756 Y26.6277 
G01 X-42.2560 Y26.7077 
G01 X-42.1230 Y26.7627 
G01 X-41.9819 Y26.7908 
G01 X-41.8381 Y26.7908 
G01 X-41.6969 Y26.7627 
G01 X-41.5640 Y26.7077 
G01 X-41.4444 Y26.6277 
G01 X-41.3427 Y26.5260 
G01 X-41.2627 Y26.4064 
G01 X-41.2077 Y26.2735 
G01 X-41.1796 Y26.1323 
G01 X-41.1796 Y24.6677 
G01 X-41.2077 Y24.5265 
G01 X-41.2627 Y24.3936 
G01 X-41.3427 Y24.2740 
G01 X-41.4444 Y24.1723 
G01 X-41.5640 Y24.0923 
G01 X-41.6969 Y24.0373 
G01 X-41.8381 Y24.0092 
G01 X-41.9819 Y24.0092 
G01 X-42.1230 Y24.0373 
G01 X-42.2560 Y24.0923 
G01 X-42.3756 Y24.1723 
G01 X-42.4773 Y24.2740 
G01 X-42.5573 Y24.3936 
G01 X-42.6123 Y24.5265 
G01 X-42.6404 Y24.6677 
G00 Z2.0000 
G00 X-45.1804 Y24.6677 
G01 Z-0.1000 F254.00 
G01 X-45.1804 Y26.1323 F508.00 
G01 X-45.1523 Y26.2735 
G01 X-45.0973 Y26.4064 
G01 X-45.0173 Y26.5260 
G01 X-44.9156 Y26.6277 
G01 X-44.7960 Y26.7077 
G01 X-44.6631 Y26.7627 
G01 X-44.5219 Y26.7908 
G01 X-44.3781 Y26.7908 
G01 X-44.2369 Y26.7627 
G01 X-44.1040 Y26.7077 
G01 X-43.9844 Y26.6277 
G01 X-43.8827 Y26.5260 
G01 X-43.8027 Y26.4064 
G01 X-43.7477 Y26.2735 
G01 X-43.7196 Y26.1323 
G01 X-43.7196 Y24.6677 
G01 X-43.7477 Y24.5265 
G01 X-43.8027 Y24.3936 
G01 X-43.8827 Y24.2740 
G01 X-43.9844 Y24.1723 
G01 X-44.1040 Y24.0923 
G01 X-44.2369 Y24.0373 
G01 X-44.3781 Y24.0092 
G01 X-44.5219 Y24.0092 
G01 X-44.6631 Y24.0373 
G01 X-44.7960 Y24.0923 
G01 X-44.9156 Y24.1723 
G01 X-45.0173 Y24.2740 
G01 X-45.0973 Y24.3936 
G01 X-45.1523 Y24.5265 
G01 X-45.1804 Y24.6677 
G00 Z2.0000 
G00 X-47.7204 Y24.6677 
G01 Z-0.1000 F254.00 
G01 X-47.7204 Y26.1323 F508.00 
G01 X-47.6923 Y26.2735 
G01 X-47.6373 Y26.4064 
G01 X-47.5573 Y26.5260 
G01 X-47.4556 Y26.6277 
G01 X-47.3360 Y26.7077 
G01 X-47.2031 Y26.7627 
G01 X-47.0619 Y26.7908 
G01 X-46.9181 Y26.7908 
G01 X-46.7769 Y26.7627 
G01 X-46.6440 Y26.7077 
G01 X-46.5244 Y26.6277 
G01 X-46.4227 Y26.5260 
G01 X-46.3427 Y26.4064 
G01 X-46.2877 Y26.2735 
G01 X-46.2596 Y26.1323 
G01 X-46.2596 Y24.6677 
G01 X-46.2877 Y24.5265 
G01 X-46.3427 Y24.3936 
G01 X-46.4227 Y24.2740 
G01 X-46.5244 Y24.1723 
G01 X-46.6440 Y24.0923 
G01 X-46.7769 Y24.0373 
G01 X-46.9181 Y24.0092 
G01 X-47.0619 Y24.0092 
G01 X-47.2031 Y24.0373 
G01 X-47.3360 Y24.0923 
G01 X-47.4556 Y24.1723 
G01 X-47.5573 Y24.2740 
G01 X-47.6373 Y24.3936 
G01 X-47.6923 Y24.5265 
G01 X-47.7204 Y24.6677 
G00 Z2.0000 
G00 X-50.2604 Y24.6677 
G01 Z-0.1000 F254.00 
G01 X-50.2604 Y26.1323 F508.00 
G01 X-50.2323 Y26.2735 
G01 X-50.1773 Y26.4064 
G01 X-50.0973 Y26.5260 
G01 X-49.9956 Y26.6277 
G01 X-49.8760 Y26.7077 
G01 X-49.7431 Y26.7627 
G01 X-49.6019 Y26.7908 
G01 X-49.4581 Y26.7908 
G01 X-49.3169 Y26.7627 
G01 X-49.1840 Y26.7077 
G01 X-49.0644 Y26.6277 
G01 X-48.9627 Y26.5260 
G01 X-48.8827 Y26.4064 
G01 X-48.8277 Y26.2735 
G01 X-48.7996 Y26.1323 
G01 X-48.7996 Y24.6677 
G01 X-48.8277 Y24.5265 
G01 X-48.8827 Y24.3936 
G01 X-48.9627 Y24.2740 
G01 X-49.0644 Y24.1723 
G01 X-49.1840 Y24.0923 
G01 X-49.3169 Y24.0373 
G01 X-49.4581 Y24.0092 
G01 X-49.6019 Y24.0092 
G01 X-49.7431 Y24.0373 
G01 X-49.8760 Y24.0923 
G01 X-49.9956 Y24.1723 
G01 X-50.0973 Y24.2740 
G01 X-50.1773 Y24.3936 
G01 X-50.2323 Y24.5265 
G01 X-50.2604 Y24.6677 
G00 Z2.0000 
G00 X-52.8004 Y24.6677 
G01 Z-0.1000 F254.00 
G01 X-52.8004 Y26.1323 F508.00 
G01 X-52.7723 Y26.2735 
G01 X-52.7173 Y26.4064 
G01 X-52.6373 Y26.5260 
G01 X-52.5356 Y26.6277 
G01 X-52.4160 Y26.7077 
G01 X-52.2831 Y26.7627 
G01 X-52.1419 Y26.7908 
G01 X-51.9981 Y26.7908 
G01 X-51.8569 Y26.7627 
G01 X-51.7240 Y26.7077 
G01 X-51.6044 Y26.6277 
G01 X-51.5027 Y26.5260 
G01 X-51.4227 Y26.4064 
G01 X-51.3677 Y26.2735 
G01 X-51.3396 Y26.1323 
G01 X-51.3396 Y24.6677 
G01 X-51.3677 Y24.5265 
G01 X-51.4227 Y24.3936 
G01 X-51.5027 Y24.2740 
G01 X-51.6044 Y24.1723 
G01 X-51.7240 Y24.0923 
G01 X-51.8569 Y24.0373 
G01 X-51.9981 Y24.0092 
G01 X-52.1419 Y24.0092 
G01 X-52.2831 Y24.0373 
G01 X-52.4160 Y24.0923 
G01 X-52.5356 Y24.1723 
G01 X-52.6373 Y24.2740 
G01 X-52.7173 Y24.3936 
G01 X-52.7723 Y24.5265 
G01 X-52.8004 Y24.6677 
G00 Z2.0000 
G00 X-42.7801 Y58.0596 
G01 Z-0.1000 F254.00 
G01 X-42.7801 Y58.7804 F508.00 
G01 X-42.2704 Y59.2901 
G01 X-41.5496 Y59.2901 
G01 X-41.0399 Y58.7804 
G01 X-41.0399 Y58.0596 
G01 X-41.5496 Y57.5499 
G01 X-42.2704 Y57.5499 
G01 X-42.7801 Y58.0596 
G00 Z2.0000 
G00 X-50.4001 Y58.0596 
G01 Z-0.1000 F254.00 
G01 X-50.4001 Y58.7804 F508.00 
G01 X-49.8904 Y59.2901 
G01 X-49.1696 Y59.2901 
G01 X-48.6599 Y58.7804 
G01 X-48.6599 Y58.0596 
G01 X-49.1696 Y57.5499 
G01 X-49.8904 Y57.5499 
G01 X-50.4001 Y58.0596 
G00 Z2.0000 
G00 X-50.4001 Y55.5196 
G01 Z-0.1000 F254.00 
G01 X-50.4001 Y56.2404 F508.00 
G01 X-49.8904 Y56.7501 
G01 X-49.1696 Y56.7501 
G01 X-48.6599 Y56.2404 
G01 X-48.6599 Y55.5196 
G01 X-49.1696 Y55.0099 
G01 X-49.8904 Y55.0099 
G01 X-50.4001 Y55.5196 
G00 Z2.0000 
G00 X-50.4001 Y52.9796 
G01 Z-0.1000 F254.00 
G01 X-50.4001 Y53.7004 F508.00 
G01 X-49.8904 Y54.2101 
G01 X-49.1696 Y54.2101 
G01 X-48.6599 Y53.7004 
G01 X-48.6599 Y52.9796 
G01 X-49.1696 Y52.4699 
G01 X-49.8904 Y52.4699 
G01 X-50.4001 Y52.9796 
G00 Z2.0000 
G00 X-50.4001 Y50.4396 
G01 Z-0.1000 F254.00 
G01 X-50.4001 Y51.1604 F508.00 
G01 X-49.8904 Y51.6701 
G01 X-49.1696 Y51.6701 
G01 X-48.6599 Y51.1604 
G01 X-48.6599 Y50.4396 
G01 X-49.1696 Y49.9299 
G01 X-49.8904 Y49.9299 
G01 X-50.4001 Y50.4396 
G00 Z2.0000 
G00 X-31.8962 Y59.6131 
G01 Z-0.1000 F254.00 
G01 X-31.8962 Y59.7669 F508.00 
G01 X-31.8662 Y59.9179 
G01 X-31.8073 Y60.0600 
G01 X-31.7218 Y60.1880 
G01 X-31.6130 Y60.2968 
G01 X-31.4850 Y60.3823 
G01 X-31.3429 Y60.4412 
G01 X-31.1919 Y60.4712 
G01 X-31.0381 Y60.4712 
G01 X-30.8871 Y60.4412 
G01 X-30.7450 Y60.3823 
G01 X-30.7053 Y60.3558 
G01 X-29.8746 Y61.1865 
G01 X-29.7938 Y61.2200 
G01 X-18.4562 Y61.2200 
G01 X-18.3754 Y61.1865 
G01 X-18.3135 Y61.1246 
G01 X-17.5487 Y60.3598 
G01 X-17.5150 Y60.3823 
G01 X-17.3729 Y60.4412 
G01 X-17.2219 Y60.4712 
G01 X-17.0681 Y60.4712 
G01 X-16.9171 Y60.4412 
G01 X-16.7750 Y60.3823 
G01 X-16.6470 Y60.2968 
G01 X-16.5382 Y60.1880 
G01 X-16.4527 Y60.0600 
G01 X-16.3938 Y59.9179 
G01 X-16.3638 Y59.7669 
G01 X-16.3638 Y59.6131 
G01 X-16.3938 Y59.4621 
G01 X-16.4527 Y59.3200 
G01 X-16.5382 Y59.1920 
G01 X-16.6470 Y59.0832 
G01 X-16.7750 Y58.9977 
G01 X-16.9171 Y58.9388 
G01 X-17.0681 Y58.9088 
G01 X-17.2219 Y58.9088 
G01 X-17.3729 Y58.9388 
G01 X-17.5150 Y58.9977 
G01 X-17.6430 Y59.0832 
G01 X-17.7518 Y59.1920 
G01 X-17.8373 Y59.3200 
G01 X-17.8962 Y59.4621 
G01 X-17.9262 Y59.6131 
G01 X-17.9262 Y59.7669 
G01 X-17.8962 Y59.9179 
G01 X-17.8472 Y60.0361 
G01 X-18.5911 Y60.7800 
G01 X-29.6589 Y60.7800 
G01 X-30.4099 Y60.0290 
G01 X-30.3638 Y59.9179 
G01 X-30.3338 Y59.7669 
G01 X-30.3338 Y59.6131 
G01 X-30.3638 Y59.4621 
G01 X-30.4227 Y59.3200 
G01 X-30.5082 Y59.1920 
G01 X-30.6170 Y59.0832 
G01 X-30.7450 Y58.9977 
G01 X-30.8871 Y58.9388 
G01 X-31.0381 Y58.9088 
G01 X-31.1919 Y58.9088 
G01 X-31.3429 Y58.9388 
G01 X-31.4850 Y58.9977 
G01 X-31.6130 Y59.0832 
G01 X-31.7218 Y59.1920 
G01 X-31.8073 Y59.3200 
G01 X-31.8662 Y59.4621 
G01 X-31.8962 Y59.6131 
G00 Z2.0000 
G00 X-17.4020 Y58.8427 
G01 Z-0.1000 F254.00 
G01 X-17.5624 Y58.9091 F508.00 
G01 X-17.7067 Y59.0055 
G01 X-17.8295 Y59.1283 
G01 X-17.9259 Y59.2726 
G01 X-17.9923 Y59.4330 
G01 X-18.0262 Y59.6032 
G01 X-18.0262 Y59.7768 
G01 X-17.9923 Y59.9470 
G01 X-17.9652 Y60.0126 
G01 X-18.6325 Y60.6800 
G01 X-29.6175 Y60.6800 
G01 X-30.2919 Y60.0055 
G01 X-30.2677 Y59.9470 
G01 X-30.2338 Y59.7768 
G01 X-30.2338 Y59.6032 
G01 X-30.2677 Y59.4330 
G01 X-30.3341 Y59.2726 
G01 X-30.4305 Y59.1283 
G01 X-30.5533 Y59.0055 
G01 X-30.6976 Y58.9091 
G01 X-30.8580 Y58.8427 
G01 X-30.9719 Y58.8200 
G01 X-29.6325 Y58.8200 
G01 X-28.7561 Y59.6965 
G01 X-28.6965 Y59.7561 
G01 X-28.6235 Y59.7982 
G01 X-28.5421 Y59.8200 
G01 X-20.5576 Y59.8200 
G01 X-20.5323 Y59.9470 
G01 X-20.4659 Y60.1074 
G01 X-20.3695 Y60.2517 
G01 X-20.2467 Y60.3745 
G01 X-20.1024 Y60.4709 
G01 X-19.9420 Y60.5373 
G01 X-19.7718 Y60.5712 
G01 X-19.5982 Y60.5712 
G01 X-19.4280 Y60.5373 
G01 X-19.2676 Y60.4709 
G01 X-19.1233 Y60.3745 
G01 X-19.0005 Y60.2517 
G01 X-18.9041 Y60.1074 
G01 X-18.8377 Y59.9470 
G01 X-18.8038 Y59.7768 
G01 X-18.8038 Y59.6032 
G01 X-18.8377 Y59.4330 
G01 X-18.9041 Y59.2726 
G01 X-19.0005 Y59.1283 
G01 X-19.1233 Y59.0055 
G01 X-19.2676 Y58.9091 
G01 X-19.4280 Y58.8427 
G01 X-19.5419 Y58.8200 
G01 X-17.2881 Y58.8200 
G01 X-17.4020 Y58.8427 
G00 Z2.0000 
G00 X-32.7147 Y56.3328 
G01 Z-0.1000 F254.00 
G01 X-32.7275 Y56.3200 F508.00 
G01 X-32.6839 Y56.3200 
G01 X-32.7147 Y56.3328 
G00 Z2.0000 
G00 X-97.5280 Y3.6607 
G01 Z-0.1000 F254.00 
G01 X-97.5280 Y3.9593 F508.00 
G01 X-97.4890 Y4.2554 
G01 X-97.4117 Y4.5438 
G01 X-97.2975 Y4.8197 
G01 X-97.1482 Y5.0783 
G01 X-96.9664 Y5.3152 
G01 X-96.7552 Y5.5264 
G01 X-96.5183 Y5.7081 
G01 X-96.2597 Y5.8575 
G01 X-95.9838 Y5.9717 
G01 X-95.6954 Y6.0490 
G01 X-95.3993 Y6.0880 
G01 X-95.1007 Y6.0880 
G01 X-94.8046 Y6.0490 
G01 X-94.5162 Y5.9717 
G01 X-94.2403 Y5.8575 
G01 X-93.9817 Y5.7081 
G01 X-93.7448 Y5.5264 
G01 X-93.5336 Y5.3152 
G01 X-93.3518 Y5.0783 
G01 X-93.2025 Y4.8197 
G01 X-93.0883 Y4.5438 
G01 X-93.0110 Y4.2554 
G01 X-92.9720 Y3.9593 
G01 X-92.9720 Y3.6607 
G01 X-93.0110 Y3.3646 
G01 X-93.0883 Y3.0762 
G01 X-93.2025 Y2.8003 
G01 X-93.3518 Y2.5417 
G01 X-93.5336 Y2.3048 
G01 X-93.7448 Y2.0936 
G01 X-93.9817 Y1.9118 
G01 X-94.2403 Y1.7625 
G01 X-94.5162 Y1.6483 
G01 X-94.8046 Y1.5710 
G01 X-95.1007 Y1.5320 
G01 X-95.3993 Y1.5320 
G01 X-95.6954 Y1.5710 
G01 X-95.9838 Y1.6483 
G01 X-96.2597 Y1.7625 
G01 X-96.5183 Y1.9118 
G01 X-96.7552 Y2.0936 
G01 X-96.9664 Y2.3048 
G01 X-97.1482 Y2.5417 
G01 X-97.2975 Y2.8003 
G01 X-97.4117 Y3.0762 
G01 X-97.4890 Y3.3646 
G01 X-97.5280 Y3.6607 
G00 Z2.0000 
G00 X-97.5280 Y65.8907 
G01 Z-0.1000 F254.00 
G01 X-97.5280 Y66.1893 F508.00 
G01 X-97.4890 Y66.4854 
G01 X-97.4117 Y66.7738 
G01 X-97.2975 Y67.0497 
G01 X-97.1482 Y67.3083 
G01 X-96.9664 Y67.5452 
G01 X-96.7552 Y67.7564 
G01 X-96.5183 Y67.9382 
G01 X-96.2597 Y68.0875 
G01 X-95.9838 Y68.2017 
G01 X-95.6954 Y68.2790 
G01 X-95.3993 Y68.3180 
G01 X-95.1007 Y68.3180 
G01 X-94.8046 Y68.2790 
G01 X-94.5162 Y68.2017 
G01 X-94.2403 Y68.0875 
G01 X-93.9817 Y67.9382 
G01 X-93.7448 Y67.7564 
G01 X-93.5336 Y67.5452 
G01 X-93.3518 Y67.3083 
G01 X-93.2025 Y67.0497 
G01 X-93.0883 Y66.7738 
G01 X-93.0110 Y66.4854 
G01 X-92.9720 Y66.1893 
G01 X-92.9720 Y65.8907 
G01 X-93.0110 Y65.5946 
G01 X-93.0883 Y65.3062 
G01 X-93.2025 Y65.0303 
G01 X-93.3518 Y64.7717 
G01 X-93.5336 Y64.5348 
G01 X-93.7448 Y64.3236 
G01 X-93.9817 Y64.1418 
G01 X-94.2403 Y63.9925 
G01 X-94.5162 Y63.8783 
G01 X-94.8046 Y63.8010 
G01 X-95.1007 Y63.7620 
G01 X-95.3993 Y63.7620 
G01 X-95.6954 Y63.8010 
G01 X-95.9838 Y63.8783 
G01 X-96.2597 Y63.9925 
G01 X-96.5183 Y64.1418 
G01 X-96.7552 Y64.3236 
G01 X-96.9664 Y64.5348 
G01 X-97.1482 Y64.7717 
G01 X-97.2975 Y65.0303 
G01 X-97.4117 Y65.3062 
G01 X-97.4890 Y65.5946 
G01 X-97.5280 Y65.8907 
G00 Z2.0000 
G00 X-6.0880 Y3.6607 
G01 Z-0.1000 F254.00 
G01 X-6.0880 Y3.9593 F508.00 
G01 X-6.0490 Y4.2554 
G01 X-5.9717 Y4.5438 
G01 X-5.8575 Y4.8197 
G01 X-5.7081 Y5.0783 
G01 X-5.5264 Y5.3152 
G01 X-5.3152 Y5.5264 
G01 X-5.0783 Y5.7081 
G01 X-4.8197 Y5.8575 
G01 X-4.5438 Y5.9717 
G01 X-4.2554 Y6.0490 
G01 X-3.9593 Y6.0880 
G01 X-3.6607 Y6.0880 
G01 X-3.3646 Y6.0490 
G01 X-3.0762 Y5.9717 
G01 X-2.8003 Y5.8575 
G01 X-2.5417 Y5.7081 
G01 X-2.3048 Y5.5264 
G01 X-2.0936 Y5.3152 
G01 X-1.9118 Y5.0783 
G01 X-1.7625 Y4.8197 
G01 X-1.6483 Y4.5438 
G01 X-1.5710 Y4.2554 
G01 X-1.5320 Y3.9593 
G01 X-1.5320 Y3.6607 
G01 X-1.5710 Y3.3646 
G01 X-1.6483 Y3.0762 
G01 X-1.7625 Y2.8003 
G01 X-1.9118 Y2.5417 
G01 X-2.0936 Y2.3048 
G01 X-2.3048 Y2.0936 
G01 X-2.5417 Y1.9118 
G01 X-2.8003 Y1.7625 
G01 X-3.0762 Y1.6483 
G01 X-3.3646 Y1.5710 
G01 X-3.6607 Y1.5320 
G01 X-3.9593 Y1.5320 
G01 X-4.2554 Y1.5710 
G01 X-4.5438 Y1.6483 
G01 X-4.8197 Y1.7625 
G01 X-5.0783 Y1.9118 
G01 X-5.3152 Y2.0936 
G01 X-5.5264 Y2.3048 
G01 X-5.7081 Y2.5417 
G01 X-5.8575 Y2.8003 
G01 X-5.9717 Y3.0762 
G01 X-6.0490 Y3.3646 
G01 X-6.0880 Y3.6607 
G00 Z2.0000 
G00 X-6.0880 Y65.8907 
G01 Z-0.1000 F254.00 
G01 X-6.0880 Y66.1893 F508.00 
G01 X-6.0490 Y66.4854 
G01 X-5.9717 Y66.7738 
G01 X-5.8575 Y67.0497 
G01 X-5.7081 Y67.3083 
G01 X-5.5264 Y67.5452 
G01 X-5.3152 Y67.7564 
G01 X-5.0783 Y67.9382 
G01 X-4.8197 Y68.0875 
G01 X-4.5438 Y68.2017 
G01 X-4.2554 Y68.2790 
G01 X-3.9593 Y68.3180 
G01 X-3.6607 Y68.3180 
G01 X-3.3646 Y68.2790 
G01 X-3.0762 Y68.2017 
G01 X-2.8003 Y68.0875 
G01 X-2.5417 Y67.9382 
G01 X-2.3048 Y67.7564 
G01 X-2.0936 Y67.5452 
G01 X-1.9118 Y67.3083 
G01 X-1.7625 Y67.0497 
G01 X-1.6483 Y66.7738 
G01 X-1.5710 Y66.4854 
G01 X-1.5320 Y66.1893 
G01 X-1.5320 Y65.8907 
G01 X-1.5710 Y65.5946 
G01 X-1.6483 Y65.3062 
G01 X-1.7625 Y65.0303 
G01 X-1.9118 Y64.7717 
G01 X-2.0936 Y64.5348 
G01 X-2.3048 Y64.3236 
G01 X-2.5417 Y64.1418 
G01 X-2.8003 Y63.9925 
G01 X-3.0762 Y63.8783 
G01 X-3.3646 Y63.8010 
G01 X-3.6607 Y63.7620 
G01 X-3.9593 Y63.7620 
G01 X-4.2554 Y63.8010 
G01 X-4.5438 Y63.8783 
G01 X-4.8197 Y63.9925 
G01 X-5.0783 Y64.1418 
G01 X-5.3152 Y64.3236 
G01 X-5.5264 Y64.5348 
G01 X-5.7081 Y64.7717 
G01 X-5.8575 Y65.0303 
G01 X-5.9717 Y65.3062 
G01 X-6.0490 Y65.5946 
G01 X-6.0880 Y65.8907 
G00 Z2.0000 
G00 X-50.5001 Y50.3982 
G01 Z-0.1000 F254.00 
G01 X-50.5001 Y51.2018 F508.00 
G01 X-49.9318 Y51.7701 
G01 X-49.1282 Y51.7701 
G01 X-48.5599 Y51.2018 
G01 X-48.5599 Y50.3982 
G01 X-49.1282 Y49.8299 
G01 X-49.9318 Y49.8299 
G01 X-50.5001 Y50.3982 
G00 Z2.0000 
G00 X-50.5001 Y52.9382 
G01 Z-0.1000 F254.00 
G01 X-50.5001 Y53.7418 F508.00 
G01 X-49.9318 Y54.3101 
G01 X-49.1282 Y54.3101 
G01 X-48.5599 Y53.7418 
G01 X-48.5599 Y52.9382 
G01 X-49.1282 Y52.3699 
G01 X-49.9318 Y52.3699 
G01 X-50.5001 Y52.9382 
G00 Z2.0000 
G00 X-50.5001 Y55.4782 
G01 Z-0.1000 F254.00 
G01 X-50.5001 Y56.2818 F508.00 
G01 X-49.9318 Y56.8501 
G01 X-49.1282 Y56.8501 
G01 X-48.5599 Y56.2818 
G01 X-48.5599 Y55.4782 
G01 X-49.1282 Y54.9099 
G01 X-49.9318 Y54.9099 
G01 X-50.5001 Y55.4782 
G00 Z2.0000 
G00 X-50.5001 Y58.0182 
G01 Z-0.1000 F254.00 
G01 X-50.5001 Y58.8218 F508.00 
G01 X-49.9318 Y59.3901 
G01 X-49.1282 Y59.3901 
G01 X-48.5599 Y58.8218 
G01 X-48.5599 Y58.0182 
G01 X-49.1282 Y57.4499 
G01 X-49.9318 Y57.4499 
G01 X-50.5001 Y58.0182 
G00 Z2.0000 
G00 X-42.8801 Y58.0182 
G01 Z-0.1000 F254.00 
G01 X-42.8801 Y58.8218 F508.00 
G01 X-42.3118 Y59.3901 
G01 X-41.5082 Y59.3901 
G01 X-40.9399 Y58.8218 
G01 X-40.9399 Y58.0182 
G01 X-41.5082 Y57.4499 
G01 X-42.3118 Y57.4499 
G01 X-42.8801 Y58.0182 
G00 Z2.0000 
G00 X-55.4404 Y24.6578 
G01 Z-0.1000 F254.00 
G01 X-55.4404 Y26.1422 F508.00 
G01 X-55.4085 Y26.3026 
G01 X-55.3459 Y26.4537 
G01 X-55.2550 Y26.5897 
G01 X-55.1393 Y26.7054 
G01 X-55.0033 Y26.7963 
G01 X-54.8522 Y26.8589 
G01 X-54.6918 Y26.8908 
G01 X-54.5282 Y26.8908 
G01 X-54.3678 Y26.8589 
G01 X-54.2167 Y26.7963 
G01 X-54.0807 Y26.7054 
G01 X-53.9650 Y26.5897 
G01 X-53.9241 Y26.5285 
G01 X-37.1515 Y43.3011 
G01 X-37.1780 Y43.4332 
G01 X-37.1780 Y43.5668 
G01 X-37.1519 Y43.6978 
G01 X-37.1008 Y43.8212 
G01 X-37.0266 Y43.9322 
G01 X-36.9322 Y44.0266 
G01 X-36.8212 Y44.1008 
G01 X-36.6978 Y44.1519 
G01 X-36.5668 Y44.1780 
G01 X-36.4332 Y44.1780 
G01 X-36.3022 Y44.1519 
G01 X-33.9465 Y46.5061 
G01 X-33.8735 Y46.5482 
G01 X-33.7921 Y46.5700 
G01 X-6.3825 Y46.5700 
G01 X-4.1275 Y48.8251 
G01 X-4.1813 Y48.9907 
G01 X-4.2086 Y49.1633 
G01 X-4.2086 Y49.3379 
G01 X-4.1813 Y49.5105 
G01 X-4.1273 Y49.6766 
G01 X-4.0480 Y49.8323 
G01 X-3.9453 Y49.9736 
G01 X-3.8218 Y50.0971 
G01 X-3.6805 Y50.1998 
G01 X-3.5248 Y50.2791 
G01 X-3.3587 Y50.3331 
G01 X-3.1861 Y50.3604 
G01 X-3.0115 Y50.3604 
G01 X-2.8389 Y50.3331 
G01 X-2.6728 Y50.2791 
G01 X-2.5171 Y50.1998 
G01 X-2.3758 Y50.0971 
G01 X-2.2523 Y49.9736 
G01 X-2.1496 Y49.8323 
G01 X-2.0703 Y49.6766 
G01 X-2.0163 Y49.5105 
G01 X-1.9890 Y49.3379 
G01 X-1.9890 Y49.1633 
G01 X-2.0163 Y48.9907 
G01 X-2.0703 Y48.8246 
G01 X-2.1496 Y48.6689 
G01 X-2.2523 Y48.5276 
G01 X-2.3758 Y48.4041 
G01 X-2.5171 Y48.3014 
G01 X-2.6728 Y48.2221 
G01 X-2.8389 Y48.1681 
G01 X-3.0115 Y48.1408 
G01 X-3.1861 Y48.1408 
G01 X-3.3587 Y48.1681 
G01 X-3.5248 Y48.2221 
G01 X-3.6805 Y48.3014 
G01 X-3.7184 Y48.3290 
G01 X-5.9939 Y46.0535 
G01 X-6.0535 Y45.9939 
G01 X-6.1265 Y45.9518 
G01 X-6.2079 Y45.9300 
G01 X-33.6175 Y45.9300 
G01 X-35.8485 Y43.6989 
G01 X-35.8220 Y43.5668 
G01 X-35.8220 Y43.4332 
G01 X-35.8481 Y43.3022 
G01 X-35.8992 Y43.1788 
G01 X-35.9734 Y43.0678 
G01 X-36.0678 Y42.9734 
G01 X-36.1788 Y42.8992 
G01 X-36.3022 Y42.8481 
G01 X-36.4332 Y42.8220 
G01 X-36.5668 Y42.8220 
G01 X-36.6978 Y42.8481 
G01 X-53.7796 Y25.7679 
G01 X-53.7796 Y24.6578 
G01 X-53.8115 Y24.4974 
G01 X-53.8741 Y24.3463 
G01 X-53.9650 Y24.2103 
G01 X-54.0807 Y24.0946 
G01 X-54.2167 Y24.0037 
G01 X-54.3678 Y23.9411 
G01 X-54.5282 Y23.9092 
G01 X-54.6918 Y23.9092 
G01 X-54.8522 Y23.9411 
G01 X-55.0033 Y24.0037 
G01 X-55.1393 Y24.0946 
G01 X-55.2550 Y24.2103 
G01 X-55.3459 Y24.3463 
G01 X-55.4085 Y24.4974 
G01 X-55.4404 Y24.6578 
G00 Z2.0000 
G00 X-52.9004 Y24.6578 
G01 Z-0.1000 F254.00 
G01 X-52.9004 Y26.1422 F508.00 
G01 X-52.8685 Y26.3026 
G01 X-52.8059 Y26.4537 
G01 X-52.7150 Y26.5897 
G01 X-52.5993 Y26.7054 
G01 X-52.4633 Y26.7963 
G01 X-52.3122 Y26.8589 
G01 X-52.1518 Y26.8908 
G01 X-51.9882 Y26.8908 
G01 X-51.8278 Y26.8589 
G01 X-51.6767 Y26.7963 
G01 X-51.5406 Y26.7054 
G01 X-51.4250 Y26.5897 
G01 X-51.3341 Y26.4537 
G01 X-51.2715 Y26.3026 
G01 X-51.2396 Y26.1422 
G01 X-51.2396 Y24.6578 
G01 X-51.2715 Y24.4974 
G01 X-51.3341 Y24.3463 
G01 X-51.4250 Y24.2103 
G01 X-51.5406 Y24.0946 
G01 X-51.6767 Y24.0037 
G01 X-51.8278 Y23.9411 
G01 X-51.9882 Y23.9092 
G01 X-52.1518 Y23.9092 
G01 X-52.3122 Y23.9411 
G01 X-52.4633 Y24.0037 
G01 X-52.5993 Y24.0946 
G01 X-52.7150 Y24.2103 
G01 X-52.8059 Y24.3463 
G01 X-52.8685 Y24.4974 
G01 X-52.9004 Y24.6578 
G00 Z2.0000 
G00 X-50.3604 Y24.6578 
G01 Z-0.1000 F254.00 
G01 X-50.3604 Y26.1422 F508.00 
G01 X-50.3285 Y26.3026 
G01 X-50.2659 Y26.4537 
G01 X-50.1750 Y26.5897 
G01 X-50.0593 Y26.7054 
G01 X-49.9233 Y26.7963 
G01 X-49.7722 Y26.8589 
G01 X-49.6118 Y26.8908 
G01 X-49.4482 Y26.8908 
G01 X-49.2878 Y26.8589 
G01 X-49.1367 Y26.7963 
G01 X-49.0007 Y26.7054 
G01 X-48.8850 Y26.5897 
G01 X-48.7941 Y26.4537 
G01 X-48.7315 Y26.3026 
G01 X-48.6996 Y26.1422 
G01 X-48.6996 Y24.6578 
G01 X-48.7315 Y24.4974 
G01 X-48.7941 Y24.3463 
G01 X-48.8850 Y24.2103 
G01 X-49.0007 Y24.0946 
G01 X-49.1367 Y24.0037 
G01 X-49.2878 Y23.9411 
G01 X-49.4482 Y23.9092 
G01 X-49.6118 Y23.9092 
G01 X-49.7722 Y23.9411 
G01 X-49.9233 Y24.0037 
G01 X-50.0593 Y24.0946 
G01 X-50.1750 Y24.2103 
G01 X-50.2659 Y24.3463 
G01 X-50.3285 Y24.4974 
G01 X-50.3604 Y24.6578 
G00 Z2.0000 
G00 X-47.8204 Y24.6578 
G01 Z-0.1000 F254.00 
G01 X-47.8204 Y26.1422 F508.00 
G01 X-47.7885 Y26.3026 
G01 X-47.7259 Y26.4537 
G01 X-47.6350 Y26.5897 
G01 X-47.5193 Y26.7054 
G01 X-47.3833 Y26.7963 
G01 X-47.2322 Y26.8589 
G01 X-47.0718 Y26.8908 
G01 X-46.9082 Y26.8908 
G01 X-46.7478 Y26.8589 
G01 X-46.5967 Y26.7963 
G01 X-46.4607 Y26.7054 
G01 X-46.3450 Y26.5897 
G01 X-46.2541 Y26.4537 
G01 X-46.1915 Y26.3026 
G01 X-46.1596 Y26.1422 
G01 X-46.1596 Y24.6578 
G01 X-46.1915 Y24.4974 
G01 X-46.2541 Y24.3463 
G01 X-46.3450 Y24.2103 
G01 X-46.4607 Y24.0946 
G01 X-46.5967 Y24.0037 
G01 X-46.7478 Y23.9411 
G01 X-46.9082 Y23.9092 
G01 X-47.0718 Y23.9092 
G01 X-47.2322 Y23.9411 
G01 X-47.3833 Y24.0037 
G01 X-47.5193 Y24.0946 
G01 X-47.6350 Y24.2103 
G01 X-47.7259 Y24.3463 
G01 X-47.7885 Y24.4974 
G01 X-47.8204 Y24.6578 
G00 Z2.0000 
G00 X-45.2804 Y24.6578 
G01 Z-0.1000 F254.00 
G01 X-45.2804 Y26.1422 F508.00 
G01 X-45.2485 Y26.3026 
G01 X-45.1859 Y26.4537 
G01 X-45.0950 Y26.5897 
G01 X-44.9793 Y26.7054 
G01 X-44.8433 Y26.7963 
G01 X-44.6922 Y26.8589 
G01 X-44.5318 Y26.8908 
G01 X-44.3682 Y26.8908 
G01 X-44.2078 Y26.8589 
G01 X-44.0567 Y26.7963 
G01 X-43.9207 Y26.7054 
G01 X-43.8050 Y26.5897 
G01 X-43.7141 Y26.4537 
G01 X-43.6515 Y26.3026 
G01 X-43.6196 Y26.1422 
G01 X-43.6196 Y24.6578 
G01 X-43.6515 Y24.4974 
G01 X-43.7141 Y24.3463 
G01 X-43.8050 Y24.2103 
G01 X-43.9207 Y24.0946 
G01 X-44.0567 Y24.0037 
G01 X-44.2078 Y23.9411 
G01 X-44.3682 Y23.9092 
G01 X-44.5318 Y23.9092 
G01 X-44.6922 Y23.9411 
G01 X-44.8433 Y24.0037 
G01 X-44.9793 Y24.0946 
G01 X-45.0950 Y24.2103 
G01 X-45.1859 Y24.3463 
G01 X-45.2485 Y24.4974 
G01 X-45.2804 Y24.6578 
G00 Z2.0000 
G00 X-42.7404 Y24.6578 
G01 Z-0.1000 F254.00 
G01 X-42.7404 Y26.1422 F508.00 
G01 X-42.7085 Y26.3026 
G01 X-42.6459 Y26.4537 
G01 X-42.5550 Y26.5897 
G01 X-42.4393 Y26.7054 
G01 X-42.3033 Y26.7963 
G01 X-42.1522 Y26.8589 
G01 X-41.9918 Y26.8908 
G01 X-41.8282 Y26.8908 
G01 X-41.6678 Y26.8589 
G01 X-41.5167 Y26.7963 
G01 X-41.3807 Y26.7054 
G01 X-41.2650 Y26.5897 
G01 X-41.1741 Y26.4537 
G01 X-41.1115 Y26.3026 
G01 X-41.0796 Y26.1422 
G01 X-41.0796 Y24.6578 
G01 X-41.1115 Y24.4974 
G01 X-41.1741 Y24.3463 
G01 X-41.2650 Y24.2103 
G01 X-41.3807 Y24.0946 
G01 X-41.5167 Y24.0037 
G01 X-41.6678 Y23.9411 
G01 X-41.8282 Y23.9092 
G01 X-41.9918 Y23.9092 
G01 X-42.1522 Y23.9411 
G01 X-42.3033 Y24.0037 
G01 X-42.4393 Y24.0946 
G01 X-42.5550 Y24.2103 
G01 X-42.6459 Y24.3463 
G01 X-42.7085 Y24.4974 
G01 X-42.7404 Y24.6578 
G00 Z2.0000 
G00 X-40.2004 Y24.6578 
G01 Z-0.1000 F254.00 
G01 X-40.2004 Y26.1422 F508.00 
G01 X-40.1685 Y26.3026 
G01 X-40.1059 Y26.4537 
G01 X-40.0150 Y26.5897 
G01 X-39.8993 Y26.7054 
G01 X-39.7633 Y26.7963 
G01 X-39.6122 Y26.8589 
G01 X-39.4518 Y26.8908 
G01 X-39.2882 Y26.8908 
G01 X-39.1278 Y26.8589 
G01 X-38.9767 Y26.7963 
G01 X-38.8407 Y26.7054 
G01 X-38.7250 Y26.5897 
G01 X-38.6341 Y26.4537 
G01 X-38.5715 Y26.3026 
G01 X-38.5396 Y26.1422 
G01 X-38.5396 Y24.6578 
G01 X-38.5715 Y24.4974 
G01 X-38.6341 Y24.3463 
G01 X-38.7250 Y24.2103 
G01 X-38.8407 Y24.0946 
G01 X-38.9767 Y24.0037 
G01 X-39.1278 Y23.9411 
G01 X-39.2882 Y23.9092 
G01 X-39.4518 Y23.9092 
G01 X-39.6122 Y23.9411 
G01 X-39.7633 Y24.0037 
G01 X-39.8993 Y24.0946 
G01 X-40.0150 Y24.2103 
G01 X-40.1059 Y24.3463 
G01 X-40.1685 Y24.4974 
G01 X-40.2004 Y24.6578 
G00 Z2.0000 
G00 X-35.1204 Y24.6578 
G01 Z-0.1000 F254.00 
G01 X-35.1204 Y26.1422 F508.00 
G01 X-35.0885 Y26.3026 
G01 X-35.0259 Y26.4537 
G01 X-34.9350 Y26.5897 
G01 X-34.8193 Y26.7054 
G01 X-34.6833 Y26.7963 
G01 X-34.5322 Y26.8589 
G01 X-34.3718 Y26.8908 
G01 X-34.2082 Y26.8908 
G01 X-34.0478 Y26.8589 
G01 X-33.8967 Y26.7963 
G01 X-33.7606 Y26.7054 
G01 X-33.6450 Y26.5897 
G01 X-33.5541 Y26.4537 
G01 X-33.4915 Y26.3026 
G01 X-33.4596 Y26.1422 
G01 X-33.4596 Y24.6578 
G01 X-33.4915 Y24.4974 
G01 X-33.5541 Y24.3463 
G01 X-33.6450 Y24.2103 
G01 X-33.7606 Y24.0946 
G01 X-33.8967 Y24.0037 
G01 X-34.0478 Y23.9411 
G01 X-34.2082 Y23.9092 
G01 X-34.3718 Y23.9092 
G01 X-34.5322 Y23.9411 
G01 X-34.6833 Y24.0037 
G01 X-34.8193 Y24.0946 
G01 X-34.9350 Y24.2103 
G01 X-35.0259 Y24.3463 
G01 X-35.0885 Y24.4974 
G01 X-35.1204 Y24.6578 
G00 Z2.0000 
G00 X-32.5804 Y24.6578 
G01 Z-0.1000 F254.00 
G01 X-32.5804 Y26.1422 F508.00 
G01 X-32.5485 Y26.3026 
G01 X-32.4859 Y26.4537 
G01 X-32.3950 Y26.5897 
G01 X-32.2793 Y26.7054 
G01 X-32.1433 Y26.7963 
G01 X-31.9922 Y26.8589 
G01 X-31.8318 Y26.8908 
G01 X-31.6682 Y26.8908 
G01 X-31.5078 Y26.8589 
G01 X-31.3567 Y26.7963 
G01 X-31.2207 Y26.7054 
G01 X-31.1050 Y26.5897 
G01 X-31.0141 Y26.4537 
G01 X-30.9515 Y26.3026 
G01 X-30.9196 Y26.1422 
G01 X-30.9196 Y24.6578 
G01 X-30.9515 Y24.4974 
G01 X-31.0141 Y24.3463 
G01 X-31.1050 Y24.2103 
G01 X-31.2207 Y24.0946 
G01 X-31.3567 Y24.0037 
G01 X-31.5078 Y23.9411 
G01 X-31.6682 Y23.9092 
G01 X-31.8318 Y23.9092 
G01 X-31.9922 Y23.9411 
G01 X-32.1433 Y24.0037 
G01 X-32.2793 Y24.0946 
G01 X-32.3950 Y24.2103 
G01 X-32.4859 Y24.3463 
G01 X-32.5485 Y24.4974 
G01 X-32.5804 Y24.6578 
G00 Z2.0000 
G00 X-30.0404 Y24.6578 
G01 Z-0.1000 F254.00 
G01 X-30.0404 Y26.1422 F508.00 
G01 X-30.0085 Y26.3026 
G01 X-29.9459 Y26.4537 
G01 X-29.8550 Y26.5897 
G01 X-29.7393 Y26.7054 
G01 X-29.6033 Y26.7963 
G01 X-29.4522 Y26.8589 
G01 X-29.2918 Y26.8908 
G01 X-29.1282 Y26.8908 
G01 X-28.9678 Y26.8589 
G01 X-28.8167 Y26.7963 
G01 X-28.6806 Y26.7054 
G01 X-28.5650 Y26.5897 
G01 X-28.4741 Y26.4537 
G01 X-28.4115 Y26.3026 
G01 X-28.3796 Y26.1422 
G01 X-28.3796 Y24.6578 
G01 X-28.4115 Y24.4974 
G01 X-28.4741 Y24.3463 
G01 X-28.5650 Y24.2103 
G01 X-28.6806 Y24.0946 
G01 X-28.8167 Y24.0037 
G01 X-28.9678 Y23.9411 
G01 X-29.1282 Y23.9092 
G01 X-29.2918 Y23.9092 
G01 X-29.4522 Y23.9411 
G01 X-29.6033 Y24.0037 
G01 X-29.7393 Y24.0946 
G01 X-29.8550 Y24.2103 
G01 X-29.9459 Y24.3463 
G01 X-30.0085 Y24.4974 
G01 X-30.0404 Y24.6578 
G00 Z2.0000 
G00 X-27.5004 Y24.6578 
G01 Z-0.1000 F254.00 
G01 X-27.5004 Y26.1422 F508.00 
G01 X-27.4685 Y26.3026 
G01 X-27.4059 Y26.4537 
G01 X-27.3150 Y26.5897 
G01 X-27.1993 Y26.7054 
G01 X-27.0633 Y26.7963 
G01 X-26.9122 Y26.8589 
G01 X-26.7518 Y26.8908 
G01 X-26.5882 Y26.8908 
G01 X-26.4278 Y26.8589 
G01 X-26.2767 Y26.7963 
G01 X-26.1407 Y26.7054 
G01 X-26.0250 Y26.5897 
G01 X-25.9341 Y26.4537 
G01 X-25.8715 Y26.3026 
G01 X-25.8396 Y26.1422 
G01 X-25.8396 Y24.6578 
G01 X-25.8715 Y24.4974 
G01 X-25.9341 Y24.3463 
G01 X-26.0250 Y24.2103 
G01 X-26.1407 Y24.0946 
G01 X-26.2767 Y24.0037 
G01 X-26.4278 Y23.9411 
G01 X-26.5882 Y23.9092 
G01 X-26.7518 Y23.9092 
G01 X-26.9122 Y23.9411 
G01 X-27.0633 Y24.0037 
G01 X-27.1993 Y24.0946 
G01 X-27.3150 Y24.2103 
G01 X-27.4059 Y24.3463 
G01 X-27.4685 Y24.4974 
G01 X-27.5004 Y24.6578 
G00 Z2.0000 
G00 X-24.9604 Y24.6578 
G01 Z-0.1000 F254.00 
G01 X-24.9604 Y26.1422 F508.00 
G01 X-24.9285 Y26.3026 
G01 X-24.8659 Y26.4537 
G01 X-24.7750 Y26.5897 
G01 X-24.6593 Y26.7054 
G01 X-24.5233 Y26.7963 
G01 X-24.3722 Y26.8589 
G01 X-24.2118 Y26.8908 
G01 X-24.0482 Y26.8908 
G01 X-23.8878 Y26.8589 
G01 X-23.7367 Y26.7963 
G01 X-23.6007 Y26.7054 
G01 X-23.4850 Y26.5897 
G01 X-23.3941 Y26.4537 
G01 X-23.3315 Y26.3026 
G01 X-23.2996 Y26.1422 
G01 X-23.2996 Y24.6578 
G01 X-23.3315 Y24.4974 
G01 X-23.3941 Y24.3463 
G01 X-23.4850 Y24.2103 
G01 X-23.6007 Y24.0946 
G01 X-23.7367 Y24.0037 
G01 X-23.8878 Y23.9411 
G01 X-24.0482 Y23.9092 
G01 X-24.2118 Y23.9092 
G01 X-24.3722 Y23.9411 
G01 X-24.5233 Y24.0037 
G01 X-24.6593 Y24.0946 
G01 X-24.7750 Y24.2103 
G01 X-24.8659 Y24.3463 
G01 X-24.9285 Y24.4974 
G01 X-24.9604 Y24.6578 
G00 Z2.0000 
G00 X-22.4204 Y24.6578 
G01 Z-0.1000 F254.00 
G01 X-22.4204 Y26.1422 F508.00 
G01 X-22.3885 Y26.3026 
G01 X-22.3259 Y26.4537 
G01 X-22.2350 Y26.5897 
G01 X-22.1193 Y26.7054 
G01 X-21.9833 Y26.7963 
G01 X-21.8322 Y26.8589 
G01 X-21.6718 Y26.8908 
G01 X-21.5082 Y26.8908 
G01 X-21.3478 Y26.8589 
G01 X-21.1967 Y26.7963 
G01 X-21.0607 Y26.7054 
G01 X-20.9450 Y26.5897 
G01 X-20.8541 Y26.4537 
G01 X-20.7915 Y26.3026 
G01 X-20.7596 Y26.1422 
G01 X-20.7596 Y24.6578 
G01 X-20.7915 Y24.4974 
G01 X-20.8541 Y24.3463 
G01 X-20.9450 Y24.2103 
G01 X-21.0607 Y24.0946 
G01 X-21.1967 Y24.0037 
G01 X-21.3478 Y23.9411 
G01 X-21.5082 Y23.9092 
G01 X-21.6718 Y23.9092 
G01 X-21.8322 Y23.9411 
G01 X-21.9833 Y24.0037 
G01 X-22.1193 Y24.0946 
G01 X-22.2350 Y24.2103 
G01 X-22.3259 Y24.3463 
G01 X-22.3885 Y24.4974 
G01 X-22.4204 Y24.6578 
G00 Z2.0000 
G00 X-22.4204 Y17.0378 
G01 Z-0.1000 F254.00 
G01 X-22.4204 Y18.5222 F508.00 
G01 X-22.3885 Y18.6826 
G01 X-22.3259 Y18.8337 
G01 X-22.2350 Y18.9697 
G01 X-22.1193 Y19.0854 
G01 X-21.9833 Y19.1763 
G01 X-21.8322 Y19.2389 
G01 X-21.6718 Y19.2708 
G01 X-21.5082 Y19.2708 
G01 X-21.3478 Y19.2389 
G01 X-21.1967 Y19.1763 
G01 X-21.0607 Y19.0854 
G01 X-20.9450 Y18.9697 
G01 X-20.8541 Y18.8337 
G01 X-20.7915 Y18.6826 
G01 X-20.7596 Y18.5222 
G01 X-20.7596 Y17.0378 
G01 X-20.7915 Y16.8774 
G01 X-20.8541 Y16.7263 
G01 X-20.9450 Y16.5903 
G01 X-21.0607 Y16.4746 
G01 X-21.1967 Y16.3837 
G01 X-21.3478 Y16.3211 
G01 X-21.5082 Y16.2892 
G01 X-21.6718 Y16.2892 
G01 X-21.8322 Y16.3211 
G01 X-21.9833 Y16.3837 
G01 X-22.1193 Y16.4746 
G01 X-22.2350 Y16.5903 
G01 X-22.3259 Y16.7263 
G01 X-22.3885 Y16.8774 
G01 X-22.4204 Y17.0378 
G00 Z2.0000 
G00 X-24.9604 Y17.0378 
G01 Z-0.1000 F254.00 
G01 X-24.9604 Y18.5222 F508.00 
G01 X-24.9285 Y18.6826 
G01 X-24.8659 Y18.8337 
G01 X-24.7750 Y18.9697 
G01 X-24.6593 Y19.0854 
G01 X-24.5233 Y19.1763 
G01 X-24.3722 Y19.2389 
G01 X-24.2118 Y19.2708 
G01 X-24.0482 Y19.2708 
G01 X-23.8878 Y19.2389 
G01 X-23.7367 Y19.1763 
G01 X-23.6007 Y19.0854 
G01 X-23.4850 Y18.9697 
G01 X-23.3941 Y18.8337 
G01 X-23.3315 Y18.6826 
G01 X-23.2996 Y18.5222 
G01 X-23.2996 Y17.0378 
G01 X-23.3315 Y16.8774 
G01 X-23.3941 Y16.7263 
G01 X-23.4850 Y16.5903 
G01 X-23.6007 Y16.4746 
G01 X-23.7367 Y16.3837 
G01 X-23.8878 Y16.3211 
G01 X-24.0482 Y16.2892 
G01 X-24.2118 Y16.2892 
G01 X-24.3722 Y16.3211 
G01 X-24.5233 Y16.3837 
G01 X-24.6593 Y16.4746 
G01 X-24.7750 Y16.5903 
G01 X-24.8659 Y16.7263 
G01 X-24.9285 Y16.8774 
G01 X-24.9604 Y17.0378 
G00 Z2.0000 
G00 X-27.5004 Y17.0378 
G01 Z-0.1000 F254.00 
G01 X-27.5004 Y18.5222 F508.00 
G01 X-27.4685 Y18.6826 
G01 X-27.4059 Y18.8337 
G01 X-27.3150 Y18.9697 
G01 X-27.1993 Y19.0854 
G01 X-27.0633 Y19.1763 
G01 X-26.9122 Y19.2389 
G01 X-26.7518 Y19.2708 
G01 X-26.5882 Y19.2708 
G01 X-26.4278 Y19.2389 
G01 X-26.2767 Y19.1763 
G01 X-26.1407 Y19.0854 
G01 X-26.0250 Y18.9697 
G01 X-25.9341 Y18.8337 
G01 X-25.8715 Y18.6826 
G01 X-25.8396 Y18.5222 
G01 X-25.8396 Y17.0378 
G01 X-25.8715 Y16.8774 
G01 X-25.9341 Y16.7263 
G01 X-26.0250 Y16.5903 
G01 X-26.1407 Y16.4746 
G01 X-26.2767 Y16.3837 
G01 X-26.4278 Y16.3211 
G01 X-26.5882 Y16.2892 
G01 X-26.7518 Y16.2892 
G01 X-26.9122 Y16.3211 
G01 X-27.0633 Y16.3837 
G01 X-27.1993 Y16.4746 
G01 X-27.3150 Y16.5903 
G01 X-27.4059 Y16.7263 
G01 X-27.4685 Y16.8774 
G01 X-27.5004 Y17.0378 
G00 Z2.0000 
G00 X-30.0404 Y17.0378 
G01 Z-0.1000 F254.00 
G01 X-30.0404 Y18.5222 F508.00 
G01 X-30.0085 Y18.6826 
G01 X-29.9459 Y18.8337 
G01 X-29.8550 Y18.9697 
G01 X-29.7393 Y19.0854 
G01 X-29.6033 Y19.1763 
G01 X-29.4522 Y19.2389 
G01 X-29.2918 Y19.2708 
G01 X-29.1282 Y19.2708 
G01 X-28.9678 Y19.2389 
G01 X-28.8167 Y19.1763 
G01 X-28.6806 Y19.0854 
G01 X-28.5650 Y18.9697 
G01 X-28.4741 Y18.8337 
G01 X-28.4115 Y18.6826 
G01 X-28.3796 Y18.5222 
G01 X-28.3796 Y17.0378 
G01 X-28.4115 Y16.8774 
G01 X-28.4741 Y16.7263 
G01 X-28.5650 Y16.5903 
G01 X-28.6806 Y16.4746 
G01 X-28.8167 Y16.3837 
G01 X-28.9678 Y16.3211 
G01 X-29.1282 Y16.2892 
G01 X-29.2918 Y16.2892 
G01 X-29.4522 Y16.3211 
G01 X-29.6033 Y16.3837 
G01 X-29.7393 Y16.4746 
G01 X-29.8550 Y16.5903 
G01 X-29.9459 Y16.7263 
G01 X-30.0085 Y16.8774 
G01 X-30.0404 Y17.0378 
G00 Z2.0000 
G00 X-32.5804 Y17.0378 
G01 Z-0.1000 F254.00 
G01 X-32.5804 Y18.5222 F508.00 
G01 X-32.5485 Y18.6826 
G01 X-32.4859 Y18.8337 
G01 X-32.3950 Y18.9697 
G01 X-32.2793 Y19.0854 
G01 X-32.1433 Y19.1763 
G01 X-31.9922 Y19.2389 
G01 X-31.8318 Y19.2708 
G01 X-31.6682 Y19.2708 
G01 X-31.5078 Y19.2389 
G01 X-31.3567 Y19.1763 
G01 X-31.2207 Y19.0854 
G01 X-31.1050 Y18.9697 
G01 X-31.0141 Y18.8337 
G01 X-30.9515 Y18.6826 
G01 X-30.9196 Y18.5222 
G01 X-30.9196 Y17.0378 
G01 X-30.9515 Y16.8774 
G01 X-31.0141 Y16.7263 
G01 X-31.1050 Y16.5903 
G01 X-31.2207 Y16.4746 
G01 X-31.3567 Y16.3837 
G01 X-31.5078 Y16.3211 
G01 X-31.6682 Y16.2892 
G01 X-31.8318 Y16.2892 
G01 X-31.9922 Y16.3211 
G01 X-32.1433 Y16.3837 
G01 X-32.2793 Y16.4746 
G01 X-32.3950 Y16.5903 
G01 X-32.4859 Y16.7263 
G01 X-32.5485 Y16.8774 
G01 X-32.5804 Y17.0378 
G00 Z2.0000 
G00 X-35.1204 Y17.0378 
G01 Z-0.1000 F254.00 
G01 X-35.1204 Y18.5222 F508.00 
G01 X-35.0885 Y18.6826 
G01 X-35.0259 Y18.8337 
G01 X-34.9350 Y18.9697 
G01 X-34.8193 Y19.0854 
G01 X-34.6833 Y19.1763 
G01 X-34.5322 Y19.2389 
G01 X-34.3718 Y19.2708 
G01 X-34.2082 Y19.2708 
G01 X-34.0478 Y19.2389 
G01 X-33.8967 Y19.1763 
G01 X-33.7606 Y19.0854 
G01 X-33.6450 Y18.9697 
G01 X-33.5541 Y18.8337 
G01 X-33.4915 Y18.6826 
G01 X-33.4596 Y18.5222 
G01 X-33.4596 Y17.0378 
G01 X-33.4915 Y16.8774 
G01 X-33.5541 Y16.7263 
G01 X-33.6450 Y16.5903 
G01 X-33.7606 Y16.4746 
G01 X-33.8967 Y16.3837 
G01 X-34.0478 Y16.3211 
G01 X-34.2082 Y16.2892 
G01 X-34.3718 Y16.2892 
G01 X-34.5322 Y16.3211 
G01 X-34.6833 Y16.3837 
G01 X-34.8193 Y16.4746 
G01 X-34.9350 Y16.5903 
G01 X-35.0259 Y16.7263 
G01 X-35.0885 Y16.8774 
G01 X-35.1204 Y17.0378 
G00 Z2.0000 
G00 X-37.6604 Y17.0378 
G01 Z-0.1000 F254.00 
G01 X-37.6604 Y18.5222 F508.00 
G01 X-37.6285 Y18.6826 
G01 X-37.5659 Y18.8337 
G01 X-37.4750 Y18.9697 
G01 X-37.3593 Y19.0854 
G01 X-37.2233 Y19.1763 
G01 X-37.0722 Y19.2389 
G01 X-36.9118 Y19.2708 
G01 X-36.7482 Y19.2708 
G01 X-36.5878 Y19.2389 
G01 X-36.4367 Y19.1763 
G01 X-36.3007 Y19.0854 
G01 X-36.1850 Y18.9697 
G01 X-36.0941 Y18.8337 
G01 X-36.0315 Y18.6826 
G01 X-35.9996 Y18.5222 
G01 X-35.9996 Y17.0378 
G01 X-36.0315 Y16.8774 
G01 X-36.0941 Y16.7263 
G01 X-36.1850 Y16.5903 
G01 X-36.3007 Y16.4746 
G01 X-36.4367 Y16.3837 
G01 X-36.5878 Y16.3211 
G01 X-36.7482 Y16.2892 
G01 X-36.9118 Y16.2892 
G01 X-37.0722 Y16.3211 
G01 X-37.2233 Y16.3837 
G01 X-37.3593 Y16.4746 
G01 X-37.4750 Y16.5903 
G01 X-37.5659 Y16.7263 
G01 X-37.6285 Y16.8774 
G01 X-37.6604 Y17.0378 
G00 Z2.0000 
G00 X-40.2004 Y17.0378 
G01 Z-0.1000 F254.00 
G01 X-40.2004 Y18.5222 F508.00 
G01 X-40.1685 Y18.6826 
G01 X-40.1059 Y18.8337 
G01 X-40.0150 Y18.9697 
G01 X-39.8993 Y19.0854 
G01 X-39.7633 Y19.1763 
G01 X-39.6122 Y19.2389 
G01 X-39.5700 Y19.2473 
G01 X-39.5700 Y23.5421 
G01 X-39.5482 Y23.6235 
G01 X-39.5061 Y23.6965 
G01 X-39.4465 Y23.7561 
G01 X-39.3735 Y23.7982 
G01 X-39.2921 Y23.8200 
G01 X-38.8825 Y23.8200 
G01 X-37.6604 Y25.0421 
G01 X-37.6604 Y26.1422 
G01 X-37.6285 Y26.3026 
G01 X-37.5659 Y26.4537 
G01 X-37.4750 Y26.5897 
G01 X-37.3593 Y26.7054 
G01 X-37.2233 Y26.7963 
G01 X-37.0722 Y26.8589 
G01 X-36.9118 Y26.8908 
G01 X-36.7482 Y26.8908 
G01 X-36.5878 Y26.8589 
G01 X-36.4367 Y26.7963 
G01 X-36.3007 Y26.7054 
G01 X-36.1850 Y26.5897 
G01 X-36.0941 Y26.4537 
G01 X-36.0315 Y26.3026 
G01 X-35.9996 Y26.1422 
G01 X-35.9996 Y24.6578 
G01 X-36.0315 Y24.4974 
G01 X-36.0941 Y24.3463 
G01 X-36.1850 Y24.2103 
G01 X-36.3007 Y24.0946 
G01 X-36.4367 Y24.0037 
G01 X-36.5878 Y23.9411 
G01 X-36.7482 Y23.9092 
G01 X-36.9118 Y23.9092 
G01 X-37.0722 Y23.9411 
G01 X-37.2233 Y24.0037 
G01 X-37.3593 Y24.0946 
G01 X-37.4750 Y24.2103 
G01 X-37.5199 Y24.2775 
G01 X-38.5535 Y23.2439 
G01 X-38.6265 Y23.2018 
G01 X-38.7079 Y23.1800 
G01 X-38.9300 Y23.1800 
G01 X-38.9300 Y19.1451 
G01 X-38.8407 Y19.0854 
G01 X-38.7250 Y18.9697 
G01 X-38.6341 Y18.8337 
G01 X-38.5715 Y18.6826 
G01 X-38.5396 Y18.5222 
G01 X-38.5396 Y17.0378 
G01 X-38.5715 Y16.8774 
G01 X-38.6341 Y16.7263 
G01 X-38.7250 Y16.5903 
G01 X-38.8407 Y16.4746 
G01 X-38.9767 Y16.3837 
G01 X-39.1278 Y16.3211 
G01 X-39.2882 Y16.2892 
G01 X-39.4518 Y16.2892 
G01 X-39.6122 Y16.3211 
G01 X-39.7633 Y16.3837 
G01 X-39.8993 Y16.4746 
G01 X-40.0150 Y16.5903 
G01 X-40.1059 Y16.7263 
G01 X-40.1685 Y16.8774 
G01 X-40.2004 Y17.0378 
G00 Z2.0000 
G00 X-42.7404 Y17.0378 
G01 Z-0.1000 F254.00 
G01 X-42.7404 Y18.5222 F508.00 
G01 X-42.7085 Y18.6826 
G01 X-42.6459 Y18.8337 
G01 X-42.5550 Y18.9697 
G01 X-42.4393 Y19.0854 
G01 X-42.3033 Y19.1763 
G01 X-42.1522 Y19.2389 
G01 X-41.9918 Y19.2708 
G01 X-41.8282 Y19.2708 
G01 X-41.6678 Y19.2389 
G01 X-41.5167 Y19.1763 
G01 X-41.3807 Y19.0854 
G01 X-41.2650 Y18.9697 
G01 X-41.1741 Y18.8337 
G01 X-41.1115 Y18.6826 
G01 X-41.0796 Y18.5222 
G01 X-41.0796 Y17.0378 
G01 X-41.1115 Y16.8774 
G01 X-41.1741 Y16.7263 
G01 X-41.2650 Y16.5903 
G01 X-41.3807 Y16.4746 
G01 X-41.5167 Y16.3837 
G01 X-41.6678 Y16.3211 
G01 X-41.8282 Y16.2892 
G01 X-41.9918 Y16.2892 
G01 X-42.1522 Y16.3211 
G01 X-42.3033 Y16.3837 
G01 X-42.4393 Y16.4746 
G01 X-42.5550 Y16.5903 
G01 X-42.6459 Y16.7263 
G01 X-42.7085 Y16.8774 
G01 X-42.7404 Y17.0378 
G00 Z2.0000 
G00 X-45.2804 Y17.0378 
G01 Z-0.1000 F254.00 
G01 X-45.2804 Y18.5222 F508.00 
G01 X-45.2485 Y18.6826 
G01 X-45.1859 Y18.8337 
G01 X-45.0950 Y18.9697 
G01 X-44.9793 Y19.0854 
G01 X-44.8433 Y19.1763 
G01 X-44.6922 Y19.2389 
G01 X-44.5318 Y19.2708 
G01 X-44.3682 Y19.2708 
G01 X-44.2078 Y19.2389 
G01 X-44.0567 Y19.1763 
G01 X-43.9207 Y19.0854 
G01 X-43.8050 Y18.9697 
G01 X-43.7141 Y18.8337 
G01 X-43.6515 Y18.6826 
G01 X-43.6196 Y18.5222 
G01 X-43.6196 Y17.0378 
G01 X-43.6515 Y16.8774 
G01 X-43.7141 Y16.7263 
G01 X-43.8050 Y16.5903 
G01 X-43.9207 Y16.4746 
G01 X-44.0567 Y16.3837 
G01 X-44.2078 Y16.3211 
G01 X-44.3682 Y16.2892 
G01 X-44.5318 Y16.2892 
G01 X-44.6922 Y16.3211 
G01 X-44.8433 Y16.3837 
G01 X-44.9793 Y16.4746 
G01 X-45.0950 Y16.5903 
G01 X-45.1859 Y16.7263 
G01 X-45.2485 Y16.8774 
G01 X-45.2804 Y17.0378 
G00 Z2.0000 
G00 X-47.8204 Y17.0378 
G01 Z-0.1000 F254.00 
G01 X-47.8204 Y18.5222 F508.00 
G01 X-47.7885 Y18.6826 
G01 X-47.7259 Y18.8337 
G01 X-47.6350 Y18.9697 
G01 X-47.5193 Y19.0854 
G01 X-47.3833 Y19.1763 
G01 X-47.2322 Y19.2389 
G01 X-47.0718 Y19.2708 
G01 X-46.9082 Y19.2708 
G01 X-46.7478 Y19.2389 
G01 X-46.5967 Y19.1763 
G01 X-46.4607 Y19.0854 
G01 X-46.3450 Y18.9697 
G01 X-46.2541 Y18.8337 
G01 X-46.1915 Y18.6826 
G01 X-46.1596 Y18.5222 
G01 X-46.1596 Y17.0378 
G01 X-46.1915 Y16.8774 
G01 X-46.2541 Y16.7263 
G01 X-46.3450 Y16.5903 
G01 X-46.4607 Y16.4746 
G01 X-46.5967 Y16.3837 
G01 X-46.7478 Y16.3211 
G01 X-46.9082 Y16.2892 
G01 X-47.0718 Y16.2892 
G01 X-47.2322 Y16.3211 
G01 X-47.3833 Y16.3837 
G01 X-47.5193 Y16.4746 
G01 X-47.6350 Y16.5903 
G01 X-47.7259 Y16.7263 
G01 X-47.7885 Y16.8774 
G01 X-47.8204 Y17.0378 
G00 Z2.0000 
G00 X-50.3604 Y17.0378 
G01 Z-0.1000 F254.00 
G01 X-50.3604 Y18.5222 F508.00 
G01 X-50.3285 Y18.6826 
G01 X-50.2659 Y18.8337 
G01 X-50.1750 Y18.9697 
G01 X-50.0593 Y19.0854 
G01 X-49.9233 Y19.1763 
G01 X-49.7722 Y19.2389 
G01 X-49.6118 Y19.2708 
G01 X-49.4482 Y19.2708 
G01 X-49.2878 Y19.2389 
G01 X-49.1367 Y19.1763 
G01 X-49.0007 Y19.0854 
G01 X-48.8850 Y18.9697 
G01 X-48.7941 Y18.8337 
G01 X-48.7315 Y18.6826 
G01 X-48.6996 Y18.5222 
G01 X-48.6996 Y17.0378 
G01 X-48.7315 Y16.8774 
G01 X-48.7941 Y16.7263 
G01 X-48.8850 Y16.5903 
G01 X-49.0007 Y16.4746 
G01 X-49.1367 Y16.3837 
G01 X-49.2878 Y16.3211 
G01 X-49.4482 Y16.2892 
G01 X-49.6118 Y16.2892 
G01 X-49.7722 Y16.3211 
G01 X-49.9233 Y16.3837 
G01 X-50.0593 Y16.4746 
G01 X-50.1750 Y16.5903 
G01 X-50.2659 Y16.7263 
G01 X-50.3285 Y16.8774 
G01 X-50.3604 Y17.0378 
G00 Z2.0000 
G00 X-52.9004 Y17.0378 
G01 Z-0.1000 F254.00 
G01 X-52.9004 Y18.5222 F508.00 
G01 X-52.8685 Y18.6826 
G01 X-52.8059 Y18.8337 
G01 X-52.7150 Y18.9697 
G01 X-52.5993 Y19.0854 
G01 X-52.4633 Y19.1763 
G01 X-52.3122 Y19.2389 
G01 X-52.1518 Y19.2708 
G01 X-51.9882 Y19.2708 
G01 X-51.8278 Y19.2389 
G01 X-51.6767 Y19.1763 
G01 X-51.5406 Y19.0854 
G01 X-51.4250 Y18.9697 
G01 X-51.3341 Y18.8337 
G01 X-51.2715 Y18.6826 
G01 X-51.2396 Y18.5222 
G01 X-51.2396 Y17.0378 
G01 X-51.2715 Y16.8774 
G01 X-51.3341 Y16.7263 
G01 X-51.4250 Y16.5903 
G01 X-51.5406 Y16.4746 
G01 X-51.6767 Y16.3837 
G01 X-51.8278 Y16.3211 
G01 X-51.9882 Y16.2892 
G01 X-52.1518 Y16.2892 
G01 X-52.3122 Y16.3211 
G01 X-52.4633 Y16.3837 
G01 X-52.5993 Y16.4746 
G01 X-52.7150 Y16.5903 
G01 X-52.8059 Y16.7263 
G01 X-52.8685 Y16.8774 
G01 X-52.9004 Y17.0378 
G00 Z2.0000 
G00 X-55.4404 Y17.0378 
G01 Z-0.1000 F254.00 
G01 X-55.4404 Y18.5222 F508.00 
G01 X-55.4085 Y18.6826 
G01 X-55.3459 Y18.8337 
G01 X-55.2550 Y18.9697 
G01 X-55.1393 Y19.0854 
G01 X-55.0033 Y19.1763 
G01 X-54.8522 Y19.2389 
G01 X-54.6918 Y19.2708 
G01 X-54.5282 Y19.2708 
G01 X-54.3678 Y19.2389 
G01 X-54.2167 Y19.1763 
G01 X-54.0807 Y19.0854 
G01 X-53.9650 Y18.9697 
G01 X-53.8741 Y18.8337 
G01 X-53.8115 Y18.6826 
G01 X-53.7796 Y18.5222 
G01 X-53.7796 Y17.0378 
G01 X-53.8115 Y16.8774 
G01 X-53.8741 Y16.7263 
G01 X-53.9650 Y16.5903 
G01 X-54.0807 Y16.4746 
G01 X-54.2167 Y16.3837 
G01 X-54.3678 Y16.3211 
G01 X-54.5282 Y16.2892 
G01 X-54.6918 Y16.2892 
G01 X-54.8522 Y16.3211 
G01 X-55.0033 Y16.3837 
G01 X-55.1393 Y16.4746 
G01 X-55.2550 Y16.5903 
G01 X-55.3459 Y16.7263 
G01 X-55.4085 Y16.8774 
G01 X-55.4404 Y17.0378 
G00 Z2.0000 
G00 X-10.7110 Y49.1633 
G01 Z-0.1000 F254.00 
G01 X-10.7110 Y49.3379 F508.00 
G01 X-10.6837 Y49.5105 
G01 X-10.6297 Y49.6766 
G01 X-10.5504 Y49.8323 
G01 X-10.4477 Y49.9736 
G01 X-10.3242 Y50.0971 
G01 X-10.1829 Y50.1998 
G01 X-10.0272 Y50.2791 
G01 X-9.8611 Y50.3331 
G01 X-9.6885 Y50.3604 
G01 X-9.5139 Y50.3604 
G01 X-9.3413 Y50.3331 
G01 X-9.1752 Y50.2791 
G01 X-9.0195 Y50.1998 
G01 X-8.8782 Y50.0971 
G01 X-8.7547 Y49.9736 
G01 X-8.6520 Y49.8323 
G01 X-8.5727 Y49.6766 
G01 X-8.5187 Y49.5105 
G01 X-8.4914 Y49.3379 
G01 X-8.4914 Y49.1633 
G01 X-8.5187 Y48.9907 
G01 X-8.5727 Y48.8246 
G01 X-8.6520 Y48.6689 
G01 X-8.7547 Y48.5276 
G01 X-8.8782 Y48.4041 
G01 X-9.0195 Y48.3014 
G01 X-9.1752 Y48.2221 
G01 X-9.3413 Y48.1681 
G01 X-9.5139 Y48.1408 
G01 X-9.6885 Y48.1408 
G01 X-9.8611 Y48.1681 
G01 X-10.0272 Y48.2221 
G01 X-10.1829 Y48.3014 
G01 X-10.3242 Y48.4041 
G01 X-10.4477 Y48.5276 
G01 X-10.5504 Y48.6689 
G01 X-10.6297 Y48.8246 
G01 X-10.6837 Y48.9907 
G01 X-10.7110 Y49.1633 
G00 Z2.0000 
G00 X-4.2086 Y44.6421 
G01 Z-0.1000 F254.00 
G01 X-4.2086 Y44.8167 F508.00 
G01 X-4.1813 Y44.9893 
G01 X-4.1273 Y45.1554 
G01 X-4.0480 Y45.3111 
G01 X-3.9453 Y45.4524 
G01 X-3.8218 Y45.5759 
G01 X-3.6805 Y45.6786 
G01 X-3.5248 Y45.7579 
G01 X-3.3587 Y45.8119 
G01 X-3.1861 Y45.8392 
G01 X-3.0115 Y45.8392 
G01 X-2.8389 Y45.8119 
G01 X-2.6728 Y45.7579 
G01 X-2.5171 Y45.6786 
G01 X-2.3758 Y45.5759 
G01 X-2.2523 Y45.4524 
G01 X-2.1496 Y45.3111 
G01 X-2.0703 Y45.1554 
G01 X-2.0163 Y44.9893 
G01 X-1.9890 Y44.8167 
G01 X-1.9890 Y44.6421 
G01 X-2.0163 Y44.4695 
G01 X-2.0703 Y44.3034 
G01 X-2.1496 Y44.1477 
G01 X-2.2523 Y44.0064 
G01 X-2.3758 Y43.8829 
G01 X-2.5171 Y43.7802 
G01 X-2.6728 Y43.7009 
G01 X-2.8389 Y43.6469 
G01 X-3.0115 Y43.6196 
G01 X-3.1861 Y43.6196 
G01 X-3.3587 Y43.6469 
G01 X-3.5248 Y43.7009 
G01 X-3.6805 Y43.7802 
G01 X-3.8218 Y43.8829 
G01 X-3.9453 Y44.0064 
G01 X-4.0480 Y44.1477 
G01 X-4.1273 Y44.3034 
G01 X-4.1813 Y44.4695 
G01 X-4.2086 Y44.6421 
G00 Z2.0000 
G00 X-10.7110 Y44.6421 
G01 Z-0.1000 F254.00 
G01 X-10.7110 Y44.8167 F508.00 
G01 X-10.6837 Y44.9893 
G01 X-10.6297 Y45.1554 
G01 X-10.5504 Y45.3111 
G01 X-10.4477 Y45.4524 
G01 X-10.3242 Y45.5759 
G01 X-10.1829 Y45.6786 
G01 X-10.0272 Y45.7579 
G01 X-9.8611 Y45.8119 
G01 X-9.6885 Y45.8392 
G01 X-9.5139 Y45.8392 
G01 X-9.3413 Y45.8119 
G01 X-9.1752 Y45.7579 
G01 X-9.0195 Y45.6786 
G01 X-8.8782 Y45.5759 
G01 X-8.7547 Y45.4524 
G01 X-8.6520 Y45.3111 
G01 X-8.5727 Y45.1554 
G01 X-8.5187 Y44.9893 
G01 X-8.4914 Y44.8167 
G01 X-8.4914 Y44.6421 
G01 X-8.5187 Y44.4695 
G01 X-8.5727 Y44.3034 
G01 X-8.6520 Y44.1477 
G01 X-8.7547 Y44.0064 
G01 X-8.8782 Y43.8829 
G01 X-9.0195 Y43.7802 
G01 X-9.1752 Y43.7009 
G01 X-9.3413 Y43.6469 
G01 X-9.5139 Y43.6196 
G01 X-9.6885 Y43.6196 
G01 X-9.8611 Y43.6469 
G01 X-10.0272 Y43.7009 
G01 X-10.1829 Y43.7802 
G01 X-10.3242 Y43.8829 
G01 X-10.4477 Y44.0064 
G01 X-10.5504 Y44.1477 
G01 X-10.6297 Y44.3034 
G01 X-10.6837 Y44.4695 
G01 X-10.7110 Y44.6421 
G00 Z2.0000 
G00 X-1.6025 Y52.3318 
G01 Z-0.1000 F254.00 
G01 X-3.4775 Y52.3318 F508.00 
G01 X-3.6723 Y52.3705 
G01 X-3.8558 Y52.4465 
G01 X-4.0209 Y52.5569 
G01 X-4.1613 Y52.6973 
G01 X-4.2717 Y52.8624 
G01 X-4.3477 Y53.0459 
G01 X-4.3864 Y53.2407 
G01 X-4.3864 Y53.4393 
G01 X-4.3477 Y53.6341 
G01 X-4.2717 Y53.8176 
G01 X-4.1613 Y53.9827 
G01 X-4.0209 Y54.1231 
G01 X-3.8558 Y54.2335 
G01 X-3.6723 Y54.3095 
G01 X-3.4775 Y54.3482 
G01 X-1.6025 Y54.3482 
G01 X-1.4077 Y54.3095 
G01 X-1.2242 Y54.2335 
G01 X-1.0591 Y54.1231 
G01 X-0.9187 Y53.9827 
G01 X-0.8083 Y53.8176 
G01 X-0.7323 Y53.6341 
G01 X-0.6936 Y53.4393 
G01 X-0.6936 Y53.2407 
G01 X-0.7323 Y53.0459 
G01 X-0.8083 Y52.8624 
G01 X-0.9187 Y52.6973 
G01 X-1.0591 Y52.5569 
G01 X-1.2242 Y52.4465 
G01 X-1.4077 Y52.3705 
G01 X-1.6025 Y52.3318 
G00 Z2.0000 
G00 X-1.6025 Y56.1418 
G01 Z-0.1000 F254.00 
G01 X-3.4775 Y56.1418 F508.00 
G01 X-3.6723 Y56.1805 
G01 X-3.8558 Y56.2565 
G01 X-4.0209 Y56.3669 
G01 X-4.1613 Y56.5073 
G01 X-4.2717 Y56.6724 
G01 X-4.3477 Y56.8559 
G01 X-4.3864 Y57.0507 
G01 X-4.3864 Y57.2493 
G01 X-4.3477 Y57.4441 
G01 X-4.2717 Y57.6276 
G01 X-4.1613 Y57.7927 
G01 X-4.0209 Y57.9331 
G01 X-3.8558 Y58.0435 
G01 X-3.6723 Y58.1195 
G01 X-3.4775 Y58.1582 
G01 X-1.6025 Y58.1582 
G01 X-1.4077 Y58.1195 
G01 X-1.2242 Y58.0435 
G01 X-1.0591 Y57.9331 
G01 X-0.9187 Y57.7927 
G01 X-0.8083 Y57.6276 
G01 X-0.7323 Y57.4441 
G01 X-0.6936 Y57.2493 
G01 X-0.6936 Y57.0507 
G01 X-0.7323 Y56.8559 
G01 X-0.8083 Y56.6724 
G01 X-0.9187 Y56.5073 
G01 X-1.0591 Y56.3669 
G01 X-1.2242 Y56.2565 
G01 X-1.4077 Y56.1805 
G01 X-1.6025 Y56.1418 
G00 Z2.0000 
G00 X-1.6025 Y59.9518 
G01 Z-0.1000 F254.00 
G01 X-3.4775 Y59.9518 F508.00 
G01 X-3.6723 Y59.9905 
G01 X-3.8558 Y60.0665 
G01 X-4.0209 Y60.1769 
G01 X-4.1613 Y60.3173 
G01 X-4.2717 Y60.4824 
G01 X-4.3477 Y60.6659 
G01 X-4.3864 Y60.8607 
G01 X-4.3864 Y61.0593 
G01 X-4.3477 Y61.2541 
G01 X-4.2717 Y61.4376 
G01 X-4.1613 Y61.6027 
G01 X-4.0209 Y61.7431 
G01 X-3.8558 Y61.8535 
G01 X-3.6723 Y61.9295 
G01 X-3.4775 Y61.9682 
G01 X-1.6025 Y61.9682 
G01 X-1.4077 Y61.9295 
G01 X-1.2242 Y61.8535 
G01 X-1.0591 Y61.7431 
G01 X-0.9187 Y61.6027 
G01 X-0.8083 Y61.4376 
G01 X-0.7323 Y61.2541 
G01 X-0.6936 Y61.0593 
G01 X-0.6936 Y60.8607 
G01 X-0.7323 Y60.6659 
G01 X-0.8083 Y60.4824 
G01 X-0.9187 Y60.3173 
G01 X-1.0591 Y60.1769 
G01 X-1.2242 Y60.0665 
G01 X-1.4077 Y59.9905 
G01 X-1.6025 Y59.9518 
G00 Z2.0000 
G00 X-19.2962 Y57.0632 
G01 Z-0.1000 F254.00 
G01 X-19.2962 Y57.2368 F508.00 
G01 X-19.2623 Y57.4070 
G01 X-19.1959 Y57.5674 
G01 X-19.0995 Y57.7117 
G01 X-18.9767 Y57.8345 
G01 X-18.8324 Y57.9309 
G01 X-18.6720 Y57.9973 
G01 X-18.5018 Y58.0312 
G01 X-18.3282 Y58.0312 
G01 X-18.1580 Y57.9973 
G01 X-17.9976 Y57.9309 
G01 X-17.8533 Y57.8345 
G01 X-17.7305 Y57.7117 
G01 X-17.6341 Y57.5674 
G01 X-17.5677 Y57.4070 
G01 X-17.5338 Y57.2368 
G01 X-17.5338 Y57.0632 
G01 X-17.5677 Y56.8930 
G01 X-17.6341 Y56.7326 
G01 X-17.7305 Y56.5883 
G01 X-17.8533 Y56.4655 
G01 X-17.9976 Y56.3691 
G01 X-18.1580 Y56.3027 
G01 X-18.3282 Y56.2688 
G01 X-18.5018 Y56.2688 
G01 X-18.6720 Y56.3027 
G01 X-18.7235 Y56.3240 
G01 X-19.2439 Y55.8035 
G01 X-19.3035 Y55.7439 
G01 X-19.3765 Y55.7018 
G01 X-19.4579 Y55.6800 
G01 X-33.3674 Y55.6800 
G01 X-35.7439 Y53.3035 
G01 X-35.8035 Y53.2439 
G01 X-35.8765 Y53.2018 
G01 X-35.9579 Y53.1800 
G01 X-40.9399 Y53.1800 
G01 X-40.9399 Y52.9382 
G01 X-41.5082 Y52.3699 
G01 X-42.3118 Y52.3699 
G01 X-42.8801 Y52.9382 
G01 X-42.8801 Y53.7418 
G01 X-42.3118 Y54.3101 
G01 X-41.5082 Y54.3101 
G01 X-41.0181 Y53.8200 
G01 X-36.1325 Y53.8200 
G01 X-33.7561 Y56.1965 
G01 X-33.6965 Y56.2561 
G01 X-33.1817 Y56.7708 
G01 X-33.2323 Y56.8930 
G01 X-33.2662 Y57.0632 
G01 X-33.2662 Y57.2368 
G01 X-33.2323 Y57.4070 
G01 X-33.1659 Y57.5674 
G01 X-33.0695 Y57.7117 
G01 X-32.9467 Y57.8345 
G01 X-32.8024 Y57.9309 
G01 X-32.6420 Y57.9973 
G01 X-32.4718 Y58.0312 
G01 X-32.2982 Y58.0312 
G01 X-32.1280 Y57.9973 
G01 X-31.9676 Y57.9309 
G01 X-31.8233 Y57.8345 
G01 X-31.7005 Y57.7117 
G01 X-31.6041 Y57.5674 
G01 X-31.5377 Y57.4070 
G01 X-31.5038 Y57.2368 
G01 X-31.5038 Y57.0632 
G01 X-31.5377 Y56.8930 
G01 X-31.6041 Y56.7326 
G01 X-31.7005 Y56.5883 
G01 X-31.8233 Y56.4655 
G01 X-31.9676 Y56.3691 
G01 X-32.0861 Y56.3200 
G01 X-30.1439 Y56.3200 
G01 X-30.2624 Y56.3691 
G01 X-30.4067 Y56.4655 
G01 X-30.5295 Y56.5883 
G01 X-30.6259 Y56.7326 
G01 X-30.6923 Y56.8930 
G01 X-30.7262 Y57.0632 
G01 X-30.7262 Y57.2368 
G01 X-30.6923 Y57.4070 
G01 X-30.6259 Y57.5674 
G01 X-30.5295 Y57.7117 
G01 X-30.4067 Y57.8345 
G01 X-30.2624 Y57.9309 
G01 X-30.1020 Y57.9973 
G01 X-29.9318 Y58.0312 
G01 X-29.7582 Y58.0312 
G01 X-29.5880 Y57.9973 
G01 X-29.4941 Y57.9585 
G01 X-28.7561 Y58.6965 
G01 X-28.6965 Y58.7561 
G01 X-28.6235 Y58.7982 
G01 X-28.5421 Y58.8200 
G01 X-19.8281 Y58.8200 
G01 X-19.9420 Y58.8427 
G01 X-20.1024 Y58.9091 
G01 X-20.2467 Y59.0055 
G01 X-20.3695 Y59.1283 
G01 X-20.4040 Y59.1800 
G01 X-28.3675 Y59.1800 
G01 X-29.3035 Y58.2439 
G01 X-29.3765 Y58.2018 
G01 X-29.4579 Y58.1800 
G01 X-32.5421 Y58.1800 
G01 X-32.6235 Y58.2018 
G01 X-32.6965 Y58.2439 
G01 X-32.7561 Y58.3035 
G01 X-33.3253 Y58.8728 
G01 X-33.3980 Y58.8427 
G01 X-33.5682 Y58.8088 
G01 X-33.7418 Y58.8088 
G01 X-33.9120 Y58.8427 
G01 X-33.9423 Y58.8552 
G01 X-36.9939 Y55.8035 
G01 X-37.0535 Y55.7439 
G01 X-37.1265 Y55.7018 
G01 X-37.2079 Y55.6800 
G01 X-40.9399 Y55.6800 
G01 X-40.9399 Y55.4782 
G01 X-41.5082 Y54.9099 
G01 X-42.3118 Y54.9099 
G01 X-42.8801 Y55.4782 
G01 X-42.8801 Y56.2818 
G01 X-42.3118 Y56.8501 
G01 X-41.5082 Y56.8501 
G01 X-40.9781 Y56.3200 
G01 X-37.3825 Y56.3200 
G01 X-34.4335 Y59.2690 
G01 X-34.4359 Y59.2726 
G01 X-34.5023 Y59.4330 
G01 X-34.5362 Y59.6032 
G01 X-34.5362 Y59.7768 
G01 X-34.5023 Y59.9470 
G01 X-34.4359 Y60.1074 
G01 X-34.3395 Y60.2517 
G01 X-34.2167 Y60.3745 
G01 X-34.0724 Y60.4709 
G01 X-33.9120 Y60.5373 
G01 X-33.7418 Y60.5712 
G01 X-33.5682 Y60.5712 
G01 X-33.3980 Y60.5373 
G01 X-33.2376 Y60.4709 
G01 X-33.0933 Y60.3745 
G01 X-32.9705 Y60.2517 
G01 X-32.8741 Y60.1074 
G01 X-32.8077 Y59.9470 
G01 X-32.7738 Y59.7768 
G01 X-32.7738 Y59.6032 
G01 X-32.8077 Y59.4330 
G01 X-32.8583 Y59.3108 
G01 X-32.3674 Y58.8200 
G01 X-31.2581 Y58.8200 
G01 X-31.3720 Y58.8427 
G01 X-31.5324 Y58.9091 
G01 X-31.6767 Y59.0055 
G01 X-31.7995 Y59.1283 
G01 X-31.8959 Y59.2726 
G01 X-31.9623 Y59.4330 
G01 X-31.9962 Y59.6032 
G01 X-31.9962 Y59.7768 
G01 X-31.9623 Y59.9470 
G01 X-31.8959 Y60.1074 
G01 X-31.7995 Y60.2517 
G01 X-31.6767 Y60.3745 
G01 X-31.5324 Y60.4709 
G01 X-31.3720 Y60.5373 
G01 X-31.2018 Y60.5712 
G01 X-31.0282 Y60.5712 
G01 X-30.8580 Y60.5373 
G01 X-30.7217 Y60.4809 
G01 X-29.9465 Y61.2561 
G01 X-29.8735 Y61.2982 
G01 X-29.7921 Y61.3200 
G01 X-18.4579 Y61.3200 
G01 X-18.3765 Y61.2982 
G01 X-18.3035 Y61.2561 
G01 X-18.2439 Y61.1965 
G01 X-17.5313 Y60.4838 
G01 X-17.4020 Y60.5373 
G01 X-17.2318 Y60.5712 
G01 X-17.0582 Y60.5712 
G01 X-16.8880 Y60.5373 
G01 X-16.7276 Y60.4709 
G01 X-16.5833 Y60.3745 
G01 X-16.4605 Y60.2517 
G01 X-16.3641 Y60.1074 
G01 X-16.2977 Y59.9470 
G01 X-16.2638 Y59.7768 
G01 X-16.2638 Y59.6032 
G01 X-16.2977 Y59.4330 
G01 X-16.3641 Y59.2726 
G01 X-16.4605 Y59.1283 
G01 X-16.5833 Y59.0055 
G01 X-16.7276 Y58.9091 
G01 X-16.8880 Y58.8427 
G01 X-17.0582 Y58.8088 
G01 X-17.1661 Y58.8088 
G01 X-17.1265 Y58.7982 
G01 X-17.0535 Y58.7561 
G01 X-16.2471 Y57.9497 
G01 X-16.1320 Y57.9973 
G01 X-15.9618 Y58.0312 
G01 X-15.7882 Y58.0312 
G01 X-15.6180 Y57.9973 
G01 X-15.4576 Y57.9309 
G01 X-15.3133 Y57.8345 
G01 X-15.1905 Y57.7117 
G01 X-15.0941 Y57.5674 
G01 X-15.0277 Y57.4070 
G01 X-14.9938 Y57.2368 
G01 X-14.9938 Y57.0632 
G01 X-15.0277 Y56.8930 
G01 X-15.0941 Y56.7326 
G01 X-15.1905 Y56.5883 
G01 X-15.3133 Y56.4655 
G01 X-15.4576 Y56.3691 
G01 X-15.6180 Y56.3027 
G01 X-15.7882 Y56.2688 
G01 X-15.9618 Y56.2688 
G01 X-16.1320 Y56.3027 
G01 X-16.2924 Y56.3691 
G01 X-16.4367 Y56.4655 
G01 X-16.5595 Y56.5883 
G01 X-16.6559 Y56.7326 
G01 X-16.7223 Y56.8930 
G01 X-16.7562 Y57.0632 
G01 X-16.7562 Y57.2368 
G01 X-16.7223 Y57.4070 
G01 X-16.6893 Y57.4868 
G01 X-17.3825 Y58.1800 
G01 X-28.3675 Y58.1800 
G01 X-29.0395 Y57.5080 
G01 X-28.9977 Y57.4070 
G01 X-28.9638 Y57.2368 
G01 X-28.9638 Y57.0632 
G01 X-28.9977 Y56.8930 
G01 X-29.0641 Y56.7326 
G01 X-29.1605 Y56.5883 
G01 X-29.2833 Y56.4655 
G01 X-29.4276 Y56.3691 
G01 X-29.5461 Y56.3200 
G01 X-19.6325 Y56.3200 
G01 X-19.2029 Y56.7496 
G01 X-19.2623 Y56.8930 
G01 X-19.2962 Y57.0632 
G00 Z2.0000 
G00 X-43.3825 Y49.8200 
G01 Z-0.1000 F254.00 
G01 X-42.8422 Y50.3603 F508.00 
G01 X-42.8801 Y50.3982 
G01 X-42.8801 Y51.2018 
G01 X-42.3118 Y51.7701 
G01 X-41.5082 Y51.7701 
G01 X-40.9399 Y51.2018 
G01 X-40.9399 Y50.3982 
G01 X-41.5082 Y49.8299 
G01 X-42.3118 Y49.8299 
G01 X-42.3897 Y49.9078 
G01 X-43.0535 Y49.2439 
G01 X-43.1265 Y49.2018 
G01 X-43.2079 Y49.1800 
G01 X-51.1487 Y49.1800 
G01 X-51.2234 Y49.0678 
G01 X-51.3178 Y48.9734 
G01 X-51.4288 Y48.8992 
G01 X-51.5522 Y48.8481 
G01 X-51.6832 Y48.8220 
G01 X-51.8168 Y48.8220 
G01 X-51.9478 Y48.8481 
G01 X-52.0712 Y48.8992 
G01 X-52.1822 Y48.9734 
G01 X-52.2766 Y49.0678 
G01 X-52.3508 Y49.1788 
G01 X-52.4019 Y49.3022 
G01 X-52.4280 Y49.4332 
G01 X-52.4280 Y49.5668 
G01 X-52.4019 Y49.6978 
G01 X-52.3508 Y49.8212 
G01 X-52.2766 Y49.9322 
G01 X-52.1822 Y50.0266 
G01 X-52.0712 Y50.1008 
G01 X-51.9478 Y50.1519 
G01 X-51.8168 Y50.1780 
G01 X-51.6832 Y50.1780 
G01 X-51.5522 Y50.1519 
G01 X-51.4288 Y50.1008 
G01 X-51.3178 Y50.0266 
G01 X-51.2234 Y49.9322 
G01 X-51.1492 Y49.8212 
G01 X-43.3825 Y49.8200 
G00 Z2.0000 
G00 X-31.9202 Y58.0195 
G01 Z-0.1000 F254.00 
G01 X-31.7595 Y57.9121 F508.00 
G01 X-31.6229 Y57.7755 
G01 X-31.5155 Y57.6148 
G01 X-31.4415 Y57.4362 
G01 X-31.4038 Y57.2466 
G01 X-31.4038 Y57.0534 
G01 X-31.4415 Y56.8638 
G01 X-31.5155 Y56.6852 
G01 X-31.6229 Y56.5245 
G01 X-31.7274 Y56.4200 
G01 X-30.5026 Y56.4200 
G01 X-30.6071 Y56.5245 
G01 X-30.7145 Y56.6852 
G01 X-30.7885 Y56.8638 
G01 X-30.8262 Y57.0534 
G01 X-30.8262 Y57.2466 
G01 X-30.7885 Y57.4362 
G01 X-30.7145 Y57.6148 
G01 X-30.6071 Y57.7755 
G01 X-30.4705 Y57.9121 
G01 X-30.3098 Y58.0195 
G01 X-30.1638 Y58.0800 
G01 X-32.0662 Y58.0800 
G01 X-31.9202 Y58.0195 
G00 Z2.0000 
G00 X-28.9015 Y57.4362 
G01 Z-0.1000 F254.00 
G01 X-28.8638 Y57.2466 F508.00 
G01 X-28.8638 Y57.0534 
G01 X-28.9015 Y56.8638 
G01 X-28.9755 Y56.6852 
G01 X-29.0829 Y56.5245 
G01 X-29.1874 Y56.4200 
G01 X-19.6740 Y56.4200 
G01 X-19.3209 Y56.7731 
G01 X-19.3585 Y56.8638 
G01 X-19.3962 Y57.0534 
G01 X-19.3962 Y57.2466 
G01 X-19.3585 Y57.4362 
G01 X-19.2845 Y57.6148 
G01 X-19.1771 Y57.7755 
G01 X-19.0405 Y57.9121 
G01 X-18.8798 Y58.0195 
G01 X-18.7338 Y58.0800 
G01 X-28.3260 Y58.0800 
G01 X-28.9215 Y57.4845 
G01 X-28.9015 Y57.4362 
G00 Z2.0000 
G00 X-17.7705 Y58.9278 
G01 Z-0.1000 F254.00 
G01 X-17.9071 Y59.0645 F508.00 
G01 X-18.0145 Y59.2252 
G01 X-18.0885 Y59.4038 
G01 X-18.1262 Y59.5934 
G01 X-18.1262 Y59.7866 
G01 X-18.0885 Y59.9762 
G01 X-18.0831 Y59.9892 
G01 X-18.6740 Y60.5800 
G01 X-19.2697 Y60.5800 
G01 X-19.2202 Y60.5595 
G01 X-19.0595 Y60.4521 
G01 X-18.9229 Y60.3155 
G01 X-18.8155 Y60.1548 
G01 X-18.7415 Y59.9762 
G01 X-18.7038 Y59.7866 
G01 X-18.7038 Y59.5934 
G01 X-18.7415 Y59.4038 
G01 X-18.8155 Y59.2252 
G01 X-18.9229 Y59.0645 
G01 X-19.0595 Y58.9278 
G01 X-19.0713 Y58.9200 
G01 X-17.7587 Y58.9200 
G01 X-17.7705 Y58.9278 
G00 Z2.0000 
G00 X-20.3105 Y58.9278 
G01 Z-0.1000 F254.00 
G01 X-20.4471 Y59.0645 F508.00 
G01 X-20.4575 Y59.0800 
G01 X-28.3260 Y59.0800 
G01 X-28.4860 Y58.9200 
G01 X-20.2987 Y58.9200 
G01 X-20.3105 Y58.9278 
G00 Z2.0000 
G00 X-29.5262 Y58.0800 
G01 Z-0.1000 F254.00 
G01 X-29.5176 Y58.0764 F508.00 
G01 X-29.5140 Y58.0800 
G01 X-29.5262 Y58.0800 
G00 Z2.0000 
G00 X-20.6285 Y59.9762 
G01 Z-0.1000 F254.00 
G01 X-20.5545 Y60.1548 F508.00 
G01 X-20.4471 Y60.3155 
G01 X-20.3105 Y60.4521 
G01 X-20.1498 Y60.5595 
G01 X-20.1003 Y60.5800 
G01 X-29.5760 Y60.5800 
G01 X-30.1739 Y59.9821 
G01 X-30.1715 Y59.9762 
G01 X-30.1338 Y59.7866 
G01 X-30.1338 Y59.5934 
G01 X-30.1715 Y59.4038 
G01 X-30.2455 Y59.2252 
G01 X-30.3529 Y59.0645 
G01 X-30.4895 Y58.9278 
G01 X-30.5013 Y58.9200 
G01 X-29.6740 Y58.9200 
G01 X-28.8361 Y59.7579 
G01 X-28.7579 Y59.8361 
G01 X-28.6621 Y59.8914 
G01 X-28.5553 Y59.9200 
G01 X-20.6397 Y59.9200 
G01 X-20.6285 Y59.9762 
G00 Z2.0000 
G00 X-97.6280 Y3.6764 
G01 Z-0.1000 F254.00 
G01 X-97.6280 Y3.9435 F508.00 
G01 X-97.5981 Y4.2090 
G01 X-97.5387 Y4.4694 
G01 X-97.4504 Y4.7215 
G01 X-97.3346 Y4.9621 
G01 X-97.1925 Y5.1882 
G01 X-97.0259 Y5.3971 
G01 X-96.8371 Y5.5859 
G01 X-96.6282 Y5.7525 
G01 X-96.4021 Y5.8946 
G01 X-96.1615 Y6.0104 
G01 X-95.9094 Y6.0987 
G01 X-95.6490 Y6.1581 
G01 X-95.3835 Y6.1880 
G01 X-95.1165 Y6.1880 
G01 X-94.8510 Y6.1581 
G01 X-94.5906 Y6.0987 
G01 X-94.3385 Y6.0104 
G01 X-94.0979 Y5.8946 
G01 X-93.8718 Y5.7525 
G01 X-93.6629 Y5.5859 
G01 X-93.4741 Y5.3971 
G01 X-93.3075 Y5.1882 
G01 X-93.1654 Y4.9621 
G01 X-93.0496 Y4.7215 
G01 X-92.9613 Y4.4694 
G01 X-92.9019 Y4.2090 
G01 X-92.8720 Y3.9435 
G01 X-92.8720 Y3.6764 
G01 X-92.9019 Y3.4110 
G01 X-92.9613 Y3.1506 
G01 X-93.0496 Y2.8985 
G01 X-93.1654 Y2.6579 
G01 X-93.3075 Y2.4318 
G01 X-93.4741 Y2.2229 
G01 X-93.6629 Y2.0341 
G01 X-93.8718 Y1.8675 
G01 X-94.0979 Y1.7254 
G01 X-94.3385 Y1.6096 
G01 X-94.5906 Y1.5213 
G01 X-94.8510 Y1.4619 
G01 X-95.1165 Y1.4320 
G01 X-95.3835 Y1.4320 
G01 X-95.6490 Y1.4619 
G01 X-95.9094 Y1.5213 
G01 X-96.1615 Y1.6096 
G01 X-96.4021 Y1.7254 
G01 X-96.6282 Y1.8675 
G01 X-96.8371 Y2.0341 
G01 X-97.0259 Y2.2229 
G01 X-97.1925 Y2.4318 
G01 X-97.3346 Y2.6579 
G01 X-97.4504 Y2.8985 
G01 X-97.5387 Y3.1506 
G01 X-97.5981 Y3.4110 
G01 X-97.6280 Y3.6764 
G00 Z2.0000 
G00 X-97.6280 Y65.9065 
G01 Z-0.1000 F254.00 
G01 X-97.6280 Y66.1735 F508.00 
G01 X-97.5981 Y66.4390 
G01 X-97.5387 Y66.6994 
G01 X-97.4504 Y66.9515 
G01 X-97.3346 Y67.1921 
G01 X-97.1925 Y67.4182 
G01 X-97.0259 Y67.6271 
G01 X-96.8371 Y67.8159 
G01 X-96.6282 Y67.9825 
G01 X-96.4021 Y68.1246 
G01 X-96.1615 Y68.2404 
G01 X-95.9094 Y68.3287 
G01 X-95.6490 Y68.3881 
G01 X-95.3835 Y68.4180 
G01 X-95.1165 Y68.4180 
G01 X-94.8510 Y68.3881 
G01 X-94.5906 Y68.3287 
G01 X-94.3385 Y68.2404 
G01 X-94.0979 Y68.1246 
G01 X-93.8718 Y67.9825 
G01 X-93.6629 Y67.8159 
G01 X-93.4741 Y67.6271 
G01 X-93.3075 Y67.4182 
G01 X-93.1654 Y67.1921 
G01 X-93.0496 Y66.9515 
G01 X-92.9613 Y66.6994 
G01 X-92.9019 Y66.4390 
G01 X-92.8720 Y66.1735 
G01 X-92.8720 Y65.9065 
G01 X-92.9019 Y65.6410 
G01 X-92.9613 Y65.3806 
G01 X-93.0496 Y65.1285 
G01 X-93.1654 Y64.8879 
G01 X-93.3075 Y64.6617 
G01 X-93.4741 Y64.4529 
G01 X-93.6629 Y64.2641 
G01 X-93.8718 Y64.0975 
G01 X-94.0979 Y63.9554 
G01 X-94.3385 Y63.8396 
G01 X-94.5906 Y63.7513 
G01 X-94.8510 Y63.6919 
G01 X-95.1165 Y63.6620 
G01 X-95.3835 Y63.6620 
G01 X-95.6490 Y63.6919 
G01 X-95.9094 Y63.7513 
G01 X-96.1615 Y63.8396 
G01 X-96.4021 Y63.9554 
G01 X-96.6282 Y64.0975 
G01 X-96.8371 Y64.2641 
G01 X-97.0259 Y64.4529 
G01 X-97.1925 Y64.6617 
G01 X-97.3346 Y64.8879 
G01 X-97.4504 Y65.1285 
G01 X-97.5387 Y65.3806 
G01 X-97.5981 Y65.6410 
G01 X-97.6280 Y65.9065 
G00 Z2.0000 
G00 X-6.1880 Y3.6764 
G01 Z-0.1000 F254.00 
G01 X-6.1880 Y3.9435 F508.00 
G01 X-6.1581 Y4.2090 
G01 X-6.0987 Y4.4694 
G01 X-6.0104 Y4.7215 
G01 X-5.8946 Y4.9621 
G01 X-5.7525 Y5.1882 
G01 X-5.5859 Y5.3971 
G01 X-5.3971 Y5.5859 
G01 X-5.1882 Y5.7525 
G01 X-4.9621 Y5.8946 
G01 X-4.7215 Y6.0104 
G01 X-4.4694 Y6.0987 
G01 X-4.2090 Y6.1581 
G01 X-3.9435 Y6.1880 
G01 X-3.6764 Y6.1880 
G01 X-3.4110 Y6.1581 
G01 X-3.1506 Y6.0987 
G01 X-2.8985 Y6.0104 
G01 X-2.6579 Y5.8946 
G01 X-2.4318 Y5.7525 
G01 X-2.2229 Y5.5859 
G01 X-2.0341 Y5.3971 
G01 X-1.8675 Y5.1882 
G01 X-1.7254 Y4.9621 
G01 X-1.6096 Y4.7215 
G01 X-1.5213 Y4.4694 
G01 X-1.4619 Y4.2090 
G01 X-1.4320 Y3.9435 
G01 X-1.4320 Y3.6764 
G01 X-1.4619 Y3.4110 
G01 X-1.5213 Y3.1506 
G01 X-1.6096 Y2.8985 
G01 X-1.7254 Y2.6579 
G01 X-1.8675 Y2.4318 
G01 X-2.0341 Y2.2229 
G01 X-2.2229 Y2.0341 
G01 X-2.4318 Y1.8675 
G01 X-2.6579 Y1.7254 
G01 X-2.8985 Y1.6096 
G01 X-3.1506 Y1.5213 
G01 X-3.4110 Y1.4619 
G01 X-3.6764 Y1.4320 
G01 X-3.9435 Y1.4320 
G01 X-4.2090 Y1.4619 
G01 X-4.4694 Y1.5213 
G01 X-4.7215 Y1.6096 
G01 X-4.9621 Y1.7254 
G01 X-5.1882 Y1.8675 
G01 X-5.3971 Y2.0341 
G01 X-5.5859 Y2.2229 
G01 X-5.7525 Y2.4318 
G01 X-5.8946 Y2.6579 
G01 X-6.0104 Y2.8985 
G01 X-6.0987 Y3.1506 
G01 X-6.1581 Y3.4110 
G01 X-6.1880 Y3.6764 
G00 Z2.0000 
G00 X-6.1880 Y65.9065 
G01 Z-0.1000 F254.00 
G01 X-6.1880 Y66.1735 F508.00 
G01 X-6.1581 Y66.4390 
G01 X-6.0987 Y66.6994 
G01 X-6.0104 Y66.9515 
G01 X-5.8946 Y67.1921 
G01 X-5.7525 Y67.4182 
G01 X-5.5859 Y67.6271 
G01 X-5.3971 Y67.8159 
G01 X-5.1882 Y67.9825 
G01 X-4.9621 Y68.1246 
G01 X-4.7215 Y68.2404 
G01 X-4.4694 Y68.3287 
G01 X-4.2090 Y68.3881 
G01 X-3.9435 Y68.4180 
G01 X-3.6764 Y68.4180 
G01 X-3.4110 Y68.3881 
G01 X-3.1506 Y68.3287 
G01 X-2.8985 Y68.2404 
G01 X-2.6579 Y68.1246 
G01 X-2.4318 Y67.9825 
G01 X-2.2229 Y67.8159 
G01 X-2.0341 Y67.6271 
G01 X-1.8675 Y67.4182 
G01 X-1.7254 Y67.1921 
G01 X-1.6096 Y66.9515 
G01 X-1.5213 Y66.6994 
G01 X-1.4619 Y66.4390 
G01 X-1.4320 Y66.1735 
G01 X-1.4320 Y65.9065 
G01 X-1.4619 Y65.6410 
G01 X-1.5213 Y65.3806 
G01 X-1.6096 Y65.1285 
G01 X-1.7254 Y64.8879 
G01 X-1.8675 Y64.6617 
G01 X-2.0341 Y64.4529 
G01 X-2.2229 Y64.2641 
G01 X-2.4318 Y64.0975 
G01 X-2.6579 Y63.9554 
G01 X-2.8985 Y63.8396 
G01 X-3.1506 Y63.7513 
G01 X-3.4110 Y63.6919 
G01 X-3.6764 Y63.6620 
G01 X-3.9435 Y63.6620 
G01 X-4.2090 Y63.6919 
G01 X-4.4694 Y63.7513 
G01 X-4.7215 Y63.8396 
G01 X-4.9621 Y63.9554 
G01 X-5.1882 Y64.0975 
G01 X-5.3971 Y64.2641 
G01 X-5.5859 Y64.4529 
G01 X-5.7525 Y64.6617 
G01 X-5.8946 Y64.8879 
G01 X-6.0104 Y65.1285 
G01 X-6.0987 Y65.3806 
G01 X-6.1581 Y65.6410 
G01 X-6.1880 Y65.9065 
G00 Z2.0000 
G00 X-50.6001 Y50.3568 
G01 Z-0.1000 F254.00 
G01 X-50.6001 Y51.2432 F508.00 
G01 X-49.9732 Y51.8701 
G01 X-49.0868 Y51.8701 
G01 X-48.4599 Y51.2432 
G01 X-48.4599 Y50.3568 
G01 X-48.8967 Y49.9200 
G01 X-43.4240 Y49.9200 
G01 X-42.9801 Y50.3639 
G01 X-42.9801 Y51.2432 
G01 X-42.3532 Y51.8701 
G01 X-41.4668 Y51.8701 
G01 X-40.8399 Y51.2432 
G01 X-40.8399 Y50.3568 
G01 X-41.4668 Y49.7299 
G01 X-42.3532 Y49.7299 
G01 X-42.3897 Y49.7663 
G01 X-42.9921 Y49.1639 
G01 X-43.0879 Y49.1086 
G01 X-43.1947 Y49.0800 
G01 X-51.0949 Y49.0800 
G01 X-51.1457 Y49.0041 
G01 X-51.2541 Y48.8957 
G01 X-51.3815 Y48.8105 
G01 X-51.5231 Y48.7519 
G01 X-51.6734 Y48.7220 
G01 X-51.8266 Y48.7220 
G01 X-51.9769 Y48.7519 
G01 X-52.1185 Y48.8105 
G01 X-52.2459 Y48.8957 
G01 X-52.3543 Y49.0041 
G01 X-52.4395 Y49.1315 
G01 X-52.4981 Y49.2731 
G01 X-52.5280 Y49.4234 
G01 X-52.5280 Y49.5766 
G01 X-52.4981 Y49.7269 
G01 X-52.4395 Y49.8685 
G01 X-52.3543 Y49.9959 
G01 X-52.2459 Y50.1043 
G01 X-52.1185 Y50.1895 
G01 X-51.9769 Y50.2481 
G01 X-51.8266 Y50.2780 
G01 X-51.6734 Y50.2780 
G01 X-51.5231 Y50.2481 
G01 X-51.3815 Y50.1895 
G01 X-51.2541 Y50.1043 
G01 X-51.1457 Y49.9959 
G01 X-51.0949 Y49.9200 
G01 X-50.1633 Y49.9200 
G01 X-50.6001 Y50.3568 
G00 Z2.0000 
G00 X-50.6001 Y52.8968 
G01 Z-0.1000 F254.00 
G01 X-50.6001 Y53.7832 F508.00 
G01 X-49.9732 Y54.4101 
G01 X-49.0868 Y54.4101 
G01 X-48.4599 Y53.7832 
G01 X-48.4599 Y52.8968 
G01 X-49.0868 Y52.2699 
G01 X-49.9732 Y52.2699 
