(.../pcb-gcode-3.6.0.4/pcb-gcode.ulp)
(Copyright 2005 - 2012 by John Johnson)
(See readme.txt for licensing terms.)
(This file generated from the board:)
(.../eagle/ARMEDBASE_V0/RTU/RTU.brd)
(Current profile is .../pcb-gcode-3.6.0.4/profiles/emc.pp  )
(This file generated 6/25/2014 4:48:55 PM)
(Settings from pcb-machine.h)
(  Tool Size)
(0.2000 )
(Z Axis Settings)
(  High     Up        Down     Drill)
(12.7000 	2.5400 	-0.1500 	-0.8128 )
(spindle on time = 3.0000)
(milling depth = -0.1500)
(text depth = -0.1270)
(tool change at 12.7000 15.2400 25.4000 )
(feed rate xy = F508.00 )
(feed rate z  = F254.00 )
(Settings from pcb-defaults.h)
(isolate min = 0.0154)
(isolate max = 0.5080)
(isolate step = 0.1270)
(Generated top outlines, top drill, bottom outlines, bottom drill, )
(Unit of measure: mm)
( Tool|       Size       |  Min Sub |  Max Sub |   Count )
( T01  3.200mm 0.1260in 0.0000in 0.0000in )
( T02  0.610mm 0.0240in 0.0000in 0.0000in )
( T03  0.813mm 0.0320in 0.0000in 0.0000in )
( T04  0.900mm 0.0354in 0.0000in 0.0000in )
( T05  1.016mm 0.0400in 0.0000in 0.0000in )
( T06  1.118mm 0.0440in 0.0000in 0.0000in )
(Metric Mode)
G21
(Absolute Coordinates)
G90
M05
G00 Z25.4000 
G00 X12.7000 Y15.2400 
M06 T01  ; 3.2000 
G01 Z0.0000 F254.00 
M06 T01  ; 3.2000 
G00 Z2.5400 
M03
G04 P3.000000
G00 Z2.540000
G00 X-35.5600 Y96.5200 
G01 Z-0.8128 F254.00 
G01 Z2.540000
(R2.5400  P1.000000)
(G00 Z2.540000)
G00 X-3.8100 Y3.8100 
G01 Z-0.812800
G01 Z2.540000
(G00 Z2.540000)
G00 X-3.8100 Y96.5200 
G01 Z-0.812800
G01 Z2.540000
(G00 Z2.540000)
G00 X-80.0100 Y3.8100 
G01 Z-0.812800
G01 Z2.540000
(G00 Z2.540000)
G00 X-80.0100 Y96.5200 
G01 Z-0.812800
G01 Z2.540000
(G00 Z2.540000)
G00 X-13.9700 Y96.5200 
G01 Z-0.812800
G01 Z2.540000
(G00 Z2.540000)
G00 X-21.5900 Y96.5200 
G01 Z-0.812800
G01 Z2.540000
(G00 Z2.540000)
G00 X-27.9400 Y96.5200 
G01 Z-0.812800
G01 Z2.540000
M05
G00 Z25.4000 
M06 T02  ; 0.6096 
G01 Z0.0000 F254.00 
M06 T02  ; 0.6096 
G00 Z2.5400 
M03
G04 P3.000000
G00 Z2.540000
G00 X-12.7000 Y69.8500 
G01 Z-0.8128 F254.00 
G01 Z2.540000
(R2.5400  P1.000000)
M05
G00 Z25.4000 
M06 T03  ; 0.8128 
G01 Z0.0000 F254.00 
M06 T03  ; 0.8128 
G00 Z2.5400 
M03
G04 P3.000000
G00 Z2.540000
G00 X-41.9100 Y81.2800 
G01 Z-0.8128 F254.00 
G01 Z2.540000
(R2.5400  P1.000000)
(G00 Z2.540000)
G00 X-41.9100 Y83.8200 
G01 Z-0.812800
G01 Z2.540000
(G00 Z2.540000)
G00 X-41.9100 Y86.3600 
G01 Z-0.812800
G01 Z2.540000
(G00 Z2.540000)
G00 X-41.9100 Y88.9000 
G01 Z-0.812800
G01 Z2.540000
(G00 Z2.540000)
G00 X-43.1800 Y35.5600 
G01 Z-0.812800
G01 Z2.540000
(G00 Z2.540000)
G00 X-43.1800 Y38.1000 
G01 Z-0.812800
G01 Z2.540000
(G00 Z2.540000)
G00 X-43.1800 Y40.6400 
G01 Z-0.812800
G01 Z2.540000
(G00 Z2.540000)
G00 X-43.1800 Y43.1800 
G01 Z-0.812800
G01 Z2.540000
(G00 Z2.540000)
G00 X-43.1800 Y45.7200 
G01 Z-0.812800
G01 Z2.540000
(G00 Z2.540000)
G00 X-43.1800 Y48.2600 
G01 Z-0.812800
G01 Z2.540000
(G00 Z2.540000)
G00 X-43.1800 Y50.8000 
G01 Z-0.812800
G01 Z2.540000
(G00 Z2.540000)
G00 X-43.1800 Y53.3400 
G01 Z-0.812800
G01 Z2.540000
(G00 Z2.540000)
G00 X-43.1800 Y55.8800 
G01 Z-0.812800
G01 Z2.540000
(G00 Z2.540000)
G00 X-43.1800 Y58.4200 
G01 Z-0.812800
G01 Z2.540000
(G00 Z2.540000)
G00 X-43.1800 Y60.9600 
G01 Z-0.812800
G01 Z2.540000
(G00 Z2.540000)
G00 X-43.1800 Y63.5000 
G01 Z-0.812800
G01 Z2.540000
(G00 Z2.540000)
G00 X-43.1800 Y66.0400 
G01 Z-0.812800
G01 Z2.540000
(G00 Z2.540000)
G00 X-43.1800 Y68.5800 
G01 Z-0.812800
G01 Z2.540000
(G00 Z2.540000)
G00 X-49.5300 Y81.2800 
G01 Z-0.812800
G01 Z2.540000
(G00 Z2.540000)
G00 X-49.5300 Y83.8200 
G01 Z-0.812800
G01 Z2.540000
(G00 Z2.540000)
G00 X-49.5300 Y86.3600 
G01 Z-0.812800
G01 Z2.540000
(G00 Z2.540000)
G00 X-49.5300 Y88.9000 
G01 Z-0.812800
G01 Z2.540000
(G00 Z2.540000)
G00 X-50.8000 Y35.5600 
G01 Z-0.812800
G01 Z2.540000
(G00 Z2.540000)
G00 X-50.8000 Y38.1000 
G01 Z-0.812800
G01 Z2.540000
(G00 Z2.540000)
G00 X-50.8000 Y40.6400 
G01 Z-0.812800
G01 Z2.540000
(G00 Z2.540000)
G00 X-50.8000 Y43.1800 
G01 Z-0.812800
G01 Z2.540000
(G00 Z2.540000)
G00 X-50.8000 Y45.7200 
G01 Z-0.812800
G01 Z2.540000
(G00 Z2.540000)
G00 X-50.8000 Y48.2600 
G01 Z-0.812800
G01 Z2.540000
(G00 Z2.540000)
G00 X-50.8000 Y50.8000 
G01 Z-0.812800
G01 Z2.540000
(G00 Z2.540000)
G00 X-50.8000 Y53.3400 
G01 Z-0.812800
G01 Z2.540000
(G00 Z2.540000)
G00 X-50.8000 Y55.8800 
G01 Z-0.812800
G01 Z2.540000
(G00 Z2.540000)
G00 X-50.8000 Y58.4200 
G01 Z-0.812800
G01 Z2.540000
(G00 Z2.540000)
G00 X-50.8000 Y60.9600 
G01 Z-0.812800
G01 Z2.540000
(G00 Z2.540000)
G00 X-50.8000 Y63.5000 
G01 Z-0.812800
G01 Z2.540000
(G00 Z2.540000)
G00 X-50.8000 Y66.0400 
G01 Z-0.812800
G01 Z2.540000
(G00 Z2.540000)
G00 X-50.8000 Y68.5800 
G01 Z-0.812800
G01 Z2.540000
M05
G00 Z25.4000 
M06 T04  ; 0.9000 
G01 Z0.0000 F254.00 
M06 T04  ; 0.9000 
G00 Z2.5400 
M03
G04 P3.000000
G00 Z2.540000
G00 X-32.3850 Y87.6300 
G01 Z-0.8128 F254.00 
G01 Z2.540000
(R2.5400  P1.000000)
(G00 Z2.540000)
G00 X-33.6550 Y90.1700 
G01 Z-0.812800
G01 Z2.540000
(G00 Z2.540000)
G00 X-15.8750 Y87.6300 
G01 Z-0.812800
G01 Z2.540000
(G00 Z2.540000)
G00 X-17.1450 Y90.1700 
G01 Z-0.812800
G01 Z2.540000
(G00 Z2.540000)
G00 X-18.4150 Y87.6300 
G01 Z-0.812800
G01 Z2.540000
(G00 Z2.540000)
G00 X-19.6850 Y90.1700 
G01 Z-0.812800
G01 Z2.540000
(G00 Z2.540000)
G00 X-29.8450 Y87.6300 
G01 Z-0.812800
G01 Z2.540000
(G00 Z2.540000)
G00 X-31.1150 Y90.1700 
G01 Z-0.812800
G01 Z2.540000
M05
G00 Z25.4000 
M06 T05  ; 1.0160 
G01 Z0.0000 F254.00 
M06 T05  ; 1.0160 
G00 Z2.5400 
M03
G04 P3.000000
G00 Z2.540000
G00 X-9.6012 Y75.2094 
G01 Z-0.8128 F254.00 
G01 Z2.540000
(R2.5400  P1.000000)
(G00 Z2.540000)
G00 X-9.6012 Y79.7306 
G01 Z-0.812800
G01 Z2.540000
(G00 Z2.540000)
G00 X-3.0988 Y75.2094 
G01 Z-0.812800
G01 Z2.540000
(G00 Z2.540000)
G00 X-3.0988 Y79.7306 
G01 Z-0.812800
G01 Z2.540000
M05
G00 Z25.4000 
M06 T06  ; 1.1176 
G01 Z0.0000 F254.00 
M06 T06  ; 1.1176 
G00 Z2.5400 
M03
G04 P3.000000
G00 Z2.540000
G00 X-2.5400 Y83.8200 
G01 Z-0.8128 F254.00 
G01 Z2.540000
(R2.5400  P1.000000)
(G00 Z2.540000)
G00 X-2.5400 Y87.6300 
G01 Z-0.812800
G01 Z2.540000
(G00 Z2.540000)
G00 X-2.5400 Y91.4400 
G01 Z-0.812800
G01 Z2.540000
T01 
G00 Z12.7000 
M05
M02
