(.../pcb-gcode-3.6.0.4/pcb-gcode.ulp)
(Copyright 2005 - 2012 by John Johnson)
(See readme.txt for licensing terms.)
(This file generated from the board:)
(.../eagle/ARMEDBASE_V0/RTU/RTU.brd)
(Current profile is .../pcb-gcode-3.6.0.4/profiles/emc.pp  )
(This file generated 6/20/2014 3:44:33 PM)
(Settings from pcb-machine.h)
(  Tool Size)
(0.2000 )
(Z Axis Settings)
(  High     Up        Down     Drill)
(12.7000 	2.5400 	-0.1500 	-0.8128 )
(spindle on time = 3.0000)
(milling depth = -0.1500)
(text depth = -0.1270)
(tool change at 12.7000 15.2400 25.4000 )
(feed rate xy = F508.00 )
(feed rate z  = F254.00 )
(Settings from pcb-defaults.h)
(isolate min = 0.0154)
(isolate max = 0.5080)
(isolate step = 0.1270)
(Generated top outlines, top drill, bottom outlines, bottom drill, )
(Unit of measure: mm)
(Metric Mode)
G21
(Absolute Coordinates)
G90
G00 X0.0000 Y0.0000 
M03
G04 P3.000000
G00 Z2.5400 
G00 X80.9634 Y3.6643 
G01 Z-0.1500 F254.00 
G01 X80.9634 Y3.9557 F508.00 
G01 X80.9254 Y4.2447 
G01 X80.8499 Y4.5262 
G01 X80.7384 Y4.7955 
G01 X80.5927 Y5.0479 
G01 X80.4152 Y5.2791 
G01 X80.2091 Y5.4852 
G01 X79.9779 Y5.6627 
G01 X79.7255 Y5.8084 
G01 X79.4562 Y5.9199 
G01 X79.1747 Y5.9954 
G01 X78.8857 Y6.0334 
G01 X78.5943 Y6.0334 
G01 X78.3053 Y5.9954 
G01 X78.0238 Y5.9199 
G01 X77.7545 Y5.8084 
G01 X77.5021 Y5.6627 
G01 X77.2709 Y5.4852 
G01 X77.0648 Y5.2791 
G01 X76.8873 Y5.0479 
G01 X76.7416 Y4.7955 
G01 X76.6301 Y4.5262 
G01 X76.5546 Y4.2447 
G01 X76.5166 Y3.9557 
G01 X76.5166 Y3.6643 
G01 X76.5546 Y3.3753 
G01 X76.6301 Y3.0938 
G01 X76.7416 Y2.8245 
G01 X76.8873 Y2.5721 
G01 X77.0648 Y2.3409 
G01 X77.2709 Y2.1348 
G01 X77.5021 Y1.9573 
G01 X77.7545 Y1.8116 
G01 X78.0238 Y1.7001 
G01 X78.3053 Y1.6246 
G01 X78.5943 Y1.5866 
G01 X78.8857 Y1.5866 
G01 X79.1747 Y1.6246 
G01 X79.4562 Y1.7001 
G01 X79.7255 Y1.8116 
G01 X79.9779 Y1.9573 
G01 X80.2091 Y2.1348 
G01 X80.4152 Y2.3409 
G01 X80.5927 Y2.5721 
G01 X80.7384 Y2.8245 
G01 X80.8499 Y3.0938 
G01 X80.9254 Y3.3753 
G01 X80.9634 Y3.6643 
G00 Z2.5400 
G00 X79.6934 Y96.3743 
G01 Z-0.1500 F254.00 
G01 X79.6934 Y96.6657 F508.00 
G01 X79.6554 Y96.9547 
G01 X79.5799 Y97.2362 
G01 X79.4684 Y97.5055 
G01 X79.3227 Y97.7579 
G01 X79.1452 Y97.9891 
G01 X78.9391 Y98.1952 
G01 X78.7079 Y98.3727 
G01 X78.4555 Y98.5184 
G01 X78.1862 Y98.6299 
G01 X77.9047 Y98.7054 
G01 X77.6157 Y98.7434 
G01 X77.3243 Y98.7434 
G01 X77.0353 Y98.7054 
G01 X76.7538 Y98.6299 
G01 X76.4845 Y98.5184 
G01 X76.2321 Y98.3727 
G01 X76.0009 Y98.1952 
G01 X75.7948 Y97.9891 
G01 X75.6173 Y97.7579 
G01 X75.4716 Y97.5055 
G01 X75.3601 Y97.2362 
G01 X75.2846 Y96.9547 
G01 X75.2466 Y96.6657 
G01 X75.2466 Y96.3743 
G01 X75.2846 Y96.0853 
G01 X75.3601 Y95.8038 
G01 X75.4716 Y95.5345 
G01 X75.6173 Y95.2821 
G01 X75.7948 Y95.0509 
G01 X76.0009 Y94.8448 
G01 X76.2321 Y94.6673 
G01 X76.4845 Y94.5216 
G01 X76.7538 Y94.4101 
G01 X77.0353 Y94.3346 
G01 X77.3243 Y94.2966 
G01 X77.6157 Y94.2966 
G01 X77.9047 Y94.3346 
G01 X78.1862 Y94.4101 
G01 X78.4555 Y94.5216 
G01 X78.7079 Y94.6673 
G01 X78.9391 Y94.8448 
G01 X79.1452 Y95.0509 
G01 X79.3227 Y95.2821 
G01 X79.4684 Y95.5345 
G01 X79.5799 Y95.8038 
G01 X79.6554 Y96.0853 
G01 X79.6934 Y96.3743 
G00 Z2.5400 
G00 X6.0334 Y3.6643 
G01 Z-0.1500 F254.00 
G01 X6.0334 Y3.9557 F508.00 
G01 X5.9954 Y4.2447 
G01 X5.9199 Y4.5262 
G01 X5.8084 Y4.7955 
G01 X5.6627 Y5.0479 
G01 X5.4852 Y5.2791 
G01 X5.2791 Y5.4852 
G01 X5.0479 Y5.6627 
G01 X4.7955 Y5.8084 
G01 X4.5262 Y5.9199 
G01 X4.2447 Y5.9954 
G01 X3.9557 Y6.0334 
G01 X3.6643 Y6.0334 
G01 X3.3753 Y5.9954 
G01 X3.0938 Y5.9199 
G01 X2.8245 Y5.8084 
G01 X2.5721 Y5.6627 
G01 X2.3409 Y5.4852 
G01 X2.1348 Y5.2791 
G01 X1.9573 Y5.0479 
G01 X1.8116 Y4.7955 
G01 X1.7001 Y4.5262 
G01 X1.6246 Y4.2447 
G01 X1.5866 Y3.9557 
G01 X1.5866 Y3.6643 
G01 X1.6246 Y3.3753 
G01 X1.7001 Y3.0938 
G01 X1.8116 Y2.8245 
G01 X1.9573 Y2.5721 
G01 X2.1348 Y2.3409 
G01 X2.3409 Y2.1348 
G01 X2.5721 Y1.9573 
G01 X2.8245 Y1.8116 
G01 X3.0938 Y1.7001 
G01 X3.3753 Y1.6246 
G01 X3.6643 Y1.5866 
G01 X3.9557 Y1.5866 
G01 X4.2447 Y1.6246 
G01 X4.5262 Y1.7001 
G01 X4.7955 Y1.8116 
G01 X5.0479 Y1.9573 
G01 X5.2791 Y2.1348 
G01 X5.4852 Y2.3409 
G01 X5.6627 Y2.5721 
G01 X5.8084 Y2.8245 
G01 X5.9199 Y3.0938 
G01 X5.9954 Y3.3753 
G01 X6.0334 Y3.6643 
G00 Z2.5400 
G00 X6.0334 Y96.3743 
G01 Z-0.1500 F254.00 
G01 X6.0334 Y96.6657 F508.00 
G01 X5.9954 Y96.9547 
G01 X5.9199 Y97.2362 
G01 X5.8084 Y97.5055 
G01 X5.6627 Y97.7579 
G01 X5.4852 Y97.9891 
G01 X5.2791 Y98.1952 
G01 X5.0479 Y98.3727 
G01 X4.7955 Y98.5184 
G01 X4.5262 Y98.6299 
G01 X4.2447 Y98.7054 
G01 X3.9557 Y98.7434 
G01 X3.6643 Y98.7434 
G01 X3.3753 Y98.7054 
G01 X3.0938 Y98.6299 
G01 X2.8245 Y98.5184 
G01 X2.5721 Y98.3727 
G01 X2.3409 Y98.1952 
G01 X2.1348 Y97.9891 
G01 X1.9573 Y97.7579 
G01 X1.8116 Y97.5055 
G01 X1.7001 Y97.2362 
G01 X1.6246 Y96.9547 
G01 X1.5866 Y96.6657 
G01 X1.5866 Y96.3743 
G01 X1.6246 Y96.0853 
G01 X1.7001 Y95.8038 
G01 X1.8116 Y95.5345 
G01 X1.9573 Y95.2821 
G01 X2.1348 Y95.0509 
G01 X2.3409 Y94.8448 
G01 X2.5721 Y94.6673 
G01 X2.8245 Y94.5216 
G01 X3.0938 Y94.4101 
G01 X3.3753 Y94.3346 
G01 X3.6643 Y94.2966 
G01 X3.9557 Y94.2966 
G01 X4.2447 Y94.3346 
G01 X4.5262 Y94.4101 
G01 X4.7955 Y94.5216 
G01 X5.0479 Y94.6673 
G01 X5.2791 Y94.8448 
G01 X5.4852 Y95.0509 
G01 X5.6627 Y95.2821 
G01 X5.8084 Y95.5345 
G01 X5.9199 Y95.8038 
G01 X5.9954 Y96.0853 
G01 X6.0334 Y96.3743 
G00 Z2.5400 
G00 X2.8779 Y90.4864 
G01 Z-0.1500 F254.00 
G01 X4.7421 Y90.4864 F508.00 
G01 X4.9264 Y90.5230 
G01 X5.0999 Y90.5949 
G01 X5.2561 Y90.6993 
G01 X5.3889 Y90.8321 
G01 X5.4933 Y90.9883 
G01 X5.5652 Y91.1618 
G01 X5.6018 Y91.3461 
G01 X5.6018 Y91.5339 
G01 X5.5652 Y91.7182 
G01 X5.4933 Y91.8917 
G01 X5.3889 Y92.0479 
G01 X5.2561 Y92.1807 
G01 X5.0999 Y92.2851 
G01 X4.9264 Y92.3569 
G01 X4.7421 Y92.3936 
G01 X2.8779 Y92.3936 
G01 X2.6936 Y92.3569 
G01 X2.5201 Y92.2851 
G01 X2.3639 Y92.1807 
G01 X2.2311 Y92.0479 
G01 X2.1267 Y91.8917 
G01 X2.0548 Y91.7182 
G01 X2.0182 Y91.5339 
G01 X2.0182 Y91.3461 
G01 X2.0548 Y91.1618 
G01 X2.1267 Y90.9883 
G01 X2.2311 Y90.8321 
G01 X2.3639 Y90.6993 
G01 X2.5201 Y90.5949 
G01 X2.6936 Y90.5230 
G01 X2.8779 Y90.4864 
G00 Z2.5400 
G00 X2.8779 Y86.6764 
G01 Z-0.1500 F254.00 
G01 X4.7421 Y86.6764 F508.00 
G01 X4.9264 Y86.7130 
G01 X5.0999 Y86.7849 
G01 X5.2561 Y86.8893 
G01 X5.3889 Y87.0221 
G01 X5.4933 Y87.1783 
G01 X5.5652 Y87.3518 
G01 X5.6018 Y87.5361 
G01 X5.6018 Y87.7239 
G01 X5.5652 Y87.9082 
G01 X5.4933 Y88.0817 
G01 X5.3889 Y88.2379 
G01 X5.2561 Y88.3707 
G01 X5.0999 Y88.4751 
G01 X4.9264 Y88.5470 
G01 X4.7421 Y88.5836 
G01 X2.8779 Y88.5836 
G01 X2.6936 Y88.5470 
G01 X2.5201 Y88.4751 
G01 X2.3639 Y88.3707 
G01 X2.2311 Y88.2379 
G01 X2.1267 Y88.0817 
G01 X2.0548 Y87.9082 
G01 X2.0182 Y87.7239 
G01 X2.0182 Y87.5361 
G01 X2.0548 Y87.3518 
G01 X2.1267 Y87.1783 
G01 X2.2311 Y87.0221 
G01 X2.3639 Y86.8893 
G01 X2.5201 Y86.7849 
G01 X2.6936 Y86.7130 
G01 X2.8779 Y86.6764 
G00 Z2.5400 
G00 X2.8779 Y82.8664 
G01 Z-0.1500 F254.00 
G01 X4.7421 Y82.8664 F508.00 
G01 X4.9264 Y82.9030 
G01 X5.0999 Y82.9749 
G01 X5.2561 Y83.0793 
G01 X5.3670 Y83.1902 
G01 X13.8327 Y74.7245 
G01 X13.9218 Y74.6876 
G01 X15.3696 Y74.6876 
G01 X15.3696 Y74.1720 
G01 X15.3872 Y74.1296 
G01 X15.4196 Y74.0972 
G01 X15.4620 Y74.0796 
G01 X16.7780 Y74.0796 
G01 X16.8204 Y74.0972 
G01 X16.8528 Y74.1296 
G01 X16.8704 Y74.1720 
G01 X16.8704 Y75.6880 
G01 X16.8528 Y75.7304 
G01 X16.8204 Y75.7628 
G01 X16.7780 Y75.7804 
G01 X15.4620 Y75.7804 
G01 X15.4196 Y75.7628 
G01 X15.3872 Y75.7304 
G01 X15.3696 Y75.6880 
G01 X15.3696 Y75.1724 
G01 X14.0704 Y75.1724 
G01 X5.5877 Y83.6551 
G01 X5.6018 Y83.7261 
G01 X5.6018 Y83.9139 
G01 X5.5652 Y84.0982 
G01 X5.4933 Y84.2717 
G01 X5.3889 Y84.4279 
G01 X5.2561 Y84.5607 
G01 X5.0999 Y84.6651 
G01 X4.9264 Y84.7370 
G01 X4.7421 Y84.7736 
G01 X2.8779 Y84.7736 
G01 X2.6936 Y84.7370 
G01 X2.5201 Y84.6651 
G01 X2.3639 Y84.5607 
G01 X2.2311 Y84.4279 
G01 X2.1267 Y84.2717 
G01 X2.0548 Y84.0982 
G01 X2.0182 Y83.9139 
G01 X2.0182 Y83.7261 
G01 X2.0548 Y83.5418 
G01 X2.1267 Y83.3683 
G01 X2.2311 Y83.2121 
G01 X2.3639 Y83.0793 
G01 X2.5201 Y82.9749 
G01 X2.6936 Y82.9030 
G01 X2.8779 Y82.8664 
G00 Z2.5400 
G00 X11.0696 Y75.6880 
G01 Z-0.1500 F254.00 
G01 X11.0696 Y74.1720 F508.00 
G01 X11.0872 Y74.1296 
G01 X11.1196 Y74.0972 
G01 X11.1620 Y74.0796 
G01 X11.9376 Y74.0796 
G01 X12.4576 Y73.5596 
G01 X12.4576 Y72.4904 
G01 X11.7233 Y71.7561 
G01 X9.7433 Y71.7561 
G01 X9.7009 Y71.7385 
G01 X9.6685 Y71.7061 
G01 X9.6509 Y71.6637 
G01 X9.6509 Y70.1191 
G01 X9.6685 Y70.0767 
G01 X9.7009 Y70.0443 
G01 X9.7433 Y70.0267 
G01 X11.7959 Y70.0267 
G01 X11.8383 Y70.0443 
G01 X11.8707 Y70.0767 
G01 X11.8883 Y70.1191 
G01 X11.8883 Y71.2355 
G01 X12.8373 Y72.1845 
G01 X12.9055 Y72.2527 
G01 X12.9424 Y72.3418 
G01 X12.9424 Y73.0748 
G01 X15.6246 Y70.3926 
G01 X15.6246 Y69.2270 
G01 X15.6422 Y69.1846 
G01 X15.6746 Y69.1522 
G01 X15.7170 Y69.1346 
G01 X16.5630 Y69.1346 
G01 X16.6054 Y69.1522 
G01 X16.6378 Y69.1846 
G01 X16.6554 Y69.2270 
G01 X16.6554 Y69.6526 
G01 X16.7155 Y69.7127 
G01 X16.7524 Y69.8018 
G01 X16.7524 Y69.8982 
G01 X16.7155 Y69.9873 
G01 X16.6554 Y70.0474 
G01 X16.6554 Y70.4730 
G01 X16.6378 Y70.5154 
G01 X16.6054 Y70.5478 
G01 X16.5630 Y70.5654 
G01 X16.1374 Y70.5654 
G01 X12.9055 Y73.7973 
G01 X12.8373 Y73.8655 
G01 X12.5588 Y74.1440 
G01 X12.5704 Y74.1720 
G01 X12.5704 Y75.6880 
G01 X12.5528 Y75.7304 
G01 X12.5204 Y75.7628 
G01 X12.4780 Y75.7804 
G01 X11.1620 Y75.7804 
G01 X11.1196 Y75.7628 
G01 X11.0872 Y75.7304 
G01 X11.0696 Y75.6880 
G00 Z2.5400 
G00 X8.3354 Y60.5570 
G01 Z-0.1500 F254.00 
G01 X8.3354 Y60.7176 F508.00 
G01 X14.0182 Y60.7176 
G01 X14.1073 Y60.7545 
G01 X14.1755 Y60.8227 
G01 X14.2124 Y60.9118 
G01 X14.2124 Y61.5146 
G01 X14.7630 Y61.5146 
G01 X14.8054 Y61.5322 
G01 X14.8378 Y61.5646 
G01 X14.8554 Y61.6070 
G01 X14.8554 Y62.8530 
G01 X14.8378 Y62.8954 
G01 X14.8054 Y62.9278 
G01 X14.7630 Y62.9454 
G01 X13.9170 Y62.9454 
G01 X13.8746 Y62.9278 
G01 X13.8422 Y62.8954 
G01 X13.8246 Y62.8530 
G01 X13.8246 Y62.4274 
G01 X13.7645 Y62.3673 
G01 X13.7276 Y62.2782 
G01 X13.7276 Y61.2024 
G01 X8.3354 Y61.2024 
G01 X8.3354 Y61.8030 
G01 X8.3178 Y61.8454 
G01 X8.2854 Y61.8778 
G01 X8.2430 Y61.8954 
G01 X6.9970 Y61.8954 
G01 X6.9546 Y61.8778 
G01 X6.9222 Y61.8454 
G01 X6.9046 Y61.8030 
G01 X6.9046 Y60.5570 
G01 X6.9222 Y60.5146 
G01 X6.9546 Y60.4822 
G01 X6.9970 Y60.4646 
G01 X8.2430 Y60.4646 
G01 X8.2854 Y60.4822 
G01 X8.3178 Y60.5146 
G01 X8.3354 Y60.5570 
G00 Z2.5400 
G00 X5.4967 Y70.6004 
G01 Z-0.1500 F254.00 
G01 X3.4441 Y70.6004 F508.00 
G01 X3.4017 Y70.5828 
G01 X3.3693 Y70.5504 
G01 X3.3517 Y70.5080 
G01 X3.3517 Y66.6520 
G01 X3.3693 Y66.6096 
G01 X3.4017 Y66.5772 
G01 X3.4441 Y66.5596 
G01 X5.4967 Y66.5596 
G01 X5.5391 Y66.5772 
G01 X5.5715 Y66.6096 
G01 X5.5891 Y66.6520 
G01 X5.5891 Y70.5080 
G01 X5.5715 Y70.5504 
G01 X5.5391 Y70.5828 
G01 X5.4967 Y70.6004 
G00 Z2.5400 
G00 X11.7959 Y69.4701 
G01 Z-0.1500 F254.00 
G01 X9.7433 Y69.4701 F508.00 
G01 X9.7009 Y69.4525 
G01 X9.6685 Y69.4201 
G01 X9.6509 Y69.3777 
G01 X9.6509 Y67.8331 
G01 X9.6685 Y67.7907 
G01 X9.7009 Y67.7583 
G01 X9.7433 Y67.7407 
G01 X11.7959 Y67.7407 
G01 X11.8383 Y67.7583 
G01 X11.8707 Y67.7907 
G01 X11.8883 Y67.8331 
G01 X11.8883 Y68.3376 
G01 X12.1256 Y68.3376 
G01 X12.1476 Y68.2847 
G01 X12.2158 Y68.1826 
G01 X12.3026 Y68.0958 
G01 X12.4047 Y68.0276 
G01 X12.5182 Y67.9806 
G01 X12.6386 Y67.9566 
G01 X12.7614 Y67.9566 
G01 X12.8818 Y67.9806 
G01 X12.9953 Y68.0276 
G01 X13.0974 Y68.0958 
G01 X13.1842 Y68.1826 
G01 X13.2524 Y68.2847 
G01 X13.2994 Y68.3982 
G01 X13.3234 Y68.5186 
G01 X13.3234 Y68.6414 
G01 X13.2994 Y68.7618 
G01 X13.2524 Y68.8753 
G01 X13.1842 Y68.9774 
G01 X13.0974 Y69.0642 
G01 X12.9953 Y69.1324 
G01 X12.8818 Y69.1794 
G01 X12.7614 Y69.2034 
G01 X12.6386 Y69.2034 
G01 X12.5182 Y69.1794 
G01 X12.4047 Y69.1324 
G01 X12.3026 Y69.0642 
G01 X12.2158 Y68.9774 
G01 X12.1476 Y68.8753 
G01 X12.1256 Y68.8224 
G01 X11.8883 Y68.8224 
G01 X11.8883 Y69.3777 
G01 X11.8707 Y69.4201 
G01 X11.8383 Y69.4525 
G01 X11.7959 Y69.4701 
G00 Z2.5400 
G00 X9.3864 Y73.8564 
G01 Z-0.1500 F254.00 
G01 X9.3864 Y74.0224 F508.00 
G01 X9.3604 Y74.1865 
G01 X9.3091 Y74.3445 
G01 X9.2337 Y74.4924 
G01 X9.1361 Y74.6268 
G01 X9.0186 Y74.7443 
G01 X8.8842 Y74.8419 
G01 X8.7363 Y74.9173 
G01 X8.5783 Y74.9686 
G01 X8.4142 Y74.9946 
G01 X8.2482 Y74.9946 
G01 X8.0841 Y74.9686 
G01 X7.9261 Y74.9173 
G01 X7.7782 Y74.8419 
G01 X7.6438 Y74.7443 
G01 X7.5263 Y74.6268 
G01 X7.4287 Y74.4924 
G01 X7.3533 Y74.3445 
G01 X7.3020 Y74.1865 
G01 X7.2760 Y74.0224 
G01 X7.2760 Y73.8564 
G01 X7.3020 Y73.6923 
G01 X7.3533 Y73.5343 
G01 X7.4287 Y73.3864 
G01 X7.5263 Y73.2520 
G01 X7.6438 Y73.1345 
G01 X7.7782 Y73.0369 
G01 X7.9261 Y72.9615 
G01 X8.0841 Y72.9102 
G01 X8.2482 Y72.8842 
G01 X8.4142 Y72.8842 
G01 X8.5783 Y72.9102 
G01 X8.7363 Y72.9615 
G01 X8.8842 Y73.0369 
G01 X9.0186 Y73.1345 
G01 X9.1361 Y73.2520 
G01 X9.2337 Y73.3864 
G01 X9.3091 Y73.5343 
G01 X9.3604 Y73.6923 
G01 X9.3864 Y73.8564 
G00 Z2.5400 
G00 X9.3864 Y78.3775 
G01 Z-0.1500 F254.00 
G01 X9.3864 Y78.5436 F508.00 
G01 X9.3604 Y78.7077 
G01 X9.3091 Y78.8657 
G01 X9.2337 Y79.0136 
G01 X9.1361 Y79.1480 
G01 X9.0186 Y79.2655 
G01 X8.8842 Y79.3631 
G01 X8.7363 Y79.4385 
G01 X8.5783 Y79.4898 
G01 X8.4142 Y79.5158 
G01 X8.2482 Y79.5158 
G01 X8.0841 Y79.4898 
G01 X7.9261 Y79.4385 
G01 X7.7782 Y79.3631 
G01 X7.6438 Y79.2655 
G01 X7.5263 Y79.1480 
G01 X7.4287 Y79.0136 
G01 X7.3533 Y78.8657 
G01 X7.3020 Y78.7077 
G01 X7.2760 Y78.5436 
G01 X7.2760 Y78.3775 
G01 X7.3020 Y78.2135 
G01 X7.3533 Y78.0555 
G01 X7.4287 Y77.9076 
G01 X7.5263 Y77.7732 
G01 X7.6438 Y77.6557 
G01 X7.7782 Y77.5581 
G01 X7.9261 Y77.4827 
G01 X8.0841 Y77.4314 
G01 X8.2482 Y77.4054 
G01 X8.4142 Y77.4054 
G01 X8.5783 Y77.4314 
G01 X8.7363 Y77.4827 
G01 X8.8842 Y77.5581 
G01 X9.0186 Y77.6557 
G01 X9.1361 Y77.7732 
G01 X9.2337 Y77.9076 
G01 X9.3091 Y78.0555 
G01 X9.3604 Y78.2135 
G01 X9.3864 Y78.3775 
G00 Z2.5400 
G00 X2.8840 Y78.3775 
G01 Z-0.1500 F254.00 
G01 X2.8840 Y78.5436 F508.00 
G01 X2.8580 Y78.7077 
G01 X2.8067 Y78.8657 
G01 X2.7313 Y79.0136 
G01 X2.6337 Y79.1480 
G01 X2.5162 Y79.2655 
G01 X2.3818 Y79.3631 
G01 X2.2339 Y79.4385 
G01 X2.0759 Y79.4898 
G01 X1.9118 Y79.5158 
G01 X1.7458 Y79.5158 
G01 X1.5817 Y79.4898 
G01 X1.4237 Y79.4385 
G01 X1.2758 Y79.3631 
G01 X1.1414 Y79.2655 
G01 X1.0239 Y79.1480 
G01 X0.9263 Y79.0136 
G01 X0.8509 Y78.8657 
G01 X0.7996 Y78.7077 
G01 X0.7736 Y78.5436 
G01 X0.7736 Y78.3775 
G01 X0.7996 Y78.2135 
G01 X0.8509 Y78.0555 
G01 X0.9263 Y77.9076 
G01 X1.0239 Y77.7732 
G01 X1.1414 Y77.6557 
G01 X1.2758 Y77.5581 
G01 X1.4237 Y77.4827 
G01 X1.5817 Y77.4314 
G01 X1.7458 Y77.4054 
G01 X1.9118 Y77.4054 
G01 X2.0759 Y77.4314 
G01 X2.2339 Y77.4827 
G01 X2.3818 Y77.5581 
G01 X2.5162 Y77.6557 
G01 X2.6337 Y77.7732 
G01 X2.7313 Y77.9076 
G01 X2.8067 Y78.0555 
G01 X2.8580 Y78.2135 
G01 X2.8840 Y78.3775 
G00 Z2.5400 
G00 X31.8954 Y61.6070 
G01 Z-0.1500 F254.00 
G01 X31.8954 Y62.0326 F508.00 
G01 X31.9555 Y62.0927 
G01 X46.5570 Y76.6942 
G01 X47.7268 Y76.6942 
G01 X47.8767 Y76.7240 
G01 X48.0179 Y76.7825 
G01 X48.1449 Y76.8674 
G01 X48.2530 Y76.9755 
G01 X48.3379 Y77.1025 
G01 X48.3964 Y77.2437 
G01 X48.4262 Y77.3936 
G01 X48.4262 Y77.5464 
G01 X48.3964 Y77.6963 
G01 X48.3379 Y77.8375 
G01 X48.2530 Y77.9645 
G01 X48.1449 Y78.0726 
G01 X48.0179 Y78.1575 
G01 X47.8767 Y78.2160 
G01 X47.7268 Y78.2458 
G01 X46.2532 Y78.2458 
G01 X46.1033 Y78.2160 
G01 X45.9621 Y78.1575 
G01 X45.8351 Y78.0726 
G01 X45.7270 Y77.9645 
G01 X45.6421 Y77.8375 
G01 X45.5836 Y77.6963 
G01 X45.5538 Y77.5464 
G01 X45.5538 Y77.3936 
G01 X45.5836 Y77.2437 
G01 X45.6421 Y77.1025 
G01 X45.7270 Y76.9755 
G01 X45.8351 Y76.8674 
G01 X45.9607 Y76.7835 
G01 X31.9924 Y62.8152 
G01 X31.9924 Y67.3582 
G01 X31.9555 Y67.4473 
G01 X31.8954 Y67.5074 
G01 X31.8954 Y67.9330 
G01 X31.8778 Y67.9754 
G01 X31.8454 Y68.0078 
G01 X31.8030 Y68.0254 
G01 X30.9570 Y68.0254 
G01 X30.9146 Y68.0078 
G01 X30.8822 Y67.9754 
G01 X30.8646 Y67.9330 
G01 X30.8646 Y66.6870 
G01 X30.8822 Y66.6446 
G01 X30.9146 Y66.6122 
G01 X30.9570 Y66.5946 
G01 X31.5076 Y66.5946 
G01 X31.5076 Y62.9454 
G01 X30.9570 Y62.9454 
G01 X30.9146 Y62.9278 
G01 X30.8822 Y62.8954 
G01 X30.8646 Y62.8530 
G01 X30.8646 Y61.6070 
G01 X30.8822 Y61.5646 
G01 X30.9146 Y61.5322 
G01 X30.9570 Y61.5146 
G01 X31.8030 Y61.5146 
G01 X31.8454 Y61.5322 
G01 X31.8778 Y61.5646 
G01 X31.8954 Y61.6070 
G00 Z2.5400 
G00 X55.3468 Y78.2458 
G01 Z-0.1500 F254.00 
G01 X53.8732 Y78.2458 F508.00 
G01 X53.7233 Y78.2160 
G01 X53.5821 Y78.1575 
G01 X53.4551 Y78.0726 
G01 X53.3470 Y77.9645 
G01 X53.2621 Y77.8375 
G01 X53.2036 Y77.6963 
G01 X53.1738 Y77.5464 
G01 X53.1738 Y77.3936 
G01 X53.2036 Y77.2437 
G01 X53.2621 Y77.1025 
G01 X53.3470 Y76.9755 
G01 X53.4551 Y76.8674 
G01 X53.5821 Y76.7825 
G01 X53.7233 Y76.7240 
G01 X53.8732 Y76.6942 
G01 X55.3468 Y76.6942 
G01 X55.4967 Y76.7240 
G01 X55.6379 Y76.7825 
G01 X55.7649 Y76.8674 
G01 X55.8730 Y76.9755 
G01 X55.9579 Y77.1025 
G01 X56.0164 Y77.2437 
G01 X56.0462 Y77.3936 
G01 X56.0462 Y77.5464 
G01 X56.0164 Y77.6963 
G01 X55.9579 Y77.8375 
G01 X55.8730 Y77.9645 
G01 X55.7649 Y78.0726 
G01 X55.6379 Y78.1575 
G01 X55.4967 Y78.2160 
G01 X55.3468 Y78.2458 
G00 Z2.5400 
G00 X55.3468 Y75.7058 
G01 Z-0.1500 F254.00 
G01 X53.8732 Y75.7058 F508.00 
G01 X53.7233 Y75.6760 
G01 X53.5821 Y75.6175 
G01 X53.4551 Y75.5326 
G01 X53.3470 Y75.4245 
G01 X53.2621 Y75.2975 
G01 X53.2036 Y75.1563 
G01 X53.1738 Y75.0064 
G01 X53.1738 Y74.8536 
G01 X53.2036 Y74.7037 
G01 X53.2621 Y74.5625 
G01 X53.3470 Y74.4355 
G01 X53.4551 Y74.3274 
G01 X53.5821 Y74.2425 
G01 X53.7233 Y74.1840 
G01 X53.8732 Y74.1542 
G01 X55.3468 Y74.1542 
G01 X55.4967 Y74.1840 
G01 X55.6379 Y74.2425 
G01 X55.7649 Y74.3274 
G01 X55.8730 Y74.4355 
G01 X55.9579 Y74.5625 
G01 X56.0164 Y74.7037 
G01 X56.0462 Y74.8536 
G01 X56.0462 Y75.0064 
G01 X56.0164 Y75.1563 
G01 X55.9579 Y75.2975 
G01 X55.8730 Y75.4245 
G01 X55.7649 Y75.5326 
G01 X55.6379 Y75.6175 
G01 X55.4967 Y75.6760 
G01 X55.3468 Y75.7058 
G00 Z2.5400 
G00 X55.3468 Y73.1658 
G01 Z-0.1500 F254.00 
G01 X53.8732 Y73.1658 F508.00 
G01 X53.7233 Y73.1360 
G01 X53.5821 Y73.0775 
G01 X53.4551 Y72.9926 
G01 X53.3470 Y72.8845 
G01 X53.2621 Y72.7575 
G01 X53.2036 Y72.6163 
G01 X53.1738 Y72.4664 
G01 X53.1738 Y72.3136 
G01 X53.2036 Y72.1637 
G01 X53.2621 Y72.0225 
G01 X53.3470 Y71.8955 
G01 X53.4551 Y71.7874 
G01 X53.5821 Y71.7025 
G01 X53.7233 Y71.6440 
G01 X53.8732 Y71.6142 
G01 X55.3468 Y71.6142 
G01 X55.4967 Y71.6440 
G01 X55.6379 Y71.7025 
G01 X55.7649 Y71.7874 
G01 X55.8730 Y71.8955 
G01 X55.9579 Y72.0225 
G01 X56.0164 Y72.1637 
G01 X56.0462 Y72.3136 
G01 X56.0462 Y72.4664 
G01 X56.0164 Y72.6163 
G01 X55.9579 Y72.7575 
G01 X55.8730 Y72.8845 
G01 X55.7649 Y72.9926 
G01 X55.6379 Y73.0775 
G01 X55.4967 Y73.1360 
G01 X55.3468 Y73.1658 
G00 Z2.5400 
G00 X55.3468 Y70.6258 
G01 Z-0.1500 F254.00 
G01 X53.8732 Y70.6258 F508.00 
G01 X53.7233 Y70.5960 
G01 X53.5821 Y70.5375 
G01 X53.4551 Y70.4526 
G01 X53.3470 Y70.3445 
G01 X53.2621 Y70.2175 
G01 X53.2036 Y70.0763 
G01 X53.1738 Y69.9264 
G01 X53.1738 Y69.7736 
G01 X53.2036 Y69.6237 
G01 X53.2621 Y69.4825 
G01 X53.3470 Y69.3555 
G01 X53.4551 Y69.2474 
G01 X53.5821 Y69.1625 
G01 X53.7233 Y69.1040 
G01 X53.8732 Y69.0742 
G01 X55.3468 Y69.0742 
G01 X55.4967 Y69.1040 
G01 X55.6379 Y69.1625 
G01 X55.7649 Y69.2474 
G01 X55.8730 Y69.3555 
G01 X55.9579 Y69.4825 
G01 X56.0164 Y69.6237 
G01 X56.0462 Y69.7736 
G01 X56.0462 Y69.9264 
G01 X56.0164 Y70.0763 
G01 X55.9579 Y70.2175 
G01 X55.8730 Y70.3445 
G01 X55.7649 Y70.4526 
G01 X55.6379 Y70.5375 
G01 X55.4967 Y70.5960 
G01 X55.3468 Y70.6258 
G00 Z2.5400 
G00 X55.3468 Y68.0858 
G01 Z-0.1500 F254.00 
G01 X53.8732 Y68.0858 F508.00 
G01 X53.7233 Y68.0560 
G01 X53.5821 Y67.9975 
G01 X53.4551 Y67.9126 
G01 X53.3470 Y67.8045 
G01 X53.2621 Y67.6775 
G01 X53.2036 Y67.5363 
G01 X53.1738 Y67.3864 
G01 X53.1738 Y67.2336 
G01 X53.2036 Y67.0837 
G01 X53.2621 Y66.9425 
G01 X53.3470 Y66.8155 
G01 X53.4551 Y66.7074 
G01 X53.5821 Y66.6225 
G01 X53.7233 Y66.5640 
G01 X53.8732 Y66.5342 
G01 X55.3468 Y66.5342 
G01 X55.4967 Y66.5640 
G01 X55.6379 Y66.6225 
G01 X55.7649 Y66.7074 
G01 X55.8730 Y66.8155 
G01 X55.9579 Y66.9425 
G01 X56.0164 Y67.0837 
G01 X56.0462 Y67.2336 
G01 X56.0462 Y67.3864 
G01 X56.0164 Y67.5363 
G01 X55.9579 Y67.6775 
G01 X55.8730 Y67.8045 
G01 X55.7649 Y67.9126 
G01 X55.6379 Y67.9975 
G01 X55.4967 Y68.0560 
G01 X55.3468 Y68.0858 
G00 Z2.5400 
G00 X55.3468 Y65.5458 
G01 Z-0.1500 F254.00 
G01 X53.8732 Y65.5458 F508.00 
G01 X53.7233 Y65.5160 
G01 X53.5821 Y65.4575 
G01 X53.4551 Y65.3726 
G01 X53.3470 Y65.2645 
G01 X53.2621 Y65.1375 
G01 X53.2036 Y64.9963 
G01 X53.1738 Y64.8464 
G01 X53.1738 Y64.6936 
G01 X53.2036 Y64.5437 
G01 X53.2621 Y64.4025 
G01 X53.3470 Y64.2755 
G01 X53.4551 Y64.1674 
G01 X53.5821 Y64.0825 
G01 X53.7233 Y64.0240 
G01 X53.8732 Y63.9942 
G01 X55.3468 Y63.9942 
G01 X55.4967 Y64.0240 
G01 X55.6379 Y64.0825 
G01 X55.7649 Y64.1674 
G01 X55.8730 Y64.2755 
G01 X55.9579 Y64.4025 
G01 X56.0164 Y64.5437 
G01 X56.0462 Y64.6936 
G01 X56.0462 Y64.8464 
G01 X56.0164 Y64.9963 
G01 X55.9579 Y65.1375 
G01 X55.8730 Y65.2645 
G01 X55.7649 Y65.3726 
G01 X55.6379 Y65.4575 
G01 X55.4967 Y65.5160 
G01 X55.3468 Y65.5458 
G00 Z2.5400 
G00 X55.3468 Y60.4658 
G01 Z-0.1500 F254.00 
G01 X53.8732 Y60.4658 F508.00 
G01 X53.7233 Y60.4360 
G01 X53.5821 Y60.3775 
G01 X53.4551 Y60.2926 
G01 X53.3470 Y60.1845 
G01 X53.2621 Y60.0575 
G01 X53.2036 Y59.9163 
G01 X53.1738 Y59.7664 
G01 X53.1738 Y59.6136 
G01 X53.2036 Y59.4637 
G01 X53.2621 Y59.3225 
G01 X53.3470 Y59.1955 
G01 X53.4551 Y59.0874 
G01 X53.5821 Y59.0025 
G01 X53.7233 Y58.9440 
G01 X53.8732 Y58.9142 
G01 X55.3468 Y58.9142 
G01 X55.4967 Y58.9440 
G01 X55.6379 Y59.0025 
G01 X55.7649 Y59.0874 
G01 X55.8730 Y59.1955 
G01 X55.9579 Y59.3225 
G01 X56.0164 Y59.4637 
G01 X56.0462 Y59.6136 
G01 X56.0462 Y59.7664 
G01 X56.0164 Y59.9163 
G01 X55.9579 Y60.0575 
G01 X55.8730 Y60.1845 
G01 X55.7649 Y60.2926 
G01 X55.6379 Y60.3775 
G01 X55.4967 Y60.4360 
G01 X55.3468 Y60.4658 
G00 Z2.5400 
G00 X55.3468 Y57.9258 
G01 Z-0.1500 F254.00 
G01 X54.1770 Y57.9258 F508.00 
G01 X49.7355 Y62.3673 
G01 X49.6673 Y62.4355 
G01 X49.5782 Y62.4724 
G01 X48.3897 Y62.4724 
G01 X48.3379 Y62.5975 
G01 X48.2530 Y62.7245 
G01 X48.1449 Y62.8326 
G01 X48.0179 Y62.9175 
G01 X47.8767 Y62.9760 
G01 X47.7268 Y63.0058 
G01 X46.2532 Y63.0058 
G01 X46.1033 Y62.9760 
G01 X45.9621 Y62.9175 
G01 X45.8351 Y62.8326 
G01 X45.7270 Y62.7245 
G01 X45.6421 Y62.5975 
G01 X45.5836 Y62.4563 
G01 X45.5538 Y62.3064 
G01 X45.5538 Y62.1536 
G01 X45.5836 Y62.0037 
G01 X45.6421 Y61.8625 
G01 X45.7270 Y61.7355 
G01 X45.8351 Y61.6274 
G01 X45.9621 Y61.5425 
G01 X46.1033 Y61.4840 
G01 X46.2532 Y61.4542 
G01 X47.7268 Y61.4542 
G01 X47.8767 Y61.4840 
G01 X48.0179 Y61.5425 
G01 X48.1449 Y61.6274 
G01 X48.2530 Y61.7355 
G01 X48.3379 Y61.8625 
G01 X48.3897 Y61.9876 
G01 X49.4296 Y61.9876 
G01 X53.5807 Y57.8365 
G01 X53.4551 Y57.7526 
G01 X53.3470 Y57.6445 
G01 X53.2621 Y57.5175 
G01 X53.2036 Y57.3763 
G01 X53.1738 Y57.2264 
G01 X53.1738 Y57.0736 
G01 X53.2036 Y56.9237 
G01 X53.2621 Y56.7825 
G01 X53.3470 Y56.6555 
G01 X53.4551 Y56.5474 
G01 X53.5807 Y56.4635 
G01 X48.1596 Y51.0424 
G01 X30.7224 Y51.0424 
G01 X30.7224 Y66.0882 
G01 X30.6855 Y66.1773 
G01 X30.0954 Y66.7674 
G01 X30.0954 Y67.9330 
G01 X30.0778 Y67.9754 
G01 X30.0454 Y68.0078 
G01 X30.0030 Y68.0254 
G01 X29.4524 Y68.0254 
G01 X29.4524 Y85.4445 
G01 X29.5892 Y85.4445 
G01 X30.1255 Y85.9808 
G01 X30.1255 Y86.7392 
G01 X29.5892 Y87.2755 
G01 X28.8308 Y87.2755 
G01 X28.2945 Y86.7392 
G01 X28.2945 Y85.9808 
G01 X28.8308 Y85.4445 
G01 X28.9676 Y85.4445 
G01 X28.9676 Y67.2618 
G01 X29.0045 Y67.1727 
G01 X29.0646 Y67.1126 
G01 X29.0646 Y66.6870 
G01 X29.0822 Y66.6446 
G01 X29.1146 Y66.6122 
G01 X29.1570 Y66.5946 
G01 X29.5826 Y66.5946 
G01 X30.2376 Y65.9396 
G01 X30.2376 Y51.0424 
G01 X28.0404 Y51.0424 
G01 X16.7524 Y62.3304 
G01 X16.7524 Y66.0882 
G01 X16.7155 Y66.1773 
G01 X16.6554 Y66.2374 
G01 X16.6554 Y66.6630 
G01 X16.6378 Y66.7054 
G01 X16.6054 Y66.7378 
G01 X16.5630 Y66.7554 
G01 X15.7170 Y66.7554 
G01 X15.6746 Y66.7378 
G01 X15.6422 Y66.7054 
G01 X15.6246 Y66.6630 
G01 X15.6246 Y65.4170 
G01 X15.6422 Y65.3746 
G01 X15.6746 Y65.3422 
G01 X15.7170 Y65.3246 
G01 X16.2676 Y65.3246 
G01 X16.2676 Y62.9454 
G01 X15.7170 Y62.9454 
G01 X15.6746 Y62.9278 
G01 X15.6422 Y62.8954 
G01 X15.6246 Y62.8530 
G01 X15.6246 Y61.6070 
G01 X15.6422 Y61.5646 
G01 X15.6746 Y61.5322 
G01 X15.7170 Y61.5146 
G01 X16.5630 Y61.5146 
G01 X16.6054 Y61.5322 
G01 X16.6378 Y61.5646 
G01 X16.6554 Y61.6070 
G01 X16.6554 Y61.7418 
G01 X27.7345 Y50.6627 
G01 X27.8027 Y50.5945 
G01 X27.8918 Y50.5576 
G01 X48.3082 Y50.5576 
G01 X48.3973 Y50.5945 
G01 X54.1770 Y56.3742 
G01 X55.3468 Y56.3742 
G01 X55.4967 Y56.4040 
G01 X55.6379 Y56.4625 
G01 X55.7649 Y56.5474 
G01 X55.8730 Y56.6555 
G01 X55.9579 Y56.7825 
G01 X56.0164 Y56.9237 
G01 X56.0462 Y57.0736 
G01 X56.0462 Y57.2264 
G01 X56.0164 Y57.3763 
G01 X55.9579 Y57.5175 
G01 X55.8730 Y57.6445 
G01 X55.7649 Y57.7526 
G01 X55.6379 Y57.8375 
G01 X55.4967 Y57.8960 
G01 X55.3468 Y57.9258 
G00 Z2.5400 
G00 X55.3468 Y55.3858 
G01 Z-0.1500 F254.00 
G01 X53.8732 Y55.3858 F508.00 
G01 X53.7233 Y55.3560 
G01 X53.5821 Y55.2975 
G01 X53.4551 Y55.2126 
G01 X53.3470 Y55.1045 
G01 X53.2621 Y54.9775 
G01 X53.2036 Y54.8363 
G01 X53.1738 Y54.6864 
G01 X53.1738 Y54.5336 
G01 X53.2036 Y54.3837 
G01 X53.2621 Y54.2425 
G01 X53.3470 Y54.1155 
G01 X53.4551 Y54.0074 
G01 X53.5821 Y53.9225 
G01 X53.7233 Y53.8640 
G01 X53.8732 Y53.8342 
G01 X55.3468 Y53.8342 
G01 X55.4967 Y53.8640 
G01 X55.6379 Y53.9225 
G01 X55.7649 Y54.0074 
G01 X55.8730 Y54.1155 
G01 X55.9579 Y54.2425 
G01 X56.0164 Y54.3837 
G01 X56.0462 Y54.5336 
G01 X56.0462 Y54.6864 
G01 X56.0164 Y54.8363 
G01 X55.9579 Y54.9775 
G01 X55.8730 Y55.1045 
G01 X55.7649 Y55.2126 
G01 X55.6379 Y55.2975 
G01 X55.4967 Y55.3560 
G01 X55.3468 Y55.3858 
G00 Z2.5400 
G00 X55.3468 Y52.8458 
G01 Z-0.1500 F254.00 
G01 X53.8732 Y52.8458 F508.00 
G01 X53.7233 Y52.8160 
G01 X53.5821 Y52.7575 
G01 X53.4551 Y52.6726 
G01 X53.3470 Y52.5645 
G01 X53.2621 Y52.4375 
G01 X53.2036 Y52.2963 
G01 X53.1738 Y52.1464 
G01 X53.1738 Y51.9936 
G01 X53.2036 Y51.8437 
G01 X53.2621 Y51.7025 
G01 X53.3470 Y51.5755 
G01 X53.4551 Y51.4674 
G01 X53.5821 Y51.3825 
G01 X53.7233 Y51.3240 
G01 X53.8732 Y51.2942 
G01 X55.3468 Y51.2942 
G01 X55.4967 Y51.3240 
G01 X55.6379 Y51.3825 
G01 X55.7649 Y51.4674 
G01 X55.8730 Y51.5755 
G01 X55.9579 Y51.7025 
G01 X56.0164 Y51.8437 
G01 X56.0462 Y51.9936 
G01 X56.0462 Y52.1464 
G01 X56.0164 Y52.2963 
G01 X55.9579 Y52.4375 
G01 X55.8730 Y52.5645 
G01 X55.7649 Y52.6726 
G01 X55.6379 Y52.7575 
G01 X55.4967 Y52.8160 
G01 X55.3468 Y52.8458 
G00 Z2.5400 
G00 X55.3468 Y50.3058 
G01 Z-0.1500 F254.00 
G01 X53.8732 Y50.3058 F508.00 
G01 X53.7233 Y50.2760 
G01 X53.5821 Y50.2175 
G01 X53.4551 Y50.1326 
G01 X53.3470 Y50.0245 
G01 X53.2621 Y49.8975 
G01 X53.2036 Y49.7563 
G01 X53.1738 Y49.6064 
G01 X53.1738 Y49.4536 
G01 X53.2036 Y49.3037 
G01 X53.2621 Y49.1625 
G01 X53.3470 Y49.0355 
G01 X53.4551 Y48.9274 
G01 X53.5821 Y48.8425 
G01 X53.7233 Y48.7840 
G01 X53.8732 Y48.7542 
G01 X55.3468 Y48.7542 
G01 X55.4967 Y48.7840 
G01 X55.6379 Y48.8425 
G01 X55.7649 Y48.9274 
G01 X55.8730 Y49.0355 
G01 X55.9579 Y49.1625 
G01 X56.0164 Y49.3037 
G01 X56.0462 Y49.4536 
G01 X56.0462 Y49.6064 
G01 X56.0164 Y49.7563 
G01 X55.9579 Y49.8975 
G01 X55.8730 Y50.0245 
G01 X55.7649 Y50.1326 
G01 X55.6379 Y50.2175 
G01 X55.4967 Y50.2760 
G01 X55.3468 Y50.3058 
G00 Z2.5400 
G00 X55.3468 Y47.7658 
G01 Z-0.1500 F254.00 
G01 X53.8732 Y47.7658 F508.00 
G01 X53.7233 Y47.7360 
G01 X53.5821 Y47.6775 
G01 X53.4551 Y47.5926 
G01 X53.3470 Y47.4845 
G01 X53.2621 Y47.3575 
G01 X53.2036 Y47.2163 
G01 X53.1738 Y47.0664 
G01 X53.1738 Y46.9136 
G01 X53.2036 Y46.7637 
G01 X53.2621 Y46.6225 
G01 X53.3470 Y46.4955 
G01 X53.4551 Y46.3874 
G01 X53.5821 Y46.3025 
G01 X53.7233 Y46.2440 
G01 X53.8732 Y46.2142 
G01 X55.3468 Y46.2142 
G01 X55.4967 Y46.2440 
G01 X55.6379 Y46.3025 
G01 X55.7649 Y46.3874 
G01 X55.8730 Y46.4955 
G01 X55.9579 Y46.6225 
G01 X56.0164 Y46.7637 
G01 X56.0462 Y46.9136 
G01 X56.0462 Y47.0664 
G01 X56.0164 Y47.2163 
G01 X55.9579 Y47.3575 
G01 X55.8730 Y47.4845 
G01 X55.7649 Y47.5926 
G01 X55.6379 Y47.6775 
G01 X55.4967 Y47.7360 
G01 X55.3468 Y47.7658 
G00 Z2.5400 
G00 X55.3468 Y45.2258 
G01 Z-0.1500 F254.00 
G01 X53.8732 Y45.2258 F508.00 
G01 X53.7233 Y45.1960 
G01 X53.5821 Y45.1375 
G01 X53.4551 Y45.0526 
G01 X53.3470 Y44.9445 
G01 X53.2621 Y44.8175 
G01 X53.2036 Y44.6763 
G01 X53.1738 Y44.5264 
G01 X53.1738 Y44.3736 
G01 X53.2036 Y44.2237 
G01 X53.2621 Y44.0825 
G01 X53.3470 Y43.9555 
G01 X53.4551 Y43.8474 
G01 X53.5821 Y43.7625 
G01 X53.7233 Y43.7040 
G01 X53.8732 Y43.6742 
G01 X55.3468 Y43.6742 
G01 X55.4967 Y43.7040 
G01 X55.6379 Y43.7625 
G01 X55.7649 Y43.8474 
G01 X55.8730 Y43.9555 
G01 X55.9579 Y44.0825 
G01 X56.0164 Y44.2237 
G01 X56.0462 Y44.3736 
G01 X56.0462 Y44.5264 
G01 X56.0164 Y44.6763 
G01 X55.9579 Y44.8175 
G01 X55.8730 Y44.9445 
G01 X55.7649 Y45.0526 
G01 X55.6379 Y45.1375 
G01 X55.4967 Y45.1960 
G01 X55.3468 Y45.2258 
G00 Z2.5400 
G00 X47.7268 Y45.2258 
G01 Z-0.1500 F254.00 
G01 X46.2532 Y45.2258 F508.00 
G01 X46.1033 Y45.1960 
G01 X45.9621 Y45.1375 
G01 X45.8351 Y45.0526 
G01 X45.7270 Y44.9445 
G01 X45.6421 Y44.8175 
G01 X45.5836 Y44.6763 
G01 X45.5538 Y44.5264 
G01 X45.5538 Y44.3736 
G01 X45.5836 Y44.2237 
G01 X45.6421 Y44.0825 
G01 X45.7270 Y43.9555 
G01 X45.8351 Y43.8474 
G01 X45.9621 Y43.7625 
G01 X46.1033 Y43.7040 
G01 X46.2532 Y43.6742 
G01 X47.7268 Y43.6742 
G01 X47.8767 Y43.7040 
G01 X48.0179 Y43.7625 
G01 X48.1449 Y43.8474 
G01 X48.2530 Y43.9555 
G01 X48.3379 Y44.0825 
G01 X48.3964 Y44.2237 
G01 X48.4262 Y44.3736 
G01 X48.4262 Y44.5264 
G01 X48.3964 Y44.6763 
G01 X48.3379 Y44.8175 
G01 X48.2530 Y44.9445 
G01 X48.1449 Y45.0526 
G01 X48.0179 Y45.1375 
G01 X47.8767 Y45.1960 
G01 X47.7268 Y45.2258 
G00 Z2.5400 
G00 X47.7268 Y47.7658 
G01 Z-0.1500 F254.00 
G01 X46.2532 Y47.7658 F508.00 
G01 X46.1033 Y47.7360 
G01 X45.9621 Y47.6775 
G01 X45.8351 Y47.5926 
G01 X45.7270 Y47.4845 
G01 X45.6421 Y47.3575 
G01 X45.5836 Y47.2163 
G01 X45.5538 Y47.0664 
G01 X45.5538 Y46.9136 
G01 X45.5836 Y46.7637 
G01 X45.6421 Y46.6225 
G01 X45.7270 Y46.4955 
G01 X45.8351 Y46.3874 
G01 X45.9621 Y46.3025 
G01 X46.1033 Y46.2440 
G01 X46.2532 Y46.2142 
G01 X47.7268 Y46.2142 
G01 X47.8767 Y46.2440 
G01 X48.0179 Y46.3025 
G01 X48.1449 Y46.3874 
G01 X48.2530 Y46.4955 
G01 X48.3379 Y46.6225 
G01 X48.3964 Y46.7637 
G01 X48.4262 Y46.9136 
G01 X48.4262 Y47.0664 
G01 X48.3964 Y47.2163 
G01 X48.3379 Y47.3575 
G01 X48.2530 Y47.4845 
G01 X48.1449 Y47.5926 
G01 X48.0179 Y47.6775 
G01 X47.8767 Y47.7360 
G01 X47.7268 Y47.7658 
G00 Z2.5400 
G00 X47.7268 Y50.3058 
G01 Z-0.1500 F254.00 
G01 X46.2532 Y50.3058 F508.00 
G01 X46.1033 Y50.2760 
G01 X45.9621 Y50.2175 
G01 X45.8351 Y50.1326 
G01 X45.7270 Y50.0245 
G01 X45.6421 Y49.8975 
G01 X45.5836 Y49.7563 
G01 X45.5538 Y49.6064 
G01 X45.5538 Y49.4536 
G01 X45.5836 Y49.3037 
G01 X45.6421 Y49.1625 
G01 X45.7270 Y49.0355 
G01 X45.8351 Y48.9274 
G01 X45.9621 Y48.8425 
G01 X46.1033 Y48.7840 
G01 X46.2532 Y48.7542 
G01 X47.7268 Y48.7542 
G01 X47.8767 Y48.7840 
G01 X48.0179 Y48.8425 
G01 X48.1449 Y48.9274 
G01 X48.2530 Y49.0355 
G01 X48.3379 Y49.1625 
G01 X48.3964 Y49.3037 
G01 X48.4262 Y49.4536 
G01 X48.4262 Y49.6064 
G01 X48.3964 Y49.7563 
G01 X48.3379 Y49.8975 
G01 X48.2530 Y50.0245 
G01 X48.1449 Y50.1326 
G01 X48.0179 Y50.2175 
G01 X47.8767 Y50.2760 
G01 X47.7268 Y50.3058 
G00 Z2.5400 
G00 X47.7268 Y52.8458 
G01 Z-0.1500 F254.00 
G01 X46.2532 Y52.8458 F508.00 
G01 X46.1033 Y52.8160 
G01 X45.9621 Y52.7575 
G01 X45.8351 Y52.6726 
G01 X45.7270 Y52.5645 
G01 X45.6421 Y52.4375 
G01 X45.5836 Y52.2963 
G01 X45.5538 Y52.1464 
G01 X45.5538 Y51.9936 
G01 X45.5836 Y51.8437 
G01 X45.6421 Y51.7025 
G01 X45.7270 Y51.5755 
G01 X45.8351 Y51.4674 
G01 X45.9621 Y51.3825 
G01 X46.1033 Y51.3240 
G01 X46.2532 Y51.2942 
G01 X47.7268 Y51.2942 
G01 X47.8767 Y51.3240 
G01 X48.0179 Y51.3825 
G01 X48.1449 Y51.4674 
G01 X48.2530 Y51.5755 
G01 X48.3379 Y51.7025 
G01 X48.3964 Y51.8437 
G01 X48.4262 Y51.9936 
G01 X48.4262 Y52.1464 
G01 X48.3964 Y52.2963 
G01 X48.3379 Y52.4375 
G01 X48.2530 Y52.5645 
G01 X48.1449 Y52.6726 
G01 X48.0179 Y52.7575 
G01 X47.8767 Y52.8160 
G01 X47.7268 Y52.8458 
G00 Z2.5400 
G00 X47.7268 Y55.3858 
G01 Z-0.1500 F254.00 
G01 X46.2532 Y55.3858 F508.00 
G01 X46.1033 Y55.3560 
G01 X45.9621 Y55.2975 
G01 X45.8351 Y55.2126 
G01 X45.7270 Y55.1045 
G01 X45.6421 Y54.9775 
G01 X45.5903 Y54.8524 
G01 X39.1044 Y54.8524 
G01 X39.1044 Y57.4270 
G01 X39.0868 Y57.4694 
G01 X39.0544 Y57.5018 
G01 X39.0120 Y57.5194 
G01 X37.1880 Y57.5194 
G01 X37.1456 Y57.5018 
G01 X37.1132 Y57.4694 
G01 X37.0956 Y57.4270 
G01 X37.0956 Y54.8524 
G01 X31.8954 Y54.8524 
G01 X31.8954 Y55.2330 
G01 X31.8778 Y55.2754 
G01 X31.8454 Y55.3078 
G01 X31.8030 Y55.3254 
G01 X30.9570 Y55.3254 
G01 X30.9146 Y55.3078 
G01 X30.8822 Y55.2754 
G01 X30.8646 Y55.2330 
G01 X30.8646 Y53.9870 
G01 X30.8822 Y53.9446 
G01 X30.9146 Y53.9122 
G01 X30.9570 Y53.8946 
G01 X31.8030 Y53.8946 
G01 X31.8454 Y53.9122 
G01 X31.8778 Y53.9446 
G01 X31.8954 Y53.9870 
G01 X31.8954 Y54.3676 
G01 X37.0956 Y54.3676 
G01 X37.0956 Y52.3010 
G01 X37.1132 Y52.2586 
G01 X37.1456 Y52.2262 
G01 X37.1880 Y52.2086 
G01 X39.0120 Y52.2086 
G01 X39.0544 Y52.2262 
G01 X39.0868 Y52.2586 
G01 X39.1044 Y52.3010 
G01 X39.1044 Y54.3676 
G01 X45.5903 Y54.3676 
G01 X45.6421 Y54.2425 
G01 X45.7270 Y54.1155 
G01 X45.8351 Y54.0074 
G01 X45.9621 Y53.9225 
G01 X46.1033 Y53.8640 
G01 X46.2532 Y53.8342 
G01 X47.7268 Y53.8342 
G01 X47.8767 Y53.8640 
G01 X48.0179 Y53.9225 
G01 X48.1449 Y54.0074 
G01 X48.2530 Y54.1155 
G01 X48.3379 Y54.2425 
G01 X48.3964 Y54.3837 
G01 X48.4262 Y54.5336 
G01 X48.4262 Y54.6864 
G01 X48.3964 Y54.8363 
G01 X48.3379 Y54.9775 
G01 X48.2530 Y55.1045 
G01 X48.1449 Y55.2126 
G01 X48.0179 Y55.2975 
G01 X47.8767 Y55.3560 
G01 X47.7268 Y55.3858 
G00 Z2.5400 
G00 X47.7268 Y57.9258 
G01 Z-0.1500 F254.00 
G01 X46.5570 Y57.9258 F508.00 
G01 X39.5755 Y64.9073 
G01 X39.5073 Y64.9755 
G01 X39.4182 Y65.0124 
G01 X39.1044 Y65.0124 
G01 X39.1044 Y67.0790 
G01 X39.0868 Y67.1214 
G01 X39.0544 Y67.1538 
G01 X39.0120 Y67.1714 
G01 X37.1880 Y67.1714 
G01 X37.1456 Y67.1538 
G01 X37.1132 Y67.1214 
G01 X37.0956 Y67.0790 
G01 X37.0956 Y64.1084 
G01 X31.8954 Y58.9082 
G01 X31.8954 Y59.0430 
G01 X31.8778 Y59.0854 
G01 X31.8454 Y59.1178 
G01 X31.8030 Y59.1354 
G01 X30.9570 Y59.1354 
G01 X30.9146 Y59.1178 
G01 X30.8822 Y59.0854 
G01 X30.8646 Y59.0430 
G01 X30.8646 Y57.7970 
G01 X30.8822 Y57.7546 
G01 X30.9146 Y57.7222 
G01 X30.9570 Y57.7046 
G01 X31.8030 Y57.7046 
G01 X31.8454 Y57.7222 
G01 X31.8778 Y57.7546 
G01 X31.8954 Y57.7970 
G01 X31.8954 Y58.2226 
G01 X31.9555 Y58.2827 
G01 X37.0956 Y63.4228 
G01 X37.0956 Y61.9530 
G01 X37.1132 Y61.9106 
G01 X37.1456 Y61.8782 
G01 X37.1880 Y61.8606 
G01 X39.0120 Y61.8606 
G01 X39.0544 Y61.8782 
G01 X39.0868 Y61.9106 
G01 X39.1044 Y61.9530 
G01 X39.1044 Y64.5276 
G01 X39.2696 Y64.5276 
G01 X45.9607 Y57.8365 
G01 X45.8351 Y57.7526 
G01 X45.7270 Y57.6445 
G01 X45.6421 Y57.5175 
G01 X45.5836 Y57.3763 
G01 X45.5538 Y57.2264 
G01 X45.5538 Y57.0736 
G01 X45.5836 Y56.9237 
G01 X45.6421 Y56.7825 
G01 X45.7270 Y56.6555 
G01 X45.8351 Y56.5474 
G01 X45.9621 Y56.4625 
G01 X46.1033 Y56.4040 
G01 X46.2532 Y56.3742 
G01 X47.7268 Y56.3742 
G01 X47.8767 Y56.4040 
G01 X48.0179 Y56.4625 
G01 X48.1449 Y56.5474 
G01 X48.2530 Y56.6555 
G01 X48.3379 Y56.7825 
G01 X48.3964 Y56.9237 
G01 X48.4262 Y57.0736 
G01 X48.4262 Y57.2264 
G01 X48.3964 Y57.3763 
G01 X48.3379 Y57.5175 
G01 X48.2530 Y57.6445 
G01 X48.1449 Y57.7526 
G01 X48.0179 Y57.8375 
G01 X47.8767 Y57.8960 
G01 X47.7268 Y57.9258 
G00 Z2.5400 
G00 X47.7268 Y60.4658 
G01 Z-0.1500 F254.00 
G01 X46.2532 Y60.4658 F508.00 
G01 X46.1033 Y60.4360 
G01 X45.9621 Y60.3775 
G01 X45.8351 Y60.2926 
G01 X45.7270 Y60.1845 
G01 X45.6421 Y60.0575 
G01 X45.5836 Y59.9163 
G01 X45.5538 Y59.7664 
G01 X45.5538 Y59.6136 
G01 X45.5836 Y59.4637 
G01 X45.6421 Y59.3225 
G01 X45.7270 Y59.1955 
G01 X45.8351 Y59.0874 
G01 X45.9621 Y59.0025 
G01 X46.1033 Y58.9440 
G01 X46.2532 Y58.9142 
G01 X47.7268 Y58.9142 
G01 X47.8767 Y58.9440 
G01 X48.0179 Y59.0025 
G01 X48.1449 Y59.0874 
G01 X48.2530 Y59.1955 
G01 X48.3379 Y59.3225 
G01 X48.3964 Y59.4637 
G01 X48.4262 Y59.6136 
G01 X48.4262 Y59.7664 
G01 X48.3964 Y59.9163 
G01 X48.3379 Y60.0575 
G01 X48.2530 Y60.1845 
G01 X48.1449 Y60.2926 
G01 X48.0179 Y60.3775 
G01 X47.8767 Y60.4360 
G01 X47.7268 Y60.4658 
G00 Z2.5400 
G00 X47.7268 Y65.5458 
G01 Z-0.1500 F254.00 
G01 X46.2532 Y65.5458 F508.00 
G01 X46.1033 Y65.5160 
G01 X45.9621 Y65.4575 
G01 X45.8351 Y65.3726 
G01 X45.7270 Y65.2645 
G01 X45.6421 Y65.1375 
G01 X45.5836 Y64.9963 
G01 X45.5538 Y64.8464 
G01 X45.5538 Y64.6936 
G01 X45.5836 Y64.5437 
G01 X45.6421 Y64.4025 
G01 X45.7270 Y64.2755 
G01 X45.8351 Y64.1674 
G01 X45.9621 Y64.0825 
G01 X46.1033 Y64.0240 
G01 X46.2532 Y63.9942 
G01 X47.7268 Y63.9942 
G01 X47.8767 Y64.0240 
G01 X48.0179 Y64.0825 
G01 X48.1449 Y64.1674 
G01 X48.2530 Y64.2755 
G01 X48.3379 Y64.4025 
G01 X48.3964 Y64.5437 
G01 X48.4262 Y64.6936 
G01 X48.4262 Y64.8464 
G01 X48.3964 Y64.9963 
G01 X48.3379 Y65.1375 
G01 X48.2530 Y65.2645 
G01 X48.1449 Y65.3726 
G01 X48.0179 Y65.4575 
G01 X47.8767 Y65.5160 
G01 X47.7268 Y65.5458 
G00 Z2.5400 
G00 X47.7268 Y68.0858 
G01 Z-0.1500 F254.00 
G01 X46.2532 Y68.0858 F508.00 
G01 X46.1033 Y68.0560 
G01 X45.9621 Y67.9975 
G01 X45.8351 Y67.9126 
G01 X45.7270 Y67.8045 
G01 X45.6421 Y67.6775 
G01 X45.5836 Y67.5363 
G01 X45.5538 Y67.3864 
G01 X45.5538 Y67.2336 
G01 X45.5836 Y67.0837 
G01 X45.6421 Y66.9425 
G01 X45.7270 Y66.8155 
G01 X45.8351 Y66.7074 
G01 X45.9621 Y66.6225 
G01 X46.1033 Y66.5640 
G01 X46.2532 Y66.5342 
G01 X47.7268 Y66.5342 
G01 X47.8767 Y66.5640 
G01 X48.0179 Y66.6225 
G01 X48.1449 Y66.7074 
G01 X48.2530 Y66.8155 
G01 X48.3379 Y66.9425 
G01 X48.3964 Y67.0837 
G01 X48.4262 Y67.2336 
G01 X48.4262 Y67.3864 
G01 X48.3964 Y67.5363 
G01 X48.3379 Y67.6775 
G01 X48.2530 Y67.8045 
G01 X48.1449 Y67.9126 
G01 X48.0179 Y67.9975 
G01 X47.8767 Y68.0560 
G01 X47.7268 Y68.0858 
G00 Z2.5400 
G00 X47.7268 Y70.6258 
G01 Z-0.1500 F254.00 
G01 X46.2532 Y70.6258 F508.00 
G01 X46.1033 Y70.5960 
G01 X45.9621 Y70.5375 
G01 X45.8351 Y70.4526 
G01 X45.7270 Y70.3445 
G01 X45.6421 Y70.2175 
G01 X45.5836 Y70.0763 
G01 X45.5538 Y69.9264 
G01 X45.5538 Y69.7736 
G01 X45.5836 Y69.6237 
G01 X45.6421 Y69.4825 
G01 X45.7270 Y69.3555 
G01 X45.8351 Y69.2474 
G01 X45.9621 Y69.1625 
G01 X46.1033 Y69.1040 
G01 X46.2532 Y69.0742 
G01 X47.7268 Y69.0742 
G01 X47.8767 Y69.1040 
G01 X48.0179 Y69.1625 
G01 X48.1449 Y69.2474 
G01 X48.2530 Y69.3555 
G01 X48.3379 Y69.4825 
G01 X48.3964 Y69.6237 
G01 X48.4262 Y69.7736 
G01 X48.4262 Y69.9264 
G01 X48.3964 Y70.0763 
G01 X48.3379 Y70.2175 
G01 X48.2530 Y70.3445 
G01 X48.1449 Y70.4526 
G01 X48.0179 Y70.5375 
G01 X47.8767 Y70.5960 
G01 X47.7268 Y70.6258 
G00 Z2.5400 
G00 X47.7268 Y73.1658 
G01 Z-0.1500 F254.00 
G01 X46.2532 Y73.1658 F508.00 
G01 X46.1033 Y73.1360 
G01 X45.9621 Y73.0775 
G01 X45.8351 Y72.9926 
G01 X45.7270 Y72.8845 
G01 X45.6421 Y72.7575 
G01 X45.5836 Y72.6163 
G01 X45.5538 Y72.4664 
G01 X45.5538 Y72.3136 
G01 X45.5836 Y72.1637 
G01 X45.6421 Y72.0225 
G01 X45.7270 Y71.8955 
G01 X45.8351 Y71.7874 
G01 X45.9621 Y71.7025 
G01 X46.1033 Y71.6440 
G01 X46.2532 Y71.6142 
G01 X47.7268 Y71.6142 
G01 X47.8767 Y71.6440 
G01 X48.0179 Y71.7025 
G01 X48.1449 Y71.7874 
G01 X48.2530 Y71.8955 
G01 X48.3379 Y72.0225 
G01 X48.3964 Y72.1637 
G01 X48.4262 Y72.3136 
G01 X48.4262 Y72.4664 
G01 X48.3964 Y72.6163 
G01 X48.3379 Y72.7575 
G01 X48.2530 Y72.8845 
G01 X48.1449 Y72.9926 
G01 X48.0179 Y73.0775 
G01 X47.8767 Y73.1360 
G01 X47.7268 Y73.1658 
G00 Z2.5400 
G00 X47.7268 Y75.7058 
G01 Z-0.1500 F254.00 
G01 X46.2532 Y75.7058 F508.00 
G01 X46.1033 Y75.6760 
G01 X45.9621 Y75.6175 
G01 X45.8351 Y75.5326 
G01 X45.7270 Y75.4245 
G01 X45.6421 Y75.2975 
G01 X45.5836 Y75.1563 
G01 X45.5538 Y75.0064 
G01 X45.5538 Y74.8536 
G01 X45.5836 Y74.7037 
G01 X45.6421 Y74.5625 
G01 X45.7270 Y74.4355 
G01 X45.8351 Y74.3274 
G01 X45.9621 Y74.2425 
G01 X46.1033 Y74.1840 
G01 X46.2532 Y74.1542 
G01 X47.7268 Y74.1542 
G01 X47.8767 Y74.1840 
G01 X48.0179 Y74.2425 
G01 X48.1449 Y74.3274 
G01 X48.2530 Y74.4355 
G01 X48.3379 Y74.5625 
G01 X48.3964 Y74.7037 
G01 X48.4262 Y74.8536 
G01 X48.4262 Y75.0064 
G01 X48.3964 Y75.1563 
G01 X48.3379 Y75.2975 
G01 X48.2530 Y75.4245 
G01 X48.1449 Y75.5326 
G01 X48.0179 Y75.6175 
G01 X47.8767 Y75.6760 
G01 X47.7268 Y75.7058 
G00 Z2.5400 
G00 X36.4454 Y79.3870 
G01 Z-0.1500 F254.00 
G01 X36.4454 Y80.5526 F508.00 
G01 X36.5953 Y80.7025 
G01 X36.6482 Y80.6806 
G01 X36.7686 Y80.6566 
G01 X36.8914 Y80.6566 
G01 X37.0118 Y80.6806 
G01 X37.1253 Y80.7276 
G01 X37.2274 Y80.7958 
G01 X37.3142 Y80.8826 
G01 X37.3824 Y80.9847 
G01 X37.4294 Y81.0982 
G01 X37.4534 Y81.2186 
G01 X37.4534 Y81.3414 
G01 X37.4294 Y81.4618 
G01 X37.3824 Y81.5753 
G01 X37.3142 Y81.6774 
G01 X37.2274 Y81.7642 
G01 X37.1253 Y81.8324 
G01 X37.0118 Y81.8794 
G01 X36.8914 Y81.9034 
G01 X36.7686 Y81.9034 
G01 X36.6482 Y81.8794 
G01 X36.5347 Y81.8324 
G01 X36.4326 Y81.7642 
G01 X36.3458 Y81.6774 
G01 X36.2776 Y81.5753 
G01 X36.2306 Y81.4618 
G01 X36.2066 Y81.3414 
G01 X36.2066 Y81.2186 
G01 X36.2306 Y81.0982 
G01 X36.2525 Y81.0453 
G01 X35.9326 Y80.7254 
G01 X35.5070 Y80.7254 
G01 X35.4646 Y80.7078 
G01 X35.4322 Y80.6754 
G01 X35.4146 Y80.6330 
G01 X35.4146 Y80.2074 
G01 X35.3545 Y80.1473 
G01 X35.3176 Y80.0582 
G01 X35.3176 Y79.9618 
G01 X35.3545 Y79.8727 
G01 X35.4146 Y79.8126 
G01 X35.4146 Y79.3870 
G01 X35.4322 Y79.3446 
G01 X35.4646 Y79.3122 
G01 X35.5070 Y79.2946 
G01 X36.3530 Y79.2946 
G01 X36.3954 Y79.3122 
G01 X36.4278 Y79.3446 
G01 X36.4454 Y79.3870 
G00 Z2.5400 
G00 X43.3254 Y83.1970 
G01 Z-0.1500 F254.00 
G01 X43.3254 Y83.6226 F508.00 
G01 X43.3855 Y83.6827 
G01 X43.4224 Y83.7718 
G01 X43.4224 Y91.4882 
G01 X43.3855 Y91.5773 
G01 X43.3254 Y91.6374 
G01 X43.3254 Y92.0630 
G01 X43.3078 Y92.1054 
G01 X43.2754 Y92.1378 
G01 X43.2330 Y92.1554 
G01 X42.3870 Y92.1554 
G01 X42.3446 Y92.1378 
G01 X42.3122 Y92.1054 
G01 X42.2946 Y92.0630 
G01 X42.2946 Y90.8170 
G01 X42.3122 Y90.7746 
G01 X42.3446 Y90.7422 
G01 X42.3870 Y90.7246 
G01 X42.9376 Y90.7246 
G01 X42.9376 Y88.3454 
G01 X42.3870 Y88.3454 
G01 X42.3446 Y88.3278 
G01 X42.3122 Y88.2954 
G01 X42.2946 Y88.2530 
G01 X42.2946 Y87.0070 
G01 X42.3122 Y86.9646 
G01 X42.3446 Y86.9322 
G01 X42.3870 Y86.9146 
G01 X42.9376 Y86.9146 
G01 X42.9376 Y86.6024 
G01 X39.9444 Y86.6024 
G01 X39.9224 Y86.6553 
G01 X39.8542 Y86.7574 
G01 X39.7674 Y86.8442 
G01 X39.6653 Y86.9124 
G01 X39.5518 Y86.9594 
G01 X39.4314 Y86.9834 
G01 X39.3086 Y86.9834 
G01 X39.1882 Y86.9594 
G01 X39.0747 Y86.9124 
G01 X38.9726 Y86.8442 
G01 X38.8858 Y86.7574 
G01 X38.8176 Y86.6553 
G01 X38.7706 Y86.5418 
G01 X38.7466 Y86.4214 
G01 X38.7466 Y86.2986 
G01 X38.7706 Y86.1782 
G01 X38.8176 Y86.0647 
G01 X38.8858 Y85.9626 
G01 X38.9726 Y85.8758 
G01 X39.0747 Y85.8076 
G01 X39.1882 Y85.7606 
G01 X39.3086 Y85.7366 
G01 X39.4314 Y85.7366 
G01 X39.5518 Y85.7606 
G01 X39.6653 Y85.8076 
G01 X39.7674 Y85.8758 
G01 X39.8542 Y85.9626 
G01 X39.9224 Y86.0647 
G01 X39.9444 Y86.1176 
G01 X42.9376 Y86.1176 
G01 X42.9376 Y84.5354 
G01 X42.3870 Y84.5354 
G01 X42.3446 Y84.5178 
G01 X42.3122 Y84.4854 
G01 X42.2946 Y84.4430 
G01 X42.2946 Y83.1970 
G01 X42.3122 Y83.1546 
G01 X42.3446 Y83.1222 
G01 X42.3870 Y83.1046 
G01 X43.2330 Y83.1046 
G01 X43.2754 Y83.1222 
G01 X43.3078 Y83.1546 
G01 X43.3254 Y83.1970 
G00 Z2.5400 
G00 X41.5254 Y83.1970 
G01 Z-0.1500 F254.00 
G01 X41.5254 Y84.4430 F508.00 
G01 X41.5078 Y84.4854 
G01 X41.4754 Y84.5178 
G01 X41.4330 Y84.5354 
G01 X40.5870 Y84.5354 
G01 X40.5446 Y84.5178 
G01 X40.5122 Y84.4854 
G01 X40.4946 Y84.4430 
G01 X40.4946 Y84.0174 
G01 X40.4345 Y83.9573 
G01 X39.2327 Y82.7555 
G01 X39.1645 Y82.6873 
G01 X39.1276 Y82.5982 
G01 X39.1276 Y75.0304 
G01 X37.9996 Y73.9024 
G01 X34.5324 Y73.9024 
G01 X34.5324 Y80.0582 
G01 X34.4955 Y80.1473 
G01 X34.4354 Y80.2074 
G01 X34.4354 Y80.6330 
G01 X34.4178 Y80.6754 
G01 X34.3854 Y80.7078 
G01 X34.3430 Y80.7254 
G01 X33.9174 Y80.7254 
G01 X31.9924 Y82.6504 
G01 X31.9924 Y88.9482 
G01 X31.9555 Y89.0373 
G01 X30.0288 Y90.9640 
G01 X30.1255 Y91.0608 
G01 X30.1255 Y91.8192 
G01 X29.5892 Y92.3555 
G01 X28.8308 Y92.3555 
G01 X28.2945 Y91.8192 
G01 X28.2945 Y91.0608 
G01 X28.8308 Y90.5245 
G01 X29.5892 Y90.5245 
G01 X29.6860 Y90.6212 
G01 X31.5076 Y88.7996 
G01 X31.5076 Y82.5018 
G01 X31.5445 Y82.4127 
G01 X31.6127 Y82.3445 
G01 X33.4046 Y80.5526 
G01 X33.4046 Y79.3870 
G01 X33.4222 Y79.3446 
G01 X33.4546 Y79.3122 
G01 X33.4970 Y79.2946 
G01 X34.0476 Y79.2946 
G01 X34.0476 Y73.6118 
G01 X34.0845 Y73.5227 
G01 X34.1527 Y73.4545 
G01 X34.2418 Y73.4176 
G01 X38.1482 Y73.4176 
G01 X38.2373 Y73.4545 
G01 X38.3055 Y73.5227 
G01 X39.5755 Y74.7927 
G01 X39.6124 Y74.8818 
G01 X39.6124 Y82.4496 
G01 X40.4946 Y83.3318 
G01 X40.4946 Y83.1970 
G01 X40.5122 Y83.1546 
G01 X40.5446 Y83.1222 
G01 X40.5870 Y83.1046 
G01 X41.4330 Y83.1046 
G01 X41.4754 Y83.1222 
G01 X41.5078 Y83.1546 
G01 X41.5254 Y83.1970 
G00 Z2.5400 
G00 X41.5254 Y87.0070 
G01 Z-0.1500 F254.00 
G01 X41.5254 Y88.1726 F508.00 
G01 X42.0473 Y88.6945 
G01 X42.1155 Y88.7627 
G01 X42.1524 Y88.8518 
G01 X42.1524 Y96.5682 
G01 X42.1155 Y96.6573 
G01 X42.0473 Y96.7255 
G01 X41.9582 Y96.7624 
G01 X34.2418 Y96.7624 
G01 X34.1527 Y96.7255 
G01 X34.0845 Y96.6573 
G01 X34.0476 Y96.5682 
G01 X34.0476 Y88.8518 
G01 X34.0845 Y88.7627 
G01 X36.0112 Y86.8360 
G01 X35.9145 Y86.7392 
G01 X35.9145 Y85.9808 
G01 X36.4508 Y85.4445 
G01 X37.2092 Y85.4445 
G01 X37.7455 Y85.9808 
G01 X37.7455 Y86.7392 
G01 X37.2092 Y87.2755 
G01 X36.4508 Y87.2755 
G01 X36.3540 Y87.1788 
G01 X34.5324 Y89.0004 
G01 X34.5324 Y96.2776 
G01 X41.6676 Y96.2776 
G01 X41.6676 Y89.0004 
G01 X41.0126 Y88.3454 
G01 X40.5870 Y88.3454 
G01 X40.5446 Y88.3278 
G01 X40.5122 Y88.2954 
G01 X40.4946 Y88.2530 
G01 X40.4946 Y87.8274 
G01 X40.4345 Y87.7673 
G01 X40.3976 Y87.6782 
G01 X40.3976 Y87.5818 
G01 X40.4345 Y87.4927 
G01 X40.4946 Y87.4326 
G01 X40.4946 Y87.0070 
G01 X40.5122 Y86.9646 
G01 X40.5446 Y86.9322 
G01 X40.5870 Y86.9146 
G01 X41.4330 Y86.9146 
G01 X41.4754 Y86.9322 
G01 X41.5078 Y86.9646 
G01 X41.5254 Y87.0070 
G00 Z2.5400 
G00 X30.1255 Y88.5208 
G01 Z-0.1500 F254.00 
G01 X30.1255 Y89.2792 F508.00 
G01 X29.5892 Y89.8155 
G01 X28.8308 Y89.8155 
G01 X28.2945 Y89.2792 
G01 X28.2945 Y88.5208 
G01 X28.8308 Y87.9845 
G01 X29.5892 Y87.9845 
G01 X29.6860 Y88.0812 
G01 X30.2376 Y87.5296 
G01 X30.2376 Y80.7254 
G01 X29.6870 Y80.7254 
G01 X29.6446 Y80.7078 
G01 X29.6122 Y80.6754 
G01 X29.5946 Y80.6330 
G01 X29.5946 Y79.3870 
G01 X29.6122 Y79.3446 
G01 X29.6446 Y79.3122 
G01 X29.6870 Y79.2946 
G01 X30.5330 Y79.2946 
G01 X30.5754 Y79.3122 
G01 X30.6078 Y79.3446 
G01 X30.6254 Y79.3870 
G01 X30.6254 Y79.7676 
G01 X31.6046 Y79.7676 
G01 X31.6046 Y79.3870 
G01 X31.6222 Y79.3446 
G01 X31.6546 Y79.3122 
G01 X31.6970 Y79.2946 
G01 X32.5430 Y79.2946 
G01 X32.5854 Y79.3122 
G01 X32.6178 Y79.3446 
G01 X32.6354 Y79.3870 
G01 X32.6354 Y80.6330 
G01 X32.6178 Y80.6754 
G01 X32.5854 Y80.7078 
G01 X32.5430 Y80.7254 
G01 X31.6970 Y80.7254 
G01 X31.6546 Y80.7078 
G01 X31.6222 Y80.6754 
G01 X31.6046 Y80.6330 
G01 X31.6046 Y80.2524 
G01 X30.7224 Y80.2524 
G01 X30.7224 Y87.6782 
G01 X30.6855 Y87.7673 
G01 X30.6173 Y87.8355 
G01 X30.0288 Y88.4240 
G01 X30.1255 Y88.5208 
G00 Z2.5400 
G00 X30.1255 Y93.6008 
G01 Z-0.1500 F254.00 
G01 X30.1255 Y94.3592 F508.00 
G01 X29.5892 Y94.8955 
G01 X29.4524 Y94.8955 
G01 X29.4524 Y97.5476 
G01 X41.8096 Y97.5476 
G01 X42.5418 Y96.8154 
G01 X42.2870 Y96.8154 
G01 X42.2446 Y96.7978 
G01 X42.2122 Y96.7654 
G01 X42.1946 Y96.7230 
G01 X42.1946 Y95.6770 
G01 X42.2122 Y95.6346 
G01 X42.2446 Y95.6022 
G01 X42.2870 Y95.5846 
G01 X43.7330 Y95.5846 
G01 X43.7610 Y95.5962 
G01 X45.4776 Y93.8796 
G01 X45.4776 Y78.9824 
G01 X42.0104 Y78.9824 
G01 X41.5254 Y79.4674 
G01 X41.5254 Y80.6330 
G01 X41.5078 Y80.6754 
G01 X41.4754 Y80.7078 
G01 X41.4330 Y80.7254 
G01 X40.5870 Y80.7254 
G01 X40.5446 Y80.7078 
G01 X40.5122 Y80.6754 
G01 X40.4946 Y80.6330 
G01 X40.4946 Y80.2074 
G01 X40.4345 Y80.1473 
G01 X40.3976 Y80.0582 
G01 X40.3976 Y79.9618 
G01 X40.4345 Y79.8727 
G01 X40.4946 Y79.8126 
G01 X40.4946 Y79.3870 
G01 X40.5122 Y79.3446 
G01 X40.5446 Y79.3122 
G01 X40.5870 Y79.2946 
G01 X41.0126 Y79.2946 
G01 X41.7045 Y78.6027 
G01 X41.7727 Y78.5345 
G01 X41.8618 Y78.4976 
G01 X45.7682 Y78.4976 
G01 X45.8573 Y78.5345 
G01 X45.9255 Y78.6027 
G01 X45.9624 Y78.6918 
G01 X45.9624 Y80.6948 
G01 X49.2876 Y77.3696 
G01 X49.2876 Y67.2618 
G01 X49.3245 Y67.1727 
G01 X49.3927 Y67.1045 
G01 X53.5807 Y62.9165 
G01 X53.4551 Y62.8326 
G01 X53.3470 Y62.7245 
G01 X53.2621 Y62.5975 
G01 X53.2036 Y62.4563 
G01 X53.1738 Y62.3064 
G01 X53.1738 Y62.1536 
G01 X53.2036 Y62.0037 
G01 X53.2621 Y61.8625 
G01 X53.3470 Y61.7355 
G01 X53.4551 Y61.6274 
G01 X53.5821 Y61.5425 
G01 X53.7233 Y61.4840 
G01 X53.8732 Y61.4542 
G01 X55.3468 Y61.4542 
G01 X55.4967 Y61.4840 
G01 X55.6379 Y61.5425 
G01 X55.7649 Y61.6274 
G01 X55.8730 Y61.7355 
G01 X55.9579 Y61.8625 
G01 X56.0164 Y62.0037 
G01 X56.0462 Y62.1536 
G01 X56.0462 Y62.3064 
G01 X56.0164 Y62.4563 
G01 X55.9579 Y62.5975 
G01 X55.8730 Y62.7245 
G01 X55.7649 Y62.8326 
G01 X55.6379 Y62.9175 
G01 X55.4967 Y62.9760 
G01 X55.3468 Y63.0058 
G01 X54.1770 Y63.0058 
G01 X49.7724 Y67.4104 
G01 X49.7724 Y77.5182 
G01 X49.7355 Y77.6073 
G01 X45.9624 Y81.3804 
G01 X45.9624 Y94.0282 
G01 X45.9255 Y94.1173 
G01 X43.8254 Y96.2174 
G01 X43.8254 Y96.7230 
G01 X43.8078 Y96.7654 
G01 X43.7754 Y96.7978 
G01 X43.7330 Y96.8154 
G01 X43.2274 Y96.8154 
G01 X42.1155 Y97.9273 
G01 X42.0473 Y97.9955 
G01 X41.9582 Y98.0324 
G01 X29.1618 Y98.0324 
G01 X29.0727 Y97.9955 
G01 X29.0045 Y97.9273 
G01 X28.9676 Y97.8382 
G01 X28.9676 Y94.8955 
G01 X28.8308 Y94.8955 
G01 X28.2945 Y94.3592 
G01 X28.2945 Y93.6008 
G01 X28.3912 Y93.5040 
G01 X27.8027 Y92.9155 
G01 X27.7345 Y92.8473 
G01 X27.6976 Y92.7582 
G01 X27.6976 Y80.1104 
G01 X24.1300 Y76.5428 
G01 X14.1755 Y86.4973 
G01 X14.1443 Y86.5285 
G01 X14.1298 Y86.6011 
G01 X14.0675 Y86.7515 
G01 X13.9771 Y86.8869 
G01 X13.8619 Y87.0021 
G01 X13.7265 Y87.0925 
G01 X13.5761 Y87.1548 
G01 X13.4164 Y87.1866 
G01 X13.2536 Y87.1866 
G01 X13.0939 Y87.1548 
G01 X12.9435 Y87.0925 
G01 X12.8081 Y87.0021 
G01 X12.6929 Y86.8869 
G01 X12.6025 Y86.7515 
G01 X12.5402 Y86.6011 
G01 X12.5084 Y86.4414 
G01 X12.5084 Y86.2786 
G01 X12.5402 Y86.1189 
G01 X12.6025 Y85.9685 
G01 X12.6929 Y85.8331 
G01 X12.8081 Y85.7179 
G01 X12.9435 Y85.6275 
G01 X13.0939 Y85.5652 
G01 X13.2536 Y85.5334 
G01 X13.4164 Y85.5334 
G01 X13.5761 Y85.5652 
G01 X13.7265 Y85.6275 
G01 X13.8619 Y85.7179 
G01 X13.9771 Y85.8331 
G01 X14.0480 Y85.9392 
G01 X23.7872 Y76.2000 
G01 X20.1827 Y72.5955 
G01 X20.1145 Y72.5273 
G01 X14.3426 Y66.7554 
G01 X14.2124 Y66.7554 
G01 X14.2124 Y69.1346 
G01 X14.7630 Y69.1346 
G01 X14.8054 Y69.1522 
G01 X14.8378 Y69.1846 
G01 X14.8554 Y69.2270 
G01 X14.8554 Y70.4730 
G01 X14.8378 Y70.5154 
G01 X14.8054 Y70.5478 
G01 X14.7630 Y70.5654 
G01 X13.9170 Y70.5654 
G01 X13.8746 Y70.5478 
G01 X13.8422 Y70.5154 
G01 X13.8246 Y70.4730 
G01 X13.8246 Y70.0474 
G01 X13.7645 Y69.9873 
G01 X13.7276 Y69.8982 
G01 X13.7276 Y66.2824 
G01 X11.8883 Y66.2824 
G01 X11.8883 Y67.0917 
G01 X11.8707 Y67.1341 
G01 X11.8383 Y67.1665 
G01 X11.7959 Y67.1841 
G01 X9.7433 Y67.1841 
G01 X9.7009 Y67.1665 
G01 X9.6685 Y67.1341 
G01 X9.6509 Y67.0917 
G01 X9.6509 Y66.8919 
G01 X6.5924 Y69.9504 
G01 X6.5924 Y73.7082 
G01 X6.5555 Y73.7973 
G01 X6.4873 Y73.8655 
G01 X6.3982 Y73.9024 
G01 X2.8840 Y73.9024 
G01 X2.8840 Y74.0224 
G01 X2.8580 Y74.1865 
G01 X2.8067 Y74.3445 
G01 X2.7313 Y74.4924 
G01 X2.6337 Y74.6268 
G01 X2.5162 Y74.7443 
G01 X2.3818 Y74.8419 
G01 X2.2339 Y74.9173 
G01 X2.0759 Y74.9686 
G01 X1.9118 Y74.9946 
G01 X1.7458 Y74.9946 
G01 X1.5817 Y74.9686 
G01 X1.4237 Y74.9173 
G01 X1.2758 Y74.8419 
G01 X1.1414 Y74.7443 
G01 X1.0239 Y74.6268 
G01 X0.9263 Y74.4924 
G01 X0.8509 Y74.3445 
G01 X0.7996 Y74.1865 
G01 X0.7736 Y74.0224 
G01 X0.7736 Y73.8564 
G01 X0.7996 Y73.6923 
G01 X0.8509 Y73.5343 
G01 X0.9263 Y73.3864 
G01 X1.0239 Y73.2520 
G01 X1.1414 Y73.1345 
G01 X1.2758 Y73.0369 
G01 X1.4237 Y72.9615 
G01 X1.5817 Y72.9102 
G01 X1.7458 Y72.8842 
G01 X1.9118 Y72.8842 
G01 X2.0759 Y72.9102 
G01 X2.2339 Y72.9615 
G01 X2.3818 Y73.0369 
G01 X2.5162 Y73.1345 
G01 X2.6337 Y73.2520 
G01 X2.7313 Y73.3864 
G01 X2.7472 Y73.4176 
G01 X6.1076 Y73.4176 
G01 X6.1076 Y69.8018 
G01 X6.1445 Y69.7127 
G01 X6.2127 Y69.6445 
G01 X9.6509 Y66.2063 
G01 X9.6509 Y65.8737 
G01 X7.7726 Y63.9954 
G01 X6.9970 Y63.9954 
G01 X6.9546 Y63.9778 
G01 X6.9222 Y63.9454 
G01 X6.9046 Y63.9030 
G01 X6.9046 Y62.6570 
G01 X6.9222 Y62.6146 
G01 X6.9546 Y62.5822 
G01 X6.9970 Y62.5646 
G01 X8.2430 Y62.5646 
G01 X8.2854 Y62.5822 
G01 X8.3178 Y62.6146 
G01 X8.3354 Y62.6570 
G01 X8.3354 Y63.8726 
G01 X9.9175 Y65.4547 
G01 X11.7959 Y65.4547 
G01 X11.8383 Y65.4723 
G01 X11.8707 Y65.5047 
G01 X11.8883 Y65.5471 
G01 X11.8883 Y65.7976 
G01 X13.8246 Y65.7976 
G01 X13.8246 Y65.4170 
G01 X13.8422 Y65.3746 
G01 X13.8746 Y65.3422 
G01 X13.9170 Y65.3246 
G01 X14.7630 Y65.3246 
G01 X14.8054 Y65.3422 
G01 X14.8378 Y65.3746 
G01 X14.8554 Y65.4170 
G01 X14.8554 Y66.5826 
G01 X20.0776 Y71.8048 
G01 X20.0776 Y71.0718 
G01 X20.1145 Y70.9827 
G01 X20.1827 Y70.9145 
G01 X28.9676 Y62.1296 
G01 X28.9676 Y54.5618 
G01 X29.0045 Y54.4727 
G01 X29.0646 Y54.4126 
G01 X29.0646 Y53.9870 
G01 X29.0822 Y53.9446 
G01 X29.1146 Y53.9122 
G01 X29.1570 Y53.8946 
G01 X30.0030 Y53.8946 
G01 X30.0454 Y53.9122 
G01 X30.0778 Y53.9446 
G01 X30.0954 Y53.9870 
G01 X30.0954 Y55.2330 
G01 X30.0778 Y55.2754 
G01 X30.0454 Y55.3078 
G01 X30.0030 Y55.3254 
G01 X29.4524 Y55.3254 
G01 X29.4524 Y57.7046 
G01 X30.0030 Y57.7046 
G01 X30.0454 Y57.7222 
G01 X30.0778 Y57.7546 
G01 X30.0954 Y57.7970 
G01 X30.0954 Y59.0430 
G01 X30.0778 Y59.0854 
G01 X30.0454 Y59.1178 
G01 X30.0030 Y59.1354 
G01 X29.4524 Y59.1354 
G01 X29.4524 Y61.5146 
G01 X30.0030 Y61.5146 
G01 X30.0454 Y61.5322 
G01 X30.0778 Y61.5646 
G01 X30.0954 Y61.6070 
G01 X30.0954 Y62.8530 
G01 X30.0778 Y62.8954 
G01 X30.0454 Y62.9278 
G01 X30.0030 Y62.9454 
G01 X29.1570 Y62.9454 
G01 X29.1146 Y62.9278 
G01 X29.0822 Y62.8954 
G01 X29.0646 Y62.8530 
G01 X29.0646 Y62.7182 
G01 X20.5624 Y71.2204 
G01 X20.5624 Y72.2896 
G01 X24.2673 Y75.9945 
G01 X24.3355 Y76.0627 
G01 X27.7946 Y79.5218 
G01 X27.7946 Y79.3870 
G01 X27.8122 Y79.3446 
G01 X27.8446 Y79.3122 
G01 X27.8870 Y79.2946 
G01 X28.7330 Y79.2946 
G01 X28.7754 Y79.3122 
G01 X28.8078 Y79.3446 
G01 X28.8254 Y79.3870 
G01 X28.8254 Y80.6330 
G01 X28.8078 Y80.6754 
G01 X28.7754 Y80.7078 
G01 X28.7330 Y80.7254 
G01 X28.1824 Y80.7254 
G01 X28.1824 Y92.6096 
G01 X28.7340 Y93.1612 
G01 X28.8308 Y93.0645 
G01 X29.5892 Y93.0645 
G01 X30.1255 Y93.6008 
G00 Z2.5400 
G00 X37.7455 Y93.6008 
G01 Z-0.1500 F254.00 
G01 X37.7455 Y94.3592 F508.00 
G01 X37.2092 Y94.8955 
G01 X36.4508 Y94.8955 
G01 X35.9145 Y94.3592 
G01 X35.9145 Y93.6008 
G01 X36.4508 Y93.0645 
G01 X37.2092 Y93.0645 
G01 X37.3060 Y93.1612 
G01 X37.8576 Y92.6096 
G01 X37.8576 Y80.7254 
G01 X37.3070 Y80.7254 
G01 X37.2646 Y80.7078 
G01 X37.2322 Y80.6754 
G01 X37.2146 Y80.6330 
G01 X37.2146 Y79.3870 
G01 X37.2322 Y79.3446 
G01 X37.2646 Y79.3122 
G01 X37.3070 Y79.2946 
G01 X38.1530 Y79.2946 
G01 X38.1954 Y79.3122 
G01 X38.2278 Y79.3446 
G01 X38.2454 Y79.3870 
G01 X38.2454 Y79.8126 
G01 X38.3055 Y79.8727 
G01 X38.3424 Y79.9618 
G01 X38.3424 Y92.7582 
G01 X38.3055 Y92.8473 
G01 X37.6488 Y93.5040 
G01 X37.7455 Y93.6008 
G00 Z2.5400 
G00 X37.7455 Y88.5208 
G01 Z-0.1500 F254.00 
G01 X37.7455 Y89.2792 F508.00 
G01 X37.2092 Y89.8155 
G01 X37.0724 Y89.8155 
G01 X37.0724 Y90.5245 
G01 X37.2092 Y90.5245 
G01 X37.7455 Y91.0608 
G01 X37.7455 Y91.8192 
G01 X37.2092 Y92.3555 
G01 X36.4508 Y92.3555 
G01 X36.3540 Y92.2588 
G01 X35.8024 Y92.8104 
G01 X35.8024 Y95.0076 
G01 X39.9946 Y95.0076 
G01 X39.9946 Y94.7270 
G01 X40.0122 Y94.6846 
G01 X40.0446 Y94.6522 
G01 X40.0870 Y94.6346 
G01 X40.3976 Y94.6346 
G01 X40.3976 Y91.3918 
G01 X40.4345 Y91.3027 
G01 X40.4946 Y91.2426 
G01 X40.4946 Y90.8170 
G01 X40.5122 Y90.7746 
G01 X40.5446 Y90.7422 
G01 X40.5870 Y90.7246 
G01 X41.4330 Y90.7246 
G01 X41.4754 Y90.7422 
G01 X41.5078 Y90.7746 
G01 X41.5254 Y90.8170 
G01 X41.5254 Y92.0630 
G01 X41.5078 Y92.1054 
G01 X41.4754 Y92.1378 
G01 X41.4330 Y92.1554 
G01 X40.8824 Y92.1554 
G01 X40.8824 Y94.6346 
G01 X41.5330 Y94.6346 
G01 X41.5754 Y94.6522 
G01 X41.6078 Y94.6846 
G01 X41.6254 Y94.7270 
G01 X41.6254 Y95.7730 
G01 X41.6078 Y95.8154 
G01 X41.5754 Y95.8478 
G01 X41.5330 Y95.8654 
G01 X40.0870 Y95.8654 
G01 X40.0446 Y95.8478 
G01 X40.0122 Y95.8154 
G01 X39.9946 Y95.7730 
G01 X39.9946 Y95.4924 
G01 X35.5118 Y95.4924 
G01 X35.4227 Y95.4555 
G01 X35.3545 Y95.3873 
G01 X35.3176 Y95.2982 
G01 X35.3176 Y92.6618 
G01 X35.3545 Y92.5727 
G01 X36.0112 Y91.9160 
G01 X35.9145 Y91.8192 
G01 X35.9145 Y91.0608 
G01 X36.4508 Y90.5245 
G01 X36.5876 Y90.5245 
G01 X36.5876 Y89.8155 
G01 X36.4508 Y89.8155 
G01 X35.9145 Y89.2792 
G01 X35.9145 Y88.5208 
G01 X36.4508 Y87.9845 
G01 X37.2092 Y87.9845 
G01 X37.7455 Y88.5208 
G00 Z2.5400 
G00 X12.8916 Y83.7386 
G01 Z-0.1500 F254.00 
G01 X12.8916 Y83.9014 F508.00 
G01 X12.8598 Y84.0611 
G01 X12.7975 Y84.2115 
G01 X12.7071 Y84.3469 
G01 X12.5919 Y84.4621 
G01 X12.4565 Y84.5525 
G01 X12.3061 Y84.6148 
G01 X12.1464 Y84.6466 
G01 X11.9836 Y84.6466 
G01 X11.8239 Y84.6148 
G01 X11.6735 Y84.5525 
G01 X11.5381 Y84.4621 
G01 X11.4229 Y84.3469 
G01 X11.3325 Y84.2115 
G01 X11.2702 Y84.0611 
G01 X11.2384 Y83.9014 
G01 X11.2384 Y83.7386 
G01 X11.2702 Y83.5789 
G01 X11.3325 Y83.4285 
G01 X11.4229 Y83.2931 
G01 X11.5381 Y83.1779 
G01 X11.6735 Y83.0875 
G01 X11.8239 Y83.0252 
G01 X11.9836 Y82.9934 
G01 X12.1464 Y82.9934 
G01 X12.3061 Y83.0252 
G01 X12.4565 Y83.0875 
G01 X12.5919 Y83.1779 
G01 X12.7071 Y83.2931 
G01 X12.7975 Y83.4285 
G01 X12.8598 Y83.5789 
G01 X12.8916 Y83.7386 
G00 Z2.5400 
G00 X15.4316 Y83.7386 
G01 Z-0.1500 F254.00 
G01 X15.4316 Y83.9014 F508.00 
G01 X15.3998 Y84.0611 
G01 X15.3375 Y84.2115 
G01 X15.2471 Y84.3469 
G01 X15.1319 Y84.4621 
G01 X14.9965 Y84.5525 
G01 X14.8461 Y84.6148 
G01 X14.6864 Y84.6466 
G01 X14.5236 Y84.6466 
G01 X14.3639 Y84.6148 
G01 X14.2135 Y84.5525 
G01 X14.0781 Y84.4621 
G01 X13.9629 Y84.3469 
G01 X13.8725 Y84.2115 
G01 X13.8102 Y84.0611 
G01 X13.7784 Y83.9014 
G01 X13.7784 Y83.7386 
G01 X13.8102 Y83.5789 
G01 X13.8725 Y83.4285 
G01 X13.9629 Y83.2931 
G01 X14.0781 Y83.1779 
G01 X14.2135 Y83.0875 
G01 X14.3639 Y83.0252 
G01 X14.5236 Y82.9934 
G01 X14.6864 Y82.9934 
G01 X14.8461 Y83.0252 
G01 X14.9965 Y83.0875 
G01 X15.1319 Y83.1779 
G01 X15.2471 Y83.2931 
G01 X15.3375 Y83.4285 
G01 X15.3998 Y83.5789 
G01 X15.4316 Y83.7386 
G00 Z2.5400 
G00 X16.7016 Y86.2786 
G01 Z-0.1500 F254.00 
G01 X16.7016 Y86.4414 F508.00 
G01 X16.6698 Y86.6011 
G01 X16.6075 Y86.7515 
G01 X16.5171 Y86.8869 
G01 X16.4019 Y87.0021 
G01 X16.2665 Y87.0925 
G01 X16.1161 Y87.1548 
G01 X15.9564 Y87.1866 
G01 X15.7936 Y87.1866 
G01 X15.6339 Y87.1548 
G01 X15.4835 Y87.0925 
G01 X15.3481 Y87.0021 
G01 X15.2329 Y86.8869 
G01 X15.1425 Y86.7515 
G01 X15.0802 Y86.6011 
G01 X15.0484 Y86.4414 
G01 X15.0484 Y86.2786 
G01 X15.0802 Y86.1189 
G01 X15.1425 Y85.9685 
G01 X15.2329 Y85.8331 
G01 X15.3481 Y85.7179 
G01 X15.4835 Y85.6275 
G01 X15.6339 Y85.5652 
G01 X15.7936 Y85.5334 
G01 X15.9564 Y85.5334 
G01 X16.1161 Y85.5652 
G01 X16.2665 Y85.6275 
G01 X16.4019 Y85.7179 
G01 X16.5171 Y85.8331 
G01 X16.6075 Y85.9685 
G01 X16.6698 Y86.1189 
G01 X16.7016 Y86.2786 
G00 Z2.5400 
G00 X43.7330 Y94.9154 
G01 Z-0.1500 F254.00 
G01 X42.2870 Y94.9154 F508.00 
G01 X42.2446 Y94.8978 
G01 X42.2122 Y94.8654 
G01 X42.1946 Y94.8230 
G01 X42.1946 Y93.7770 
G01 X42.2122 Y93.7346 
G01 X42.2446 Y93.7022 
G01 X42.2870 Y93.6846 
G01 X43.1326 Y93.6846 
G01 X44.2076 Y92.6096 
G01 X44.2076 Y83.9204 
G01 X42.1447 Y81.8575 
G01 X42.0918 Y81.8794 
G01 X41.9714 Y81.9034 
G01 X41.8486 Y81.9034 
G01 X41.7282 Y81.8794 
G01 X41.6147 Y81.8324 
G01 X41.5126 Y81.7642 
G01 X41.4258 Y81.6774 
G01 X41.3576 Y81.5753 
G01 X41.3106 Y81.4618 
G01 X41.2866 Y81.3414 
G01 X41.2866 Y81.2186 
G01 X41.3106 Y81.0982 
G01 X41.3576 Y80.9847 
G01 X41.4258 Y80.8826 
G01 X41.5126 Y80.7958 
G01 X41.6147 Y80.7276 
G01 X41.7282 Y80.6806 
G01 X41.8486 Y80.6566 
G01 X41.9714 Y80.6566 
G01 X42.0918 Y80.6806 
G01 X42.1447 Y80.7025 
G01 X42.2946 Y80.5526 
G01 X42.2946 Y79.3870 
G01 X42.3122 Y79.3446 
G01 X42.3446 Y79.3122 
G01 X42.3870 Y79.2946 
G01 X43.2330 Y79.2946 
G01 X43.2754 Y79.3122 
G01 X43.3078 Y79.3446 
G01 X43.3254 Y79.3870 
G01 X43.3254 Y79.8126 
G01 X43.3855 Y79.8727 
G01 X43.4224 Y79.9618 
G01 X43.4224 Y80.0582 
G01 X43.3855 Y80.1473 
G01 X43.3254 Y80.2074 
G01 X43.3254 Y80.6330 
G01 X43.3078 Y80.6754 
G01 X43.2754 Y80.7078 
G01 X43.2330 Y80.7254 
G01 X42.8074 Y80.7254 
G01 X42.4875 Y81.0453 
G01 X42.5094 Y81.0982 
G01 X42.5334 Y81.2186 
G01 X42.5334 Y81.3414 
G01 X42.5094 Y81.4618 
G01 X42.4875 Y81.5147 
G01 X44.6555 Y83.6827 
G01 X44.6924 Y83.7718 
G01 X44.6924 Y92.7582 
G01 X44.6555 Y92.8473 
G01 X44.5873 Y92.9155 
G01 X43.7880 Y93.7148 
G01 X43.8078 Y93.7346 
G01 X43.8254 Y93.7770 
G01 X43.8254 Y94.8230 
G01 X43.8078 Y94.8654 
G01 X43.7754 Y94.8978 
G01 X43.7330 Y94.9154 
G00 Z2.5400 
G00 X36.2563 Y94.8806 
G01 Z-0.1500 F254.00 
G01 X35.9294 Y94.5537 F508.00 
G01 X35.9294 Y94.8806 
G01 X36.2563 Y94.8806 
G00 Z2.5400 
G00 X29.6618 Y80.8524 
G01 Z-0.1500 F254.00 
G01 X29.5794 Y80.8183 F508.00 
G01 X29.5794 Y85.3175 
G01 X29.6418 Y85.3175 
G01 X30.1106 Y85.7863 
G01 X30.1106 Y80.8524 
G01 X29.6618 Y80.8524 
G00 Z2.5400 
G00 X30.1106 Y86.9337 
G01 Z-0.1500 F254.00 
G01 X29.6418 Y87.4025 F508.00 
G01 X28.7782 Y87.4025 
G01 X28.3094 Y86.9337 
G01 X28.3094 Y88.3263 
G01 X28.7782 Y87.8575 
G01 X29.6418 Y87.8575 
G01 X29.6860 Y87.9016 
G01 X30.1106 Y87.4770 
G01 X30.1106 Y86.9337 
G00 Z2.5400 
G00 X28.7782 Y85.3175 
G01 Z-0.1500 F254.00 
G01 X28.8406 Y85.3175 F508.00 
G01 X28.8406 Y80.8183 
G01 X28.7582 Y80.8524 
G01 X28.3094 Y80.8524 
G01 X28.3094 Y85.7863 
G01 X28.7782 Y85.3175 
G00 Z2.5400 
G00 X24.3568 Y75.9044 
G01 Z-0.1500 F254.00 
G01 X24.4256 Y75.9732 F508.00 
G01 X27.7148 Y79.2624 
G01 X27.7727 Y79.2045 
G01 X27.8618 Y79.1676 
G01 X28.7582 Y79.1676 
G01 X28.8406 Y79.2017 
G01 X28.8406 Y67.2614 
G01 X28.8658 Y67.1674 
G01 X28.9144 Y67.0832 
G01 X28.9376 Y67.0600 
G01 X28.9376 Y66.6618 
G01 X28.9745 Y66.5727 
G01 X29.0427 Y66.5045 
G01 X29.1318 Y66.4676 
G01 X29.5300 Y66.4676 
G01 X30.1106 Y65.8870 
G01 X30.1106 Y63.0383 
G01 X30.0282 Y63.0724 
G01 X29.1318 Y63.0724 
G01 X29.0427 Y63.0355 
G01 X28.9848 Y62.9776 
G01 X20.6894 Y71.2730 
G01 X20.6894 Y72.2370 
G01 X24.3568 Y75.9044 
G00 Z2.5400 
G00 X34.6594 Y96.1506 
G01 Z-0.1500 F254.00 
G01 X41.5406 Y96.1506 F508.00 
G01 X41.5406 Y95.9924 
G01 X40.0618 Y95.9924 
G01 X39.9727 Y95.9555 
G01 X39.9045 Y95.8873 
G01 X39.8676 Y95.7982 
G01 X39.8676 Y95.6194 
G01 X35.5114 Y95.6194 
G01 X35.4174 Y95.5942 
G01 X35.3332 Y95.5456 
G01 X35.2644 Y95.4768 
G01 X35.2158 Y95.3926 
G01 X35.1906 Y95.2986 
G01 X35.1906 Y92.6614 
G01 X35.2158 Y92.5674 
G01 X35.2644 Y92.4832 
G01 X35.8316 Y91.9160 
G01 X35.7875 Y91.8718 
G01 X35.7875 Y91.0082 
G01 X36.3982 Y90.3975 
G01 X36.4606 Y90.3975 
G01 X36.4606 Y89.9425 
G01 X36.3982 Y89.9425 
G01 X35.7875 Y89.3318 
G01 X35.7875 Y88.4682 
G01 X36.3982 Y87.8575 
G01 X37.2618 Y87.8575 
G01 X37.7306 Y88.3263 
G01 X37.7306 Y86.9337 
G01 X37.2618 Y87.4025 
G01 X36.3982 Y87.4025 
G01 X36.3540 Y87.3584 
G01 X34.6594 Y89.0530 
G01 X34.6594 Y96.1506 
G00 Z2.5400 
G00 X41.4582 Y92.2824 
G01 Z-0.1500 F254.00 
G01 X41.0094 Y92.2824 F508.00 
G01 X41.0094 Y94.5076 
G01 X41.5406 Y94.5076 
G01 X41.5406 Y92.2483 
G01 X41.4582 Y92.2824 
G00 Z2.5400 
G00 X43.7200 Y95.4576 
G01 Z-0.1500 F254.00 
G01 X45.3506 Y93.8270 F508.00 
G01 X45.3506 Y79.1094 
G01 X42.0630 Y79.1094 
G01 X41.6524 Y79.5200 
G01 X41.6524 Y80.5745 
G01 X41.6911 Y80.5584 
G01 X41.8361 Y80.5296 
G01 X41.9839 Y80.5296 
G01 X42.1124 Y80.5552 
G01 X42.1676 Y80.5000 
G01 X42.1676 Y79.3618 
G01 X42.2045 Y79.2727 
G01 X42.2727 Y79.2045 
G01 X42.3618 Y79.1676 
G01 X43.2582 Y79.1676 
G01 X43.3473 Y79.2045 
G01 X43.4155 Y79.2727 
G01 X43.4524 Y79.3618 
G01 X43.4524 Y79.7600 
G01 X43.4756 Y79.7832 
G01 X43.5242 Y79.8674 
G01 X43.5494 Y79.9614 
G01 X43.5494 Y80.0586 
G01 X43.5242 Y80.1526 
G01 X43.4756 Y80.2368 
G01 X43.4524 Y80.2600 
G01 X43.4524 Y80.6582 
G01 X43.4155 Y80.7473 
G01 X43.3473 Y80.8155 
G01 X43.2582 Y80.8524 
G01 X42.8600 Y80.8524 
G01 X42.6348 Y81.0776 
G01 X42.6604 Y81.2061 
G01 X42.6604 Y81.3539 
G01 X42.6348 Y81.4824 
G01 X44.7456 Y83.5932 
G01 X44.7942 Y83.6774 
G01 X44.8194 Y83.7714 
G01 X44.8194 Y92.7586 
G01 X44.7942 Y92.8526 
G01 X44.7456 Y92.9368 
G01 X44.6768 Y93.0056 
G01 X43.9460 Y93.7364 
G01 X43.9524 Y93.7518 
G01 X43.9524 Y94.8482 
G01 X43.9155 Y94.9373 
G01 X43.8473 Y95.0055 
G01 X43.7582 Y95.0424 
G01 X42.2794 Y95.0424 
G01 X42.2794 Y95.4576 
G01 X43.7200 Y95.4576 
G00 Z2.5400 
G00 X43.0800 Y93.5576 
G01 Z-0.1500 F254.00 
G01 X44.0806 Y92.5570 F508.00 
G01 X44.0806 Y83.9730 
G01 X43.4524 Y83.3448 
G01 X43.4524 Y83.5700 
G01 X43.4756 Y83.5932 
G01 X43.5242 Y83.6774 
G01 X43.5494 Y83.7714 
G01 X43.5494 Y91.4886 
G01 X43.5242 Y91.5826 
G01 X43.4756 Y91.6668 
G01 X43.4524 Y91.6900 
G01 X43.4524 Y92.0882 
G01 X43.4155 Y92.1773 
G01 X43.3473 Y92.2455 
G01 X43.2582 Y92.2824 
G01 X42.3618 Y92.2824 
G01 X42.2794 Y92.2483 
G01 X42.2794 Y93.5576 
G01 X43.0800 Y93.5576 
G00 Z2.5400 
G00 X37.2618 Y89.9425 
G01 Z-0.1500 F254.00 
G01 X37.1994 Y89.9425 F508.00 
G01 X37.1994 Y90.3975 
G01 X37.2618 Y90.3975 
G01 X37.7306 Y90.8663 
G01 X37.7306 Y89.4737 
G01 X37.2618 Y89.9425 
G00 Z2.5400 
G00 X37.7306 Y92.0137 
G01 Z-0.1500 F254.00 
G01 X37.2618 Y92.4825 F508.00 
G01 X36.3982 Y92.4825 
G01 X36.3540 Y92.4384 
G01 X35.9294 Y92.8630 
G01 X35.9294 Y93.4063 
G01 X36.3982 Y92.9375 
G01 X37.2618 Y92.9375 
G01 X37.3060 Y92.9816 
G01 X37.7306 Y92.5570 
G01 X37.7306 Y92.0137 
G00 Z2.5400 
G00 X30.0282 Y61.3876 
G01 Z-0.1500 F254.00 
G01 X30.1106 Y61.4217 F508.00 
G01 X30.1106 Y59.2283 
G01 X30.0282 Y59.2624 
G01 X29.5794 Y59.2624 
G01 X29.5794 Y61.3876 
G01 X30.0282 Y61.3876 
G00 Z2.5400 
G00 X30.0282 Y57.5776 
G01 Z-0.1500 F254.00 
G01 X30.1106 Y57.6117 F508.00 
G01 X30.1106 Y55.4183 
G01 X30.0282 Y55.4524 
G01 X29.5794 Y55.4524 
G01 X29.5794 Y57.5776 
G01 X30.0282 Y57.5776 
G00 Z2.5400 
G00 X36.9686 Y64.1610 
G01 Z-0.1500 F254.00 
G01 X31.9752 Y59.1676 F508.00 
G01 X31.9173 Y59.2255 
G01 X31.8282 Y59.2624 
G01 X30.9318 Y59.2624 
G01 X30.8494 Y59.2283 
G01 X30.8494 Y61.4217 
G01 X30.9318 Y61.3876 
G01 X31.8282 Y61.3876 
G01 X31.9173 Y61.4245 
G01 X31.9855 Y61.4927 
G01 X32.0224 Y61.5818 
G01 X32.0224 Y61.9800 
G01 X32.0456 Y62.0032 
G01 X36.9686 Y66.9262 
G01 X36.9686 Y64.1610 
G00 Z2.5400 
G00 X81.0904 Y3.6780 
G01 Z-0.1500 F254.00 
G01 X81.0904 Y3.9420 F508.00 
G01 X81.0608 Y4.2043 
G01 X81.0021 Y4.4617 
G01 X80.9149 Y4.7109 
G01 X80.8004 Y4.9487 
G01 X80.6599 Y5.1723 
G01 X80.4953 Y5.3786 
G01 X80.3086 Y5.5653 
G01 X80.1022 Y5.7299 
G01 X79.8787 Y5.8704 
G01 X79.6409 Y5.9849 
G01 X79.3917 Y6.0721 
G01 X79.1343 Y6.1308 
G01 X78.8720 Y6.1604 
G01 X78.6080 Y6.1604 
G01 X78.3457 Y6.1308 
G01 X78.0883 Y6.0721 
G01 X77.8391 Y5.9849 
G01 X77.6013 Y5.8704 
G01 X77.3777 Y5.7299 
G01 X77.1714 Y5.5653 
G01 X76.9847 Y5.3786 
G01 X76.8201 Y5.1723 
G01 X76.6796 Y4.9487 
G01 X76.5651 Y4.7109 
G01 X76.4779 Y4.4617 
G01 X76.4192 Y4.2043 
G01 X76.3896 Y3.9420 
G01 X76.3896 Y3.6780 
G01 X76.4192 Y3.4157 
G01 X76.4779 Y3.1583 
G01 X76.5651 Y2.9091 
G01 X76.6796 Y2.6713 
G01 X76.8201 Y2.4477 
G01 X76.9847 Y2.2414 
G01 X77.1714 Y2.0547 
G01 X77.3777 Y1.8901 
G01 X77.6013 Y1.7496 
G01 X77.8391 Y1.6351 
G01 X78.0883 Y1.5479 
G01 X78.3457 Y1.4892 
G01 X78.6080 Y1.4596 
G01 X78.8720 Y1.4596 
G01 X79.1343 Y1.4892 
G01 X79.3917 Y1.5479 
G01 X79.6409 Y1.6351 
G01 X79.8787 Y1.7496 
G01 X80.1022 Y1.8901 
G01 X80.3086 Y2.0547 
G01 X80.4953 Y2.2414 
G01 X80.6599 Y2.4477 
G01 X80.8004 Y2.6713 
G01 X80.9149 Y2.9091 
G01 X81.0021 Y3.1583 
G01 X81.0608 Y3.4157 
G01 X81.0904 Y3.6780 
G00 Z2.5400 
G00 X79.8204 Y96.3880 
G01 Z-0.1500 F254.00 
G01 X79.8204 Y96.6520 F508.00 
G01 X79.7908 Y96.9143 
G01 X79.7321 Y97.1717 
G01 X79.6449 Y97.4209 
G01 X79.5304 Y97.6587 
G01 X79.3899 Y97.8822 
G01 X79.2253 Y98.0886 
G01 X79.0386 Y98.2753 
G01 X78.8323 Y98.4399 
G01 X78.6087 Y98.5804 
G01 X78.3709 Y98.6949 
G01 X78.1217 Y98.7821 
G01 X77.8643 Y98.8408 
G01 X77.6020 Y98.8704 
G01 X77.3380 Y98.8704 
G01 X77.0757 Y98.8408 
G01 X76.8183 Y98.7821 
G01 X76.5691 Y98.6949 
G01 X76.3313 Y98.5804 
G01 X76.1077 Y98.4399 
G01 X75.9014 Y98.2753 
G01 X75.7147 Y98.0886 
G01 X75.5501 Y97.8822 
G01 X75.4096 Y97.6587 
G01 X75.2951 Y97.4209 
G01 X75.2079 Y97.1717 
G01 X75.1492 Y96.9143 
G01 X75.1196 Y96.6520 
G01 X75.1196 Y96.3880 
G01 X75.1492 Y96.1257 
G01 X75.2079 Y95.8683 
G01 X75.2951 Y95.6191 
G01 X75.4096 Y95.3813 
G01 X75.5501 Y95.1577 
G01 X75.7147 Y94.9514 
G01 X75.9014 Y94.7647 
G01 X76.1077 Y94.6001 
G01 X76.3313 Y94.4596 
G01 X76.5691 Y94.3451 
G01 X76.8183 Y94.2579 
G01 X77.0757 Y94.1992 
G01 X77.3380 Y94.1696 
G01 X77.6020 Y94.1696 
G01 X77.8643 Y94.1992 
G01 X78.1217 Y94.2579 
G01 X78.3709 Y94.3451 
G01 X78.6087 Y94.4596 
G01 X78.8323 Y94.6001 
G01 X79.0386 Y94.7647 
G01 X79.2253 Y94.9514 
G01 X79.3899 Y95.1577 
G01 X79.5304 Y95.3813 
G01 X79.6449 Y95.6191 
G01 X79.7321 Y95.8683 
G01 X79.7908 Y96.1257 
G01 X79.8204 Y96.3880 
G00 Z2.5400 
G00 X6.1604 Y3.6780 
G01 Z-0.1500 F254.00 
G01 X6.1604 Y3.9420 F508.00 
G01 X6.1308 Y4.2043 
G01 X6.0721 Y4.4617 
G01 X5.9849 Y4.7109 
G01 X5.8704 Y4.9487 
G01 X5.7299 Y5.1723 
G01 X5.5653 Y5.3786 
G01 X5.3786 Y5.5653 
G01 X5.1723 Y5.7299 
G01 X4.9487 Y5.8704 
G01 X4.7109 Y5.9849 
G01 X4.4617 Y6.0721 
G01 X4.2043 Y6.1308 
G01 X3.9420 Y6.1604 
G01 X3.6780 Y6.1604 
G01 X3.4157 Y6.1308 
G01 X3.1583 Y6.0721 
G01 X2.9091 Y5.9849 
G01 X2.6713 Y5.8704 
G01 X2.4477 Y5.7299 
G01 X2.2414 Y5.5653 
G01 X2.0547 Y5.3786 
G01 X1.8901 Y5.1723 
G01 X1.7496 Y4.9487 
G01 X1.6351 Y4.7109 
G01 X1.5479 Y4.4617 
G01 X1.4892 Y4.2043 
G01 X1.4596 Y3.9420 
G01 X1.4596 Y3.6780 
G01 X1.4892 Y3.4157 
G01 X1.5479 Y3.1583 
G01 X1.6351 Y2.9091 
G01 X1.7496 Y2.6713 
G01 X1.8901 Y2.4477 
G01 X2.0547 Y2.2414 
G01 X2.2414 Y2.0547 
G01 X2.4477 Y1.8901 
G01 X2.6713 Y1.7496 
G01 X2.9091 Y1.6351 
G01 X3.1583 Y1.5479 
G01 X3.4157 Y1.4892 
G01 X3.6780 Y1.4596 
G01 X3.9420 Y1.4596 
G01 X4.2043 Y1.4892 
G01 X4.4617 Y1.5479 
G01 X4.7109 Y1.6351 
G01 X4.9487 Y1.7496 
G01 X5.1723 Y1.8901 
G01 X5.3786 Y2.0547 
G01 X5.5653 Y2.2414 
G01 X5.7299 Y2.4477 
G01 X5.8704 Y2.6713 
G01 X5.9849 Y2.9091 
G01 X6.0721 Y3.1583 
G01 X6.1308 Y3.4157 
G01 X6.1604 Y3.6780 
G00 Z2.5400 
G00 X6.1604 Y96.3880 
G01 Z-0.1500 F254.00 
G01 X6.1604 Y96.6520 F508.00 
G01 X6.1308 Y96.9143 
G01 X6.0721 Y97.1717 
G01 X5.9849 Y97.4209 
G01 X5.8704 Y97.6587 
G01 X5.7299 Y97.8822 
G01 X5.5653 Y98.0886 
G01 X5.3786 Y98.2753 
G01 X5.1723 Y98.4399 
G01 X4.9487 Y98.5804 
G01 X4.7109 Y98.6949 
G01 X4.4617 Y98.7821 
G01 X4.2043 Y98.8408 
G01 X3.9420 Y98.8704 
G01 X3.6780 Y98.8704 
G01 X3.4157 Y98.8408 
G01 X3.1583 Y98.7821 
G01 X2.9091 Y98.6949 
G01 X2.6713 Y98.5804 
G01 X2.4477 Y98.4399 
G01 X2.2414 Y98.2753 
G01 X2.0547 Y98.0886 
G01 X1.8901 Y97.8822 
G01 X1.7496 Y97.6587 
G01 X1.6351 Y97.4209 
G01 X1.5479 Y97.1717 
G01 X1.4892 Y96.9143 
G01 X1.4596 Y96.6520 
G01 X1.4596 Y96.3880 
G01 X1.4892 Y96.1257 
G01 X1.5479 Y95.8683 
G01 X1.6351 Y95.6191 
G01 X1.7496 Y95.3813 
G01 X1.8901 Y95.1577 
G01 X2.0547 Y94.9514 
G01 X2.2414 Y94.7647 
G01 X2.4477 Y94.6001 
G01 X2.6713 Y94.4596 
G01 X2.9091 Y94.3451 
G01 X3.1583 Y94.2579 
G01 X3.4157 Y94.1992 
G01 X3.6780 Y94.1696 
G01 X3.9420 Y94.1696 
G01 X4.2043 Y94.1992 
G01 X4.4617 Y94.2579 
G01 X4.7109 Y94.3451 
G01 X4.9487 Y94.4596 
G01 X5.1723 Y94.6001 
G01 X5.3786 Y94.7647 
G01 X5.5653 Y94.9514 
G01 X5.7299 Y95.1577 
G01 X5.8704 Y95.3813 
G01 X5.9849 Y95.6191 
G01 X6.0721 Y95.8683 
G01 X6.1308 Y96.1257 
G01 X6.1604 Y96.3880 
G00 Z2.5400 
G00 X2.8868 Y90.3594 
G01 Z-0.1500 F254.00 
G01 X4.7332 Y90.3594 F508.00 
G01 X4.9012 Y90.3860 
G01 X5.0630 Y90.4386 
G01 X5.2146 Y90.5158 
G01 X5.3522 Y90.6158 
G01 X5.4724 Y90.7360 
G01 X5.5724 Y90.8736 
G01 X5.6496 Y91.0252 
G01 X5.7022 Y91.1870 
G01 X5.7288 Y91.3550 
G01 X5.7288 Y91.5250 
G01 X5.7022 Y91.6930 
G01 X5.6496 Y91.8548 
G01 X5.5724 Y92.0064 
G01 X5.4724 Y92.1440 
G01 X5.3522 Y92.2642 
G01 X5.2146 Y92.3642 
G01 X5.0630 Y92.4414 
G01 X4.9012 Y92.4940 
G01 X4.7332 Y92.5206 
G01 X2.8868 Y92.5206 
G01 X2.7188 Y92.4940 
G01 X2.5570 Y92.4414 
G01 X2.4054 Y92.3642 
G01 X2.2678 Y92.2642 
G01 X2.1476 Y92.1440 
G01 X2.0476 Y92.0064 
G01 X1.9704 Y91.8548 
G01 X1.9178 Y91.6930 
G01 X1.8912 Y91.5250 
G01 X1.8912 Y91.3550 
G01 X1.9178 Y91.1870 
G01 X1.9704 Y91.0252 
G01 X2.0476 Y90.8736 
G01 X2.1476 Y90.7360 
G01 X2.2678 Y90.6158 
G01 X2.4054 Y90.5158 
G01 X2.5570 Y90.4386 
G01 X2.7188 Y90.3860 
G01 X2.8868 Y90.3594 
G00 Z2.5400 
G00 X2.8868 Y86.5494 
G01 Z-0.1500 F254.00 
G01 X4.7332 Y86.5494 F508.00 
G01 X4.9012 Y86.5760 
G01 X5.0630 Y86.6286 
G01 X5.2146 Y86.7058 
G01 X5.3522 Y86.8058 
G01 X5.4724 Y86.9260 
G01 X5.5724 Y87.0636 
G01 X5.6496 Y87.2152 
G01 X5.7022 Y87.3770 
G01 X5.7288 Y87.5450 
G01 X5.7288 Y87.7150 
G01 X5.7022 Y87.8830 
G01 X5.6496 Y88.0448 
G01 X5.5724 Y88.1964 
G01 X5.4724 Y88.3340 
G01 X5.3522 Y88.4542 
G01 X5.2146 Y88.5542 
G01 X5.0630 Y88.6314 
G01 X4.9012 Y88.6840 
G01 X4.7332 Y88.7106 
G01 X2.8868 Y88.7106 
G01 X2.7188 Y88.6840 
G01 X2.5570 Y88.6314 
G01 X2.4054 Y88.5542 
G01 X2.2678 Y88.4542 
G01 X2.1476 Y88.3340 
G01 X2.0476 Y88.1964 
G01 X1.9704 Y88.0448 
G01 X1.9178 Y87.8830 
G01 X1.8912 Y87.7150 
G01 X1.8912 Y87.5450 
G01 X1.9178 Y87.3770 
G01 X1.9704 Y87.2152 
G01 X2.0476 Y87.0636 
G01 X2.1476 Y86.9260 
G01 X2.2678 Y86.8058 
G01 X2.4054 Y86.7058 
G01 X2.5570 Y86.6286 
G01 X2.7188 Y86.5760 
G01 X2.8868 Y86.5494 
G00 Z2.5400 
G00 X2.8868 Y82.7394 
G01 Z-0.1500 F254.00 
G01 X4.7332 Y82.7394 F508.00 
G01 X4.9012 Y82.7660 
G01 X5.0630 Y82.8186 
G01 X5.2146 Y82.8958 
G01 X5.3522 Y82.9958 
G01 X5.3670 Y83.0106 
G01 X8.8592 Y79.5184 
G01 X8.7850 Y79.5562 
G01 X8.6080 Y79.6137 
G01 X8.4242 Y79.6428 
G01 X8.2382 Y79.6428 
G01 X8.0544 Y79.6137 
G01 X7.8774 Y79.5562 
G01 X7.7116 Y79.4717 
G01 X7.5610 Y79.3623 
G01 X7.4295 Y79.2308 
G01 X7.3201 Y79.0802 
G01 X7.2356 Y78.9144 
G01 X7.1781 Y78.7374 
G01 X7.1490 Y78.5536 
G01 X7.1490 Y78.3676 
G01 X7.1781 Y78.1838 
G01 X7.2356 Y78.0068 
G01 X7.3201 Y77.8410 
G01 X7.4295 Y77.6904 
G01 X7.5610 Y77.5589 
G01 X7.7116 Y77.4495 
G01 X7.8774 Y77.3650 
G01 X8.0544 Y77.3075 
G01 X8.2382 Y77.2784 
G01 X8.4242 Y77.2784 
G01 X8.6080 Y77.3075 
G01 X8.7850 Y77.3650 
G01 X8.9508 Y77.4495 
G01 X9.1014 Y77.5589 
G01 X9.2329 Y77.6904 
G01 X9.3423 Y77.8410 
G01 X9.4268 Y78.0068 
G01 X9.4843 Y78.1838 
G01 X9.5134 Y78.3676 
G01 X9.5134 Y78.5536 
G01 X9.4843 Y78.7374 
G01 X9.4268 Y78.9144 
G01 X9.3890 Y78.9886 
G01 X12.4702 Y75.9074 
G01 X11.1368 Y75.9074 
G01 X11.0477 Y75.8705 
G01 X10.9795 Y75.8023 
G01 X10.9426 Y75.7132 
G01 X10.9426 Y74.1468 
G01 X10.9795 Y74.0577 
G01 X11.0477 Y73.9895 
G01 X11.1368 Y73.9526 
G01 X11.8850 Y73.9526 
G01 X12.3306 Y73.5070 
G01 X12.3306 Y72.5430 
G01 X11.6707 Y71.8831 
G01 X9.7181 Y71.8831 
G01 X9.6290 Y71.8462 
G01 X9.5608 Y71.7780 
G01 X9.5239 Y71.6889 
G01 X9.5239 Y70.0939 
G01 X9.5608 Y70.0048 
G01 X9.6290 Y69.9366 
G01 X9.7181 Y69.8997 
G01 X11.8211 Y69.8997 
G01 X11.9102 Y69.9366 
G01 X11.9784 Y70.0048 
G01 X12.0153 Y70.0939 
G01 X12.0153 Y71.1829 
G01 X12.9268 Y72.0944 
G01 X12.9956 Y72.1632 
G01 X13.0442 Y72.2474 
G01 X13.0694 Y72.3414 
G01 X13.0694 Y72.7682 
G01 X15.4976 Y70.3400 
G01 X15.4976 Y69.2018 
G01 X15.5345 Y69.1127 
G01 X15.6027 Y69.0445 
G01 X15.6918 Y69.0076 
G01 X16.4152 Y69.0076 
G01 X14.3394 Y66.9318 
G01 X14.3394 Y69.0076 
G01 X14.7882 Y69.0076 
G01 X14.8773 Y69.0445 
G01 X14.9455 Y69.1127 
G01 X14.9824 Y69.2018 
G01 X14.9824 Y70.4982 
G01 X14.9455 Y70.5873 
G01 X14.8773 Y70.6555 
G01 X14.7882 Y70.6924 
G01 X13.8918 Y70.6924 
G01 X13.8027 Y70.6555 
G01 X13.7345 Y70.5873 
G01 X13.6976 Y70.4982 
G01 X13.6976 Y70.1000 
G01 X13.6744 Y70.0768 
G01 X13.6258 Y69.9926 
G01 X13.6006 Y69.8986 
G01 X13.6006 Y66.4094 
G01 X12.0153 Y66.4094 
G01 X12.0153 Y67.1169 
G01 X11.9784 Y67.2060 
G01 X11.9102 Y67.2742 
G01 X11.8211 Y67.3111 
G01 X9.7181 Y67.3111 
G01 X9.6290 Y67.2742 
G01 X9.5608 Y67.2060 
G01 X9.5478 Y67.1746 
G01 X6.7194 Y70.0030 
G01 X6.7194 Y73.7086 
G01 X6.6942 Y73.8026 
G01 X6.6456 Y73.8868 
G01 X6.5768 Y73.9556 
G01 X6.4926 Y74.0042 
G01 X6.3986 Y74.0294 
G01 X3.0110 Y74.0294 
G01 X3.0110 Y74.0324 
G01 X2.9819 Y74.2162 
G01 X2.9244 Y74.3932 
G01 X2.8399 Y74.5590 
G01 X2.7305 Y74.7096 
G01 X2.5990 Y74.8411 
G01 X2.4484 Y74.9505 
G01 X2.2826 Y75.0350 
G01 X2.1056 Y75.0925 
G01 X1.9218 Y75.1216 
G01 X1.7358 Y75.1216 
G01 X1.5520 Y75.0925 
G01 X1.3750 Y75.0350 
G01 X1.2092 Y74.9505 
G01 X1.0586 Y74.8411 
G01 X0.9271 Y74.7096 
G01 X0.8177 Y74.5590 
G01 X0.7332 Y74.3932 
G01 X0.6757 Y74.2162 
G01 X0.6466 Y74.0324 
G01 X0.6466 Y73.8464 
G01 X0.6757 Y73.6626 
G01 X0.7332 Y73.4856 
G01 X0.8177 Y73.3198 
G01 X0.9271 Y73.1692 
G01 X1.0586 Y73.0377 
G01 X1.2092 Y72.9283 
G01 X1.3750 Y72.8438 
G01 X1.5520 Y72.7863 
G01 X1.7358 Y72.7572 
G01 X1.9218 Y72.7572 
G01 X2.1056 Y72.7863 
G01 X2.2826 Y72.8438 
G01 X2.4484 Y72.9283 
G01 X2.5990 Y73.0377 
G01 X2.7305 Y73.1692 
G01 X2.8187 Y73.2906 
G01 X5.9806 Y73.2906 
G01 X5.9806 Y69.8014 
G01 X6.0058 Y69.7074 
G01 X6.0544 Y69.6232 
G01 X6.1232 Y69.5544 
G01 X9.5239 Y66.1537 
G01 X9.5239 Y65.9263 
G01 X7.7200 Y64.1224 
G01 X6.9718 Y64.1224 
G01 X6.8827 Y64.0855 
G01 X6.8145 Y64.0173 
G01 X6.7776 Y63.9282 
G01 X6.7776 Y62.6318 
G01 X6.8145 Y62.5427 
G01 X6.8827 Y62.4745 
G01 X6.9718 Y62.4376 
G01 X8.2682 Y62.4376 
G01 X8.3573 Y62.4745 
G01 X8.4255 Y62.5427 
G01 X8.4624 Y62.6318 
G01 X8.4624 Y63.8200 
G01 X9.9701 Y65.3277 
G01 X11.8211 Y65.3277 
G01 X11.9102 Y65.3646 
G01 X11.9784 Y65.4328 
G01 X12.0153 Y65.5219 
G01 X12.0153 Y65.6706 
G01 X13.6976 Y65.6706 
G01 X13.6976 Y65.3918 
G01 X13.7345 Y65.3027 
G01 X13.8027 Y65.2345 
G01 X13.8918 Y65.1976 
G01 X14.7882 Y65.1976 
G01 X14.8773 Y65.2345 
G01 X14.9455 Y65.3027 
G01 X14.9824 Y65.3918 
G01 X14.9824 Y66.5300 
G01 X19.9506 Y71.4982 
G01 X19.9506 Y71.0714 
G01 X19.9758 Y70.9774 
G01 X20.0244 Y70.8932 
G01 X20.0932 Y70.8244 
G01 X28.8406 Y62.0770 
G01 X28.8406 Y54.5614 
G01 X28.8658 Y54.4674 
G01 X28.9144 Y54.3832 
G01 X28.9376 Y54.3600 
G01 X28.9376 Y53.9618 
G01 X28.9745 Y53.8727 
G01 X29.0427 Y53.8045 
G01 X29.1318 Y53.7676 
G01 X30.0282 Y53.7676 
G01 X30.1106 Y53.8017 
G01 X30.1106 Y51.1694 
G01 X28.0930 Y51.1694 
G01 X16.8794 Y62.3830 
G01 X16.8794 Y66.0886 
G01 X16.8542 Y66.1826 
G01 X16.8056 Y66.2668 
G01 X16.7824 Y66.2900 
G01 X16.7824 Y66.6882 
G01 X16.7455 Y66.7773 
G01 X16.6773 Y66.8455 
G01 X16.5882 Y66.8824 
G01 X15.6918 Y66.8824 
G01 X15.6027 Y66.8455 
G01 X15.5345 Y66.7773 
G01 X15.4976 Y66.6882 
G01 X15.4976 Y65.3918 
G01 X15.5345 Y65.3027 
G01 X15.6027 Y65.2345 
G01 X15.6918 Y65.1976 
G01 X16.1406 Y65.1976 
G01 X16.1406 Y63.0724 
G01 X15.6918 Y63.0724 
G01 X15.6027 Y63.0355 
G01 X15.5345 Y62.9673 
G01 X15.4976 Y62.8782 
G01 X15.4976 Y61.5818 
G01 X15.5345 Y61.4927 
G01 X15.6027 Y61.4245 
G01 X15.6918 Y61.3876 
G01 X16.5882 Y61.3876 
G01 X16.6773 Y61.4245 
G01 X16.7352 Y61.4824 
G01 X27.6444 Y50.5732 
G01 X27.7132 Y50.5044 
G01 X27.7974 Y50.4558 
G01 X27.8914 Y50.4306 
G01 X46.2296 Y50.4306 
G01 X46.0663 Y50.3981 
G01 X45.9020 Y50.3300 
G01 X45.7541 Y50.2312 
G01 X45.6284 Y50.1055 
G01 X45.5296 Y49.9576 
G01 X45.4615 Y49.7933 
G01 X45.4268 Y49.6189 
G01 X45.4268 Y49.4411 
G01 X45.4615 Y49.2667 
G01 X45.5296 Y49.1024 
G01 X45.6284 Y48.9545 
G01 X45.7541 Y48.8287 
G01 X45.9020 Y48.7300 
G01 X46.0663 Y48.6619 
G01 X46.2407 Y48.6272 
G01 X47.7393 Y48.6272 
G01 X47.9137 Y48.6619 
G01 X48.0780 Y48.7300 
G01 X48.2259 Y48.8287 
G01 X48.3516 Y48.9545 
G01 X48.4504 Y49.1024 
G01 X48.5185 Y49.2667 
G01 X48.5532 Y49.4411 
G01 X48.5532 Y49.6189 
G01 X48.5185 Y49.7933 
G01 X48.4504 Y49.9576 
G01 X48.3516 Y50.1055 
G01 X48.2259 Y50.2312 
G01 X48.0780 Y50.3300 
G01 X47.9137 Y50.3981 
G01 X47.7503 Y50.4306 
G01 X48.3086 Y50.4306 
G01 X48.4026 Y50.4558 
G01 X48.4868 Y50.5044 
G01 X54.2296 Y56.2472 
G01 X55.3593 Y56.2472 
G01 X55.5337 Y56.2819 
G01 X55.6980 Y56.3499 
G01 X55.8459 Y56.4488 
G01 X55.9716 Y56.5745 
G01 X56.0704 Y56.7224 
G01 X56.1385 Y56.8867 
G01 X56.1732 Y57.0611 
G01 X56.1732 Y57.2389 
G01 X56.1385 Y57.4133 
G01 X56.0704 Y57.5776 
G01 X55.9716 Y57.7255 
G01 X55.8459 Y57.8512 
G01 X55.6980 Y57.9500 
G01 X55.5337 Y58.0181 
G01 X55.3593 Y58.0528 
G01 X54.2296 Y58.0528 
G01 X49.8256 Y62.4568 
G01 X49.7568 Y62.5256 
G01 X49.6726 Y62.5742 
G01 X49.5786 Y62.5994 
G01 X48.4746 Y62.5994 
G01 X48.4504 Y62.6576 
G01 X48.3516 Y62.8055 
G01 X48.2259 Y62.9312 
G01 X48.0780 Y63.0300 
G01 X47.9137 Y63.0981 
G01 X47.7393 Y63.1328 
G01 X46.2407 Y63.1328 
G01 X46.0663 Y63.0981 
G01 X45.9020 Y63.0300 
G01 X45.7541 Y62.9312 
G01 X45.6284 Y62.8055 
G01 X45.5296 Y62.6576 
G01 X45.4615 Y62.4933 
G01 X45.4268 Y62.3189 
G01 X45.4268 Y62.1411 
G01 X45.4615 Y61.9667 
G01 X45.5296 Y61.8024 
G01 X45.6284 Y61.6545 
G01 X45.7541 Y61.5288 
G01 X45.9020 Y61.4300 
G01 X46.0663 Y61.3619 
G01 X46.2407 Y61.3272 
G01 X47.7393 Y61.3272 
G01 X47.9137 Y61.3619 
G01 X48.0780 Y61.4300 
G01 X48.2259 Y61.5288 
G01 X48.3516 Y61.6545 
G01 X48.4504 Y61.8024 
G01 X48.4746 Y61.8606 
G01 X49.3770 Y61.8606 
G01 X53.3814 Y57.8561 
G01 X53.3741 Y57.8512 
G01 X53.2484 Y57.7255 
G01 X53.1496 Y57.5776 
G01 X53.0815 Y57.4133 
G01 X53.0468 Y57.2389 
G01 X53.0468 Y57.0611 
G01 X53.0815 Y56.8867 
G01 X53.1496 Y56.7224 
G01 X53.2484 Y56.5745 
G01 X53.3741 Y56.4488 
G01 X53.3814 Y56.4438 
G01 X48.1070 Y51.1694 
G01 X47.7503 Y51.1694 
G01 X47.9137 Y51.2019 
G01 X48.0780 Y51.2700 
G01 X48.2259 Y51.3688 
G01 X48.3516 Y51.4945 
G01 X48.4504 Y51.6424 
G01 X48.5185 Y51.8067 
G01 X48.5532 Y51.9811 
G01 X48.5532 Y52.1589 
G01 X48.5185 Y52.3333 
G01 X48.4504 Y52.4976 
G01 X48.3516 Y52.6455 
G01 X48.2259 Y52.7712 
G01 X48.0780 Y52.8700 
G01 X47.9137 Y52.9381 
G01 X47.7393 Y52.9728 
G01 X46.2407 Y52.9728 
G01 X46.0663 Y52.9381 
G01 X45.9020 Y52.8700 
G01 X45.7541 Y52.7712 
G01 X45.6284 Y52.6455 
G01 X45.5296 Y52.4976 
G01 X45.4615 Y52.3333 
G01 X45.4268 Y52.1589 
G01 X45.4268 Y51.9811 
G01 X45.4615 Y51.8067 
G01 X45.5296 Y51.6424 
G01 X45.6284 Y51.4945 
G01 X45.7541 Y51.3688 
G01 X45.9020 Y51.2700 
G01 X46.0663 Y51.2019 
G01 X46.2296 Y51.1694 
G01 X30.8494 Y51.1694 
G01 X30.8494 Y53.8017 
G01 X30.9318 Y53.7676 
G01 X31.8282 Y53.7676 
G01 X31.9173 Y53.8045 
G01 X31.9855 Y53.8727 
G01 X32.0224 Y53.9618 
G01 X32.0224 Y54.2406 
G01 X36.9686 Y54.2406 
G01 X36.9686 Y52.2758 
G01 X37.0055 Y52.1867 
G01 X37.0737 Y52.1185 
G01 X37.1628 Y52.0816 
G01 X39.0372 Y52.0816 
G01 X39.1263 Y52.1185 
G01 X39.1945 Y52.1867 
G01 X39.2314 Y52.2758 
G01 X39.2314 Y54.2406 
G01 X45.5054 Y54.2406 
G01 X45.5296 Y54.1824 
G01 X45.6284 Y54.0345 
G01 X45.7541 Y53.9088 
G01 X45.9020 Y53.8100 
G01 X46.0663 Y53.7419 
G01 X46.2407 Y53.7072 
G01 X47.7393 Y53.7072 
G01 X47.9137 Y53.7419 
G01 X48.0780 Y53.8100 
G01 X48.2259 Y53.9088 
G01 X48.3516 Y54.0345 
G01 X48.4504 Y54.1824 
G01 X48.5185 Y54.3467 
G01 X48.5532 Y54.5211 
G01 X48.5532 Y54.6989 
G01 X48.5185 Y54.8733 
G01 X48.4504 Y55.0376 
G01 X48.3516 Y55.1855 
G01 X48.2259 Y55.3112 
G01 X48.0780 Y55.4100 
G01 X47.9137 Y55.4781 
G01 X47.7393 Y55.5128 
G01 X46.2407 Y55.5128 
G01 X46.0663 Y55.4781 
G01 X45.9020 Y55.4100 
G01 X45.7541 Y55.3112 
G01 X45.6284 Y55.1855 
G01 X45.5296 Y55.0376 
G01 X45.5054 Y54.9794 
G01 X39.2314 Y54.9794 
G01 X39.2314 Y57.4522 
G01 X39.1945 Y57.5413 
G01 X39.1263 Y57.6095 
G01 X39.0372 Y57.6464 
G01 X37.1628 Y57.6464 
G01 X37.0737 Y57.6095 
G01 X37.0055 Y57.5413 
G01 X36.9686 Y57.4522 
G01 X36.9686 Y54.9794 
G01 X32.0224 Y54.9794 
G01 X32.0224 Y55.2582 
G01 X31.9855 Y55.3473 
G01 X31.9173 Y55.4155 
G01 X31.8282 Y55.4524 
G01 X30.9318 Y55.4524 
G01 X30.8494 Y55.4183 
G01 X30.8494 Y57.6117 
G01 X30.9318 Y57.5776 
G01 X31.8282 Y57.5776 
G01 X31.9173 Y57.6145 
G01 X31.9855 Y57.6827 
G01 X32.0224 Y57.7718 
G01 X32.0224 Y58.1700 
G01 X32.0456 Y58.1932 
G01 X36.9686 Y63.1162 
G01 X36.9686 Y61.9278 
G01 X37.0055 Y61.8387 
G01 X37.0737 Y61.7705 
G01 X37.1628 Y61.7336 
G01 X39.0372 Y61.7336 
G01 X39.1263 Y61.7705 
G01 X39.1945 Y61.8387 
G01 X39.2314 Y61.9278 
G01 X39.2314 Y64.3862 
G01 X45.7614 Y57.8561 
G01 X45.7541 Y57.8512 
G01 X45.6284 Y57.7255 
G01 X45.5296 Y57.5776 
G01 X45.4615 Y57.4133 
G01 X45.4268 Y57.2389 
G01 X45.4268 Y57.0611 
G01 X45.4615 Y56.8867 
G01 X45.5296 Y56.7224 
G01 X45.6284 Y56.5745 
G01 X45.7541 Y56.4488 
G01 X45.9020 Y56.3499 
G01 X46.0663 Y56.2819 
G01 X46.2407 Y56.2472 
G01 X47.7393 Y56.2472 
G01 X47.9137 Y56.2819 
G01 X48.0780 Y56.3499 
G01 X48.2259 Y56.4488 
G01 X48.3516 Y56.5745 
G01 X48.4504 Y56.7224 
G01 X48.5185 Y56.8867 
G01 X48.5532 Y57.0611 
G01 X48.5532 Y57.2389 
G01 X48.5185 Y57.4133 
G01 X48.4504 Y57.5776 
G01 X48.3516 Y57.7255 
G01 X48.2259 Y57.8512 
G01 X48.0780 Y57.9500 
G01 X47.9137 Y58.0181 
G01 X47.7393 Y58.0528 
G01 X46.6096 Y58.0528 
G01 X39.6656 Y64.9968 
G01 X39.5968 Y65.0656 
G01 X39.5126 Y65.1142 
G01 X39.4186 Y65.1394 
G01 X39.2314 Y65.1394 
G01 X39.2314 Y67.1042 
G01 X39.1945 Y67.1933 
G01 X39.1263 Y67.2615 
G01 X39.0372 Y67.2984 
G01 X37.3408 Y67.2984 
G01 X46.6096 Y76.5672 
G01 X47.7393 Y76.5672 
G01 X47.9137 Y76.6019 
G01 X48.0780 Y76.6700 
G01 X48.2259 Y76.7687 
G01 X48.3516 Y76.8945 
G01 X48.4504 Y77.0424 
G01 X48.5185 Y77.2067 
G01 X48.5532 Y77.3811 
G01 X48.5532 Y77.5589 
G01 X48.5185 Y77.7333 
G01 X48.4504 Y77.8976 
G01 X48.3516 Y78.0455 
G01 X48.2259 Y78.1712 
G01 X48.0780 Y78.2700 
G01 X47.9137 Y78.3381 
G01 X47.7393 Y78.3728 
G01 X46.2407 Y78.3728 
G01 X46.0663 Y78.3381 
G01 X45.9020 Y78.2700 
G01 X45.7541 Y78.1712 
G01 X45.6284 Y78.0455 
G01 X45.5296 Y77.8976 
G01 X45.4615 Y77.7333 
G01 X45.4268 Y77.5589 
G01 X45.4268 Y77.3811 
G01 X45.4615 Y77.2067 
G01 X45.5296 Y77.0424 
G01 X45.6284 Y76.8945 
G01 X45.7541 Y76.7687 
G01 X45.7614 Y76.7638 
G01 X32.1194 Y63.1218 
G01 X32.1194 Y67.3586 
G01 X32.0942 Y67.4526 
G01 X32.0456 Y67.5368 
G01 X32.0224 Y67.5600 
G01 X32.0224 Y67.9582 
G01 X31.9855 Y68.0473 
G01 X31.9173 Y68.1155 
G01 X31.8282 Y68.1524 
G01 X30.9318 Y68.1524 
G01 X30.8427 Y68.1155 
G01 X30.7745 Y68.0473 
G01 X30.7376 Y67.9582 
G01 X30.7376 Y66.6618 
G01 X30.7745 Y66.5727 
G01 X30.8427 Y66.5045 
G01 X30.9318 Y66.4676 
G01 X31.3806 Y66.4676 
G01 X31.3806 Y63.0724 
G01 X30.9318 Y63.0724 
G01 X30.8494 Y63.0383 
G01 X30.8494 Y66.0886 
G01 X30.8242 Y66.1826 
G01 X30.7756 Y66.2668 
G01 X30.2224 Y66.8200 
G01 X30.2224 Y67.9582 
G01 X30.1855 Y68.0473 
G01 X30.1173 Y68.1155 
G01 X30.0282 Y68.1524 
G01 X29.5794 Y68.1524 
G01 X29.5794 Y79.2017 
G01 X29.6618 Y79.1676 
G01 X30.5582 Y79.1676 
G01 X30.6473 Y79.2045 
G01 X30.7155 Y79.2727 
G01 X30.7524 Y79.3618 
G01 X30.7524 Y79.6406 
G01 X31.4776 Y79.6406 
G01 X31.4776 Y79.3618 
G01 X31.5145 Y79.2727 
G01 X31.5827 Y79.2045 
G01 X31.6718 Y79.1676 
G01 X32.5682 Y79.1676 
G01 X32.6573 Y79.2045 
G01 X32.7255 Y79.2727 
G01 X32.7624 Y79.3618 
G01 X32.7624 Y80.6582 
G01 X32.7255 Y80.7473 
G01 X32.6573 Y80.8155 
G01 X32.5682 Y80.8524 
G01 X31.6718 Y80.8524 
G01 X31.5827 Y80.8155 
G01 X31.5145 Y80.7473 
G01 X31.4776 Y80.6582 
G01 X31.4776 Y80.3794 
G01 X30.8494 Y80.3794 
G01 X30.8494 Y87.6786 
G01 X30.8242 Y87.7726 
G01 X30.7756 Y87.8568 
G01 X30.7068 Y87.9256 
G01 X30.2084 Y88.4240 
G01 X30.2525 Y88.4682 
G01 X30.2525 Y89.3318 
G01 X29.6418 Y89.9425 
G01 X28.7782 Y89.9425 
G01 X28.3094 Y89.4737 
G01 X28.3094 Y90.8663 
G01 X28.7782 Y90.3975 
G01 X29.6418 Y90.3975 
G01 X29.6860 Y90.4416 
G01 X31.3806 Y88.7470 
G01 X31.3806 Y82.5014 
G01 X31.4058 Y82.4074 
G01 X31.4544 Y82.3232 
G01 X31.5232 Y82.2544 
G01 X33.2776 Y80.5000 
G01 X33.2776 Y79.3618 
G01 X33.3145 Y79.2727 
G01 X33.3827 Y79.2045 
G01 X33.4718 Y79.1676 
G01 X33.9206 Y79.1676 
G01 X33.9206 Y73.6114 
G01 X33.9458 Y73.5174 
G01 X33.9944 Y73.4332 
G01 X34.0632 Y73.3644 
G01 X34.1474 Y73.3158 
G01 X34.2414 Y73.2906 
G01 X38.1486 Y73.2906 
G01 X38.2426 Y73.3158 
G01 X38.3268 Y73.3644 
G01 X38.3956 Y73.4332 
G01 X39.6656 Y74.7032 
G01 X39.7142 Y74.7874 
G01 X39.7394 Y74.8814 
G01 X39.7394 Y82.3970 
G01 X40.4148 Y83.0724 
G01 X40.4727 Y83.0145 
G01 X40.5618 Y82.9776 
G01 X41.4582 Y82.9776 
G01 X41.5473 Y83.0145 
G01 X41.6155 Y83.0827 
G01 X41.6524 Y83.1718 
G01 X41.6524 Y84.4682 
G01 X41.6155 Y84.5573 
G01 X41.5473 Y84.6255 
G01 X41.4582 Y84.6624 
G01 X40.5618 Y84.6624 
G01 X40.4727 Y84.6255 
G01 X40.4045 Y84.5573 
G01 X40.3676 Y84.4682 
G01 X40.3676 Y84.0700 
G01 X40.3444 Y84.0468 
G01 X39.1432 Y82.8456 
G01 X39.0744 Y82.7768 
G01 X39.0258 Y82.6926 
G01 X39.0006 Y82.5986 
G01 X39.0006 Y75.0830 
G01 X37.9470 Y74.0294 
G01 X34.6594 Y74.0294 
G01 X34.6594 Y80.0586 
G01 X34.6342 Y80.1526 
G01 X34.5856 Y80.2368 
G01 X34.5624 Y80.2600 
G01 X34.5624 Y80.6582 
G01 X34.5255 Y80.7473 
G01 X34.4573 Y80.8155 
G01 X34.3682 Y80.8524 
G01 X33.9700 Y80.8524 
G01 X32.1194 Y82.7030 
G01 X32.1194 Y88.9486 
G01 X32.0942 Y89.0426 
G01 X32.0456 Y89.1268 
G01 X30.2084 Y90.9640 
G01 X30.2525 Y91.0082 
G01 X30.2525 Y91.8718 
G01 X29.6418 Y92.4825 
G01 X28.7782 Y92.4825 
G01 X28.3094 Y92.0137 
G01 X28.3094 Y92.5570 
G01 X28.7340 Y92.9816 
G01 X28.7782 Y92.9375 
G01 X29.6418 Y92.9375 
G01 X30.2525 Y93.5482 
G01 X30.2525 Y94.4118 
G01 X29.6418 Y95.0225 
G01 X29.5794 Y95.0225 
G01 X29.5794 Y97.4206 
G01 X41.7570 Y97.4206 
G01 X42.2430 Y96.9346 
G01 X42.1727 Y96.9055 
G01 X42.1045 Y96.8373 
G01 X42.0526 Y96.8642 
G01 X41.9586 Y96.8894 
G01 X34.2414 Y96.8894 
G01 X34.1474 Y96.8642 
G01 X34.0632 Y96.8156 
G01 X33.9944 Y96.7468 
G01 X33.9458 Y96.6626 
G01 X33.9206 Y96.5686 
G01 X33.9206 Y88.8514 
G01 X33.9458 Y88.7574 
G01 X33.9944 Y88.6732 
G01 X35.8316 Y86.8360 
G01 X35.7875 Y86.7918 
G01 X35.7875 Y85.9282 
G01 X36.3982 Y85.3175 
G01 X37.2618 Y85.3175 
G01 X37.7306 Y85.7863 
G01 X37.7306 Y80.8524 
G01 X37.4468 Y80.8524 
G01 X37.4950 Y80.9246 
G01 X37.5516 Y81.0611 
G01 X37.5804 Y81.2061 
G01 X37.5804 Y81.3539 
G01 X37.5516 Y81.4989 
G01 X37.4950 Y81.6354 
G01 X37.4129 Y81.7584 
G01 X37.3084 Y81.8629 
G01 X37.1854 Y81.9450 
G01 X37.0489 Y82.0016 
G01 X36.9039 Y82.0304 
G01 X36.7561 Y82.0304 
G01 X36.6111 Y82.0016 
G01 X36.4746 Y81.9450 
G01 X36.3516 Y81.8629 
G01 X36.2471 Y81.7584 
G01 X36.1650 Y81.6354 
G01 X36.1084 Y81.4989 
G01 X36.0796 Y81.3539 
G01 X36.0796 Y81.2061 
G01 X36.1052 Y81.0776 
G01 X35.8800 Y80.8524 
G01 X35.4818 Y80.8524 
G01 X35.3927 Y80.8155 
G01 X35.3245 Y80.7473 
G01 X35.2876 Y80.6582 
G01 X35.2876 Y80.2600 
G01 X35.2644 Y80.2368 
G01 X35.2158 Y80.1526 
G01 X35.1906 Y80.0586 
G01 X35.1906 Y79.9614 
G01 X35.2158 Y79.8674 
G01 X35.2644 Y79.7832 
G01 X35.2876 Y79.7600 
G01 X35.2876 Y79.3618 
G01 X35.3245 Y79.2727 
G01 X35.3927 Y79.2045 
G01 X35.4818 Y79.1676 
G01 X36.3782 Y79.1676 
G01 X36.4673 Y79.2045 
G01 X36.5355 Y79.2727 
G01 X36.5724 Y79.3618 
G01 X36.5724 Y80.5000 
G01 X36.6276 Y80.5552 
G01 X36.7561 Y80.5296 
G01 X36.9039 Y80.5296 
G01 X37.0489 Y80.5584 
G01 X37.0876 Y80.5745 
G01 X37.0876 Y79.3618 
G01 X37.1245 Y79.2727 
G01 X37.1927 Y79.2045 
G01 X37.2818 Y79.1676 
G01 X38.1782 Y79.1676 
G01 X38.2673 Y79.2045 
G01 X38.3355 Y79.2727 
G01 X38.3724 Y79.3618 
G01 X38.3724 Y79.7600 
G01 X38.3956 Y79.7832 
G01 X38.4442 Y79.8674 
G01 X38.4694 Y79.9614 
G01 X38.4694 Y92.7586 
G01 X38.4442 Y92.8526 
G01 X38.3956 Y92.9368 
G01 X37.8284 Y93.5040 
G01 X37.8725 Y93.5482 
G01 X37.8725 Y94.4118 
G01 X37.4037 Y94.8806 
G01 X39.8676 Y94.8806 
G01 X39.8676 Y94.7018 
G01 X39.9045 Y94.6127 
G01 X39.9727 Y94.5445 
G01 X40.0618 Y94.5076 
G01 X40.2706 Y94.5076 
G01 X40.2706 Y91.3914 
G01 X40.2958 Y91.2974 
G01 X40.3444 Y91.2132 
G01 X40.3676 Y91.1900 
G01 X40.3676 Y90.7918 
G01 X40.4045 Y90.7027 
G01 X40.4727 Y90.6345 
G01 X40.5618 Y90.5976 
G01 X41.4582 Y90.5976 
G01 X41.5406 Y90.6317 
G01 X41.5406 Y89.0530 
G01 X40.9600 Y88.4724 
G01 X40.5618 Y88.4724 
G01 X40.4727 Y88.4355 
G01 X40.4045 Y88.3673 
G01 X40.3676 Y88.2782 
G01 X40.3676 Y87.8800 
G01 X40.3444 Y87.8568 
G01 X40.2958 Y87.7726 
G01 X40.2706 Y87.6786 
G01 X40.2706 Y87.5814 
G01 X40.2958 Y87.4874 
G01 X40.3444 Y87.4032 
G01 X40.3676 Y87.3800 
G01 X40.3676 Y86.9818 
G01 X40.4045 Y86.8927 
G01 X40.4727 Y86.8245 
G01 X40.5618 Y86.7876 
G01 X41.4582 Y86.7876 
G01 X41.5473 Y86.8245 
G01 X41.6155 Y86.8927 
G01 X41.6524 Y86.9818 
G01 X41.6524 Y88.1200 
G01 X42.1368 Y88.6044 
G01 X42.2056 Y88.6732 
G01 X42.2542 Y88.7574 
G01 X42.2794 Y88.8514 
G01 X42.2794 Y90.6317 
G01 X42.3618 Y90.5976 
G01 X42.8106 Y90.5976 
G01 X42.8106 Y88.4724 
G01 X42.3618 Y88.4724 
G01 X42.2727 Y88.4355 
G01 X42.2045 Y88.3673 
G01 X42.1676 Y88.2782 
G01 X42.1676 Y86.9818 
G01 X42.2045 Y86.8927 
G01 X42.2727 Y86.8245 
G01 X42.3618 Y86.7876 
G01 X42.8106 Y86.7876 
G01 X42.8106 Y86.7294 
G01 X40.0257 Y86.7294 
G01 X39.9529 Y86.8384 
G01 X39.8484 Y86.9429 
G01 X39.7254 Y87.0250 
G01 X39.5889 Y87.0816 
G01 X39.4439 Y87.1104 
G01 X39.2961 Y87.1104 
G01 X39.1511 Y87.0816 
G01 X39.0145 Y87.0250 
G01 X38.8916 Y86.9429 
G01 X38.7871 Y86.8384 
G01 X38.7050 Y86.7154 
G01 X38.6484 Y86.5789 
G01 X38.6196 Y86.4339 
G01 X38.6196 Y86.2861 
G01 X38.6484 Y86.1411 
G01 X38.7050 Y86.0046 
G01 X38.7871 Y85.8816 
G01 X38.8916 Y85.7771 
G01 X39.0145 Y85.6950 
G01 X39.1511 Y85.6384 
G01 X39.2961 Y85.6096 
G01 X39.4439 Y85.6096 
G01 X39.5889 Y85.6384 
G01 X39.7254 Y85.6950 
G01 X39.8484 Y85.7771 
G01 X39.9529 Y85.8816 
G01 X40.0257 Y85.9906 
G01 X42.8106 Y85.9906 
G01 X42.8106 Y84.6624 
G01 X42.3618 Y84.6624 
G01 X42.2727 Y84.6255 
G01 X42.2045 Y84.5573 
G01 X42.1676 Y84.4682 
G01 X42.1676 Y83.1718 
G01 X42.2045 Y83.0827 
G01 X42.2727 Y83.0145 
G01 X42.3618 Y82.9776 
G01 X43.0852 Y82.9776 
G01 X42.1124 Y82.0048 
G01 X41.9839 Y82.0304 
G01 X41.8361 Y82.0304 
G01 X41.6911 Y82.0016 
G01 X41.5545 Y81.9450 
G01 X41.4316 Y81.8629 
G01 X41.3271 Y81.7584 
G01 X41.2450 Y81.6354 
G01 X41.1884 Y81.4989 
G01 X41.1596 Y81.3539 
G01 X41.1596 Y81.2061 
G01 X41.1884 Y81.0611 
G01 X41.2450 Y80.9246 
G01 X41.2932 Y80.8524 
G01 X40.5618 Y80.8524 
G01 X40.4727 Y80.8155 
G01 X40.4045 Y80.7473 
G01 X40.3676 Y80.6582 
G01 X40.3676 Y80.2600 
G01 X40.3444 Y80.2368 
G01 X40.2958 Y80.1526 
G01 X40.2706 Y80.0586 
G01 X40.2706 Y79.9614 
G01 X40.2958 Y79.8674 
G01 X40.3444 Y79.7832 
G01 X40.3676 Y79.7600 
G01 X40.3676 Y79.3618 
G01 X40.4045 Y79.2727 
G01 X40.4727 Y79.2045 
G01 X40.5618 Y79.1676 
G01 X40.9600 Y79.1676 
G01 X41.6144 Y78.5132 
G01 X41.6832 Y78.4444 
G01 X41.7674 Y78.3958 
G01 X41.8614 Y78.3706 
G01 X45.7686 Y78.3706 
G01 X45.8626 Y78.3958 
G01 X45.9468 Y78.4444 
G01 X46.0156 Y78.5132 
G01 X46.0642 Y78.5974 
G01 X46.0894 Y78.6914 
G01 X46.0894 Y80.3882 
G01 X49.1606 Y77.3170 
G01 X49.1606 Y67.2614 
G01 X49.1858 Y67.1674 
G01 X49.2344 Y67.0832 
G01 X49.3032 Y67.0144 
G01 X53.3814 Y62.9362 
G01 X53.3741 Y62.9312 
G01 X53.2484 Y62.8055 
G01 X53.1496 Y62.6576 
G01 X53.0815 Y62.4933 
G01 X53.0468 Y62.3189 
G01 X53.0468 Y62.1411 
G01 X53.0815 Y61.9667 
G01 X53.1496 Y61.8024 
G01 X53.2484 Y61.6545 
G01 X53.3741 Y61.5288 
G01 X53.5220 Y61.4300 
G01 X53.6863 Y61.3619 
G01 X53.8607 Y61.3272 
G01 X55.3593 Y61.3272 
G01 X55.5337 Y61.3619 
G01 X55.6980 Y61.4300 
G01 X55.8459 Y61.5288 
G01 X55.9716 Y61.6545 
G01 X56.0704 Y61.8024 
G01 X56.1385 Y61.9667 
G01 X56.1732 Y62.1411 
G01 X56.1732 Y62.3189 
G01 X56.1385 Y62.4933 
G01 X56.0704 Y62.6576 
G01 X55.9716 Y62.8055 
G01 X55.8459 Y62.9312 
G01 X55.6980 Y63.0300 
G01 X55.5337 Y63.0981 
G01 X55.3593 Y63.1328 
G01 X54.2296 Y63.1328 
G01 X49.8994 Y67.4630 
G01 X49.8994 Y77.5186 
G01 X49.8742 Y77.6126 
G01 X49.8256 Y77.6968 
G01 X46.0894 Y81.4330 
G01 X46.0894 Y94.0286 
G01 X46.0642 Y94.1226 
G01 X46.0156 Y94.2068 
G01 X43.9524 Y96.2700 
G01 X43.9524 Y96.7482 
G01 X43.9155 Y96.8373 
G01 X43.8473 Y96.9055 
G01 X43.7582 Y96.9424 
G01 X43.2800 Y96.9424 
G01 X42.2056 Y98.0168 
G01 X42.1368 Y98.0856 
G01 X42.0526 Y98.1342 
G01 X41.9586 Y98.1594 
G01 X29.1614 Y98.1594 
G01 X29.0674 Y98.1342 
G01 X28.9832 Y98.0856 
G01 X28.9144 Y98.0168 
G01 X28.8658 Y97.9326 
G01 X28.8406 Y97.8386 
G01 X28.8406 Y95.0225 
G01 X28.7782 Y95.0225 
G01 X28.1675 Y94.4118 
G01 X28.1675 Y93.5482 
G01 X28.2116 Y93.5040 
G01 X27.7132 Y93.0056 
G01 X27.6444 Y92.9368 
G01 X27.5958 Y92.8526 
G01 X27.5706 Y92.7586 
G01 X27.5706 Y80.1630 
G01 X24.1300 Y76.7224 
G01 X14.2656 Y86.5868 
G01 X14.2613 Y86.5911 
G01 X14.2520 Y86.6382 
G01 X14.1801 Y86.8117 
G01 X14.0757 Y86.9679 
G01 X13.9429 Y87.1007 
G01 X13.7867 Y87.2051 
G01 X13.6132 Y87.2769 
G01 X13.4289 Y87.3136 
G01 X13.2411 Y87.3136 
G01 X13.0568 Y87.2769 
G01 X12.8833 Y87.2051 
G01 X12.7271 Y87.1007 
G01 X12.5943 Y86.9679 
G01 X12.4899 Y86.8117 
G01 X12.4180 Y86.6382 
G01 X12.3814 Y86.4539 
G01 X12.3814 Y86.2661 
G01 X12.4180 Y86.0818 
G01 X12.4899 Y85.9083 
G01 X12.5943 Y85.7521 
G01 X12.7271 Y85.6193 
G01 X12.8833 Y85.5149 
G01 X13.0568 Y85.4430 
G01 X13.2411 Y85.4064 
G01 X13.4289 Y85.4064 
G01 X13.6132 Y85.4430 
G01 X13.7867 Y85.5149 
G01 X13.9429 Y85.6193 
G01 X14.0656 Y85.7420 
G01 X23.6076 Y76.2000 
G01 X20.0932 Y72.6856 
G01 X20.0244 Y72.6168 
G01 X16.7824 Y69.3748 
G01 X16.7824 Y69.6000 
G01 X16.8056 Y69.6232 
G01 X16.8542 Y69.7074 
G01 X16.8794 Y69.8014 
G01 X16.8794 Y69.8986 
G01 X16.8542 Y69.9926 
G01 X16.8056 Y70.0768 
G01 X16.7824 Y70.1000 
G01 X16.7824 Y70.4982 
G01 X16.7455 Y70.5873 
G01 X16.6773 Y70.6555 
G01 X16.5882 Y70.6924 
G01 X16.1900 Y70.6924 
G01 X12.9956 Y73.8868 
G01 X12.9268 Y73.9556 
G01 X12.6974 Y74.1850 
G01 X12.6974 Y75.6802 
G01 X13.7432 Y74.6344 
G01 X13.8274 Y74.5858 
G01 X13.9214 Y74.5606 
G01 X15.2426 Y74.5606 
G01 X15.2426 Y74.1468 
G01 X15.2795 Y74.0577 
G01 X15.3477 Y73.9895 
G01 X15.4368 Y73.9526 
G01 X16.8032 Y73.9526 
G01 X16.8923 Y73.9895 
G01 X16.9605 Y74.0577 
G01 X16.9974 Y74.1468 
G01 X16.9974 Y75.7132 
G01 X16.9605 Y75.8023 
G01 X16.8923 Y75.8705 
G01 X16.8032 Y75.9074 
G01 X15.4368 Y75.9074 
G01 X15.3477 Y75.8705 
G01 X15.2795 Y75.8023 
G01 X15.2426 Y75.7132 
G01 X15.2426 Y75.2994 
G01 X14.1230 Y75.2994 
G01 X5.7231 Y83.6993 
G01 X5.7288 Y83.7350 
G01 X5.7288 Y83.9050 
G01 X5.7022 Y84.0730 
G01 X5.6496 Y84.2348 
G01 X5.5724 Y84.3864 
G01 X5.4724 Y84.5240 
G01 X5.3522 Y84.6442 
G01 X5.2146 Y84.7442 
G01 X5.0630 Y84.8214 
G01 X4.9012 Y84.8740 
G01 X4.7332 Y84.9006 
G01 X2.8868 Y84.9006 
G01 X2.7188 Y84.8740 
G01 X2.5570 Y84.8214 
G01 X2.4054 Y84.7442 
G01 X2.2678 Y84.6442 
G01 X2.1476 Y84.5240 
G01 X2.0476 Y84.3864 
G01 X1.9704 Y84.2348 
G01 X1.9178 Y84.0730 
G01 X1.8912 Y83.9050 
G01 X1.8912 Y83.7350 
G01 X1.9178 Y83.5670 
G01 X1.9704 Y83.4052 
G01 X2.0476 Y83.2536 
G01 X2.1476 Y83.1160 
G01 X2.2678 Y82.9958 
G01 X2.4054 Y82.8958 
G01 X2.5570 Y82.8186 
G01 X2.7188 Y82.7660 
G01 X2.8868 Y82.7394 
G00 Z2.5400 
G00 X8.4624 Y60.5318 
G01 Z-0.1500 F254.00 
G01 X8.4624 Y60.5906 F508.00 
G01 X14.0186 Y60.5906 
G01 X14.1126 Y60.6158 
G01 X14.1968 Y60.6644 
G01 X14.2656 Y60.7332 
G01 X14.3142 Y60.8174 
G01 X14.3394 Y60.9114 
G01 X14.3394 Y61.3876 
G01 X14.7882 Y61.3876 
G01 X14.8773 Y61.4245 
G01 X14.9455 Y61.4927 
G01 X14.9824 Y61.5818 
G01 X14.9824 Y62.8782 
G01 X14.9455 Y62.9673 
G01 X14.8773 Y63.0355 
G01 X14.7882 Y63.0724 
G01 X13.8918 Y63.0724 
G01 X13.8027 Y63.0355 
G01 X13.7345 Y62.9673 
G01 X13.6976 Y62.8782 
G01 X13.6976 Y62.4800 
G01 X13.6744 Y62.4568 
G01 X13.6258 Y62.3726 
G01 X13.6006 Y62.2786 
G01 X13.6006 Y61.3294 
G01 X8.4624 Y61.3294 
G01 X8.4624 Y61.8282 
G01 X8.4255 Y61.9173 
G01 X8.3573 Y61.9855 
G01 X8.2682 Y62.0224 
G01 X6.9718 Y62.0224 
G01 X6.8827 Y61.9855 
G01 X6.8145 Y61.9173 
G01 X6.7776 Y61.8282 
G01 X6.7776 Y60.5318 
G01 X6.8145 Y60.4427 
G01 X6.8827 Y60.3745 
G01 X6.9718 Y60.3376 
G01 X8.2682 Y60.3376 
G01 X8.3573 Y60.3745 
G01 X8.4255 Y60.4427 
G01 X8.4624 Y60.5318 
G00 Z2.5400 
G00 X5.5219 Y70.7274 
G01 Z-0.1500 F254.00 
G01 X3.4189 Y70.7274 F508.00 
G01 X3.3298 Y70.6905 
G01 X3.2616 Y70.6223 
G01 X3.2247 Y70.5332 
G01 X3.2247 Y66.6268 
G01 X3.2616 Y66.5377 
G01 X3.3298 Y66.4695 
G01 X3.4189 Y66.4326 
G01 X5.5219 Y66.4326 
G01 X5.6110 Y66.4695 
G01 X5.6792 Y66.5377 
G01 X5.7161 Y66.6268 
G01 X5.7161 Y70.5332 
G01 X5.6792 Y70.6223 
G01 X5.6110 Y70.6905 
