(.../pcb-gcode-3.6.0.4/pcb-gcode.ulp)
(Copyright 2005 - 2012 by John Johnson)
(See readme.txt for licensing terms.)
(This file generated from the board:)
(.../eagle/eagle/atmega module/shm.brd)
(Current profile is .../pcb-gcode-3.6.0.4/profiles/emc.pp  )
(This file generated 6/18/2014 3:04:44 PM)
(Settings from pcb-machine.h)
(  Tool Size)
(0.2000 )
(Z Axis Settings)
(  High     Up        Down     Drill)
(12.7000 	2.5400 	-0.1500 	-0.8128 )
(spindle on time = 3.0000)
(milling depth = -0.1500)
(text depth = -0.1270)
(tool change at 12.7000 15.2400 25.4000 )
(feed rate xy = F508.00 )
(feed rate z  = F254.00 )
(Settings from pcb-defaults.h)
(isolate min = 0.0154)
(isolate max = 0.5080)
(isolate step = 0.1270)
(Generated top outlines, top drill, bottom outlines, bottom drill, )
(Unit of measure: mm)
( Tool|       Size       |  Min Sub |  Max Sub |   Count )
( T01  3.200mm 0.1260in 0.0000in 0.0000in )
( T02  0.813mm 0.0320in 0.0000in 0.0000in )
( T03  1.016mm 0.0400in 0.0000in 0.0000in )
( T04  2.200mm 0.0866in 0.0000in 0.0000in )
(Metric Mode)
G21
(Absolute Coordinates)
G90
M05
G00 Z25.4000 
G00 X12.7000 Y15.2400 
M06 T01  ; 3.2000 
G01 Z0.0000 F254.00 
M06 T01  ; 3.2000 
G00 Z2.5400 
M03
G04 P3.000000
G00 Z2.540000
G00 X3.8100 Y3.8100 
G01 Z-0.8128 F254.00 
G01 Z2.540000
(R2.5400  P1.000000)
(G00 Z2.540000)
G00 X3.8100 Y48.2600 
G01 Z-0.812800
G01 Z2.540000
(G00 Z2.540000)
G00 X49.5300 Y3.8100 
G01 Z-0.812800
G01 Z2.540000
(G00 Z2.540000)
G00 X49.5300 Y48.2600 
G01 Z-0.812800
G01 Z2.540000
M05
G00 Z25.4000 
M06 T02  ; 0.8128 
G01 Z0.0000 F254.00 
M06 T02  ; 0.8128 
G00 Z2.5400 
M03
G04 P3.000000
G00 Z2.540000
G00 X11.4300 Y31.7500 
G01 Z-0.8128 F254.00 
G01 Z2.540000
(R2.5400  P1.000000)
(G00 Z2.540000)
G00 X11.4300 Y34.2900 
G01 Z-0.812800
G01 Z2.540000
(G00 Z2.540000)
G00 X11.4300 Y36.8300 
G01 Z-0.812800
G01 Z2.540000
(G00 Z2.540000)
G00 X11.4300 Y39.3700 
G01 Z-0.812800
G01 Z2.540000
(G00 Z2.540000)
G00 X11.4300 Y6.3500 
G01 Z-0.812800
G01 Z2.540000
(G00 Z2.540000)
G00 X11.4300 Y8.8900 
G01 Z-0.812800
G01 Z2.540000
(G00 Z2.540000)
G00 X11.4300 Y11.4300 
G01 Z-0.812800
G01 Z2.540000
(G00 Z2.540000)
G00 X11.4300 Y13.9700 
G01 Z-0.812800
G01 Z2.540000
(G00 Z2.540000)
G00 X11.4300 Y16.5100 
G01 Z-0.812800
G01 Z2.540000
(G00 Z2.540000)
G00 X11.4300 Y19.0500 
G01 Z-0.812800
G01 Z2.540000
(G00 Z2.540000)
G00 X11.4300 Y21.5900 
G01 Z-0.812800
G01 Z2.540000
(G00 Z2.540000)
G00 X11.4300 Y24.1300 
G01 Z-0.812800
G01 Z2.540000
(G00 Z2.540000)
G00 X11.4300 Y26.6700 
G01 Z-0.812800
G01 Z2.540000
(G00 Z2.540000)
G00 X11.4300 Y29.2100 
G01 Z-0.812800
G01 Z2.540000
(G00 Z2.540000)
G00 X19.0500 Y31.7500 
G01 Z-0.812800
G01 Z2.540000
(G00 Z2.540000)
G00 X19.0500 Y34.2900 
G01 Z-0.812800
G01 Z2.540000
(G00 Z2.540000)
G00 X19.0500 Y36.8300 
G01 Z-0.812800
G01 Z2.540000
(G00 Z2.540000)
G00 X19.0500 Y39.3700 
G01 Z-0.812800
G01 Z2.540000
(G00 Z2.540000)
G00 X19.0500 Y6.3500 
G01 Z-0.812800
G01 Z2.540000
(G00 Z2.540000)
G00 X19.0500 Y8.8900 
G01 Z-0.812800
G01 Z2.540000
(G00 Z2.540000)
G00 X19.0500 Y11.4300 
G01 Z-0.812800
G01 Z2.540000
(G00 Z2.540000)
G00 X19.0500 Y13.9700 
G01 Z-0.812800
G01 Z2.540000
(G00 Z2.540000)
G00 X19.0500 Y16.5100 
G01 Z-0.812800
G01 Z2.540000
(G00 Z2.540000)
G00 X19.0500 Y19.0500 
G01 Z-0.812800
G01 Z2.540000
(G00 Z2.540000)
G00 X19.0500 Y21.5900 
G01 Z-0.812800
G01 Z2.540000
(G00 Z2.540000)
G00 X19.0500 Y24.1300 
G01 Z-0.812800
G01 Z2.540000
(G00 Z2.540000)
G00 X19.0500 Y26.6700 
G01 Z-0.812800
G01 Z2.540000
(G00 Z2.540000)
G00 X19.0500 Y29.2100 
G01 Z-0.812800
G01 Z2.540000
(G00 Z2.540000)
G00 X25.4000 Y24.2570 
G01 Z-0.812800
G01 Z2.540000
(G00 Z2.540000)
G00 X25.4000 Y29.0830 
G01 Z-0.812800
G01 Z2.540000
M05
G00 Z25.4000 
M06 T03  ; 1.0160 
G01 Z0.0000 F254.00 
M06 T03  ; 1.0160 
G00 Z2.5400 
M03
G04 P3.000000
G00 Z2.540000
G00 X33.7312 Y7.3406 
G01 Z-0.8128 F254.00 
G01 Z2.540000
(R2.5400  P1.000000)
(G00 Z2.540000)
G00 X33.7312 Y2.8194 
G01 Z-0.812800
G01 Z2.540000
(G00 Z2.540000)
G00 X50.8000 Y33.0200 
G01 Z-0.812800
G01 Z2.540000
(G00 Z2.540000)
G00 X50.8000 Y35.5600 
G01 Z-0.812800
G01 Z2.540000
(G00 Z2.540000)
G00 X50.8000 Y38.1000 
G01 Z-0.812800
G01 Z2.540000
(G00 Z2.540000)
G00 X50.8000 Y40.6400 
G01 Z-0.812800
G01 Z2.540000
(G00 Z2.540000)
G00 X50.8000 Y43.1800 
G01 Z-0.812800
G01 Z2.540000
(G00 Z2.540000)
G00 X50.8000 Y8.8900 
G01 Z-0.812800
G01 Z2.540000
(G00 Z2.540000)
G00 X50.8000 Y11.4300 
G01 Z-0.812800
G01 Z2.540000
(G00 Z2.540000)
G00 X50.8000 Y13.9700 
G01 Z-0.812800
G01 Z2.540000
(G00 Z2.540000)
G00 X50.8000 Y16.5100 
G01 Z-0.812800
G01 Z2.540000
(G00 Z2.540000)
G00 X50.8000 Y19.0500 
G01 Z-0.812800
G01 Z2.540000
(G00 Z2.540000)
G00 X50.8000 Y21.5900 
G01 Z-0.812800
G01 Z2.540000
(G00 Z2.540000)
G00 X50.8000 Y24.1300 
G01 Z-0.812800
G01 Z2.540000
(G00 Z2.540000)
G00 X50.8000 Y26.6700 
G01 Z-0.812800
G01 Z2.540000
(G00 Z2.540000)
G00 X50.8000 Y30.4800 
G01 Z-0.812800
G01 Z2.540000
(G00 Z2.540000)
G00 X2.5400 Y31.7500 
G01 Z-0.812800
G01 Z2.540000
(G00 Z2.540000)
G00 X2.5400 Y34.2900 
G01 Z-0.812800
G01 Z2.540000
(G00 Z2.540000)
G00 X2.5400 Y8.8900 
G01 Z-0.812800
G01 Z2.540000
(G00 Z2.540000)
G00 X2.5400 Y11.4300 
G01 Z-0.812800
G01 Z2.540000
(G00 Z2.540000)
G00 X2.5400 Y13.9700 
G01 Z-0.812800
G01 Z2.540000
(G00 Z2.540000)
G00 X2.5400 Y16.5100 
G01 Z-0.812800
G01 Z2.540000
(G00 Z2.540000)
G00 X2.5400 Y19.0500 
G01 Z-0.812800
G01 Z2.540000
(G00 Z2.540000)
G00 X2.5400 Y21.5900 
G01 Z-0.812800
G01 Z2.540000
(G00 Z2.540000)
G00 X2.5400 Y26.6700 
G01 Z-0.812800
G01 Z2.540000
(G00 Z2.540000)
G00 X2.5400 Y29.2100 
G01 Z-0.812800
G01 Z2.540000
(G00 Z2.540000)
G00 X27.2288 Y7.3406 
G01 Z-0.812800
G01 Z2.540000
(G00 Z2.540000)
G00 X27.2288 Y2.8194 
G01 Z-0.812800
G01 Z2.540000
M05
G00 Z25.4000 
M06 T04  ; 2.2000 
G01 Z0.0000 F254.00 
M06 T04  ; 2.2000 
G00 Z2.5400 
M03
G04 P3.000000
G00 Z2.540000
G00 X36.8300 Y24.1300 
G01 Z-0.8128 F254.00 
G01 Z2.540000
(R2.5400  P1.000000)
T01 
G00 Z12.7000 
M05
M02
