(.../pcb-gcode-3.6.0.4/pcb-gcode.ulp)
(Copyright 2005 - 2012 by John Johnson)
(See readme.txt for licensing terms.)
(This file generated from the board:)
(.../eagle/eagle/atmega module/shm.brd)
(Current profile is .../pcb-gcode-3.6.0.4/profiles/emc.pp  )
(This file generated 6/18/2014 3:03:51 PM)
(Settings from pcb-machine.h)
(  Tool Size)
(0.2000 )
(Z Axis Settings)
(  High     Up        Down     Drill)
(12.7000 	2.5400 	-0.1500 	-0.8128 )
(spindle on time = 3.0000)
(milling depth = -0.1500)
(text depth = -0.1270)
(tool change at 12.7000 15.2400 25.4000 )
(feed rate xy = F508.00 )
(feed rate z  = F254.00 )
(Settings from pcb-defaults.h)
(isolate min = 0.0154)
(isolate max = 0.5080)
(isolate step = 0.1270)
(Generated top outlines, top drill, bottom outlines, bottom drill, )
(Unit of measure: mm)
(Metric Mode)
G21
(Absolute Coordinates)
G90
G00 X0.0000 Y0.0000 
M03
G04 P3.000000
G00 Z2.5400 
G00 X36.7114 Y48.9083 
G01 Z-0.1500 F254.00 
G01 X37.2058 Y48.9083 F508.00 
G01 X37.3284 Y48.7858 
G01 X37.3284 Y48.4139 
G01 X37.2058 Y48.2913 
G01 X36.7114 Y48.2913 
G01 X36.7114 Y48.9083 
G00 Z2.5400 
G00 X34.6811 Y48.7553 
G01 Z-0.1500 F254.00 
G01 X34.8061 Y48.6303 F508.00 
G01 X34.5560 Y48.6303 
G01 X34.6811 Y48.7553 
G00 Z2.5400 
G00 X25.5118 Y47.6134 
G01 Z-0.1500 F254.00 
G01 X25.1400 Y47.6134 F508.00 
G01 X25.0174 Y47.7360 
G01 X25.0174 Y48.7858 
G01 X25.1400 Y48.9083 
G01 X25.5118 Y48.9083 
G01 X25.6344 Y48.7858 
G01 X25.6344 Y47.7360 
G01 X25.5118 Y47.6134 
G00 Z2.5400 
G00 X22.6786 Y48.9083 
G01 Z-0.1500 F254.00 
G01 X23.1730 Y48.9083 F508.00 
G01 X23.2956 Y48.7858 
G01 X23.2956 Y48.4139 
G01 X23.1730 Y48.2913 
G01 X22.6786 Y48.2913 
G01 X22.6786 Y48.9083 
G00 Z2.5400 
G00 X16.1567 Y47.6134 
G01 Z-0.1500 F254.00 
G01 X15.7848 Y47.6134 F508.00 
G01 X15.6622 Y47.7360 
G01 X15.6622 Y48.7858 
G01 X15.7848 Y48.9083 
G01 X16.1567 Y48.9083 
G01 X16.2792 Y48.7858 
G01 X16.2792 Y47.7360 
G01 X16.1567 Y47.6134 
G00 Z2.5400 
G00 X28.2840 Y7.2576 
G01 Z-0.1500 F254.00 
G01 X28.2840 Y7.4236 F508.00 
G01 X28.2580 Y7.5877 
G01 X28.2067 Y7.7457 
G01 X28.1313 Y7.8936 
G01 X28.0337 Y8.0280 
G01 X27.9162 Y8.1455 
G01 X27.7818 Y8.2431 
G01 X27.6339 Y8.3185 
G01 X27.4759 Y8.3698 
G01 X27.3118 Y8.3958 
G01 X27.1457 Y8.3958 
G01 X26.9817 Y8.3698 
G01 X26.8237 Y8.3185 
G01 X26.6758 Y8.2431 
G01 X26.5414 Y8.1455 
G01 X26.4239 Y8.0280 
G01 X26.3263 Y7.8936 
G01 X26.2509 Y7.7457 
G01 X26.1996 Y7.5877 
G01 X26.1736 Y7.4236 
G01 X26.1736 Y7.2576 
G01 X26.1996 Y7.0935 
G01 X26.2509 Y6.9355 
G01 X26.3263 Y6.7876 
G01 X26.4239 Y6.6532 
G01 X26.5414 Y6.5357 
G01 X26.6758 Y6.4381 
G01 X26.8237 Y6.3627 
G01 X26.9817 Y6.3114 
G01 X27.1457 Y6.2854 
G01 X27.3118 Y6.2854 
G01 X27.4759 Y6.3114 
G01 X27.6339 Y6.3627 
G01 X27.7818 Y6.4381 
G01 X27.9162 Y6.5357 
G01 X28.0337 Y6.6532 
G01 X28.1313 Y6.7876 
G01 X28.2067 Y6.9355 
G01 X28.2580 Y7.0935 
G01 X28.2840 Y7.2576 
G00 Z2.5400 
G00 X28.2840 Y2.7364 
G01 Z-0.1500 F254.00 
G01 X28.2840 Y2.9024 F508.00 
G01 X28.2580 Y3.0665 
G01 X28.2067 Y3.2245 
G01 X28.1313 Y3.3724 
G01 X28.0337 Y3.5068 
G01 X27.9162 Y3.6243 
G01 X27.7818 Y3.7219 
G01 X27.6339 Y3.7973 
G01 X27.4759 Y3.8486 
G01 X27.3118 Y3.8746 
G01 X27.1457 Y3.8746 
G01 X26.9817 Y3.8486 
G01 X26.8237 Y3.7973 
G01 X26.6758 Y3.7219 
G01 X26.5414 Y3.6243 
G01 X26.4239 Y3.5068 
G01 X26.3263 Y3.3724 
G01 X26.2509 Y3.2245 
G01 X26.1996 Y3.0665 
G01 X26.1736 Y2.9024 
G01 X26.1736 Y2.7364 
G01 X26.1996 Y2.5723 
G01 X26.2509 Y2.4143 
G01 X26.3263 Y2.2664 
G01 X26.4239 Y2.1320 
G01 X26.5414 Y2.0145 
G01 X26.6758 Y1.9169 
G01 X26.8237 Y1.8415 
G01 X26.9817 Y1.7902 
G01 X27.1457 Y1.7642 
G01 X27.3118 Y1.7642 
G01 X27.4759 Y1.7902 
G01 X27.6339 Y1.8415 
G01 X27.7818 Y1.9169 
G01 X27.9162 Y2.0145 
G01 X28.0337 Y2.1320 
G01 X28.1313 Y2.2664 
G01 X28.2067 Y2.4143 
G01 X28.2580 Y2.5723 
G01 X28.2840 Y2.7364 
G00 Z2.5400 
G00 X37.4530 Y3.6646 
G01 Z-0.1500 F254.00 
G01 X37.4954 Y3.6822 F508.00 
G01 X37.5278 Y3.7146 
G01 X37.5454 Y3.7570 
G01 X37.5454 Y4.6030 
G01 X37.5278 Y4.6454 
G01 X37.4954 Y4.6778 
G01 X37.4530 Y4.6954 
G01 X36.2070 Y4.6954 
G01 X36.1646 Y4.6778 
G01 X36.1322 Y4.6454 
G01 X36.1146 Y4.6030 
G01 X36.1146 Y4.0524 
G01 X34.2418 Y4.0524 
G01 X34.1527 Y4.0155 
G01 X34.0845 Y3.9473 
G01 X34.0476 Y3.8582 
G01 X34.0476 Y3.8261 
G01 X33.9783 Y3.8486 
G01 X33.8142 Y3.8746 
G01 X33.6482 Y3.8746 
G01 X33.4841 Y3.8486 
G01 X33.3261 Y3.7973 
G01 X33.1782 Y3.7219 
G01 X33.0438 Y3.6243 
G01 X32.9263 Y3.5068 
G01 X32.8287 Y3.3724 
G01 X32.7533 Y3.2245 
G01 X32.7020 Y3.0665 
G01 X32.6760 Y2.9024 
G01 X32.6760 Y2.7364 
G01 X32.7020 Y2.5723 
G01 X32.7533 Y2.4143 
G01 X32.8287 Y2.2664 
G01 X32.9263 Y2.1320 
G01 X33.0438 Y2.0145 
G01 X33.1782 Y1.9169 
G01 X33.3261 Y1.8415 
G01 X33.4841 Y1.7902 
G01 X33.6482 Y1.7642 
G01 X33.8142 Y1.7642 
G01 X33.9783 Y1.7902 
G01 X34.1363 Y1.8415 
G01 X34.2842 Y1.9169 
G01 X34.4186 Y2.0145 
G01 X34.5361 Y2.1320 
G01 X34.6337 Y2.2664 
G01 X34.7091 Y2.4143 
G01 X34.7604 Y2.5723 
G01 X34.7864 Y2.7364 
G01 X34.7864 Y2.9024 
G01 X34.7604 Y3.0665 
G01 X34.7091 Y3.2245 
G01 X34.6337 Y3.3724 
G01 X34.5361 Y3.5068 
G01 X34.5324 Y3.5105 
G01 X34.5324 Y3.5676 
G01 X36.8782 Y3.5676 
G01 X36.9673 Y3.6045 
G01 X37.0274 Y3.6646 
G01 X37.4530 Y3.6646 
G00 Z2.5400 
G00 X36.2070 Y5.4646 
G01 Z-0.1500 F254.00 
G01 X37.4530 Y5.4646 F508.00 
G01 X37.4954 Y5.4822 
G01 X37.5278 Y5.5146 
G01 X37.5454 Y5.5570 
G01 X37.5454 Y6.4030 
G01 X37.5278 Y6.4454 
G01 X37.4954 Y6.4778 
G01 X37.4530 Y6.4954 
G01 X37.0274 Y6.4954 
G01 X36.9673 Y6.5555 
G01 X36.8782 Y6.5924 
G01 X34.5324 Y6.5924 
G01 X34.5324 Y6.6495 
G01 X34.5361 Y6.6532 
G01 X34.6337 Y6.7876 
G01 X34.7091 Y6.9355 
G01 X34.7604 Y7.0935 
G01 X34.7864 Y7.2576 
G01 X34.7864 Y7.4236 
G01 X34.7604 Y7.5877 
G01 X34.7091 Y7.7457 
G01 X34.6337 Y7.8936 
G01 X34.5361 Y8.0280 
G01 X34.4186 Y8.1455 
G01 X34.2842 Y8.2431 
G01 X34.1363 Y8.3185 
G01 X33.9783 Y8.3698 
G01 X33.8142 Y8.3958 
G01 X33.6482 Y8.3958 
G01 X33.4841 Y8.3698 
G01 X33.3261 Y8.3185 
G01 X33.1782 Y8.2431 
G01 X33.0438 Y8.1455 
G01 X32.9263 Y8.0280 
G01 X32.8287 Y7.8936 
G01 X32.7533 Y7.7457 
G01 X32.7020 Y7.5877 
G01 X32.6760 Y7.4236 
G01 X32.6760 Y7.2576 
G01 X32.7020 Y7.0935 
G01 X32.7533 Y6.9355 
G01 X32.8287 Y6.7876 
G01 X32.9263 Y6.6532 
G01 X33.0438 Y6.5357 
G01 X33.1782 Y6.4381 
G01 X33.3261 Y6.3627 
G01 X33.4841 Y6.3114 
G01 X33.6482 Y6.2854 
G01 X33.8142 Y6.2854 
G01 X33.9783 Y6.3114 
G01 X34.0476 Y6.3339 
G01 X34.0476 Y6.3018 
G01 X34.0845 Y6.2127 
G01 X34.1527 Y6.1445 
G01 X34.2418 Y6.1076 
G01 X36.1146 Y6.1076 
G01 X36.1146 Y5.5570 
G01 X36.1322 Y5.5146 
G01 X36.1646 Y5.4822 
G01 X36.2070 Y5.4646 
G00 Z2.5400 
G00 X26.3913 Y17.6346 
G01 Z-0.1500 F254.00 
G01 X26.4337 Y17.6522 F508.00 
G01 X26.4661 Y17.6846 
G01 X26.4837 Y17.7270 
G01 X26.4837 Y18.5730 
G01 X26.4661 Y18.6154 
G01 X26.4337 Y18.6478 
G01 X26.3913 Y18.6654 
G01 X25.1453 Y18.6654 
G01 X25.1029 Y18.6478 
G01 X25.0705 Y18.6154 
G01 X25.0529 Y18.5730 
G01 X25.0529 Y17.7757 
G01 X21.4527 Y14.1755 
G01 X21.3845 Y14.1073 
G01 X21.3476 Y14.0182 
G01 X21.3476 Y8.9904 
G01 X19.4830 Y7.1258 
G01 X18.3132 Y7.1258 
G01 X18.1633 Y7.0960 
G01 X18.0221 Y7.0375 
G01 X17.8951 Y6.9526 
G01 X17.7870 Y6.8445 
G01 X17.7021 Y6.7175 
G01 X17.6436 Y6.5763 
G01 X17.6138 Y6.4264 
G01 X17.6138 Y6.2736 
G01 X17.6436 Y6.1237 
G01 X17.7021 Y5.9825 
G01 X17.7870 Y5.8555 
G01 X17.8951 Y5.7474 
G01 X18.0221 Y5.6625 
G01 X18.1633 Y5.6040 
G01 X18.3132 Y5.5742 
G01 X19.7868 Y5.5742 
G01 X19.9367 Y5.6040 
G01 X20.0779 Y5.6625 
G01 X20.2049 Y5.7474 
G01 X20.3130 Y5.8555 
G01 X20.3979 Y5.9825 
G01 X20.4564 Y6.1237 
G01 X20.4862 Y6.2736 
G01 X20.4862 Y6.4264 
G01 X20.4564 Y6.5763 
G01 X20.3979 Y6.7175 
G01 X20.3130 Y6.8445 
G01 X20.2049 Y6.9526 
G01 X20.0793 Y7.0365 
G01 X21.7955 Y8.7527 
G01 X21.8324 Y8.8418 
G01 X21.8324 Y13.8696 
G01 X25.5375 Y17.5747 
G01 X25.5717 Y17.6089 
G01 X25.5974 Y17.6346 
G01 X26.3913 Y17.6346 
G00 Z2.5400 
G00 X37.4780 Y23.0954 
G01 Z-0.1500 F254.00 
G01 X36.1820 Y23.0954 F508.00 
G01 X36.1396 Y23.0778 
G01 X36.1072 Y23.0454 
G01 X36.0896 Y23.0030 
G01 X36.0896 Y21.5570 
G01 X36.1072 Y21.5146 
G01 X36.1396 Y21.4822 
G01 X36.1820 Y21.4646 
G01 X36.5876 Y21.4646 
G01 X36.5876 Y20.5624 
G01 X30.4318 Y20.5624 
G01 X30.3427 Y20.5255 
G01 X30.2826 Y20.4654 
G01 X29.8570 Y20.4654 
G01 X29.8146 Y20.4478 
G01 X29.7822 Y20.4154 
G01 X29.7646 Y20.3730 
G01 X29.7646 Y19.5270 
G01 X29.7822 Y19.4846 
G01 X29.8146 Y19.4522 
G01 X29.8570 Y19.4346 
G01 X31.1030 Y19.4346 
G01 X31.1454 Y19.4522 
G01 X31.1778 Y19.4846 
G01 X31.1954 Y19.5270 
G01 X31.1954 Y20.0776 
G01 X36.8782 Y20.0776 
G01 X36.9673 Y20.1145 
G01 X37.0355 Y20.1827 
G01 X37.0724 Y20.2718 
G01 X37.0724 Y21.4646 
G01 X37.4780 Y21.4646 
G01 X37.5204 Y21.4822 
G01 X37.5528 Y21.5146 
G01 X37.5704 Y21.5570 
G01 X37.5704 Y23.0030 
G01 X37.5528 Y23.0454 
G01 X37.5204 Y23.0778 
G01 X37.4780 Y23.0954 
G00 Z2.5400 
G00 X31.1030 Y25.5454 
G01 Z-0.1500 F254.00 
G01 X30.6774 Y25.5454 F508.00 
G01 X30.6173 Y25.6055 
G01 X30.5282 Y25.6424 
G01 X30.4318 Y25.6424 
G01 X30.3427 Y25.6055 
G01 X30.2826 Y25.5454 
G01 X29.8570 Y25.5454 
G01 X29.8146 Y25.5278 
G01 X29.7822 Y25.4954 
G01 X29.7646 Y25.4530 
G01 X29.7646 Y24.6070 
G01 X29.7822 Y24.5646 
G01 X29.8146 Y24.5322 
G01 X29.8570 Y24.5146 
G01 X31.0226 Y24.5146 
G01 X31.5076 Y24.0296 
G01 X31.5076 Y22.9604 
G01 X30.3796 Y21.8324 
G01 X25.6424 Y21.8324 
G01 X25.6424 Y23.5177 
G01 X25.7675 Y23.5695 
G01 X25.8945 Y23.6544 
G01 X26.0026 Y23.7625 
G01 X26.0875 Y23.8895 
G01 X26.1460 Y24.0307 
G01 X26.1758 Y24.1806 
G01 X26.1758 Y24.3334 
G01 X26.1460 Y24.4833 
G01 X26.0875 Y24.6245 
G01 X26.0026 Y24.7515 
G01 X25.8945 Y24.8596 
G01 X25.7675 Y24.9445 
G01 X25.6263 Y25.0030 
G01 X25.4764 Y25.0328 
G01 X25.3236 Y25.0328 
G01 X25.1737 Y25.0030 
G01 X25.0325 Y24.9445 
G01 X24.9055 Y24.8596 
G01 X24.7974 Y24.7515 
G01 X24.7125 Y24.6245 
G01 X24.6540 Y24.4833 
G01 X24.6242 Y24.3334 
G01 X24.6242 Y24.1806 
G01 X24.6540 Y24.0307 
G01 X24.7125 Y23.8895 
G01 X24.7974 Y23.7625 
G01 X24.9055 Y23.6544 
G01 X25.0325 Y23.5695 
G01 X25.1576 Y23.5177 
G01 X25.1576 Y21.5418 
G01 X25.1945 Y21.4527 
G01 X25.2627 Y21.3845 
G01 X25.3518 Y21.3476 
G01 X30.5282 Y21.3476 
G01 X30.6173 Y21.3845 
G01 X30.6855 Y21.4527 
G01 X31.9555 Y22.7227 
G01 X31.9924 Y22.8118 
G01 X31.9924 Y24.1782 
G01 X31.9555 Y24.2673 
G01 X31.1954 Y25.0274 
G01 X31.1954 Y25.4530 
G01 X31.1778 Y25.4954 
G01 X31.1454 Y25.5278 
G01 X31.1030 Y25.5454 
G00 Z2.5400 
G00 X26.1758 Y29.0066 
G01 Z-0.1500 F254.00 
G01 X26.1758 Y29.1594 F508.00 
G01 X26.1460 Y29.3093 
G01 X26.0875 Y29.4505 
G01 X26.0026 Y29.5775 
G01 X25.8945 Y29.6856 
G01 X25.7675 Y29.7705 
G01 X25.6424 Y29.8223 
G01 X25.6424 Y30.2376 
G01 X29.7646 Y30.2376 
G01 X29.7646 Y29.6870 
G01 X29.7822 Y29.6446 
G01 X29.8146 Y29.6122 
G01 X29.8570 Y29.5946 
G01 X31.1030 Y29.5946 
G01 X31.1454 Y29.6122 
G01 X31.1778 Y29.6446 
G01 X31.1954 Y29.6870 
G01 X31.1954 Y30.5330 
G01 X31.1778 Y30.5754 
G01 X31.1454 Y30.6078 
G01 X31.1030 Y30.6254 
G01 X30.6774 Y30.6254 
G01 X30.6173 Y30.6855 
G01 X30.5282 Y30.7224 
G01 X25.3518 Y30.7224 
G01 X25.2627 Y30.6855 
G01 X25.1945 Y30.6173 
G01 X25.1576 Y30.5282 
G01 X25.1576 Y29.8223 
G01 X25.0325 Y29.7705 
G01 X24.9055 Y29.6856 
G01 X24.7974 Y29.5775 
G01 X24.7125 Y29.4505 
G01 X24.6540 Y29.3093 
G01 X24.6242 Y29.1594 
G01 X24.6242 Y29.0066 
G01 X24.6540 Y28.8567 
G01 X24.7125 Y28.7155 
G01 X24.7974 Y28.5885 
G01 X24.9055 Y28.4804 
G01 X25.0325 Y28.3955 
G01 X25.1737 Y28.3370 
G01 X25.3236 Y28.3072 
G01 X25.4764 Y28.3072 
G01 X25.6263 Y28.3370 
G01 X25.7675 Y28.3955 
G01 X25.8945 Y28.4804 
G01 X26.0026 Y28.5885 
G01 X26.0875 Y28.7155 
G01 X26.1460 Y28.8567 
G01 X26.1758 Y29.0066 
G00 Z2.5400 
G00 X10.6932 Y5.5742 
G01 Z-0.1500 F254.00 
G01 X12.1668 Y5.5742 F508.00 
G01 X12.3167 Y5.6040 
G01 X12.4579 Y5.6625 
G01 X12.5849 Y5.7474 
G01 X12.6930 Y5.8555 
G01 X12.7779 Y5.9825 
G01 X12.8364 Y6.1237 
G01 X12.8662 Y6.2736 
G01 X12.8662 Y6.4264 
G01 X12.8364 Y6.5763 
G01 X12.7779 Y6.7175 
G01 X12.6930 Y6.8445 
G01 X12.5849 Y6.9526 
G01 X12.4579 Y7.0375 
G01 X12.3167 Y7.0960 
G01 X12.1668 Y7.1258 
G01 X10.6932 Y7.1258 
G01 X10.5433 Y7.0960 
G01 X10.4021 Y7.0375 
G01 X10.2751 Y6.9526 
G01 X10.1670 Y6.8445 
G01 X10.0821 Y6.7175 
G01 X10.0236 Y6.5763 
G01 X9.9938 Y6.4264 
G01 X9.9938 Y6.2736 
G01 X10.0236 Y6.1237 
G01 X10.0821 Y5.9825 
G01 X10.1670 Y5.8555 
G01 X10.2751 Y5.7474 
G01 X10.4021 Y5.6625 
G01 X10.5433 Y5.6040 
G01 X10.6932 Y5.5742 
G00 Z2.5400 
G00 X10.6932 Y8.1142 
G01 Z-0.1500 F254.00 
G01 X12.1668 Y8.1142 F508.00 
G01 X12.3167 Y8.1440 
G01 X12.4579 Y8.2025 
G01 X12.5849 Y8.2874 
G01 X12.6930 Y8.3955 
G01 X12.7779 Y8.5225 
G01 X12.8364 Y8.6637 
G01 X12.8662 Y8.8136 
G01 X12.8662 Y8.9664 
G01 X12.8364 Y9.1163 
G01 X12.7779 Y9.2575 
G01 X12.6930 Y9.3845 
G01 X12.5849 Y9.4926 
G01 X12.4579 Y9.5775 
G01 X12.3167 Y9.6360 
G01 X12.1668 Y9.6658 
G01 X10.6932 Y9.6658 
G01 X10.5433 Y9.6360 
G01 X10.4021 Y9.5775 
G01 X10.2751 Y9.4926 
G01 X10.1670 Y9.3845 
G01 X10.0821 Y9.2575 
G01 X10.0236 Y9.1163 
G01 X9.9938 Y8.9664 
G01 X9.9938 Y8.8136 
G01 X10.0236 Y8.6637 
G01 X10.0821 Y8.5225 
G01 X10.1670 Y8.3955 
G01 X10.2751 Y8.2874 
G01 X10.4021 Y8.2025 
G01 X10.5433 Y8.1440 
G01 X10.6932 Y8.1142 
G00 Z2.5400 
G00 X10.6932 Y10.6542 
G01 Z-0.1500 F254.00 
G01 X12.1668 Y10.6542 F508.00 
G01 X12.3167 Y10.6840 
G01 X12.4579 Y10.7425 
G01 X12.5849 Y10.8274 
G01 X12.6930 Y10.9355 
G01 X12.7779 Y11.0625 
G01 X12.8364 Y11.2037 
G01 X12.8662 Y11.3536 
G01 X12.8662 Y11.5064 
G01 X12.8364 Y11.6563 
G01 X12.7779 Y11.7975 
G01 X12.6930 Y11.9245 
G01 X12.5849 Y12.0326 
G01 X12.4579 Y12.1175 
G01 X12.3167 Y12.1760 
G01 X12.1668 Y12.2058 
G01 X10.6932 Y12.2058 
G01 X10.5433 Y12.1760 
G01 X10.4021 Y12.1175 
G01 X10.2751 Y12.0326 
G01 X10.1670 Y11.9245 
G01 X10.0821 Y11.7975 
G01 X10.0236 Y11.6563 
G01 X9.9938 Y11.5064 
G01 X9.9938 Y11.3536 
G01 X10.0236 Y11.2037 
G01 X10.0821 Y11.0625 
G01 X10.1670 Y10.9355 
G01 X10.2751 Y10.8274 
G01 X10.4021 Y10.7425 
G01 X10.5433 Y10.6840 
G01 X10.6932 Y10.6542 
G00 Z2.5400 
G00 X10.6932 Y13.1942 
G01 Z-0.1500 F254.00 
G01 X12.1668 Y13.1942 F508.00 
G01 X12.3167 Y13.2240 
G01 X12.4579 Y13.2825 
G01 X12.5849 Y13.3674 
G01 X12.6930 Y13.4755 
G01 X12.7779 Y13.6025 
G01 X12.8364 Y13.7437 
G01 X12.8662 Y13.8936 
G01 X12.8662 Y14.0464 
G01 X12.8364 Y14.1963 
G01 X12.7779 Y14.3375 
G01 X12.6930 Y14.4645 
G01 X12.5849 Y14.5726 
G01 X12.4579 Y14.6575 
G01 X12.3167 Y14.7160 
G01 X12.1668 Y14.7458 
G01 X10.6932 Y14.7458 
G01 X10.5433 Y14.7160 
G01 X10.4021 Y14.6575 
G01 X10.2751 Y14.5726 
G01 X10.1670 Y14.4645 
G01 X10.0821 Y14.3375 
G01 X10.0236 Y14.1963 
G01 X9.9938 Y14.0464 
G01 X9.9938 Y13.8936 
G01 X10.0236 Y13.7437 
G01 X10.0821 Y13.6025 
G01 X10.1670 Y13.4755 
G01 X10.2751 Y13.3674 
G01 X10.4021 Y13.2825 
G01 X10.5433 Y13.2240 
G01 X10.6932 Y13.1942 
G00 Z2.5400 
G00 X10.6932 Y15.7342 
G01 Z-0.1500 F254.00 
G01 X12.1668 Y15.7342 F508.00 
G01 X12.3167 Y15.7640 
G01 X12.4579 Y15.8225 
G01 X12.5849 Y15.9074 
G01 X12.6930 Y16.0155 
G01 X12.7779 Y16.1425 
G01 X12.8364 Y16.2837 
G01 X12.8662 Y16.4336 
G01 X12.8662 Y16.5864 
G01 X12.8364 Y16.7363 
G01 X12.7779 Y16.8775 
G01 X12.6930 Y17.0045 
G01 X12.5849 Y17.1126 
G01 X12.4579 Y17.1975 
G01 X12.3167 Y17.2560 
G01 X12.1668 Y17.2858 
G01 X10.6932 Y17.2858 
G01 X10.5433 Y17.2560 
G01 X10.4021 Y17.1975 
G01 X10.2751 Y17.1126 
G01 X10.1670 Y17.0045 
G01 X10.0821 Y16.8775 
G01 X10.0236 Y16.7363 
G01 X9.9938 Y16.5864 
G01 X9.9938 Y16.4336 
G01 X10.0236 Y16.2837 
G01 X10.0821 Y16.1425 
G01 X10.1670 Y16.0155 
G01 X10.2751 Y15.9074 
G01 X10.4021 Y15.8225 
G01 X10.5433 Y15.7640 
G01 X10.6932 Y15.7342 
G00 Z2.5400 
G00 X10.6932 Y18.2742 
G01 Z-0.1500 F254.00 
G01 X12.1668 Y18.2742 F508.00 
G01 X12.3167 Y18.3040 
G01 X12.4579 Y18.3625 
G01 X12.5849 Y18.4474 
G01 X12.6930 Y18.5555 
G01 X12.7779 Y18.6825 
G01 X12.8364 Y18.8237 
G01 X12.8662 Y18.9736 
G01 X12.8662 Y19.1264 
G01 X12.8364 Y19.2763 
G01 X12.7779 Y19.4175 
G01 X12.6930 Y19.5445 
G01 X12.5849 Y19.6526 
G01 X12.4579 Y19.7375 
G01 X12.3167 Y19.7960 
G01 X12.1668 Y19.8258 
G01 X10.6932 Y19.8258 
G01 X10.5433 Y19.7960 
G01 X10.4021 Y19.7375 
G01 X10.2751 Y19.6526 
G01 X10.1670 Y19.5445 
G01 X10.0821 Y19.4175 
G01 X10.0236 Y19.2763 
G01 X9.9938 Y19.1264 
G01 X9.9938 Y18.9736 
G01 X10.0236 Y18.8237 
G01 X10.0821 Y18.6825 
G01 X10.1670 Y18.5555 
G01 X10.2751 Y18.4474 
G01 X10.4021 Y18.3625 
G01 X10.5433 Y18.3040 
G01 X10.6932 Y18.2742 
G00 Z2.5400 
G00 X10.6932 Y23.3542 
G01 Z-0.1500 F254.00 
G01 X12.1668 Y23.3542 F508.00 
G01 X12.3167 Y23.3840 
G01 X12.4579 Y23.4425 
G01 X12.5849 Y23.5274 
G01 X12.6930 Y23.6355 
G01 X12.7779 Y23.7625 
G01 X12.8364 Y23.9037 
G01 X12.8662 Y24.0536 
G01 X12.8662 Y24.2064 
G01 X12.8364 Y24.3563 
G01 X12.7779 Y24.4975 
G01 X12.6930 Y24.6245 
G01 X12.5849 Y24.7326 
G01 X12.4579 Y24.8175 
G01 X12.3167 Y24.8760 
G01 X12.1668 Y24.9058 
G01 X10.6932 Y24.9058 
G01 X10.5433 Y24.8760 
G01 X10.4021 Y24.8175 
G01 X10.2751 Y24.7326 
G01 X10.1670 Y24.6245 
G01 X10.0821 Y24.4975 
G01 X10.0236 Y24.3563 
G01 X9.9938 Y24.2064 
G01 X9.9938 Y24.0536 
G01 X10.0236 Y23.9037 
G01 X10.0821 Y23.7625 
G01 X10.1670 Y23.6355 
G01 X10.2751 Y23.5274 
G01 X10.4021 Y23.4425 
G01 X10.5433 Y23.3840 
G01 X10.6932 Y23.3542 
G00 Z2.5400 
G00 X10.6932 Y25.8942 
G01 Z-0.1500 F254.00 
G01 X12.1668 Y25.8942 F508.00 
G01 X12.3167 Y25.9240 
G01 X12.4579 Y25.9825 
G01 X12.5849 Y26.0674 
G01 X12.6930 Y26.1755 
G01 X12.7779 Y26.3025 
G01 X12.8364 Y26.4437 
G01 X12.8662 Y26.5936 
G01 X12.8662 Y26.7464 
G01 X12.8364 Y26.8963 
G01 X12.7779 Y27.0375 
G01 X12.6930 Y27.1645 
G01 X12.5849 Y27.2726 
G01 X12.4579 Y27.3575 
G01 X12.3167 Y27.4160 
G01 X12.1668 Y27.4458 
G01 X10.6932 Y27.4458 
G01 X10.5433 Y27.4160 
G01 X10.4021 Y27.3575 
G01 X10.2751 Y27.2726 
G01 X10.1670 Y27.1645 
G01 X10.0821 Y27.0375 
G01 X10.0236 Y26.8963 
G01 X9.9938 Y26.7464 
G01 X9.9938 Y26.5936 
G01 X10.0236 Y26.4437 
G01 X10.0821 Y26.3025 
G01 X10.1670 Y26.1755 
G01 X10.2751 Y26.0674 
G01 X10.4021 Y25.9825 
G01 X10.5433 Y25.9240 
G01 X10.6932 Y25.8942 
G00 Z2.5400 
G00 X10.6932 Y28.4342 
G01 Z-0.1500 F254.00 
G01 X12.1668 Y28.4342 F508.00 
G01 X12.3167 Y28.4640 
G01 X12.4579 Y28.5225 
G01 X12.5849 Y28.6074 
G01 X12.6930 Y28.7155 
G01 X12.7779 Y28.8425 
G01 X12.8364 Y28.9837 
G01 X12.8662 Y29.1336 
G01 X12.8662 Y29.2864 
G01 X12.8364 Y29.4363 
G01 X12.7779 Y29.5775 
G01 X12.6930 Y29.7045 
G01 X12.5849 Y29.8126 
G01 X12.4579 Y29.8975 
G01 X12.3167 Y29.9560 
G01 X12.1668 Y29.9858 
G01 X10.6932 Y29.9858 
G01 X10.5433 Y29.9560 
G01 X10.4021 Y29.8975 
G01 X10.2751 Y29.8126 
G01 X10.1670 Y29.7045 
G01 X10.0821 Y29.5775 
G01 X10.0236 Y29.4363 
G01 X9.9938 Y29.2864 
G01 X9.9938 Y29.1336 
G01 X10.0236 Y28.9837 
G01 X10.0821 Y28.8425 
G01 X10.1670 Y28.7155 
G01 X10.2751 Y28.6074 
G01 X10.4021 Y28.5225 
G01 X10.5433 Y28.4640 
G01 X10.6932 Y28.4342 
G00 Z2.5400 
G00 X10.6932 Y30.9742 
G01 Z-0.1500 F254.00 
G01 X12.1668 Y30.9742 F508.00 
G01 X12.3167 Y31.0040 
G01 X12.4579 Y31.0625 
G01 X12.5849 Y31.1474 
G01 X12.6930 Y31.2555 
G01 X12.7779 Y31.3825 
G01 X12.8364 Y31.5237 
G01 X12.8662 Y31.6736 
G01 X12.8662 Y31.8264 
G01 X12.8364 Y31.9763 
G01 X12.7779 Y32.1175 
G01 X12.6930 Y32.2445 
G01 X12.5849 Y32.3526 
G01 X12.4579 Y32.4375 
G01 X12.3167 Y32.4960 
G01 X12.1668 Y32.5258 
G01 X10.6932 Y32.5258 
G01 X10.5433 Y32.4960 
G01 X10.4021 Y32.4375 
G01 X10.2751 Y32.3526 
G01 X10.1670 Y32.2445 
G01 X10.0821 Y32.1175 
G01 X10.0236 Y31.9763 
G01 X9.9938 Y31.8264 
G01 X9.9938 Y31.6736 
G01 X10.0236 Y31.5237 
G01 X10.0821 Y31.3825 
G01 X10.1670 Y31.2555 
G01 X10.2751 Y31.1474 
G01 X10.4021 Y31.0625 
G01 X10.5433 Y31.0040 
G01 X10.6932 Y30.9742 
G00 Z2.5400 
G00 X10.6932 Y33.5142 
G01 Z-0.1500 F254.00 
G01 X12.1668 Y33.5142 F508.00 
G01 X12.3167 Y33.5440 
G01 X12.4579 Y33.6025 
G01 X12.5849 Y33.6874 
G01 X12.6930 Y33.7955 
G01 X12.7779 Y33.9225 
G01 X12.8364 Y34.0637 
G01 X12.8662 Y34.2136 
G01 X12.8662 Y34.3664 
G01 X12.8364 Y34.5163 
G01 X12.7779 Y34.6575 
G01 X12.6930 Y34.7845 
G01 X12.5849 Y34.8926 
G01 X12.4579 Y34.9775 
G01 X12.3167 Y35.0360 
G01 X12.1668 Y35.0658 
G01 X10.6932 Y35.0658 
G01 X10.5433 Y35.0360 
G01 X10.4021 Y34.9775 
G01 X10.2751 Y34.8926 
G01 X10.1670 Y34.7845 
G01 X10.0821 Y34.6575 
G01 X10.0236 Y34.5163 
G01 X9.9938 Y34.3664 
G01 X9.9938 Y34.2136 
G01 X10.0236 Y34.0637 
G01 X10.0821 Y33.9225 
G01 X10.1670 Y33.7955 
G01 X10.2751 Y33.6874 
G01 X10.4021 Y33.6025 
G01 X10.5433 Y33.5440 
G01 X10.6932 Y33.5142 
G00 Z2.5400 
G00 X10.6932 Y36.0542 
G01 Z-0.1500 F254.00 
G01 X12.1668 Y36.0542 F508.00 
G01 X12.3167 Y36.0840 
G01 X12.4579 Y36.1425 
G01 X12.5849 Y36.2274 
G01 X12.6930 Y36.3355 
G01 X12.7779 Y36.4625 
G01 X12.8364 Y36.6037 
G01 X12.8662 Y36.7536 
G01 X12.8662 Y36.9064 
G01 X12.8364 Y37.0563 
G01 X12.7779 Y37.1975 
G01 X12.6930 Y37.3245 
G01 X12.5849 Y37.4326 
G01 X12.4579 Y37.5175 
G01 X12.3167 Y37.5760 
G01 X12.1668 Y37.6058 
G01 X10.6932 Y37.6058 
G01 X10.5433 Y37.5760 
G01 X10.4021 Y37.5175 
G01 X10.2751 Y37.4326 
G01 X10.1670 Y37.3245 
G01 X10.0821 Y37.1975 
G01 X10.0236 Y37.0563 
G01 X9.9938 Y36.9064 
G01 X9.9938 Y36.7536 
G01 X10.0236 Y36.6037 
G01 X10.0821 Y36.4625 
G01 X10.1670 Y36.3355 
G01 X10.2751 Y36.2274 
G01 X10.4021 Y36.1425 
G01 X10.5433 Y36.0840 
G01 X10.6932 Y36.0542 
G00 Z2.5400 
G00 X10.6932 Y38.5942 
G01 Z-0.1500 F254.00 
G01 X12.1668 Y38.5942 F508.00 
G01 X12.3167 Y38.6240 
G01 X12.4579 Y38.6825 
G01 X12.5849 Y38.7674 
G01 X12.6930 Y38.8755 
G01 X12.7779 Y39.0025 
G01 X12.8364 Y39.1437 
G01 X12.8662 Y39.2936 
G01 X12.8662 Y39.4464 
G01 X12.8364 Y39.5963 
G01 X12.7779 Y39.7375 
G01 X12.6930 Y39.8645 
G01 X12.5849 Y39.9726 
G01 X12.4579 Y40.0575 
G01 X12.3167 Y40.1160 
G01 X12.1668 Y40.1458 
G01 X10.6932 Y40.1458 
G01 X10.5433 Y40.1160 
G01 X10.4021 Y40.0575 
G01 X10.2751 Y39.9726 
G01 X10.1670 Y39.8645 
G01 X10.0821 Y39.7375 
G01 X10.0236 Y39.5963 
G01 X9.9938 Y39.4464 
G01 X9.9938 Y39.2936 
G01 X10.0236 Y39.1437 
G01 X10.0821 Y39.0025 
G01 X10.1670 Y38.8755 
G01 X10.2751 Y38.7674 
G01 X10.4021 Y38.6825 
G01 X10.5433 Y38.6240 
G01 X10.6932 Y38.5942 
G00 Z2.5400 
G00 X18.3132 Y38.5942 
G01 Z-0.1500 F254.00 
G01 X19.7868 Y38.5942 F508.00 
G01 X19.9367 Y38.6240 
G01 X20.0779 Y38.6825 
G01 X20.2049 Y38.7674 
G01 X20.3130 Y38.8755 
G01 X20.3979 Y39.0025 
G01 X20.4564 Y39.1437 
G01 X20.4862 Y39.2936 
G01 X20.4862 Y39.4464 
G01 X20.4564 Y39.5963 
G01 X20.3979 Y39.7375 
G01 X20.3130 Y39.8645 
G01 X20.2049 Y39.9726 
G01 X20.0779 Y40.0575 
G01 X19.9367 Y40.1160 
G01 X19.7868 Y40.1458 
G01 X18.3132 Y40.1458 
G01 X18.1633 Y40.1160 
G01 X18.0221 Y40.0575 
G01 X17.8951 Y39.9726 
G01 X17.7870 Y39.8645 
G01 X17.7021 Y39.7375 
G01 X17.6436 Y39.5963 
G01 X17.6138 Y39.4464 
G01 X17.6138 Y39.2936 
G01 X17.6436 Y39.1437 
G01 X17.7021 Y39.0025 
G01 X17.7870 Y38.8755 
G01 X17.8951 Y38.7674 
G01 X18.0221 Y38.6825 
G01 X18.1633 Y38.6240 
G01 X18.3132 Y38.5942 
G00 Z2.5400 
G00 X18.3132 Y36.0542 
G01 Z-0.1500 F254.00 
G01 X19.7868 Y36.0542 F508.00 
G01 X19.9367 Y36.0840 
G01 X20.0779 Y36.1425 
G01 X20.2049 Y36.2274 
G01 X20.3130 Y36.3355 
G01 X20.3979 Y36.4625 
G01 X20.4564 Y36.6037 
G01 X20.4862 Y36.7536 
G01 X20.4862 Y36.9064 
G01 X20.4564 Y37.0563 
G01 X20.3979 Y37.1975 
G01 X20.3130 Y37.3245 
G01 X20.2049 Y37.4326 
G01 X20.0779 Y37.5175 
G01 X19.9367 Y37.5760 
G01 X19.7868 Y37.6058 
G01 X18.3132 Y37.6058 
G01 X18.1633 Y37.5760 
G01 X18.0221 Y37.5175 
G01 X17.8951 Y37.4326 
G01 X17.7870 Y37.3245 
G01 X17.7021 Y37.1975 
G01 X17.6436 Y37.0563 
G01 X17.6138 Y36.9064 
G01 X17.6138 Y36.7536 
G01 X17.6436 Y36.6037 
G01 X17.7021 Y36.4625 
G01 X17.7870 Y36.3355 
G01 X17.8951 Y36.2274 
G01 X18.0221 Y36.1425 
G01 X18.1633 Y36.0840 
G01 X18.3132 Y36.0542 
G00 Z2.5400 
G00 X18.3132 Y33.5142 
G01 Z-0.1500 F254.00 
G01 X19.7868 Y33.5142 F508.00 
G01 X19.9367 Y33.5440 
G01 X20.0779 Y33.6025 
G01 X20.2049 Y33.6874 
G01 X20.3130 Y33.7955 
G01 X20.3979 Y33.9225 
G01 X20.4564 Y34.0637 
G01 X20.4862 Y34.2136 
G01 X20.4862 Y34.3664 
G01 X20.4564 Y34.5163 
G01 X20.3979 Y34.6575 
G01 X20.3130 Y34.7845 
G01 X20.2049 Y34.8926 
G01 X20.0779 Y34.9775 
G01 X19.9367 Y35.0360 
G01 X19.7868 Y35.0658 
G01 X18.3132 Y35.0658 
G01 X18.1633 Y35.0360 
G01 X18.0221 Y34.9775 
G01 X17.8951 Y34.8926 
G01 X17.7870 Y34.7845 
G01 X17.7021 Y34.6575 
G01 X17.6436 Y34.5163 
G01 X17.6138 Y34.3664 
G01 X17.6138 Y34.2136 
G01 X17.6436 Y34.0637 
G01 X17.7021 Y33.9225 
G01 X17.7870 Y33.7955 
G01 X17.8951 Y33.6874 
G01 X18.0221 Y33.6025 
G01 X18.1633 Y33.5440 
G01 X18.3132 Y33.5142 
G00 Z2.5400 
G00 X18.3132 Y30.9742 
G01 Z-0.1500 F254.00 
G01 X19.7868 Y30.9742 F508.00 
G01 X19.9367 Y31.0040 
G01 X20.0779 Y31.0625 
G01 X20.2049 Y31.1474 
G01 X20.3130 Y31.2555 
G01 X20.3979 Y31.3825 
G01 X20.4564 Y31.5237 
G01 X20.4862 Y31.6736 
G01 X20.4862 Y31.8264 
G01 X20.4564 Y31.9763 
G01 X20.3979 Y32.1175 
G01 X20.3130 Y32.2445 
G01 X20.2049 Y32.3526 
G01 X20.0779 Y32.4375 
G01 X19.9367 Y32.4960 
G01 X19.7868 Y32.5258 
G01 X18.3132 Y32.5258 
G01 X18.1633 Y32.4960 
G01 X18.0221 Y32.4375 
G01 X17.8951 Y32.3526 
G01 X17.7870 Y32.2445 
G01 X17.7021 Y32.1175 
G01 X17.6436 Y31.9763 
G01 X17.6138 Y31.8264 
G01 X17.6138 Y31.6736 
G01 X17.6436 Y31.5237 
G01 X17.7021 Y31.3825 
G01 X17.7870 Y31.2555 
G01 X17.8951 Y31.1474 
G01 X18.0221 Y31.0625 
G01 X18.1633 Y31.0040 
G01 X18.3132 Y30.9742 
G00 Z2.5400 
G00 X18.3132 Y28.4342 
G01 Z-0.1500 F254.00 
G01 X19.7868 Y28.4342 F508.00 
G01 X19.9367 Y28.4640 
G01 X20.0779 Y28.5225 
G01 X20.2049 Y28.6074 
G01 X20.3130 Y28.7155 
G01 X20.3979 Y28.8425 
G01 X20.4564 Y28.9837 
G01 X20.4862 Y29.1336 
G01 X20.4862 Y29.2864 
G01 X20.4564 Y29.4363 
G01 X20.3979 Y29.5775 
G01 X20.3130 Y29.7045 
G01 X20.2049 Y29.8126 
G01 X20.0779 Y29.8975 
G01 X19.9367 Y29.9560 
G01 X19.7868 Y29.9858 
G01 X18.3132 Y29.9858 
G01 X18.1633 Y29.9560 
G01 X18.0221 Y29.8975 
G01 X17.8951 Y29.8126 
G01 X17.7870 Y29.7045 
G01 X17.7021 Y29.5775 
G01 X17.6436 Y29.4363 
G01 X17.6138 Y29.2864 
G01 X17.6138 Y29.1336 
G01 X17.6436 Y28.9837 
G01 X17.7021 Y28.8425 
G01 X17.7870 Y28.7155 
G01 X17.8951 Y28.6074 
G01 X18.0221 Y28.5225 
G01 X18.1633 Y28.4640 
G01 X18.3132 Y28.4342 
G00 Z2.5400 
G00 X18.3132 Y25.8942 
G01 Z-0.1500 F254.00 
G01 X19.7868 Y25.8942 F508.00 
G01 X19.9367 Y25.9240 
G01 X20.0779 Y25.9825 
G01 X20.2049 Y26.0674 
G01 X20.3130 Y26.1755 
G01 X20.3979 Y26.3025 
G01 X20.4564 Y26.4437 
G01 X20.4862 Y26.5936 
G01 X20.4862 Y26.7464 
G01 X20.4564 Y26.8963 
G01 X20.3979 Y27.0375 
G01 X20.3130 Y27.1645 
G01 X20.2049 Y27.2726 
G01 X20.0779 Y27.3575 
G01 X19.9367 Y27.4160 
G01 X19.7868 Y27.4458 
G01 X18.3132 Y27.4458 
G01 X18.1633 Y27.4160 
G01 X18.0221 Y27.3575 
G01 X17.8951 Y27.2726 
G01 X17.7870 Y27.1645 
G01 X17.7021 Y27.0375 
G01 X17.6436 Y26.8963 
G01 X17.6138 Y26.7464 
G01 X17.6138 Y26.5936 
G01 X17.6436 Y26.4437 
G01 X17.7021 Y26.3025 
G01 X17.7870 Y26.1755 
G01 X17.8951 Y26.0674 
G01 X18.0221 Y25.9825 
G01 X18.1633 Y25.9240 
G01 X18.3132 Y25.8942 
G00 Z2.5400 
G00 X18.3132 Y23.3542 
G01 Z-0.1500 F254.00 
G01 X19.7868 Y23.3542 F508.00 
G01 X19.9367 Y23.3840 
G01 X20.0779 Y23.4425 
G01 X20.2049 Y23.5274 
G01 X20.3130 Y23.6355 
G01 X20.3979 Y23.7625 
G01 X20.4564 Y23.9037 
G01 X20.4862 Y24.0536 
G01 X20.4862 Y24.2064 
G01 X20.4564 Y24.3563 
G01 X20.3979 Y24.4975 
G01 X20.3130 Y24.6245 
G01 X20.2049 Y24.7326 
G01 X20.0779 Y24.8175 
G01 X19.9367 Y24.8760 
G01 X19.7868 Y24.9058 
G01 X19.2924 Y24.9058 
G01 X19.2924 Y25.1576 
G01 X28.9676 Y25.1576 
G01 X28.9676 Y24.0818 
G01 X29.0045 Y23.9927 
G01 X29.0727 Y23.9245 
G01 X29.7646 Y23.2326 
G01 X29.7646 Y22.8070 
G01 X29.7822 Y22.7646 
G01 X29.8146 Y22.7322 
G01 X29.8570 Y22.7146 
G01 X30.2826 Y22.7146 
G01 X30.3427 Y22.6545 
G01 X30.4318 Y22.6176 
G01 X30.5282 Y22.6176 
G01 X30.6173 Y22.6545 
G01 X30.6774 Y22.7146 
G01 X31.1030 Y22.7146 
G01 X31.1454 Y22.7322 
G01 X31.1778 Y22.7646 
G01 X31.1954 Y22.8070 
G01 X31.1954 Y23.6530 
G01 X31.1778 Y23.6954 
G01 X31.1454 Y23.7278 
G01 X31.1030 Y23.7454 
G01 X29.9374 Y23.7454 
G01 X29.4524 Y24.2304 
G01 X29.4524 Y26.4276 
G01 X36.0896 Y26.4276 
G01 X36.0896 Y25.2570 
G01 X36.1072 Y25.2146 
G01 X36.1396 Y25.1822 
G01 X36.1820 Y25.1646 
G01 X37.4780 Y25.1646 
G01 X37.5204 Y25.1822 
G01 X37.5528 Y25.2146 
G01 X37.5704 Y25.2570 
G01 X37.5704 Y26.7030 
G01 X37.5528 Y26.7454 
G01 X37.5204 Y26.7778 
G01 X37.4780 Y26.7954 
G01 X37.0404 Y26.7954 
G01 X37.0355 Y26.8073 
G01 X36.9673 Y26.8755 
G01 X36.8782 Y26.9124 
G01 X29.7952 Y26.9124 
G01 X30.6173 Y27.7345 
G01 X30.6774 Y27.7946 
G01 X31.1030 Y27.7946 
G01 X31.1454 Y27.8122 
G01 X31.1778 Y27.8446 
G01 X31.1954 Y27.8870 
G01 X31.1954 Y28.7330 
G01 X31.1778 Y28.7754 
G01 X31.1454 Y28.8078 
G01 X31.1030 Y28.8254 
G01 X29.8570 Y28.8254 
G01 X29.8146 Y28.8078 
G01 X29.7822 Y28.7754 
G01 X29.7646 Y28.7330 
G01 X29.7646 Y27.8870 
G01 X29.7822 Y27.8446 
G01 X29.8146 Y27.8122 
G01 X29.8570 Y27.7946 
G01 X29.9918 Y27.7946 
G01 X29.0727 Y26.8755 
G01 X29.0045 Y26.8073 
G01 X28.9676 Y26.7182 
G01 X28.9676 Y25.6424 
G01 X19.0018 Y25.6424 
G01 X18.9127 Y25.6055 
G01 X18.8445 Y25.5373 
G01 X18.8076 Y25.4482 
G01 X18.8076 Y24.9058 
G01 X18.3132 Y24.9058 
G01 X18.1633 Y24.8760 
G01 X18.0221 Y24.8175 
G01 X17.8951 Y24.7326 
G01 X17.7870 Y24.6245 
G01 X17.7021 Y24.4975 
G01 X17.6436 Y24.3563 
G01 X17.6138 Y24.2064 
G01 X17.6138 Y24.0536 
G01 X17.6436 Y23.9037 
G01 X17.7021 Y23.7625 
G01 X17.7870 Y23.6355 
G01 X17.8951 Y23.5274 
G01 X18.0221 Y23.4425 
G01 X18.1633 Y23.3840 
G01 X18.3132 Y23.3542 
G00 Z2.5400 
G00 X18.3132 Y20.8142 
G01 Z-0.1500 F254.00 
G01 X18.8076 Y20.8142 F508.00 
G01 X18.8076 Y20.2718 
G01 X18.8445 Y20.1827 
G01 X18.9127 Y20.1145 
G01 X19.0018 Y20.0776 
G01 X25.0529 Y20.0776 
G01 X25.0529 Y19.5270 
G01 X25.0705 Y19.4846 
G01 X25.1029 Y19.4522 
G01 X25.1453 Y19.4346 
G01 X25.9426 Y19.4346 
G01 X27.8027 Y17.5745 
G01 X27.8918 Y17.5376 
G01 X30.5282 Y17.5376 
G01 X30.6173 Y17.5745 
G01 X30.6774 Y17.6346 
G01 X31.1030 Y17.6346 
G01 X31.1454 Y17.6522 
G01 X31.1778 Y17.6846 
G01 X31.1954 Y17.7270 
G01 X31.1954 Y18.5730 
G01 X31.1778 Y18.6154 
G01 X31.1454 Y18.6478 
G01 X31.1030 Y18.6654 
G01 X29.8570 Y18.6654 
G01 X29.8146 Y18.6478 
G01 X29.7822 Y18.6154 
G01 X29.7646 Y18.5730 
G01 X29.7646 Y18.0224 
G01 X28.0404 Y18.0224 
G01 X26.4837 Y19.5791 
G01 X26.4837 Y20.3730 
G01 X26.4661 Y20.4154 
G01 X26.4337 Y20.4478 
G01 X26.3913 Y20.4654 
G01 X25.5974 Y20.4654 
G01 X25.5717 Y20.4911 
G01 X25.5378 Y20.5252 
G01 X25.4931 Y20.5438 
G01 X25.4488 Y20.5623 
G01 X25.3999 Y20.5624 
G01 X25.3523 Y20.5625 
G01 X19.2924 Y20.5624 
G01 X19.2924 Y20.8142 
G01 X19.7868 Y20.8142 
G01 X19.9367 Y20.8440 
G01 X20.0779 Y20.9025 
G01 X20.2049 Y20.9874 
G01 X20.3130 Y21.0955 
G01 X20.3979 Y21.2225 
G01 X20.4564 Y21.3637 
G01 X20.4862 Y21.5136 
G01 X20.4862 Y21.6664 
G01 X20.4564 Y21.8163 
G01 X20.3979 Y21.9575 
G01 X20.3130 Y22.0845 
G01 X20.2049 Y22.1926 
G01 X20.0779 Y22.2775 
G01 X19.9367 Y22.3360 
G01 X19.7868 Y22.3658 
G01 X18.3132 Y22.3658 
G01 X18.1633 Y22.3360 
G01 X18.0221 Y22.2775 
G01 X17.8951 Y22.1926 
G01 X17.7870 Y22.0845 
G01 X17.7021 Y21.9575 
G01 X17.6436 Y21.8163 
G01 X17.6138 Y21.6664 
G01 X17.6138 Y21.5136 
G01 X17.6436 Y21.3637 
G01 X17.7021 Y21.2225 
G01 X17.7870 Y21.0955 
G01 X17.8951 Y20.9874 
G01 X18.0221 Y20.9025 
G01 X18.1633 Y20.8440 
G01 X18.3132 Y20.8142 
G00 Z2.5400 
G00 X18.3132 Y18.2742 
G01 Z-0.1500 F254.00 
G01 X19.7868 Y18.2742 F508.00 
G01 X19.9367 Y18.3040 
G01 X20.0779 Y18.3625 
G01 X20.2049 Y18.4474 
G01 X20.3130 Y18.5555 
G01 X20.3979 Y18.6825 
G01 X20.4564 Y18.8237 
G01 X20.4862 Y18.9736 
G01 X20.4862 Y19.1264 
G01 X20.4564 Y19.2763 
G01 X20.3979 Y19.4175 
G01 X20.3130 Y19.5445 
G01 X20.2049 Y19.6526 
G01 X20.0779 Y19.7375 
G01 X19.9367 Y19.7960 
G01 X19.7868 Y19.8258 
G01 X18.3132 Y19.8258 
G01 X18.1633 Y19.7960 
G01 X18.0221 Y19.7375 
G01 X17.8951 Y19.6526 
G01 X17.7870 Y19.5445 
G01 X17.7021 Y19.4175 
G01 X17.6436 Y19.2763 
G01 X17.6138 Y19.1264 
G01 X17.6138 Y18.9736 
G01 X17.6436 Y18.8237 
G01 X17.7021 Y18.6825 
G01 X17.7870 Y18.5555 
G01 X17.8951 Y18.4474 
G01 X18.0221 Y18.3625 
G01 X18.1633 Y18.3040 
G01 X18.3132 Y18.2742 
G00 Z2.5400 
G00 X18.3132 Y15.7342 
G01 Z-0.1500 F254.00 
G01 X19.7868 Y15.7342 F508.00 
G01 X19.9367 Y15.7640 
G01 X20.0779 Y15.8225 
G01 X20.2049 Y15.9074 
G01 X20.3130 Y16.0155 
G01 X20.3979 Y16.1425 
G01 X20.4564 Y16.2837 
G01 X20.4862 Y16.4336 
G01 X20.4862 Y16.5864 
G01 X20.4564 Y16.7363 
G01 X20.3979 Y16.8775 
G01 X20.3130 Y17.0045 
G01 X20.2049 Y17.1126 
G01 X20.0779 Y17.1975 
G01 X19.9367 Y17.2560 
G01 X19.7868 Y17.2858 
G01 X18.3132 Y17.2858 
G01 X18.1633 Y17.2560 
G01 X18.0221 Y17.1975 
G01 X17.8951 Y17.1126 
G01 X17.7870 Y17.0045 
G01 X17.7021 Y16.8775 
G01 X17.6436 Y16.7363 
G01 X17.6138 Y16.5864 
G01 X17.6138 Y16.4336 
G01 X17.6436 Y16.2837 
G01 X17.7021 Y16.1425 
G01 X17.7870 Y16.0155 
G01 X17.8951 Y15.9074 
G01 X18.0221 Y15.8225 
G01 X18.1633 Y15.7640 
G01 X18.3132 Y15.7342 
G00 Z2.5400 
G00 X18.3132 Y13.1942 
G01 Z-0.1500 F254.00 
G01 X19.7868 Y13.1942 F508.00 
G01 X19.9367 Y13.2240 
G01 X20.0779 Y13.2825 
G01 X20.2049 Y13.3674 
G01 X20.3130 Y13.4755 
G01 X20.3979 Y13.6025 
G01 X20.4564 Y13.7437 
G01 X20.4862 Y13.8936 
G01 X20.4862 Y14.0464 
G01 X20.4564 Y14.1963 
G01 X20.3979 Y14.3375 
G01 X20.3130 Y14.4645 
G01 X20.2049 Y14.5726 
G01 X20.0779 Y14.6575 
G01 X19.9367 Y14.7160 
G01 X19.7868 Y14.7458 
G01 X18.3132 Y14.7458 
G01 X18.1633 Y14.7160 
G01 X18.0221 Y14.6575 
G01 X17.8951 Y14.5726 
G01 X17.7870 Y14.4645 
G01 X17.7021 Y14.3375 
G01 X17.6436 Y14.1963 
G01 X17.6138 Y14.0464 
G01 X17.6138 Y13.8936 
G01 X17.6436 Y13.7437 
G01 X17.7021 Y13.6025 
G01 X17.7870 Y13.4755 
G01 X17.8951 Y13.3674 
G01 X18.0221 Y13.2825 
G01 X18.1633 Y13.2240 
G01 X18.3132 Y13.1942 
G00 Z2.5400 
G00 X18.3132 Y10.6542 
G01 Z-0.1500 F254.00 
G01 X19.7868 Y10.6542 F508.00 
G01 X19.9367 Y10.6840 
G01 X20.0779 Y10.7425 
G01 X20.2049 Y10.8274 
G01 X20.3130 Y10.9355 
G01 X20.3979 Y11.0625 
G01 X20.4564 Y11.2037 
G01 X20.4862 Y11.3536 
G01 X20.4862 Y11.5064 
G01 X20.4564 Y11.6563 
G01 X20.3979 Y11.7975 
G01 X20.3130 Y11.9245 
G01 X20.2049 Y12.0326 
G01 X20.0779 Y12.1175 
G01 X19.9367 Y12.1760 
G01 X19.7868 Y12.2058 
G01 X18.3132 Y12.2058 
G01 X18.1633 Y12.1760 
G01 X18.0221 Y12.1175 
G01 X17.8951 Y12.0326 
G01 X17.7870 Y11.9245 
G01 X17.7021 Y11.7975 
G01 X17.6436 Y11.6563 
G01 X17.6138 Y11.5064 
G01 X17.6138 Y11.3536 
G01 X17.6436 Y11.2037 
G01 X17.7021 Y11.0625 
G01 X17.7870 Y10.9355 
G01 X17.8951 Y10.8274 
G01 X18.0221 Y10.7425 
G01 X18.1633 Y10.6840 
G01 X18.3132 Y10.6542 
G00 Z2.5400 
G00 X18.3132 Y8.1142 
G01 Z-0.1500 F254.00 
G01 X19.7868 Y8.1142 F508.00 
G01 X19.9367 Y8.1440 
G01 X20.0779 Y8.2025 
G01 X20.2049 Y8.2874 
G01 X20.3130 Y8.3955 
G01 X20.3979 Y8.5225 
G01 X20.4564 Y8.6637 
G01 X20.4862 Y8.8136 
G01 X20.4862 Y8.9664 
G01 X20.4564 Y9.1163 
G01 X20.3979 Y9.2575 
G01 X20.3130 Y9.3845 
G01 X20.2049 Y9.4926 
G01 X20.0779 Y9.5775 
G01 X19.9367 Y9.6360 
G01 X19.7868 Y9.6658 
G01 X18.3132 Y9.6658 
G01 X18.1633 Y9.6360 
G01 X18.0221 Y9.5775 
G01 X17.8951 Y9.4926 
G01 X17.7870 Y9.3845 
G01 X17.7021 Y9.2575 
G01 X17.6436 Y9.1163 
G01 X17.6138 Y8.9664 
G01 X17.6138 Y8.8136 
G01 X17.6436 Y8.6637 
G01 X17.7021 Y8.5225 
G01 X17.7870 Y8.3955 
G01 X17.8951 Y8.2874 
G01 X18.0221 Y8.2025 
G01 X18.1633 Y8.1440 
G01 X18.3132 Y8.1142 
G00 Z2.5400 
G00 X51.6484 Y9.7674 
G01 Z-0.1500 F254.00 
G01 X49.9516 Y9.7674 F508.00 
G01 X49.7821 Y9.7337 
G01 X49.6224 Y9.6675 
G01 X49.4787 Y9.5715 
G01 X49.3565 Y9.4493 
G01 X49.2605 Y9.3056 
G01 X49.1943 Y9.1459 
G01 X49.1606 Y8.9764 
G01 X49.1606 Y8.8036 
G01 X49.1943 Y8.6341 
G01 X49.2605 Y8.4744 
G01 X49.3565 Y8.3307 
G01 X49.4787 Y8.2085 
G01 X49.6224 Y8.1125 
G01 X49.7821 Y8.0463 
G01 X49.9516 Y8.0126 
G01 X51.6484 Y8.0126 
G01 X51.8179 Y8.0463 
G01 X51.9776 Y8.1125 
G01 X52.1213 Y8.2085 
G01 X52.2435 Y8.3307 
G01 X52.3395 Y8.4744 
G01 X52.4057 Y8.6341 
G01 X52.4394 Y8.8036 
G01 X52.4394 Y8.9764 
G01 X52.4057 Y9.1459 
G01 X52.3395 Y9.3056 
G01 X52.2435 Y9.4493 
G01 X52.1213 Y9.5715 
G01 X51.9776 Y9.6675 
G01 X51.8179 Y9.7337 
G01 X51.6484 Y9.7674 
G00 Z2.5400 
G00 X51.6484 Y12.3074 
G01 Z-0.1500 F254.00 
G01 X49.9516 Y12.3074 F508.00 
G01 X49.7821 Y12.2737 
G01 X49.6224 Y12.2075 
G01 X49.4787 Y12.1115 
G01 X49.3565 Y11.9893 
G01 X49.2605 Y11.8456 
G01 X49.1943 Y11.6859 
G01 X49.1606 Y11.5164 
G01 X49.1606 Y11.3436 
G01 X49.1943 Y11.1741 
G01 X49.2605 Y11.0144 
G01 X49.3565 Y10.8707 
G01 X49.4787 Y10.7485 
G01 X49.6224 Y10.6525 
G01 X49.7821 Y10.5863 
G01 X49.9516 Y10.5526 
G01 X51.6484 Y10.5526 
G01 X51.8179 Y10.5863 
G01 X51.9776 Y10.6525 
G01 X52.1213 Y10.7485 
G01 X52.2435 Y10.8707 
G01 X52.3395 Y11.0144 
G01 X52.4057 Y11.1741 
G01 X52.4394 Y11.3436 
G01 X52.4394 Y11.5164 
G01 X52.4057 Y11.6859 
G01 X52.3395 Y11.8456 
G01 X52.2435 Y11.9893 
G01 X52.1213 Y12.1115 
G01 X51.9776 Y12.2075 
G01 X51.8179 Y12.2737 
G01 X51.6484 Y12.3074 
G00 Z2.5400 
G00 X51.6484 Y14.8474 
G01 Z-0.1500 F254.00 
G01 X49.9516 Y14.8474 F508.00 
G01 X49.7821 Y14.8137 
G01 X49.6224 Y14.7475 
G01 X49.4787 Y14.6515 
G01 X49.3565 Y14.5293 
G01 X49.2605 Y14.3856 
G01 X49.1943 Y14.2259 
G01 X49.1606 Y14.0564 
G01 X49.1606 Y13.8836 
G01 X49.1943 Y13.7141 
G01 X49.2605 Y13.5544 
G01 X49.3565 Y13.4107 
G01 X49.4787 Y13.2885 
G01 X49.6224 Y13.1925 
G01 X49.7821 Y13.1263 
G01 X49.9516 Y13.0926 
G01 X51.6484 Y13.0926 
G01 X51.8179 Y13.1263 
G01 X51.9776 Y13.1925 
G01 X52.1213 Y13.2885 
G01 X52.2435 Y13.4107 
G01 X52.3395 Y13.5544 
G01 X52.4057 Y13.7141 
G01 X52.4394 Y13.8836 
G01 X52.4394 Y14.0564 
G01 X52.4057 Y14.2259 
G01 X52.3395 Y14.3856 
G01 X52.2435 Y14.5293 
G01 X52.1213 Y14.6515 
G01 X51.9776 Y14.7475 
G01 X51.8179 Y14.8137 
G01 X51.6484 Y14.8474 
G00 Z2.5400 
G00 X51.6484 Y17.3874 
G01 Z-0.1500 F254.00 
G01 X49.9516 Y17.3874 F508.00 
G01 X49.7821 Y17.3537 
G01 X49.6224 Y17.2875 
G01 X49.4787 Y17.1915 
G01 X49.3565 Y17.0693 
G01 X49.2605 Y16.9256 
G01 X49.1943 Y16.7659 
G01 X49.1606 Y16.5964 
G01 X49.1606 Y16.4236 
G01 X49.1943 Y16.2541 
G01 X49.2605 Y16.0944 
G01 X49.3565 Y15.9507 
G01 X49.4787 Y15.8285 
G01 X49.6224 Y15.7325 
G01 X49.7821 Y15.6663 
G01 X49.9516 Y15.6326 
G01 X51.6484 Y15.6326 
G01 X51.8179 Y15.6663 
G01 X51.9776 Y15.7325 
G01 X52.1213 Y15.8285 
G01 X52.2435 Y15.9507 
G01 X52.3395 Y16.0944 
G01 X52.4057 Y16.2541 
G01 X52.4394 Y16.4236 
G01 X52.4394 Y16.5964 
G01 X52.4057 Y16.7659 
G01 X52.3395 Y16.9256 
G01 X52.2435 Y17.0693 
G01 X52.1213 Y17.1915 
G01 X51.9776 Y17.2875 
G01 X51.8179 Y17.3537 
G01 X51.6484 Y17.3874 
G00 Z2.5400 
G00 X51.6484 Y19.9274 
G01 Z-0.1500 F254.00 
G01 X49.9516 Y19.9274 F508.00 
G01 X49.7821 Y19.8937 
G01 X49.6224 Y19.8275 
G01 X49.4787 Y19.7315 
G01 X49.3565 Y19.6093 
G01 X49.2605 Y19.4656 
G01 X49.1943 Y19.3059 
G01 X49.1606 Y19.1364 
G01 X49.1606 Y18.9636 
G01 X49.1943 Y18.7941 
G01 X49.2605 Y18.6344 
G01 X49.3565 Y18.4907 
G01 X49.4787 Y18.3685 
G01 X49.6224 Y18.2725 
G01 X49.7821 Y18.2063 
G01 X49.9516 Y18.1726 
G01 X51.6484 Y18.1726 
G01 X51.8179 Y18.2063 
G01 X51.9776 Y18.2725 
G01 X52.1213 Y18.3685 
G01 X52.2435 Y18.4907 
G01 X52.3395 Y18.6344 
G01 X52.4057 Y18.7941 
G01 X52.4394 Y18.9636 
G01 X52.4394 Y19.1364 
G01 X52.4057 Y19.3059 
G01 X52.3395 Y19.4656 
G01 X52.2435 Y19.6093 
G01 X52.1213 Y19.7315 
G01 X51.9776 Y19.8275 
G01 X51.8179 Y19.8937 
G01 X51.6484 Y19.9274 
G00 Z2.5400 
G00 X51.6484 Y22.4674 
G01 Z-0.1500 F254.00 
G01 X49.9516 Y22.4674 F508.00 
G01 X49.7821 Y22.4337 
G01 X49.6224 Y22.3675 
G01 X49.4787 Y22.2715 
G01 X49.3565 Y22.1493 
G01 X49.2605 Y22.0056 
G01 X49.1943 Y21.8459 
G01 X49.1606 Y21.6764 
G01 X49.1606 Y21.5036 
G01 X49.1943 Y21.3341 
G01 X49.2605 Y21.1744 
G01 X49.3565 Y21.0307 
G01 X49.4787 Y20.9085 
G01 X49.6224 Y20.8125 
G01 X49.7821 Y20.7463 
G01 X49.9516 Y20.7126 
G01 X51.6484 Y20.7126 
G01 X51.8179 Y20.7463 
G01 X51.9776 Y20.8125 
G01 X52.1213 Y20.9085 
G01 X52.2435 Y21.0307 
G01 X52.3395 Y21.1744 
G01 X52.4057 Y21.3341 
G01 X52.4394 Y21.5036 
G01 X52.4394 Y21.6764 
G01 X52.4057 Y21.8459 
G01 X52.3395 Y22.0056 
G01 X52.2435 Y22.1493 
G01 X52.1213 Y22.2715 
G01 X51.9776 Y22.3675 
G01 X51.8179 Y22.4337 
G01 X51.6484 Y22.4674 
G00 Z2.5400 
G00 X51.6484 Y25.0074 
G01 Z-0.1500 F254.00 
G01 X49.9516 Y25.0074 F508.00 
G01 X49.7821 Y24.9737 
G01 X49.6224 Y24.9075 
G01 X49.4787 Y24.8115 
G01 X49.3565 Y24.6893 
G01 X49.2605 Y24.5456 
G01 X49.1943 Y24.3859 
G01 X49.1606 Y24.2164 
G01 X49.1606 Y24.0436 
G01 X49.1943 Y23.8741 
G01 X49.2605 Y23.7144 
G01 X49.3565 Y23.5707 
G01 X49.4787 Y23.4485 
G01 X49.6224 Y23.3525 
G01 X49.7821 Y23.2863 
G01 X49.9516 Y23.2526 
G01 X51.6484 Y23.2526 
G01 X51.8179 Y23.2863 
G01 X51.9776 Y23.3525 
G01 X52.1213 Y23.4485 
G01 X52.2435 Y23.5707 
G01 X52.3395 Y23.7144 
G01 X52.4057 Y23.8741 
G01 X52.4394 Y24.0436 
G01 X52.4394 Y24.2164 
G01 X52.4057 Y24.3859 
G01 X52.3395 Y24.5456 
G01 X52.2435 Y24.6893 
G01 X52.1213 Y24.8115 
G01 X51.9776 Y24.9075 
G01 X51.8179 Y24.9737 
G01 X51.6484 Y25.0074 
G00 Z2.5400 
G00 X51.6484 Y27.5474 
G01 Z-0.1500 F254.00 
G01 X49.9516 Y27.5474 F508.00 
G01 X49.7821 Y27.5137 
G01 X49.6224 Y27.4475 
G01 X49.4787 Y27.3515 
G01 X49.3565 Y27.2293 
G01 X49.2605 Y27.0856 
G01 X49.1943 Y26.9259 
G01 X49.1606 Y26.7564 
G01 X49.1606 Y26.5836 
G01 X49.1943 Y26.4141 
G01 X49.2605 Y26.2544 
G01 X49.3565 Y26.1107 
G01 X49.4787 Y25.9885 
G01 X49.6224 Y25.8925 
G01 X49.7821 Y25.8263 
G01 X49.9516 Y25.7926 
G01 X51.6484 Y25.7926 
G01 X51.8179 Y25.8263 
G01 X51.9776 Y25.8925 
G01 X52.1213 Y25.9885 
G01 X52.2435 Y26.1107 
G01 X52.3395 Y26.2544 
G01 X52.4057 Y26.4141 
G01 X52.4394 Y26.5836 
G01 X52.4394 Y26.7564 
G01 X52.4057 Y26.9259 
G01 X52.3395 Y27.0856 
G01 X52.2435 Y27.2293 
G01 X52.1213 Y27.3515 
G01 X51.9776 Y27.4475 
G01 X51.8179 Y27.5137 
G01 X51.6484 Y27.5474 
G00 Z2.5400 
G00 X51.6484 Y31.3574 
G01 Z-0.1500 F254.00 
G01 X49.9516 Y31.3574 F508.00 
G01 X49.7821 Y31.3237 
G01 X49.6224 Y31.2575 
G01 X49.4787 Y31.1615 
G01 X49.3565 Y31.0393 
G01 X49.2605 Y30.8956 
G01 X49.1943 Y30.7359 
G01 X49.1606 Y30.5664 
G01 X49.1606 Y30.3936 
G01 X49.1943 Y30.2241 
G01 X49.2605 Y30.0644 
G01 X49.3565 Y29.9207 
G01 X49.4787 Y29.7985 
G01 X49.6224 Y29.7025 
G01 X49.7821 Y29.6363 
G01 X49.9516 Y29.6026 
G01 X51.6484 Y29.6026 
G01 X51.8179 Y29.6363 
G01 X51.9776 Y29.7025 
G01 X52.1213 Y29.7985 
G01 X52.2435 Y29.9207 
G01 X52.3395 Y30.0644 
G01 X52.4057 Y30.2241 
G01 X52.4394 Y30.3936 
G01 X52.4394 Y30.5664 
G01 X52.4057 Y30.7359 
G01 X52.3395 Y30.8956 
G01 X52.2435 Y31.0393 
G01 X52.1213 Y31.1615 
G01 X51.9776 Y31.2575 
G01 X51.8179 Y31.3237 
G01 X51.6484 Y31.3574 
G00 Z2.5400 
G00 X51.6484 Y33.8974 
G01 Z-0.1500 F254.00 
G01 X49.9516 Y33.8974 F508.00 
G01 X49.7821 Y33.8637 
G01 X49.6224 Y33.7975 
G01 X49.4787 Y33.7015 
G01 X49.3565 Y33.5793 
G01 X49.2605 Y33.4356 
G01 X49.1943 Y33.2759 
G01 X49.1606 Y33.1064 
G01 X49.1606 Y32.9336 
G01 X49.1943 Y32.7641 
G01 X49.2605 Y32.6044 
G01 X49.3565 Y32.4607 
G01 X49.4787 Y32.3385 
G01 X49.6224 Y32.2425 
G01 X49.7821 Y32.1763 
G01 X49.9516 Y32.1426 
G01 X51.6484 Y32.1426 
G01 X51.8179 Y32.1763 
G01 X51.9776 Y32.2425 
G01 X52.1213 Y32.3385 
G01 X52.2435 Y32.4607 
G01 X52.3395 Y32.6044 
G01 X52.4057 Y32.7641 
G01 X52.4394 Y32.9336 
G01 X52.4394 Y33.1064 
G01 X52.4057 Y33.2759 
G01 X52.3395 Y33.4356 
G01 X52.2435 Y33.5793 
G01 X52.1213 Y33.7015 
G01 X51.9776 Y33.7975 
G01 X51.8179 Y33.8637 
G01 X51.6484 Y33.8974 
G00 Z2.5400 
G00 X51.6484 Y36.4374 
G01 Z-0.1500 F254.00 
G01 X49.9516 Y36.4374 F508.00 
G01 X49.7821 Y36.4037 
G01 X49.6224 Y36.3375 
G01 X49.4787 Y36.2415 
G01 X49.3565 Y36.1193 
G01 X49.2605 Y35.9756 
G01 X49.1943 Y35.8159 
G01 X49.1606 Y35.6464 
G01 X49.1606 Y35.4736 
G01 X49.1943 Y35.3041 
G01 X49.2605 Y35.1444 
G01 X49.3565 Y35.0007 
G01 X49.4787 Y34.8785 
G01 X49.6224 Y34.7825 
G01 X49.7821 Y34.7163 
G01 X49.9516 Y34.6826 
G01 X51.6484 Y34.6826 
G01 X51.8179 Y34.7163 
G01 X51.9776 Y34.7825 
G01 X52.1213 Y34.8785 
G01 X52.2435 Y35.0007 
G01 X52.3395 Y35.1444 
G01 X52.4057 Y35.3041 
G01 X52.4394 Y35.4736 
G01 X52.4394 Y35.6464 
G01 X52.4057 Y35.8159 
G01 X52.3395 Y35.9756 
G01 X52.2435 Y36.1193 
G01 X52.1213 Y36.2415 
G01 X51.9776 Y36.3375 
G01 X51.8179 Y36.4037 
G01 X51.6484 Y36.4374 
G00 Z2.5400 
G00 X51.6484 Y38.9774 
G01 Z-0.1500 F254.00 
G01 X49.9516 Y38.9774 F508.00 
G01 X49.7821 Y38.9437 
G01 X49.6224 Y38.8775 
G01 X49.4787 Y38.7815 
G01 X49.3565 Y38.6593 
G01 X49.2605 Y38.5156 
G01 X49.1943 Y38.3559 
G01 X49.1606 Y38.1864 
G01 X49.1606 Y38.0136 
G01 X49.1943 Y37.8441 
G01 X49.2605 Y37.6844 
G01 X49.3565 Y37.5407 
G01 X49.4787 Y37.4185 
G01 X49.6224 Y37.3225 
G01 X49.7821 Y37.2563 
G01 X49.9516 Y37.2226 
G01 X51.6484 Y37.2226 
G01 X51.8179 Y37.2563 
G01 X51.9776 Y37.3225 
G01 X52.1213 Y37.4185 
G01 X52.2435 Y37.5407 
G01 X52.3395 Y37.6844 
G01 X52.4057 Y37.8441 
G01 X52.4394 Y38.0136 
G01 X52.4394 Y38.1864 
G01 X52.4057 Y38.3559 
G01 X52.3395 Y38.5156 
G01 X52.2435 Y38.6593 
G01 X52.1213 Y38.7815 
G01 X51.9776 Y38.8775 
G01 X51.8179 Y38.9437 
G01 X51.6484 Y38.9774 
G00 Z2.5400 
G00 X51.6484 Y41.5174 
G01 Z-0.1500 F254.00 
G01 X49.9516 Y41.5174 F508.00 
G01 X49.7821 Y41.4837 
G01 X49.6224 Y41.4175 
G01 X49.4787 Y41.3215 
G01 X49.3565 Y41.1993 
G01 X49.2605 Y41.0556 
G01 X49.1943 Y40.8959 
G01 X49.1606 Y40.7264 
G01 X49.1606 Y40.5536 
G01 X49.1943 Y40.3841 
G01 X49.2605 Y40.2244 
G01 X49.3565 Y40.0807 
G01 X49.4787 Y39.9585 
G01 X49.6224 Y39.8625 
G01 X49.7821 Y39.7963 
G01 X49.9516 Y39.7626 
G01 X51.6484 Y39.7626 
G01 X51.8179 Y39.7963 
G01 X51.9776 Y39.8625 
G01 X52.1213 Y39.9585 
G01 X52.2435 Y40.0807 
G01 X52.3395 Y40.2244 
G01 X52.4057 Y40.3841 
G01 X52.4394 Y40.5536 
G01 X52.4394 Y40.7264 
G01 X52.4057 Y40.8959 
G01 X52.3395 Y41.0556 
G01 X52.2435 Y41.1993 
G01 X52.1213 Y41.3215 
G01 X51.9776 Y41.4175 
G01 X51.8179 Y41.4837 
G01 X51.6484 Y41.5174 
G00 Z2.5400 
G00 X51.6484 Y44.0574 
G01 Z-0.1500 F254.00 
G01 X49.9516 Y44.0574 F508.00 
G01 X49.7821 Y44.0237 
G01 X49.6224 Y43.9575 
G01 X49.4787 Y43.8615 
G01 X49.3565 Y43.7393 
G01 X49.2605 Y43.5956 
G01 X49.1943 Y43.4359 
G01 X49.1606 Y43.2664 
G01 X49.1606 Y43.0936 
G01 X49.1943 Y42.9241 
G01 X49.2605 Y42.7644 
G01 X49.3565 Y42.6207 
G01 X49.4787 Y42.4985 
G01 X49.6224 Y42.4025 
G01 X49.7821 Y42.3363 
G01 X49.9516 Y42.3026 
G01 X51.6484 Y42.3026 
G01 X51.8179 Y42.3363 
G01 X51.9776 Y42.4025 
G01 X52.1213 Y42.4985 
G01 X52.2435 Y42.6207 
G01 X52.3395 Y42.7644 
G01 X52.4057 Y42.9241 
G01 X52.4394 Y43.0936 
G01 X52.4394 Y43.2664 
G01 X52.4057 Y43.4359 
G01 X52.3395 Y43.5956 
G01 X52.2435 Y43.7393 
G01 X52.1213 Y43.8615 
G01 X51.9776 Y43.9575 
G01 X51.8179 Y44.0237 
G01 X51.6484 Y44.0574 
G00 Z2.5400 
G00 X3.3884 Y9.7674 
G01 Z-0.1500 F254.00 
G01 X1.6916 Y9.7674 F508.00 
G01 X1.5221 Y9.7337 
G01 X1.3624 Y9.6675 
G01 X1.2187 Y9.5715 
G01 X1.0965 Y9.4493 
G01 X1.0005 Y9.3056 
G01 X0.9343 Y9.1459 
G01 X0.9006 Y8.9764 
G01 X0.9006 Y8.8036 
G01 X0.9343 Y8.6341 
G01 X1.0005 Y8.4744 
G01 X1.0965 Y8.3307 
G01 X1.2187 Y8.2085 
G01 X1.3624 Y8.1125 
G01 X1.5221 Y8.0463 
G01 X1.6916 Y8.0126 
G01 X3.3884 Y8.0126 
G01 X3.5579 Y8.0463 
G01 X3.7176 Y8.1125 
G01 X3.8613 Y8.2085 
G01 X3.9835 Y8.3307 
G01 X4.0795 Y8.4744 
G01 X4.1457 Y8.6341 
G01 X4.1794 Y8.8036 
G01 X4.1794 Y8.9764 
G01 X4.1457 Y9.1459 
G01 X4.0795 Y9.3056 
G01 X3.9835 Y9.4493 
G01 X3.8613 Y9.5715 
G01 X3.7176 Y9.6675 
G01 X3.5579 Y9.7337 
G01 X3.3884 Y9.7674 
G00 Z2.5400 
G00 X3.3884 Y12.3074 
G01 Z-0.1500 F254.00 
G01 X1.6916 Y12.3074 F508.00 
G01 X1.5221 Y12.2737 
G01 X1.3624 Y12.2075 
G01 X1.2187 Y12.1115 
G01 X1.0965 Y11.9893 
G01 X1.0005 Y11.8456 
G01 X0.9343 Y11.6859 
G01 X0.9006 Y11.5164 
G01 X0.9006 Y11.3436 
G01 X0.9343 Y11.1741 
G01 X1.0005 Y11.0144 
G01 X1.0965 Y10.8707 
G01 X1.2187 Y10.7485 
G01 X1.3624 Y10.6525 
G01 X1.5221 Y10.5863 
G01 X1.6916 Y10.5526 
G01 X3.3884 Y10.5526 
G01 X3.5579 Y10.5863 
G01 X3.7176 Y10.6525 
G01 X3.8613 Y10.7485 
G01 X3.9835 Y10.8707 
G01 X4.0795 Y11.0144 
G01 X4.1457 Y11.1741 
G01 X4.1794 Y11.3436 
G01 X4.1794 Y11.5164 
G01 X4.1457 Y11.6859 
G01 X4.0795 Y11.8456 
G01 X3.9835 Y11.9893 
G01 X3.8613 Y12.1115 
G01 X3.7176 Y12.2075 
G01 X3.5579 Y12.2737 
G01 X3.3884 Y12.3074 
G00 Z2.5400 
G00 X3.3884 Y14.8474 
G01 Z-0.1500 F254.00 
G01 X1.6916 Y14.8474 F508.00 
G01 X1.5221 Y14.8137 
G01 X1.3624 Y14.7475 
G01 X1.2187 Y14.6515 
G01 X1.0965 Y14.5293 
G01 X1.0005 Y14.3856 
G01 X0.9343 Y14.2259 
G01 X0.9006 Y14.0564 
G01 X0.9006 Y13.8836 
G01 X0.9343 Y13.7141 
G01 X1.0005 Y13.5544 
G01 X1.0965 Y13.4107 
G01 X1.2187 Y13.2885 
G01 X1.3624 Y13.1925 
G01 X1.5221 Y13.1263 
G01 X1.6916 Y13.0926 
G01 X3.3884 Y13.0926 
G01 X3.5579 Y13.1263 
G01 X3.7176 Y13.1925 
G01 X3.8613 Y13.2885 
G01 X3.9835 Y13.4107 
G01 X4.0795 Y13.5544 
G01 X4.1457 Y13.7141 
G01 X4.1794 Y13.8836 
G01 X4.1794 Y14.0564 
G01 X4.1457 Y14.2259 
G01 X4.0795 Y14.3856 
G01 X3.9835 Y14.5293 
G01 X3.8613 Y14.6515 
G01 X3.7176 Y14.7475 
G01 X3.5579 Y14.8137 
G01 X3.3884 Y14.8474 
G00 Z2.5400 
G00 X3.3884 Y17.3874 
G01 Z-0.1500 F254.00 
G01 X1.6916 Y17.3874 F508.00 
G01 X1.5221 Y17.3537 
G01 X1.3624 Y17.2875 
G01 X1.2187 Y17.1915 
G01 X1.0965 Y17.0693 
G01 X1.0005 Y16.9256 
G01 X0.9343 Y16.7659 
G01 X0.9006 Y16.5964 
G01 X0.9006 Y16.4236 
G01 X0.9343 Y16.2541 
G01 X1.0005 Y16.0944 
G01 X1.0965 Y15.9507 
G01 X1.2187 Y15.8285 
G01 X1.3624 Y15.7325 
G01 X1.5221 Y15.6663 
G01 X1.6916 Y15.6326 
G01 X3.3884 Y15.6326 
G01 X3.5579 Y15.6663 
G01 X3.7176 Y15.7325 
G01 X3.8613 Y15.8285 
G01 X3.9835 Y15.9507 
G01 X4.0795 Y16.0944 
G01 X4.1457 Y16.2541 
G01 X4.1794 Y16.4236 
G01 X4.1794 Y16.5964 
G01 X4.1457 Y16.7659 
G01 X4.0795 Y16.9256 
G01 X3.9835 Y17.0693 
G01 X3.8613 Y17.1915 
G01 X3.7176 Y17.2875 
G01 X3.5579 Y17.3537 
G01 X3.3884 Y17.3874 
G00 Z2.5400 
G00 X3.3884 Y19.9274 
G01 Z-0.1500 F254.00 
G01 X1.6916 Y19.9274 F508.00 
G01 X1.5221 Y19.8937 
G01 X1.3624 Y19.8275 
G01 X1.2187 Y19.7315 
G01 X1.0965 Y19.6093 
G01 X1.0005 Y19.4656 
G01 X0.9343 Y19.3059 
G01 X0.9006 Y19.1364 
G01 X0.9006 Y18.9636 
G01 X0.9343 Y18.7941 
G01 X1.0005 Y18.6344 
G01 X1.0965 Y18.4907 
G01 X1.2187 Y18.3685 
G01 X1.3624 Y18.2725 
G01 X1.5221 Y18.2063 
G01 X1.6916 Y18.1726 
G01 X3.3884 Y18.1726 
G01 X3.5579 Y18.2063 
G01 X3.7176 Y18.2725 
G01 X3.8613 Y18.3685 
G01 X3.9835 Y18.4907 
G01 X4.0795 Y18.6344 
G01 X4.1457 Y18.7941 
G01 X4.1794 Y18.9636 
G01 X4.1794 Y19.1364 
G01 X4.1457 Y19.3059 
G01 X4.0795 Y19.4656 
G01 X3.9835 Y19.6093 
G01 X3.8613 Y19.7315 
G01 X3.7176 Y19.8275 
G01 X3.5579 Y19.8937 
G01 X3.3884 Y19.9274 
G00 Z2.5400 
G00 X3.3884 Y22.4674 
G01 Z-0.1500 F254.00 
G01 X1.6916 Y22.4674 F508.00 
G01 X1.5221 Y22.4337 
G01 X1.3624 Y22.3675 
G01 X1.2187 Y22.2715 
G01 X1.0965 Y22.1493 
G01 X1.0005 Y22.0056 
G01 X0.9343 Y21.8459 
G01 X0.9006 Y21.6764 
G01 X0.9006 Y21.5036 
G01 X0.9343 Y21.3341 
G01 X1.0005 Y21.1744 
G01 X1.0965 Y21.0307 
G01 X1.2187 Y20.9085 
G01 X1.3624 Y20.8125 
G01 X1.5221 Y20.7463 
G01 X1.6916 Y20.7126 
G01 X3.3884 Y20.7126 
G01 X3.5579 Y20.7463 
G01 X3.7176 Y20.8125 
G01 X3.8613 Y20.9085 
G01 X3.9835 Y21.0307 
G01 X4.0795 Y21.1744 
G01 X4.1457 Y21.3341 
G01 X4.1794 Y21.5036 
G01 X4.1794 Y21.6764 
G01 X4.1457 Y21.8459 
G01 X4.0795 Y22.0056 
G01 X3.9835 Y22.1493 
G01 X3.8613 Y22.2715 
G01 X3.7176 Y22.3675 
G01 X3.5579 Y22.4337 
G01 X3.3884 Y22.4674 
G00 Z2.5400 
G00 X3.3884 Y27.5474 
G01 Z-0.1500 F254.00 
G01 X1.6916 Y27.5474 F508.00 
G01 X1.5221 Y27.5137 
G01 X1.3624 Y27.4475 
G01 X1.2187 Y27.3515 
G01 X1.0965 Y27.2293 
G01 X1.0005 Y27.0856 
G01 X0.9343 Y26.9259 
G01 X0.9006 Y26.7564 
G01 X0.9006 Y26.5836 
G01 X0.9343 Y26.4141 
G01 X1.0005 Y26.2544 
G01 X1.0965 Y26.1107 
G01 X1.2187 Y25.9885 
G01 X1.3624 Y25.8925 
G01 X1.5221 Y25.8263 
G01 X1.6916 Y25.7926 
G01 X3.3884 Y25.7926 
G01 X3.5579 Y25.8263 
G01 X3.7176 Y25.8925 
G01 X3.8613 Y25.9885 
G01 X3.9835 Y26.1107 
G01 X4.0795 Y26.2544 
G01 X4.1457 Y26.4141 
G01 X4.1794 Y26.5836 
G01 X4.1794 Y26.7564 
G01 X4.1457 Y26.9259 
G01 X4.0795 Y27.0856 
G01 X3.9835 Y27.2293 
G01 X3.8613 Y27.3515 
G01 X3.7176 Y27.4475 
G01 X3.5579 Y27.5137 
G01 X3.3884 Y27.5474 
G00 Z2.5400 
G00 X3.3884 Y32.6274 
G01 Z-0.1500 F254.00 
G01 X1.6916 Y32.6274 F508.00 
G01 X1.5221 Y32.5937 
G01 X1.3624 Y32.5275 
G01 X1.2187 Y32.4315 
G01 X1.0965 Y32.3093 
G01 X1.0005 Y32.1656 
G01 X0.9343 Y32.0059 
G01 X0.9006 Y31.8364 
G01 X0.9006 Y31.6636 
G01 X0.9343 Y31.4941 
G01 X1.0005 Y31.3344 
G01 X1.0965 Y31.1907 
G01 X1.2187 Y31.0685 
G01 X1.3624 Y30.9725 
G01 X1.5221 Y30.9063 
G01 X1.6916 Y30.8726 
G01 X2.2976 Y30.8726 
G01 X2.2976 Y30.4318 
G01 X2.3345 Y30.3427 
G01 X2.4027 Y30.2745 
G01 X2.5898 Y30.0874 
G01 X1.6916 Y30.0874 
G01 X1.5221 Y30.0537 
G01 X1.3624 Y29.9875 
G01 X1.2187 Y29.8915 
G01 X1.0965 Y29.7693 
G01 X1.0005 Y29.6256 
G01 X0.9343 Y29.4659 
G01 X0.9006 Y29.2964 
G01 X0.9006 Y29.1236 
G01 X0.9343 Y28.9541 
G01 X1.0005 Y28.7944 
G01 X1.0965 Y28.6507 
G01 X1.2187 Y28.5285 
G01 X1.3624 Y28.4325 
G01 X1.5221 Y28.3663 
G01 X1.6916 Y28.3326 
G01 X3.3884 Y28.3326 
G01 X3.5579 Y28.3663 
G01 X3.7176 Y28.4325 
G01 X3.8613 Y28.5285 
G01 X3.9835 Y28.6507 
G01 X4.0007 Y28.6765 
G01 X10.4007 Y22.2765 
G01 X10.2751 Y22.1926 
G01 X10.1670 Y22.0845 
G01 X10.0821 Y21.9575 
G01 X10.0236 Y21.8163 
G01 X9.9938 Y21.6664 
G01 X9.9938 Y21.5136 
G01 X10.0236 Y21.3637 
G01 X10.0821 Y21.2225 
G01 X10.1670 Y21.0955 
G01 X10.2751 Y20.9874 
G01 X10.4021 Y20.9025 
G01 X10.5433 Y20.8440 
G01 X10.6932 Y20.8142 
G01 X12.1668 Y20.8142 
G01 X12.3167 Y20.8440 
G01 X12.4579 Y20.9025 
G01 X12.5849 Y20.9874 
G01 X12.6930 Y21.0955 
G01 X12.7779 Y21.2225 
G01 X12.8364 Y21.3637 
G01 X12.8662 Y21.5136 
G01 X12.8662 Y21.6664 
G01 X12.8364 Y21.8163 
G01 X12.7779 Y21.9575 
G01 X12.6930 Y22.0845 
G01 X12.5849 Y22.1926 
G01 X12.4579 Y22.2775 
G01 X12.3167 Y22.3360 
G01 X12.1668 Y22.3658 
G01 X10.9970 Y22.3658 
G01 X4.1794 Y29.1834 
G01 X4.1794 Y29.2964 
G01 X4.1457 Y29.4659 
G01 X4.0795 Y29.6256 
G01 X3.9835 Y29.7693 
G01 X3.8613 Y29.8915 
G01 X3.7176 Y29.9875 
G01 X3.5579 Y30.0537 
G01 X3.3884 Y30.0874 
G01 X3.2754 Y30.0874 
G01 X2.7824 Y30.5804 
G01 X2.7824 Y30.8726 
G01 X3.3884 Y30.8726 
G01 X3.5579 Y30.9063 
G01 X3.7176 Y30.9725 
G01 X3.8613 Y31.0685 
G01 X3.9835 Y31.1907 
G01 X4.0795 Y31.3344 
G01 X4.1457 Y31.4941 
G01 X4.1794 Y31.6636 
G01 X4.1794 Y31.8364 
G01 X4.1457 Y32.0059 
G01 X4.0795 Y32.1656 
G01 X3.9835 Y32.3093 
G01 X3.8613 Y32.4315 
G01 X3.7176 Y32.5275 
G01 X3.5579 Y32.5937 
G01 X3.3884 Y32.6274 
G00 Z2.5400 
G00 X3.3884 Y35.1674 
G01 Z-0.1500 F254.00 
G01 X1.6916 Y35.1674 F508.00 
G01 X1.5221 Y35.1337 
G01 X1.3624 Y35.0675 
G01 X1.2187 Y34.9715 
G01 X1.0965 Y34.8493 
G01 X1.0005 Y34.7056 
G01 X0.9343 Y34.5459 
G01 X0.9006 Y34.3764 
G01 X0.9006 Y34.2036 
G01 X0.9343 Y34.0341 
G01 X1.0005 Y33.8744 
G01 X1.0965 Y33.7307 
G01 X1.2187 Y33.6085 
G01 X1.3624 Y33.5125 
G01 X1.5221 Y33.4463 
G01 X1.6916 Y33.4126 
G01 X3.3884 Y33.4126 
G01 X3.5579 Y33.4463 
G01 X3.7176 Y33.5125 
G01 X3.8613 Y33.6085 
G01 X3.9835 Y33.7307 
G01 X4.0795 Y33.8744 
G01 X4.1457 Y34.0341 
G01 X4.1794 Y34.2036 
G01 X4.1794 Y34.3764 
G01 X4.1457 Y34.5459 
G01 X4.0795 Y34.7056 
G01 X3.9835 Y34.8493 
G01 X3.8613 Y34.9715 
G01 X3.7176 Y35.0675 
G01 X3.5579 Y35.1337 
G01 X3.3884 Y35.1674 
G00 Z2.5400 
G00 X27.3562 Y49.3264 
G01 Z-0.1500 F254.00 
G01 X27.3310 Y49.4203 F508.00 
G01 X27.2824 Y49.5046 
G01 X27.2136 Y49.5733 
G01 X27.1294 Y49.6220 
G01 X27.0354 Y49.6471 
G01 X26.9381 Y49.6471 
G01 X26.8442 Y49.6220 
G01 X26.7600 Y49.5733 
G01 X26.6912 Y49.5046 
G01 X26.6426 Y49.4203 
G01 X26.6174 Y49.3264 
G01 X26.6174 Y47.1954 
G01 X26.6426 Y47.1014 
G01 X26.6912 Y47.0172 
G01 X26.7600 Y46.9484 
G01 X26.8442 Y46.8998 
G01 X26.9381 Y46.8746 
G01 X28.3912 Y46.8746 
G01 X28.4852 Y46.8998 
G01 X28.5694 Y46.9484 
G01 X28.6382 Y47.0172 
G01 X28.6868 Y47.1014 
G01 X28.7120 Y47.1954 
G01 X28.7120 Y47.2926 
G01 X28.6868 Y47.3866 
G01 X28.6382 Y47.4708 
G01 X28.5694 Y47.5396 
G01 X28.4852 Y47.5882 
G01 X28.3912 Y47.6134 
G01 X27.3562 Y47.6134 
G01 X27.3562 Y49.3264 
G00 Z2.5400 
G00 X20.2789 Y47.1954 
G01 Z-0.1500 F254.00 
G01 X20.3041 Y47.1014 F508.00 
G01 X20.3527 Y47.0172 
G01 X20.4215 Y46.9484 
G01 X20.5057 Y46.8998 
G01 X20.5997 Y46.8746 
G01 X20.6969 Y46.8746 
G01 X20.7909 Y46.8998 
G01 X20.8751 Y46.9484 
G01 X20.9439 Y47.0172 
G01 X20.9925 Y47.1014 
G01 X21.0177 Y47.1954 
G01 X21.0177 Y48.9083 
G01 X21.3748 Y48.9083 
G01 X21.4688 Y48.9335 
G01 X21.5530 Y48.9821 
G01 X21.6218 Y49.0509 
G01 X21.6704 Y49.1352 
G01 X21.6956 Y49.2291 
G01 X21.6956 Y49.3264 
G01 X21.6704 Y49.4203 
G01 X21.6218 Y49.5046 
G01 X21.5530 Y49.5733 
G01 X21.4688 Y49.6220 
G01 X21.3748 Y49.6471 
G01 X19.9218 Y49.6471 
G01 X19.8278 Y49.6220 
G01 X19.7436 Y49.5733 
G01 X19.6748 Y49.5046 
G01 X19.6262 Y49.4203 
G01 X19.6010 Y49.3264 
G01 X19.6010 Y49.2291 
G01 X19.6262 Y49.1352 
G01 X19.6748 Y49.0509 
G01 X19.7436 Y48.9821 
G01 X19.8278 Y48.9335 
G01 X19.9218 Y48.9083 
G01 X20.2789 Y48.9083 
G01 X20.2789 Y47.1954 
G00 Z2.5400 
G00 X17.2622 Y49.3264 
G01 Z-0.1500 F254.00 
G01 X17.2622 Y49.3143 F508.00 
G01 X17.2598 Y49.3025 
G01 X17.2622 Y49.2658 
G01 X17.2622 Y47.1954 
G01 X17.2874 Y47.1014 
G01 X17.3360 Y47.0172 
G01 X17.4048 Y46.9484 
G01 X17.4890 Y46.8998 
G01 X17.5830 Y46.8746 
G01 X17.6802 Y46.8746 
G01 X17.7742 Y46.8998 
G01 X17.8584 Y46.9484 
G01 X17.9272 Y47.0172 
G01 X17.9758 Y47.1014 
G01 X18.0010 Y47.1954 
G01 X18.0010 Y48.0577 
G01 X18.6735 Y47.0490 
G01 X18.6918 Y47.0172 
G01 X18.7003 Y47.0087 
G01 X18.7070 Y46.9986 
G01 X18.7346 Y46.9744 
G01 X18.7606 Y46.9484 
G01 X18.7710 Y46.9424 
G01 X18.7801 Y46.9344 
G01 X18.8130 Y46.9181 
G01 X18.8448 Y46.8998 
G01 X18.8565 Y46.8967 
G01 X18.8673 Y46.8913 
G01 X18.9033 Y46.8841 
G01 X18.9388 Y46.8746 
G01 X18.9508 Y46.8746 
G01 X18.9627 Y46.8722 
G01 X18.9993 Y46.8746 
G01 X19.0360 Y46.8746 
G01 X19.0477 Y46.8777 
G01 X19.0597 Y46.8785 
G01 X19.0945 Y46.8903 
G01 X19.1300 Y46.8998 
G01 X19.1404 Y46.9058 
G01 X19.1519 Y46.9097 
G01 X19.1824 Y46.9301 
G01 X19.2142 Y46.9484 
G01 X19.2228 Y46.9569 
G01 X19.2328 Y46.9636 
G01 X19.2570 Y46.9912 
G01 X19.2830 Y47.0172 
G01 X19.2890 Y47.0276 
G01 X19.2970 Y47.0367 
G01 X19.3133 Y47.0696 
G01 X19.3316 Y47.1014 
G01 X19.3348 Y47.1131 
G01 X19.3401 Y47.1239 
G01 X19.3473 Y47.1599 
G01 X19.3568 Y47.1954 
G01 X19.3568 Y47.2074 
G01 X19.3592 Y47.2192 
G01 X19.3568 Y47.2559 
G01 X19.3568 Y49.3264 
G01 X19.3316 Y49.4203 
G01 X19.2830 Y49.5046 
G01 X19.2142 Y49.5733 
G01 X19.1300 Y49.6220 
G01 X19.0360 Y49.6471 
G01 X18.9388 Y49.6471 
G01 X18.8448 Y49.6220 
G01 X18.7606 Y49.5733 
G01 X18.6918 Y49.5046 
G01 X18.6432 Y49.4203 
G01 X18.6180 Y49.3264 
G01 X18.6180 Y48.4640 
G01 X17.9455 Y49.4728 
G01 X17.9272 Y49.5046 
G01 X17.9187 Y49.5131 
G01 X17.9120 Y49.5231 
G01 X17.8844 Y49.5474 
G01 X17.8584 Y49.5733 
G01 X17.8480 Y49.5794 
G01 X17.8389 Y49.5873 
G01 X17.8060 Y49.6036 
G01 X17.7742 Y49.6220 
G01 X17.7625 Y49.6251 
G01 X17.7517 Y49.6304 
G01 X17.7157 Y49.6376 
G01 X17.6802 Y49.6471 
G01 X17.6682 Y49.6471 
G01 X17.6563 Y49.6495 
G01 X17.6197 Y49.6471 
G01 X17.5830 Y49.6471 
G01 X17.5713 Y49.6440 
G01 X17.5593 Y49.6432 
G01 X17.5245 Y49.6315 
G01 X17.4890 Y49.6220 
G01 X17.4786 Y49.6159 
G01 X17.4672 Y49.6121 
G01 X17.4366 Y49.5917 
G01 X17.4048 Y49.5733 
G01 X17.3963 Y49.5648 
G01 X17.3862 Y49.5581 
G01 X17.3620 Y49.5305 
G01 X17.3360 Y49.5046 
G01 X17.3300 Y49.4941 
G01 X17.3220 Y49.4851 
G01 X17.3057 Y49.4521 
G01 X17.2874 Y49.4203 
G01 X17.2843 Y49.4087 
G01 X17.2789 Y49.3979 
G01 X17.2717 Y49.3618 
G01 X17.2622 Y49.3264 
G00 Z2.5400 
G00 X14.0830 Y48.6432 
G01 Z-0.1500 F254.00 
G01 X14.1672 Y48.5946 F508.00 
G01 X14.2612 Y48.5694 
G01 X14.3585 Y48.5694 
G01 X14.4524 Y48.5946 
G01 X14.5366 Y48.6432 
G01 X14.6054 Y48.7120 
G01 X14.6540 Y48.7962 
G01 X14.6792 Y48.8901 
G01 X14.6792 Y48.9874 
G01 X14.6540 Y49.0814 
G01 X14.6054 Y49.1656 
G01 X14.2665 Y49.5046 
G01 X14.1977 Y49.5733 
G01 X14.1135 Y49.6220 
G01 X14.0195 Y49.6471 
G01 X13.2443 Y49.6471 
G01 X13.1504 Y49.6220 
G01 X13.0661 Y49.5733 
G01 X12.7272 Y49.2344 
G01 X12.6584 Y49.1656 
G01 X12.6098 Y49.0814 
G01 X12.5846 Y48.9874 
G01 X12.5846 Y47.5343 
G01 X12.6098 Y47.4404 
G01 X12.6584 Y47.3561 
G01 X12.9974 Y47.0172 
G01 X13.0661 Y46.9484 
G01 X13.1504 Y46.8998 
G01 X13.2443 Y46.8746 
G01 X14.0195 Y46.8746 
G01 X14.1135 Y46.8998 
G01 X14.1977 Y46.9484 
G01 X14.6054 Y47.3561 
G01 X14.6540 Y47.4404 
G01 X14.6792 Y47.5343 
G01 X14.6792 Y47.6316 
G01 X14.6540 Y47.7255 
G01 X14.6054 Y47.8098 
G01 X14.5366 Y47.8785 
G01 X14.4524 Y47.9272 
G01 X14.3585 Y47.9524 
G01 X14.2612 Y47.9524 
G01 X14.1672 Y47.9272 
G01 X14.0830 Y47.8785 
G01 X13.8179 Y47.6134 
G01 X13.4460 Y47.6134 
G01 X13.3234 Y47.7360 
G01 X13.3234 Y48.7858 
G01 X13.4460 Y48.9083 
G01 X13.8179 Y48.9083 
G01 X14.0830 Y48.6432 
G00 Z2.5400 
G00 X15.6804 Y49.6471 
G01 Z-0.1500 F254.00 
G01 X15.5831 Y49.6471 F508.00 
G01 X15.4892 Y49.6220 
G01 X15.4049 Y49.5733 
G01 X15.0660 Y49.2344 
G01 X14.9972 Y49.1656 
G01 X14.9486 Y49.0814 
G01 X14.9234 Y48.9874 
G01 X14.9234 Y47.5343 
G01 X14.9486 Y47.4404 
G01 X14.9972 Y47.3561 
G01 X15.3362 Y47.0172 
G01 X15.4049 Y46.9484 
G01 X15.4892 Y46.8998 
G01 X15.5831 Y46.8746 
G01 X16.3583 Y46.8746 
G01 X16.4522 Y46.8998 
G01 X16.5365 Y46.9484 
G01 X16.8754 Y47.2874 
G01 X16.9442 Y47.3561 
G01 X16.9928 Y47.4404 
G01 X17.0180 Y47.5343 
G01 X17.0180 Y48.9874 
G01 X16.9928 Y49.0814 
G01 X16.9442 Y49.1656 
G01 X16.5365 Y49.5733 
G01 X16.4522 Y49.6220 
G01 X16.3583 Y49.6471 
G01 X16.2610 Y49.6471 
G01 X15.6804 Y49.6471 
G00 Z2.5400 
G00 X21.9398 Y47.1954 
G01 Z-0.1500 F254.00 
G01 X21.9650 Y47.1014 F508.00 
G01 X22.0136 Y47.0172 
G01 X22.0824 Y46.9484 
G01 X22.1666 Y46.8998 
G01 X22.2606 Y46.8746 
G01 X22.3578 Y46.8746 
G01 X22.4518 Y46.8998 
G01 X22.5360 Y46.9484 
G01 X22.6048 Y47.0172 
G01 X22.6534 Y47.1014 
G01 X22.6786 Y47.1954 
G01 X22.6786 Y47.5525 
G01 X22.8341 Y47.5525 
G01 X23.4382 Y46.9484 
G01 X23.5224 Y46.8998 
G01 X23.6164 Y46.8746 
G01 X23.7136 Y46.8746 
G01 X23.8076 Y46.8998 
G01 X23.8918 Y46.9484 
G01 X23.9606 Y47.0172 
G01 X24.0092 Y47.1014 
G01 X24.0344 Y47.1954 
G01 X24.0344 Y47.2926 
G01 X24.0092 Y47.3866 
G01 X23.9606 Y47.4708 
G01 X23.6790 Y47.7524 
G01 X23.9606 Y48.0341 
G01 X24.0092 Y48.1183 
G01 X24.0344 Y48.2122 
G01 X24.0344 Y48.9874 
G01 X24.0092 Y49.0814 
G01 X23.9606 Y49.1656 
G01 X23.8918 Y49.2344 
G01 X23.5529 Y49.5733 
G01 X23.4686 Y49.6220 
G01 X23.3747 Y49.6471 
G01 X22.2606 Y49.6471 
G01 X22.1666 Y49.6220 
G01 X22.0824 Y49.5733 
G01 X22.0136 Y49.5046 
G01 X21.9650 Y49.4203 
G01 X21.9398 Y49.3264 
G01 X21.9398 Y47.8733 
G01 X21.9398 Y47.1954 
G00 Z2.5400 
G00 X25.0356 Y49.6471 
G01 Z-0.1500 F254.00 
G01 X24.9383 Y49.6471 F508.00 
G01 X24.8444 Y49.6220 
G01 X24.7601 Y49.5733 
G01 X24.4212 Y49.2344 
G01 X24.3524 Y49.1656 
G01 X24.3038 Y49.0814 
G01 X24.2786 Y48.9874 
G01 X24.2786 Y47.5343 
G01 X24.3038 Y47.4404 
G01 X24.3524 Y47.3561 
G01 X24.6913 Y47.0172 
G01 X24.7601 Y46.9484 
G01 X24.8444 Y46.8998 
G01 X24.9383 Y46.8746 
G01 X25.7135 Y46.8746 
G01 X25.8074 Y46.8998 
G01 X25.8917 Y46.9484 
G01 X26.2306 Y47.2874 
G01 X26.2994 Y47.3561 
G01 X26.3480 Y47.4404 
G01 X26.3732 Y47.5343 
G01 X26.3732 Y48.9874 
G01 X26.3480 Y49.0814 
G01 X26.2994 Y49.1656 
G01 X25.8917 Y49.5733 
G01 X25.8074 Y49.6220 
G01 X25.7135 Y49.6471 
G01 X25.6162 Y49.6471 
G01 X25.0356 Y49.6471 
G00 Z2.5400 
G00 X32.7934 Y48.6432 
G01 Z-0.1500 F254.00 
G01 X32.8776 Y48.5946 F508.00 
G01 X32.9716 Y48.5694 
G01 X33.0688 Y48.5694 
G01 X33.1628 Y48.5946 
G01 X33.2470 Y48.6432 
G01 X33.3158 Y48.7120 
G01 X33.3644 Y48.7962 
G01 X33.3896 Y48.8901 
G01 X33.3896 Y48.9874 
G01 X33.3644 Y49.0814 
G01 X33.3158 Y49.1656 
G01 X32.9768 Y49.5046 
G01 X32.9081 Y49.5733 
G01 X32.8238 Y49.6220 
G01 X32.7299 Y49.6471 
G01 X31.9547 Y49.6471 
G01 X31.8607 Y49.6220 
G01 X31.7765 Y49.5733 
G01 X31.4376 Y49.2344 
G01 X31.3688 Y49.1656 
G01 X31.3202 Y49.0814 
G01 X31.2950 Y48.9874 
G01 X31.2950 Y47.5343 
G01 X31.3202 Y47.4404 
G01 X31.3688 Y47.3561 
G01 X31.7077 Y47.0172 
G01 X31.7765 Y46.9484 
G01 X31.8607 Y46.8998 
G01 X31.9547 Y46.8746 
G01 X32.7299 Y46.8746 
G01 X32.8238 Y46.8998 
G01 X32.9081 Y46.9484 
G01 X33.3158 Y47.3561 
G01 X33.3644 Y47.4404 
G01 X33.3896 Y47.5343 
G01 X33.3896 Y47.6316 
G01 X33.3644 Y47.7255 
G01 X33.3158 Y47.8098 
G01 X33.2470 Y47.8785 
G01 X33.1628 Y47.9272 
G01 X33.0688 Y47.9524 
G01 X32.9716 Y47.9524 
G01 X32.8776 Y47.9272 
G01 X32.7934 Y47.8785 
G01 X32.5282 Y47.6134 
G01 X32.1563 Y47.6134 
G01 X32.0338 Y47.7360 
G01 X32.0338 Y48.7858 
G01 X32.1563 Y48.9083 
G01 X32.5282 Y48.9083 
G01 X32.7934 Y48.6432 
G00 Z2.5400 
G00 X33.6338 Y47.1954 
G01 Z-0.1500 F254.00 
G01 X33.6589 Y47.1014 F508.00 
G01 X33.7076 Y47.0172 
G01 X33.7764 Y46.9484 
G01 X33.8606 Y46.8998 
G01 X33.9545 Y46.8746 
G01 X34.0518 Y46.8746 
G01 X34.1458 Y46.8998 
G01 X34.2300 Y46.9484 
G01 X34.2988 Y47.0172 
G01 X34.3474 Y47.1014 
G01 X34.3726 Y47.1954 
G01 X34.3726 Y47.8915 
G01 X34.9896 Y47.8915 
G01 X34.9896 Y47.1954 
G01 X35.0148 Y47.1014 
G01 X35.0634 Y47.0172 
G01 X35.1322 Y46.9484 
G01 X35.2164 Y46.8998 
G01 X35.3104 Y46.8746 
G01 X35.4076 Y46.8746 
G01 X35.5016 Y46.8998 
G01 X35.5858 Y46.9484 
G01 X35.6546 Y47.0172 
G01 X35.7032 Y47.1014 
G01 X35.7284 Y47.1954 
G01 X35.7284 Y48.6485 
G01 X35.7032 Y48.7424 
G01 X35.6546 Y48.8266 
G01 X35.5858 Y48.8954 
G01 X34.9079 Y49.5733 
G01 X34.8237 Y49.6220 
G01 X34.7297 Y49.6471 
G01 X34.6324 Y49.6471 
G01 X34.5385 Y49.6220 
G01 X34.4543 Y49.5733 
G01 X34.3855 Y49.5046 
G01 X33.7076 Y48.8266 
G01 X33.6589 Y48.7424 
G01 X33.6338 Y48.6485 
G01 X33.6338 Y48.2122 
G01 X33.6338 Y47.1954 
G00 Z2.5400 
G00 X35.9726 Y47.1954 
G01 Z-0.1500 F254.00 
G01 X35.9977 Y47.1014 F508.00 
G01 X36.0464 Y47.0172 
G01 X36.1151 Y46.9484 
G01 X36.1994 Y46.8998 
G01 X36.2933 Y46.8746 
G01 X36.3906 Y46.8746 
G01 X36.4845 Y46.8998 
G01 X36.5688 Y46.9484 
G01 X36.6376 Y47.0172 
G01 X36.6862 Y47.1014 
G01 X36.7114 Y47.1954 
G01 X36.7114 Y47.5525 
G01 X36.8669 Y47.5525 
G01 X37.4710 Y46.9484 
G01 X37.5552 Y46.8998 
G01 X37.6492 Y46.8746 
G01 X37.7464 Y46.8746 
G01 X37.8404 Y46.8998 
G01 X37.9246 Y46.9484 
G01 X37.9934 Y47.0172 
G01 X38.0420 Y47.1014 
G01 X38.0672 Y47.1954 
G01 X38.0672 Y47.2926 
G01 X38.0420 Y47.3866 
G01 X37.9934 Y47.4708 
G01 X37.7118 Y47.7524 
G01 X37.9934 Y48.0341 
G01 X38.0420 Y48.1183 
G01 X38.0672 Y48.2122 
G01 X38.0672 Y48.9874 
G01 X38.0420 Y49.0814 
G01 X37.9934 Y49.1656 
G01 X37.9246 Y49.2344 
G01 X37.5857 Y49.5733 
G01 X37.5014 Y49.6220 
G01 X37.4075 Y49.6471 
G01 X36.2933 Y49.6471 
G01 X36.1994 Y49.6220 
G01 X36.1151 Y49.5733 
G01 X36.0464 Y49.5046 
G01 X35.9977 Y49.4203 
G01 X35.9726 Y49.3264 
G01 X35.9726 Y47.8733 
G01 X35.9726 Y47.1954 
G00 Z2.5400 
G00 X38.9893 Y47.1954 
G01 Z-0.1500 F254.00 
G01 X39.0145 Y47.1014 F508.00 
G01 X39.0631 Y47.0172 
G01 X39.1319 Y46.9484 
G01 X39.2161 Y46.8998 
G01 X39.3100 Y46.8746 
G01 X39.4073 Y46.8746 
G01 X39.5013 Y46.8998 
G01 X39.5855 Y46.9484 
G01 X39.6543 Y47.0172 
G01 X39.7029 Y47.1014 
G01 X39.7281 Y47.1954 
G01 X39.7281 Y48.9083 
G01 X40.0852 Y48.9083 
G01 X40.1792 Y48.9335 
G01 X40.2634 Y48.9821 
G01 X40.3322 Y49.0509 
G01 X40.3808 Y49.1352 
G01 X40.4060 Y49.2291 
G01 X40.4060 Y49.3264 
G01 X40.3808 Y49.4203 
G01 X40.3322 Y49.5046 
G01 X40.2634 Y49.5733 
G01 X40.1792 Y49.6220 
G01 X40.0852 Y49.6471 
G01 X38.6321 Y49.6471 
G01 X38.5382 Y49.6220 
G01 X38.4539 Y49.5733 
G01 X38.3852 Y49.5046 
G01 X38.3365 Y49.4203 
G01 X38.3114 Y49.3264 
G01 X38.3114 Y49.2291 
G01 X38.3365 Y49.1352 
G01 X38.3852 Y49.0509 
G01 X38.4539 Y48.9821 
G01 X38.5382 Y48.9335 
G01 X38.6321 Y48.9083 
G01 X38.9893 Y48.9083 
G01 X38.9893 Y47.1954 
G00 Z2.5400 
G00 X51.7534 Y46.1290 
G01 Z-0.1500 F254.00 
G01 X51.7534 Y50.3910 F508.00 
G01 X51.7358 Y50.4334 
G01 X51.7034 Y50.4658 
G01 X51.6610 Y50.4834 
G01 X47.3990 Y50.4834 
G01 X47.3566 Y50.4658 
G01 X47.3242 Y50.4334 
G01 X47.3066 Y50.3910 
G01 X47.3066 Y46.1290 
G01 X47.3242 Y46.0866 
G01 X47.3566 Y46.0542 
G01 X47.3990 Y46.0366 
G01 X51.6610 Y46.0366 
G01 X51.7034 Y46.0542 
G01 X51.7358 Y46.0866 
G01 X51.7534 Y46.1290 
G00 Z2.5400 
G00 X51.7534 Y1.6790 
G01 Z-0.1500 F254.00 
G01 X51.7534 Y5.9410 F508.00 
G01 X51.7358 Y5.9834 
G01 X51.7034 Y6.0158 
G01 X51.6610 Y6.0334 
G01 X47.3990 Y6.0334 
G01 X47.3566 Y6.0158 
G01 X47.3242 Y5.9834 
G01 X47.3066 Y5.9410 
G01 X47.3066 Y1.6790 
G01 X47.3242 Y1.6366 
G01 X47.3566 Y1.6042 
G01 X47.3990 Y1.5866 
G01 X51.6610 Y1.5866 
G01 X51.7034 Y1.6042 
G01 X51.7358 Y1.6366 
G01 X51.7534 Y1.6790 
G00 Z2.5400 
G00 X6.0334 Y1.6790 
G01 Z-0.1500 F254.00 
G01 X6.0334 Y5.9410 F508.00 
G01 X6.0158 Y5.9834 
G01 X5.9834 Y6.0158 
G01 X5.9410 Y6.0334 
G01 X1.6790 Y6.0334 
G01 X1.6366 Y6.0158 
G01 X1.6042 Y5.9834 
G01 X1.5866 Y5.9410 
G01 X1.5866 Y1.6790 
G01 X1.6042 Y1.6366 
G01 X1.6366 Y1.6042 
G01 X1.6790 Y1.5866 
G01 X5.9410 Y1.5866 
G01 X5.9834 Y1.6042 
G01 X6.0158 Y1.6366 
G01 X6.0334 Y1.6790 
G00 Z2.5400 
G00 X6.0334 Y46.1290 
G01 Z-0.1500 F254.00 
G01 X6.0334 Y50.3910 F508.00 
G01 X6.0158 Y50.4334 
G01 X5.9834 Y50.4658 
G01 X5.9410 Y50.4834 
G01 X1.6790 Y50.4834 
G01 X1.6366 Y50.4658 
G01 X1.6042 Y50.4334 
G01 X1.5866 Y50.3910 
G01 X1.5866 Y46.1290 
G01 X1.6042 Y46.0866 
G01 X1.6366 Y46.0542 
G01 X1.6790 Y46.0366 
G01 X5.9410 Y46.0366 
G01 X5.9834 Y46.0542 
G01 X6.0158 Y46.0866 
G01 X6.0334 Y46.1290 
G00 Z2.5400 
G00 X36.8384 Y48.7813 
G01 Z-0.1500 F254.00 
G01 X37.1532 Y48.7813 F508.00 
G01 X37.2014 Y48.7332 
G01 X37.2014 Y48.4665 
G01 X37.1532 Y48.4183 
G01 X36.8384 Y48.4183 
G01 X36.8384 Y48.7813 
G00 Z2.5400 
G00 X16.1041 Y47.7404 
G01 Z-0.1500 F254.00 
G01 X15.8374 Y47.7404 F508.00 
G01 X15.7892 Y47.7886 
G01 X15.7892 Y48.7332 
G01 X15.8374 Y48.7813 
G01 X16.1041 Y48.7813 
G01 X16.1522 Y48.7332 
G01 X16.1522 Y47.7886 
G01 X16.1041 Y47.7404 
G00 Z2.5400 
G00 X14.7724 Y47.7746 
G01 Z-0.1500 F254.00 
G01 X14.7070 Y47.8878 F508.00 
G01 X14.6146 Y47.9802 
G01 X14.5014 Y48.0455 
G01 X14.3752 Y48.0794 
G01 X14.2445 Y48.0794 
G01 X14.1182 Y48.0455 
G01 X14.0050 Y47.9802 
G01 X13.7653 Y47.7404 
G01 X13.4986 Y47.7404 
G01 X13.4504 Y47.7886 
G01 X13.4504 Y48.7332 
G01 X13.4986 Y48.7813 
G01 X13.7653 Y48.7813 
G01 X14.0050 Y48.5416 
G01 X14.1182 Y48.4762 
G01 X14.2445 Y48.4424 
G01 X14.3752 Y48.4424 
G01 X14.5014 Y48.4762 
G01 X14.6146 Y48.5416 
G01 X14.7070 Y48.6340 
G01 X14.7724 Y48.7472 
G01 X14.7964 Y48.8368 
G01 X14.7964 Y47.6850 
G01 X14.7724 Y47.7746 
G00 Z2.5400 
G00 X22.8056 Y48.7813 
G01 Z-0.1500 F254.00 
G01 X23.1204 Y48.7813 F508.00 
G01 X23.1686 Y48.7332 
G01 X23.1686 Y48.4665 
G01 X23.1204 Y48.4183 
G01 X22.8056 Y48.4183 
G01 X22.8056 Y48.7813 
G00 Z2.5400 
G00 X25.4592 Y47.7404 
G01 Z-0.1500 F254.00 
G01 X25.1926 Y47.7404 F508.00 
G01 X25.1444 Y47.7886 
G01 X25.1444 Y48.7332 
G01 X25.1926 Y48.7813 
G01 X25.4592 Y48.7813 
G01 X25.5074 Y48.7332 
G01 X25.5074 Y47.7886 
G01 X25.4592 Y47.7404 
G00 Z2.5400 
G00 X25.8276 Y23.4570 
G01 Z-0.1500 F254.00 
G01 X25.9755 Y23.5557 F508.00 
G01 X26.1012 Y23.6815 
G01 X26.2000 Y23.8294 
G01 X26.2681 Y23.9937 
G01 X26.3028 Y24.1681 
G01 X26.3028 Y24.3459 
G01 X26.2681 Y24.5203 
G01 X26.2000 Y24.6846 
G01 X26.1012 Y24.8325 
G01 X25.9755 Y24.9582 
G01 X25.8672 Y25.0306 
G01 X28.8406 Y25.0306 
G01 X28.8406 Y24.0814 
G01 X28.8658 Y23.9874 
G01 X28.9144 Y23.9032 
G01 X28.9832 Y23.8344 
G01 X29.6376 Y23.1800 
G01 X29.6376 Y22.7818 
G01 X29.6745 Y22.6927 
G01 X29.7427 Y22.6245 
G01 X29.8318 Y22.5876 
G01 X30.2300 Y22.5876 
G01 X30.2532 Y22.5644 
G01 X30.3374 Y22.5158 
G01 X30.4314 Y22.4906 
G01 X30.5286 Y22.4906 
G01 X30.6226 Y22.5158 
G01 X30.7068 Y22.5644 
G01 X30.7300 Y22.5876 
G01 X30.9552 Y22.5876 
G01 X30.3270 Y21.9594 
G01 X25.7694 Y21.9594 
G01 X25.7694 Y23.4328 
G01 X25.8276 Y23.4570 
G00 Z2.5400 
G00 X6.1604 Y46.1038 
G01 Z-0.1500 F254.00 
G01 X6.1604 Y50.4162 F508.00 
G01 X6.1235 Y50.5053 
G01 X6.0553 Y50.5735 
G01 X5.9662 Y50.6104 
G01 X1.6538 Y50.6104 
G01 X1.5647 Y50.5735 
G01 X1.4965 Y50.5053 
G01 X1.4596 Y50.4162 
G01 X1.4596 Y46.1038 
G01 X1.4965 Y46.0147 
G01 X1.5647 Y45.9465 
G01 X1.6538 Y45.9096 
G01 X5.9662 Y45.9096 
G01 X6.0553 Y45.9465 
G01 X6.1235 Y46.0147 
G01 X6.1604 Y46.1038 
G00 Z2.5400 
G00 X6.1604 Y1.6538 
G01 Z-0.1500 F254.00 
G01 X6.1604 Y5.9662 F508.00 
G01 X6.1235 Y6.0553 
G01 X6.0553 Y6.1235 
G01 X5.9662 Y6.1604 
G01 X1.6538 Y6.1604 
G01 X1.5647 Y6.1235 
G01 X1.4965 Y6.0553 
G01 X1.4596 Y5.9662 
G01 X1.4596 Y1.6538 
G01 X1.4965 Y1.5647 
G01 X1.5647 Y1.4965 
G01 X1.6538 Y1.4596 
G01 X5.9662 Y1.4596 
G01 X6.0553 Y1.4965 
G01 X6.1235 Y1.5647 
G01 X6.1604 Y1.6538 
G00 Z2.5400 
G00 X51.8804 Y1.6538 
G01 Z-0.1500 F254.00 
G01 X51.8804 Y5.9662 F508.00 
G01 X51.8435 Y6.0553 
G01 X51.7753 Y6.1235 
G01 X51.6862 Y6.1604 
G01 X47.3738 Y6.1604 
G01 X47.2847 Y6.1235 
G01 X47.2165 Y6.0553 
G01 X47.1796 Y5.9662 
G01 X47.1796 Y1.6538 
G01 X47.2165 Y1.5647 
G01 X47.2847 Y1.4965 
G01 X47.3738 Y1.4596 
G01 X51.6862 Y1.4596 
G01 X51.7753 Y1.4965 
G01 X51.8435 Y1.5647 
G01 X51.8804 Y1.6538 
G00 Z2.5400 
G00 X51.8804 Y46.1038 
G01 Z-0.1500 F254.00 
G01 X51.8804 Y50.4162 F508.00 
G01 X51.8435 Y50.5053 
G01 X51.7753 Y50.5735 
G01 X51.6862 Y50.6104 
G01 X47.3738 Y50.6104 
G01 X47.2847 Y50.5735 
G01 X47.2165 Y50.5053 
G01 X47.1796 Y50.4162 
G01 X47.1796 Y46.1038 
G01 X47.2165 Y46.0147 
G01 X47.2847 Y45.9465 
G01 X47.3738 Y45.9096 
G01 X51.6862 Y45.9096 
G01 X51.7753 Y45.9465 
G01 X51.8435 Y46.0147 
G01 X51.8804 Y46.1038 
G00 Z2.5400 
G00 X28.4110 Y7.2476 
G01 Z-0.1500 F254.00 
G01 X28.4110 Y7.4336 F508.00 
G01 X28.3819 Y7.6174 
G01 X28.3244 Y7.7944 
G01 X28.2399 Y7.9602 
G01 X28.1305 Y8.1108 
G01 X27.9990 Y8.2423 
G01 X27.8484 Y8.3517 
G01 X27.6826 Y8.4362 
G01 X27.5056 Y8.4937 
G01 X27.3218 Y8.5228 
G01 X27.1358 Y8.5228 
G01 X26.9520 Y8.4937 
G01 X26.7750 Y8.4362 
G01 X26.6092 Y8.3517 
G01 X26.4586 Y8.2423 
G01 X26.3271 Y8.1108 
G01 X26.2177 Y7.9602 
G01 X26.1332 Y7.7944 
G01 X26.0757 Y7.6174 
G01 X26.0466 Y7.4336 
G01 X26.0466 Y7.2476 
G01 X26.0757 Y7.0638 
G01 X26.1332 Y6.8868 
G01 X26.2177 Y6.7210 
G01 X26.3271 Y6.5704 
G01 X26.4586 Y6.4389 
G01 X26.6092 Y6.3295 
G01 X26.7750 Y6.2450 
G01 X26.9520 Y6.1875 
G01 X27.1358 Y6.1584 
G01 X27.3218 Y6.1584 
G01 X27.5056 Y6.1875 
G01 X27.6826 Y6.2450 
G01 X27.8484 Y6.3295 
G01 X27.9990 Y6.4389 
G01 X28.1305 Y6.5704 
G01 X28.2399 Y6.7210 
G01 X28.3244 Y6.8868 
G01 X28.3819 Y7.0638 
G01 X28.4110 Y7.2476 
G00 Z2.5400 
G00 X28.4110 Y2.7264 
G01 Z-0.1500 F254.00 
G01 X28.4110 Y2.9124 F508.00 
G01 X28.3819 Y3.0962 
G01 X28.3244 Y3.2732 
G01 X28.2399 Y3.4390 
G01 X28.1305 Y3.5896 
G01 X27.9990 Y3.7211 
G01 X27.8484 Y3.8305 
G01 X27.6826 Y3.9150 
G01 X27.5056 Y3.9725 
G01 X27.3218 Y4.0016 
G01 X27.1358 Y4.0016 
G01 X26.9520 Y3.9725 
G01 X26.7750 Y3.9150 
G01 X26.6092 Y3.8305 
G01 X26.4586 Y3.7211 
G01 X26.3271 Y3.5896 
G01 X26.2177 Y3.4390 
G01 X26.1332 Y3.2732 
G01 X26.0757 Y3.0962 
G01 X26.0466 Y2.9124 
G01 X26.0466 Y2.7264 
G01 X26.0757 Y2.5426 
G01 X26.1332 Y2.3656 
G01 X26.2177 Y2.1998 
G01 X26.3271 Y2.0492 
G01 X26.4586 Y1.9177 
G01 X26.6092 Y1.8083 
G01 X26.7750 Y1.7238 
G01 X26.9520 Y1.6663 
G01 X27.1358 Y1.6372 
G01 X27.3218 Y1.6372 
G01 X27.5056 Y1.6663 
G01 X27.6826 Y1.7238 
G01 X27.8484 Y1.8083 
G01 X27.9990 Y1.9177 
G01 X28.1305 Y2.0492 
G01 X28.2399 Y2.1998 
G01 X28.3244 Y2.3656 
G01 X28.3819 Y2.5426 
G01 X28.4110 Y2.7264 
G00 Z2.5400 
G00 X34.9134 Y2.7264 
G01 Z-0.1500 F254.00 
G01 X34.9134 Y2.9124 F508.00 
G01 X34.8843 Y3.0962 
G01 X34.8268 Y3.2732 
G01 X34.7423 Y3.4390 
G01 X36.8786 Y3.4406 
G01 X36.9726 Y3.4658 
G01 X37.0568 Y3.5144 
G01 X37.0800 Y3.5376 
G01 X37.4782 Y3.5376 
G01 X37.5673 Y3.5745 
G01 X37.6355 Y3.6427 
G01 X37.6724 Y3.7318 
G01 X37.6724 Y4.6282 
G01 X37.6355 Y4.7173 
G01 X37.5673 Y4.7855 
G01 X37.4782 Y4.8224 
G01 X36.1818 Y4.8224 
G01 X36.0927 Y4.7855 
G01 X36.0245 Y4.7173 
G01 X35.9876 Y4.6282 
G01 X35.9876 Y4.1794 
G01 X34.2414 Y4.1794 
G01 X34.1474 Y4.1542 
G01 X34.0632 Y4.1056 
G01 X33.9944 Y4.0368 
G01 X33.9615 Y3.9799 
G01 X33.8242 Y4.0016 
G01 X33.6382 Y4.0016 
G01 X33.4544 Y3.9725 
G01 X33.2774 Y3.9150 
G01 X33.1116 Y3.8305 
G01 X32.9610 Y3.7211 
G01 X32.8295 Y3.5896 
G01 X32.7201 Y3.4390 
G01 X32.6356 Y3.2732 
G01 X32.5781 Y3.0962 
G01 X32.5490 Y2.9124 
G01 X32.5490 Y2.7264 
G01 X32.5781 Y2.5426 
G01 X32.6356 Y2.3656 
G01 X32.7201 Y2.1998 
G01 X32.8295 Y2.0492 
G01 X32.9610 Y1.9177 
G01 X33.1116 Y1.8083 
G01 X33.2774 Y1.7238 
G01 X33.4544 Y1.6663 
G01 X33.6382 Y1.6372 
G01 X33.8242 Y1.6372 
G01 X34.0080 Y1.6663 
G01 X34.1850 Y1.7238 
G01 X34.3508 Y1.8083 
G01 X34.5014 Y1.9177 
G01 X34.6329 Y2.0492 
G01 X34.7423 Y2.1998 
G01 X34.8268 Y2.3656 
G01 X34.8843 Y2.5426 
G01 X34.9134 Y2.7264 
G00 Z2.5400 
G00 X36.1818 Y5.3376 
G01 Z-0.1500 F254.00 
G01 X37.4782 Y5.3376 F508.00 
G01 X37.5673 Y5.3745 
G01 X37.6355 Y5.4427 
G01 X37.6724 Y5.5318 
G01 X37.6724 Y6.4282 
G01 X37.6355 Y6.5173 
G01 X37.5673 Y6.5855 
G01 X37.4782 Y6.6224 
G01 X37.0800 Y6.6224 
G01 X37.0568 Y6.6456 
G01 X36.9726 Y6.6942 
G01 X36.8786 Y6.7194 
G01 X34.7411 Y6.7194 
G01 X34.8268 Y6.8868 
G01 X34.8843 Y7.0638 
G01 X34.9134 Y7.2476 
G01 X34.9134 Y7.4336 
G01 X34.8843 Y7.6174 
G01 X34.8268 Y7.7944 
G01 X34.7423 Y7.9602 
G01 X34.6329 Y8.1108 
G01 X34.5014 Y8.2423 
G01 X34.3508 Y8.3517 
G01 X34.1850 Y8.4362 
G01 X34.0080 Y8.4937 
G01 X33.8242 Y8.5228 
G01 X33.6382 Y8.5228 
G01 X33.4544 Y8.4937 
G01 X33.2774 Y8.4362 
G01 X33.1116 Y8.3517 
G01 X32.9610 Y8.2423 
G01 X32.8295 Y8.1108 
G01 X32.7201 Y7.9602 
G01 X32.6356 Y7.7944 
G01 X32.5781 Y7.6174 
G01 X32.5490 Y7.4336 
G01 X32.5490 Y7.2476 
G01 X32.5781 Y7.0638 
G01 X32.6356 Y6.8868 
G01 X32.7201 Y6.7210 
G01 X32.8295 Y6.5704 
G01 X32.9610 Y6.4389 
G01 X33.1116 Y6.3295 
G01 X33.2774 Y6.2450 
G01 X33.4544 Y6.1875 
G01 X33.6382 Y6.1584 
G01 X33.8242 Y6.1584 
G01 X33.9615 Y6.1801 
G01 X33.9944 Y6.1232 
G01 X34.0632 Y6.0544 
G01 X34.1474 Y6.0058 
G01 X34.2414 Y5.9806 
G01 X35.9876 Y5.9806 
G01 X35.9876 Y5.5318 
G01 X36.0245 Y5.4427 
G01 X36.0927 Y5.3745 
G01 X36.1818 Y5.3376 
G00 Z2.5400 
G00 X37.5032 Y23.2224 
G01 Z-0.1500 F254.00 
G01 X36.1568 Y23.2224 F508.00 
G01 X36.0677 Y23.1855 
G01 X35.9995 Y23.1173 
G01 X35.9626 Y23.0282 
G01 X35.9626 Y21.5318 
G01 X35.9995 Y21.4427 
G01 X36.0677 Y21.3745 
G01 X36.1568 Y21.3376 
G01 X36.4606 Y21.3376 
G01 X36.4606 Y20.6894 
G01 X30.4314 Y20.6894 
G01 X30.3374 Y20.6642 
G01 X30.2532 Y20.6156 
G01 X30.2300 Y20.5924 
G01 X29.8318 Y20.5924 
G01 X29.7427 Y20.5555 
G01 X29.6745 Y20.4873 
G01 X29.6376 Y20.3982 
G01 X29.6376 Y19.5018 
G01 X29.6745 Y19.4127 
G01 X29.7427 Y19.3445 
G01 X29.8318 Y19.3076 
G01 X31.1282 Y19.3076 
G01 X31.2173 Y19.3445 
G01 X31.2855 Y19.4127 
G01 X31.3224 Y19.5018 
G01 X31.3224 Y19.9506 
G01 X36.8786 Y19.9506 
G01 X36.9726 Y19.9758 
G01 X37.0568 Y20.0244 
G01 X37.1256 Y20.0932 
G01 X37.1742 Y20.1774 
G01 X37.1994 Y20.2714 
G01 X37.1994 Y21.3376 
G01 X37.5032 Y21.3376 
G01 X37.5923 Y21.3745 
G01 X37.6605 Y21.4427 
G01 X37.6974 Y21.5318 
G01 X37.6974 Y23.0282 
G01 X37.6605 Y23.1173 
G01 X37.5923 Y23.1855 
G01 X37.5032 Y23.2224 
G00 Z2.5400 
G00 X31.1282 Y30.7524 
G01 Z-0.1500 F254.00 
G01 X30.7300 Y30.7524 F508.00 
G01 X30.7068 Y30.7756 
G01 X30.6226 Y30.8242 
G01 X30.5286 Y30.8494 
G01 X25.3514 Y30.8494 
G01 X25.2574 Y30.8242 
G01 X25.1732 Y30.7756 
G01 X25.1044 Y30.7068 
G01 X25.0558 Y30.6226 
G01 X25.0306 Y30.5286 
G01 X25.0306 Y29.9072 
G01 X24.9724 Y29.8830 
G01 X24.8245 Y29.7842 
G01 X24.6988 Y29.6585 
G01 X24.5999 Y29.5106 
G01 X24.5319 Y29.3463 
G01 X24.4972 Y29.1719 
G01 X24.4972 Y28.9941 
G01 X24.5319 Y28.8197 
G01 X24.5999 Y28.6554 
G01 X24.6988 Y28.5075 
G01 X24.8245 Y28.3818 
G01 X24.9724 Y28.2829 
G01 X25.1367 Y28.2149 
G01 X25.3111 Y28.1802 
G01 X25.4889 Y28.1802 
G01 X25.6633 Y28.2149 
G01 X25.8276 Y28.2829 
G01 X25.9755 Y28.3818 
G01 X26.1012 Y28.5075 
G01 X26.2000 Y28.6554 
G01 X26.2681 Y28.8197 
G01 X26.3028 Y28.9941 
G01 X26.3028 Y29.1719 
G01 X26.2681 Y29.3463 
G01 X26.2000 Y29.5106 
G01 X26.1012 Y29.6585 
G01 X25.9755 Y29.7842 
G01 X25.8276 Y29.8830 
G01 X25.7694 Y29.9072 
G01 X25.7694 Y30.1106 
G01 X29.6376 Y30.1106 
G01 X29.6376 Y29.6618 
G01 X29.6745 Y29.5727 
G01 X29.7427 Y29.5045 
G01 X29.8318 Y29.4676 
G01 X31.1282 Y29.4676 
G01 X31.2173 Y29.5045 
G01 X31.2855 Y29.5727 
G01 X31.3224 Y29.6618 
G01 X31.3224 Y30.5582 
G01 X31.2855 Y30.6473 
G01 X31.2173 Y30.7155 
G01 X31.1282 Y30.7524 
G00 Z2.5400 
G00 X10.6807 Y5.4472 
G01 Z-0.1500 F254.00 
G01 X12.1793 Y5.4472 F508.00 
G01 X12.3537 Y5.4819 
G01 X12.5180 Y5.5499 
G01 X12.6659 Y5.6488 
G01 X12.7916 Y5.7745 
G01 X12.8904 Y5.9224 
G01 X12.9585 Y6.0867 
G01 X12.9932 Y6.2611 
G01 X12.9932 Y6.4389 
G01 X12.9585 Y6.6133 
G01 X12.8904 Y6.7776 
G01 X12.7916 Y6.9255 
G01 X12.6659 Y7.0512 
G01 X12.5180 Y7.1500 
G01 X12.3537 Y7.2181 
G01 X12.1793 Y7.2528 
G01 X10.6807 Y7.2528 
G01 X10.5063 Y7.2181 
G01 X10.3420 Y7.1500 
G01 X10.1941 Y7.0512 
G01 X10.0684 Y6.9255 
G01 X9.9695 Y6.7776 
G01 X9.9015 Y6.6133 
G01 X9.8668 Y6.4389 
G01 X9.8668 Y6.2611 
G01 X9.9015 Y6.0867 
G01 X9.9695 Y5.9224 
G01 X10.0684 Y5.7745 
G01 X10.1941 Y5.6488 
G01 X10.3420 Y5.5499 
G01 X10.5063 Y5.4819 
G01 X10.6807 Y5.4472 
G00 Z2.5400 
G00 X10.6807 Y7.9872 
G01 Z-0.1500 F254.00 
G01 X12.1793 Y7.9872 F508.00 
G01 X12.3537 Y8.0219 
G01 X12.5180 Y8.0899 
G01 X12.6659 Y8.1888 
G01 X12.7916 Y8.3145 
G01 X12.8904 Y8.4624 
G01 X12.9585 Y8.6267 
G01 X12.9932 Y8.8011 
G01 X12.9932 Y8.9789 
G01 X12.9585 Y9.1533 
G01 X12.8904 Y9.3176 
G01 X12.7916 Y9.4655 
G01 X12.6659 Y9.5912 
G01 X12.5180 Y9.6900 
G01 X12.3537 Y9.7581 
G01 X12.1793 Y9.7928 
G01 X10.6807 Y9.7928 
G01 X10.5063 Y9.7581 
G01 X10.3420 Y9.6900 
G01 X10.1941 Y9.5912 
G01 X10.0684 Y9.4655 
G01 X9.9695 Y9.3176 
G01 X9.9015 Y9.1533 
G01 X9.8668 Y8.9789 
G01 X9.8668 Y8.8011 
G01 X9.9015 Y8.6267 
G01 X9.9695 Y8.4624 
G01 X10.0684 Y8.3145 
G01 X10.1941 Y8.1888 
G01 X10.3420 Y8.0899 
G01 X10.5063 Y8.0219 
G01 X10.6807 Y7.9872 
G00 Z2.5400 
G00 X10.6807 Y10.5272 
G01 Z-0.1500 F254.00 
G01 X12.1793 Y10.5272 F508.00 
G01 X12.3537 Y10.5619 
G01 X12.5180 Y10.6300 
G01 X12.6659 Y10.7287 
G01 X12.7916 Y10.8545 
G01 X12.8904 Y11.0024 
G01 X12.9585 Y11.1667 
G01 X12.9932 Y11.3411 
G01 X12.9932 Y11.5189 
G01 X12.9585 Y11.6933 
G01 X12.8904 Y11.8576 
G01 X12.7916 Y12.0055 
G01 X12.6659 Y12.1312 
G01 X12.5180 Y12.2300 
G01 X12.3537 Y12.2981 
G01 X12.1793 Y12.3328 
G01 X10.6807 Y12.3328 
G01 X10.5063 Y12.2981 
G01 X10.3420 Y12.2300 
G01 X10.1941 Y12.1312 
G01 X10.0684 Y12.0055 
G01 X9.9695 Y11.8576 
G01 X9.9015 Y11.6933 
G01 X9.8668 Y11.5189 
G01 X9.8668 Y11.3411 
G01 X9.9015 Y11.1667 
G01 X9.9695 Y11.0024 
G01 X10.0684 Y10.8545 
G01 X10.1941 Y10.7287 
G01 X10.3420 Y10.6300 
G01 X10.5063 Y10.5619 
G01 X10.6807 Y10.5272 
G00 Z2.5400 
G00 X10.6807 Y13.0672 
G01 Z-0.1500 F254.00 
G01 X12.1793 Y13.0672 F508.00 
G01 X12.3537 Y13.1019 
G01 X12.5180 Y13.1700 
G01 X12.6659 Y13.2688 
G01 X12.7916 Y13.3945 
G01 X12.8904 Y13.5424 
G01 X12.9585 Y13.7067 
G01 X12.9932 Y13.8811 
G01 X12.9932 Y14.0589 
G01 X12.9585 Y14.2333 
G01 X12.8904 Y14.3976 
G01 X12.7916 Y14.5455 
G01 X12.6659 Y14.6712 
G01 X12.5180 Y14.7700 
G01 X12.3537 Y14.8381 
G01 X12.1793 Y14.8728 
G01 X10.6807 Y14.8728 
G01 X10.5063 Y14.8381 
G01 X10.3420 Y14.7700 
G01 X10.1941 Y14.6712 
G01 X10.0684 Y14.5455 
G01 X9.9695 Y14.3976 
G01 X9.9015 Y14.2333 
G01 X9.8668 Y14.0589 
G01 X9.8668 Y13.8811 
G01 X9.9015 Y13.7067 
G01 X9.9695 Y13.5424 
G01 X10.0684 Y13.3945 
G01 X10.1941 Y13.2688 
G01 X10.3420 Y13.1700 
G01 X10.5063 Y13.1019 
G01 X10.6807 Y13.0672 
G00 Z2.5400 
G00 X10.6807 Y15.6072 
G01 Z-0.1500 F254.00 
G01 X12.1793 Y15.6072 F508.00 
G01 X12.3537 Y15.6419 
G01 X12.5180 Y15.7100 
G01 X12.6659 Y15.8088 
G01 X12.7916 Y15.9345 
G01 X12.8904 Y16.0824 
G01 X12.9585 Y16.2467 
G01 X12.9932 Y16.4211 
G01 X12.9932 Y16.5989 
G01 X12.9585 Y16.7733 
G01 X12.8904 Y16.9376 
G01 X12.7916 Y17.0855 
G01 X12.6659 Y17.2112 
G01 X12.5180 Y17.3100 
G01 X12.3537 Y17.3781 
G01 X12.1793 Y17.4128 
G01 X10.6807 Y17.4128 
G01 X10.5063 Y17.3781 
G01 X10.3420 Y17.3100 
G01 X10.1941 Y17.2112 
G01 X10.0684 Y17.0855 
G01 X9.9695 Y16.9376 
G01 X9.9015 Y16.7733 
G01 X9.8668 Y16.5989 
G01 X9.8668 Y16.4211 
G01 X9.9015 Y16.2467 
G01 X9.9695 Y16.0824 
G01 X10.0684 Y15.9345 
G01 X10.1941 Y15.8088 
G01 X10.3420 Y15.7100 
G01 X10.5063 Y15.6419 
G01 X10.6807 Y15.6072 
G00 Z2.5400 
G00 X10.6807 Y18.1472 
G01 Z-0.1500 F254.00 
G01 X12.1793 Y18.1472 F508.00 
G01 X12.3537 Y18.1819 
G01 X12.5180 Y18.2500 
G01 X12.6659 Y18.3488 
G01 X12.7916 Y18.4745 
G01 X12.8904 Y18.6224 
G01 X12.9585 Y18.7867 
G01 X12.9932 Y18.9611 
G01 X12.9932 Y19.1389 
G01 X12.9585 Y19.3133 
G01 X12.8904 Y19.4776 
G01 X12.7916 Y19.6255 
G01 X12.6659 Y19.7512 
G01 X12.5180 Y19.8500 
G01 X12.3537 Y19.9181 
G01 X12.1793 Y19.9528 
G01 X10.6807 Y19.9528 
G01 X10.5063 Y19.9181 
G01 X10.3420 Y19.8500 
G01 X10.1941 Y19.7512 
G01 X10.0684 Y19.6255 
G01 X9.9695 Y19.4776 
G01 X9.9015 Y19.3133 
G01 X9.8668 Y19.1389 
G01 X9.8668 Y18.9611 
G01 X9.9015 Y18.7867 
G01 X9.9695 Y18.6224 
G01 X10.0684 Y18.4745 
G01 X10.1941 Y18.3488 
G01 X10.3420 Y18.2500 
G01 X10.5063 Y18.1819 
G01 X10.6807 Y18.1472 
G00 Z2.5400 
G00 X10.6807 Y23.2272 
G01 Z-0.1500 F254.00 
G01 X12.1793 Y23.2272 F508.00 
G01 X12.3537 Y23.2619 
G01 X12.5180 Y23.3300 
G01 X12.6659 Y23.4288 
G01 X12.7916 Y23.5545 
G01 X12.8904 Y23.7024 
G01 X12.9585 Y23.8667 
G01 X12.9932 Y24.0411 
G01 X12.9932 Y24.2189 
G01 X12.9585 Y24.3933 
G01 X12.8904 Y24.5576 
G01 X12.7916 Y24.7055 
G01 X12.6659 Y24.8312 
G01 X12.5180 Y24.9300 
G01 X12.3537 Y24.9981 
G01 X12.1793 Y25.0328 
G01 X10.6807 Y25.0328 
G01 X10.5063 Y24.9981 
G01 X10.3420 Y24.9300 
G01 X10.1941 Y24.8312 
G01 X10.0684 Y24.7055 
G01 X9.9695 Y24.5576 
G01 X9.9015 Y24.3933 
G01 X9.8668 Y24.2189 
G01 X9.8668 Y24.0411 
G01 X9.9015 Y23.8667 
G01 X9.9695 Y23.7024 
G01 X10.0684 Y23.5545 
G01 X10.1941 Y23.4288 
G01 X10.3420 Y23.3300 
G01 X10.5063 Y23.2619 
G01 X10.6807 Y23.2272 
G00 Z2.5400 
G00 X10.6807 Y25.7672 
G01 Z-0.1500 F254.00 
G01 X12.1793 Y25.7672 F508.00 
G01 X12.3537 Y25.8019 
G01 X12.5180 Y25.8700 
G01 X12.6659 Y25.9688 
G01 X12.7916 Y26.0945 
G01 X12.8904 Y26.2424 
G01 X12.9585 Y26.4067 
G01 X12.9932 Y26.5811 
G01 X12.9932 Y26.7589 
G01 X12.9585 Y26.9333 
G01 X12.8904 Y27.0976 
G01 X12.7916 Y27.2455 
G01 X12.6659 Y27.3712 
G01 X12.5180 Y27.4700 
G01 X12.3537 Y27.5381 
G01 X12.1793 Y27.5728 
G01 X10.6807 Y27.5728 
G01 X10.5063 Y27.5381 
G01 X10.3420 Y27.4700 
G01 X10.1941 Y27.3712 
G01 X10.0684 Y27.2455 
G01 X9.9695 Y27.0976 
G01 X9.9015 Y26.9333 
G01 X9.8668 Y26.7589 
G01 X9.8668 Y26.5811 
G01 X9.9015 Y26.4067 
G01 X9.9695 Y26.2424 
G01 X10.0684 Y26.0945 
G01 X10.1941 Y25.9688 
G01 X10.3420 Y25.8700 
G01 X10.5063 Y25.8019 
G01 X10.6807 Y25.7672 
G00 Z2.5400 
G00 X10.6807 Y28.3072 
G01 Z-0.1500 F254.00 
G01 X12.1793 Y28.3072 F508.00 
G01 X12.3537 Y28.3419 
G01 X12.5180 Y28.4100 
G01 X12.6659 Y28.5088 
G01 X12.7916 Y28.6345 
G01 X12.8904 Y28.7824 
G01 X12.9585 Y28.9467 
G01 X12.9932 Y29.1211 
G01 X12.9932 Y29.2989 
G01 X12.9585 Y29.4733 
G01 X12.8904 Y29.6376 
G01 X12.7916 Y29.7855 
G01 X12.6659 Y29.9112 
G01 X12.5180 Y30.0100 
G01 X12.3537 Y30.0781 
G01 X12.1793 Y30.1128 
G01 X10.6807 Y30.1128 
G01 X10.5063 Y30.0781 
G01 X10.3420 Y30.0100 
G01 X10.1941 Y29.9112 
G01 X10.0684 Y29.7855 
G01 X9.9695 Y29.6376 
G01 X9.9015 Y29.4733 
G01 X9.8668 Y29.2989 
G01 X9.8668 Y29.1211 
G01 X9.9015 Y28.9467 
G01 X9.9695 Y28.7824 
G01 X10.0684 Y28.6345 
G01 X10.1941 Y28.5088 
G01 X10.3420 Y28.4100 
G01 X10.5063 Y28.3419 
G01 X10.6807 Y28.3072 
G00 Z2.5400 
G00 X10.6807 Y30.8472 
G01 Z-0.1500 F254.00 
G01 X12.1793 Y30.8472 F508.00 
G01 X12.3537 Y30.8819 
G01 X12.5180 Y30.9500 
G01 X12.6659 Y31.0488 
G01 X12.7916 Y31.1745 
G01 X12.8904 Y31.3224 
G01 X12.9585 Y31.4867 
G01 X12.9932 Y31.6611 
G01 X12.9932 Y31.8389 
G01 X12.9585 Y32.0133 
G01 X12.8904 Y32.1776 
G01 X12.7916 Y32.3255 
G01 X12.6659 Y32.4512 
G01 X12.5180 Y32.5500 
G01 X12.3537 Y32.6181 
G01 X12.1793 Y32.6528 
G01 X10.6807 Y32.6528 
G01 X10.5063 Y32.6181 
G01 X10.3420 Y32.5500 
G01 X10.1941 Y32.4512 
G01 X10.0684 Y32.3255 
G01 X9.9695 Y32.1776 
G01 X9.9015 Y32.0133 
G01 X9.8668 Y31.8389 
G01 X9.8668 Y31.6611 
G01 X9.9015 Y31.4867 
G01 X9.9695 Y31.3224 
G01 X10.0684 Y31.1745 
G01 X10.1941 Y31.0488 
G01 X10.3420 Y30.9500 
G01 X10.5063 Y30.8819 
G01 X10.6807 Y30.8472 
G00 Z2.5400 
G00 X10.6807 Y33.3872 
G01 Z-0.1500 F254.00 
G01 X12.1793 Y33.3872 F508.00 
G01 X12.3537 Y33.4219 
G01 X12.5180 Y33.4900 
G01 X12.6659 Y33.5888 
G01 X12.7916 Y33.7145 
G01 X12.8904 Y33.8624 
G01 X12.9585 Y34.0267 
G01 X12.9932 Y34.2011 
G01 X12.9932 Y34.3789 
G01 X12.9585 Y34.5533 
G01 X12.8904 Y34.7176 
G01 X12.7916 Y34.8655 
G01 X12.6659 Y34.9912 
G01 X12.5180 Y35.0900 
G01 X12.3537 Y35.1581 
G01 X12.1793 Y35.1928 
G01 X10.6807 Y35.1928 
G01 X10.5063 Y35.1581 
G01 X10.3420 Y35.0900 
G01 X10.1941 Y34.9912 
G01 X10.0684 Y34.8655 
G01 X9.9695 Y34.7176 
G01 X9.9015 Y34.5533 
G01 X9.8668 Y34.3789 
G01 X9.8668 Y34.2011 
G01 X9.9015 Y34.0267 
G01 X9.9695 Y33.8624 
G01 X10.0684 Y33.7145 
G01 X10.1941 Y33.5888 
G01 X10.3420 Y33.4900 
G01 X10.5063 Y33.4219 
G01 X10.6807 Y33.3872 
G00 Z2.5400 
G00 X10.6807 Y35.9272 
G01 Z-0.1500 F254.00 
G01 X12.1793 Y35.9272 F508.00 
G01 X12.3537 Y35.9619 
G01 X12.5180 Y36.0299 
G01 X12.6659 Y36.1288 
G01 X12.7916 Y36.2545 
G01 X12.8904 Y36.4024 
G01 X12.9585 Y36.5667 
G01 X12.9932 Y36.7411 
G01 X12.9932 Y36.9189 
G01 X12.9585 Y37.0933 
G01 X12.8904 Y37.2576 
G01 X12.7916 Y37.4055 
G01 X12.6659 Y37.5312 
G01 X12.5180 Y37.6300 
G01 X12.3537 Y37.6981 
G01 X12.1793 Y37.7328 
G01 X10.6807 Y37.7328 
G01 X10.5063 Y37.6981 
G01 X10.3420 Y37.6300 
G01 X10.1941 Y37.5312 
G01 X10.0684 Y37.4055 
G01 X9.9695 Y37.2576 
G01 X9.9015 Y37.0933 
G01 X9.8668 Y36.9189 
G01 X9.8668 Y36.7411 
G01 X9.9015 Y36.5667 
G01 X9.9695 Y36.4024 
G01 X10.0684 Y36.2545 
G01 X10.1941 Y36.1288 
G01 X10.3420 Y36.0299 
G01 X10.5063 Y35.9619 
G01 X10.6807 Y35.9272 
G00 Z2.5400 
G00 X10.6807 Y38.4672 
G01 Z-0.1500 F254.00 
G01 X12.1793 Y38.4672 F508.00 
G01 X12.3537 Y38.5019 
G01 X12.5180 Y38.5699 
G01 X12.6659 Y38.6688 
G01 X12.7916 Y38.7945 
G01 X12.8904 Y38.9424 
G01 X12.9585 Y39.1067 
G01 X12.9932 Y39.2811 
G01 X12.9932 Y39.4589 
G01 X12.9585 Y39.6333 
G01 X12.8904 Y39.7976 
G01 X12.7916 Y39.9455 
G01 X12.6659 Y40.0712 
G01 X12.5180 Y40.1700 
G01 X12.3537 Y40.2381 
G01 X12.1793 Y40.2728 
G01 X10.6807 Y40.2728 
G01 X10.5063 Y40.2381 
G01 X10.3420 Y40.1700 
G01 X10.1941 Y40.0712 
G01 X10.0684 Y39.9455 
G01 X9.9695 Y39.7976 
G01 X9.9015 Y39.6333 
G01 X9.8668 Y39.4589 
G01 X9.8668 Y39.2811 
G01 X9.9015 Y39.1067 
G01 X9.9695 Y38.9424 
G01 X10.0684 Y38.7945 
G01 X10.1941 Y38.6688 
G01 X10.3420 Y38.5699 
G01 X10.5063 Y38.5019 
G01 X10.6807 Y38.4672 
G00 Z2.5400 
G00 X18.3007 Y38.4672 
G01 Z-0.1500 F254.00 
G01 X19.7993 Y38.4672 F508.00 
G01 X19.9737 Y38.5019 
G01 X20.1380 Y38.5699 
G01 X20.2859 Y38.6688 
G01 X20.4116 Y38.7945 
G01 X20.5104 Y38.9424 
G01 X20.5785 Y39.1067 
G01 X20.6132 Y39.2811 
G01 X20.6132 Y39.4589 
G01 X20.5785 Y39.6333 
G01 X20.5104 Y39.7976 
G01 X20.4116 Y39.9455 
G01 X20.2859 Y40.0712 
G01 X20.1380 Y40.1700 
G01 X19.9737 Y40.2381 
G01 X19.7993 Y40.2728 
G01 X18.3007 Y40.2728 
G01 X18.1263 Y40.2381 
G01 X17.9620 Y40.1700 
G01 X17.8141 Y40.0712 
G01 X17.6883 Y39.9455 
G01 X17.5895 Y39.7976 
G01 X17.5215 Y39.6333 
G01 X17.4868 Y39.4589 
G01 X17.4868 Y39.2811 
G01 X17.5215 Y39.1067 
G01 X17.5895 Y38.9424 
G01 X17.6883 Y38.7945 
G01 X17.8141 Y38.6688 
G01 X17.9620 Y38.5699 
G01 X18.1263 Y38.5019 
G01 X18.3007 Y38.4672 
G00 Z2.5400 
G00 X18.3007 Y35.9272 
G01 Z-0.1500 F254.00 
G01 X19.7993 Y35.9272 F508.00 
G01 X19.9737 Y35.9619 
G01 X20.1380 Y36.0299 
G01 X20.2859 Y36.1288 
G01 X20.4116 Y36.2545 
G01 X20.5104 Y36.4024 
G01 X20.5785 Y36.5667 
G01 X20.6132 Y36.7411 
G01 X20.6132 Y36.9189 
G01 X20.5785 Y37.0933 
G01 X20.5104 Y37.2576 
G01 X20.4116 Y37.4055 
G01 X20.2859 Y37.5312 
G01 X20.1380 Y37.6300 
G01 X19.9737 Y37.6981 
G01 X19.7993 Y37.7328 
G01 X18.3007 Y37.7328 
G01 X18.1263 Y37.6981 
G01 X17.9620 Y37.6300 
G01 X17.8141 Y37.5312 
G01 X17.6883 Y37.4055 
G01 X17.5895 Y37.2576 
G01 X17.5215 Y37.0933 
G01 X17.4868 Y36.9189 
G01 X17.4868 Y36.7411 
G01 X17.5215 Y36.5667 
G01 X17.5895 Y36.4024 
G01 X17.6883 Y36.2545 
G01 X17.8141 Y36.1288 
G01 X17.9620 Y36.0299 
G01 X18.1263 Y35.9619 
G01 X18.3007 Y35.9272 
G00 Z2.5400 
G00 X18.3007 Y33.3872 
G01 Z-0.1500 F254.00 
G01 X19.7993 Y33.3872 F508.00 
G01 X19.9737 Y33.4219 
G01 X20.1380 Y33.4900 
G01 X20.2859 Y33.5888 
G01 X20.4116 Y33.7145 
G01 X20.5104 Y33.8624 
G01 X20.5785 Y34.0267 
G01 X20.6132 Y34.2011 
G01 X20.6132 Y34.3789 
G01 X20.5785 Y34.5533 
G01 X20.5104 Y34.7176 
G01 X20.4116 Y34.8655 
G01 X20.2859 Y34.9912 
G01 X20.1380 Y35.0900 
G01 X19.9737 Y35.1581 
G01 X19.7993 Y35.1928 
G01 X18.3007 Y35.1928 
G01 X18.1263 Y35.1581 
G01 X17.9620 Y35.0900 
G01 X17.8141 Y34.9912 
G01 X17.6883 Y34.8655 
G01 X17.5895 Y34.7176 
G01 X17.5215 Y34.5533 
G01 X17.4868 Y34.3789 
G01 X17.4868 Y34.2011 
G01 X17.5215 Y34.0267 
G01 X17.5895 Y33.8624 
G01 X17.6883 Y33.7145 
G01 X17.8141 Y33.5888 
G01 X17.9620 Y33.4900 
G01 X18.1263 Y33.4219 
G01 X18.3007 Y33.3872 
G00 Z2.5400 
G00 X18.3007 Y30.8472 
G01 Z-0.1500 F254.00 
G01 X19.7993 Y30.8472 F508.00 
G01 X19.9737 Y30.8819 
G01 X20.1380 Y30.9500 
G01 X20.2859 Y31.0488 
G01 X20.4116 Y31.1745 
G01 X20.5104 Y31.3224 
G01 X20.5785 Y31.4867 
G01 X20.6132 Y31.6611 
G01 X20.6132 Y31.8389 
G01 X20.5785 Y32.0133 
G01 X20.5104 Y32.1776 
G01 X20.4116 Y32.3255 
G01 X20.2859 Y32.4512 
G01 X20.1380 Y32.5500 
G01 X19.9737 Y32.6181 
G01 X19.7993 Y32.6528 
G01 X18.3007 Y32.6528 
G01 X18.1263 Y32.6181 
G01 X17.9620 Y32.5500 
G01 X17.8141 Y32.4512 
G01 X17.6883 Y32.3255 
G01 X17.5895 Y32.1776 
G01 X17.5215 Y32.0133 
G01 X17.4868 Y31.8389 
G01 X17.4868 Y31.6611 
G01 X17.5215 Y31.4867 
G01 X17.5895 Y31.3224 
G01 X17.6883 Y31.1745 
G01 X17.8141 Y31.0488 
G01 X17.9620 Y30.9500 
G01 X18.1263 Y30.8819 
G01 X18.3007 Y30.8472 
G00 Z2.5400 
G00 X18.3007 Y28.3072 
G01 Z-0.1500 F254.00 
G01 X19.7993 Y28.3072 F508.00 
G01 X19.9737 Y28.3419 
G01 X20.1380 Y28.4100 
G01 X20.2859 Y28.5088 
G01 X20.4116 Y28.6345 
G01 X20.5104 Y28.7824 
G01 X20.5785 Y28.9467 
G01 X20.6132 Y29.1211 
G01 X20.6132 Y29.2989 
G01 X20.5785 Y29.4733 
G01 X20.5104 Y29.6376 
G01 X20.4116 Y29.7855 
G01 X20.2859 Y29.9112 
G01 X20.1380 Y30.0100 
G01 X19.9737 Y30.0781 
G01 X19.7993 Y30.1128 
G01 X18.3007 Y30.1128 
G01 X18.1263 Y30.0781 
G01 X17.9620 Y30.0100 
G01 X17.8141 Y29.9112 
G01 X17.6883 Y29.7855 
G01 X17.5895 Y29.6376 
G01 X17.5215 Y29.4733 
G01 X17.4868 Y29.2989 
G01 X17.4868 Y29.1211 
G01 X17.5215 Y28.9467 
G01 X17.5895 Y28.7824 
G01 X17.6883 Y28.6345 
G01 X17.8141 Y28.5088 
G01 X17.9620 Y28.4100 
G01 X18.1263 Y28.3419 
G01 X18.3007 Y28.3072 
G00 Z2.5400 
G00 X18.3007 Y23.2272 
G01 Z-0.1500 F254.00 
G01 X19.7993 Y23.2272 F508.00 
G01 X19.9737 Y23.2619 
G01 X20.1380 Y23.3300 
G01 X20.2859 Y23.4288 
G01 X20.4116 Y23.5545 
G01 X20.5104 Y23.7024 
G01 X20.5785 Y23.8667 
G01 X20.6132 Y24.0411 
G01 X20.6132 Y24.2189 
G01 X20.5785 Y24.3933 
G01 X20.5104 Y24.5576 
G01 X20.4116 Y24.7055 
G01 X20.2859 Y24.8312 
G01 X20.1380 Y24.9300 
G01 X19.9737 Y24.9981 
G01 X19.8104 Y25.0306 
G01 X24.9328 Y25.0306 
G01 X24.8245 Y24.9582 
G01 X24.6988 Y24.8325 
G01 X24.5999 Y24.6846 
G01 X24.5319 Y24.5203 
G01 X24.4972 Y24.3459 
G01 X24.4972 Y24.1681 
G01 X24.5319 Y23.9937 
G01 X24.5999 Y23.8294 
G01 X24.6988 Y23.6815 
G01 X24.8245 Y23.5557 
G01 X24.9724 Y23.4570 
G01 X25.0306 Y23.4328 
G01 X25.0306 Y21.5414 
G01 X25.0558 Y21.4474 
G01 X25.1044 Y21.3632 
G01 X25.1732 Y21.2944 
G01 X25.2574 Y21.2458 
G01 X25.3514 Y21.2206 
G01 X30.5286 Y21.2206 
G01 X30.6226 Y21.2458 
G01 X30.7068 Y21.2944 
G01 X30.7756 Y21.3632 
G01 X32.0456 Y22.6332 
G01 X32.0942 Y22.7174 
G01 X32.1194 Y22.8114 
G01 X32.1194 Y24.1786 
G01 X32.0942 Y24.2726 
G01 X32.0456 Y24.3568 
G01 X31.3224 Y25.0800 
G01 X31.3224 Y25.4782 
G01 X31.2855 Y25.5673 
G01 X31.2173 Y25.6355 
G01 X31.1282 Y25.6724 
G01 X30.7300 Y25.6724 
G01 X30.7068 Y25.6956 
G01 X30.6226 Y25.7442 
G01 X30.5286 Y25.7694 
G01 X30.4314 Y25.7694 
G01 X30.3374 Y25.7442 
G01 X30.2532 Y25.6956 
G01 X30.2300 Y25.6724 
G01 X29.8318 Y25.6724 
G01 X29.7427 Y25.6355 
G01 X29.6745 Y25.5673 
G01 X29.6376 Y25.4782 
G01 X29.6376 Y24.5818 
G01 X29.6745 Y24.4927 
G01 X29.7427 Y24.4245 
G01 X29.8318 Y24.3876 
G01 X30.9700 Y24.3876 
G01 X31.3806 Y23.9770 
G01 X31.3806 Y23.0130 
G01 X31.3224 Y22.9548 
G01 X31.3224 Y23.6782 
G01 X31.2855 Y23.7673 
G01 X31.2173 Y23.8355 
G01 X31.1282 Y23.8724 
G01 X29.9900 Y23.8724 
G01 X29.5794 Y24.2830 
G01 X29.5794 Y26.3006 
G01 X35.9626 Y26.3006 
G01 X35.9626 Y25.2318 
G01 X35.9995 Y25.1427 
G01 X36.0677 Y25.0745 
G01 X36.1568 Y25.0376 
G01 X37.5032 Y25.0376 
G01 X37.5923 Y25.0745 
G01 X37.6605 Y25.1427 
G01 X37.6974 Y25.2318 
G01 X37.6974 Y26.7282 
G01 X37.6605 Y26.8173 
G01 X37.5923 Y26.8855 
G01 X37.5032 Y26.9224 
G01 X37.1000 Y26.9224 
G01 X37.0568 Y26.9656 
G01 X36.9726 Y27.0142 
G01 X36.8786 Y27.0394 
G01 X30.1018 Y27.0394 
G01 X30.7068 Y27.6444 
G01 X30.7300 Y27.6676 
G01 X31.1282 Y27.6676 
G01 X31.2173 Y27.7045 
G01 X31.2855 Y27.7727 
G01 X31.3224 Y27.8618 
G01 X31.3224 Y28.7582 
G01 X31.2855 Y28.8473 
G01 X31.2173 Y28.9155 
G01 X31.1282 Y28.9524 
G01 X29.8318 Y28.9524 
G01 X29.7427 Y28.9155 
G01 X29.6745 Y28.8473 
G01 X29.6376 Y28.7582 
G01 X29.6376 Y27.8618 
G01 X29.6745 Y27.7727 
G01 X29.7324 Y27.7148 
G01 X28.9832 Y26.9656 
G01 X28.9144 Y26.8968 
G01 X28.8658 Y26.8126 
G01 X28.8406 Y26.7186 
G01 X28.8406 Y25.7694 
G01 X19.8104 Y25.7694 
G01 X19.9737 Y25.8019 
G01 X20.1380 Y25.8700 
G01 X20.2859 Y25.9688 
G01 X20.4116 Y26.0945 
G01 X20.5104 Y26.2424 
G01 X20.5785 Y26.4067 
G01 X20.6132 Y26.5811 
G01 X20.6132 Y26.7589 
G01 X20.5785 Y26.9333 
G01 X20.5104 Y27.0976 
G01 X20.4116 Y27.2455 
G01 X20.2859 Y27.3712 
G01 X20.1380 Y27.4700 
G01 X19.9737 Y27.5381 
G01 X19.7993 Y27.5728 
G01 X18.3007 Y27.5728 
G01 X18.1263 Y27.5381 
G01 X17.9620 Y27.4700 
G01 X17.8141 Y27.3712 
G01 X17.6883 Y27.2455 
G01 X17.5895 Y27.0976 
G01 X17.5215 Y26.9333 
G01 X17.4868 Y26.7589 
G01 X17.4868 Y26.5811 
G01 X17.5215 Y26.4067 
G01 X17.5895 Y26.2424 
G01 X17.6883 Y26.0945 
G01 X17.8141 Y25.9688 
G01 X17.9620 Y25.8700 
G01 X18.1263 Y25.8019 
G01 X18.3007 Y25.7672 
G01 X18.9932 Y25.7672 
G01 X18.9074 Y25.7442 
G01 X18.8232 Y25.6956 
G01 X18.7544 Y25.6268 
G01 X18.7058 Y25.5426 
G01 X18.6806 Y25.4486 
G01 X18.6806 Y25.0328 
G01 X18.3007 Y25.0328 
G01 X18.1263 Y24.9981 
G01 X17.9620 Y24.9300 
G01 X17.8141 Y24.8312 
G01 X17.6883 Y24.7055 
G01 X17.5895 Y24.5576 
G01 X17.5215 Y24.3933 
G01 X17.4868 Y24.2189 
G01 X17.4868 Y24.0411 
G01 X17.5215 Y23.8667 
G01 X17.5895 Y23.7024 
G01 X17.6883 Y23.5545 
G01 X17.8141 Y23.4288 
G01 X17.9620 Y23.3300 
G01 X18.1263 Y23.2619 
G01 X18.3007 Y23.2272 
G00 Z2.5400 
G00 X18.3007 Y18.1472 
G01 Z-0.1500 F254.00 
G01 X19.7993 Y18.1472 F508.00 
G01 X19.9737 Y18.1819 
G01 X20.1380 Y18.2500 
G01 X20.2859 Y18.3488 
G01 X20.4116 Y18.4745 
G01 X20.5104 Y18.6224 
G01 X20.5785 Y18.7867 
G01 X20.6132 Y18.9611 
G01 X20.6132 Y19.1389 
G01 X20.5785 Y19.3133 
G01 X20.5104 Y19.4776 
G01 X20.4116 Y19.6255 
G01 X20.2859 Y19.7512 
G01 X20.1380 Y19.8500 
G01 X19.9737 Y19.9181 
G01 X19.8103 Y19.9506 
G01 X24.9259 Y19.9506 
G01 X24.9259 Y19.5018 
G01 X24.9628 Y19.4127 
G01 X25.0310 Y19.3445 
G01 X25.1201 Y19.3076 
G01 X25.8900 Y19.3076 
G01 X26.4052 Y18.7924 
G01 X25.1201 Y18.7924 
G01 X25.0310 Y18.7555 
G01 X24.9628 Y18.6873 
G01 X24.9259 Y18.5982 
G01 X24.9259 Y17.8283 
G01 X21.3632 Y14.2656 
G01 X21.2944 Y14.1968 
G01 X21.2458 Y14.1126 
G01 X21.2206 Y14.0186 
G01 X21.2206 Y9.0430 
G01 X19.4304 Y7.2528 
G01 X18.3007 Y7.2528 
G01 X18.1263 Y7.2181 
G01 X17.9620 Y7.1500 
G01 X17.8141 Y7.0512 
G01 X17.6883 Y6.9255 
G01 X17.5895 Y6.7776 
G01 X17.5215 Y6.6133 
G01 X17.4868 Y6.4389 
G01 X17.4868 Y6.2611 
G01 X17.5215 Y6.0867 
G01 X17.5895 Y5.9224 
G01 X17.6883 Y5.7745 
G01 X17.8141 Y5.6488 
G01 X17.9620 Y5.5499 
G01 X18.1263 Y5.4819 
G01 X18.3007 Y5.4472 
G01 X19.7993 Y5.4472 
G01 X19.9737 Y5.4819 
G01 X20.1380 Y5.5499 
G01 X20.2859 Y5.6488 
G01 X20.4116 Y5.7745 
G01 X20.5104 Y5.9224 
G01 X20.5785 Y6.0867 
G01 X20.6132 Y6.2611 
G01 X20.6132 Y6.4389 
G01 X20.5785 Y6.6133 
G01 X20.5104 Y6.7776 
G01 X20.4116 Y6.9255 
G01 X20.2859 Y7.0512 
G01 X20.2786 Y7.0562 
G01 X21.8856 Y8.6632 
G01 X21.9342 Y8.7474 
G01 X21.9594 Y8.8414 
G01 X21.9594 Y13.8170 
G01 X25.6271 Y17.4847 
G01 X25.6501 Y17.5076 
G01 X26.4165 Y17.5076 
G01 X26.5056 Y17.5445 
G01 X26.5738 Y17.6127 
G01 X26.6107 Y17.7018 
G01 X26.6107 Y18.5869 
G01 X27.7132 Y17.4844 
G01 X27.7974 Y17.4358 
G01 X27.8914 Y17.4106 
G01 X30.5286 Y17.4106 
G01 X30.6226 Y17.4358 
G01 X30.7068 Y17.4844 
G01 X30.7300 Y17.5076 
G01 X31.1282 Y17.5076 
G01 X31.2173 Y17.5445 
G01 X31.2855 Y17.6127 
G01 X31.3224 Y17.7018 
G01 X31.3224 Y18.5982 
G01 X31.2855 Y18.6873 
