(.../pcb-gcode-3.6.0.4/pcb-gcode.ulp)
(Copyright 2005 - 2012 by John Johnson)
(See readme.txt for licensing terms.)
(This file generated from the board:)
(.../Documents/eagle/atmega module/shm.brd)
(Current profile is .../pcb-gcode-3.6.0.4/profiles/emc.pp  )
(This file generated 5/4/2014 12:34:48 AM)
(Settings from pcb-machine.h)
(  Tool Size)
(0.1000 )
(Z Axis Settings)
(  High     Up        Down     Drill)
(12.7000 	2.5400 	-0.1778 	-0.8128 )
(spindle on time = 3.0000)
(milling depth = -0.2540)
(text depth = -0.1270)
(tool change at 12.7000 15.2400 25.4000 )
(feed rate xy = F508.00 )
(feed rate z  = F254.00 )
(Settings from pcb-defaults.h)
(isolate min = 0.0254)
(isolate max = 0.5080)
(isolate step = 0.1270)
(Generated top outlines, bottom outlines, bottom drill, )
(Unit of measure: mm)
( Tool|       Size       |  Min Sub |  Max Sub |   Count )
( T01 | 3.200mm 0.1260in | 0.0000in | 0.0000in |       0 )
( T02 | 0.610mm 0.0240in | 0.0000in | 0.0000in |       0 )
( T03 | 0.813mm 0.0320in | 0.0000in | 0.0000in |       0 )
( T04 | 1.016mm 0.0400in | 0.0000in | 0.0000in |       0 )
(Metric Mode)
G21
(Absolute Coordinates)
G90
M05
G00 Z25.4000 
G00 X12.7000 Y15.2400 
M06 T01 (3.2000 )
G01 Z0.0000 F254.00 
M06 T01 (3.2000 )
G00 Z2.5400 
M03
G04 P3.000000
G82 X-3.8100 Y3.8100 Z-0.8128 F254.00 R2.5400 P1.000000
G82 X-3.8100 Y48.2600 
G82 X-49.5300 Y3.8100 
G82 X-49.5300 Y48.2600 
M05
G00 Z25.4000 
M06 T02 (0.6096 )
G01 Z0.0000 F254.00 
M06 T02 (0.6096 )
G00 Z2.5400 
M03
G04 P3.000000
G82 X-36.8300 Y40.6400 Z-0.8128 F254.00 R2.5400 P1.000000
G82 X-40.6400 Y38.1000 
M05
G00 Z25.4000 
M06 T03 (0.8128 )
G01 Z0.0000 F254.00 
M06 T03 (0.8128 )
G00 Z2.5400 
M03
G04 P3.000000
G82 X-33.0200 Y44.4500 Z-0.8128 F254.00 R2.5400 P1.000000
G82 X-40.6400 Y48.2600 
G82 X-43.1800 Y48.2600 
G82 X-7.6200 Y31.7500 
G82 X-7.6200 Y34.2900 
G82 X-7.6200 Y36.8300 
G82 X-7.6200 Y39.3700 
G82 X-7.6200 Y41.9100 
G82 X-7.6200 Y8.8900 
G82 X-7.6200 Y11.4300 
G82 X-7.6200 Y13.9700 
G82 X-7.6200 Y16.5100 
G82 X-7.6200 Y19.0500 
G82 X-7.6200 Y21.5900 
G82 X-7.6200 Y24.1300 
G82 X-7.6200 Y26.6700 
G82 X-7.6200 Y29.2100 
G82 X-15.2400 Y31.7500 
G82 X-15.2400 Y34.2900 
G82 X-15.2400 Y36.8300 
G82 X-15.2400 Y39.3700 
G82 X-15.2400 Y41.9100 
G82 X-15.2400 Y48.2600 
G82 X-15.2400 Y8.8900 
G82 X-15.2400 Y11.4300 
G82 X-15.2400 Y13.9700 
G82 X-15.2400 Y16.5100 
G82 X-15.2400 Y19.0500 
G82 X-15.2400 Y21.5900 
G82 X-15.2400 Y24.1300 
G82 X-15.2400 Y26.6700 
G82 X-15.2400 Y29.2100 
G82 X-19.4183 Y12.7000 
G82 X-19.4183 Y20.3200 
G82 X-22.8600 Y32.8930 
G82 X-22.8600 Y48.2600 
G82 X-22.8600 Y28.0670 
G82 X-25.4000 Y44.4500 
G82 X-30.4800 Y31.7500 
G82 X-30.4800 Y34.2900 
G82 X-30.4800 Y25.4000 
G82 X-30.4800 Y27.9400 
M05
G00 Z25.4000 
M06 T04 (1.0160 )
G01 Z0.0000 F254.00 
M06 T04 (1.0160 )
G00 Z2.5400 
M03
G04 P3.000000
G82 X-50.8000 Y33.0200 Z-0.8128 F254.00 R2.5400 P1.000000
G82 X-50.8000 Y35.5600 
G82 X-50.8000 Y38.1000 
G82 X-50.8000 Y40.6400 
G82 X-50.8000 Y43.1800 
G82 X-50.8000 Y8.8900 
G82 X-50.8000 Y11.4300 
G82 X-50.8000 Y13.9700 
G82 X-50.8000 Y16.5100 
G82 X-50.8000 Y19.0500 
G82 X-50.8000 Y21.5900 
G82 X-50.8000 Y24.1300 
G82 X-50.8000 Y26.6700 
G82 X-50.8000 Y30.4800 
G82 X-2.5400 Y31.7500 
G82 X-2.5400 Y34.2900 
G82 X-2.5400 Y8.8900 
G82 X-2.5400 Y11.4300 
G82 X-2.5400 Y13.9700 
G82 X-2.5400 Y16.5100 
G82 X-2.5400 Y19.0500 
G82 X-2.5400 Y21.5900 
G82 X-2.5400 Y26.6700 
G82 X-2.5400 Y29.2100 
T01 
G00 Z12.7000 
M05
M02
