(.../pcb-gcode-3.6.0.4/pcb-gcode.ulp)
(Copyright 2005 - 2012 by John Johnson)
(See readme.txt for licensing terms.)
(This file generated from the board:)
(.../eagle/eagle/atmega module/shm.brd)
(Current profile is .../pcb-gcode-3.6.0.4/profiles/emc.pp  )
(This file generated 5/16/2014 11:59:40 AM)
(Settings from pcb-machine.h)
(  Tool Size)
(0.2000 )
(Z Axis Settings)
(  High     Up        Down     Drill)
(12.7000 	2.5400 	-0.1500 	-0.8128 )
(spindle on time = 3.0000)
(milling depth = -0.1500)
(text depth = -0.1270)
(tool change at 12.7000 15.2400 25.4000 )
(feed rate xy = F508.00 )
(feed rate z  = F254.00 )
(Settings from pcb-defaults.h)
(isolate min = 0.0154)
(isolate max = 0.5080)
(isolate step = 0.1270)
(Generated top outlines, top drill, bottom outlines, bottom drill, )
(Unit of measure: mm)
(Metric Mode)
G21
(Absolute Coordinates)
G90
G00 X0.0000 Y0.0000 
M03
G04 P3.000000
G00 Z2.5400 
G00 X36.7114 Y48.9083 
G01 Z-0.1500 F254.00 
G01 X37.2058 Y48.9083 F508.00 
G01 X37.3284 Y48.7858 
G01 X37.3284 Y48.4139 
G01 X37.2058 Y48.2913 
G01 X36.7114 Y48.2913 
G01 X36.7114 Y48.9083 
G00 Z2.5400 
G00 X34.6811 Y48.7553 
G01 Z-0.1500 F254.00 
G01 X34.8061 Y48.6303 F508.00 
G01 X34.5560 Y48.6303 
G01 X34.6811 Y48.7553 
G00 Z2.5400 
G00 X25.5118 Y47.6134 
G01 Z-0.1500 F254.00 
G01 X25.1400 Y47.6134 F508.00 
G01 X25.0174 Y47.7360 
G01 X25.0174 Y48.7858 
G01 X25.1400 Y48.9083 
G01 X25.5118 Y48.9083 
G01 X25.6344 Y48.7858 
G01 X25.6344 Y47.7360 
G01 X25.5118 Y47.6134 
G00 Z2.5400 
G00 X22.6786 Y48.9083 
G01 Z-0.1500 F254.00 
G01 X23.1730 Y48.9083 F508.00 
G01 X23.2956 Y48.7858 
G01 X23.2956 Y48.4139 
G01 X23.1730 Y48.2913 
G01 X22.6786 Y48.2913 
G01 X22.6786 Y48.9083 
G00 Z2.5400 
G00 X16.1567 Y47.6134 
G01 Z-0.1500 F254.00 
G01 X15.7848 Y47.6134 F508.00 
G01 X15.6622 Y47.7360 
G01 X15.6622 Y48.7858 
G01 X15.7848 Y48.9083 
G01 X16.1567 Y48.9083 
G01 X16.2792 Y48.7858 
G01 X16.2792 Y47.7360 
G01 X16.1567 Y47.6134 
G00 Z2.5400 
G00 X6.0334 Y46.1290 
G01 Z-0.1500 F254.00 
G01 X6.0334 Y50.3910 F508.00 
G01 X6.0158 Y50.4334 
G01 X5.9834 Y50.4658 
G01 X5.9410 Y50.4834 
G01 X1.6790 Y50.4834 
G01 X1.6366 Y50.4658 
G01 X1.6042 Y50.4334 
G01 X1.5866 Y50.3910 
G01 X1.5866 Y46.1290 
G01 X1.6042 Y46.0866 
G01 X1.6366 Y46.0542 
G01 X1.6790 Y46.0366 
G01 X5.9410 Y46.0366 
G01 X5.9834 Y46.0542 
G01 X6.0158 Y46.0866 
G01 X6.0334 Y46.1290 
G00 Z2.5400 
G00 X6.0334 Y1.6790 
G01 Z-0.1500 F254.00 
G01 X6.0334 Y5.9410 F508.00 
G01 X6.0158 Y5.9834 
G01 X5.9834 Y6.0158 
G01 X5.9410 Y6.0334 
G01 X1.6790 Y6.0334 
G01 X1.6366 Y6.0158 
G01 X1.6042 Y5.9834 
G01 X1.5866 Y5.9410 
G01 X1.5866 Y1.6790 
G01 X1.6042 Y1.6366 
G01 X1.6366 Y1.6042 
G01 X1.6790 Y1.5866 
G01 X5.9410 Y1.5866 
G01 X5.9834 Y1.6042 
G01 X6.0158 Y1.6366 
G01 X6.0334 Y1.6790 
G00 Z2.5400 
G00 X51.7534 Y1.6790 
G01 Z-0.1500 F254.00 
G01 X51.7534 Y5.9410 F508.00 
G01 X51.7358 Y5.9834 
G01 X51.7034 Y6.0158 
G01 X51.6610 Y6.0334 
G01 X47.3990 Y6.0334 
G01 X47.3566 Y6.0158 
G01 X47.3242 Y5.9834 
G01 X47.3066 Y5.9410 
G01 X47.3066 Y1.6790 
G01 X47.3242 Y1.6366 
G01 X47.3566 Y1.6042 
G01 X47.3990 Y1.5866 
G01 X51.6610 Y1.5866 
G01 X51.7034 Y1.6042 
G01 X51.7358 Y1.6366 
G01 X51.7534 Y1.6790 
G00 Z2.5400 
G00 X51.7534 Y46.1290 
G01 Z-0.1500 F254.00 
G01 X51.7534 Y50.3910 F508.00 
G01 X51.7358 Y50.4334 
G01 X51.7034 Y50.4658 
G01 X51.6610 Y50.4834 
G01 X47.3990 Y50.4834 
G01 X47.3566 Y50.4658 
G01 X47.3242 Y50.4334 
G01 X47.3066 Y50.3910 
G01 X47.3066 Y46.1290 
G01 X47.3242 Y46.0866 
G01 X47.3566 Y46.0542 
G01 X47.3990 Y46.0366 
G01 X51.6610 Y46.0366 
G01 X51.7034 Y46.0542 
G01 X51.7358 Y46.0866 
G01 X51.7534 Y46.1290 
G00 Z2.5400 
G00 X20.6640 Y7.2576 
G01 Z-0.1500 F254.00 
G01 X20.6640 Y7.4236 F508.00 
G01 X20.6380 Y7.5877 
G01 X20.5867 Y7.7457 
G01 X20.5113 Y7.8936 
G01 X20.4137 Y8.0280 
G01 X20.2962 Y8.1455 
G01 X20.1618 Y8.2431 
G01 X20.0139 Y8.3185 
G01 X19.8559 Y8.3698 
G01 X19.6918 Y8.3958 
G01 X19.5258 Y8.3958 
G01 X19.3617 Y8.3698 
G01 X19.2037 Y8.3185 
G01 X19.0558 Y8.2431 
G01 X18.9214 Y8.1455 
G01 X18.8039 Y8.0280 
G01 X18.7063 Y7.8936 
G01 X18.6309 Y7.7457 
G01 X18.5796 Y7.5877 
G01 X18.5536 Y7.4236 
G01 X18.5536 Y7.2576 
G01 X18.5796 Y7.0935 
G01 X18.6309 Y6.9355 
G01 X18.7063 Y6.7876 
G01 X18.8039 Y6.6532 
G01 X18.9214 Y6.5357 
G01 X19.0558 Y6.4381 
G01 X19.2037 Y6.3627 
G01 X19.3617 Y6.3114 
G01 X19.5258 Y6.2854 
G01 X19.6918 Y6.2854 
G01 X19.8559 Y6.3114 
G01 X20.0139 Y6.3627 
G01 X20.1618 Y6.4381 
G01 X20.2962 Y6.5357 
G01 X20.4137 Y6.6532 
G01 X20.5113 Y6.7876 
G01 X20.5867 Y6.9355 
G01 X20.6380 Y7.0935 
G01 X20.6640 Y7.2576 
G00 Z2.5400 
G00 X27.1664 Y7.2576 
G01 Z-0.1500 F254.00 
G01 X27.1664 Y7.4236 F508.00 
G01 X27.1404 Y7.5877 
G01 X27.0891 Y7.7457 
G01 X27.0137 Y7.8936 
G01 X26.9161 Y8.0280 
G01 X26.7986 Y8.1455 
G01 X26.6642 Y8.2431 
G01 X26.5163 Y8.3185 
G01 X26.3583 Y8.3698 
G01 X26.1942 Y8.3958 
G01 X26.0282 Y8.3958 
G01 X25.8641 Y8.3698 
G01 X25.7061 Y8.3185 
G01 X25.5582 Y8.2431 
G01 X25.4238 Y8.1455 
G01 X25.3063 Y8.0280 
G01 X25.2087 Y7.8936 
G01 X25.1333 Y7.7457 
G01 X25.0820 Y7.5877 
G01 X25.0560 Y7.4236 
G01 X25.0560 Y7.2576 
G01 X25.0820 Y7.0935 
G01 X25.1333 Y6.9355 
G01 X25.2087 Y6.7876 
G01 X25.3063 Y6.6532 
G01 X25.4238 Y6.5357 
G01 X25.5582 Y6.4381 
G01 X25.7061 Y6.3627 
G01 X25.8641 Y6.3114 
G01 X26.0282 Y6.2854 
G01 X26.1942 Y6.2854 
G01 X26.3583 Y6.3114 
G01 X26.5163 Y6.3627 
G01 X26.6642 Y6.4381 
G01 X26.7986 Y6.5357 
G01 X26.9161 Y6.6532 
G01 X27.0137 Y6.7876 
G01 X27.0891 Y6.9355 
G01 X27.1404 Y7.0935 
G01 X27.1664 Y7.2576 
G00 Z2.5400 
G00 X20.6640 Y2.7364 
G01 Z-0.1500 F254.00 
G01 X20.6640 Y2.9024 F508.00 
G01 X20.6380 Y3.0665 
G01 X20.5867 Y3.2245 
G01 X20.5113 Y3.3724 
G01 X20.4137 Y3.5068 
G01 X20.2962 Y3.6243 
G01 X20.1618 Y3.7219 
G01 X20.0139 Y3.7973 
G01 X19.8559 Y3.8486 
G01 X19.6918 Y3.8746 
G01 X19.5258 Y3.8746 
G01 X19.3617 Y3.8486 
G01 X19.2037 Y3.7973 
G01 X19.0558 Y3.7219 
G01 X18.9214 Y3.6243 
G01 X18.8039 Y3.5068 
G01 X18.7063 Y3.3724 
G01 X18.6309 Y3.2245 
G01 X18.5796 Y3.0665 
G01 X18.5536 Y2.9024 
G01 X18.5536 Y2.7364 
G01 X18.5796 Y2.5723 
G01 X18.6309 Y2.4143 
G01 X18.7063 Y2.2664 
G01 X18.8039 Y2.1320 
G01 X18.9214 Y2.0145 
G01 X19.0558 Y1.9169 
G01 X19.2037 Y1.8415 
G01 X19.3617 Y1.7902 
G01 X19.5258 Y1.7642 
G01 X19.6918 Y1.7642 
G01 X19.8559 Y1.7902 
G01 X20.0139 Y1.8415 
G01 X20.1618 Y1.9169 
G01 X20.2962 Y2.0145 
G01 X20.4137 Y2.1320 
G01 X20.5113 Y2.2664 
G01 X20.5867 Y2.4143 
G01 X20.6380 Y2.5723 
G01 X20.6640 Y2.7364 
G00 Z2.5400 
G00 X27.1664 Y2.7364 
G01 Z-0.1500 F254.00 
G01 X27.1664 Y2.9024 F508.00 
G01 X27.1404 Y3.0665 
G01 X27.0891 Y3.2245 
G01 X27.0137 Y3.3724 
G01 X26.9161 Y3.5068 
G01 X26.7986 Y3.6243 
G01 X26.6642 Y3.7219 
G01 X26.5163 Y3.7973 
G01 X26.3583 Y3.8486 
G01 X26.1942 Y3.8746 
G01 X26.0282 Y3.8746 
G01 X25.8641 Y3.8486 
G01 X25.7061 Y3.7973 
G01 X25.5582 Y3.7219 
G01 X25.4238 Y3.6243 
G01 X25.3063 Y3.5068 
G01 X25.2087 Y3.3724 
G01 X25.1333 Y3.2245 
G01 X25.0820 Y3.0665 
G01 X25.0560 Y2.9024 
G01 X25.0560 Y2.7364 
G01 X25.0820 Y2.5723 
G01 X25.1333 Y2.4143 
G01 X25.2087 Y2.2664 
G01 X25.3063 Y2.1320 
G01 X25.4238 Y2.0145 
G01 X25.5582 Y1.9169 
G01 X25.7061 Y1.8415 
G01 X25.8641 Y1.7902 
G01 X26.0282 Y1.7642 
G01 X26.1942 Y1.7642 
G01 X26.3583 Y1.7902 
G01 X26.5163 Y1.8415 
G01 X26.6642 Y1.9169 
G01 X26.7986 Y2.0145 
G01 X26.9161 Y2.1320 
G01 X27.0137 Y2.2664 
G01 X27.0891 Y2.4143 
G01 X27.1404 Y2.5723 
G01 X27.1664 Y2.7364 
G00 Z2.5400 
G00 X35.2055 Y14.8608 
G01 Z-0.1500 F254.00 
G01 X35.2055 Y15.6192 F508.00 
G01 X34.6692 Y16.1555 
G01 X33.9108 Y16.1555 
G01 X33.3745 Y15.6192 
G01 X33.3745 Y14.8608 
G01 X33.4712 Y14.7640 
G01 X31.6496 Y12.9424 
G01 X20.1941 Y12.9424 
G01 X20.1941 Y13.0213 
G01 X19.7396 Y13.4758 
G01 X19.0970 Y13.4758 
G01 X18.6425 Y13.0213 
G01 X18.6425 Y12.6353 
G01 X15.6730 Y9.6658 
G01 X14.5032 Y9.6658 
G01 X14.3533 Y9.6360 
G01 X14.2121 Y9.5775 
G01 X14.0851 Y9.4926 
G01 X13.9770 Y9.3845 
G01 X13.8921 Y9.2575 
G01 X13.8336 Y9.1163 
G01 X13.8038 Y8.9664 
G01 X13.8038 Y8.8136 
G01 X13.8336 Y8.6637 
G01 X13.8921 Y8.5225 
G01 X13.9770 Y8.3955 
G01 X14.0851 Y8.2874 
G01 X14.2121 Y8.2025 
G01 X14.3533 Y8.1440 
G01 X14.5032 Y8.1142 
G01 X15.9768 Y8.1142 
G01 X16.1267 Y8.1440 
G01 X16.2679 Y8.2025 
G01 X16.3949 Y8.2874 
G01 X16.5030 Y8.3955 
G01 X16.5879 Y8.5225 
G01 X16.6464 Y8.6637 
G01 X16.6762 Y8.8136 
G01 X16.6762 Y8.9664 
G01 X16.6464 Y9.1163 
G01 X16.5879 Y9.2575 
G01 X16.5030 Y9.3845 
G01 X16.3949 Y9.4926 
G01 X16.2693 Y9.5765 
G01 X18.8570 Y12.1642 
G01 X19.0970 Y11.9242 
G01 X19.7396 Y11.9242 
G01 X20.1941 Y12.3787 
G01 X20.1941 Y12.4576 
G01 X31.7982 Y12.4576 
G01 X31.8873 Y12.4945 
G01 X31.9555 Y12.5627 
G01 X33.8140 Y14.4212 
G01 X33.9108 Y14.3245 
G01 X34.6692 Y14.3245 
G01 X35.2055 Y14.8608 
G00 Z2.5400 
G00 X35.2055 Y17.4008 
G01 Z-0.1500 F254.00 
G01 X35.2055 Y18.1592 F508.00 
G01 X34.6692 Y18.6955 
G01 X33.9108 Y18.6955 
G01 X33.3745 Y18.1592 
G01 X33.3745 Y17.4008 
G01 X33.9108 Y16.8645 
G01 X34.6692 Y16.8645 
G01 X35.2055 Y17.4008 
G00 Z2.5400 
G00 X31.2558 Y22.5387 
G01 Z-0.1500 F254.00 
G01 X31.2558 Y23.1813 F508.00 
G01 X30.8013 Y23.6358 
G01 X30.1587 Y23.6358 
G01 X29.7042 Y23.1813 
G01 X29.7042 Y22.5387 
G01 X30.1587 Y22.0842 
G01 X30.8013 Y22.0842 
G01 X31.2558 Y22.5387 
G00 Z2.5400 
G00 X20.1941 Y19.9987 
G01 Z-0.1500 F254.00 
G01 X20.1941 Y20.6413 F508.00 
G01 X19.9541 Y20.8813 
G01 X21.6904 Y22.6176 
G01 X22.0842 Y22.6176 
G01 X22.0842 Y22.5387 
G01 X22.5387 Y22.0842 
G01 X23.1813 Y22.0842 
G01 X23.6358 Y22.5387 
G01 X23.6358 Y23.1813 
G01 X23.1813 Y23.6358 
G01 X22.5387 Y23.6358 
G01 X22.0842 Y23.1813 
G01 X22.0842 Y23.1024 
G01 X21.5418 Y23.1024 
G01 X21.4527 Y23.0655 
G01 X19.4830 Y21.0958 
G01 X19.0970 Y21.0958 
G01 X18.6425 Y20.6413 
G01 X18.6425 Y19.9987 
G01 X19.0970 Y19.5442 
G01 X19.7396 Y19.5442 
G01 X20.1941 Y19.9987 
G00 Z2.5400 
G00 X41.4158 Y23.8087 
G01 Z-0.1500 F254.00 
G01 X41.4158 Y24.4513 F508.00 
G01 X40.9613 Y24.9058 
G01 X40.3187 Y24.9058 
G01 X39.8642 Y24.4513 
G01 X39.8642 Y23.8087 
G01 X40.3187 Y23.3542 
G01 X40.9613 Y23.3542 
G01 X41.4158 Y23.8087 
G00 Z2.5400 
G00 X35.2055 Y33.9108 
G01 Z-0.1500 F254.00 
G01 X35.2055 Y34.6692 F508.00 
G01 X34.6692 Y35.2055 
G01 X33.9108 Y35.2055 
G01 X33.3745 Y34.6692 
G01 X33.3745 Y33.9108 
G01 X33.9108 Y33.3745 
G01 X34.0476 Y33.3745 
G01 X34.0476 Y28.8555 
G01 X33.9108 Y28.8555 
G01 X33.3745 Y28.3192 
G01 X33.3745 Y27.5608 
G01 X33.9108 Y27.0245 
G01 X34.6692 Y27.0245 
G01 X34.7660 Y27.1212 
G01 X39.9200 Y21.9672 
G01 X39.8642 Y21.9113 
G01 X39.8642 Y21.2687 
G01 X40.3187 Y20.8142 
G01 X40.9613 Y20.8142 
G01 X41.4158 Y21.2687 
G01 X41.4158 Y21.9113 
G01 X40.9613 Y22.3658 
G01 X40.3187 Y22.3658 
G01 X40.2628 Y22.3100 
G01 X35.1088 Y27.4640 
G01 X35.2055 Y27.5608 
G01 X35.2055 Y28.3192 
G01 X34.6692 Y28.8555 
G01 X34.5324 Y28.8555 
G01 X34.5324 Y33.3745 
G01 X34.6692 Y33.3745 
G01 X35.2055 Y33.9108 
G00 Z2.5400 
G00 X6.8832 Y8.1142 
G01 Z-0.1500 F254.00 
G01 X8.3568 Y8.1142 F508.00 
G01 X8.5067 Y8.1440 
G01 X8.6479 Y8.2025 
G01 X8.7749 Y8.2874 
G01 X8.8830 Y8.3955 
G01 X8.9679 Y8.5225 
G01 X9.0264 Y8.6637 
G01 X9.0562 Y8.8136 
G01 X9.0562 Y8.9664 
G01 X9.0264 Y9.1163 
G01 X8.9679 Y9.2575 
G01 X8.8830 Y9.3845 
G01 X8.7749 Y9.4926 
G01 X8.6479 Y9.5775 
G01 X8.5067 Y9.6360 
G01 X8.3568 Y9.6658 
G01 X6.8832 Y9.6658 
G01 X6.7333 Y9.6360 
G01 X6.5921 Y9.5775 
G01 X6.4651 Y9.4926 
G01 X6.3570 Y9.3845 
G01 X6.2721 Y9.2575 
G01 X6.2203 Y9.1324 
G01 X4.1484 Y9.1324 
G01 X4.1457 Y9.1459 
G01 X4.0795 Y9.3056 
G01 X3.9835 Y9.4493 
G01 X3.8613 Y9.5715 
G01 X3.7176 Y9.6675 
G01 X3.5579 Y9.7337 
G01 X3.3884 Y9.7674 
G01 X1.6916 Y9.7674 
G01 X1.5221 Y9.7337 
G01 X1.3624 Y9.6675 
G01 X1.2187 Y9.5715 
G01 X1.0965 Y9.4493 
G01 X1.0005 Y9.3056 
G01 X0.9343 Y9.1459 
G01 X0.9006 Y8.9764 
G01 X0.9006 Y8.8036 
G01 X0.9343 Y8.6341 
G01 X1.0005 Y8.4744 
G01 X1.0965 Y8.3307 
G01 X1.2187 Y8.2085 
G01 X1.3624 Y8.1125 
G01 X1.5221 Y8.0463 
G01 X1.6916 Y8.0126 
G01 X3.3884 Y8.0126 
G01 X3.5579 Y8.0463 
G01 X3.7176 Y8.1125 
G01 X3.8613 Y8.2085 
G01 X3.9835 Y8.3307 
G01 X4.0795 Y8.4744 
G01 X4.1457 Y8.6341 
G01 X4.1484 Y8.6476 
G01 X6.2203 Y8.6476 
G01 X6.2721 Y8.5225 
G01 X6.3570 Y8.3955 
G01 X6.4651 Y8.2874 
G01 X6.5921 Y8.2025 
G01 X6.7333 Y8.1440 
G01 X6.8832 Y8.1142 
G00 Z2.5400 
G00 X6.8832 Y13.1942 
G01 Z-0.1500 F254.00 
G01 X8.3568 Y13.1942 F508.00 
G01 X8.5067 Y13.2240 
G01 X8.6479 Y13.2825 
G01 X8.7749 Y13.3674 
G01 X8.8830 Y13.4755 
G01 X8.9679 Y13.6025 
G01 X9.0264 Y13.7437 
G01 X9.0562 Y13.8936 
G01 X9.0562 Y14.0464 
G01 X9.0264 Y14.1963 
G01 X8.9679 Y14.3375 
G01 X8.8830 Y14.4645 
G01 X8.7749 Y14.5726 
G01 X8.6479 Y14.6575 
G01 X8.5067 Y14.7160 
G01 X8.3568 Y14.7458 
G01 X6.8832 Y14.7458 
G01 X6.7333 Y14.7160 
G01 X6.5921 Y14.6575 
G01 X6.4651 Y14.5726 
G01 X6.3570 Y14.4645 
G01 X6.2721 Y14.3375 
G01 X6.2203 Y14.2124 
G01 X4.1484 Y14.2124 
G01 X4.1457 Y14.2259 
G01 X4.0795 Y14.3856 
G01 X3.9835 Y14.5293 
G01 X3.8613 Y14.6515 
G01 X3.7176 Y14.7475 
G01 X3.5579 Y14.8137 
G01 X3.3884 Y14.8474 
G01 X1.6916 Y14.8474 
G01 X1.5221 Y14.8137 
G01 X1.3624 Y14.7475 
G01 X1.2187 Y14.6515 
G01 X1.0965 Y14.5293 
G01 X1.0005 Y14.3856 
G01 X0.9343 Y14.2259 
G01 X0.9006 Y14.0564 
G01 X0.9006 Y13.8836 
G01 X0.9343 Y13.7141 
G01 X1.0005 Y13.5544 
G01 X1.0965 Y13.4107 
G01 X1.2187 Y13.2885 
G01 X1.3624 Y13.1925 
G01 X1.5221 Y13.1263 
G01 X1.6916 Y13.0926 
G01 X3.3884 Y13.0926 
G01 X3.5579 Y13.1263 
G01 X3.7176 Y13.1925 
G01 X3.8613 Y13.2885 
G01 X3.9835 Y13.4107 
G01 X4.0795 Y13.5544 
G01 X4.1457 Y13.7141 
G01 X4.1484 Y13.7276 
G01 X6.2203 Y13.7276 
G01 X6.2721 Y13.6025 
G01 X6.3570 Y13.4755 
G01 X6.4651 Y13.3674 
G01 X6.5921 Y13.2825 
G01 X6.7333 Y13.2240 
G01 X6.8832 Y13.1942 
G00 Z2.5400 
G00 X6.8832 Y18.2742 
G01 Z-0.1500 F254.00 
G01 X8.3568 Y18.2742 F508.00 
G01 X8.5067 Y18.3040 
G01 X8.6479 Y18.3625 
G01 X8.7749 Y18.4474 
G01 X8.8830 Y18.5555 
G01 X8.9679 Y18.6825 
G01 X9.0264 Y18.8237 
G01 X9.0562 Y18.9736 
G01 X9.0562 Y19.1264 
G01 X9.0264 Y19.2763 
G01 X8.9679 Y19.4175 
G01 X8.8830 Y19.5445 
G01 X8.7749 Y19.6526 
G01 X8.6479 Y19.7375 
G01 X8.5067 Y19.7960 
G01 X8.3568 Y19.8258 
G01 X6.8832 Y19.8258 
G01 X6.7333 Y19.7960 
G01 X6.5921 Y19.7375 
G01 X6.4651 Y19.6526 
G01 X6.3570 Y19.5445 
G01 X6.2721 Y19.4175 
G01 X6.2203 Y19.2924 
G01 X4.1484 Y19.2924 
G01 X4.1457 Y19.3059 
G01 X4.0795 Y19.4656 
G01 X3.9835 Y19.6093 
G01 X3.8613 Y19.7315 
G01 X3.7176 Y19.8275 
G01 X3.5579 Y19.8937 
G01 X3.3884 Y19.9274 
G01 X1.6916 Y19.9274 
G01 X1.5221 Y19.8937 
G01 X1.3624 Y19.8275 
G01 X1.2187 Y19.7315 
G01 X1.0965 Y19.6093 
G01 X1.0005 Y19.4656 
G01 X0.9343 Y19.3059 
G01 X0.9006 Y19.1364 
G01 X0.9006 Y18.9636 
G01 X0.9343 Y18.7941 
G01 X1.0005 Y18.6344 
G01 X1.0965 Y18.4907 
G01 X1.2187 Y18.3685 
G01 X1.3624 Y18.2725 
G01 X1.5221 Y18.2063 
G01 X1.6916 Y18.1726 
G01 X3.3884 Y18.1726 
G01 X3.5579 Y18.2063 
G01 X3.7176 Y18.2725 
G01 X3.8613 Y18.3685 
G01 X3.9835 Y18.4907 
G01 X4.0795 Y18.6344 
G01 X4.1457 Y18.7941 
G01 X4.1484 Y18.8076 
G01 X6.2203 Y18.8076 
G01 X6.2721 Y18.6825 
G01 X6.3570 Y18.5555 
G01 X6.4651 Y18.4474 
G01 X6.5921 Y18.3625 
G01 X6.7333 Y18.3040 
G01 X6.8832 Y18.2742 
G00 Z2.5400 
G00 X6.8832 Y25.8942 
G01 Z-0.1500 F254.00 
G01 X8.3568 Y25.8942 F508.00 
G01 X8.5067 Y25.9240 
G01 X8.6479 Y25.9825 
G01 X8.7749 Y26.0674 
G01 X8.8830 Y26.1755 
G01 X8.9679 Y26.3025 
G01 X9.0264 Y26.4437 
G01 X9.0562 Y26.5936 
G01 X9.0562 Y26.7464 
G01 X9.0264 Y26.8963 
G01 X8.9679 Y27.0375 
G01 X8.8830 Y27.1645 
G01 X8.7749 Y27.2726 
G01 X8.6479 Y27.3575 
G01 X8.5067 Y27.4160 
G01 X8.3568 Y27.4458 
G01 X6.8832 Y27.4458 
G01 X6.7333 Y27.4160 
G01 X6.5921 Y27.3575 
G01 X6.4651 Y27.2726 
G01 X6.3570 Y27.1645 
G01 X6.2721 Y27.0375 
G01 X6.2136 Y26.8963 
G01 X6.1838 Y26.7464 
G01 X6.1838 Y26.5936 
G01 X6.2136 Y26.4437 
G01 X6.2721 Y26.3025 
G01 X6.3570 Y26.1755 
G01 X6.4651 Y26.0674 
G01 X6.5921 Y25.9825 
G01 X6.7333 Y25.9240 
G01 X6.8832 Y25.8942 
G00 Z2.5400 
G00 X6.8832 Y28.4342 
G01 Z-0.1500 F254.00 
G01 X8.3568 Y28.4342 F508.00 
G01 X8.5067 Y28.4640 
G01 X8.6479 Y28.5225 
G01 X8.7749 Y28.6074 
G01 X8.8830 Y28.7155 
G01 X8.9679 Y28.8425 
G01 X9.0264 Y28.9837 
G01 X9.0562 Y29.1336 
G01 X9.0562 Y29.2864 
G01 X9.0264 Y29.4363 
G01 X8.9679 Y29.5775 
G01 X8.8830 Y29.7045 
G01 X8.7749 Y29.8126 
G01 X8.6479 Y29.8975 
G01 X8.5067 Y29.9560 
G01 X8.3568 Y29.9858 
G01 X6.8832 Y29.9858 
G01 X6.7333 Y29.9560 
G01 X6.5921 Y29.8975 
G01 X6.4651 Y29.8126 
G01 X6.3570 Y29.7045 
G01 X6.2721 Y29.5775 
G01 X6.2136 Y29.4363 
G01 X6.1838 Y29.2864 
G01 X6.1838 Y29.1336 
G01 X6.2136 Y28.9837 
G01 X6.2721 Y28.8425 
G01 X6.3570 Y28.7155 
G01 X6.4651 Y28.6074 
G01 X6.5921 Y28.5225 
G01 X6.7333 Y28.4640 
G01 X6.8832 Y28.4342 
G00 Z2.5400 
G00 X6.8832 Y30.9742 
G01 Z-0.1500 F254.00 
G01 X8.3568 Y30.9742 F508.00 
G01 X8.5067 Y31.0040 
G01 X8.6479 Y31.0625 
G01 X8.7749 Y31.1474 
G01 X8.8830 Y31.2555 
G01 X8.9679 Y31.3825 
G01 X9.0264 Y31.5237 
G01 X9.0562 Y31.6736 
G01 X9.0562 Y31.8264 
G01 X9.0264 Y31.9763 
G01 X8.9679 Y32.1175 
G01 X8.8830 Y32.2445 
G01 X8.7749 Y32.3526 
G01 X8.6479 Y32.4375 
G01 X8.5067 Y32.4960 
G01 X8.3568 Y32.5258 
G01 X6.8832 Y32.5258 
G01 X6.7333 Y32.4960 
G01 X6.5921 Y32.4375 
G01 X6.4651 Y32.3526 
G01 X6.3570 Y32.2445 
G01 X6.2721 Y32.1175 
G01 X6.2136 Y31.9763 
G01 X6.1838 Y31.8264 
G01 X6.1838 Y31.6736 
G01 X6.2136 Y31.5237 
G01 X6.2721 Y31.3825 
G01 X6.3570 Y31.2555 
G01 X6.4651 Y31.1474 
G01 X6.5921 Y31.0625 
G01 X6.7333 Y31.0040 
G01 X6.8832 Y30.9742 
G00 Z2.5400 
G00 X6.8832 Y33.5142 
G01 Z-0.1500 F254.00 
G01 X8.3568 Y33.5142 F508.00 
G01 X8.5067 Y33.5440 
G01 X8.6479 Y33.6025 
G01 X8.7749 Y33.6874 
G01 X8.8830 Y33.7955 
G01 X8.9679 Y33.9225 
G01 X9.0264 Y34.0637 
G01 X9.0562 Y34.2136 
G01 X9.0562 Y34.3664 
G01 X9.0264 Y34.5163 
G01 X8.9679 Y34.6575 
G01 X8.8830 Y34.7845 
G01 X8.7749 Y34.8926 
G01 X8.6479 Y34.9775 
G01 X8.5067 Y35.0360 
G01 X8.3568 Y35.0658 
G01 X6.8832 Y35.0658 
G01 X6.7333 Y35.0360 
G01 X6.5921 Y34.9775 
G01 X6.4651 Y34.8926 
G01 X6.3570 Y34.7845 
G01 X6.2721 Y34.6575 
G01 X6.2136 Y34.5163 
G01 X6.1838 Y34.3664 
G01 X6.1838 Y34.2136 
G01 X6.2136 Y34.0637 
G01 X6.2721 Y33.9225 
G01 X6.3570 Y33.7955 
G01 X6.4651 Y33.6874 
G01 X6.5921 Y33.6025 
G01 X6.7333 Y33.5440 
G01 X6.8832 Y33.5142 
G00 Z2.5400 
G00 X6.8832 Y38.5942 
G01 Z-0.1500 F254.00 
G01 X8.3568 Y38.5942 F508.00 
G01 X8.5067 Y38.6240 
G01 X8.6479 Y38.6825 
G01 X8.7749 Y38.7674 
G01 X8.8830 Y38.8755 
G01 X8.9679 Y39.0025 
G01 X9.0264 Y39.1437 
G01 X9.0562 Y39.2936 
G01 X9.0562 Y39.4464 
G01 X9.0264 Y39.5963 
G01 X8.9679 Y39.7375 
G01 X8.8830 Y39.8645 
G01 X8.7749 Y39.9726 
G01 X8.6479 Y40.0575 
G01 X8.5067 Y40.1160 
G01 X8.3568 Y40.1458 
G01 X6.8832 Y40.1458 
G01 X6.7333 Y40.1160 
G01 X6.5921 Y40.0575 
G01 X6.4651 Y39.9726 
G01 X6.3570 Y39.8645 
G01 X6.2721 Y39.7375 
G01 X6.2136 Y39.5963 
G01 X6.1838 Y39.4464 
G01 X6.1838 Y39.2936 
G01 X6.2136 Y39.1437 
G01 X6.2721 Y39.0025 
G01 X6.3570 Y38.8755 
G01 X6.4651 Y38.7674 
G01 X6.5921 Y38.6825 
G01 X6.7333 Y38.6240 
G01 X6.8832 Y38.5942 
G00 Z2.5400 
G00 X14.5032 Y41.1342 
G01 Z-0.1500 F254.00 
G01 X15.6730 Y41.1342 F508.00 
G01 X16.3045 Y40.5027 
G01 X16.3727 Y40.4345 
G01 X16.4618 Y40.3976 
G01 X41.8096 Y40.3976 
G01 X48.0176 Y34.1896 
G01 X48.0176 Y30.4318 
G01 X48.0545 Y30.3427 
G01 X48.1227 Y30.2745 
G01 X48.2118 Y30.2376 
G01 X49.1916 Y30.2376 
G01 X49.1943 Y30.2241 
G01 X49.2605 Y30.0644 
G01 X49.3565 Y29.9207 
G01 X49.4787 Y29.7985 
G01 X49.6224 Y29.7025 
G01 X49.7821 Y29.6363 
G01 X49.9516 Y29.6026 
G01 X51.6484 Y29.6026 
G01 X51.8179 Y29.6363 
G01 X51.9776 Y29.7025 
G01 X52.1213 Y29.7985 
G01 X52.2435 Y29.9207 
G01 X52.3395 Y30.0644 
G01 X52.4057 Y30.2241 
G01 X52.4394 Y30.3936 
G01 X52.4394 Y30.5664 
G01 X52.4057 Y30.7359 
G01 X52.3395 Y30.8956 
G01 X52.2435 Y31.0393 
G01 X52.1213 Y31.1615 
G01 X51.9776 Y31.2575 
G01 X51.8179 Y31.3237 
G01 X51.6484 Y31.3574 
G01 X49.9516 Y31.3574 
G01 X49.7821 Y31.3237 
G01 X49.6224 Y31.2575 
G01 X49.4787 Y31.1615 
G01 X49.3565 Y31.0393 
G01 X49.2605 Y30.8956 
G01 X49.1943 Y30.7359 
G01 X49.1916 Y30.7224 
G01 X48.5024 Y30.7224 
G01 X48.5024 Y34.3382 
G01 X48.4655 Y34.4273 
G01 X48.3973 Y34.4955 
G01 X42.0473 Y40.8455 
G01 X41.9582 Y40.8824 
G01 X16.6104 Y40.8824 
G01 X16.2693 Y41.2235 
G01 X16.3949 Y41.3074 
G01 X16.5030 Y41.4155 
G01 X16.5879 Y41.5425 
G01 X16.6464 Y41.6837 
G01 X16.6762 Y41.8336 
G01 X16.6762 Y41.9864 
G01 X16.6464 Y42.1363 
G01 X16.5879 Y42.2775 
G01 X16.5030 Y42.4045 
G01 X16.3949 Y42.5126 
G01 X16.2679 Y42.5975 
G01 X16.1267 Y42.6560 
G01 X15.9768 Y42.6858 
G01 X14.5032 Y42.6858 
G01 X14.3533 Y42.6560 
G01 X14.2121 Y42.5975 
G01 X14.0851 Y42.5126 
G01 X13.9770 Y42.4045 
G01 X13.8921 Y42.2775 
G01 X13.8336 Y42.1363 
G01 X13.8038 Y41.9864 
G01 X13.8038 Y41.8336 
G01 X13.8336 Y41.6837 
G01 X13.8921 Y41.5425 
G01 X13.9770 Y41.4155 
G01 X14.0851 Y41.3074 
G01 X14.2121 Y41.2225 
G01 X14.3533 Y41.1640 
G01 X14.5032 Y41.1342 
G00 Z2.5400 
G00 X14.5032 Y36.0542 
G01 Z-0.1500 F254.00 
G01 X15.9768 Y36.0542 F508.00 
G01 X16.1267 Y36.0840 
G01 X16.2679 Y36.1425 
G01 X16.3949 Y36.2274 
G01 X16.5030 Y36.3355 
G01 X16.5879 Y36.4625 
G01 X16.6464 Y36.6037 
G01 X16.6762 Y36.7536 
G01 X16.6762 Y36.9064 
G01 X16.6464 Y37.0563 
G01 X16.5879 Y37.1975 
G01 X16.5030 Y37.3245 
G01 X16.3949 Y37.4326 
G01 X16.2679 Y37.5175 
G01 X16.1267 Y37.5760 
G01 X15.9768 Y37.6058 
G01 X14.5032 Y37.6058 
G01 X14.3533 Y37.5760 
G01 X14.2121 Y37.5175 
G01 X14.0851 Y37.4326 
G01 X13.9770 Y37.3245 
G01 X13.8921 Y37.1975 
G01 X13.8336 Y37.0563 
G01 X13.8038 Y36.9064 
G01 X13.8038 Y36.7536 
G01 X13.8336 Y36.6037 
G01 X13.8921 Y36.4625 
G01 X13.9770 Y36.3355 
G01 X14.0851 Y36.2274 
G01 X14.2121 Y36.1425 
G01 X14.3533 Y36.0840 
G01 X14.5032 Y36.0542 
G00 Z2.5400 
G00 X14.5032 Y33.5142 
G01 Z-0.1500 F254.00 
G01 X15.9768 Y33.5142 F508.00 
G01 X16.1267 Y33.5440 
G01 X16.2679 Y33.6025 
G01 X16.3949 Y33.6874 
G01 X16.5030 Y33.7955 
G01 X16.5879 Y33.9225 
G01 X16.6464 Y34.0637 
G01 X16.6762 Y34.2136 
G01 X16.6762 Y34.3664 
G01 X16.6464 Y34.5163 
G01 X16.5879 Y34.6575 
G01 X16.5030 Y34.7845 
G01 X16.3949 Y34.8926 
G01 X16.2679 Y34.9775 
G01 X16.1267 Y35.0360 
G01 X15.9768 Y35.0658 
G01 X14.5032 Y35.0658 
G01 X14.3533 Y35.0360 
G01 X14.2121 Y34.9775 
G01 X14.0851 Y34.8926 
G01 X13.9770 Y34.7845 
G01 X13.8921 Y34.6575 
G01 X13.8336 Y34.5163 
G01 X13.8038 Y34.3664 
G01 X13.8038 Y34.2136 
G01 X13.8336 Y34.0637 
G01 X13.8921 Y33.9225 
G01 X13.9770 Y33.7955 
G01 X14.0851 Y33.6874 
G01 X14.2121 Y33.6025 
G01 X14.3533 Y33.5440 
G01 X14.5032 Y33.5142 
G00 Z2.5400 
G00 X14.5032 Y30.9742 
G01 Z-0.1500 F254.00 
G01 X15.9768 Y30.9742 F508.00 
G01 X16.1267 Y31.0040 
G01 X16.2679 Y31.0625 
G01 X16.3949 Y31.1474 
G01 X16.5030 Y31.2555 
G01 X16.5879 Y31.3825 
G01 X16.6464 Y31.5237 
G01 X16.6762 Y31.6736 
G01 X16.6762 Y31.8264 
G01 X16.6464 Y31.9763 
G01 X16.5879 Y32.1175 
G01 X16.5030 Y32.2445 
G01 X16.3949 Y32.3526 
G01 X16.2693 Y32.4365 
G01 X16.6104 Y32.7776 
G01 X22.0920 Y32.7776 
G01 X22.1140 Y32.6667 
G01 X22.1725 Y32.5255 
G01 X22.2574 Y32.3985 
G01 X22.3655 Y32.2904 
G01 X22.4925 Y32.2055 
G01 X22.6337 Y32.1470 
G01 X22.7836 Y32.1172 
G01 X22.9364 Y32.1172 
G01 X23.0863 Y32.1470 
G01 X23.2275 Y32.2055 
G01 X23.3545 Y32.2904 
G01 X23.4626 Y32.3985 
G01 X23.5475 Y32.5255 
G01 X23.6060 Y32.6667 
G01 X23.6280 Y32.7776 
G01 X30.5282 Y32.7776 
G01 X30.6173 Y32.8145 
G01 X30.6855 Y32.8827 
G01 X33.8140 Y36.0112 
G01 X33.9108 Y35.9145 
G01 X34.6692 Y35.9145 
G01 X35.2055 Y36.4508 
G01 X35.2055 Y37.2092 
G01 X34.6692 Y37.7455 
G01 X33.9108 Y37.7455 
G01 X33.3745 Y37.2092 
G01 X33.3745 Y36.4508 
G01 X33.4712 Y36.3540 
G01 X30.3796 Y33.2624 
G01 X23.5462 Y33.2624 
G01 X23.4626 Y33.3875 
G01 X23.3545 Y33.4956 
G01 X23.2275 Y33.5805 
G01 X23.0863 Y33.6390 
G01 X22.9364 Y33.6688 
G01 X22.7836 Y33.6688 
G01 X22.6337 Y33.6390 
G01 X22.4925 Y33.5805 
G01 X22.3655 Y33.4956 
G01 X22.2574 Y33.3875 
G01 X22.1738 Y33.2624 
G01 X16.4618 Y33.2624 
G01 X16.3727 Y33.2255 
G01 X16.3045 Y33.1573 
G01 X15.6730 Y32.5258 
G01 X14.5032 Y32.5258 
G01 X14.3533 Y32.4960 
G01 X14.2121 Y32.4375 
G01 X14.0851 Y32.3526 
G01 X13.9770 Y32.2445 
G01 X13.8921 Y32.1175 
G01 X13.8336 Y31.9763 
G01 X13.8038 Y31.8264 
G01 X13.8038 Y31.6736 
G01 X13.8336 Y31.5237 
G01 X13.8921 Y31.3825 
G01 X13.9770 Y31.2555 
G01 X14.0851 Y31.1474 
G01 X14.2121 Y31.0625 
G01 X14.3533 Y31.0040 
G01 X14.5032 Y30.9742 
G00 Z2.5400 
G00 X14.5032 Y28.4342 
G01 Z-0.1500 F254.00 
G01 X15.6730 Y28.4342 F508.00 
G01 X16.3045 Y27.8027 
G01 X16.3727 Y27.7345 
G01 X16.4618 Y27.6976 
G01 X22.1738 Y27.6976 
G01 X22.2574 Y27.5725 
G01 X22.3655 Y27.4644 
G01 X22.4925 Y27.3795 
G01 X22.6337 Y27.3210 
G01 X22.7836 Y27.2912 
G01 X22.9364 Y27.2912 
G01 X23.0863 Y27.3210 
G01 X23.2275 Y27.3795 
G01 X23.3545 Y27.4644 
G01 X23.4626 Y27.5725 
G01 X23.5462 Y27.6976 
G01 X31.6496 Y27.6976 
G01 X33.4712 Y25.8759 
G01 X33.3745 Y25.7792 
G01 X33.3745 Y25.0208 
G01 X33.9108 Y24.4845 
G01 X34.6692 Y24.4845 
G01 X35.2055 Y25.0208 
G01 X35.2055 Y25.7792 
G01 X34.6692 Y26.3155 
G01 X33.9108 Y26.3155 
G01 X33.8140 Y26.2188 
G01 X31.9555 Y28.0773 
G01 X31.8873 Y28.1455 
G01 X31.7982 Y28.1824 
G01 X23.6280 Y28.1824 
G01 X23.6060 Y28.2933 
G01 X23.5475 Y28.4345 
G01 X23.4626 Y28.5615 
G01 X23.3545 Y28.6696 
G01 X23.2275 Y28.7545 
G01 X23.0863 Y28.8130 
G01 X22.9364 Y28.8428 
G01 X22.7836 Y28.8428 
G01 X22.6337 Y28.8130 
G01 X22.4925 Y28.7545 
G01 X22.3655 Y28.6696 
G01 X22.2574 Y28.5615 
G01 X22.1725 Y28.4345 
G01 X22.1140 Y28.2933 
G01 X22.0920 Y28.1824 
G01 X16.6104 Y28.1824 
G01 X16.2693 Y28.5235 
G01 X16.3949 Y28.6074 
G01 X16.5030 Y28.7155 
G01 X16.5879 Y28.8425 
G01 X16.6464 Y28.9837 
G01 X16.6762 Y29.1336 
G01 X16.6762 Y29.2864 
G01 X16.6464 Y29.4363 
G01 X16.5879 Y29.5775 
G01 X16.5030 Y29.7045 
G01 X16.3949 Y29.8126 
G01 X16.2679 Y29.8975 
G01 X16.1267 Y29.9560 
G01 X15.9768 Y29.9858 
G01 X14.5032 Y29.9858 
G01 X14.3533 Y29.9560 
G01 X14.2121 Y29.8975 
G01 X14.0851 Y29.8126 
G01 X13.9770 Y29.7045 
G01 X13.8921 Y29.5775 
G01 X13.8336 Y29.4363 
G01 X13.8038 Y29.2864 
G01 X13.8038 Y29.1336 
G01 X13.8336 Y28.9837 
G01 X13.8921 Y28.8425 
G01 X13.9770 Y28.7155 
G01 X14.0851 Y28.6074 
G01 X14.2121 Y28.5225 
G01 X14.3533 Y28.4640 
G01 X14.5032 Y28.4342 
G00 Z2.5400 
G00 X14.5032 Y23.3542 
G01 Z-0.1500 F254.00 
G01 X15.9768 Y23.3542 F508.00 
G01 X16.1267 Y23.3840 
G01 X16.2679 Y23.4425 
G01 X16.3949 Y23.5274 
G01 X16.5030 Y23.6355 
G01 X16.5879 Y23.7625 
G01 X16.6464 Y23.9037 
G01 X16.6762 Y24.0536 
G01 X16.6762 Y24.2064 
G01 X16.6464 Y24.3563 
G01 X16.5879 Y24.4975 
G01 X16.5030 Y24.6245 
G01 X16.3949 Y24.7326 
G01 X16.2679 Y24.8175 
G01 X16.1267 Y24.8760 
G01 X15.9768 Y24.9058 
G01 X14.5032 Y24.9058 
G01 X14.3533 Y24.8760 
G01 X14.2121 Y24.8175 
G01 X14.0851 Y24.7326 
G01 X13.9770 Y24.6245 
G01 X13.8921 Y24.4975 
G01 X13.8336 Y24.3563 
G01 X13.8038 Y24.2064 
G01 X13.8038 Y24.0536 
G01 X13.8336 Y23.9037 
G01 X13.8921 Y23.7625 
G01 X13.9770 Y23.6355 
G01 X14.0851 Y23.5274 
G01 X14.2121 Y23.4425 
G01 X14.3533 Y23.3840 
G01 X14.5032 Y23.3542 
G00 Z2.5400 
G00 X14.5032 Y20.8142 
G01 Z-0.1500 F254.00 
G01 X15.9768 Y20.8142 F508.00 
G01 X16.1267 Y20.8440 
G01 X16.2679 Y20.9025 
G01 X16.3949 Y20.9874 
G01 X16.5030 Y21.0955 
G01 X16.5879 Y21.2225 
G01 X16.6464 Y21.3637 
G01 X16.6762 Y21.5136 
G01 X16.6762 Y21.6664 
G01 X16.6464 Y21.8163 
G01 X16.5879 Y21.9575 
G01 X16.5030 Y22.0845 
G01 X16.3949 Y22.1926 
G01 X16.2693 Y22.2765 
G01 X17.8804 Y23.8876 
G01 X35.4596 Y23.8876 
G01 X40.4345 Y18.9127 
G01 X40.5027 Y18.8445 
G01 X40.5918 Y18.8076 
G01 X49.1916 Y18.8076 
G01 X49.1943 Y18.7941 
G01 X49.2605 Y18.6344 
G01 X49.3565 Y18.4907 
G01 X49.4787 Y18.3685 
G01 X49.6224 Y18.2725 
G01 X49.7821 Y18.2063 
G01 X49.9516 Y18.1726 
G01 X51.6484 Y18.1726 
G01 X51.8179 Y18.2063 
G01 X51.9776 Y18.2725 
G01 X52.1213 Y18.3685 
G01 X52.2435 Y18.4907 
G01 X52.3395 Y18.6344 
G01 X52.4057 Y18.7941 
G01 X52.4394 Y18.9636 
G01 X52.4394 Y19.1364 
G01 X52.4057 Y19.3059 
G01 X52.3395 Y19.4656 
G01 X52.2435 Y19.6093 
G01 X52.1213 Y19.7315 
G01 X51.9776 Y19.8275 
G01 X51.8179 Y19.8937 
G01 X51.6484 Y19.9274 
G01 X49.9516 Y19.9274 
G01 X49.7821 Y19.8937 
G01 X49.6224 Y19.8275 
G01 X49.4787 Y19.7315 
G01 X49.3565 Y19.6093 
G01 X49.2605 Y19.4656 
G01 X49.1943 Y19.3059 
G01 X49.1916 Y19.2924 
G01 X40.7404 Y19.2924 
G01 X35.6973 Y24.3355 
G01 X35.6082 Y24.3724 
G01 X17.7318 Y24.3724 
G01 X17.6427 Y24.3355 
G01 X17.5745 Y24.2673 
G01 X15.6730 Y22.3658 
G01 X14.5032 Y22.3658 
G01 X14.3533 Y22.3360 
G01 X14.2121 Y22.2775 
G01 X14.0851 Y22.1926 
G01 X13.9770 Y22.0845 
G01 X13.8921 Y21.9575 
G01 X13.8336 Y21.8163 
G01 X13.8038 Y21.6664 
G01 X13.8038 Y21.5136 
G01 X13.8336 Y21.3637 
G01 X13.8921 Y21.2225 
G01 X13.9770 Y21.0955 
G01 X14.0851 Y20.9874 
G01 X14.2121 Y20.9025 
G01 X14.3533 Y20.8440 
G01 X14.5032 Y20.8142 
G00 Z2.5400 
G00 X14.5032 Y18.2742 
G01 Z-0.1500 F254.00 
G01 X15.9768 Y18.2742 F508.00 
G01 X16.1267 Y18.3040 
G01 X16.2679 Y18.3625 
G01 X16.3949 Y18.4474 
G01 X16.5030 Y18.5555 
G01 X16.5879 Y18.6825 
G01 X16.6397 Y18.8076 
G01 X39.2696 Y18.8076 
G01 X40.4345 Y17.6427 
G01 X40.5027 Y17.5745 
G01 X40.5918 Y17.5376 
G01 X49.4296 Y17.5376 
G01 X49.6629 Y17.3043 
G01 X49.6224 Y17.2875 
G01 X49.4787 Y17.1915 
G01 X49.3565 Y17.0693 
G01 X49.2605 Y16.9256 
G01 X49.1943 Y16.7659 
G01 X49.1606 Y16.5964 
G01 X49.1606 Y16.4236 
G01 X49.1943 Y16.2541 
G01 X49.2605 Y16.0944 
G01 X49.3565 Y15.9507 
G01 X49.4787 Y15.8285 
G01 X49.6224 Y15.7325 
G01 X49.7821 Y15.6663 
G01 X49.9516 Y15.6326 
G01 X51.6484 Y15.6326 
G01 X51.8179 Y15.6663 
G01 X51.9776 Y15.7325 
G01 X52.1213 Y15.8285 
G01 X52.2435 Y15.9507 
G01 X52.3395 Y16.0944 
G01 X52.4057 Y16.2541 
G01 X52.4394 Y16.4236 
G01 X52.4394 Y16.5964 
G01 X52.4057 Y16.7659 
G01 X52.3395 Y16.9256 
G01 X52.2435 Y17.0693 
G01 X52.1213 Y17.1915 
G01 X51.9776 Y17.2875 
G01 X51.8179 Y17.3537 
G01 X51.6484 Y17.3874 
G01 X50.2654 Y17.3874 
G01 X49.6673 Y17.9855 
G01 X49.5782 Y18.0224 
G01 X40.7404 Y18.0224 
G01 X39.5073 Y19.2555 
G01 X39.4182 Y19.2924 
G01 X16.6397 Y19.2924 
G01 X16.5879 Y19.4175 
G01 X16.5030 Y19.5445 
G01 X16.3949 Y19.6526 
G01 X16.2679 Y19.7375 
G01 X16.1267 Y19.7960 
G01 X15.9768 Y19.8258 
G01 X14.5032 Y19.8258 
G01 X14.3533 Y19.7960 
G01 X14.2121 Y19.7375 
G01 X14.0851 Y19.6526 
G01 X13.9770 Y19.5445 
G01 X13.8921 Y19.4175 
G01 X13.8336 Y19.2763 
G01 X13.8038 Y19.1264 
G01 X13.8038 Y18.9736 
G01 X13.8336 Y18.8237 
G01 X13.8921 Y18.6825 
G01 X13.9770 Y18.5555 
G01 X14.0851 Y18.4474 
G01 X14.2121 Y18.3625 
G01 X14.3533 Y18.3040 
G01 X14.5032 Y18.2742 
G00 Z2.5400 
G00 X14.5032 Y15.7342 
G01 Z-0.1500 F254.00 
G01 X15.9768 Y15.7342 F508.00 
G01 X16.1267 Y15.7640 
G01 X16.2679 Y15.8225 
G01 X16.3949 Y15.9074 
G01 X16.5030 Y16.0155 
G01 X16.5879 Y16.1425 
G01 X16.6397 Y16.2676 
G01 X48.1596 Y16.2676 
G01 X49.6629 Y14.7643 
G01 X49.6224 Y14.7475 
G01 X49.4787 Y14.6515 
G01 X49.3565 Y14.5293 
G01 X49.2605 Y14.3856 
G01 X49.1943 Y14.2259 
G01 X49.1606 Y14.0564 
G01 X49.1606 Y13.8836 
G01 X49.1943 Y13.7141 
G01 X49.2605 Y13.5544 
G01 X49.3565 Y13.4107 
G01 X49.4787 Y13.2885 
G01 X49.6224 Y13.1925 
G01 X49.7821 Y13.1263 
G01 X49.9516 Y13.0926 
G01 X51.6484 Y13.0926 
G01 X51.8179 Y13.1263 
G01 X51.9776 Y13.1925 
G01 X52.1213 Y13.2885 
G01 X52.2435 Y13.4107 
G01 X52.3395 Y13.5544 
G01 X52.4057 Y13.7141 
G01 X52.4394 Y13.8836 
G01 X52.4394 Y14.0564 
G01 X52.4057 Y14.2259 
G01 X52.3395 Y14.3856 
G01 X52.2435 Y14.5293 
G01 X52.1213 Y14.6515 
G01 X51.9776 Y14.7475 
G01 X51.8179 Y14.8137 
G01 X51.6484 Y14.8474 
G01 X50.2654 Y14.8474 
G01 X48.3973 Y16.7155 
G01 X48.3082 Y16.7524 
G01 X16.6397 Y16.7524 
G01 X16.5879 Y16.8775 
G01 X16.5030 Y17.0045 
G01 X16.3949 Y17.1126 
G01 X16.2679 Y17.1975 
G01 X16.1267 Y17.2560 
G01 X15.9768 Y17.2858 
G01 X14.5032 Y17.2858 
G01 X14.3533 Y17.2560 
G01 X14.2121 Y17.1975 
G01 X14.0851 Y17.1126 
G01 X13.9770 Y17.0045 
G01 X13.8921 Y16.8775 
G01 X13.8336 Y16.7363 
G01 X13.8038 Y16.5864 
G01 X13.8038 Y16.4336 
G01 X13.8336 Y16.2837 
G01 X13.8921 Y16.1425 
G01 X13.9770 Y16.0155 
G01 X14.0851 Y15.9074 
G01 X14.2121 Y15.8225 
G01 X14.3533 Y15.7640 
G01 X14.5032 Y15.7342 
G00 Z2.5400 
G00 X15.9768 Y13.1942 
G01 Z-0.1500 F254.00 
G01 X16.1267 Y13.2240 F508.00 
G01 X16.2679 Y13.2825 
G01 X16.3949 Y13.3674 
G01 X16.5030 Y13.4755 
G01 X16.5879 Y13.6025 
G01 X16.6464 Y13.7437 
G01 X16.6762 Y13.8936 
G01 X16.6762 Y14.0464 
G01 X16.6464 Y14.1963 
G01 X16.5879 Y14.3375 
G01 X16.5030 Y14.4645 
G01 X16.3949 Y14.5726 
G01 X16.2679 Y14.6575 
G01 X16.1267 Y14.7160 
G01 X15.9768 Y14.7458 
G01 X14.5032 Y14.7458 
G01 X14.3533 Y14.7160 
G01 X14.2121 Y14.6575 
G01 X14.0851 Y14.5726 
G01 X13.9770 Y14.4645 
G01 X13.8921 Y14.3375 
G01 X13.8336 Y14.1963 
G01 X13.8038 Y14.0464 
G01 X13.8038 Y13.8936 
G01 X13.8336 Y13.7437 
G01 X13.8921 Y13.6025 
G01 X13.9770 Y13.4755 
G01 X14.0851 Y13.3674 
G01 X14.2107 Y13.2835 
G01 X12.5627 Y11.6355 
G01 X12.4945 Y11.5673 
G01 X12.4576 Y11.4782 
G01 X12.4576 Y7.5718 
G01 X12.4945 Y7.4827 
G01 X12.5627 Y7.4145 
G01 X12.6518 Y7.3776 
G01 X17.8282 Y7.3776 
G01 X17.9173 Y7.4145 
G01 X21.6904 Y11.1876 
G01 X49.1916 Y11.1876 
G01 X49.1943 Y11.1741 
G01 X49.2605 Y11.0144 
G01 X49.3565 Y10.8707 
G01 X49.4787 Y10.7485 
G01 X49.6224 Y10.6525 
G01 X49.7821 Y10.5863 
G01 X49.9516 Y10.5526 
G01 X51.6484 Y10.5526 
G01 X51.8179 Y10.5863 
G01 X51.9776 Y10.6525 
G01 X52.1213 Y10.7485 
G01 X52.2435 Y10.8707 
G01 X52.3395 Y11.0144 
G01 X52.4057 Y11.1741 
G01 X52.4394 Y11.3436 
G01 X52.4394 Y11.5164 
G01 X52.4057 Y11.6859 
G01 X52.3395 Y11.8456 
G01 X52.2435 Y11.9893 
G01 X52.1213 Y12.1115 
G01 X51.9776 Y12.2075 
G01 X51.8179 Y12.2737 
G01 X51.6484 Y12.3074 
G01 X49.9516 Y12.3074 
G01 X49.7821 Y12.2737 
G01 X49.6224 Y12.2075 
G01 X49.4787 Y12.1115 
G01 X49.3565 Y11.9893 
G01 X49.2605 Y11.8456 
G01 X49.1943 Y11.6859 
G01 X49.1916 Y11.6724 
G01 X21.5418 Y11.6724 
G01 X21.4527 Y11.6355 
G01 X21.3845 Y11.5673 
G01 X17.6796 Y7.8624 
G01 X12.9424 Y7.8624 
G01 X12.9424 Y11.3296 
G01 X14.8070 Y13.1942 
G01 X15.9768 Y13.1942 
G00 Z2.5400 
G00 X14.5032 Y10.6542 
G01 Z-0.1500 F254.00 
G01 X15.9768 Y10.6542 F508.00 
G01 X16.1267 Y10.6840 
G01 X16.2679 Y10.7425 
G01 X16.3949 Y10.8274 
G01 X16.5030 Y10.9355 
G01 X16.5879 Y11.0625 
G01 X16.6464 Y11.2037 
G01 X16.6762 Y11.3536 
G01 X16.6762 Y11.5064 
G01 X16.6464 Y11.6563 
G01 X16.5879 Y11.7975 
G01 X16.5030 Y11.9245 
G01 X16.3949 Y12.0326 
G01 X16.2679 Y12.1175 
G01 X16.1267 Y12.1760 
G01 X15.9768 Y12.2058 
G01 X14.5032 Y12.2058 
G01 X14.3533 Y12.1760 
G01 X14.2121 Y12.1175 
G01 X14.0851 Y12.0326 
G01 X13.9770 Y11.9245 
G01 X13.8921 Y11.7975 
G01 X13.8336 Y11.6563 
G01 X13.8038 Y11.5064 
G01 X13.8038 Y11.3536 
G01 X13.8336 Y11.2037 
G01 X13.8921 Y11.0625 
G01 X13.9770 Y10.9355 
G01 X14.0851 Y10.8274 
G01 X14.2121 Y10.7425 
G01 X14.3533 Y10.6840 
G01 X14.5032 Y10.6542 
G00 Z2.5400 
G00 X51.6484 Y9.7674 
G01 Z-0.1500 F254.00 
G01 X49.9516 Y9.7674 F508.00 
G01 X49.7821 Y9.7337 
G01 X49.6224 Y9.6675 
G01 X49.4787 Y9.5715 
G01 X49.3565 Y9.4493 
G01 X49.2605 Y9.3056 
G01 X49.1943 Y9.1459 
G01 X49.1606 Y8.9764 
G01 X49.1606 Y8.8036 
G01 X49.1943 Y8.6341 
G01 X49.2605 Y8.4744 
G01 X49.3565 Y8.3307 
G01 X49.4787 Y8.2085 
G01 X49.6224 Y8.1125 
G01 X49.7821 Y8.0463 
G01 X49.9516 Y8.0126 
G01 X51.6484 Y8.0126 
G01 X51.8179 Y8.0463 
G01 X51.9776 Y8.1125 
G01 X52.1213 Y8.2085 
G01 X52.2435 Y8.3307 
G01 X52.3395 Y8.4744 
G01 X52.4057 Y8.6341 
G01 X52.4394 Y8.8036 
G01 X52.4394 Y8.9764 
G01 X52.4057 Y9.1459 
G01 X52.3395 Y9.3056 
G01 X52.2435 Y9.4493 
G01 X52.1213 Y9.5715 
G01 X51.9776 Y9.6675 
G01 X51.8179 Y9.7337 
G01 X51.6484 Y9.7674 
G00 Z2.5400 
G00 X51.6484 Y22.4674 
G01 Z-0.1500 F254.00 
G01 X49.9516 Y22.4674 F508.00 
G01 X49.7821 Y22.4337 
G01 X49.6224 Y22.3675 
G01 X49.4787 Y22.2715 
G01 X49.3565 Y22.1493 
G01 X49.2605 Y22.0056 
G01 X49.1943 Y21.8459 
G01 X49.1606 Y21.6764 
G01 X49.1606 Y21.5036 
G01 X49.1943 Y21.3341 
G01 X49.2605 Y21.1744 
G01 X49.3565 Y21.0307 
G01 X49.4787 Y20.9085 
G01 X49.6224 Y20.8125 
G01 X49.7821 Y20.7463 
G01 X49.9516 Y20.7126 
G01 X51.6484 Y20.7126 
G01 X51.8179 Y20.7463 
G01 X51.9776 Y20.8125 
G01 X52.1213 Y20.9085 
G01 X52.2435 Y21.0307 
G01 X52.3395 Y21.1744 
G01 X52.4057 Y21.3341 
G01 X52.4394 Y21.5036 
G01 X52.4394 Y21.6764 
G01 X52.4057 Y21.8459 
G01 X52.3395 Y22.0056 
G01 X52.2435 Y22.1493 
G01 X52.1213 Y22.2715 
G01 X51.9776 Y22.3675 
G01 X51.8179 Y22.4337 
G01 X51.6484 Y22.4674 
G00 Z2.5400 
G00 X51.6484 Y25.0074 
G01 Z-0.1500 F254.00 
G01 X49.9516 Y25.0074 F508.00 
G01 X49.7821 Y24.9737 
G01 X49.6224 Y24.9075 
G01 X49.4787 Y24.8115 
G01 X49.3565 Y24.6893 
G01 X49.2605 Y24.5456 
G01 X49.1943 Y24.3859 
G01 X49.1606 Y24.2164 
G01 X49.1606 Y24.0436 
G01 X49.1943 Y23.8741 
G01 X49.2605 Y23.7144 
G01 X49.3565 Y23.5707 
G01 X49.4787 Y23.4485 
G01 X49.6224 Y23.3525 
G01 X49.7821 Y23.2863 
G01 X49.9516 Y23.2526 
G01 X51.6484 Y23.2526 
G01 X51.8179 Y23.2863 
G01 X51.9776 Y23.3525 
G01 X52.1213 Y23.4485 
G01 X52.2435 Y23.5707 
G01 X52.3395 Y23.7144 
G01 X52.4057 Y23.8741 
G01 X52.4394 Y24.0436 
G01 X52.4394 Y24.2164 
G01 X52.4057 Y24.3859 
G01 X52.3395 Y24.5456 
G01 X52.2435 Y24.6893 
G01 X52.1213 Y24.8115 
G01 X51.9776 Y24.9075 
G01 X51.8179 Y24.9737 
G01 X51.6484 Y25.0074 
G00 Z2.5400 
G00 X51.6484 Y27.5474 
G01 Z-0.1500 F254.00 
G01 X50.2654 Y27.5474 F508.00 
G01 X39.5073 Y38.3055 
G01 X39.4182 Y38.3424 
G01 X16.6104 Y38.3424 
G01 X16.2693 Y38.6835 
G01 X16.3949 Y38.7674 
G01 X16.5030 Y38.8755 
G01 X16.5879 Y39.0025 
G01 X16.6464 Y39.1437 
G01 X16.6762 Y39.2936 
G01 X16.6762 Y39.4464 
G01 X16.6464 Y39.5963 
G01 X16.5879 Y39.7375 
G01 X16.5030 Y39.8645 
G01 X16.3949 Y39.9726 
G01 X16.2679 Y40.0575 
G01 X16.1267 Y40.1160 
G01 X15.9768 Y40.1458 
G01 X14.5032 Y40.1458 
G01 X14.3533 Y40.1160 
G01 X14.2121 Y40.0575 
G01 X14.0851 Y39.9726 
G01 X13.9770 Y39.8645 
G01 X13.8921 Y39.7375 
G01 X13.8336 Y39.5963 
G01 X13.8038 Y39.4464 
G01 X13.8038 Y39.2936 
G01 X13.8336 Y39.1437 
G01 X13.8921 Y39.0025 
G01 X13.9770 Y38.8755 
G01 X14.0851 Y38.7674 
G01 X14.2121 Y38.6825 
G01 X14.3533 Y38.6240 
G01 X14.5032 Y38.5942 
G01 X15.6730 Y38.5942 
G01 X16.3045 Y37.9627 
G01 X16.3727 Y37.8945 
G01 X16.4618 Y37.8576 
G01 X39.2696 Y37.8576 
G01 X49.6629 Y27.4643 
G01 X49.6224 Y27.4475 
G01 X49.4787 Y27.3515 
G01 X49.3565 Y27.2293 
G01 X49.2605 Y27.0856 
G01 X49.1943 Y26.9259 
G01 X49.1606 Y26.7564 
G01 X49.1606 Y26.5836 
G01 X49.1943 Y26.4141 
G01 X49.2605 Y26.2544 
G01 X49.3565 Y26.1107 
G01 X49.4787 Y25.9885 
G01 X49.6224 Y25.8925 
G01 X49.7821 Y25.8263 
G01 X49.9516 Y25.7926 
G01 X51.6484 Y25.7926 
G01 X51.8179 Y25.8263 
G01 X51.9776 Y25.8925 
G01 X52.1213 Y25.9885 
G01 X52.2435 Y26.1107 
G01 X52.3395 Y26.2544 
G01 X52.4057 Y26.4141 
G01 X52.4394 Y26.5836 
G01 X52.4394 Y26.7564 
G01 X52.4057 Y26.9259 
G01 X52.3395 Y27.0856 
G01 X52.2435 Y27.2293 
G01 X52.1213 Y27.3515 
G01 X51.9776 Y27.4475 
G01 X51.8179 Y27.5137 
G01 X51.6484 Y27.5474 
G00 Z2.5400 
G00 X51.6484 Y33.8974 
G01 Z-0.1500 F254.00 
G01 X50.2654 Y33.8974 F508.00 
G01 X40.7773 Y43.3855 
G01 X40.6882 Y43.4224 
G01 X8.8418 Y43.4224 
G01 X8.7527 Y43.3855 
G01 X8.6845 Y43.3173 
G01 X8.0530 Y42.6858 
G01 X6.8832 Y42.6858 
G01 X6.7333 Y42.6560 
G01 X6.5921 Y42.5975 
G01 X6.4651 Y42.5126 
G01 X6.3570 Y42.4045 
G01 X6.2721 Y42.2775 
G01 X6.2136 Y42.1363 
G01 X6.1838 Y41.9864 
G01 X6.1838 Y41.8336 
G01 X6.2136 Y41.6837 
G01 X6.2721 Y41.5425 
G01 X6.3570 Y41.4155 
G01 X6.4651 Y41.3074 
G01 X6.5921 Y41.2225 
G01 X6.7333 Y41.1640 
G01 X6.8832 Y41.1342 
G01 X8.3568 Y41.1342 
G01 X8.5067 Y41.1640 
G01 X8.6479 Y41.2225 
G01 X8.7749 Y41.3074 
G01 X8.8830 Y41.4155 
G01 X8.9679 Y41.5425 
G01 X9.0264 Y41.6837 
G01 X9.0562 Y41.8336 
G01 X9.0562 Y41.9864 
G01 X9.0264 Y42.1363 
G01 X8.9679 Y42.2775 
G01 X8.8830 Y42.4045 
G01 X8.7749 Y42.5126 
G01 X8.6493 Y42.5965 
G01 X8.9904 Y42.9376 
G01 X40.5396 Y42.9376 
G01 X49.6629 Y33.8143 
G01 X49.6224 Y33.7975 
G01 X49.4787 Y33.7015 
G01 X49.3565 Y33.5793 
G01 X49.2605 Y33.4356 
G01 X49.1943 Y33.2759 
G01 X49.1606 Y33.1064 
G01 X49.1606 Y32.9336 
G01 X49.1943 Y32.7641 
G01 X49.2605 Y32.6044 
G01 X49.3565 Y32.4607 
G01 X49.4787 Y32.3385 
G01 X49.6224 Y32.2425 
G01 X49.7821 Y32.1763 
G01 X49.9516 Y32.1426 
G01 X51.6484 Y32.1426 
G01 X51.8179 Y32.1763 
G01 X51.9776 Y32.2425 
G01 X52.1213 Y32.3385 
G01 X52.2435 Y32.4607 
G01 X52.3395 Y32.6044 
G01 X52.4057 Y32.7641 
G01 X52.4394 Y32.9336 
G01 X52.4394 Y33.1064 
G01 X52.4057 Y33.2759 
G01 X52.3395 Y33.4356 
G01 X52.2435 Y33.5793 
G01 X52.1213 Y33.7015 
G01 X51.9776 Y33.7975 
G01 X51.8179 Y33.8637 
G01 X51.6484 Y33.8974 
G00 Z2.5400 
G00 X51.6484 Y36.4374 
G01 Z-0.1500 F254.00 
G01 X49.9516 Y36.4374 F508.00 
G01 X49.7821 Y36.4037 
G01 X49.6224 Y36.3375 
G01 X49.4787 Y36.2415 
G01 X49.3565 Y36.1193 
G01 X49.2605 Y35.9756 
G01 X49.1943 Y35.8159 
G01 X49.1606 Y35.6464 
G01 X49.1606 Y35.4736 
G01 X49.1943 Y35.3041 
G01 X49.2605 Y35.1444 
G01 X49.3565 Y35.0007 
G01 X49.4787 Y34.8785 
G01 X49.6224 Y34.7825 
G01 X49.7821 Y34.7163 
G01 X49.9516 Y34.6826 
G01 X51.6484 Y34.6826 
G01 X51.8179 Y34.7163 
G01 X51.9776 Y34.7825 
G01 X52.1213 Y34.8785 
G01 X52.2435 Y35.0007 
G01 X52.3395 Y35.1444 
G01 X52.4057 Y35.3041 
G01 X52.4394 Y35.4736 
G01 X52.4394 Y35.6464 
G01 X52.4057 Y35.8159 
G01 X52.3395 Y35.9756 
G01 X52.2435 Y36.1193 
G01 X52.1213 Y36.2415 
G01 X51.9776 Y36.3375 
G01 X51.8179 Y36.4037 
G01 X51.6484 Y36.4374 
G00 Z2.5400 
G00 X51.6484 Y38.9774 
G01 Z-0.1500 F254.00 
G01 X50.2654 Y38.9774 F508.00 
G01 X44.5873 Y44.6555 
G01 X44.4982 Y44.6924 
G01 X5.0318 Y44.6924 
G01 X4.9427 Y44.6555 
G01 X4.8745 Y44.5873 
G01 X4.8376 Y44.4982 
G01 X4.8376 Y39.3218 
G01 X4.8745 Y39.2327 
G01 X4.9427 Y39.1645 
G01 X6.5907 Y37.5165 
G01 X6.4651 Y37.4326 
G01 X6.3570 Y37.3245 
G01 X6.2721 Y37.1975 
G01 X6.2136 Y37.0563 
G01 X6.1838 Y36.9064 
G01 X6.1838 Y36.7536 
G01 X6.2136 Y36.6037 
G01 X6.2721 Y36.4625 
G01 X6.3570 Y36.3355 
G01 X6.4651 Y36.2274 
G01 X6.5921 Y36.1425 
G01 X6.7333 Y36.0840 
G01 X6.8832 Y36.0542 
G01 X8.3568 Y36.0542 
G01 X8.5067 Y36.0840 
G01 X8.6479 Y36.1425 
G01 X8.7749 Y36.2274 
G01 X8.8830 Y36.3355 
G01 X8.9679 Y36.4625 
G01 X9.0264 Y36.6037 
G01 X9.0562 Y36.7536 
G01 X9.0562 Y36.9064 
G01 X9.0264 Y37.0563 
G01 X8.9679 Y37.1975 
G01 X8.8830 Y37.3245 
G01 X8.7749 Y37.4326 
G01 X8.6479 Y37.5175 
G01 X8.5067 Y37.5760 
G01 X8.3568 Y37.6058 
G01 X7.1870 Y37.6058 
G01 X5.3224 Y39.4704 
G01 X5.3224 Y44.2076 
G01 X44.3496 Y44.2076 
G01 X49.6629 Y38.8943 
G01 X49.6224 Y38.8775 
G01 X49.4787 Y38.7815 
G01 X49.3565 Y38.6593 
G01 X49.2605 Y38.5156 
G01 X49.1943 Y38.3559 
G01 X49.1606 Y38.1864 
G01 X49.1606 Y38.0136 
G01 X49.1943 Y37.8441 
G01 X49.2605 Y37.6844 
G01 X49.3565 Y37.5407 
G01 X49.4787 Y37.4185 
G01 X49.6224 Y37.3225 
G01 X49.7821 Y37.2563 
G01 X49.9516 Y37.2226 
G01 X51.6484 Y37.2226 
G01 X51.8179 Y37.2563 
G01 X51.9776 Y37.3225 
G01 X52.1213 Y37.4185 
G01 X52.2435 Y37.5407 
G01 X52.3395 Y37.6844 
G01 X52.4057 Y37.8441 
G01 X52.4394 Y38.0136 
G01 X52.4394 Y38.1864 
G01 X52.4057 Y38.3559 
G01 X52.3395 Y38.5156 
G01 X52.2435 Y38.6593 
G01 X52.1213 Y38.7815 
G01 X51.9776 Y38.8775 
G01 X51.8179 Y38.9437 
G01 X51.6484 Y38.9774 
G00 Z2.5400 
G00 X51.6484 Y41.5174 
G01 Z-0.1500 F254.00 
G01 X49.9516 Y41.5174 F508.00 
G01 X49.7821 Y41.4837 
G01 X49.6224 Y41.4175 
G01 X49.4787 Y41.3215 
G01 X49.3565 Y41.1993 
G01 X49.2605 Y41.0556 
G01 X49.1943 Y40.8959 
G01 X49.1606 Y40.7264 
G01 X49.1606 Y40.5536 
G01 X49.1943 Y40.3841 
G01 X49.2605 Y40.2244 
G01 X49.3565 Y40.0807 
G01 X49.4787 Y39.9585 
G01 X49.6224 Y39.8625 
G01 X49.7821 Y39.7963 
G01 X49.9516 Y39.7626 
G01 X51.6484 Y39.7626 
G01 X51.8179 Y39.7963 
G01 X51.9776 Y39.8625 
G01 X52.1213 Y39.9585 
G01 X52.2435 Y40.0807 
G01 X52.3395 Y40.2244 
G01 X52.4057 Y40.3841 
G01 X52.4394 Y40.5536 
G01 X52.4394 Y40.7264 
G01 X52.4057 Y40.8959 
G01 X52.3395 Y41.0556 
G01 X52.2435 Y41.1993 
G01 X52.1213 Y41.3215 
G01 X51.9776 Y41.4175 
G01 X51.8179 Y41.4837 
G01 X51.6484 Y41.5174 
G00 Z2.5400 
G00 X51.6484 Y44.0574 
G01 Z-0.1500 F254.00 
G01 X49.9516 Y44.0574 F508.00 
G01 X49.7821 Y44.0237 
G01 X49.6224 Y43.9575 
G01 X49.4787 Y43.8615 
G01 X49.3565 Y43.7393 
G01 X49.2605 Y43.5956 
G01 X49.1943 Y43.4359 
G01 X49.1606 Y43.2664 
G01 X49.1606 Y43.0936 
G01 X49.1943 Y42.9241 
G01 X49.2605 Y42.7644 
G01 X49.3565 Y42.6207 
G01 X49.4787 Y42.4985 
G01 X49.6224 Y42.4025 
G01 X49.7821 Y42.3363 
G01 X49.9516 Y42.3026 
G01 X51.6484 Y42.3026 
G01 X51.8179 Y42.3363 
G01 X51.9776 Y42.4025 
G01 X52.1213 Y42.4985 
G01 X52.2435 Y42.6207 
G01 X52.3395 Y42.7644 
G01 X52.4057 Y42.9241 
G01 X52.4394 Y43.0936 
G01 X52.4394 Y43.2664 
G01 X52.4057 Y43.4359 
G01 X52.3395 Y43.5956 
G01 X52.2435 Y43.7393 
G01 X52.1213 Y43.8615 
G01 X51.9776 Y43.9575 
G01 X51.8179 Y44.0237 
G01 X51.6484 Y44.0574 
G00 Z2.5400 
G00 X3.3884 Y12.3074 
G01 Z-0.1500 F254.00 
G01 X1.6916 Y12.3074 F508.00 
G01 X1.5221 Y12.2737 
G01 X1.3624 Y12.2075 
G01 X1.2187 Y12.1115 
G01 X1.0965 Y11.9893 
G01 X1.0005 Y11.8456 
G01 X0.9343 Y11.6859 
G01 X0.9006 Y11.5164 
G01 X0.9006 Y11.3436 
G01 X0.9343 Y11.1741 
G01 X1.0005 Y11.0144 
G01 X1.0965 Y10.8707 
G01 X1.2187 Y10.7485 
G01 X1.3624 Y10.6525 
G01 X1.5221 Y10.5863 
G01 X1.6916 Y10.5526 
G01 X3.3884 Y10.5526 
G01 X3.5579 Y10.5863 
G01 X3.7176 Y10.6525 
G01 X3.8613 Y10.7485 
G01 X3.9835 Y10.8707 
G01 X4.0795 Y11.0144 
G01 X4.1457 Y11.1741 
G01 X4.1484 Y11.1876 
G01 X6.2203 Y11.1876 
G01 X6.2721 Y11.0625 
G01 X6.3570 Y10.9355 
G01 X6.4651 Y10.8274 
G01 X6.5921 Y10.7425 
G01 X6.7333 Y10.6840 
G01 X6.8832 Y10.6542 
G01 X8.3568 Y10.6542 
G01 X8.5067 Y10.6840 
G01 X8.6479 Y10.7425 
G01 X8.7749 Y10.8274 
G01 X8.8830 Y10.9355 
G01 X8.9679 Y11.0625 
G01 X9.0264 Y11.2037 
G01 X9.0562 Y11.3536 
G01 X9.0562 Y11.5064 
G01 X9.0264 Y11.6563 
G01 X8.9679 Y11.7975 
G01 X8.8830 Y11.9245 
G01 X8.7749 Y12.0326 
G01 X8.6479 Y12.1175 
G01 X8.5067 Y12.1760 
G01 X8.3568 Y12.2058 
G01 X6.8832 Y12.2058 
G01 X6.7333 Y12.1760 
G01 X6.5921 Y12.1175 
G01 X6.4651 Y12.0326 
G01 X6.3570 Y11.9245 
G01 X6.2721 Y11.7975 
G01 X6.2203 Y11.6724 
G01 X4.1484 Y11.6724 
G01 X4.1457 Y11.6859 
G01 X4.0795 Y11.8456 
G01 X3.9835 Y11.9893 
G01 X3.8613 Y12.1115 
G01 X3.7176 Y12.2075 
G01 X3.5579 Y12.2737 
G01 X3.3884 Y12.3074 
G00 Z2.5400 
G00 X3.3884 Y17.3874 
G01 Z-0.1500 F254.00 
G01 X1.6916 Y17.3874 F508.00 
G01 X1.5221 Y17.3537 
G01 X1.3624 Y17.2875 
G01 X1.2187 Y17.1915 
G01 X1.0965 Y17.0693 
G01 X1.0005 Y16.9256 
G01 X0.9343 Y16.7659 
G01 X0.9006 Y16.5964 
G01 X0.9006 Y16.4236 
G01 X0.9343 Y16.2541 
G01 X1.0005 Y16.0944 
G01 X1.0965 Y15.9507 
G01 X1.2187 Y15.8285 
G01 X1.3624 Y15.7325 
G01 X1.5221 Y15.6663 
G01 X1.6916 Y15.6326 
G01 X3.3884 Y15.6326 
G01 X3.5579 Y15.6663 
G01 X3.7176 Y15.7325 
G01 X3.8613 Y15.8285 
G01 X3.9835 Y15.9507 
G01 X4.0795 Y16.0944 
G01 X4.1457 Y16.2541 
G01 X4.1484 Y16.2676 
G01 X6.2203 Y16.2676 
G01 X6.2721 Y16.1425 
G01 X6.3570 Y16.0155 
G01 X6.4651 Y15.9074 
G01 X6.5921 Y15.8225 
G01 X6.7333 Y15.7640 
G01 X6.8832 Y15.7342 
G01 X8.3568 Y15.7342 
G01 X8.5067 Y15.7640 
G01 X8.6479 Y15.8225 
G01 X8.7749 Y15.9074 
G01 X8.8830 Y16.0155 
G01 X8.9679 Y16.1425 
G01 X9.0264 Y16.2837 
G01 X9.0562 Y16.4336 
G01 X9.0562 Y16.5864 
G01 X9.0264 Y16.7363 
G01 X8.9679 Y16.8775 
G01 X8.8830 Y17.0045 
G01 X8.7749 Y17.1126 
G01 X8.6479 Y17.1975 
G01 X8.5067 Y17.2560 
G01 X8.3568 Y17.2858 
G01 X6.8832 Y17.2858 
G01 X6.7333 Y17.2560 
G01 X6.5921 Y17.1975 
G01 X6.4651 Y17.1126 
G01 X6.3570 Y17.0045 
G01 X6.2721 Y16.8775 
G01 X6.2203 Y16.7524 
G01 X4.1484 Y16.7524 
G01 X4.1457 Y16.7659 
G01 X4.0795 Y16.9256 
G01 X3.9835 Y17.0693 
G01 X3.8613 Y17.1915 
G01 X3.7176 Y17.2875 
G01 X3.5579 Y17.3537 
G01 X3.3884 Y17.3874 
G00 Z2.5400 
G00 X3.3884 Y22.4674 
G01 Z-0.1500 F254.00 
G01 X1.6916 Y22.4674 F508.00 
G01 X1.5221 Y22.4337 
G01 X1.3624 Y22.3675 
G01 X1.2187 Y22.2715 
G01 X1.0965 Y22.1493 
G01 X1.0005 Y22.0056 
G01 X0.9343 Y21.8459 
G01 X0.9006 Y21.6764 
G01 X0.9006 Y21.5036 
G01 X0.9343 Y21.3341 
G01 X1.0005 Y21.1744 
G01 X1.0965 Y21.0307 
G01 X1.2187 Y20.9085 
G01 X1.3624 Y20.8125 
G01 X1.5221 Y20.7463 
G01 X1.6916 Y20.7126 
G01 X3.3884 Y20.7126 
G01 X3.5579 Y20.7463 
G01 X3.7176 Y20.8125 
G01 X3.8613 Y20.9085 
G01 X3.9835 Y21.0307 
G01 X4.0795 Y21.1744 
G01 X4.1457 Y21.3341 
G01 X4.1484 Y21.3476 
G01 X6.2203 Y21.3476 
G01 X6.2721 Y21.2225 
G01 X6.3570 Y21.0955 
G01 X6.4651 Y20.9874 
G01 X6.5921 Y20.9025 
G01 X6.7333 Y20.8440 
G01 X6.8832 Y20.8142 
G01 X8.3568 Y20.8142 
G01 X8.5067 Y20.8440 
G01 X8.6479 Y20.9025 
G01 X8.7749 Y20.9874 
G01 X8.8830 Y21.0955 
G01 X8.9679 Y21.2225 
G01 X9.0264 Y21.3637 
G01 X9.0562 Y21.5136 
G01 X9.0562 Y21.6664 
G01 X9.0264 Y21.8163 
G01 X8.9679 Y21.9575 
G01 X8.8830 Y22.0845 
G01 X8.7749 Y22.1926 
G01 X8.6479 Y22.2775 
G01 X8.5067 Y22.3360 
G01 X8.3568 Y22.3658 
G01 X6.8832 Y22.3658 
G01 X6.7333 Y22.3360 
G01 X6.5921 Y22.2775 
G01 X6.4651 Y22.1926 
G01 X6.3570 Y22.0845 
G01 X6.2721 Y21.9575 
G01 X6.2203 Y21.8324 
G01 X4.1484 Y21.8324 
G01 X4.1457 Y21.8459 
G01 X4.0795 Y22.0056 
G01 X3.9835 Y22.1493 
G01 X3.8613 Y22.2715 
G01 X3.7176 Y22.3675 
G01 X3.5579 Y22.4337 
G01 X3.3884 Y22.4674 
G00 Z2.5400 
G00 X3.3884 Y27.5474 
G01 Z-0.1500 F254.00 
G01 X1.6916 Y27.5474 F508.00 
G01 X1.5221 Y27.5137 
G01 X1.3624 Y27.4475 
G01 X1.2187 Y27.3515 
G01 X1.0965 Y27.2293 
G01 X1.0005 Y27.0856 
G01 X0.9343 Y26.9259 
G01 X0.9006 Y26.7564 
G01 X0.9006 Y26.5836 
G01 X0.9343 Y26.4141 
G01 X1.0005 Y26.2544 
G01 X1.0965 Y26.1107 
G01 X1.2187 Y25.9885 
G01 X1.3624 Y25.8925 
G01 X1.5221 Y25.8263 
G01 X1.6916 Y25.7926 
G01 X3.3884 Y25.7926 
G01 X3.5579 Y25.8263 
G01 X3.7176 Y25.8925 
G01 X3.8613 Y25.9885 
G01 X3.9835 Y26.1107 
G01 X4.0795 Y26.2544 
G01 X4.1457 Y26.4141 
G01 X4.1794 Y26.5836 
G01 X4.1794 Y26.7564 
G01 X4.1457 Y26.9259 
G01 X4.0795 Y27.0856 
G01 X3.9835 Y27.2293 
G01 X3.8613 Y27.3515 
G01 X3.7176 Y27.4475 
G01 X3.5579 Y27.5137 
G01 X3.3884 Y27.5474 
G00 Z2.5400 
G00 X3.3884 Y32.6274 
G01 Z-0.1500 F254.00 
G01 X1.6916 Y32.6274 F508.00 
G01 X1.5221 Y32.5937 
G01 X1.3624 Y32.5275 
G01 X1.2187 Y32.4315 
G01 X1.0965 Y32.3093 
G01 X1.0005 Y32.1656 
G01 X0.9343 Y32.0059 
G01 X0.9006 Y31.8364 
G01 X0.9006 Y31.6636 
G01 X0.9343 Y31.4941 
G01 X1.0005 Y31.3344 
G01 X1.0965 Y31.1907 
G01 X1.2187 Y31.0685 
G01 X1.3624 Y30.9725 
G01 X1.5221 Y30.9063 
G01 X1.6916 Y30.8726 
G01 X2.2976 Y30.8726 
G01 X2.2976 Y30.0874 
G01 X1.6916 Y30.0874 
G01 X1.5221 Y30.0537 
G01 X1.3624 Y29.9875 
G01 X1.2187 Y29.8915 
G01 X1.0965 Y29.7693 
G01 X1.0005 Y29.6256 
G01 X0.9343 Y29.4659 
G01 X0.9006 Y29.2964 
G01 X0.9006 Y29.1236 
G01 X0.9343 Y28.9541 
G01 X1.0005 Y28.7944 
G01 X1.0965 Y28.6507 
G01 X1.2187 Y28.5285 
G01 X1.3624 Y28.4325 
G01 X1.5221 Y28.3663 
G01 X1.6916 Y28.3326 
G01 X3.0746 Y28.3326 
G01 X6.5907 Y24.8165 
G01 X6.4651 Y24.7326 
G01 X6.3570 Y24.6245 
G01 X6.2721 Y24.4975 
G01 X6.2136 Y24.3563 
G01 X6.1838 Y24.2064 
G01 X6.1838 Y24.0536 
G01 X6.2136 Y23.9037 
G01 X6.2721 Y23.7625 
G01 X6.3570 Y23.6355 
G01 X6.4651 Y23.5274 
G01 X6.5921 Y23.4425 
G01 X6.7333 Y23.3840 
G01 X6.8832 Y23.3542 
G01 X8.3568 Y23.3542 
G01 X8.5067 Y23.3840 
G01 X8.6479 Y23.4425 
G01 X8.7749 Y23.5274 
G01 X8.8830 Y23.6355 
G01 X8.9679 Y23.7625 
G01 X9.0197 Y23.8876 
G01 X12.7482 Y23.8876 
G01 X12.8373 Y23.9245 
G01 X12.9055 Y23.9927 
G01 X14.8070 Y25.8942 
G01 X15.9768 Y25.8942 
G01 X16.1267 Y25.9240 
G01 X16.2679 Y25.9825 
G01 X16.3949 Y26.0674 
G01 X16.5030 Y26.1755 
G01 X16.5879 Y26.3025 
G01 X16.6464 Y26.4437 
G01 X16.6762 Y26.5936 
G01 X16.6762 Y26.7464 
G01 X16.6464 Y26.8963 
G01 X16.5879 Y27.0375 
G01 X16.5030 Y27.1645 
G01 X16.3949 Y27.2726 
G01 X16.2679 Y27.3575 
G01 X16.1267 Y27.4160 
G01 X15.9768 Y27.4458 
G01 X14.5032 Y27.4458 
G01 X14.3533 Y27.4160 
G01 X14.2121 Y27.3575 
G01 X14.0851 Y27.2726 
G01 X13.9770 Y27.1645 
G01 X13.8921 Y27.0375 
G01 X13.8336 Y26.8963 
G01 X13.8038 Y26.7464 
G01 X13.8038 Y26.5936 
G01 X13.8336 Y26.4437 
G01 X13.8921 Y26.3025 
G01 X13.9770 Y26.1755 
G01 X14.0851 Y26.0674 
G01 X14.2107 Y25.9835 
G01 X12.5996 Y24.3724 
G01 X9.0197 Y24.3724 
G01 X8.9679 Y24.4975 
G01 X8.8830 Y24.6245 
G01 X8.7749 Y24.7326 
G01 X8.6479 Y24.8175 
G01 X8.5067 Y24.8760 
G01 X8.3568 Y24.9058 
G01 X7.1870 Y24.9058 
G01 X3.6771 Y28.4157 
G01 X3.7176 Y28.4325 
G01 X3.8613 Y28.5285 
G01 X3.9835 Y28.6507 
G01 X4.0795 Y28.7944 
G01 X4.1457 Y28.9541 
G01 X4.1794 Y29.1236 
G01 X4.1794 Y29.2964 
G01 X4.1457 Y29.4659 
G01 X4.0795 Y29.6256 
G01 X3.9835 Y29.7693 
G01 X3.8613 Y29.8915 
G01 X3.7176 Y29.9875 
G01 X3.5579 Y30.0537 
G01 X3.3884 Y30.0874 
G01 X2.7824 Y30.0874 
G01 X2.7824 Y30.8726 
G01 X3.3884 Y30.8726 
G01 X3.5579 Y30.9063 
G01 X3.7176 Y30.9725 
G01 X3.8613 Y31.0685 
G01 X3.9835 Y31.1907 
G01 X4.0795 Y31.3344 
G01 X4.1457 Y31.4941 
G01 X4.1794 Y31.6636 
G01 X4.1794 Y31.8364 
G01 X4.1457 Y32.0059 
G01 X4.0795 Y32.1656 
G01 X3.9835 Y32.3093 
G01 X3.8613 Y32.4315 
G01 X3.7176 Y32.5275 
G01 X3.5579 Y32.5937 
G01 X3.3884 Y32.6274 
G00 Z2.5400 
G00 X3.3884 Y35.1674 
G01 Z-0.1500 F254.00 
G01 X1.6916 Y35.1674 F508.00 
G01 X1.5221 Y35.1337 
G01 X1.3624 Y35.0675 
G01 X1.2187 Y34.9715 
G01 X1.0965 Y34.8493 
G01 X1.0005 Y34.7056 
G01 X0.9343 Y34.5459 
G01 X0.9006 Y34.3764 
G01 X0.9006 Y34.2036 
G01 X0.9343 Y34.0341 
G01 X1.0005 Y33.8744 
G01 X1.0965 Y33.7307 
G01 X1.2187 Y33.6085 
G01 X1.3624 Y33.5125 
G01 X1.5221 Y33.4463 
G01 X1.6916 Y33.4126 
G01 X3.3884 Y33.4126 
G01 X3.5579 Y33.4463 
G01 X3.7176 Y33.5125 
G01 X3.8613 Y33.6085 
G01 X3.9835 Y33.7307 
G01 X4.0795 Y33.8744 
G01 X4.1457 Y34.0341 
G01 X4.1794 Y34.2036 
G01 X4.1794 Y34.3764 
G01 X4.1457 Y34.5459 
G01 X4.0795 Y34.7056 
G01 X3.9835 Y34.8493 
G01 X3.8613 Y34.9715 
G01 X3.7176 Y35.0675 
G01 X3.5579 Y35.1337 
G01 X3.3884 Y35.1674 
G00 Z2.5400 
G00 X27.3562 Y49.3264 
G01 Z-0.1500 F254.00 
G01 X27.3310 Y49.4203 F508.00 
G01 X27.2824 Y49.5046 
G01 X27.2136 Y49.5733 
G01 X27.1294 Y49.6220 
G01 X27.0354 Y49.6471 
G01 X26.9381 Y49.6471 
G01 X26.8442 Y49.6220 
G01 X26.7600 Y49.5733 
G01 X26.6912 Y49.5046 
G01 X26.6426 Y49.4203 
G01 X26.6174 Y49.3264 
G01 X26.6174 Y47.1954 
G01 X26.6426 Y47.1014 
G01 X26.6912 Y47.0172 
G01 X26.7600 Y46.9484 
G01 X26.8442 Y46.8998 
G01 X26.9381 Y46.8746 
G01 X28.3912 Y46.8746 
G01 X28.4852 Y46.8998 
G01 X28.5694 Y46.9484 
G01 X28.6382 Y47.0172 
G01 X28.6868 Y47.1014 
G01 X28.7120 Y47.1954 
G01 X28.7120 Y47.2926 
G01 X28.6868 Y47.3866 
G01 X28.6382 Y47.4708 
G01 X28.5694 Y47.5396 
G01 X28.4852 Y47.5882 
G01 X28.3912 Y47.6134 
G01 X27.3562 Y47.6134 
G01 X27.3562 Y49.3264 
G00 Z2.5400 
G00 X20.2789 Y47.1954 
G01 Z-0.1500 F254.00 
G01 X20.3041 Y47.1014 F508.00 
G01 X20.3527 Y47.0172 
G01 X20.4215 Y46.9484 
G01 X20.5057 Y46.8998 
G01 X20.5997 Y46.8746 
G01 X20.6969 Y46.8746 
G01 X20.7909 Y46.8998 
G01 X20.8751 Y46.9484 
G01 X20.9439 Y47.0172 
G01 X20.9925 Y47.1014 
G01 X21.0177 Y47.1954 
G01 X21.0177 Y48.9083 
G01 X21.3748 Y48.9083 
G01 X21.4688 Y48.9335 
G01 X21.5530 Y48.9821 
G01 X21.6218 Y49.0509 
G01 X21.6704 Y49.1352 
G01 X21.6956 Y49.2291 
G01 X21.6956 Y49.3264 
G01 X21.6704 Y49.4203 
G01 X21.6218 Y49.5046 
G01 X21.5530 Y49.5733 
G01 X21.4688 Y49.6220 
G01 X21.3748 Y49.6471 
G01 X19.9218 Y49.6471 
G01 X19.8278 Y49.6220 
G01 X19.7436 Y49.5733 
G01 X19.6748 Y49.5046 
G01 X19.6262 Y49.4203 
G01 X19.6010 Y49.3264 
G01 X19.6010 Y49.2291 
G01 X19.6262 Y49.1352 
G01 X19.6748 Y49.0509 
G01 X19.7436 Y48.9821 
G01 X19.8278 Y48.9335 
G01 X19.9218 Y48.9083 
G01 X20.2789 Y48.9083 
G01 X20.2789 Y47.1954 
G00 Z2.5400 
G00 X17.2622 Y49.3264 
G01 Z-0.1500 F254.00 
G01 X17.2622 Y49.3143 F508.00 
G01 X17.2598 Y49.3025 
G01 X17.2622 Y49.2658 
G01 X17.2622 Y47.1954 
G01 X17.2874 Y47.1014 
G01 X17.3360 Y47.0172 
G01 X17.4048 Y46.9484 
G01 X17.4890 Y46.8998 
G01 X17.5830 Y46.8746 
G01 X17.6802 Y46.8746 
G01 X17.7742 Y46.8998 
G01 X17.8584 Y46.9484 
G01 X17.9272 Y47.0172 
G01 X17.9758 Y47.1014 
G01 X18.0010 Y47.1954 
G01 X18.0010 Y48.0577 
G01 X18.6735 Y47.0490 
G01 X18.6918 Y47.0172 
G01 X18.7003 Y47.0087 
G01 X18.7070 Y46.9986 
G01 X18.7346 Y46.9744 
G01 X18.7606 Y46.9484 
G01 X18.7710 Y46.9424 
G01 X18.7801 Y46.9344 
G01 X18.8130 Y46.9181 
G01 X18.8448 Y46.8998 
G01 X18.8565 Y46.8967 
G01 X18.8673 Y46.8913 
G01 X18.9033 Y46.8841 
G01 X18.9388 Y46.8746 
G01 X18.9508 Y46.8746 
G01 X18.9627 Y46.8722 
G01 X18.9993 Y46.8746 
G01 X19.0360 Y46.8746 
G01 X19.0477 Y46.8777 
G01 X19.0597 Y46.8785 
G01 X19.0945 Y46.8903 
G01 X19.1300 Y46.8998 
G01 X19.1404 Y46.9058 
G01 X19.1519 Y46.9097 
G01 X19.1824 Y46.9301 
G01 X19.2142 Y46.9484 
G01 X19.2228 Y46.9569 
G01 X19.2328 Y46.9636 
G01 X19.2570 Y46.9912 
G01 X19.2830 Y47.0172 
G01 X19.2890 Y47.0276 
G01 X19.2970 Y47.0367 
G01 X19.3133 Y47.0696 
G01 X19.3316 Y47.1014 
G01 X19.3348 Y47.1131 
G01 X19.3401 Y47.1239 
G01 X19.3473 Y47.1599 
G01 X19.3568 Y47.1954 
G01 X19.3568 Y47.2074 
G01 X19.3592 Y47.2192 
G01 X19.3568 Y47.2559 
G01 X19.3568 Y49.3264 
G01 X19.3316 Y49.4203 
G01 X19.2830 Y49.5046 
G01 X19.2142 Y49.5733 
G01 X19.1300 Y49.6220 
G01 X19.0360 Y49.6471 
G01 X18.9388 Y49.6471 
G01 X18.8448 Y49.6220 
G01 X18.7606 Y49.5733 
G01 X18.6918 Y49.5046 
G01 X18.6432 Y49.4203 
G01 X18.6180 Y49.3264 
G01 X18.6180 Y48.4640 
G01 X17.9455 Y49.4728 
G01 X17.9272 Y49.5046 
G01 X17.9187 Y49.5131 
G01 X17.9120 Y49.5231 
G01 X17.8844 Y49.5474 
G01 X17.8584 Y49.5733 
G01 X17.8480 Y49.5794 
G01 X17.8389 Y49.5873 
G01 X17.8060 Y49.6036 
G01 X17.7742 Y49.6220 
G01 X17.7625 Y49.6251 
G01 X17.7517 Y49.6304 
G01 X17.7157 Y49.6376 
G01 X17.6802 Y49.6471 
G01 X17.6682 Y49.6471 
G01 X17.6563 Y49.6495 
G01 X17.6197 Y49.6471 
G01 X17.5830 Y49.6471 
G01 X17.5713 Y49.6440 
G01 X17.5593 Y49.6432 
G01 X17.5245 Y49.6315 
G01 X17.4890 Y49.6220 
G01 X17.4786 Y49.6159 
G01 X17.4672 Y49.6121 
G01 X17.4366 Y49.5917 
G01 X17.4048 Y49.5733 
G01 X17.3963 Y49.5648 
G01 X17.3862 Y49.5581 
G01 X17.3620 Y49.5305 
G01 X17.3360 Y49.5046 
G01 X17.3300 Y49.4941 
G01 X17.3220 Y49.4851 
G01 X17.3057 Y49.4521 
G01 X17.2874 Y49.4203 
G01 X17.2843 Y49.4087 
G01 X17.2789 Y49.3979 
G01 X17.2717 Y49.3618 
G01 X17.2622 Y49.3264 
G00 Z2.5400 
G00 X14.0830 Y48.6432 
G01 Z-0.1500 F254.00 
G01 X14.1672 Y48.5946 F508.00 
G01 X14.2612 Y48.5694 
G01 X14.3585 Y48.5694 
G01 X14.4524 Y48.5946 
G01 X14.5366 Y48.6432 
G01 X14.6054 Y48.7120 
G01 X14.6540 Y48.7962 
G01 X14.6792 Y48.8901 
G01 X14.6792 Y48.9874 
G01 X14.6540 Y49.0814 
G01 X14.6054 Y49.1656 
G01 X14.2665 Y49.5046 
G01 X14.1977 Y49.5733 
G01 X14.1135 Y49.6220 
G01 X14.0195 Y49.6471 
G01 X13.2443 Y49.6471 
G01 X13.1504 Y49.6220 
G01 X13.0661 Y49.5733 
G01 X12.7272 Y49.2344 
G01 X12.6584 Y49.1656 
G01 X12.6098 Y49.0814 
G01 X12.5846 Y48.9874 
G01 X12.5846 Y47.5343 
G01 X12.6098 Y47.4404 
G01 X12.6584 Y47.3561 
G01 X12.9974 Y47.0172 
G01 X13.0661 Y46.9484 
G01 X13.1504 Y46.8998 
G01 X13.2443 Y46.8746 
G01 X14.0195 Y46.8746 
G01 X14.1135 Y46.8998 
G01 X14.1977 Y46.9484 
G01 X14.6054 Y47.3561 
G01 X14.6540 Y47.4404 
G01 X14.6792 Y47.5343 
G01 X14.6792 Y47.6316 
G01 X14.6540 Y47.7255 
G01 X14.6054 Y47.8098 
G01 X14.5366 Y47.8785 
G01 X14.4524 Y47.9272 
G01 X14.3585 Y47.9524 
G01 X14.2612 Y47.9524 
G01 X14.1672 Y47.9272 
G01 X14.0830 Y47.8785 
G01 X13.8179 Y47.6134 
G01 X13.4460 Y47.6134 
G01 X13.3234 Y47.7360 
G01 X13.3234 Y48.7858 
G01 X13.4460 Y48.9083 
G01 X13.8179 Y48.9083 
G01 X14.0830 Y48.6432 
G00 Z2.5400 
G00 X15.6804 Y49.6471 
G01 Z-0.1500 F254.00 
G01 X15.5831 Y49.6471 F508.00 
G01 X15.4892 Y49.6220 
G01 X15.4049 Y49.5733 
G01 X15.0660 Y49.2344 
G01 X14.9972 Y49.1656 
G01 X14.9486 Y49.0814 
G01 X14.9234 Y48.9874 
G01 X14.9234 Y47.5343 
G01 X14.9486 Y47.4404 
G01 X14.9972 Y47.3561 
G01 X15.3362 Y47.0172 
G01 X15.4049 Y46.9484 
G01 X15.4892 Y46.8998 
G01 X15.5831 Y46.8746 
G01 X16.3583 Y46.8746 
G01 X16.4522 Y46.8998 
G01 X16.5365 Y46.9484 
G01 X16.8754 Y47.2874 
G01 X16.9442 Y47.3561 
G01 X16.9928 Y47.4404 
G01 X17.0180 Y47.5343 
G01 X17.0180 Y48.9874 
G01 X16.9928 Y49.0814 
G01 X16.9442 Y49.1656 
G01 X16.5365 Y49.5733 
G01 X16.4522 Y49.6220 
G01 X16.3583 Y49.6471 
G01 X16.2610 Y49.6471 
G01 X15.6804 Y49.6471 
G00 Z2.5400 
G00 X21.9398 Y47.1954 
G01 Z-0.1500 F254.00 
G01 X21.9650 Y47.1014 F508.00 
G01 X22.0136 Y47.0172 
G01 X22.0824 Y46.9484 
G01 X22.1666 Y46.8998 
G01 X22.2606 Y46.8746 
G01 X22.3578 Y46.8746 
G01 X22.4518 Y46.8998 
G01 X22.5360 Y46.9484 
G01 X22.6048 Y47.0172 
G01 X22.6534 Y47.1014 
G01 X22.6786 Y47.1954 
G01 X22.6786 Y47.5525 
G01 X22.8341 Y47.5525 
G01 X23.4382 Y46.9484 
G01 X23.5224 Y46.8998 
G01 X23.6164 Y46.8746 
G01 X23.7136 Y46.8746 
G01 X23.8076 Y46.8998 
G01 X23.8918 Y46.9484 
G01 X23.9606 Y47.0172 
G01 X24.0092 Y47.1014 
G01 X24.0344 Y47.1954 
G01 X24.0344 Y47.2926 
G01 X24.0092 Y47.3866 
G01 X23.9606 Y47.4708 
G01 X23.6790 Y47.7524 
G01 X23.9606 Y48.0341 
G01 X24.0092 Y48.1183 
G01 X24.0344 Y48.2122 
G01 X24.0344 Y48.9874 
G01 X24.0092 Y49.0814 
G01 X23.9606 Y49.1656 
G01 X23.8918 Y49.2344 
G01 X23.5529 Y49.5733 
G01 X23.4686 Y49.6220 
G01 X23.3747 Y49.6471 
G01 X22.2606 Y49.6471 
G01 X22.1666 Y49.6220 
G01 X22.0824 Y49.5733 
G01 X22.0136 Y49.5046 
G01 X21.9650 Y49.4203 
G01 X21.9398 Y49.3264 
G01 X21.9398 Y47.8733 
G01 X21.9398 Y47.1954 
G00 Z2.5400 
G00 X25.0356 Y49.6471 
G01 Z-0.1500 F254.00 
G01 X24.9383 Y49.6471 F508.00 
G01 X24.8444 Y49.6220 
G01 X24.7601 Y49.5733 
G01 X24.4212 Y49.2344 
G01 X24.3524 Y49.1656 
G01 X24.3038 Y49.0814 
G01 X24.2786 Y48.9874 
G01 X24.2786 Y47.5343 
G01 X24.3038 Y47.4404 
G01 X24.3524 Y47.3561 
G01 X24.6913 Y47.0172 
G01 X24.7601 Y46.9484 
G01 X24.8444 Y46.8998 
G01 X24.9383 Y46.8746 
G01 X25.7135 Y46.8746 
G01 X25.8074 Y46.8998 
G01 X25.8917 Y46.9484 
G01 X26.2306 Y47.2874 
G01 X26.2994 Y47.3561 
G01 X26.3480 Y47.4404 
G01 X26.3732 Y47.5343 
G01 X26.3732 Y48.9874 
G01 X26.3480 Y49.0814 
G01 X26.2994 Y49.1656 
G01 X25.8917 Y49.5733 
G01 X25.8074 Y49.6220 
G01 X25.7135 Y49.6471 
G01 X25.6162 Y49.6471 
G01 X25.0356 Y49.6471 
G00 Z2.5400 
G00 X32.7934 Y48.6432 
G01 Z-0.1500 F254.00 
G01 X32.8776 Y48.5946 F508.00 
G01 X32.9716 Y48.5694 
G01 X33.0688 Y48.5694 
G01 X33.1628 Y48.5946 
G01 X33.2470 Y48.6432 
G01 X33.3158 Y48.7120 
G01 X33.3644 Y48.7962 
G01 X33.3896 Y48.8901 
G01 X33.3896 Y48.9874 
G01 X33.3644 Y49.0814 
G01 X33.3158 Y49.1656 
G01 X32.9768 Y49.5046 
G01 X32.9081 Y49.5733 
G01 X32.8238 Y49.6220 
G01 X32.7299 Y49.6471 
G01 X31.9547 Y49.6471 
G01 X31.8607 Y49.6220 
G01 X31.7765 Y49.5733 
G01 X31.4376 Y49.2344 
G01 X31.3688 Y49.1656 
G01 X31.3202 Y49.0814 
G01 X31.2950 Y48.9874 
G01 X31.2950 Y47.5343 
G01 X31.3202 Y47.4404 
G01 X31.3688 Y47.3561 
G01 X31.7077 Y47.0172 
G01 X31.7765 Y46.9484 
G01 X31.8607 Y46.8998 
G01 X31.9547 Y46.8746 
G01 X32.7299 Y46.8746 
G01 X32.8238 Y46.8998 
G01 X32.9081 Y46.9484 
G01 X33.3158 Y47.3561 
G01 X33.3644 Y47.4404 
G01 X33.3896 Y47.5343 
G01 X33.3896 Y47.6316 
G01 X33.3644 Y47.7255 
G01 X33.3158 Y47.8098 
G01 X33.2470 Y47.8785 
G01 X33.1628 Y47.9272 
G01 X33.0688 Y47.9524 
G01 X32.9716 Y47.9524 
G01 X32.8776 Y47.9272 
G01 X32.7934 Y47.8785 
G01 X32.5282 Y47.6134 
G01 X32.1563 Y47.6134 
G01 X32.0338 Y47.7360 
G01 X32.0338 Y48.7858 
G01 X32.1563 Y48.9083 
G01 X32.5282 Y48.9083 
G01 X32.7934 Y48.6432 
G00 Z2.5400 
G00 X33.6338 Y47.1954 
G01 Z-0.1500 F254.00 
G01 X33.6589 Y47.1014 F508.00 
G01 X33.7076 Y47.0172 
G01 X33.7764 Y46.9484 
G01 X33.8606 Y46.8998 
G01 X33.9545 Y46.8746 
G01 X34.0518 Y46.8746 
G01 X34.1458 Y46.8998 
G01 X34.2300 Y46.9484 
G01 X34.2988 Y47.0172 
G01 X34.3474 Y47.1014 
G01 X34.3726 Y47.1954 
G01 X34.3726 Y47.8915 
G01 X34.9896 Y47.8915 
G01 X34.9896 Y47.1954 
G01 X35.0148 Y47.1014 
G01 X35.0634 Y47.0172 
G01 X35.1322 Y46.9484 
G01 X35.2164 Y46.8998 
G01 X35.3104 Y46.8746 
G01 X35.4076 Y46.8746 
G01 X35.5016 Y46.8998 
G01 X35.5858 Y46.9484 
G01 X35.6546 Y47.0172 
G01 X35.7032 Y47.1014 
G01 X35.7284 Y47.1954 
G01 X35.7284 Y48.6485 
G01 X35.7032 Y48.7424 
G01 X35.6546 Y48.8266 
G01 X35.5858 Y48.8954 
G01 X34.9079 Y49.5733 
G01 X34.8237 Y49.6220 
G01 X34.7297 Y49.6471 
G01 X34.6324 Y49.6471 
G01 X34.5385 Y49.6220 
G01 X34.4543 Y49.5733 
G01 X34.3855 Y49.5046 
G01 X33.7076 Y48.8266 
G01 X33.6589 Y48.7424 
G01 X33.6338 Y48.6485 
G01 X33.6338 Y48.2122 
G01 X33.6338 Y47.1954 
G00 Z2.5400 
G00 X35.9726 Y47.1954 
G01 Z-0.1500 F254.00 
G01 X35.9977 Y47.1014 F508.00 
G01 X36.0464 Y47.0172 
G01 X36.1151 Y46.9484 
G01 X36.1994 Y46.8998 
G01 X36.2933 Y46.8746 
G01 X36.3906 Y46.8746 
G01 X36.4845 Y46.8998 
G01 X36.5688 Y46.9484 
G01 X36.6376 Y47.0172 
G01 X36.6862 Y47.1014 
G01 X36.7114 Y47.1954 
G01 X36.7114 Y47.5525 
G01 X36.8669 Y47.5525 
G01 X37.4710 Y46.9484 
G01 X37.5552 Y46.8998 
G01 X37.6492 Y46.8746 
G01 X37.7464 Y46.8746 
G01 X37.8404 Y46.8998 
G01 X37.9246 Y46.9484 
G01 X37.9934 Y47.0172 
G01 X38.0420 Y47.1014 
G01 X38.0672 Y47.1954 
G01 X38.0672 Y47.2926 
G01 X38.0420 Y47.3866 
G01 X37.9934 Y47.4708 
G01 X37.7118 Y47.7524 
G01 X37.9934 Y48.0341 
G01 X38.0420 Y48.1183 
G01 X38.0672 Y48.2122 
G01 X38.0672 Y48.9874 
G01 X38.0420 Y49.0814 
G01 X37.9934 Y49.1656 
G01 X37.9246 Y49.2344 
G01 X37.5857 Y49.5733 
G01 X37.5014 Y49.6220 
G01 X37.4075 Y49.6471 
G01 X36.2933 Y49.6471 
G01 X36.1994 Y49.6220 
G01 X36.1151 Y49.5733 
G01 X36.0464 Y49.5046 
G01 X35.9977 Y49.4203 
G01 X35.9726 Y49.3264 
G01 X35.9726 Y47.8733 
G01 X35.9726 Y47.1954 
G00 Z2.5400 
G00 X38.9893 Y47.1954 
G01 Z-0.1500 F254.00 
G01 X39.0145 Y47.1014 F508.00 
G01 X39.0631 Y47.0172 
G01 X39.1319 Y46.9484 
G01 X39.2161 Y46.8998 
G01 X39.3100 Y46.8746 
G01 X39.4073 Y46.8746 
G01 X39.5013 Y46.8998 
G01 X39.5855 Y46.9484 
G01 X39.6543 Y47.0172 
G01 X39.7029 Y47.1014 
G01 X39.7281 Y47.1954 
G01 X39.7281 Y48.9083 
G01 X40.0852 Y48.9083 
G01 X40.1792 Y48.9335 
G01 X40.2634 Y48.9821 
G01 X40.3322 Y49.0509 
G01 X40.3808 Y49.1352 
G01 X40.4060 Y49.2291 
G01 X40.4060 Y49.3264 
G01 X40.3808 Y49.4203 
G01 X40.3322 Y49.5046 
G01 X40.2634 Y49.5733 
G01 X40.1792 Y49.6220 
G01 X40.0852 Y49.6471 
G01 X38.6321 Y49.6471 
G01 X38.5382 Y49.6220 
G01 X38.4539 Y49.5733 
G01 X38.3852 Y49.5046 
G01 X38.3365 Y49.4203 
G01 X38.3114 Y49.3264 
G01 X38.3114 Y49.2291 
G01 X38.3365 Y49.1352 
G01 X38.3852 Y49.0509 
G01 X38.4539 Y48.9821 
G01 X38.5382 Y48.9335 
G01 X38.6321 Y48.9083 
G01 X38.9893 Y48.9083 
G01 X38.9893 Y47.1954 
G00 Z2.5400 
G00 X36.8384 Y48.7813 
G01 Z-0.1500 F254.00 
G01 X37.1532 Y48.7813 F508.00 
G01 X37.2014 Y48.7332 
G01 X37.2014 Y48.4665 
G01 X37.1532 Y48.4183 
G01 X36.8384 Y48.4183 
G01 X36.8384 Y48.7813 
G00 Z2.5400 
G00 X16.1041 Y47.7404 
G01 Z-0.1500 F254.00 
G01 X15.8374 Y47.7404 F508.00 
G01 X15.7892 Y47.7886 
G01 X15.7892 Y48.7332 
G01 X15.8374 Y48.7813 
G01 X16.1041 Y48.7813 
G01 X16.1522 Y48.7332 
G01 X16.1522 Y47.7886 
G01 X16.1041 Y47.7404 
G00 Z2.5400 
G00 X14.7724 Y47.7746 
G01 Z-0.1500 F254.00 
G01 X14.7070 Y47.8878 F508.00 
G01 X14.6146 Y47.9802 
G01 X14.5014 Y48.0455 
G01 X14.3752 Y48.0794 
G01 X14.2445 Y48.0794 
G01 X14.1182 Y48.0455 
G01 X14.0050 Y47.9802 
G01 X13.7653 Y47.7404 
G01 X13.4986 Y47.7404 
G01 X13.4504 Y47.7886 
G01 X13.4504 Y48.7332 
G01 X13.4986 Y48.7813 
G01 X13.7653 Y48.7813 
G01 X14.0050 Y48.5416 
G01 X14.1182 Y48.4762 
G01 X14.2445 Y48.4424 
G01 X14.3752 Y48.4424 
G01 X14.5014 Y48.4762 
G01 X14.6146 Y48.5416 
G01 X14.7070 Y48.6340 
G01 X14.7724 Y48.7472 
G01 X14.7964 Y48.8368 
G01 X14.7964 Y47.6850 
G01 X14.7724 Y47.7746 
G00 Z2.5400 
G00 X22.8056 Y48.7813 
G01 Z-0.1500 F254.00 
G01 X23.1204 Y48.7813 F508.00 
G01 X23.1686 Y48.7332 
G01 X23.1686 Y48.4665 
G01 X23.1204 Y48.4183 
G01 X22.8056 Y48.4183 
G01 X22.8056 Y48.7813 
G00 Z2.5400 
G00 X25.4592 Y47.7404 
G01 Z-0.1500 F254.00 
G01 X25.1926 Y47.7404 F508.00 
G01 X25.1444 Y47.7886 
G01 X25.1444 Y48.7332 
G01 X25.1926 Y48.7813 
G01 X25.4592 Y48.7813 
G01 X25.5074 Y48.7332 
G01 X25.5074 Y47.7886 
G01 X25.4592 Y47.7404 
G00 Z2.5400 
G00 X49.3977 Y17.2902 
G01 Z-0.1500 F254.00 
G01 X49.2578 Y17.1503 F508.00 
G01 X49.1479 Y16.9858 
G01 X49.0722 Y16.8030 
G01 X49.0336 Y16.6089 
G01 X49.0336 Y16.4111 
G01 X49.0714 Y16.2210 
G01 X48.4868 Y16.8056 
G01 X48.4026 Y16.8542 
G01 X48.3086 Y16.8794 
G01 X34.8637 Y16.8794 
G01 X35.3325 Y17.3482 
G01 X35.3325 Y18.2118 
G01 X34.8637 Y18.6806 
G01 X39.2170 Y18.6806 
G01 X40.3444 Y17.5532 
G01 X40.4132 Y17.4844 
G01 X40.4974 Y17.4358 
G01 X40.5914 Y17.4106 
G01 X49.3770 Y17.4106 
G01 X49.4575 Y17.3301 
G01 X49.3977 Y17.2902 
G00 Z2.5400 
G00 X21.9572 Y22.4860 
G01 Z-0.1500 F254.00 
G01 X22.4860 Y21.9572 F508.00 
G01 X23.2340 Y21.9572 
G01 X23.7628 Y22.4860 
G01 X23.7628 Y23.2340 
G01 X23.2361 Y23.7606 
G01 X30.1039 Y23.7606 
G01 X29.5772 Y23.2340 
G01 X29.5772 Y22.4860 
G01 X30.1060 Y21.9572 
G01 X30.8540 Y21.9572 
G01 X31.3828 Y22.4860 
G01 X31.3828 Y23.2340 
G01 X30.8561 Y23.7606 
G01 X35.4070 Y23.7606 
G01 X40.3444 Y18.8232 
G01 X40.4132 Y18.7544 
G01 X40.4974 Y18.7058 
G01 X40.5914 Y18.6806 
G01 X49.1039 Y18.6806 
G01 X49.1479 Y18.5742 
G01 X49.2578 Y18.4097 
G01 X49.3977 Y18.2698 
G01 X49.5622 Y18.1599 
G01 X49.6041 Y18.1426 
G01 X49.5786 Y18.1494 
G01 X40.7930 Y18.1494 
G01 X39.5968 Y19.3456 
G01 X39.5126 Y19.3942 
G01 X39.4186 Y19.4194 
G01 X19.7944 Y19.4194 
G01 X20.3211 Y19.9460 
G01 X20.3211 Y20.6940 
G01 X20.1337 Y20.8813 
G01 X21.7430 Y22.4906 
G01 X21.9572 Y22.4906 
G01 X21.9572 Y22.4860 
G00 Z2.5400 
G00 X6.1604 Y46.1038 
G01 Z-0.1500 F254.00 
G01 X6.1604 Y50.4162 F508.00 
G01 X6.1235 Y50.5053 
G01 X6.0553 Y50.5735 
G01 X5.9662 Y50.6104 
G01 X1.6538 Y50.6104 
G01 X1.5647 Y50.5735 
G01 X1.4965 Y50.5053 
G01 X1.4596 Y50.4162 
G01 X1.4596 Y46.1038 
G01 X1.4965 Y46.0147 
G01 X1.5647 Y45.9465 
G01 X1.6538 Y45.9096 
G01 X5.9662 Y45.9096 
G01 X6.0553 Y45.9465 
G01 X6.1235 Y46.0147 
G01 X6.1604 Y46.1038 
G00 Z2.5400 
G00 X6.1604 Y1.6538 
G01 Z-0.1500 F254.00 
G01 X6.1604 Y5.9662 F508.00 
G01 X6.1235 Y6.0553 
G01 X6.0553 Y6.1235 
G01 X5.9662 Y6.1604 
G01 X1.6538 Y6.1604 
G01 X1.5647 Y6.1235 
G01 X1.4965 Y6.0553 
G01 X1.4596 Y5.9662 
G01 X1.4596 Y1.6538 
G01 X1.4965 Y1.5647 
G01 X1.5647 Y1.4965 
G01 X1.6538 Y1.4596 
G01 X5.9662 Y1.4596 
G01 X6.0553 Y1.4965 
G01 X6.1235 Y1.5647 
G01 X6.1604 Y1.6538 
G00 Z2.5400 
G00 X51.8804 Y1.6538 
G01 Z-0.1500 F254.00 
G01 X51.8804 Y5.9662 F508.00 
G01 X51.8435 Y6.0553 
G01 X51.7753 Y6.1235 
G01 X51.6862 Y6.1604 
G01 X47.3738 Y6.1604 
G01 X47.2847 Y6.1235 
G01 X47.2165 Y6.0553 
G01 X47.1796 Y5.9662 
G01 X47.1796 Y1.6538 
G01 X47.2165 Y1.5647 
G01 X47.2847 Y1.4965 
G01 X47.3738 Y1.4596 
G01 X51.6862 Y1.4596 
G01 X51.7753 Y1.4965 
G01 X51.8435 Y1.5647 
G01 X51.8804 Y1.6538 
G00 Z2.5400 
G00 X51.8804 Y46.1038 
G01 Z-0.1500 F254.00 
G01 X51.8804 Y50.4162 F508.00 
G01 X51.8435 Y50.5053 
G01 X51.7753 Y50.5735 
G01 X51.6862 Y50.6104 
G01 X47.3738 Y50.6104 
G01 X47.2847 Y50.5735 
G01 X47.2165 Y50.5053 
G01 X47.1796 Y50.4162 
G01 X47.1796 Y46.1038 
G01 X47.2165 Y46.0147 
G01 X47.2847 Y45.9465 
G01 X47.3738 Y45.9096 
G01 X51.6862 Y45.9096 
G01 X51.7753 Y45.9465 
G01 X51.8435 Y46.0147 
G01 X51.8804 Y46.1038 
G00 Z2.5400 
G00 X27.2934 Y7.2476 
G01 Z-0.1500 F254.00 
G01 X27.2934 Y7.4336 F508.00 
G01 X27.2643 Y7.6174 
G01 X27.2068 Y7.7944 
G01 X27.1223 Y7.9602 
G01 X27.0129 Y8.1108 
G01 X26.8814 Y8.2423 
G01 X26.7308 Y8.3517 
G01 X26.5650 Y8.4362 
G01 X26.3880 Y8.4937 
G01 X26.2042 Y8.5228 
G01 X26.0182 Y8.5228 
G01 X25.8344 Y8.4937 
G01 X25.6574 Y8.4362 
G01 X25.4916 Y8.3517 
G01 X25.3410 Y8.2423 
G01 X25.2095 Y8.1108 
G01 X25.1001 Y7.9602 
G01 X25.0156 Y7.7944 
G01 X24.9581 Y7.6174 
G01 X24.9290 Y7.4336 
G01 X24.9290 Y7.2476 
G01 X24.9581 Y7.0638 
G01 X25.0156 Y6.8868 
G01 X25.1001 Y6.7210 
G01 X25.2095 Y6.5704 
G01 X25.3410 Y6.4389 
G01 X25.4916 Y6.3295 
G01 X25.6574 Y6.2450 
G01 X25.8344 Y6.1875 
G01 X26.0182 Y6.1584 
G01 X26.2042 Y6.1584 
G01 X26.3880 Y6.1875 
G01 X26.5650 Y6.2450 
G01 X26.7308 Y6.3295 
G01 X26.8814 Y6.4389 
G01 X27.0129 Y6.5704 
G01 X27.1223 Y6.7210 
G01 X27.2068 Y6.8868 
G01 X27.2643 Y7.0638 
G01 X27.2934 Y7.2476 
G00 Z2.5400 
G00 X20.7910 Y2.7264 
G01 Z-0.1500 F254.00 
G01 X20.7910 Y2.9124 F508.00 
G01 X20.7619 Y3.0962 
G01 X20.7044 Y3.2732 
G01 X20.6199 Y3.4390 
G01 X20.5105 Y3.5896 
G01 X20.3789 Y3.7211 
G01 X20.2284 Y3.8305 
G01 X20.0626 Y3.9150 
G01 X19.8856 Y3.9725 
G01 X19.7018 Y4.0016 
G01 X19.5158 Y4.0016 
G01 X19.3320 Y3.9725 
G01 X19.1550 Y3.9150 
G01 X18.9892 Y3.8305 
G01 X18.8386 Y3.7211 
G01 X18.7071 Y3.5896 
G01 X18.5977 Y3.4390 
G01 X18.5132 Y3.2732 
G01 X18.4557 Y3.0962 
G01 X18.4266 Y2.9124 
G01 X18.4266 Y2.7264 
G01 X18.4557 Y2.5426 
G01 X18.5132 Y2.3656 
G01 X18.5977 Y2.1998 
G01 X18.7071 Y2.0492 
G01 X18.8386 Y1.9177 
G01 X18.9892 Y1.8083 
G01 X19.1550 Y1.7238 
G01 X19.3320 Y1.6663 
G01 X19.5158 Y1.6372 
G01 X19.7018 Y1.6372 
G01 X19.8856 Y1.6663 
G01 X20.0626 Y1.7238 
G01 X20.2284 Y1.8083 
G01 X20.3789 Y1.9177 
G01 X20.5105 Y2.0492 
G01 X20.6199 Y2.1998 
G01 X20.7044 Y2.3656 
G01 X20.7619 Y2.5426 
G01 X20.7910 Y2.7264 
G00 Z2.5400 
G00 X27.2934 Y2.7264 
G01 Z-0.1500 F254.00 
G01 X27.2934 Y2.9124 F508.00 
G01 X27.2643 Y3.0962 
G01 X27.2068 Y3.2732 
G01 X27.1223 Y3.4390 
G01 X27.0129 Y3.5896 
G01 X26.8814 Y3.7211 
G01 X26.7308 Y3.8305 
G01 X26.5650 Y3.9150 
G01 X26.3880 Y3.9725 
G01 X26.2042 Y4.0016 
G01 X26.0182 Y4.0016 
G01 X25.8344 Y3.9725 
G01 X25.6574 Y3.9150 
G01 X25.4916 Y3.8305 
G01 X25.3410 Y3.7211 
G01 X25.2095 Y3.5896 
G01 X25.1001 Y3.4390 
G01 X25.0156 Y3.2732 
G01 X24.9581 Y3.0962 
G01 X24.9290 Y2.9124 
G01 X24.9290 Y2.7264 
G01 X24.9581 Y2.5426 
G01 X25.0156 Y2.3656 
G01 X25.1001 Y2.1998 
G01 X25.2095 Y2.0492 
G01 X25.3410 Y1.9177 
G01 X25.4916 Y1.8083 
G01 X25.6574 Y1.7238 
G01 X25.8344 Y1.6663 
G01 X26.0182 Y1.6372 
G01 X26.2042 Y1.6372 
G01 X26.3880 Y1.6663 
G01 X26.5650 Y1.7238 
G01 X26.7308 Y1.8083 
G01 X26.8814 Y1.9177 
G01 X27.0129 Y2.0492 
G01 X27.1223 Y2.1998 
G01 X27.2068 Y2.3656 
G01 X27.2643 Y2.5426 
G01 X27.2934 Y2.7264 
G00 Z2.5400 
G00 X20.3211 Y12.3260 
G01 Z-0.1500 F254.00 
G01 X20.3211 Y12.3306 F508.00 
G01 X31.7986 Y12.3306 
G01 X31.8926 Y12.3558 
G01 X31.9768 Y12.4044 
G01 X32.0456 Y12.4732 
G01 X33.8140 Y14.2416 
G01 X33.8582 Y14.1975 
G01 X34.7218 Y14.1975 
G01 X35.3325 Y14.8082 
G01 X35.3325 Y15.6718 
G01 X34.8637 Y16.1406 
G01 X48.1070 Y16.1406 
G01 X49.4575 Y14.7901 
G01 X49.3977 Y14.7502 
G01 X49.2578 Y14.6103 
G01 X49.1479 Y14.4458 
G01 X49.0722 Y14.2630 
G01 X49.0336 Y14.0689 
G01 X49.0336 Y13.8711 
G01 X49.0722 Y13.6770 
G01 X49.1479 Y13.4942 
G01 X49.2578 Y13.3297 
G01 X49.3977 Y13.1898 
G01 X49.5622 Y13.0799 
G01 X49.7450 Y13.0042 
G01 X49.9391 Y12.9656 
G01 X51.6609 Y12.9656 
G01 X51.8550 Y13.0042 
G01 X52.0378 Y13.0799 
G01 X52.2023 Y13.1898 
G01 X52.3422 Y13.3297 
G01 X52.4521 Y13.4942 
G01 X52.5278 Y13.6770 
G01 X52.5664 Y13.8711 
G01 X52.5664 Y14.0689 
G01 X52.5278 Y14.2630 
G01 X52.4521 Y14.4458 
G01 X52.3422 Y14.6103 
G01 X52.2023 Y14.7502 
G01 X52.0378 Y14.8601 
G01 X51.8550 Y14.9358 
G01 X51.6609 Y14.9744 
G01 X50.3180 Y14.9744 
G01 X49.7490 Y15.5434 
G01 X49.9391 Y15.5056 
G01 X51.6609 Y15.5056 
G01 X51.8550 Y15.5442 
G01 X52.0378 Y15.6199 
G01 X52.2023 Y15.7298 
G01 X52.3422 Y15.8697 
G01 X52.4521 Y16.0342 
G01 X52.5278 Y16.2170 
G01 X52.5664 Y16.4111 
G01 X52.5664 Y16.6089 
G01 X52.5278 Y16.8030 
G01 X52.4521 Y16.9858 
G01 X52.3422 Y17.1503 
G01 X52.2023 Y17.2902 
G01 X52.0378 Y17.4001 
G01 X51.8550 Y17.4758 
G01 X51.6609 Y17.5144 
G01 X50.3180 Y17.5144 
G01 X49.7568 Y18.0756 
G01 X49.7340 Y18.0888 
G01 X49.7450 Y18.0842 
G01 X49.9391 Y18.0456 
G01 X51.6609 Y18.0456 
G01 X51.8550 Y18.0842 
G01 X52.0378 Y18.1599 
G01 X52.2023 Y18.2698 
G01 X52.3422 Y18.4097 
G01 X52.4521 Y18.5742 
G01 X52.5278 Y18.7570 
G01 X52.5664 Y18.9511 
G01 X52.5664 Y19.1489 
G01 X52.5278 Y19.3430 
G01 X52.4521 Y19.5258 
G01 X52.3422 Y19.6903 
G01 X52.2023 Y19.8302 
G01 X52.0378 Y19.9401 
G01 X51.8550 Y20.0158 
G01 X51.6609 Y20.0544 
G01 X49.9391 Y20.0544 
G01 X49.7450 Y20.0158 
G01 X49.5622 Y19.9401 
G01 X49.3977 Y19.8302 
G01 X49.2578 Y19.6903 
G01 X49.1479 Y19.5258 
G01 X49.1039 Y19.4194 
G01 X40.7930 Y19.4194 
G01 X35.7868 Y24.4256 
G01 X35.7026 Y24.4742 
G01 X35.6086 Y24.4994 
G01 X34.8637 Y24.4994 
G01 X35.3325 Y24.9682 
G01 X35.3325 Y25.8318 
G01 X34.7218 Y26.4425 
G01 X33.8582 Y26.4425 
G01 X33.8140 Y26.3984 
G01 X32.0456 Y28.1668 
G01 X31.9768 Y28.2356 
G01 X31.8926 Y28.2842 
G01 X31.7986 Y28.3094 
G01 X23.7323 Y28.3094 
G01 X23.7281 Y28.3303 
G01 X23.6600 Y28.4946 
G01 X23.5612 Y28.6425 
G01 X23.4355 Y28.7682 
G01 X23.2876 Y28.8670 
G01 X23.1233 Y28.9351 
G01 X22.9489 Y28.9698 
G01 X22.7711 Y28.9698 
G01 X22.5967 Y28.9351 
G01 X22.4324 Y28.8670 
G01 X22.2845 Y28.7682 
G01 X22.1588 Y28.6425 
G01 X22.0600 Y28.4946 
G01 X21.9919 Y28.3303 
G01 X21.9877 Y28.3094 
G01 X16.6630 Y28.3094 
G01 X16.4686 Y28.5038 
G01 X16.4759 Y28.5088 
G01 X16.6016 Y28.6345 
G01 X16.7004 Y28.7824 
G01 X16.7685 Y28.9467 
G01 X16.8032 Y29.1211 
G01 X16.8032 Y29.2989 
G01 X16.7685 Y29.4733 
G01 X16.7004 Y29.6376 
G01 X16.6016 Y29.7855 
G01 X16.4759 Y29.9112 
G01 X16.3280 Y30.0100 
G01 X16.1637 Y30.0781 
G01 X15.9893 Y30.1128 
G01 X14.4907 Y30.1128 
G01 X14.3163 Y30.0781 
G01 X14.1520 Y30.0100 
G01 X14.0041 Y29.9112 
G01 X13.8784 Y29.7855 
G01 X13.7796 Y29.6376 
G01 X13.7115 Y29.4733 
G01 X13.6768 Y29.2989 
G01 X13.6768 Y29.1211 
G01 X13.7115 Y28.9467 
G01 X13.7796 Y28.7824 
G01 X13.8784 Y28.6345 
G01 X14.0041 Y28.5088 
G01 X14.1520 Y28.4100 
G01 X14.3163 Y28.3419 
G01 X14.4907 Y28.3072 
G01 X15.6204 Y28.3072 
G01 X16.2144 Y27.7132 
G01 X16.2832 Y27.6444 
G01 X16.3674 Y27.5958 
G01 X16.4614 Y27.5706 
G01 X22.1059 Y27.5706 
G01 X22.1588 Y27.4915 
G01 X22.2845 Y27.3658 
G01 X22.4324 Y27.2670 
G01 X22.5967 Y27.1989 
G01 X22.7711 Y27.1642 
G01 X22.9489 Y27.1642 
G01 X23.1233 Y27.1989 
G01 X23.2876 Y27.2670 
G01 X23.4355 Y27.3658 
G01 X23.5612 Y27.4915 
G01 X23.6141 Y27.5706 
G01 X31.5970 Y27.5706 
G01 X33.2916 Y25.8759 
G01 X33.2475 Y25.8318 
G01 X33.2475 Y24.9682 
G01 X33.7163 Y24.4994 
G01 X17.7314 Y24.4994 
G01 X17.6374 Y24.4742 
G01 X17.5532 Y24.4256 
G01 X17.4844 Y24.3568 
G01 X15.6204 Y22.4928 
G01 X14.4907 Y22.4928 
G01 X14.3163 Y22.4581 
G01 X14.1520 Y22.3900 
G01 X14.0041 Y22.2912 
G01 X13.8784 Y22.1655 
G01 X13.7796 Y22.0176 
G01 X13.7115 Y21.8533 
G01 X13.6768 Y21.6789 
G01 X13.6768 Y21.5011 
G01 X13.7115 Y21.3267 
G01 X13.7796 Y21.1624 
G01 X13.8784 Y21.0145 
G01 X14.0041 Y20.8888 
G01 X14.1520 Y20.7900 
G01 X14.3163 Y20.7219 
G01 X14.4907 Y20.6872 
G01 X15.9893 Y20.6872 
G01 X16.1637 Y20.7219 
G01 X16.3280 Y20.7900 
G01 X16.4759 Y20.8888 
G01 X16.6016 Y21.0145 
G01 X16.7004 Y21.1624 
G01 X16.7685 Y21.3267 
G01 X16.8032 Y21.5011 
G01 X16.8032 Y21.6789 
G01 X16.7685 Y21.8533 
G01 X16.7004 Y22.0176 
G01 X16.6016 Y22.1655 
G01 X16.4759 Y22.2912 
G01 X16.4686 Y22.2962 
G01 X17.9330 Y23.7606 
G01 X22.4839 Y23.7606 
G01 X21.9572 Y23.2340 
G01 X21.9572 Y23.2294 
G01 X21.5414 Y23.2294 
G01 X21.4474 Y23.2042 
G01 X21.3632 Y23.1556 
G01 X19.4304 Y21.2228 
G01 X19.0443 Y21.2228 
G01 X18.5155 Y20.6940 
G01 X18.5155 Y19.9460 
G01 X19.0422 Y19.4194 
G01 X16.7246 Y19.4194 
G01 X16.7004 Y19.4776 
G01 X16.6016 Y19.6255 
G01 X16.4759 Y19.7512 
G01 X16.3280 Y19.8500 
G01 X16.1637 Y19.9181 
G01 X15.9893 Y19.9528 
G01 X14.4907 Y19.9528 
G01 X14.3163 Y19.9181 
G01 X14.1520 Y19.8500 
G01 X14.0041 Y19.7512 
G01 X13.8784 Y19.6255 
G01 X13.7796 Y19.4776 
G01 X13.7115 Y19.3133 
G01 X13.6768 Y19.1389 
G01 X13.6768 Y18.9611 
G01 X13.7115 Y18.7867 
G01 X13.7796 Y18.6224 
G01 X13.8784 Y18.4745 
G01 X14.0041 Y18.3488 
G01 X14.1520 Y18.2500 
G01 X14.3163 Y18.1819 
G01 X14.4907 Y18.1472 
G01 X15.9893 Y18.1472 
G01 X16.1637 Y18.1819 
G01 X16.3280 Y18.2500 
G01 X16.4759 Y18.3488 
G01 X16.6016 Y18.4745 
G01 X16.7004 Y18.6224 
G01 X16.7246 Y18.6806 
G01 X33.7163 Y18.6806 
G01 X33.2475 Y18.2118 
G01 X33.2475 Y17.3482 
G01 X33.7163 Y16.8794 
G01 X16.7246 Y16.8794 
G01 X16.7004 Y16.9376 
G01 X16.6016 Y17.0855 
G01 X16.4759 Y17.2112 
G01 X16.3280 Y17.3100 
G01 X16.1637 Y17.3781 
G01 X15.9893 Y17.4128 
G01 X14.4907 Y17.4128 
G01 X14.3163 Y17.3781 
G01 X14.1520 Y17.3100 
G01 X14.0041 Y17.2112 
G01 X13.8784 Y17.0855 
G01 X13.7796 Y16.9376 
G01 X13.7115 Y16.7733 
G01 X13.6768 Y16.5989 
G01 X13.6768 Y16.4211 
G01 X13.7115 Y16.2467 
G01 X13.7796 Y16.0824 
G01 X13.8784 Y15.9345 
G01 X14.0041 Y15.8088 
G01 X14.1520 Y15.7100 
G01 X14.3163 Y15.6419 
G01 X14.4907 Y15.6072 
G01 X15.9893 Y15.6072 
G01 X16.1637 Y15.6419 
G01 X16.3280 Y15.7100 
G01 X16.4759 Y15.8088 
G01 X16.6016 Y15.9345 
G01 X16.7004 Y16.0824 
G01 X16.7246 Y16.1406 
G01 X33.7163 Y16.1406 
G01 X33.2475 Y15.6718 
G01 X33.2475 Y14.8082 
G01 X33.2916 Y14.7640 
G01 X31.5970 Y13.0694 
G01 X20.3211 Y13.0694 
G01 X20.3211 Y13.0739 
G01 X19.7922 Y13.6028 
G01 X19.0443 Y13.6028 
G01 X18.5155 Y13.0739 
G01 X18.5155 Y12.6879 
G01 X15.6204 Y9.7928 
G01 X14.4907 Y9.7928 
G01 X14.3163 Y9.7581 
G01 X14.1520 Y9.6900 
G01 X14.0041 Y9.5912 
G01 X13.8784 Y9.4655 
G01 X13.7796 Y9.3176 
G01 X13.7115 Y9.1533 
G01 X13.6768 Y8.9789 
G01 X13.6768 Y8.8011 
G01 X13.7115 Y8.6267 
G01 X13.7796 Y8.4624 
G01 X13.8784 Y8.3145 
G01 X14.0041 Y8.1888 
G01 X14.1520 Y8.0899 
G01 X14.3163 Y8.0219 
G01 X14.4796 Y7.9894 
G01 X13.0694 Y7.9894 
G01 X13.0694 Y11.2770 
G01 X14.8596 Y13.0672 
G01 X15.9893 Y13.0672 
G01 X16.1637 Y13.1019 
G01 X16.3280 Y13.1700 
G01 X16.4759 Y13.2688 
G01 X16.6016 Y13.3945 
G01 X16.7004 Y13.5424 
G01 X16.7685 Y13.7067 
G01 X16.8032 Y13.8811 
G01 X16.8032 Y14.0589 
G01 X16.7685 Y14.2333 
G01 X16.7004 Y14.3976 
G01 X16.6016 Y14.5455 
G01 X16.4759 Y14.6712 
G01 X16.3280 Y14.7700 
G01 X16.1637 Y14.8381 
G01 X15.9893 Y14.8728 
G01 X14.4907 Y14.8728 
G01 X14.3163 Y14.8381 
G01 X14.1520 Y14.7700 
G01 X14.0041 Y14.6712 
G01 X13.8784 Y14.5455 
G01 X13.7796 Y14.3976 
G01 X13.7115 Y14.2333 
G01 X13.6768 Y14.0589 
G01 X13.6768 Y13.8811 
G01 X13.7115 Y13.7067 
G01 X13.7796 Y13.5424 
G01 X13.8784 Y13.3945 
G01 X14.0041 Y13.2688 
G01 X14.0114 Y13.2638 
G01 X12.4732 Y11.7256 
G01 X12.4044 Y11.6568 
G01 X12.3558 Y11.5726 
G01 X12.3306 Y11.4786 
G01 X12.3306 Y7.5714 
G01 X12.3558 Y7.4774 
G01 X12.4044 Y7.3932 
G01 X12.4732 Y7.3244 
G01 X12.5574 Y7.2758 
G01 X12.6514 Y7.2506 
G01 X17.8286 Y7.2506 
G01 X17.9226 Y7.2758 
G01 X18.0068 Y7.3244 
G01 X18.5510 Y7.8686 
G01 X18.5132 Y7.7944 
G01 X18.4557 Y7.6174 
G01 X18.4266 Y7.4336 
G01 X18.4266 Y7.2476 
G01 X18.4557 Y7.0638 
G01 X18.5132 Y6.8868 
G01 X18.5977 Y6.7210 
G01 X18.7071 Y6.5704 
G01 X18.8386 Y6.4389 
G01 X18.9892 Y6.3295 
G01 X19.1550 Y6.2450 
G01 X19.3320 Y6.1875 
G01 X19.5158 Y6.1584 
G01 X19.7018 Y6.1584 
G01 X19.8856 Y6.1875 
G01 X20.0626 Y6.2450 
G01 X20.2284 Y6.3295 
G01 X20.3789 Y6.4389 
G01 X20.5105 Y6.5704 
G01 X20.6199 Y6.7210 
G01 X20.7044 Y6.8868 
G01 X20.7619 Y7.0638 
G01 X20.7910 Y7.2476 
G01 X20.7910 Y7.4336 
G01 X20.7619 Y7.6174 
G01 X20.7044 Y7.7944 
G01 X20.6199 Y7.9602 
G01 X20.5105 Y8.1108 
G01 X20.3789 Y8.2423 
G01 X20.2284 Y8.3517 
G01 X20.0626 Y8.4362 
G01 X19.8856 Y8.4937 
G01 X19.7018 Y8.5228 
G01 X19.5158 Y8.5228 
G01 X19.3320 Y8.4937 
G01 X19.1550 Y8.4362 
G01 X19.0808 Y8.3984 
G01 X21.7430 Y11.0606 
G01 X49.1039 Y11.0606 
G01 X49.1479 Y10.9542 
G01 X49.2578 Y10.7897 
G01 X49.3977 Y10.6498 
G01 X49.5622 Y10.5399 
G01 X49.7450 Y10.4642 
G01 X49.9391 Y10.4256 
G01 X51.6609 Y10.4256 
G01 X51.8550 Y10.4642 
G01 X52.0378 Y10.5399 
G01 X52.2023 Y10.6498 
G01 X52.3422 Y10.7897 
G01 X52.4521 Y10.9542 
G01 X52.5278 Y11.1370 
G01 X52.5664 Y11.3311 
G01 X52.5664 Y11.5289 
G01 X52.5278 Y11.7230 
G01 X52.4521 Y11.9058 
G01 X52.3422 Y12.0703 
G01 X52.2023 Y12.2102 
G01 X52.0378 Y12.3201 
G01 X51.8550 Y12.3958 
G01 X51.6609 Y12.4344 
G01 X49.9391 Y12.4344 
G01 X49.7450 Y12.3958 
G01 X49.5622 Y12.3201 
G01 X49.3977 Y12.2102 
G01 X49.2578 Y12.0703 
G01 X49.1479 Y11.9058 
G01 X49.1039 Y11.7994 
G01 X21.5414 Y11.7994 
G01 X21.4474 Y11.7742 
G01 X21.3632 Y11.7256 
G01 X21.2944 Y11.6568 
G01 X17.6270 Y7.9894 
G01 X16.0004 Y7.9894 
G01 X16.1637 Y8.0219 
G01 X16.3280 Y8.0899 
G01 X16.4759 Y8.1888 
G01 X16.6016 Y8.3145 
G01 X16.7004 Y8.4624 
G01 X16.7685 Y8.6267 
G01 X16.8032 Y8.8011 
G01 X16.8032 Y8.9789 
G01 X16.7685 Y9.1533 
G01 X16.7004 Y9.3176 
G01 X16.6016 Y9.4655 
G01 X16.4759 Y9.5912 
G01 X16.4686 Y9.5961 
G01 X18.8570 Y11.9846 
G01 X19.0443 Y11.7972 
G01 X19.7922 Y11.7972 
G01 X20.3211 Y12.3260 
G00 Z2.5400 
G00 X41.5428 Y23.7560 
G01 Z-0.1500 F254.00 
G01 X41.5428 Y24.5039 F508.00 
G01 X41.0140 Y25.0328 
G01 X40.2660 Y25.0328 
G01 X39.7372 Y24.5039 
G01 X39.7372 Y23.7560 
G01 X40.2660 Y23.2272 
G01 X41.0140 Y23.2272 
G01 X41.5428 Y23.7560 
G00 Z2.5400 
G00 X35.3325 Y33.8582 
G01 Z-0.1500 F254.00 
G01 X35.3325 Y34.7218 F508.00 
G01 X34.7218 Y35.3325 
G01 X33.8582 Y35.3325 
G01 X33.2475 Y34.7218 
G01 X33.2475 Y33.8582 
G01 X33.8582 Y33.2475 
G01 X33.9206 Y33.2475 
G01 X33.9206 Y28.9825 
G01 X33.8582 Y28.9825 
G01 X33.2475 Y28.3718 
G01 X33.2475 Y27.5082 
G01 X33.8582 Y26.8975 
G01 X34.7218 Y26.8975 
G01 X34.7660 Y26.9416 
G01 X39.7404 Y21.9672 
G01 X39.7372 Y21.9640 
G01 X39.7372 Y21.2160 
G01 X40.2660 Y20.6872 
G01 X41.0140 Y20.6872 
G01 X41.5428 Y21.2160 
G01 X41.5428 Y21.9640 
G01 X41.0140 Y22.4928 
G01 X40.2660 Y22.4928 
G01 X40.2628 Y22.4896 
G01 X35.2884 Y27.4640 
G01 X35.3325 Y27.5082 
G01 X35.3325 Y28.3718 
G01 X34.7218 Y28.9825 
G01 X34.6594 Y28.9825 
G01 X34.6594 Y33.2475 
G01 X34.7218 Y33.2475 
G01 X35.3325 Y33.8582 
G00 Z2.5400 
G00 X6.8707 Y7.9872 
G01 Z-0.1500 F254.00 
G01 X8.3693 Y7.9872 F508.00 
G01 X8.5437 Y8.0219 
G01 X8.7080 Y8.0899 
G01 X8.8559 Y8.1888 
G01 X8.9816 Y8.3145 
G01 X9.0804 Y8.4624 
G01 X9.1485 Y8.6267 
G01 X9.1832 Y8.8011 
G01 X9.1832 Y8.9789 
G01 X9.1485 Y9.1533 
G01 X9.0804 Y9.3176 
G01 X8.9816 Y9.4655 
G01 X8.8559 Y9.5912 
G01 X8.7080 Y9.6900 
G01 X8.5437 Y9.7581 
G01 X8.3693 Y9.7928 
G01 X6.8707 Y9.7928 
G01 X6.6963 Y9.7581 
G01 X6.5320 Y9.6900 
G01 X6.3841 Y9.5912 
G01 X6.2584 Y9.4655 
G01 X6.1596 Y9.3176 
G01 X6.1354 Y9.2594 
G01 X4.2361 Y9.2594 
G01 X4.1921 Y9.3658 
G01 X4.0822 Y9.5303 
G01 X3.9423 Y9.6702 
G01 X3.7778 Y9.7801 
G01 X3.5950 Y9.8558 
G01 X3.4009 Y9.8944 
G01 X1.6791 Y9.8944 
G01 X1.4850 Y9.8558 
G01 X1.3022 Y9.7801 
G01 X1.1377 Y9.6702 
G01 X0.9978 Y9.5303 
G01 X0.8879 Y9.3658 
G01 X0.8122 Y9.1830 
G01 X0.7736 Y8.9889 
G01 X0.7736 Y8.7911 
G01 X0.8122 Y8.5970 
G01 X0.8879 Y8.4142 
G01 X0.9978 Y8.2497 
G01 X1.1377 Y8.1098 
G01 X1.3022 Y7.9999 
G01 X1.4850 Y7.9242 
G01 X1.6791 Y7.8856 
G01 X3.4009 Y7.8856 
G01 X3.5950 Y7.9242 
G01 X3.7778 Y7.9999 
G01 X3.9423 Y8.1098 
G01 X4.0822 Y8.2497 
G01 X4.1921 Y8.4142 
G01 X4.2361 Y8.5206 
G01 X6.1354 Y8.5206 
G01 X6.1596 Y8.4624 
G01 X6.2584 Y8.3145 
G01 X6.3841 Y8.1888 
G01 X6.5320 Y8.0899 
G01 X6.6963 Y8.0219 
G01 X6.8707 Y7.9872 
G00 Z2.5400 
G00 X6.8707 Y13.0672 
G01 Z-0.1500 F254.00 
G01 X8.3693 Y13.0672 F508.00 
G01 X8.5437 Y13.1019 
G01 X8.7080 Y13.1700 
G01 X8.8559 Y13.2688 
G01 X8.9816 Y13.3945 
G01 X9.0804 Y13.5424 
G01 X9.1485 Y13.7067 
G01 X9.1832 Y13.8811 
G01 X9.1832 Y14.0589 
G01 X9.1485 Y14.2333 
G01 X9.0804 Y14.3976 
G01 X8.9816 Y14.5455 
G01 X8.8559 Y14.6712 
G01 X8.7080 Y14.7700 
G01 X8.5437 Y14.8381 
G01 X8.3693 Y14.8728 
G01 X6.8707 Y14.8728 
G01 X6.6963 Y14.8381 
G01 X6.5320 Y14.7700 
G01 X6.3841 Y14.6712 
G01 X6.2584 Y14.5455 
G01 X6.1596 Y14.3976 
G01 X6.1354 Y14.3394 
G01 X4.2361 Y14.3394 
G01 X4.1921 Y14.4458 
G01 X4.0822 Y14.6103 
G01 X3.9423 Y14.7502 
G01 X3.7778 Y14.8601 
G01 X3.5950 Y14.9358 
G01 X3.4009 Y14.9744 
G01 X1.6791 Y14.9744 
G01 X1.4850 Y14.9358 
G01 X1.3022 Y14.8601 
G01 X1.1377 Y14.7502 
G01 X0.9978 Y14.6103 
G01 X0.8879 Y14.4458 
G01 X0.8122 Y14.2630 
G01 X0.7736 Y14.0689 
G01 X0.7736 Y13.8711 
G01 X0.8122 Y13.6770 
G01 X0.8879 Y13.4942 
G01 X0.9978 Y13.3297 
G01 X1.1377 Y13.1898 
G01 X1.3022 Y13.0799 
G01 X1.4850 Y13.0042 
G01 X1.6791 Y12.9656 
G01 X3.4009 Y12.9656 
G01 X3.5950 Y13.0042 
G01 X3.7778 Y13.0799 
G01 X3.9423 Y13.1898 
G01 X4.0822 Y13.3297 
G01 X4.1921 Y13.4942 
G01 X4.2361 Y13.6006 
G01 X6.1354 Y13.6006 
G01 X6.1596 Y13.5424 
G01 X6.2584 Y13.3945 
G01 X6.3841 Y13.2688 
G01 X6.5320 Y13.1700 
G01 X6.6963 Y13.1019 
G01 X6.8707 Y13.0672 
G00 Z2.5400 
G00 X6.8707 Y18.1472 
G01 Z-0.1500 F254.00 
G01 X8.3693 Y18.1472 F508.00 
G01 X8.5437 Y18.1819 
G01 X8.7080 Y18.2500 
G01 X8.8559 Y18.3488 
G01 X8.9816 Y18.4745 
G01 X9.0804 Y18.6224 
G01 X9.1485 Y18.7867 
G01 X9.1832 Y18.9611 
G01 X9.1832 Y19.1389 
G01 X9.1485 Y19.3133 
G01 X9.0804 Y19.4776 
G01 X8.9816 Y19.6255 
G01 X8.8559 Y19.7512 
G01 X8.7080 Y19.8500 
G01 X8.5437 Y19.9181 
G01 X8.3693 Y19.9528 
G01 X6.8707 Y19.9528 
G01 X6.6963 Y19.9181 
G01 X6.5320 Y19.8500 
G01 X6.3841 Y19.7512 
G01 X6.2584 Y19.6255 
G01 X6.1596 Y19.4776 
G01 X6.1354 Y19.4194 
G01 X4.2361 Y19.4194 
G01 X4.1921 Y19.5258 
G01 X4.0822 Y19.6903 
G01 X3.9423 Y19.8302 
G01 X3.7778 Y19.9401 
G01 X3.5950 Y20.0158 
G01 X3.4009 Y20.0544 
G01 X1.6791 Y20.0544 
G01 X1.4850 Y20.0158 
G01 X1.3022 Y19.9401 
G01 X1.1377 Y19.8302 
G01 X0.9978 Y19.6903 
G01 X0.8879 Y19.5258 
G01 X0.8122 Y19.3430 
G01 X0.7736 Y19.1489 
G01 X0.7736 Y18.9511 
G01 X0.8122 Y18.7570 
G01 X0.8879 Y18.5742 
G01 X0.9978 Y18.4097 
G01 X1.1377 Y18.2698 
G01 X1.3022 Y18.1599 
G01 X1.4850 Y18.0842 
G01 X1.6791 Y18.0456 
G01 X3.4009 Y18.0456 
G01 X3.5950 Y18.0842 
G01 X3.7778 Y18.1599 
G01 X3.9423 Y18.2698 
G01 X4.0822 Y18.4097 
G01 X4.1921 Y18.5742 
G01 X4.2361 Y18.6806 
G01 X6.1354 Y18.6806 
G01 X6.1596 Y18.6224 
G01 X6.2584 Y18.4745 
G01 X6.3841 Y18.3488 
G01 X6.5320 Y18.2500 
G01 X6.6963 Y18.1819 
G01 X6.8707 Y18.1472 
G00 Z2.5400 
G00 X6.8707 Y25.7672 
G01 Z-0.1500 F254.00 
G01 X8.3693 Y25.7672 F508.00 
G01 X8.5437 Y25.8019 
G01 X8.7080 Y25.8700 
G01 X8.8559 Y25.9688 
G01 X8.9816 Y26.0945 
G01 X9.0804 Y26.2424 
G01 X9.1485 Y26.4067 
G01 X9.1832 Y26.5811 
G01 X9.1832 Y26.7589 
G01 X9.1485 Y26.9333 
G01 X9.0804 Y27.0976 
G01 X8.9816 Y27.2455 
G01 X8.8559 Y27.3712 
G01 X8.7080 Y27.4700 
G01 X8.5437 Y27.5381 
G01 X8.3693 Y27.5728 
G01 X6.8707 Y27.5728 
G01 X6.6963 Y27.5381 
G01 X6.5320 Y27.4700 
G01 X6.3841 Y27.3712 
G01 X6.2584 Y27.2455 
G01 X6.1596 Y27.0976 
G01 X6.0915 Y26.9333 
G01 X6.0568 Y26.7589 
G01 X6.0568 Y26.5811 
G01 X6.0915 Y26.4067 
G01 X6.1596 Y26.2424 
G01 X6.2584 Y26.0945 
G01 X6.3841 Y25.9688 
G01 X6.5320 Y25.8700 
G01 X6.6963 Y25.8019 
G01 X6.8707 Y25.7672 
G00 Z2.5400 
G00 X6.8707 Y28.3072 
G01 Z-0.1500 F254.00 
G01 X8.3693 Y28.3072 F508.00 
G01 X8.5437 Y28.3419 
G01 X8.7080 Y28.4100 
G01 X8.8559 Y28.5088 
G01 X8.9816 Y28.6345 
G01 X9.0804 Y28.7824 
G01 X9.1485 Y28.9467 
G01 X9.1832 Y29.1211 
G01 X9.1832 Y29.2989 
G01 X9.1485 Y29.4733 
G01 X9.0804 Y29.6376 
G01 X8.9816 Y29.7855 
G01 X8.8559 Y29.9112 
G01 X8.7080 Y30.0100 
G01 X8.5437 Y30.0781 
G01 X8.3693 Y30.1128 
G01 X6.8707 Y30.1128 
G01 X6.6963 Y30.0781 
G01 X6.5320 Y30.0100 
G01 X6.3841 Y29.9112 
G01 X6.2584 Y29.7855 
G01 X6.1596 Y29.6376 
G01 X6.0915 Y29.4733 
G01 X6.0568 Y29.2989 
G01 X6.0568 Y29.1211 
G01 X6.0915 Y28.9467 
G01 X6.1596 Y28.7824 
G01 X6.2584 Y28.6345 
G01 X6.3841 Y28.5088 
G01 X6.5320 Y28.4100 
G01 X6.6963 Y28.3419 
G01 X6.8707 Y28.3072 
G00 Z2.5400 
G00 X6.8707 Y30.8472 
G01 Z-0.1500 F254.00 
G01 X8.3693 Y30.8472 F508.00 
G01 X8.5437 Y30.8819 
G01 X8.7080 Y30.9500 
G01 X8.8559 Y31.0488 
G01 X8.9816 Y31.1745 
G01 X9.0804 Y31.3224 
G01 X9.1485 Y31.4867 
G01 X9.1832 Y31.6611 
G01 X9.1832 Y31.8389 
G01 X9.1485 Y32.0133 
G01 X9.0804 Y32.1776 
G01 X8.9816 Y32.3255 
G01 X8.8559 Y32.4512 
G01 X8.7080 Y32.5500 
G01 X8.5437 Y32.6181 
G01 X8.3693 Y32.6528 
G01 X6.8707 Y32.6528 
G01 X6.6963 Y32.6181 
G01 X6.5320 Y32.5500 
G01 X6.3841 Y32.4512 
G01 X6.2584 Y32.3255 
G01 X6.1596 Y32.1776 
G01 X6.0915 Y32.0133 
G01 X6.0568 Y31.8389 
G01 X6.0568 Y31.6611 
G01 X6.0915 Y31.4867 
G01 X6.1596 Y31.3224 
G01 X6.2584 Y31.1745 
G01 X6.3841 Y31.0488 
G01 X6.5320 Y30.9500 
G01 X6.6963 Y30.8819 
G01 X6.8707 Y30.8472 
G00 Z2.5400 
G00 X6.8707 Y33.3872 
G01 Z-0.1500 F254.00 
G01 X8.3693 Y33.3872 F508.00 
G01 X8.5437 Y33.4219 
G01 X8.7080 Y33.4900 
G01 X8.8559 Y33.5888 
G01 X8.9816 Y33.7145 
G01 X9.0804 Y33.8624 
G01 X9.1485 Y34.0267 
G01 X9.1832 Y34.2011 
G01 X9.1832 Y34.3789 
G01 X9.1485 Y34.5533 
G01 X9.0804 Y34.7176 
G01 X8.9816 Y34.8655 
G01 X8.8559 Y34.9912 
G01 X8.7080 Y35.0900 
G01 X8.5437 Y35.1581 
G01 X8.3693 Y35.1928 
G01 X6.8707 Y35.1928 
G01 X6.6963 Y35.1581 
G01 X6.5320 Y35.0900 
G01 X6.3841 Y34.9912 
G01 X6.2584 Y34.8655 
G01 X6.1596 Y34.7176 
G01 X6.0915 Y34.5533 
G01 X6.0568 Y34.3789 
G01 X6.0568 Y34.2011 
G01 X6.0915 Y34.0267 
G01 X6.1596 Y33.8624 
G01 X6.2584 Y33.7145 
G01 X6.3841 Y33.5888 
G01 X6.5320 Y33.4900 
G01 X6.6963 Y33.4219 
G01 X6.8707 Y33.3872 
G00 Z2.5400 
G00 X6.8707 Y38.4672 
G01 Z-0.1500 F254.00 
G01 X8.3693 Y38.4672 F508.00 
G01 X8.5437 Y38.5019 
G01 X8.7080 Y38.5699 
G01 X8.8559 Y38.6688 
G01 X8.9816 Y38.7945 
G01 X9.0804 Y38.9424 
G01 X9.1485 Y39.1067 
G01 X9.1832 Y39.2811 
G01 X9.1832 Y39.4589 
G01 X9.1485 Y39.6333 
G01 X9.0804 Y39.7976 
G01 X8.9816 Y39.9455 
G01 X8.8559 Y40.0712 
G01 X8.7080 Y40.1700 
G01 X8.5437 Y40.2381 
G01 X8.3693 Y40.2728 
G01 X6.8707 Y40.2728 
G01 X6.6963 Y40.2381 
G01 X6.5320 Y40.1700 
G01 X6.3841 Y40.0712 
G01 X6.2584 Y39.9455 
G01 X6.1596 Y39.7976 
G01 X6.0915 Y39.6333 
G01 X6.0568 Y39.4589 
G01 X6.0568 Y39.2811 
G01 X6.0915 Y39.1067 
G01 X6.1596 Y38.9424 
G01 X6.2584 Y38.7945 
G01 X6.3841 Y38.6688 
G01 X6.5320 Y38.5699 
G01 X6.6963 Y38.5019 
G01 X6.8707 Y38.4672 
G00 Z2.5400 
G00 X14.4907 Y35.9272 
G01 Z-0.1500 F254.00 
G01 X15.9893 Y35.9272 F508.00 
G01 X16.1637 Y35.9619 
G01 X16.3280 Y36.0299 
G01 X16.4759 Y36.1288 
G01 X16.6016 Y36.2545 
G01 X16.7004 Y36.4024 
G01 X16.7685 Y36.5667 
G01 X16.8032 Y36.7411 
G01 X16.8032 Y36.9189 
G01 X16.7685 Y37.0933 
G01 X16.7004 Y37.2576 
G01 X16.6016 Y37.4055 
G01 X16.4759 Y37.5312 
G01 X16.3280 Y37.6300 
G01 X16.1637 Y37.6981 
G01 X15.9893 Y37.7328 
G01 X14.4907 Y37.7328 
G01 X14.3163 Y37.6981 
G01 X14.1520 Y37.6300 
G01 X14.0041 Y37.5312 
G01 X13.8784 Y37.4055 
G01 X13.7796 Y37.2576 
G01 X13.7115 Y37.0933 
G01 X13.6768 Y36.9189 
G01 X13.6768 Y36.7411 
G01 X13.7115 Y36.5667 
G01 X13.7796 Y36.4024 
G01 X13.8784 Y36.2545 
G01 X14.0041 Y36.1288 
G01 X14.1520 Y36.0299 
G01 X14.3163 Y35.9619 
G01 X14.4907 Y35.9272 
G00 Z2.5400 
G00 X14.4907 Y33.3872 
G01 Z-0.1500 F254.00 
G01 X15.9893 Y33.3872 F508.00 
G01 X16.1637 Y33.4219 
G01 X16.3280 Y33.4900 
G01 X16.4759 Y33.5888 
G01 X16.6016 Y33.7145 
G01 X16.7004 Y33.8624 
G01 X16.7685 Y34.0267 
G01 X16.8032 Y34.2011 
G01 X16.8032 Y34.3789 
G01 X16.7685 Y34.5533 
G01 X16.7004 Y34.7176 
G01 X16.6016 Y34.8655 
G01 X16.4759 Y34.9912 
G01 X16.3280 Y35.0900 
G01 X16.1637 Y35.1581 
G01 X15.9893 Y35.1928 
G01 X14.4907 Y35.1928 
G01 X14.3163 Y35.1581 
G01 X14.1520 Y35.0900 
G01 X14.0041 Y34.9912 
G01 X13.8784 Y34.8655 
G01 X13.7796 Y34.7176 
G01 X13.7115 Y34.5533 
G01 X13.6768 Y34.3789 
G01 X13.6768 Y34.2011 
G01 X13.7115 Y34.0267 
G01 X13.7796 Y33.8624 
G01 X13.8784 Y33.7145 
G01 X14.0041 Y33.5888 
G01 X14.1520 Y33.4900 
G01 X14.3163 Y33.4219 
G01 X14.4907 Y33.3872 
G00 Z2.5400 
G00 X14.4907 Y23.2272 
G01 Z-0.1500 F254.00 
G01 X15.9893 Y23.2272 F508.00 
G01 X16.1637 Y23.2619 
G01 X16.3280 Y23.3300 
G01 X16.4759 Y23.4288 
G01 X16.6016 Y23.5545 
G01 X16.7004 Y23.7024 
G01 X16.7685 Y23.8667 
G01 X16.8032 Y24.0411 
G01 X16.8032 Y24.2189 
G01 X16.7685 Y24.3933 
G01 X16.7004 Y24.5576 
G01 X16.6016 Y24.7055 
G01 X16.4759 Y24.8312 
G01 X16.3280 Y24.9300 
G01 X16.1637 Y24.9981 
G01 X15.9893 Y25.0328 
G01 X14.4907 Y25.0328 
G01 X14.3163 Y24.9981 
G01 X14.1520 Y24.9300 
G01 X14.0041 Y24.8312 
G01 X13.8784 Y24.7055 
G01 X13.7796 Y24.5576 
G01 X13.7115 Y24.3933 
G01 X13.6768 Y24.2189 
G01 X13.6768 Y24.0411 
G01 X13.7115 Y23.8667 
G01 X13.7796 Y23.7024 
G01 X13.8784 Y23.5545 
G01 X14.0041 Y23.4288 
G01 X14.1520 Y23.3300 
G01 X14.3163 Y23.2619 
G01 X14.4907 Y23.2272 
G00 Z2.5400 
G00 X14.4907 Y10.5272 
G01 Z-0.1500 F254.00 
G01 X15.9893 Y10.5272 F508.00 
G01 X16.1637 Y10.5619 
G01 X16.3280 Y10.6300 
G01 X16.4759 Y10.7287 
G01 X16.6016 Y10.8545 
G01 X16.7004 Y11.0024 
G01 X16.7685 Y11.1667 
G01 X16.8032 Y11.3411 
G01 X16.8032 Y11.5189 
G01 X16.7685 Y11.6933 
G01 X16.7004 Y11.8576 
G01 X16.6016 Y12.0055 
G01 X16.4759 Y12.1312 
G01 X16.3280 Y12.2300 
G01 X16.1637 Y12.2981 
G01 X15.9893 Y12.3328 
G01 X14.4907 Y12.3328 
G01 X14.3163 Y12.2981 
G01 X14.1520 Y12.2300 
G01 X14.0041 Y12.1312 
G01 X13.8784 Y12.0055 
G01 X13.7796 Y11.8576 
G01 X13.7115 Y11.6933 
G01 X13.6768 Y11.5189 
G01 X13.6768 Y11.3411 
G01 X13.7115 Y11.1667 
G01 X13.7796 Y11.0024 
G01 X13.8784 Y10.8545 
G01 X14.0041 Y10.7287 
G01 X14.1520 Y10.6300 
G01 X14.3163 Y10.5619 
G01 X14.4907 Y10.5272 
G00 Z2.5400 
G00 X51.6609 Y9.8944 
G01 Z-0.1500 F254.00 
G01 X49.9391 Y9.8944 F508.00 
G01 X49.7450 Y9.8558 
G01 X49.5622 Y9.7801 
G01 X49.3977 Y9.6702 
G01 X49.2578 Y9.5303 
G01 X49.1479 Y9.3658 
G01 X49.0722 Y9.1830 
G01 X49.0336 Y8.9889 
G01 X49.0336 Y8.7911 
G01 X49.0722 Y8.5970 
G01 X49.1479 Y8.4142 
G01 X49.2578 Y8.2497 
G01 X49.3977 Y8.1098 
G01 X49.5622 Y7.9999 
G01 X49.7450 Y7.9242 
G01 X49.9391 Y7.8856 
G01 X51.6609 Y7.8856 
G01 X51.8550 Y7.9242 
G01 X52.0378 Y7.9999 
G01 X52.2023 Y8.1098 
G01 X52.3422 Y8.2497 
G01 X52.4521 Y8.4142 
G01 X52.5278 Y8.5970 
G01 X52.5664 Y8.7911 
G01 X52.5664 Y8.9889 
G01 X52.5278 Y9.1830 
G01 X52.4521 Y9.3658 
G01 X52.3422 Y9.5303 
G01 X52.2023 Y9.6702 
G01 X52.0378 Y9.7801 
G01 X51.8550 Y9.8558 
G01 X51.6609 Y9.8944 
G00 Z2.5400 
G00 X51.6609 Y22.5944 
G01 Z-0.1500 F254.00 
G01 X49.9391 Y22.5944 F508.00 
G01 X49.7450 Y22.5558 
G01 X49.5622 Y22.4801 
G01 X49.3977 Y22.3702 
G01 X49.2578 Y22.2303 
G01 X49.1479 Y22.0658 
G01 X49.0722 Y21.8830 
G01 X49.0336 Y21.6889 
G01 X49.0336 Y21.4911 
G01 X49.0722 Y21.2970 
G01 X49.1479 Y21.1142 
G01 X49.2578 Y20.9497 
G01 X49.3977 Y20.8098 
G01 X49.5622 Y20.6999 
G01 X49.7450 Y20.6242 
G01 X49.9391 Y20.5856 
G01 X51.6609 Y20.5856 
G01 X51.8550 Y20.6242 
G01 X52.0378 Y20.6999 
G01 X52.2023 Y20.8098 
G01 X52.3422 Y20.9497 
G01 X52.4521 Y21.1142 
G01 X52.5278 Y21.2970 
G01 X52.5664 Y21.4911 
G01 X52.5664 Y21.6889 
G01 X52.5278 Y21.8830 
G01 X52.4521 Y22.0658 
G01 X52.3422 Y22.2303 
G01 X52.2023 Y22.3702 
G01 X52.0378 Y22.4801 
G01 X51.8550 Y22.5558 
G01 X51.6609 Y22.5944 
G00 Z2.5400 
G00 X51.6609 Y25.1344 
G01 Z-0.1500 F254.00 
G01 X49.9391 Y25.1344 F508.00 
G01 X49.7450 Y25.0958 
G01 X49.5622 Y25.0201 
G01 X49.3977 Y24.9102 
G01 X49.2578 Y24.7703 
G01 X49.1479 Y24.6058 
G01 X49.0722 Y24.4230 
G01 X49.0336 Y24.2289 
G01 X49.0336 Y24.0311 
G01 X49.0722 Y23.8370 
G01 X49.1479 Y23.6542 
G01 X49.2578 Y23.4897 
G01 X49.3977 Y23.3498 
G01 X49.5622 Y23.2399 
G01 X49.7450 Y23.1642 
G01 X49.9391 Y23.1256 
G01 X51.6609 Y23.1256 
G01 X51.8550 Y23.1642 
G01 X52.0378 Y23.2399 
G01 X52.2023 Y23.3498 
G01 X52.3422 Y23.4897 
G01 X52.4521 Y23.6542 
G01 X52.5278 Y23.8370 
G01 X52.5664 Y24.0311 
G01 X52.5664 Y24.2289 
G01 X52.5278 Y24.4230 
G01 X52.4521 Y24.6058 
G01 X52.3422 Y24.7703 
G01 X52.2023 Y24.9102 
G01 X52.0378 Y25.0201 
G01 X51.8550 Y25.0958 
G01 X51.6609 Y25.1344 
G00 Z2.5400 
G00 X51.6609 Y27.6744 
G01 Z-0.1500 F254.00 
G01 X50.3180 Y27.6744 F508.00 
G01 X39.5968 Y38.3956 
G01 X39.5126 Y38.4442 
G01 X39.4186 Y38.4694 
G01 X16.6630 Y38.4694 
G01 X16.4686 Y38.6638 
G01 X16.4759 Y38.6688 
G01 X16.6016 Y38.7945 
G01 X16.7004 Y38.9424 
G01 X16.7685 Y39.1067 
G01 X16.8032 Y39.2811 
G01 X16.8032 Y39.4589 
G01 X16.7685 Y39.6333 
G01 X16.7004 Y39.7976 
G01 X16.6016 Y39.9455 
G01 X16.4759 Y40.0712 
G01 X16.3280 Y40.1700 
G01 X16.1637 Y40.2381 
G01 X15.9893 Y40.2728 
G01 X14.4907 Y40.2728 
G01 X14.3163 Y40.2381 
G01 X14.1520 Y40.1700 
G01 X14.0041 Y40.0712 
G01 X13.8784 Y39.9455 
G01 X13.7796 Y39.7976 
G01 X13.7115 Y39.6333 
G01 X13.6768 Y39.4589 
G01 X13.6768 Y39.2811 
G01 X13.7115 Y39.1067 
G01 X13.7796 Y38.9424 
G01 X13.8784 Y38.7945 
G01 X14.0041 Y38.6688 
G01 X14.1520 Y38.5699 
G01 X14.3163 Y38.5019 
G01 X14.4907 Y38.4672 
G01 X15.6204 Y38.4672 
G01 X16.2144 Y37.8732 
G01 X16.2832 Y37.8044 
G01 X16.3674 Y37.7558 
G01 X16.4614 Y37.7306 
G01 X33.7163 Y37.7306 
G01 X33.2475 Y37.2618 
G01 X33.2475 Y36.3982 
G01 X33.2916 Y36.3540 
G01 X30.3270 Y33.3894 
G01 X23.6141 Y33.3894 
G01 X23.5612 Y33.4685 
G01 X23.4355 Y33.5942 
G01 X23.2876 Y33.6930 
G01 X23.1233 Y33.7611 
G01 X22.9489 Y33.7958 
G01 X22.7711 Y33.7958 
G01 X22.5967 Y33.7611 
G01 X22.4324 Y33.6930 
G01 X22.2845 Y33.5942 
G01 X22.1588 Y33.4685 
G01 X22.1059 Y33.3894 
G01 X16.4614 Y33.3894 
G01 X16.3674 Y33.3642 
G01 X16.2832 Y33.3156 
G01 X16.2144 Y33.2468 
G01 X15.6204 Y32.6528 
G01 X14.4907 Y32.6528 
G01 X14.3163 Y32.6181 
G01 X14.1520 Y32.5500 
G01 X14.0041 Y32.4512 
G01 X13.8784 Y32.3255 
G01 X13.7796 Y32.1776 
G01 X13.7115 Y32.0133 
G01 X13.6768 Y31.8389 
G01 X13.6768 Y31.6611 
G01 X13.7115 Y31.4867 
G01 X13.7796 Y31.3224 
G01 X13.8784 Y31.1745 
G01 X14.0041 Y31.0488 
G01 X14.1520 Y30.9500 
G01 X14.3163 Y30.8819 
G01 X14.4907 Y30.8472 
G01 X15.9893 Y30.8472 
G01 X16.1637 Y30.8819 
G01 X16.3280 Y30.9500 
G01 X16.4759 Y31.0488 
G01 X16.6016 Y31.1745 
G01 X16.7004 Y31.3224 
G01 X16.7685 Y31.4867 
G01 X16.8032 Y31.6611 
