(.../pcb-gcode-3.6.0.4/pcb-gcode.ulp)
(Copyright 2005 - 2012 by John Johnson)
(See readme.txt for licensing terms.)
(This file generated from the board:)
(.../eagle/eagle/atmega module/shm.brd)
(Current profile is .../pcb-gcode-3.6.0.4/profiles/emc.pp  )
(This file generated 6/18/2014 3:04:24 PM)
(Settings from pcb-machine.h)
(  Tool Size)
(0.2000 )
(Z Axis Settings)
(  High     Up        Down     Drill)
(12.7000 	2.5400 	-0.1500 	-0.8128 )
(spindle on time = 3.0000)
(milling depth = -0.1500)
(text depth = -0.1270)
(tool change at 12.7000 15.2400 25.4000 )
(feed rate xy = F508.00 )
(feed rate z  = F254.00 )
(Settings from pcb-defaults.h)
(isolate min = 0.0154)
(isolate max = 0.5080)
(isolate step = 0.1270)
(Generated top outlines, top drill, bottom outlines, bottom drill, )
(Unit of measure: mm)
(Metric Mode)
G21
(Absolute Coordinates)
G90
G00 X0.0000 Y0.0000 
M03
G04 P3.000000
G00 Z2.5400 
G00 X-17.1969 Y48.3876 
G01 Z-0.1500 F254.00 
G01 X-17.1969 Y48.8545 F508.00 
G01 X-17.3778 Y49.0354 
G01 X-18.0256 Y49.0354 
G01 X-18.0256 Y48.2067 
G01 X-17.3778 Y48.2067 
G01 X-17.1969 Y48.3876 
G00 Z2.5400 
G00 X-22.2888 Y48.9087 
G01 Z-0.1500 F254.00 
G01 X-22.6308 Y48.5668 F508.00 
G01 X-21.9469 Y48.5668 
G01 X-22.2888 Y48.9087 
G00 Z2.5400 
G00 X-28.2840 Y7.2576 
G01 Z-0.1500 F254.00 
G01 X-28.2840 Y7.4236 F508.00 
G01 X-28.2580 Y7.5877 
G01 X-28.2067 Y7.7457 
G01 X-28.1313 Y7.8936 
G01 X-28.0337 Y8.0280 
G01 X-27.9162 Y8.1455 
G01 X-27.7818 Y8.2431 
G01 X-27.6339 Y8.3185 
G01 X-27.4759 Y8.3698 
G01 X-27.3118 Y8.3958 
G01 X-27.1457 Y8.3958 
G01 X-26.9817 Y8.3698 
G01 X-26.8237 Y8.3185 
G01 X-26.6758 Y8.2431 
G01 X-26.5414 Y8.1455 
G01 X-26.4239 Y8.0280 
G01 X-26.3263 Y7.8936 
G01 X-26.2509 Y7.7457 
G01 X-26.1996 Y7.5877 
G01 X-26.1736 Y7.4236 
G01 X-26.1736 Y7.2576 
G01 X-26.1996 Y7.0935 
G01 X-26.2509 Y6.9355 
G01 X-26.3263 Y6.7876 
G01 X-26.4239 Y6.6532 
G01 X-26.5414 Y6.5357 
G01 X-26.6758 Y6.4381 
G01 X-26.8237 Y6.3627 
G01 X-26.9817 Y6.3114 
G01 X-27.1457 Y6.2854 
G01 X-27.3118 Y6.2854 
G01 X-27.4759 Y6.3114 
G01 X-27.6339 Y6.3627 
G01 X-27.7818 Y6.4381 
G01 X-27.9162 Y6.5357 
G01 X-28.0337 Y6.6532 
G01 X-28.1313 Y6.7876 
G01 X-28.2067 Y6.9355 
G01 X-28.2580 Y7.0935 
G01 X-28.2840 Y7.2576 
G00 Z2.5400 
G00 X-28.2840 Y2.7364 
G01 Z-0.1500 F254.00 
G01 X-28.2840 Y2.9024 F508.00 
G01 X-28.2580 Y3.0665 
G01 X-28.2067 Y3.2245 
G01 X-28.1313 Y3.3724 
G01 X-28.0337 Y3.5068 
G01 X-27.9162 Y3.6243 
G01 X-27.7818 Y3.7219 
G01 X-27.6339 Y3.7973 
G01 X-27.4759 Y3.8486 
G01 X-27.3118 Y3.8746 
G01 X-27.1457 Y3.8746 
G01 X-26.9817 Y3.8486 
G01 X-26.8237 Y3.7973 
G01 X-26.6758 Y3.7219 
G01 X-26.5414 Y3.6243 
G01 X-26.4239 Y3.5068 
G01 X-26.3263 Y3.3724 
G01 X-26.2509 Y3.2245 
G01 X-26.1996 Y3.0665 
G01 X-26.1736 Y2.9024 
G01 X-26.1736 Y2.7364 
G01 X-26.1996 Y2.5723 
G01 X-26.2509 Y2.4143 
G01 X-26.3263 Y2.2664 
G01 X-26.4239 Y2.1320 
G01 X-26.5414 Y2.0145 
G01 X-26.6758 Y1.9169 
G01 X-26.8237 Y1.8415 
G01 X-26.9817 Y1.7902 
G01 X-27.1457 Y1.7642 
G01 X-27.3118 Y1.7642 
G01 X-27.4759 Y1.7902 
G01 X-27.6339 Y1.8415 
G01 X-27.7818 Y1.9169 
G01 X-27.9162 Y2.0145 
G01 X-28.0337 Y2.1320 
G01 X-28.1313 Y2.2664 
G01 X-28.2067 Y2.4143 
G01 X-28.2580 Y2.5723 
G01 X-28.2840 Y2.7364 
G00 Z2.5400 
G00 X-26.1758 Y24.1806 
G01 Z-0.1500 F254.00 
G01 X-26.1758 Y24.3334 F508.00 
G01 X-26.1460 Y24.4833 
G01 X-26.0875 Y24.6245 
G01 X-26.0026 Y24.7515 
G01 X-25.8945 Y24.8596 
G01 X-25.7675 Y24.9445 
G01 X-25.6263 Y25.0030 
G01 X-25.4764 Y25.0328 
G01 X-25.3236 Y25.0328 
G01 X-25.1737 Y25.0030 
G01 X-25.0325 Y24.9445 
G01 X-24.9700 Y24.9028 
G01 X-22.9973 Y26.8755 
G01 X-22.9082 Y26.9124 
G01 X-20.4497 Y26.9124 
G01 X-20.3979 Y27.0375 
G01 X-20.3130 Y27.1645 
G01 X-20.2049 Y27.2726 
G01 X-20.0779 Y27.3575 
G01 X-19.9367 Y27.4160 
G01 X-19.7868 Y27.4458 
G01 X-18.3132 Y27.4458 
G01 X-18.1633 Y27.4160 
G01 X-18.0221 Y27.3575 
G01 X-17.8951 Y27.2726 
G01 X-17.7870 Y27.1645 
G01 X-17.7021 Y27.0375 
G01 X-17.6436 Y26.8963 
G01 X-17.6138 Y26.7464 
G01 X-17.6138 Y26.5936 
G01 X-17.6436 Y26.4437 
G01 X-17.7021 Y26.3025 
G01 X-17.7870 Y26.1755 
G01 X-17.8951 Y26.0674 
G01 X-18.0221 Y25.9825 
G01 X-18.1633 Y25.9240 
G01 X-18.3132 Y25.8942 
G01 X-19.7868 Y25.8942 
G01 X-19.9367 Y25.9240 
G01 X-20.0779 Y25.9825 
G01 X-20.2049 Y26.0674 
G01 X-20.3130 Y26.1755 
G01 X-20.3979 Y26.3025 
G01 X-20.4497 Y26.4276 
G01 X-22.7596 Y26.4276 
G01 X-24.6686 Y24.5186 
G01 X-24.6540 Y24.4833 
G01 X-24.6242 Y24.3334 
G01 X-24.6242 Y24.1806 
G01 X-24.6540 Y24.0307 
G01 X-24.7125 Y23.8895 
G01 X-24.7974 Y23.7625 
G01 X-24.9055 Y23.6544 
G01 X-25.0325 Y23.5695 
G01 X-25.1737 Y23.5110 
G01 X-25.3236 Y23.4812 
G01 X-25.4764 Y23.4812 
G01 X-25.6263 Y23.5110 
G01 X-25.7675 Y23.5695 
G01 X-25.8945 Y23.6544 
G01 X-26.0026 Y23.7625 
G01 X-26.0875 Y23.8895 
G01 X-26.1460 Y24.0307 
G01 X-26.1758 Y24.1806 
G00 Z2.5400 
G00 X-10.6932 Y5.5742 
G01 Z-0.1500 F254.00 
G01 X-12.1668 Y5.5742 F508.00 
G01 X-12.3167 Y5.6040 
G01 X-12.4579 Y5.6625 
G01 X-12.5849 Y5.7474 
G01 X-12.6930 Y5.8555 
G01 X-12.7779 Y5.9825 
G01 X-12.8364 Y6.1237 
G01 X-12.8662 Y6.2736 
G01 X-12.8662 Y6.4264 
G01 X-12.8364 Y6.5763 
G01 X-12.7779 Y6.7175 
G01 X-12.6930 Y6.8445 
G01 X-12.5849 Y6.9526 
G01 X-12.4579 Y7.0375 
G01 X-12.3167 Y7.0960 
G01 X-12.1668 Y7.1258 
G01 X-10.9970 Y7.1258 
G01 X-9.0273 Y9.0955 
G01 X-8.9382 Y9.1324 
G01 X-4.1484 Y9.1324 
G01 X-4.1457 Y9.1459 
G01 X-4.0795 Y9.3056 
G01 X-3.9835 Y9.4493 
G01 X-3.8613 Y9.5715 
G01 X-3.7176 Y9.6675 
G01 X-3.5579 Y9.7337 
G01 X-3.3884 Y9.7674 
G01 X-1.6916 Y9.7674 
G01 X-1.5221 Y9.7337 
G01 X-1.3624 Y9.6675 
G01 X-1.2187 Y9.5715 
G01 X-1.0965 Y9.4493 
G01 X-1.0005 Y9.3056 
G01 X-0.9343 Y9.1459 
G01 X-0.9006 Y8.9764 
G01 X-0.9006 Y8.8036 
G01 X-0.9343 Y8.6341 
G01 X-1.0005 Y8.4744 
G01 X-1.0965 Y8.3307 
G01 X-1.2187 Y8.2085 
G01 X-1.3624 Y8.1125 
G01 X-1.5221 Y8.0463 
G01 X-1.6916 Y8.0126 
G01 X-3.3884 Y8.0126 
G01 X-3.5579 Y8.0463 
G01 X-3.7176 Y8.1125 
G01 X-3.8613 Y8.2085 
G01 X-3.9835 Y8.3307 
G01 X-4.0795 Y8.4744 
G01 X-4.1457 Y8.6341 
G01 X-4.1484 Y8.6476 
G01 X-8.7896 Y8.6476 
G01 X-10.4007 Y7.0365 
G01 X-10.2751 Y6.9526 
G01 X-10.1670 Y6.8445 
G01 X-10.0821 Y6.7175 
G01 X-10.0236 Y6.5763 
G01 X-9.9938 Y6.4264 
G01 X-9.9938 Y6.2736 
G01 X-10.0236 Y6.1237 
G01 X-10.0821 Y5.9825 
G01 X-10.1670 Y5.8555 
G01 X-10.2751 Y5.7474 
G01 X-10.4021 Y5.6625 
G01 X-10.5433 Y5.6040 
G01 X-10.6932 Y5.5742 
G00 Z2.5400 
G00 X-10.6932 Y8.1142 
G01 Z-0.1500 F254.00 
G01 X-12.1668 Y8.1142 F508.00 
G01 X-12.3167 Y8.1440 
G01 X-12.4579 Y8.2025 
G01 X-12.5849 Y8.2874 
G01 X-12.6930 Y8.3955 
G01 X-12.7779 Y8.5225 
G01 X-12.8364 Y8.6637 
G01 X-12.8662 Y8.8136 
G01 X-12.8662 Y8.9664 
G01 X-12.8364 Y9.1163 
G01 X-12.7779 Y9.2575 
G01 X-12.6930 Y9.3845 
G01 X-12.5849 Y9.4926 
G01 X-12.4579 Y9.5775 
G01 X-12.3167 Y9.6360 
G01 X-12.1668 Y9.6658 
G01 X-10.9970 Y9.6658 
G01 X-9.0955 Y11.5673 
G01 X-9.0273 Y11.6355 
G01 X-8.9382 Y11.6724 
G01 X-4.1484 Y11.6724 
G01 X-4.1457 Y11.6859 
G01 X-4.0795 Y11.8456 
G01 X-3.9835 Y11.9893 
G01 X-3.8613 Y12.1115 
G01 X-3.7176 Y12.2075 
G01 X-3.5579 Y12.2737 
G01 X-3.3884 Y12.3074 
G01 X-1.6916 Y12.3074 
G01 X-1.5221 Y12.2737 
G01 X-1.3624 Y12.2075 
G01 X-1.2187 Y12.1115 
G01 X-1.0965 Y11.9893 
G01 X-1.0005 Y11.8456 
G01 X-0.9343 Y11.6859 
G01 X-0.9006 Y11.5164 
G01 X-0.9006 Y11.3436 
G01 X-0.9343 Y11.1741 
G01 X-1.0005 Y11.0144 
G01 X-1.0965 Y10.8707 
G01 X-1.2187 Y10.7485 
G01 X-1.3624 Y10.6525 
G01 X-1.5221 Y10.5863 
G01 X-1.6916 Y10.5526 
G01 X-3.3884 Y10.5526 
G01 X-3.5579 Y10.5863 
G01 X-3.7176 Y10.6525 
G01 X-3.8613 Y10.7485 
G01 X-3.9835 Y10.8707 
G01 X-4.0795 Y11.0144 
G01 X-4.1457 Y11.1741 
G01 X-4.1484 Y11.1876 
G01 X-8.7896 Y11.1876 
G01 X-10.4007 Y9.5765 
G01 X-10.2751 Y9.4926 
G01 X-10.1670 Y9.3845 
G01 X-10.0821 Y9.2575 
G01 X-10.0236 Y9.1163 
G01 X-9.9938 Y8.9664 
G01 X-9.9938 Y8.8136 
G01 X-10.0236 Y8.6637 
G01 X-10.0821 Y8.5225 
G01 X-10.1670 Y8.3955 
G01 X-10.2751 Y8.2874 
G01 X-10.4021 Y8.2025 
G01 X-10.5433 Y8.1440 
G01 X-10.6932 Y8.1142 
G00 Z2.5400 
G00 X-10.6932 Y10.6542 
G01 Z-0.1500 F254.00 
G01 X-12.1668 Y10.6542 F508.00 
G01 X-12.3167 Y10.6840 
G01 X-12.4579 Y10.7425 
G01 X-12.5849 Y10.8274 
G01 X-12.6930 Y10.9355 
G01 X-12.7779 Y11.0625 
G01 X-12.8364 Y11.2037 
G01 X-12.8662 Y11.3536 
G01 X-12.8662 Y11.5064 
G01 X-12.8364 Y11.6563 
G01 X-12.7779 Y11.7975 
G01 X-12.6930 Y11.9245 
G01 X-12.5849 Y12.0326 
G01 X-12.4579 Y12.1175 
G01 X-12.3167 Y12.1760 
G01 X-12.1668 Y12.2058 
G01 X-10.9970 Y12.2058 
G01 X-9.0955 Y14.1073 
G01 X-9.0273 Y14.1755 
G01 X-8.9382 Y14.2124 
G01 X-4.1484 Y14.2124 
G01 X-4.1457 Y14.2259 
G01 X-4.0795 Y14.3856 
G01 X-3.9835 Y14.5293 
G01 X-3.8613 Y14.6515 
G01 X-3.7176 Y14.7475 
G01 X-3.5579 Y14.8137 
G01 X-3.3884 Y14.8474 
G01 X-1.6916 Y14.8474 
G01 X-1.5221 Y14.8137 
G01 X-1.3624 Y14.7475 
G01 X-1.2187 Y14.6515 
G01 X-1.0965 Y14.5293 
G01 X-1.0005 Y14.3856 
G01 X-0.9343 Y14.2259 
G01 X-0.9006 Y14.0564 
G01 X-0.9006 Y13.8836 
G01 X-0.9343 Y13.7141 
G01 X-1.0005 Y13.5544 
G01 X-1.0965 Y13.4107 
G01 X-1.2187 Y13.2885 
G01 X-1.3624 Y13.1925 
G01 X-1.5221 Y13.1263 
G01 X-1.6916 Y13.0926 
G01 X-3.3884 Y13.0926 
G01 X-3.5579 Y13.1263 
G01 X-3.7176 Y13.1925 
G01 X-3.8613 Y13.2885 
G01 X-3.9835 Y13.4107 
G01 X-4.0795 Y13.5544 
G01 X-4.1457 Y13.7141 
G01 X-4.1484 Y13.7276 
G01 X-8.7896 Y13.7276 
G01 X-10.4007 Y12.1165 
G01 X-10.2751 Y12.0326 
G01 X-10.1670 Y11.9245 
G01 X-10.0821 Y11.7975 
G01 X-10.0236 Y11.6563 
G01 X-9.9938 Y11.5064 
G01 X-9.9938 Y11.3536 
G01 X-10.0236 Y11.2037 
G01 X-10.0821 Y11.0625 
G01 X-10.1670 Y10.9355 
G01 X-10.2751 Y10.8274 
G01 X-10.4021 Y10.7425 
G01 X-10.5433 Y10.6840 
G01 X-10.6932 Y10.6542 
G00 Z2.5400 
G00 X-10.6932 Y13.1942 
G01 Z-0.1500 F254.00 
G01 X-12.1668 Y13.1942 F508.00 
G01 X-12.3167 Y13.2240 
G01 X-12.4579 Y13.2825 
G01 X-12.5849 Y13.3674 
G01 X-12.6930 Y13.4755 
G01 X-12.7779 Y13.6025 
G01 X-12.8364 Y13.7437 
G01 X-12.8662 Y13.8936 
G01 X-12.8662 Y14.0464 
G01 X-12.8364 Y14.1963 
G01 X-12.7779 Y14.3375 
G01 X-12.6930 Y14.4645 
G01 X-12.5849 Y14.5726 
G01 X-12.4579 Y14.6575 
G01 X-12.3167 Y14.7160 
G01 X-12.1668 Y14.7458 
G01 X-10.9970 Y14.7458 
G01 X-9.0955 Y16.6473 
G01 X-9.0273 Y16.7155 
G01 X-8.9382 Y16.7524 
G01 X-4.1484 Y16.7524 
G01 X-4.1457 Y16.7659 
G01 X-4.0795 Y16.9256 
G01 X-3.9835 Y17.0693 
G01 X-3.8613 Y17.1915 
G01 X-3.7176 Y17.2875 
G01 X-3.5579 Y17.3537 
G01 X-3.3884 Y17.3874 
G01 X-1.6916 Y17.3874 
G01 X-1.5221 Y17.3537 
G01 X-1.3624 Y17.2875 
G01 X-1.2187 Y17.1915 
G01 X-1.0965 Y17.0693 
G01 X-1.0005 Y16.9256 
G01 X-0.9343 Y16.7659 
G01 X-0.9006 Y16.5964 
G01 X-0.9006 Y16.4236 
G01 X-0.9343 Y16.2541 
G01 X-1.0005 Y16.0944 
G01 X-1.0965 Y15.9507 
G01 X-1.2187 Y15.8285 
G01 X-1.3624 Y15.7325 
G01 X-1.5221 Y15.6663 
G01 X-1.6916 Y15.6326 
G01 X-3.3884 Y15.6326 
G01 X-3.5579 Y15.6663 
G01 X-3.7176 Y15.7325 
G01 X-3.8613 Y15.8285 
G01 X-3.9835 Y15.9507 
G01 X-4.0795 Y16.0944 
G01 X-4.1457 Y16.2541 
G01 X-4.1484 Y16.2676 
G01 X-8.7896 Y16.2676 
G01 X-10.4007 Y14.6565 
G01 X-10.2751 Y14.5726 
G01 X-10.1670 Y14.4645 
G01 X-10.0821 Y14.3375 
G01 X-10.0236 Y14.1963 
G01 X-9.9938 Y14.0464 
G01 X-9.9938 Y13.8936 
G01 X-10.0236 Y13.7437 
G01 X-10.0821 Y13.6025 
G01 X-10.1670 Y13.4755 
G01 X-10.2751 Y13.3674 
G01 X-10.4021 Y13.2825 
G01 X-10.5433 Y13.2240 
G01 X-10.6932 Y13.1942 
G00 Z2.5400 
G00 X-10.6932 Y15.7342 
G01 Z-0.1500 F254.00 
G01 X-12.1668 Y15.7342 F508.00 
G01 X-12.3167 Y15.7640 
G01 X-12.4579 Y15.8225 
G01 X-12.5849 Y15.9074 
G01 X-12.6930 Y16.0155 
G01 X-12.7779 Y16.1425 
G01 X-12.8364 Y16.2837 
G01 X-12.8662 Y16.4336 
G01 X-12.8662 Y16.5864 
G01 X-12.8364 Y16.7363 
G01 X-12.7779 Y16.8775 
G01 X-12.6930 Y17.0045 
G01 X-12.5849 Y17.1126 
G01 X-12.4579 Y17.1975 
G01 X-12.3167 Y17.2560 
G01 X-12.1668 Y17.2858 
G01 X-10.9970 Y17.2858 
G01 X-9.0955 Y19.1873 
G01 X-9.0273 Y19.2555 
G01 X-8.9382 Y19.2924 
G01 X-4.1484 Y19.2924 
G01 X-4.1457 Y19.3059 
G01 X-4.0795 Y19.4656 
G01 X-3.9835 Y19.6093 
G01 X-3.8613 Y19.7315 
G01 X-3.7176 Y19.8275 
G01 X-3.5579 Y19.8937 
G01 X-3.3884 Y19.9274 
G01 X-1.6916 Y19.9274 
G01 X-1.5221 Y19.8937 
G01 X-1.3624 Y19.8275 
G01 X-1.2187 Y19.7315 
G01 X-1.0965 Y19.6093 
G01 X-1.0005 Y19.4656 
G01 X-0.9343 Y19.3059 
G01 X-0.9006 Y19.1364 
G01 X-0.9006 Y18.9636 
G01 X-0.9343 Y18.7941 
G01 X-1.0005 Y18.6344 
G01 X-1.0965 Y18.4907 
G01 X-1.2187 Y18.3685 
G01 X-1.3624 Y18.2725 
G01 X-1.5221 Y18.2063 
G01 X-1.6916 Y18.1726 
G01 X-3.3884 Y18.1726 
G01 X-3.5579 Y18.2063 
G01 X-3.7176 Y18.2725 
G01 X-3.8613 Y18.3685 
G01 X-3.9835 Y18.4907 
G01 X-4.0795 Y18.6344 
G01 X-4.1457 Y18.7941 
G01 X-4.1484 Y18.8076 
G01 X-8.7896 Y18.8076 
G01 X-10.4007 Y17.1965 
G01 X-10.2751 Y17.1126 
G01 X-10.1670 Y17.0045 
G01 X-10.0821 Y16.8775 
G01 X-10.0236 Y16.7363 
G01 X-9.9938 Y16.5864 
G01 X-9.9938 Y16.4336 
G01 X-10.0236 Y16.2837 
G01 X-10.0821 Y16.1425 
G01 X-10.1670 Y16.0155 
G01 X-10.2751 Y15.9074 
G01 X-10.4021 Y15.8225 
G01 X-10.5433 Y15.7640 
G01 X-10.6932 Y15.7342 
G00 Z2.5400 
G00 X-10.6932 Y18.2742 
G01 Z-0.1500 F254.00 
G01 X-12.1668 Y18.2742 F508.00 
G01 X-12.3167 Y18.3040 
G01 X-12.4579 Y18.3625 
G01 X-12.5849 Y18.4474 
G01 X-12.6930 Y18.5555 
G01 X-12.7779 Y18.6825 
G01 X-12.8364 Y18.8237 
G01 X-12.8662 Y18.9736 
G01 X-12.8662 Y19.1264 
G01 X-12.8364 Y19.2763 
G01 X-12.7779 Y19.4175 
G01 X-12.6930 Y19.5445 
G01 X-12.5849 Y19.6526 
G01 X-12.4579 Y19.7375 
G01 X-12.3167 Y19.7960 
G01 X-12.1668 Y19.8258 
G01 X-10.9970 Y19.8258 
G01 X-9.0955 Y21.7273 
G01 X-9.0273 Y21.7955 
G01 X-8.9382 Y21.8324 
G01 X-4.1484 Y21.8324 
G01 X-4.1457 Y21.8459 
G01 X-4.0795 Y22.0056 
G01 X-3.9835 Y22.1493 
G01 X-3.8613 Y22.2715 
G01 X-3.7176 Y22.3675 
G01 X-3.5579 Y22.4337 
G01 X-3.3884 Y22.4674 
G01 X-1.6916 Y22.4674 
G01 X-1.5221 Y22.4337 
G01 X-1.3624 Y22.3675 
G01 X-1.2187 Y22.2715 
G01 X-1.0965 Y22.1493 
G01 X-1.0005 Y22.0056 
G01 X-0.9343 Y21.8459 
G01 X-0.9006 Y21.6764 
G01 X-0.9006 Y21.5036 
G01 X-0.9343 Y21.3341 
G01 X-1.0005 Y21.1744 
G01 X-1.0965 Y21.0307 
G01 X-1.2187 Y20.9085 
G01 X-1.3624 Y20.8125 
G01 X-1.5221 Y20.7463 
G01 X-1.6916 Y20.7126 
G01 X-3.3884 Y20.7126 
G01 X-3.5579 Y20.7463 
G01 X-3.7176 Y20.8125 
G01 X-3.8613 Y20.9085 
G01 X-3.9835 Y21.0307 
G01 X-4.0795 Y21.1744 
G01 X-4.1457 Y21.3341 
G01 X-4.1484 Y21.3476 
G01 X-8.7896 Y21.3476 
G01 X-10.4007 Y19.7365 
G01 X-10.2751 Y19.6526 
G01 X-10.1670 Y19.5445 
G01 X-10.0821 Y19.4175 
G01 X-10.0236 Y19.2763 
G01 X-9.9938 Y19.1264 
G01 X-9.9938 Y18.9736 
G01 X-10.0236 Y18.8237 
G01 X-10.0821 Y18.6825 
G01 X-10.1670 Y18.5555 
G01 X-10.2751 Y18.4474 
G01 X-10.4021 Y18.3625 
G01 X-10.5433 Y18.3040 
G01 X-10.6932 Y18.2742 
G00 Z2.5400 
G00 X-10.6932 Y23.3542 
G01 Z-0.1500 F254.00 
G01 X-12.1668 Y23.3542 F508.00 
G01 X-12.3167 Y23.3840 
G01 X-12.4579 Y23.4425 
G01 X-12.5849 Y23.5274 
G01 X-12.6930 Y23.6355 
G01 X-12.7779 Y23.7625 
G01 X-12.8364 Y23.9037 
G01 X-12.8662 Y24.0536 
G01 X-12.8662 Y24.2064 
G01 X-12.8364 Y24.3563 
G01 X-12.7779 Y24.4975 
G01 X-12.6930 Y24.6245 
G01 X-12.5849 Y24.7326 
G01 X-12.4579 Y24.8175 
G01 X-12.3167 Y24.8760 
G01 X-12.1668 Y24.9058 
G01 X-10.6932 Y24.9058 
G01 X-10.5433 Y24.8760 
G01 X-10.4021 Y24.8175 
G01 X-10.2751 Y24.7326 
G01 X-10.1670 Y24.6245 
G01 X-10.0821 Y24.4975 
G01 X-10.0236 Y24.3563 
G01 X-9.9938 Y24.2064 
G01 X-9.9938 Y24.0536 
G01 X-10.0236 Y23.9037 
G01 X-10.0821 Y23.7625 
G01 X-10.1670 Y23.6355 
G01 X-10.2751 Y23.5274 
G01 X-10.4021 Y23.4425 
G01 X-10.5433 Y23.3840 
G01 X-10.6932 Y23.3542 
G00 Z2.5400 
G00 X-10.6932 Y28.4342 
G01 Z-0.1500 F254.00 
G01 X-12.1668 Y28.4342 F508.00 
G01 X-12.3167 Y28.4640 
G01 X-12.4579 Y28.5225 
G01 X-12.5849 Y28.6074 
G01 X-12.6930 Y28.7155 
G01 X-12.7779 Y28.8425 
G01 X-12.8364 Y28.9837 
G01 X-12.8662 Y29.1336 
G01 X-12.8662 Y29.2864 
G01 X-12.8364 Y29.4363 
G01 X-12.7779 Y29.5775 
G01 X-12.6930 Y29.7045 
G01 X-12.5849 Y29.8126 
G01 X-12.4579 Y29.8975 
G01 X-12.3167 Y29.9560 
G01 X-12.1668 Y29.9858 
G01 X-10.9970 Y29.9858 
G01 X-5.3224 Y35.6604 
G01 X-5.3224 Y45.4776 
G01 X-48.1596 Y45.4776 
G01 X-49.6629 Y43.9743 
G01 X-49.6224 Y43.9575 
G01 X-49.4787 Y43.8615 
G01 X-49.3565 Y43.7393 
G01 X-49.2605 Y43.5956 
G01 X-49.1943 Y43.4359 
G01 X-49.1606 Y43.2664 
G01 X-49.1606 Y43.0936 
G01 X-49.1943 Y42.9241 
G01 X-49.2605 Y42.7644 
G01 X-49.3565 Y42.6207 
G01 X-49.4787 Y42.4985 
G01 X-49.6224 Y42.4025 
G01 X-49.7821 Y42.3363 
G01 X-49.9516 Y42.3026 
G01 X-51.6484 Y42.3026 
G01 X-51.8179 Y42.3363 
G01 X-51.9776 Y42.4025 
G01 X-52.1213 Y42.4985 
G01 X-52.2435 Y42.6207 
G01 X-52.3395 Y42.7644 
G01 X-52.4057 Y42.9241 
G01 X-52.4394 Y43.0936 
G01 X-52.4394 Y43.2664 
G01 X-52.4057 Y43.4359 
G01 X-52.3395 Y43.5956 
G01 X-52.2435 Y43.7393 
G01 X-52.1213 Y43.8615 
G01 X-51.9776 Y43.9575 
G01 X-51.8179 Y44.0237 
G01 X-51.6484 Y44.0574 
G01 X-50.2654 Y44.0574 
G01 X-48.3973 Y45.9255 
G01 X-48.3082 Y45.9624 
G01 X-5.0318 Y45.9624 
G01 X-4.9427 Y45.9255 
G01 X-4.8745 Y45.8573 
G01 X-4.8376 Y45.7682 
G01 X-4.8376 Y35.5118 
G01 X-4.8745 Y35.4227 
G01 X-4.9427 Y35.3545 
G01 X-10.4007 Y29.8965 
G01 X-10.2751 Y29.8126 
G01 X-10.1670 Y29.7045 
G01 X-10.0821 Y29.5775 
G01 X-10.0236 Y29.4363 
G01 X-9.9938 Y29.2864 
G01 X-9.9938 Y29.1336 
G01 X-10.0236 Y28.9837 
G01 X-10.0821 Y28.8425 
G01 X-10.1670 Y28.7155 
G01 X-10.2751 Y28.6074 
G01 X-10.4021 Y28.5225 
G01 X-10.5433 Y28.4640 
G01 X-10.6932 Y28.4342 
G00 Z2.5400 
G00 X-10.6932 Y30.9742 
G01 Z-0.1500 F254.00 
G01 X-12.1668 Y30.9742 F508.00 
G01 X-12.3167 Y31.0040 
G01 X-12.4579 Y31.0625 
G01 X-12.5849 Y31.1474 
G01 X-12.6930 Y31.2555 
G01 X-12.7779 Y31.3825 
G01 X-12.8364 Y31.5237 
G01 X-12.8662 Y31.6736 
G01 X-12.8662 Y31.8264 
G01 X-12.8364 Y31.9763 
G01 X-12.7779 Y32.1175 
G01 X-12.6930 Y32.2445 
G01 X-12.5849 Y32.3526 
G01 X-12.4579 Y32.4375 
G01 X-12.3167 Y32.4960 
G01 X-12.1668 Y32.5258 
G01 X-10.9970 Y32.5258 
G01 X-10.3655 Y33.1573 
G01 X-10.2973 Y33.2255 
G01 X-10.2082 Y33.2624 
G01 X-8.9904 Y33.2624 
G01 X-6.5924 Y35.6604 
G01 X-6.5924 Y44.2076 
G01 X-46.8896 Y44.2076 
G01 X-49.6629 Y41.4343 
G01 X-49.6224 Y41.4175 
G01 X-49.4787 Y41.3215 
G01 X-49.3565 Y41.1993 
G01 X-49.2605 Y41.0556 
G01 X-49.1943 Y40.8959 
G01 X-49.1606 Y40.7264 
G01 X-49.1606 Y40.5536 
G01 X-49.1943 Y40.3841 
G01 X-49.2605 Y40.2244 
G01 X-49.3565 Y40.0807 
G01 X-49.4787 Y39.9585 
G01 X-49.6224 Y39.8625 
G01 X-49.7821 Y39.7963 
G01 X-49.9516 Y39.7626 
G01 X-51.6484 Y39.7626 
G01 X-51.8179 Y39.7963 
G01 X-51.9776 Y39.8625 
G01 X-52.1213 Y39.9585 
G01 X-52.2435 Y40.0807 
G01 X-52.3395 Y40.2244 
G01 X-52.4057 Y40.3841 
G01 X-52.4394 Y40.5536 
G01 X-52.4394 Y40.7264 
G01 X-52.4057 Y40.8959 
G01 X-52.3395 Y41.0556 
G01 X-52.2435 Y41.1993 
G01 X-52.1213 Y41.3215 
G01 X-51.9776 Y41.4175 
G01 X-51.8179 Y41.4837 
G01 X-51.6484 Y41.5174 
G01 X-50.2654 Y41.5174 
G01 X-47.1273 Y44.6555 
G01 X-47.0382 Y44.6924 
G01 X-6.3018 Y44.6924 
G01 X-6.2127 Y44.6555 
G01 X-6.1445 Y44.5873 
G01 X-6.1076 Y44.4982 
G01 X-6.1076 Y35.5118 
G01 X-6.1445 Y35.4227 
G01 X-6.2127 Y35.3545 
G01 X-8.7527 Y32.8145 
G01 X-8.8418 Y32.7776 
G01 X-10.0596 Y32.7776 
G01 X-10.4007 Y32.4365 
G01 X-10.2751 Y32.3526 
G01 X-10.1670 Y32.2445 
G01 X-10.0821 Y32.1175 
G01 X-10.0236 Y31.9763 
G01 X-9.9938 Y31.8264 
G01 X-9.9938 Y31.6736 
G01 X-10.0236 Y31.5237 
G01 X-10.0821 Y31.3825 
G01 X-10.1670 Y31.2555 
G01 X-10.2751 Y31.1474 
G01 X-10.4021 Y31.0625 
G01 X-10.5433 Y31.0040 
G01 X-10.6932 Y30.9742 
G00 Z2.5400 
G00 X-10.6932 Y33.5142 
G01 Z-0.1500 F254.00 
G01 X-12.1668 Y33.5142 F508.00 
G01 X-12.3167 Y33.5440 
G01 X-12.4579 Y33.6025 
G01 X-12.5849 Y33.6874 
G01 X-12.6930 Y33.7955 
G01 X-12.7779 Y33.9225 
G01 X-12.8364 Y34.0637 
G01 X-12.8662 Y34.2136 
G01 X-12.8662 Y34.3664 
G01 X-12.8364 Y34.5163 
G01 X-12.7779 Y34.6575 
G01 X-12.6930 Y34.7845 
G01 X-12.5849 Y34.8926 
G01 X-12.4579 Y34.9775 
G01 X-12.3167 Y35.0360 
G01 X-12.1668 Y35.0658 
G01 X-10.6932 Y35.0658 
G01 X-10.5433 Y35.0360 
G01 X-10.4021 Y34.9775 
G01 X-10.2751 Y34.8926 
G01 X-10.1670 Y34.7845 
G01 X-10.0821 Y34.6575 
G01 X-10.0303 Y34.5324 
G01 X-8.9904 Y34.5324 
G01 X-7.8624 Y35.6604 
G01 X-7.8624 Y42.9376 
G01 X-45.6196 Y42.9376 
G01 X-49.6629 Y38.8943 
G01 X-49.6224 Y38.8775 
G01 X-49.4787 Y38.7815 
G01 X-49.3565 Y38.6593 
G01 X-49.2605 Y38.5156 
G01 X-49.1943 Y38.3559 
G01 X-49.1606 Y38.1864 
G01 X-49.1606 Y38.0136 
G01 X-49.1943 Y37.8441 
G01 X-49.2605 Y37.6844 
G01 X-49.3565 Y37.5407 
G01 X-49.4787 Y37.4185 
G01 X-49.6224 Y37.3225 
G01 X-49.7821 Y37.2563 
G01 X-49.9516 Y37.2226 
G01 X-51.6484 Y37.2226 
G01 X-51.8179 Y37.2563 
G01 X-51.9776 Y37.3225 
G01 X-52.1213 Y37.4185 
G01 X-52.2435 Y37.5407 
G01 X-52.3395 Y37.6844 
G01 X-52.4057 Y37.8441 
G01 X-52.4394 Y38.0136 
G01 X-52.4394 Y38.1864 
G01 X-52.4057 Y38.3559 
G01 X-52.3395 Y38.5156 
G01 X-52.2435 Y38.6593 
G01 X-52.1213 Y38.7815 
G01 X-51.9776 Y38.8775 
G01 X-51.8179 Y38.9437 
G01 X-51.6484 Y38.9774 
G01 X-50.2654 Y38.9774 
G01 X-45.8573 Y43.3855 
G01 X-45.7682 Y43.4224 
G01 X-7.5718 Y43.4224 
G01 X-7.4827 Y43.3855 
G01 X-7.4145 Y43.3173 
G01 X-7.3776 Y43.2282 
G01 X-7.3776 Y35.5118 
G01 X-7.4145 Y35.4227 
G01 X-7.4827 Y35.3545 
G01 X-8.7527 Y34.0845 
G01 X-8.8418 Y34.0476 
G01 X-10.0303 Y34.0476 
G01 X-10.0821 Y33.9225 
G01 X-10.1670 Y33.7955 
G01 X-10.2751 Y33.6874 
G01 X-10.4021 Y33.6025 
G01 X-10.5433 Y33.5440 
G01 X-10.6932 Y33.5142 
G00 Z2.5400 
G00 X-12.1668 Y38.5942 
G01 Z-0.1500 F254.00 
G01 X-12.3167 Y38.6240 F508.00 
G01 X-12.4579 Y38.6825 
G01 X-12.5849 Y38.7674 
G01 X-12.6930 Y38.8755 
G01 X-12.7779 Y39.0025 
G01 X-12.8364 Y39.1437 
G01 X-12.8662 Y39.2936 
G01 X-12.8662 Y39.4464 
G01 X-12.8364 Y39.5963 
G01 X-12.7779 Y39.7375 
G01 X-12.6930 Y39.8645 
G01 X-12.5849 Y39.9726 
G01 X-12.4579 Y40.0575 
G01 X-12.3167 Y40.1160 
G01 X-12.1668 Y40.1458 
G01 X-10.6932 Y40.1458 
G01 X-10.5433 Y40.1160 
G01 X-10.4021 Y40.0575 
G01 X-10.2751 Y39.9726 
G01 X-10.1670 Y39.8645 
G01 X-10.0821 Y39.7375 
G01 X-10.0236 Y39.5963 
G01 X-9.9938 Y39.4464 
G01 X-9.9938 Y39.2936 
G01 X-10.0236 Y39.1437 
G01 X-10.0821 Y39.0025 
G01 X-10.1670 Y38.8755 
G01 X-10.2751 Y38.7674 
G01 X-10.4007 Y38.6835 
G01 X-8.7527 Y37.0355 
G01 X-8.6845 Y36.9673 
G01 X-8.6476 Y36.8782 
G01 X-8.6476 Y35.5118 
G01 X-8.6845 Y35.4227 
G01 X-8.7527 Y35.3545 
G01 X-8.8418 Y35.3176 
G01 X-12.7482 Y35.3176 
G01 X-12.8373 Y35.3545 
G01 X-17.8804 Y40.3976 
G01 X-43.0796 Y40.3976 
G01 X-49.6629 Y33.8143 
G01 X-49.6224 Y33.7975 
G01 X-49.4787 Y33.7015 
G01 X-49.3565 Y33.5793 
G01 X-49.2605 Y33.4356 
G01 X-49.1943 Y33.2759 
G01 X-49.1606 Y33.1064 
G01 X-49.1606 Y32.9336 
G01 X-49.1943 Y32.7641 
G01 X-49.2605 Y32.6044 
G01 X-49.3565 Y32.4607 
G01 X-49.4787 Y32.3385 
G01 X-49.6224 Y32.2425 
G01 X-49.7821 Y32.1763 
G01 X-49.9516 Y32.1426 
G01 X-51.6484 Y32.1426 
G01 X-51.8179 Y32.1763 
G01 X-51.9776 Y32.2425 
G01 X-52.1213 Y32.3385 
G01 X-52.2435 Y32.4607 
G01 X-52.3395 Y32.6044 
G01 X-52.4057 Y32.7641 
G01 X-52.4394 Y32.9336 
G01 X-52.4394 Y33.1064 
G01 X-52.4057 Y33.2759 
G01 X-52.3395 Y33.4356 
G01 X-52.2435 Y33.5793 
G01 X-52.1213 Y33.7015 
G01 X-51.9776 Y33.7975 
G01 X-51.8179 Y33.8637 
G01 X-51.6484 Y33.8974 
G01 X-50.2654 Y33.8974 
G01 X-43.3173 Y40.8455 
G01 X-43.2282 Y40.8824 
G01 X-17.7318 Y40.8824 
G01 X-17.6427 Y40.8455 
G01 X-17.5745 Y40.7773 
G01 X-12.5996 Y35.8024 
G01 X-9.1324 Y35.8024 
G01 X-9.1324 Y36.7296 
G01 X-10.9970 Y38.5942 
G01 X-12.1668 Y38.5942 
G00 Z2.5400 
G00 X-18.3132 Y38.5942 
G01 Z-0.1500 F254.00 
G01 X-19.4830 Y38.5942 F508.00 
G01 X-21.3845 Y36.6927 
G01 X-21.4527 Y36.6245 
G01 X-21.5418 Y36.5876 
G01 X-44.3496 Y36.5876 
G01 X-49.6629 Y31.2743 
G01 X-49.6224 Y31.2575 
G01 X-49.4787 Y31.1615 
G01 X-49.3565 Y31.0393 
G01 X-49.2605 Y30.8956 
G01 X-49.1943 Y30.7359 
G01 X-49.1606 Y30.5664 
G01 X-49.1606 Y30.3936 
G01 X-49.1943 Y30.2241 
G01 X-49.2605 Y30.0644 
G01 X-49.3565 Y29.9207 
G01 X-49.4787 Y29.7985 
G01 X-49.6224 Y29.7025 
G01 X-49.7821 Y29.6363 
G01 X-49.9516 Y29.6026 
G01 X-51.6484 Y29.6026 
G01 X-51.8179 Y29.6363 
G01 X-51.9776 Y29.7025 
G01 X-52.1213 Y29.7985 
G01 X-52.2435 Y29.9207 
G01 X-52.3395 Y30.0644 
G01 X-52.4057 Y30.2241 
G01 X-52.4394 Y30.3936 
G01 X-52.4394 Y30.5664 
G01 X-52.4057 Y30.7359 
G01 X-52.3395 Y30.8956 
G01 X-52.2435 Y31.0393 
G01 X-52.1213 Y31.1615 
G01 X-51.9776 Y31.2575 
G01 X-51.8179 Y31.3237 
G01 X-51.6484 Y31.3574 
G01 X-50.2654 Y31.3574 
G01 X-44.5873 Y37.0355 
G01 X-44.4982 Y37.0724 
G01 X-21.6904 Y37.0724 
G01 X-20.0793 Y38.6835 
G01 X-20.2049 Y38.7674 
G01 X-20.3130 Y38.8755 
G01 X-20.3979 Y39.0025 
G01 X-20.4564 Y39.1437 
G01 X-20.4862 Y39.2936 
G01 X-20.4862 Y39.4464 
G01 X-20.4564 Y39.5963 
G01 X-20.3979 Y39.7375 
G01 X-20.3130 Y39.8645 
G01 X-20.2049 Y39.9726 
G01 X-20.0779 Y40.0575 
G01 X-19.9367 Y40.1160 
G01 X-19.7868 Y40.1458 
G01 X-18.3132 Y40.1458 
G01 X-18.1633 Y40.1160 
G01 X-18.0221 Y40.0575 
G01 X-17.8951 Y39.9726 
G01 X-17.7870 Y39.8645 
G01 X-17.7021 Y39.7375 
G01 X-17.6436 Y39.5963 
G01 X-17.6138 Y39.4464 
G01 X-17.6138 Y39.2936 
G01 X-17.6436 Y39.1437 
G01 X-17.7021 Y39.0025 
G01 X-17.7870 Y38.8755 
G01 X-17.8951 Y38.7674 
G01 X-18.0221 Y38.6825 
G01 X-18.1633 Y38.6240 
G01 X-18.3132 Y38.5942 
G00 Z2.5400 
G00 X-18.3132 Y33.5142 
G01 Z-0.1500 F254.00 
G01 X-19.4830 Y33.5142 F508.00 
G01 X-21.3845 Y31.6127 
G01 X-21.4527 Y31.5445 
G01 X-21.5418 Y31.5076 
G01 X-43.0796 Y31.5076 
G01 X-49.6629 Y24.9243 
G01 X-49.6224 Y24.9075 
G01 X-49.4787 Y24.8115 
G01 X-49.3565 Y24.6893 
G01 X-49.2605 Y24.5456 
G01 X-49.1943 Y24.3859 
G01 X-49.1606 Y24.2164 
G01 X-49.1606 Y24.0436 
G01 X-49.1943 Y23.8741 
G01 X-49.2605 Y23.7144 
G01 X-49.3565 Y23.5707 
G01 X-49.4787 Y23.4485 
G01 X-49.6224 Y23.3525 
G01 X-49.7821 Y23.2863 
G01 X-49.9516 Y23.2526 
G01 X-51.6484 Y23.2526 
G01 X-51.8179 Y23.2863 
G01 X-51.9776 Y23.3525 
G01 X-52.1213 Y23.4485 
G01 X-52.2435 Y23.5707 
G01 X-52.3395 Y23.7144 
G01 X-52.4057 Y23.8741 
G01 X-52.4394 Y24.0436 
G01 X-52.4394 Y24.2164 
G01 X-52.4057 Y24.3859 
G01 X-52.3395 Y24.5456 
G01 X-52.2435 Y24.6893 
G01 X-52.1213 Y24.8115 
G01 X-51.9776 Y24.9075 
G01 X-51.8179 Y24.9737 
G01 X-51.6484 Y25.0074 
G01 X-50.2654 Y25.0074 
G01 X-43.3173 Y31.9555 
G01 X-43.2282 Y31.9924 
G01 X-21.6904 Y31.9924 
G01 X-20.0793 Y33.6035 
G01 X-20.2049 Y33.6874 
G01 X-20.3130 Y33.7955 
G01 X-20.3979 Y33.9225 
G01 X-20.4564 Y34.0637 
G01 X-20.4862 Y34.2136 
G01 X-20.4862 Y34.3664 
G01 X-20.4564 Y34.5163 
G01 X-20.3979 Y34.6575 
G01 X-20.3130 Y34.7845 
G01 X-20.2049 Y34.8926 
G01 X-20.0779 Y34.9775 
G01 X-19.9367 Y35.0360 
G01 X-19.7868 Y35.0658 
G01 X-18.3132 Y35.0658 
G01 X-18.1633 Y35.0360 
G01 X-18.0221 Y34.9775 
G01 X-17.8951 Y34.8926 
G01 X-17.7870 Y34.7845 
G01 X-17.7021 Y34.6575 
G01 X-17.6436 Y34.5163 
G01 X-17.6138 Y34.3664 
G01 X-17.6138 Y34.2136 
G01 X-17.6436 Y34.0637 
G01 X-17.7021 Y33.9225 
G01 X-17.7870 Y33.7955 
G01 X-17.8951 Y33.6874 
G01 X-18.0221 Y33.6025 
G01 X-18.1633 Y33.5440 
G01 X-18.3132 Y33.5142 
G00 Z2.5400 
G00 X-18.3132 Y28.4342 
G01 Z-0.1500 F254.00 
G01 X-19.7868 Y28.4342 F508.00 
G01 X-19.9367 Y28.4640 
G01 X-20.0779 Y28.5225 
G01 X-20.2049 Y28.6074 
G01 X-20.3130 Y28.7155 
G01 X-20.3979 Y28.8425 
G01 X-20.4497 Y28.9676 
G01 X-24.6320 Y28.9676 
G01 X-24.6540 Y28.8567 
G01 X-24.7125 Y28.7155 
G01 X-24.7974 Y28.5885 
G01 X-24.9055 Y28.4804 
G01 X-25.0325 Y28.3955 
G01 X-25.1737 Y28.3370 
G01 X-25.3236 Y28.3072 
G01 X-25.4764 Y28.3072 
G01 X-25.6263 Y28.3370 
G01 X-25.7675 Y28.3955 
G01 X-25.8945 Y28.4804 
G01 X-26.0026 Y28.5885 
G01 X-26.0875 Y28.7155 
G01 X-26.1460 Y28.8567 
G01 X-26.1758 Y29.0066 
G01 X-26.1758 Y29.1594 
G01 X-26.1460 Y29.3093 
G01 X-26.0875 Y29.4505 
G01 X-26.0026 Y29.5775 
G01 X-25.8945 Y29.6856 
G01 X-25.7675 Y29.7705 
G01 X-25.6263 Y29.8290 
G01 X-25.4764 Y29.8588 
G01 X-25.3236 Y29.8588 
G01 X-25.1737 Y29.8290 
G01 X-25.0325 Y29.7705 
G01 X-24.9055 Y29.6856 
G01 X-24.7974 Y29.5775 
G01 X-24.7138 Y29.4524 
G01 X-20.4497 Y29.4524 
G01 X-20.3979 Y29.5775 
G01 X-20.3130 Y29.7045 
G01 X-20.2049 Y29.8126 
G01 X-20.0779 Y29.8975 
G01 X-19.9367 Y29.9560 
G01 X-19.7868 Y29.9858 
G01 X-18.3132 Y29.9858 
G01 X-18.1633 Y29.9560 
G01 X-18.0221 Y29.8975 
G01 X-17.8951 Y29.8126 
G01 X-17.7870 Y29.7045 
G01 X-17.7021 Y29.5775 
G01 X-17.6436 Y29.4363 
G01 X-17.6138 Y29.2864 
G01 X-17.6138 Y29.1336 
G01 X-17.6436 Y28.9837 
G01 X-17.7021 Y28.8425 
G01 X-17.7870 Y28.7155 
G01 X-17.8951 Y28.6074 
G01 X-18.0221 Y28.5225 
G01 X-18.1633 Y28.4640 
G01 X-18.3132 Y28.4342 
G00 Z2.5400 
G00 X-18.3132 Y23.3542 
G01 Z-0.1500 F254.00 
G01 X-19.7868 Y23.3542 F508.00 
G01 X-19.9367 Y23.3840 
G01 X-20.0779 Y23.4425 
G01 X-20.2049 Y23.5274 
G01 X-20.3130 Y23.6355 
G01 X-20.3979 Y23.7625 
G01 X-20.4564 Y23.9037 
G01 X-20.4862 Y24.0536 
G01 X-20.4862 Y24.2064 
G01 X-20.4564 Y24.3563 
G01 X-20.3979 Y24.4975 
G01 X-20.3130 Y24.6245 
G01 X-20.2049 Y24.7326 
G01 X-20.0779 Y24.8175 
G01 X-19.9367 Y24.8760 
G01 X-19.7868 Y24.9058 
G01 X-18.3132 Y24.9058 
G01 X-18.1633 Y24.8760 
G01 X-18.0221 Y24.8175 
G01 X-17.8951 Y24.7326 
G01 X-17.7870 Y24.6245 
G01 X-17.7021 Y24.4975 
G01 X-17.6503 Y24.3724 
G01 X-13.9218 Y24.3724 
G01 X-13.8327 Y24.3355 
G01 X-13.7645 Y24.2673 
G01 X-11.8630 Y22.3658 
G01 X-10.6932 Y22.3658 
G01 X-10.5433 Y22.3360 
G01 X-10.4021 Y22.2775 
G01 X-10.2751 Y22.1926 
G01 X-10.1670 Y22.0845 
G01 X-10.0821 Y21.9575 
G01 X-10.0236 Y21.8163 
G01 X-9.9938 Y21.6664 
G01 X-9.9938 Y21.5136 
G01 X-10.0236 Y21.3637 
G01 X-10.0821 Y21.2225 
G01 X-10.1670 Y21.0955 
G01 X-10.2751 Y20.9874 
G01 X-10.4021 Y20.9025 
G01 X-10.5433 Y20.8440 
G01 X-10.6932 Y20.8142 
G01 X-12.1668 Y20.8142 
G01 X-12.3167 Y20.8440 
G01 X-12.4579 Y20.9025 
G01 X-12.5849 Y20.9874 
G01 X-12.6930 Y21.0955 
G01 X-12.7779 Y21.2225 
G01 X-12.8364 Y21.3637 
G01 X-12.8662 Y21.5136 
G01 X-12.8662 Y21.6664 
G01 X-12.8364 Y21.8163 
G01 X-12.7779 Y21.9575 
G01 X-12.6930 Y22.0845 
G01 X-12.5849 Y22.1926 
G01 X-12.4593 Y22.2765 
G01 X-14.0704 Y23.8876 
G01 X-16.2676 Y23.8876 
G01 X-16.2676 Y8.8418 
G01 X-16.3045 Y8.7527 
G01 X-16.3727 Y8.6845 
G01 X-17.6427 Y7.4145 
G01 X-17.7318 Y7.3776 
G01 X-20.3682 Y7.3776 
G01 X-20.4573 Y7.4145 
G01 X-20.5255 Y7.4827 
G01 X-21.6904 Y8.6476 
G01 X-31.6496 Y8.6476 
G01 X-32.7038 Y7.5934 
G01 X-32.7020 Y7.5877 
G01 X-32.6760 Y7.4236 
G01 X-32.6760 Y7.2576 
G01 X-32.7020 Y7.0935 
G01 X-32.7533 Y6.9355 
G01 X-32.8287 Y6.7876 
G01 X-32.9263 Y6.6532 
G01 X-33.0438 Y6.5357 
G01 X-33.1782 Y6.4381 
G01 X-33.3261 Y6.3627 
G01 X-33.4841 Y6.3114 
G01 X-33.6482 Y6.2854 
G01 X-33.8142 Y6.2854 
G01 X-33.9783 Y6.3114 
G01 X-34.1363 Y6.3627 
G01 X-34.2842 Y6.4381 
G01 X-34.4186 Y6.5357 
G01 X-34.5361 Y6.6532 
G01 X-34.6337 Y6.7876 
G01 X-34.7091 Y6.9355 
G01 X-34.7604 Y7.0935 
G01 X-34.7864 Y7.2576 
G01 X-34.7864 Y7.4236 
G01 X-34.7604 Y7.5877 
G01 X-34.7091 Y7.7457 
G01 X-34.6337 Y7.8936 
G01 X-34.5361 Y8.0280 
G01 X-34.4186 Y8.1455 
G01 X-34.2842 Y8.2431 
G01 X-34.1363 Y8.3185 
G01 X-33.9783 Y8.3698 
G01 X-33.8142 Y8.3958 
G01 X-33.6482 Y8.3958 
G01 X-33.4841 Y8.3698 
G01 X-33.3261 Y8.3185 
G01 X-33.1782 Y8.2431 
G01 X-33.0438 Y8.1455 
G01 X-32.9406 Y8.0422 
G01 X-31.9555 Y9.0273 
G01 X-31.8873 Y9.0955 
G01 X-31.7982 Y9.1324 
G01 X-21.5418 Y9.1324 
G01 X-21.4527 Y9.0955 
G01 X-20.2196 Y7.8624 
G01 X-17.8804 Y7.8624 
G01 X-16.7524 Y8.9904 
G01 X-16.7524 Y23.8876 
G01 X-17.6503 Y23.8876 
G01 X-17.7021 Y23.7625 
G01 X-17.7870 Y23.6355 
G01 X-17.8951 Y23.5274 
G01 X-18.0221 Y23.4425 
G01 X-18.1633 Y23.3840 
G01 X-18.3132 Y23.3542 
G00 Z2.5400 
G00 X-18.3132 Y15.7342 
G01 Z-0.1500 F254.00 
G01 X-19.7868 Y15.7342 F508.00 
G01 X-19.9367 Y15.7640 
G01 X-20.0779 Y15.8225 
G01 X-20.2049 Y15.9074 
G01 X-20.3130 Y16.0155 
G01 X-20.3979 Y16.1425 
G01 X-20.4497 Y16.2676 
G01 X-49.1916 Y16.2676 
G01 X-49.1943 Y16.2541 
G01 X-49.2605 Y16.0944 
G01 X-49.3565 Y15.9507 
G01 X-49.4787 Y15.8285 
G01 X-49.6224 Y15.7325 
G01 X-49.7821 Y15.6663 
G01 X-49.9516 Y15.6326 
G01 X-51.6484 Y15.6326 
G01 X-51.8179 Y15.6663 
G01 X-51.9776 Y15.7325 
G01 X-52.1213 Y15.8285 
G01 X-52.2435 Y15.9507 
G01 X-52.3395 Y16.0944 
G01 X-52.4057 Y16.2541 
G01 X-52.4394 Y16.4236 
G01 X-52.4394 Y16.5964 
G01 X-52.4057 Y16.7659 
G01 X-52.3395 Y16.9256 
G01 X-52.2435 Y17.0693 
G01 X-52.1213 Y17.1915 
G01 X-51.9776 Y17.2875 
G01 X-51.8179 Y17.3537 
G01 X-51.6484 Y17.3874 
G01 X-49.9516 Y17.3874 
G01 X-49.7821 Y17.3537 
G01 X-49.6224 Y17.2875 
G01 X-49.4787 Y17.1915 
G01 X-49.3565 Y17.0693 
G01 X-49.2605 Y16.9256 
G01 X-49.1943 Y16.7659 
G01 X-49.1916 Y16.7524 
G01 X-20.4497 Y16.7524 
G01 X-20.3979 Y16.8775 
G01 X-20.3130 Y17.0045 
G01 X-20.2049 Y17.1126 
G01 X-20.0779 Y17.1975 
G01 X-19.9367 Y17.2560 
G01 X-19.7868 Y17.2858 
G01 X-18.3132 Y17.2858 
G01 X-18.1633 Y17.2560 
G01 X-18.0221 Y17.1975 
G01 X-17.8951 Y17.1126 
G01 X-17.7870 Y17.0045 
G01 X-17.7021 Y16.8775 
G01 X-17.6436 Y16.7363 
G01 X-17.6138 Y16.5864 
G01 X-17.6138 Y16.4336 
G01 X-17.6436 Y16.2837 
G01 X-17.7021 Y16.1425 
G01 X-17.7870 Y16.0155 
G01 X-17.8951 Y15.9074 
G01 X-18.0221 Y15.8225 
G01 X-18.1633 Y15.7640 
G01 X-18.3132 Y15.7342 
G00 Z2.5400 
G00 X-18.3132 Y10.6542 
G01 Z-0.1500 F254.00 
G01 X-19.7868 Y10.6542 F508.00 
G01 X-19.9367 Y10.6840 
G01 X-20.0779 Y10.7425 
G01 X-20.2049 Y10.8274 
G01 X-20.3130 Y10.9355 
G01 X-20.3979 Y11.0625 
G01 X-20.4497 Y11.1876 
G01 X-49.1916 Y11.1876 
G01 X-49.1943 Y11.1741 
G01 X-49.2605 Y11.0144 
G01 X-49.3565 Y10.8707 
G01 X-49.4787 Y10.7485 
G01 X-49.6224 Y10.6525 
G01 X-49.7821 Y10.5863 
G01 X-49.9516 Y10.5526 
G01 X-51.6484 Y10.5526 
G01 X-51.8179 Y10.5863 
G01 X-51.9776 Y10.6525 
G01 X-52.1213 Y10.7485 
G01 X-52.2435 Y10.8707 
G01 X-52.3395 Y11.0144 
G01 X-52.4057 Y11.1741 
G01 X-52.4394 Y11.3436 
G01 X-52.4394 Y11.5164 
G01 X-52.4057 Y11.6859 
G01 X-52.3395 Y11.8456 
G01 X-52.2435 Y11.9893 
G01 X-52.1213 Y12.1115 
G01 X-51.9776 Y12.2075 
G01 X-51.8179 Y12.2737 
G01 X-51.6484 Y12.3074 
G01 X-49.9516 Y12.3074 
G01 X-49.7821 Y12.2737 
G01 X-49.6224 Y12.2075 
G01 X-49.4787 Y12.1115 
G01 X-49.3565 Y11.9893 
G01 X-49.2605 Y11.8456 
G01 X-49.1943 Y11.6859 
G01 X-49.1916 Y11.6724 
G01 X-20.4497 Y11.6724 
G01 X-20.3979 Y11.7975 
G01 X-20.3130 Y11.9245 
G01 X-20.2049 Y12.0326 
G01 X-20.0779 Y12.1175 
G01 X-19.9367 Y12.1760 
G01 X-19.7868 Y12.2058 
G01 X-18.3132 Y12.2058 
G01 X-18.1633 Y12.1760 
G01 X-18.0221 Y12.1175 
G01 X-17.8951 Y12.0326 
G01 X-17.7870 Y11.9245 
G01 X-17.7021 Y11.7975 
G01 X-17.6436 Y11.6563 
G01 X-17.6138 Y11.5064 
G01 X-17.6138 Y11.3536 
G01 X-17.6436 Y11.2037 
G01 X-17.7021 Y11.0625 
G01 X-17.7870 Y10.9355 
G01 X-17.8951 Y10.8274 
G01 X-18.0221 Y10.7425 
G01 X-18.1633 Y10.6840 
G01 X-18.3132 Y10.6542 
G00 Z2.5400 
G00 X-18.3132 Y8.1142 
G01 Z-0.1500 F254.00 
G01 X-19.7868 Y8.1142 F508.00 
G01 X-19.9367 Y8.1440 
G01 X-20.0779 Y8.2025 
G01 X-20.2049 Y8.2874 
G01 X-20.3130 Y8.3955 
G01 X-20.3979 Y8.5225 
G01 X-20.4564 Y8.6637 
G01 X-20.4862 Y8.8136 
G01 X-20.4862 Y8.9664 
G01 X-20.4564 Y9.1163 
G01 X-20.3979 Y9.2575 
G01 X-20.3130 Y9.3845 
G01 X-20.2049 Y9.4926 
G01 X-20.0793 Y9.5765 
G01 X-20.4204 Y9.9176 
G01 X-49.4296 Y9.9176 
G01 X-49.6629 Y9.6843 
G01 X-49.6224 Y9.6675 
G01 X-49.4787 Y9.5715 
G01 X-49.3565 Y9.4493 
G01 X-49.2605 Y9.3056 
G01 X-49.1943 Y9.1459 
G01 X-49.1606 Y8.9764 
G01 X-49.1606 Y8.8036 
G01 X-49.1943 Y8.6341 
G01 X-49.2605 Y8.4744 
G01 X-49.3565 Y8.3307 
G01 X-49.4787 Y8.2085 
G01 X-49.6224 Y8.1125 
G01 X-49.7821 Y8.0463 
G01 X-49.9516 Y8.0126 
G01 X-51.6484 Y8.0126 
G01 X-51.8179 Y8.0463 
G01 X-51.9776 Y8.1125 
G01 X-52.1213 Y8.2085 
G01 X-52.2435 Y8.3307 
G01 X-52.3395 Y8.4744 
G01 X-52.4057 Y8.6341 
G01 X-52.4394 Y8.8036 
G01 X-52.4394 Y8.9764 
G01 X-52.4057 Y9.1459 
G01 X-52.3395 Y9.3056 
G01 X-52.2435 Y9.4493 
G01 X-52.1213 Y9.5715 
G01 X-51.9776 Y9.6675 
G01 X-51.8179 Y9.7337 
G01 X-51.6484 Y9.7674 
G01 X-50.2654 Y9.7674 
G01 X-49.6673 Y10.3655 
G01 X-49.5782 Y10.4024 
G01 X-20.2718 Y10.4024 
G01 X-20.1827 Y10.3655 
G01 X-20.1145 Y10.2973 
G01 X-19.4830 Y9.6658 
G01 X-18.3132 Y9.6658 
G01 X-18.1633 Y9.6360 
G01 X-18.0221 Y9.5775 
G01 X-17.8951 Y9.4926 
G01 X-17.7870 Y9.3845 
G01 X-17.7021 Y9.2575 
G01 X-17.6436 Y9.1163 
G01 X-17.6138 Y8.9664 
G01 X-17.6138 Y8.8136 
G01 X-17.6436 Y8.6637 
G01 X-17.7021 Y8.5225 
G01 X-17.7870 Y8.3955 
G01 X-17.8951 Y8.2874 
G01 X-18.0221 Y8.2025 
G01 X-18.1633 Y8.1440 
G01 X-18.3132 Y8.1142 
G00 Z2.5400 
G00 X-18.3132 Y5.5742 
G01 Z-0.1500 F254.00 
G01 X-19.4830 Y5.5742 F508.00 
G01 X-20.1145 Y4.9427 
G01 X-20.1827 Y4.8745 
G01 X-20.2718 Y4.8376 
G01 X-30.3796 Y4.8376 
G01 X-32.7295 Y2.4877 
G01 X-32.7533 Y2.4143 
G01 X-32.8287 Y2.2664 
G01 X-32.9263 Y2.1320 
G01 X-33.0438 Y2.0145 
G01 X-33.1782 Y1.9169 
G01 X-33.3261 Y1.8415 
G01 X-33.4841 Y1.7902 
G01 X-33.6482 Y1.7642 
G01 X-33.8142 Y1.7642 
G01 X-33.9783 Y1.7902 
G01 X-34.1363 Y1.8415 
G01 X-34.2842 Y1.9169 
G01 X-34.4186 Y2.0145 
G01 X-34.5361 Y2.1320 
G01 X-34.6337 Y2.2664 
G01 X-34.7091 Y2.4143 
G01 X-34.7604 Y2.5723 
G01 X-34.7864 Y2.7364 
G01 X-34.7864 Y2.9024 
G01 X-34.7604 Y3.0665 
G01 X-34.7091 Y3.2245 
G01 X-34.6337 Y3.3724 
G01 X-34.5361 Y3.5068 
G01 X-34.4186 Y3.6243 
G01 X-34.2842 Y3.7219 
G01 X-34.1363 Y3.7973 
G01 X-33.9783 Y3.8486 
G01 X-33.8142 Y3.8746 
G01 X-33.6482 Y3.8746 
G01 X-33.4841 Y3.8486 
G01 X-33.3261 Y3.7973 
G01 X-33.1782 Y3.7219 
G01 X-33.0438 Y3.6243 
G01 X-32.9263 Y3.5068 
G01 X-32.8287 Y3.3724 
G01 X-32.7533 Y3.2245 
G01 X-32.7349 Y3.1679 
G01 X-30.6173 Y5.2855 
G01 X-30.5282 Y5.3224 
G01 X-20.4204 Y5.3224 
G01 X-20.0793 Y5.6635 
G01 X-20.2049 Y5.7474 
G01 X-20.3130 Y5.8555 
G01 X-20.3979 Y5.9825 
G01 X-20.4564 Y6.1237 
G01 X-20.4862 Y6.2736 
G01 X-20.4862 Y6.4264 
G01 X-20.4564 Y6.5763 
G01 X-20.3979 Y6.7175 
G01 X-20.3130 Y6.8445 
G01 X-20.2049 Y6.9526 
G01 X-20.0779 Y7.0375 
G01 X-19.9367 Y7.0960 
G01 X-19.7868 Y7.1258 
G01 X-18.3132 Y7.1258 
G01 X-18.1633 Y7.0960 
G01 X-18.0221 Y7.0375 
G01 X-17.8951 Y6.9526 
G01 X-17.7870 Y6.8445 
G01 X-17.7021 Y6.7175 
G01 X-17.6436 Y6.5763 
G01 X-17.6138 Y6.4264 
G01 X-17.6138 Y6.2736 
G01 X-17.6436 Y6.1237 
G01 X-17.7021 Y5.9825 
G01 X-17.7870 Y5.8555 
G01 X-17.8951 Y5.7474 
G01 X-18.0221 Y5.6625 
G01 X-18.1633 Y5.6040 
G01 X-18.3132 Y5.5742 
G00 Z2.5400 
G00 X-51.6484 Y14.8474 
G01 Z-0.1500 F254.00 
G01 X-49.9516 Y14.8474 F508.00 
G01 X-49.7821 Y14.8137 
G01 X-49.6224 Y14.7475 
G01 X-49.4787 Y14.6515 
G01 X-49.3565 Y14.5293 
G01 X-49.2605 Y14.3856 
G01 X-49.1943 Y14.2259 
G01 X-49.1916 Y14.2124 
G01 X-20.4497 Y14.2124 
G01 X-20.3979 Y14.3375 
G01 X-20.3130 Y14.4645 
G01 X-20.2049 Y14.5726 
G01 X-20.0779 Y14.6575 
G01 X-19.9367 Y14.7160 
G01 X-19.7868 Y14.7458 
G01 X-18.3132 Y14.7458 
G01 X-18.1633 Y14.7160 
G01 X-18.0221 Y14.6575 
G01 X-17.8951 Y14.5726 
G01 X-17.7870 Y14.4645 
G01 X-17.7021 Y14.3375 
G01 X-17.6436 Y14.1963 
G01 X-17.6138 Y14.0464 
G01 X-17.6138 Y13.8936 
G01 X-17.6436 Y13.7437 
G01 X-17.7021 Y13.6025 
G01 X-17.7870 Y13.4755 
G01 X-17.8951 Y13.3674 
G01 X-18.0221 Y13.2825 
G01 X-18.1633 Y13.2240 
G01 X-18.3132 Y13.1942 
G01 X-19.7868 Y13.1942 
G01 X-19.9367 Y13.2240 
G01 X-20.0779 Y13.2825 
G01 X-20.2049 Y13.3674 
G01 X-20.3130 Y13.4755 
G01 X-20.3979 Y13.6025 
G01 X-20.4497 Y13.7276 
G01 X-49.1916 Y13.7276 
G01 X-49.1943 Y13.7141 
G01 X-49.2605 Y13.5544 
G01 X-49.3565 Y13.4107 
G01 X-49.4787 Y13.2885 
G01 X-49.6224 Y13.1925 
G01 X-49.7821 Y13.1263 
G01 X-49.9516 Y13.0926 
G01 X-51.6484 Y13.0926 
G01 X-51.8179 Y13.1263 
G01 X-51.9776 Y13.1925 
G01 X-52.1213 Y13.2885 
G01 X-52.2435 Y13.4107 
G01 X-52.3395 Y13.5544 
G01 X-52.4057 Y13.7141 
G01 X-52.4394 Y13.8836 
G01 X-52.4394 Y14.0564 
G01 X-52.4057 Y14.2259 
G01 X-52.3395 Y14.3856 
G01 X-52.2435 Y14.5293 
G01 X-52.1213 Y14.6515 
G01 X-51.9776 Y14.7475 
G01 X-51.8179 Y14.8137 
G01 X-51.6484 Y14.8474 
G00 Z2.5400 
G00 X-51.6484 Y19.9274 
G01 Z-0.1500 F254.00 
G01 X-49.9516 Y19.9274 F508.00 
G01 X-49.7821 Y19.8937 
G01 X-49.6224 Y19.8275 
G01 X-49.4787 Y19.7315 
G01 X-49.3565 Y19.6093 
G01 X-49.2605 Y19.4656 
G01 X-49.1943 Y19.3059 
G01 X-49.1916 Y19.2924 
G01 X-20.4497 Y19.2924 
G01 X-20.3979 Y19.4175 
G01 X-20.3130 Y19.5445 
G01 X-20.2049 Y19.6526 
G01 X-20.0779 Y19.7375 
G01 X-19.9367 Y19.7960 
G01 X-19.7868 Y19.8258 
G01 X-18.3132 Y19.8258 
G01 X-18.1633 Y19.7960 
G01 X-18.0221 Y19.7375 
G01 X-17.8951 Y19.6526 
G01 X-17.7870 Y19.5445 
G01 X-17.7021 Y19.4175 
G01 X-17.6436 Y19.2763 
G01 X-17.6138 Y19.1264 
G01 X-17.6138 Y18.9736 
G01 X-17.6436 Y18.8237 
G01 X-17.7021 Y18.6825 
G01 X-17.7870 Y18.5555 
G01 X-17.8951 Y18.4474 
G01 X-18.0221 Y18.3625 
G01 X-18.1633 Y18.3040 
G01 X-18.3132 Y18.2742 
G01 X-19.7868 Y18.2742 
G01 X-19.9367 Y18.3040 
G01 X-20.0779 Y18.3625 
G01 X-20.2049 Y18.4474 
G01 X-20.3130 Y18.5555 
G01 X-20.3979 Y18.6825 
G01 X-20.4497 Y18.8076 
G01 X-49.1916 Y18.8076 
G01 X-49.1943 Y18.7941 
G01 X-49.2605 Y18.6344 
G01 X-49.3565 Y18.4907 
G01 X-49.4787 Y18.3685 
G01 X-49.6224 Y18.2725 
G01 X-49.7821 Y18.2063 
G01 X-49.9516 Y18.1726 
G01 X-51.6484 Y18.1726 
G01 X-51.8179 Y18.2063 
G01 X-51.9776 Y18.2725 
G01 X-52.1213 Y18.3685 
G01 X-52.2435 Y18.4907 
G01 X-52.3395 Y18.6344 
G01 X-52.4057 Y18.7941 
G01 X-52.4394 Y18.9636 
G01 X-52.4394 Y19.1364 
G01 X-52.4057 Y19.3059 
G01 X-52.3395 Y19.4656 
G01 X-52.2435 Y19.6093 
G01 X-52.1213 Y19.7315 
G01 X-51.9776 Y19.8275 
G01 X-51.8179 Y19.8937 
G01 X-51.6484 Y19.9274 
G00 Z2.5400 
G00 X-51.6484 Y22.4674 
G01 Z-0.1500 F254.00 
G01 X-50.2654 Y22.4674 F508.00 
G01 X-42.0473 Y30.6855 
G01 X-41.9582 Y30.7224 
G01 X-20.4204 Y30.7224 
G01 X-20.0793 Y31.0635 
G01 X-20.2049 Y31.1474 
G01 X-20.3130 Y31.2555 
G01 X-20.3979 Y31.3825 
G01 X-20.4564 Y31.5237 
G01 X-20.4862 Y31.6736 
G01 X-20.4862 Y31.8264 
G01 X-20.4564 Y31.9763 
G01 X-20.3979 Y32.1175 
G01 X-20.3130 Y32.2445 
G01 X-20.2049 Y32.3526 
G01 X-20.0779 Y32.4375 
G01 X-19.9367 Y32.4960 
G01 X-19.7868 Y32.5258 
G01 X-18.3132 Y32.5258 
G01 X-18.1633 Y32.4960 
G01 X-18.0221 Y32.4375 
G01 X-17.8951 Y32.3526 
G01 X-17.7870 Y32.2445 
G01 X-17.7021 Y32.1175 
G01 X-17.6436 Y31.9763 
G01 X-17.6138 Y31.8264 
G01 X-17.6138 Y31.6736 
G01 X-17.6436 Y31.5237 
G01 X-17.7021 Y31.3825 
G01 X-17.7870 Y31.2555 
G01 X-17.8951 Y31.1474 
G01 X-18.0221 Y31.0625 
G01 X-18.1633 Y31.0040 
G01 X-18.3132 Y30.9742 
G01 X-19.4830 Y30.9742 
G01 X-20.1827 Y30.2745 
G01 X-20.2718 Y30.2376 
G01 X-41.8096 Y30.2376 
G01 X-49.6629 Y22.3843 
G01 X-49.6224 Y22.3675 
G01 X-49.4787 Y22.2715 
G01 X-49.3565 Y22.1493 
G01 X-49.2605 Y22.0056 
G01 X-49.1943 Y21.8459 
G01 X-49.1606 Y21.6764 
G01 X-49.1606 Y21.5036 
G01 X-49.1943 Y21.3341 
G01 X-49.2605 Y21.1744 
G01 X-49.3565 Y21.0307 
G01 X-49.4787 Y20.9085 
G01 X-49.6224 Y20.8125 
G01 X-49.7821 Y20.7463 
G01 X-49.9516 Y20.7126 
G01 X-51.6484 Y20.7126 
G01 X-51.8179 Y20.7463 
G01 X-51.9776 Y20.8125 
G01 X-52.1213 Y20.9085 
G01 X-52.2435 Y21.0307 
G01 X-52.3395 Y21.1744 
G01 X-52.4057 Y21.3341 
G01 X-52.4394 Y21.5036 
G01 X-52.4394 Y21.6764 
G01 X-52.4057 Y21.8459 
G01 X-52.3395 Y22.0056 
G01 X-52.2435 Y22.1493 
G01 X-52.1213 Y22.2715 
G01 X-51.9776 Y22.3675 
G01 X-51.8179 Y22.4337 
G01 X-51.6484 Y22.4674 
G00 Z2.5400 
G00 X-51.6484 Y27.5474 
G01 Z-0.1500 F254.00 
G01 X-50.2654 Y27.5474 F508.00 
G01 X-43.3173 Y34.4955 
G01 X-43.2282 Y34.5324 
G01 X-21.6904 Y34.5324 
G01 X-20.0793 Y36.1435 
G01 X-20.2049 Y36.2274 
G01 X-20.3130 Y36.3355 
G01 X-20.3979 Y36.4625 
G01 X-20.4564 Y36.6037 
G01 X-20.4862 Y36.7536 
G01 X-20.4862 Y36.9064 
G01 X-20.4564 Y37.0563 
G01 X-20.3979 Y37.1975 
G01 X-20.3130 Y37.3245 
G01 X-20.2049 Y37.4326 
G01 X-20.0779 Y37.5175 
G01 X-19.9367 Y37.5760 
G01 X-19.7868 Y37.6058 
G01 X-18.3132 Y37.6058 
G01 X-18.1633 Y37.5760 
G01 X-18.0221 Y37.5175 
G01 X-17.8951 Y37.4326 
G01 X-17.7870 Y37.3245 
G01 X-17.7021 Y37.1975 
G01 X-17.6436 Y37.0563 
G01 X-17.6138 Y36.9064 
G01 X-17.6138 Y36.7536 
G01 X-17.6436 Y36.6037 
G01 X-17.7021 Y36.4625 
G01 X-17.7870 Y36.3355 
G01 X-17.8951 Y36.2274 
G01 X-18.0221 Y36.1425 
G01 X-18.1633 Y36.0840 
G01 X-18.3132 Y36.0542 
G01 X-19.4830 Y36.0542 
G01 X-21.3845 Y34.1527 
G01 X-21.4527 Y34.0845 
G01 X-21.5418 Y34.0476 
G01 X-43.0796 Y34.0476 
G01 X-49.6629 Y27.4643 
G01 X-49.6224 Y27.4475 
G01 X-49.4787 Y27.3515 
G01 X-49.3565 Y27.2293 
G01 X-49.2605 Y27.0856 
G01 X-49.1943 Y26.9259 
G01 X-49.1606 Y26.7564 
G01 X-49.1606 Y26.5836 
G01 X-49.1943 Y26.4141 
G01 X-49.2605 Y26.2544 
G01 X-49.3565 Y26.1107 
G01 X-49.4787 Y25.9885 
G01 X-49.6224 Y25.8925 
G01 X-49.7821 Y25.8263 
G01 X-49.9516 Y25.7926 
G01 X-51.6484 Y25.7926 
G01 X-51.8179 Y25.8263 
G01 X-51.9776 Y25.8925 
G01 X-52.1213 Y25.9885 
G01 X-52.2435 Y26.1107 
G01 X-52.3395 Y26.2544 
G01 X-52.4057 Y26.4141 
G01 X-52.4394 Y26.5836 
G01 X-52.4394 Y26.7564 
G01 X-52.4057 Y26.9259 
G01 X-52.3395 Y27.0856 
G01 X-52.2435 Y27.2293 
G01 X-52.1213 Y27.3515 
G01 X-51.9776 Y27.4475 
G01 X-51.8179 Y27.5137 
G01 X-51.6484 Y27.5474 
G00 Z2.5400 
G00 X-51.6484 Y36.4374 
G01 Z-0.1500 F254.00 
G01 X-50.2654 Y36.4374 F508.00 
G01 X-44.5873 Y42.1155 
G01 X-44.4982 Y42.1524 
G01 X-16.4618 Y42.1524 
G01 X-16.3727 Y42.1155 
G01 X-16.3045 Y42.0473 
G01 X-11.8630 Y37.6058 
G01 X-10.6932 Y37.6058 
G01 X-10.5433 Y37.5760 
G01 X-10.4021 Y37.5175 
G01 X-10.2751 Y37.4326 
G01 X-10.1670 Y37.3245 
G01 X-10.0821 Y37.1975 
G01 X-10.0236 Y37.0563 
G01 X-9.9938 Y36.9064 
G01 X-9.9938 Y36.7536 
G01 X-10.0236 Y36.6037 
G01 X-10.0821 Y36.4625 
G01 X-10.1670 Y36.3355 
G01 X-10.2751 Y36.2274 
G01 X-10.4021 Y36.1425 
G01 X-10.5433 Y36.0840 
G01 X-10.6932 Y36.0542 
G01 X-12.1668 Y36.0542 
G01 X-12.3167 Y36.0840 
G01 X-12.4579 Y36.1425 
G01 X-12.5849 Y36.2274 
G01 X-12.6930 Y36.3355 
G01 X-12.7779 Y36.4625 
G01 X-12.8364 Y36.6037 
G01 X-12.8662 Y36.7536 
G01 X-12.8662 Y36.9064 
G01 X-12.8364 Y37.0563 
G01 X-12.7779 Y37.1975 
G01 X-12.6930 Y37.3245 
G01 X-12.5849 Y37.4326 
G01 X-12.4593 Y37.5165 
G01 X-16.6104 Y41.6676 
G01 X-44.3496 Y41.6676 
G01 X-49.6629 Y36.3543 
G01 X-49.6224 Y36.3375 
G01 X-49.4787 Y36.2415 
G01 X-49.3565 Y36.1193 
G01 X-49.2605 Y35.9756 
G01 X-49.1943 Y35.8159 
G01 X-49.1606 Y35.6464 
G01 X-49.1606 Y35.4736 
G01 X-49.1943 Y35.3041 
G01 X-49.2605 Y35.1444 
G01 X-49.3565 Y35.0007 
G01 X-49.4787 Y34.8785 
G01 X-49.6224 Y34.7825 
G01 X-49.7821 Y34.7163 
G01 X-49.9516 Y34.6826 
G01 X-51.6484 Y34.6826 
G01 X-51.8179 Y34.7163 
G01 X-51.9776 Y34.7825 
G01 X-52.1213 Y34.8785 
G01 X-52.2435 Y35.0007 
G01 X-52.3395 Y35.1444 
G01 X-52.4057 Y35.3041 
G01 X-52.4394 Y35.4736 
G01 X-52.4394 Y35.6464 
G01 X-52.4057 Y35.8159 
G01 X-52.3395 Y35.9756 
G01 X-52.2435 Y36.1193 
G01 X-52.1213 Y36.2415 
G01 X-51.9776 Y36.3375 
G01 X-51.8179 Y36.4037 
G01 X-51.6484 Y36.4374 
G00 Z2.5400 
G00 X-3.3884 Y30.0874 
G01 Z-0.1500 F254.00 
G01 X-2.7824 Y30.0874 F508.00 
G01 X-2.7824 Y30.8726 
G01 X-3.3884 Y30.8726 
G01 X-3.5579 Y30.9063 
G01 X-3.7176 Y30.9725 
G01 X-3.8613 Y31.0685 
G01 X-3.9835 Y31.1907 
G01 X-4.0795 Y31.3344 
G01 X-4.1457 Y31.4941 
G01 X-4.1794 Y31.6636 
G01 X-4.1794 Y31.8364 
G01 X-4.1457 Y32.0059 
G01 X-4.0795 Y32.1656 
G01 X-3.9835 Y32.3093 
G01 X-3.8613 Y32.4315 
G01 X-3.7176 Y32.5275 
G01 X-3.5579 Y32.5937 
G01 X-3.3884 Y32.6274 
G01 X-1.6916 Y32.6274 
G01 X-1.5221 Y32.5937 
G01 X-1.3624 Y32.5275 
G01 X-1.2187 Y32.4315 
G01 X-1.0965 Y32.3093 
G01 X-1.0005 Y32.1656 
G01 X-0.9343 Y32.0059 
G01 X-0.9006 Y31.8364 
G01 X-0.9006 Y31.6636 
G01 X-0.9343 Y31.4941 
G01 X-1.0005 Y31.3344 
G01 X-1.0965 Y31.1907 
G01 X-1.2187 Y31.0685 
G01 X-1.3624 Y30.9725 
G01 X-1.5221 Y30.9063 
G01 X-1.6916 Y30.8726 
G01 X-2.2976 Y30.8726 
G01 X-2.2976 Y30.0874 
G01 X-1.6916 Y30.0874 
G01 X-1.5221 Y30.0537 
G01 X-1.3624 Y29.9875 
G01 X-1.2187 Y29.8915 
G01 X-1.0965 Y29.7693 
G01 X-1.0005 Y29.6256 
G01 X-0.9343 Y29.4659 
G01 X-0.9006 Y29.2964 
G01 X-0.9006 Y29.1236 
G01 X-0.9343 Y28.9541 
G01 X-1.0005 Y28.7944 
G01 X-1.0965 Y28.6507 
G01 X-1.2187 Y28.5285 
G01 X-1.3624 Y28.4325 
G01 X-1.5221 Y28.3663 
G01 X-1.6916 Y28.3326 
G01 X-3.3884 Y28.3326 
G01 X-3.5579 Y28.3663 
G01 X-3.7176 Y28.4325 
G01 X-3.8613 Y28.5285 
G01 X-3.9835 Y28.6507 
G01 X-4.0795 Y28.7944 
G01 X-4.1457 Y28.9541 
G01 X-4.1794 Y29.1236 
G01 X-4.1794 Y29.2964 
G01 X-4.1457 Y29.4659 
G01 X-4.0795 Y29.6256 
G01 X-3.9835 Y29.7693 
G01 X-3.8613 Y29.8915 
G01 X-3.7176 Y29.9875 
G01 X-3.5579 Y30.0537 
G01 X-3.3884 Y30.0874 
G00 Z2.5400 
G00 X-3.3884 Y35.1674 
G01 Z-0.1500 F254.00 
G01 X-1.6916 Y35.1674 F508.00 
G01 X-1.5221 Y35.1337 
G01 X-1.3624 Y35.0675 
G01 X-1.2187 Y34.9715 
G01 X-1.0965 Y34.8493 
G01 X-1.0005 Y34.7056 
G01 X-0.9343 Y34.5459 
G01 X-0.9006 Y34.3764 
G01 X-0.9006 Y34.2036 
G01 X-0.9343 Y34.0341 
G01 X-1.0005 Y33.8744 
G01 X-1.0965 Y33.7307 
G01 X-1.2187 Y33.6085 
G01 X-1.3624 Y33.5125 
G01 X-1.5221 Y33.4463 
G01 X-1.6916 Y33.4126 
G01 X-3.0746 Y33.4126 
G01 X-9.5748 Y26.9124 
G01 X-4.1484 Y26.9124 
G01 X-4.1457 Y26.9259 
G01 X-4.0795 Y27.0856 
G01 X-3.9835 Y27.2293 
G01 X-3.8613 Y27.3515 
G01 X-3.7176 Y27.4475 
G01 X-3.5579 Y27.5137 
G01 X-3.3884 Y27.5474 
G01 X-1.6916 Y27.5474 
G01 X-1.5221 Y27.5137 
G01 X-1.3624 Y27.4475 
G01 X-1.2187 Y27.3515 
G01 X-1.0965 Y27.2293 
G01 X-1.0005 Y27.0856 
G01 X-0.9343 Y26.9259 
G01 X-0.9006 Y26.7564 
G01 X-0.9006 Y26.5836 
G01 X-0.9343 Y26.4141 
G01 X-1.0005 Y26.2544 
G01 X-1.0965 Y26.1107 
G01 X-1.2187 Y25.9885 
G01 X-1.3624 Y25.8925 
G01 X-1.5221 Y25.8263 
G01 X-1.6916 Y25.7926 
G01 X-3.3884 Y25.7926 
G01 X-3.5579 Y25.8263 
G01 X-3.7176 Y25.8925 
G01 X-3.8613 Y25.9885 
G01 X-3.9835 Y26.1107 
G01 X-4.0795 Y26.2544 
G01 X-4.1457 Y26.4141 
G01 X-4.1484 Y26.4276 
G01 X-10.0303 Y26.4276 
G01 X-10.0821 Y26.3025 
G01 X-10.1670 Y26.1755 
G01 X-10.2751 Y26.0674 
G01 X-10.4021 Y25.9825 
G01 X-10.5433 Y25.9240 
G01 X-10.6932 Y25.8942 
G01 X-11.8630 Y25.8942 
G01 X-12.5627 Y25.1945 
G01 X-12.6518 Y25.1576 
G01 X-21.3476 Y25.1576 
G01 X-21.3476 Y24.2304 
G01 X-19.4830 Y22.3658 
G01 X-18.3132 Y22.3658 
G01 X-18.1633 Y22.3360 
G01 X-18.0221 Y22.2775 
G01 X-17.8951 Y22.1926 
G01 X-17.7870 Y22.0845 
G01 X-17.7021 Y21.9575 
G01 X-17.6436 Y21.8163 
G01 X-17.6138 Y21.6664 
G01 X-17.6138 Y21.5136 
G01 X-17.6436 Y21.3637 
G01 X-17.7021 Y21.2225 
G01 X-17.7870 Y21.0955 
G01 X-17.8951 Y20.9874 
G01 X-18.0221 Y20.9025 
G01 X-18.1633 Y20.8440 
G01 X-18.3132 Y20.8142 
G01 X-19.7868 Y20.8142 
G01 X-19.9367 Y20.8440 
G01 X-20.0779 Y20.9025 
G01 X-20.2049 Y20.9874 
G01 X-20.3130 Y21.0955 
G01 X-20.3979 Y21.2225 
G01 X-20.4564 Y21.3637 
G01 X-20.4862 Y21.5136 
G01 X-20.4862 Y21.6664 
G01 X-20.4564 Y21.8163 
G01 X-20.3979 Y21.9575 
G01 X-20.3130 Y22.0845 
G01 X-20.2049 Y22.1926 
G01 X-20.0793 Y22.2765 
G01 X-21.7273 Y23.9245 
G01 X-21.7955 Y23.9927 
G01 X-21.8324 Y24.0818 
G01 X-21.8324 Y25.4482 
G01 X-21.7955 Y25.5373 
G01 X-21.7273 Y25.6055 
G01 X-21.6382 Y25.6424 
G01 X-12.8004 Y25.6424 
G01 X-12.4593 Y25.9835 
G01 X-12.5849 Y26.0674 
G01 X-12.6930 Y26.1755 
G01 X-12.7779 Y26.3025 
G01 X-12.8364 Y26.4437 
G01 X-12.8662 Y26.5936 
G01 X-12.8662 Y26.7464 
G01 X-12.8364 Y26.8963 
G01 X-12.7779 Y27.0375 
G01 X-12.6930 Y27.1645 
G01 X-12.5849 Y27.2726 
G01 X-12.4579 Y27.3575 
G01 X-12.3167 Y27.4160 
G01 X-12.1668 Y27.4458 
G01 X-10.6932 Y27.4458 
G01 X-10.5433 Y27.4160 
G01 X-10.4021 Y27.3575 
G01 X-10.2751 Y27.2726 
G01 X-10.1670 Y27.1645 
G01 X-10.1034 Y27.0694 
G01 X-3.6771 Y33.4957 
G01 X-3.7176 Y33.5125 
G01 X-3.8613 Y33.6085 
G01 X-3.9835 Y33.7307 
G01 X-4.0795 Y33.8744 
G01 X-4.1457 Y34.0341 
G01 X-4.1794 Y34.2036 
G01 X-4.1794 Y34.3764 
G01 X-4.1457 Y34.5459 
G01 X-4.0795 Y34.7056 
G01 X-3.9835 Y34.8493 
G01 X-3.8613 Y34.9715 
G01 X-3.7176 Y35.0675 
G01 X-3.5579 Y35.1337 
G01 X-3.3884 Y35.1674 
G00 Z2.5400 
G00 X-27.9926 Y49.3816 
G01 Z-0.1500 F254.00 
G01 X-27.9718 Y49.4594 F508.00 
G01 X-27.9315 Y49.5292 
G01 X-27.8745 Y49.5861 
G01 X-27.8048 Y49.6264 
G01 X-27.7270 Y49.6472 
G01 X-27.6464 Y49.6472 
G01 X-27.5686 Y49.6264 
G01 X-27.4989 Y49.5861 
G01 X-27.4419 Y49.5292 
G01 X-27.4017 Y49.4594 
G01 X-27.3808 Y49.3816 
G01 X-27.3808 Y47.9190 
G01 X-27.2112 Y48.0886 
G01 X-27.1543 Y48.1456 
G01 X-27.0845 Y48.1858 
G01 X-27.0067 Y48.2067 
G01 X-26.9262 Y48.2067 
G01 X-26.8484 Y48.1858 
G01 X-26.7786 Y48.1456 
G01 X-26.5521 Y47.9190 
G01 X-26.5521 Y49.3816 
G01 X-26.5312 Y49.4594 
G01 X-26.4909 Y49.5292 
G01 X-26.4340 Y49.5861 
G01 X-26.3642 Y49.6264 
G01 X-26.2864 Y49.6472 
G01 X-26.2059 Y49.6472 
G01 X-26.1281 Y49.6264 
G01 X-26.0583 Y49.5861 
G01 X-26.0014 Y49.5292 
G01 X-25.9611 Y49.4594 
G01 X-25.9403 Y49.3816 
G01 X-25.9403 Y47.1402 
G01 X-25.9611 Y47.0624 
G01 X-26.0014 Y46.9927 
G01 X-26.0583 Y46.9357 
G01 X-26.1281 Y46.8954 
G01 X-26.2059 Y46.8746 
G01 X-26.2864 Y46.8746 
G01 X-26.3642 Y46.8954 
G01 X-26.4340 Y46.9357 
G01 X-26.4909 Y46.9927 
G01 X-26.9664 Y47.4682 
G01 X-27.4989 Y46.9357 
G01 X-27.5686 Y46.8954 
G01 X-27.6464 Y46.8746 
G01 X-27.7270 Y46.8746 
G01 X-27.8048 Y46.8954 
G01 X-27.8745 Y46.9357 
G01 X-27.9315 Y46.9927 
G01 X-27.9718 Y47.0624 
G01 X-27.9926 Y47.1402 
G01 X-27.9926 Y47.2208 
G01 X-27.9926 Y49.3816 
G00 Z2.5400 
G00 X-32.6702 Y47.1402 
G01 Z-0.1500 F254.00 
G01 X-32.6702 Y49.3816 F508.00 
G01 X-32.6494 Y49.4594 
G01 X-32.6091 Y49.5292 
G01 X-32.5521 Y49.5861 
G01 X-32.4824 Y49.6264 
G01 X-32.4046 Y49.6472 
G01 X-32.3240 Y49.6472 
G01 X-32.2462 Y49.6264 
G01 X-32.1765 Y49.5861 
G01 X-32.1195 Y49.5292 
G01 X-32.0793 Y49.4594 
G01 X-32.0584 Y49.3816 
G01 X-32.0584 Y48.6393 
G01 X-31.1116 Y49.5861 
G01 X-31.0418 Y49.6264 
G01 X-30.9640 Y49.6472 
G01 X-30.8835 Y49.6472 
G01 X-30.8057 Y49.6264 
G01 X-30.7359 Y49.5861 
G01 X-30.6790 Y49.5292 
G01 X-30.6387 Y49.4594 
G01 X-30.6179 Y49.3816 
G01 X-30.6179 Y49.3011 
G01 X-30.6387 Y49.2233 
G01 X-30.6790 Y49.1535 
G01 X-31.5716 Y48.2609 
G01 X-30.6790 Y47.3683 
G01 X-30.6387 Y47.2986 
G01 X-30.6179 Y47.2208 
G01 X-30.6179 Y47.1402 
G01 X-30.6387 Y47.0624 
G01 X-30.6790 Y46.9927 
G01 X-30.7359 Y46.9357 
G01 X-30.8057 Y46.8954 
G01 X-30.8835 Y46.8746 
G01 X-30.9640 Y46.8746 
G01 X-31.0418 Y46.8954 
G01 X-31.1116 Y46.9357 
G01 X-32.0042 Y47.8283 
G01 X-32.0584 Y47.7741 
G01 X-32.0584 Y47.1402 
G01 X-32.0793 Y47.0624 
G01 X-32.1195 Y46.9927 
G01 X-32.1765 Y46.9357 
G01 X-32.2462 Y46.8954 
G01 X-32.3240 Y46.8746 
G01 X-32.4046 Y46.8746 
G01 X-32.4824 Y46.8954 
G01 X-32.5521 Y46.9357 
G01 X-32.6091 Y46.9927 
G01 X-32.6494 Y47.0624 
G01 X-32.6702 Y47.1402 
G00 Z2.5400 
G00 X-40.0342 Y49.1690 
G01 Z-0.1500 F254.00 
G01 X-39.9939 Y49.0993 F508.00 
G01 X-39.9730 Y49.0215 
G01 X-39.9730 Y48.9409 
G01 X-39.9939 Y48.8631 
G01 X-40.0342 Y48.7934 
G01 X-40.0911 Y48.7364 
G01 X-40.1609 Y48.6962 
G01 X-40.2387 Y48.6753 
G01 X-40.3192 Y48.6753 
G01 X-40.3970 Y48.6962 
G01 X-40.4668 Y48.7364 
G01 X-40.7658 Y49.0354 
G01 X-41.2326 Y49.0354 
G01 X-41.4136 Y48.8545 
G01 X-41.4136 Y47.6673 
G01 X-41.2326 Y47.4864 
G01 X-40.7658 Y47.4864 
G01 X-40.4668 Y47.7854 
G01 X-40.3970 Y47.8257 
G01 X-40.3192 Y47.8465 
G01 X-40.2387 Y47.8465 
G01 X-40.1609 Y47.8257 
G01 X-40.0911 Y47.7854 
G01 X-40.0342 Y47.7285 
G01 X-39.9939 Y47.6587 
G01 X-39.9730 Y47.5809 
G01 X-39.9730 Y47.5004 
G01 X-39.9939 Y47.4226 
G01 X-40.0342 Y47.3528 
G01 X-40.4513 Y46.9357 
G01 X-40.5210 Y46.8954 
G01 X-40.5988 Y46.8746 
G01 X-41.3996 Y46.8746 
G01 X-41.4774 Y46.8954 
G01 X-41.5472 Y46.9357 
G01 X-41.6041 Y46.9927 
G01 X-41.9643 Y47.3528 
G01 X-42.0046 Y47.4226 
G01 X-42.0254 Y47.5004 
G01 X-42.0254 Y49.0215 
G01 X-42.0046 Y49.0993 
G01 X-41.9643 Y49.1690 
G01 X-41.9578 Y49.1755 
G01 X-41.6041 Y49.5292 
G01 X-41.5537 Y49.5796 
G01 X-41.5472 Y49.5861 
G01 X-41.4774 Y49.6264 
G01 X-41.3996 Y49.6472 
G01 X-40.5988 Y49.6472 
G01 X-40.5210 Y49.6264 
G01 X-40.4513 Y49.5861 
G01 X-40.3943 Y49.5292 
G01 X-40.0342 Y49.1690 
G00 Z2.5400 
G00 X-37.3478 Y49.3816 
G01 Z-0.1500 F254.00 
G01 X-37.3270 Y49.4594 F508.00 
G01 X-37.2867 Y49.5292 
G01 X-37.2297 Y49.5861 
G01 X-37.1600 Y49.6264 
G01 X-37.0822 Y49.6472 
G01 X-37.0016 Y49.6472 
G01 X-36.9238 Y49.6264 
G01 X-36.8541 Y49.5861 
G01 X-36.7971 Y49.5292 
G01 X-36.7569 Y49.4594 
G01 X-36.7360 Y49.3816 
G01 X-36.7360 Y47.4864 
G01 X-35.5611 Y47.4864 
G01 X-35.4833 Y47.4656 
G01 X-35.4135 Y47.4253 
G01 X-35.3566 Y47.3683 
G01 X-35.3163 Y47.2986 
G01 X-35.2954 Y47.2208 
G01 X-35.2954 Y47.1402 
G01 X-35.3163 Y47.0624 
G01 X-35.3566 Y46.9927 
G01 X-35.4135 Y46.9357 
G01 X-35.4833 Y46.8954 
G01 X-35.5611 Y46.8746 
G01 X-37.0822 Y46.8746 
G01 X-37.1600 Y46.8954 
G01 X-37.2297 Y46.9357 
G01 X-37.2867 Y46.9927 
G01 X-37.3270 Y47.0624 
G01 X-37.3478 Y47.1402 
G01 X-37.3478 Y47.2208 
G01 X-37.3478 Y49.3816 
G00 Z2.5400 
G00 X-22.7032 Y47.1402 
G01 Z-0.1500 F254.00 
G01 X-22.7241 Y47.0624 F508.00 
G01 X-22.7643 Y46.9927 
G01 X-22.8213 Y46.9357 
G01 X-22.8910 Y46.8954 
G01 X-22.9688 Y46.8746 
G01 X-23.0494 Y46.8746 
G01 X-23.1272 Y46.8954 
G01 X-23.1970 Y46.9357 
G01 X-23.2539 Y46.9927 
G01 X-23.2942 Y47.0624 
G01 X-23.3150 Y47.1402 
G01 X-23.3150 Y48.6613 
G01 X-23.2942 Y48.7391 
G01 X-23.2539 Y48.8089 
G01 X-22.5336 Y49.5292 
G01 X-22.4767 Y49.5861 
G01 X-22.4069 Y49.6264 
G01 X-22.3291 Y49.6472 
G01 X-22.2486 Y49.6472 
G01 X-22.1708 Y49.6264 
G01 X-22.1010 Y49.5861 
G01 X-22.0889 Y49.5740 
G01 X-22.0441 Y49.5292 
G01 X-21.3359 Y48.8210 
G01 X-21.3238 Y48.8089 
G01 X-21.2835 Y48.7391 
G01 X-21.2627 Y48.6613 
G01 X-21.2627 Y47.1402 
G01 X-21.2835 Y47.0624 
G01 X-21.3238 Y46.9927 
G01 X-21.3807 Y46.9357 
G01 X-21.4505 Y46.8954 
G01 X-21.5283 Y46.8746 
G01 X-21.6088 Y46.8746 
G01 X-21.6866 Y46.8954 
G01 X-21.7564 Y46.9357 
G01 X-21.8133 Y46.9927 
G01 X-21.8536 Y47.0624 
G01 X-21.8745 Y47.1402 
G01 X-21.8745 Y47.9550 
G01 X-22.7032 Y47.9550 
G01 X-22.7032 Y47.1402 
G00 Z2.5400 
G00 X-18.0256 Y47.1402 
G01 Z-0.1500 F254.00 
G01 X-18.0465 Y47.0624 F508.00 
G01 X-18.0868 Y46.9927 
G01 X-18.1437 Y46.9357 
G01 X-18.2135 Y46.8954 
G01 X-18.2913 Y46.8746 
G01 X-18.3718 Y46.8746 
G01 X-18.4496 Y46.8954 
G01 X-18.5194 Y46.9357 
G01 X-18.5763 Y46.9927 
G01 X-18.6166 Y47.0624 
G01 X-18.6374 Y47.1402 
G01 X-18.6374 Y49.3816 
G01 X-18.6166 Y49.4594 
G01 X-18.5763 Y49.5292 
G01 X-18.5194 Y49.5861 
G01 X-18.4496 Y49.6264 
G01 X-18.3718 Y49.6472 
G01 X-17.2108 Y49.6472 
G01 X-17.1330 Y49.6264 
G01 X-17.0633 Y49.5861 
G01 X-17.0568 Y49.5796 
G01 X-17.0063 Y49.5292 
G01 X-16.6527 Y49.1755 
G01 X-16.6462 Y49.1690 
G01 X-16.6059 Y49.0993 
G01 X-16.5851 Y49.0215 
G01 X-16.5851 Y48.2206 
G01 X-16.6059 Y48.1428 
G01 X-16.6462 Y48.0731 
G01 X-16.9986 Y47.7207 
G01 X-16.6462 Y47.3683 
G01 X-16.6059 Y47.2986 
G01 X-16.5851 Y47.2208 
G01 X-16.5851 Y47.1402 
G01 X-16.6059 Y47.0624 
G01 X-16.6462 Y46.9927 
G01 X-16.7031 Y46.9357 
G01 X-16.7729 Y46.8954 
G01 X-16.8507 Y46.8746 
G01 X-16.9312 Y46.8746 
G01 X-17.0090 Y46.8954 
G01 X-17.0788 Y46.9357 
G01 X-17.7380 Y47.5949 
G01 X-18.0256 Y47.5949 
G01 X-18.0256 Y47.1402 
G00 Z2.5400 
G00 X-12.1731 Y49.6472 
G01 Z-0.1500 F254.00 
G01 X-12.0953 Y49.6264 F508.00 
G01 X-12.0255 Y49.5861 
G01 X-11.9686 Y49.5292 
G01 X-11.9283 Y49.4594 
G01 X-11.9075 Y49.3816 
G01 X-11.9075 Y49.3011 
G01 X-11.9283 Y49.2233 
G01 X-11.9686 Y49.1535 
G01 X-12.0255 Y49.0966 
G01 X-12.0953 Y49.0563 
G01 X-12.1731 Y49.0354 
G01 X-13.3480 Y49.0354 
G01 X-13.3480 Y48.5668 
G01 X-12.8934 Y48.5668 
G01 X-12.8156 Y48.5460 
G01 X-12.7458 Y48.5057 
G01 X-12.6889 Y48.4487 
G01 X-12.6486 Y48.3790 
G01 X-12.6278 Y48.3012 
G01 X-12.6278 Y48.2206 
G01 X-12.6486 Y48.1428 
G01 X-12.6889 Y48.0731 
G01 X-12.7458 Y48.0161 
G01 X-12.8156 Y47.9759 
G01 X-12.8934 Y47.9550 
G01 X-13.3480 Y47.9550 
G01 X-13.3480 Y47.4864 
G01 X-12.1731 Y47.4864 
G01 X-12.0953 Y47.4656 
G01 X-12.0255 Y47.4253 
G01 X-11.9686 Y47.3683 
G01 X-11.9283 Y47.2986 
G01 X-11.9075 Y47.2208 
G01 X-11.9075 Y47.1402 
G01 X-11.9283 Y47.0624 
G01 X-11.9686 Y46.9927 
G01 X-12.0255 Y46.9357 
G01 X-12.0953 Y46.8954 
G01 X-12.1731 Y46.8746 
G01 X-13.6942 Y46.8746 
G01 X-13.7720 Y46.8954 
G01 X-13.8418 Y46.9357 
G01 X-13.8987 Y46.9927 
G01 X-13.9390 Y47.0624 
G01 X-13.9598 Y47.1402 
G01 X-13.9598 Y49.3816 
G01 X-13.9390 Y49.4594 
G01 X-13.8987 Y49.5292 
G01 X-13.8418 Y49.5861 
G01 X-13.7720 Y49.6264 
G01 X-13.6942 Y49.6472 
G01 X-13.6137 Y49.6472 
G01 X-12.1731 Y49.6472 
G00 Z2.5400 
G00 X-51.7534 Y46.1290 
G01 Z-0.1500 F254.00 
G01 X-51.7534 Y50.3910 F508.00 
G01 X-51.7358 Y50.4334 
G01 X-51.7034 Y50.4658 
G01 X-51.6610 Y50.4834 
G01 X-47.3990 Y50.4834 
G01 X-47.3566 Y50.4658 
G01 X-47.3242 Y50.4334 
G01 X-47.3066 Y50.3910 
G01 X-47.3066 Y46.1290 
G01 X-47.3242 Y46.0866 
G01 X-47.3566 Y46.0542 
G01 X-47.3990 Y46.0366 
G01 X-51.6610 Y46.0366 
G01 X-51.7034 Y46.0542 
G01 X-51.7358 Y46.0866 
G01 X-51.7534 Y46.1290 
G00 Z2.5400 
G00 X-51.7534 Y1.6790 
G01 Z-0.1500 F254.00 
G01 X-51.7534 Y5.9410 F508.00 
G01 X-51.7358 Y5.9834 
G01 X-51.7034 Y6.0158 
G01 X-51.6610 Y6.0334 
G01 X-47.3990 Y6.0334 
G01 X-47.3566 Y6.0158 
G01 X-47.3242 Y5.9834 
G01 X-47.3066 Y5.9410 
G01 X-47.3066 Y1.6790 
G01 X-47.3242 Y1.6366 
G01 X-47.3566 Y1.6042 
G01 X-47.3990 Y1.5866 
G01 X-51.6610 Y1.5866 
G01 X-51.7034 Y1.6042 
G01 X-51.7358 Y1.6366 
G01 X-51.7534 Y1.6790 
G00 Z2.5400 
G00 X-6.0334 Y1.6790 
G01 Z-0.1500 F254.00 
G01 X-6.0334 Y5.9410 F508.00 
G01 X-6.0158 Y5.9834 
G01 X-5.9834 Y6.0158 
G01 X-5.9410 Y6.0334 
G01 X-1.6790 Y6.0334 
G01 X-1.6366 Y6.0158 
G01 X-1.6042 Y5.9834 
G01 X-1.5866 Y5.9410 
G01 X-1.5866 Y1.6790 
G01 X-1.6042 Y1.6366 
G01 X-1.6366 Y1.6042 
G01 X-1.6790 Y1.5866 
G01 X-5.9410 Y1.5866 
G01 X-5.9834 Y1.6042 
G01 X-6.0158 Y1.6366 
G01 X-6.0334 Y1.6790 
G00 Z2.5400 
G00 X-6.0334 Y46.1290 
G01 Z-0.1500 F254.00 
G01 X-6.0334 Y50.3910 F508.00 
G01 X-6.0158 Y50.4334 
G01 X-5.9834 Y50.4658 
G01 X-5.9410 Y50.4834 
G01 X-1.6790 Y50.4834 
G01 X-1.6366 Y50.4658 
G01 X-1.6042 Y50.4334 
G01 X-1.5866 Y50.3910 
G01 X-1.5866 Y46.1290 
G01 X-1.6042 Y46.0866 
G01 X-1.6366 Y46.0542 
G01 X-1.6790 Y46.0366 
G01 X-5.9410 Y46.0366 
G01 X-5.9834 Y46.0542 
G01 X-6.0158 Y46.0866 
G01 X-6.0334 Y46.1290 
G00 Z2.5400 
G00 X-17.3239 Y48.4402 
G01 Z-0.1500 F254.00 
G01 X-17.3239 Y48.8019 F508.00 
G01 X-17.4304 Y48.9084 
G01 X-17.8986 Y48.9084 
G01 X-17.8986 Y48.3337 
G01 X-17.4304 Y48.3337 
G01 X-17.3239 Y48.4402 
G00 Z2.5400 
G00 X-22.2888 Y48.7291 
G01 Z-0.1500 F254.00 
G01 X-22.3242 Y48.6938 F508.00 
G01 X-22.2535 Y48.6938 
G01 X-22.2888 Y48.7291 
G00 Z2.5400 
G00 X-49.3977 Y38.8802 
G01 Z-0.1500 F254.00 
G01 X-49.2578 Y38.7403 F508.00 
G01 X-49.1479 Y38.5758 
G01 X-49.0722 Y38.3930 
G01 X-49.0336 Y38.1989 
G01 X-49.0336 Y38.0011 
G01 X-49.0714 Y37.8110 
G01 X-44.6768 Y42.2056 
G01 X-44.5926 Y42.2542 
G01 X-44.4986 Y42.2794 
G01 X-16.4614 Y42.2794 
G01 X-16.3674 Y42.2542 
G01 X-16.2832 Y42.2056 
G01 X-16.2144 Y42.1368 
G01 X-11.8104 Y37.7328 
G01 X-10.6807 Y37.7328 
G01 X-10.5063 Y37.6981 
G01 X-10.3420 Y37.6300 
G01 X-10.1941 Y37.5312 
G01 X-10.0684 Y37.4055 
G01 X-9.9695 Y37.2576 
G01 X-9.9015 Y37.0933 
G01 X-9.8668 Y36.9189 
G01 X-9.8668 Y36.7411 
G01 X-9.9015 Y36.5667 
G01 X-9.9695 Y36.4024 
G01 X-10.0684 Y36.2545 
G01 X-10.1941 Y36.1288 
G01 X-10.3420 Y36.0299 
G01 X-10.5063 Y35.9619 
G01 X-10.6696 Y35.9294 
G01 X-9.2594 Y35.9294 
G01 X-9.2594 Y36.6770 
G01 X-11.0496 Y38.4672 
G01 X-12.1793 Y38.4672 
G01 X-12.3537 Y38.5019 
G01 X-12.5180 Y38.5699 
G01 X-12.6659 Y38.6688 
G01 X-12.7916 Y38.7945 
G01 X-12.8904 Y38.9424 
G01 X-12.9585 Y39.1067 
G01 X-12.9932 Y39.2811 
G01 X-12.9932 Y39.4589 
G01 X-12.9585 Y39.6333 
G01 X-12.8904 Y39.7976 
G01 X-12.7916 Y39.9455 
G01 X-12.6659 Y40.0712 
G01 X-12.5180 Y40.1700 
G01 X-12.3537 Y40.2381 
G01 X-12.1793 Y40.2728 
G01 X-10.6807 Y40.2728 
G01 X-10.5063 Y40.2381 
G01 X-10.3420 Y40.1700 
G01 X-10.1941 Y40.0712 
G01 X-10.0684 Y39.9455 
G01 X-9.9695 Y39.7976 
G01 X-9.9015 Y39.6333 
G01 X-9.8668 Y39.4589 
G01 X-9.8668 Y39.2811 
G01 X-9.9015 Y39.1067 
G01 X-9.9695 Y38.9424 
G01 X-10.0684 Y38.7945 
G01 X-10.1941 Y38.6688 
G01 X-10.2014 Y38.6638 
G01 X-8.6632 Y37.1256 
G01 X-8.5944 Y37.0568 
G01 X-8.5458 Y36.9726 
G01 X-8.5206 Y36.8786 
G01 X-8.5206 Y35.5114 
G01 X-8.5458 Y35.4174 
G01 X-8.5944 Y35.3332 
G01 X-8.6632 Y35.2644 
G01 X-8.7474 Y35.2158 
G01 X-8.8414 Y35.1906 
G01 X-10.6696 Y35.1906 
G01 X-10.5063 Y35.1581 
G01 X-10.3420 Y35.0900 
G01 X-10.1941 Y34.9912 
G01 X-10.0684 Y34.8655 
G01 X-9.9695 Y34.7176 
G01 X-9.9454 Y34.6594 
G01 X-9.0430 Y34.6594 
G01 X-7.9894 Y35.7130 
G01 X-7.9894 Y42.8106 
G01 X-45.5670 Y42.8106 
G01 X-49.4575 Y38.9201 
G01 X-49.3977 Y38.8802 
G00 Z2.5400 
G00 X-49.3977 Y36.3402 
G01 Z-0.1500 F254.00 
G01 X-49.2578 Y36.2003 F508.00 
G01 X-49.1479 Y36.0358 
G01 X-49.0722 Y35.8530 
G01 X-49.0336 Y35.6589 
G01 X-49.0336 Y35.4611 
G01 X-49.0714 Y35.2710 
G01 X-43.4068 Y40.9356 
G01 X-43.3226 Y40.9842 
G01 X-43.2286 Y41.0094 
G01 X-17.7314 Y41.0094 
G01 X-17.6374 Y40.9842 
G01 X-17.5532 Y40.9356 
G01 X-17.4844 Y40.8668 
G01 X-12.5470 Y35.9294 
G01 X-12.1904 Y35.9294 
G01 X-12.3537 Y35.9619 
G01 X-12.5180 Y36.0299 
G01 X-12.6659 Y36.1288 
G01 X-12.7916 Y36.2545 
G01 X-12.8904 Y36.4024 
G01 X-12.9585 Y36.5667 
G01 X-12.9932 Y36.7411 
G01 X-12.9932 Y36.9189 
G01 X-12.9585 Y37.0933 
G01 X-12.8904 Y37.2576 
G01 X-12.7916 Y37.4055 
G01 X-12.6659 Y37.5312 
G01 X-12.6586 Y37.5361 
G01 X-16.6630 Y41.5406 
G01 X-44.2970 Y41.5406 
G01 X-49.4575 Y36.3801 
G01 X-49.3977 Y36.3402 
G00 Z2.5400 
G00 X-49.3977 Y33.8002 
G01 Z-0.1500 F254.00 
G01 X-49.2578 Y33.6603 F508.00 
G01 X-49.1479 Y33.4958 
G01 X-49.0722 Y33.3130 
G01 X-49.0336 Y33.1189 
G01 X-49.0336 Y32.9211 
G01 X-49.0714 Y32.7310 
G01 X-44.6768 Y37.1256 
G01 X-44.5926 Y37.1742 
G01 X-44.4986 Y37.1994 
G01 X-21.7430 Y37.1994 
G01 X-20.2786 Y38.6638 
G01 X-20.2859 Y38.6688 
G01 X-20.4116 Y38.7945 
G01 X-20.5104 Y38.9424 
G01 X-20.5785 Y39.1067 
G01 X-20.6132 Y39.2811 
G01 X-20.6132 Y39.4589 
G01 X-20.5785 Y39.6333 
G01 X-20.5104 Y39.7976 
G01 X-20.4116 Y39.9455 
G01 X-20.2859 Y40.0712 
G01 X-20.1380 Y40.1700 
G01 X-19.9737 Y40.2381 
G01 X-19.8104 Y40.2706 
G01 X-43.0270 Y40.2706 
G01 X-49.4575 Y33.8401 
G01 X-49.3977 Y33.8002 
G00 Z2.5400 
G00 X-6.1604 Y1.6538 
G01 Z-0.1500 F254.00 
G01 X-6.1604 Y5.9662 F508.00 
G01 X-6.1235 Y6.0553 
G01 X-6.0553 Y6.1235 
G01 X-5.9662 Y6.1604 
G01 X-1.6538 Y6.1604 
G01 X-1.5647 Y6.1235 
G01 X-1.4965 Y6.0553 
G01 X-1.4596 Y5.9662 
G01 X-1.4596 Y1.6538 
G01 X-1.4965 Y1.5647 
G01 X-1.5647 Y1.4965 
G01 X-1.6538 Y1.4596 
G01 X-5.9662 Y1.4596 
G01 X-6.0553 Y1.4965 
G01 X-6.1235 Y1.5647 
G01 X-6.1604 Y1.6538 
G00 Z2.5400 
G00 X-51.8804 Y1.6538 
G01 Z-0.1500 F254.00 
G01 X-51.8804 Y5.9662 F508.00 
G01 X-51.8435 Y6.0553 
G01 X-51.7753 Y6.1235 
G01 X-51.6862 Y6.1604 
G01 X-47.3738 Y6.1604 
G01 X-47.2847 Y6.1235 
G01 X-47.2165 Y6.0553 
G01 X-47.1796 Y5.9662 
G01 X-47.1796 Y1.6538 
G01 X-47.2165 Y1.5647 
G01 X-47.2847 Y1.4965 
G01 X-47.3738 Y1.4596 
G01 X-51.6862 Y1.4596 
G01 X-51.7753 Y1.4965 
G01 X-51.8435 Y1.5647 
G01 X-51.8804 Y1.6538 
G00 Z2.5400 
G00 X-28.4110 Y2.7264 
G01 Z-0.1500 F254.00 
G01 X-28.4110 Y2.9124 F508.00 
G01 X-28.3819 Y3.0962 
G01 X-28.3244 Y3.2732 
G01 X-28.2399 Y3.4390 
G01 X-28.1305 Y3.5896 
G01 X-27.9990 Y3.7211 
G01 X-27.8484 Y3.8305 
G01 X-27.6826 Y3.9150 
G01 X-27.5056 Y3.9725 
G01 X-27.3218 Y4.0016 
G01 X-27.1358 Y4.0016 
G01 X-26.9520 Y3.9725 
G01 X-26.7750 Y3.9150 
G01 X-26.6092 Y3.8305 
G01 X-26.4586 Y3.7211 
G01 X-26.3271 Y3.5896 
G01 X-26.2177 Y3.4390 
G01 X-26.1332 Y3.2732 
G01 X-26.0757 Y3.0962 
G01 X-26.0466 Y2.9124 
G01 X-26.0466 Y2.7264 
G01 X-26.0757 Y2.5426 
G01 X-26.1332 Y2.3656 
G01 X-26.2177 Y2.1998 
G01 X-26.3271 Y2.0492 
G01 X-26.4586 Y1.9177 
G01 X-26.6092 Y1.8083 
G01 X-26.7750 Y1.7238 
G01 X-26.9520 Y1.6663 
G01 X-27.1358 Y1.6372 
G01 X-27.3218 Y1.6372 
G01 X-27.5056 Y1.6663 
G01 X-27.6826 Y1.7238 
G01 X-27.8484 Y1.8083 
G01 X-27.9990 Y1.9177 
G01 X-28.1305 Y2.0492 
G01 X-28.2399 Y2.1998 
G01 X-28.3244 Y2.3656 
G01 X-28.3819 Y2.5426 
G01 X-28.4110 Y2.7264 
G00 Z2.5400 
G00 X-10.6807 Y5.4472 
G01 Z-0.1500 F254.00 
G01 X-12.1793 Y5.4472 F508.00 
G01 X-12.3537 Y5.4819 
G01 X-12.5180 Y5.5499 
G01 X-12.6659 Y5.6488 
G01 X-12.7916 Y5.7745 
G01 X-12.8904 Y5.9224 
G01 X-12.9585 Y6.0867 
G01 X-12.9932 Y6.2611 
G01 X-12.9932 Y6.4389 
G01 X-12.9585 Y6.6133 
G01 X-12.8904 Y6.7776 
G01 X-12.7916 Y6.9255 
G01 X-12.6659 Y7.0512 
G01 X-12.5180 Y7.1500 
G01 X-12.3537 Y7.2181 
G01 X-12.1793 Y7.2528 
G01 X-11.0496 Y7.2528 
G01 X-9.1168 Y9.1856 
G01 X-9.0326 Y9.2342 
G01 X-8.9386 Y9.2594 
G01 X-4.2361 Y9.2594 
G01 X-4.1921 Y9.3658 
G01 X-4.0822 Y9.5303 
G01 X-3.9423 Y9.6702 
G01 X-3.7778 Y9.7801 
G01 X-3.5950 Y9.8558 
G01 X-3.4009 Y9.8944 
G01 X-1.6791 Y9.8944 
G01 X-1.4850 Y9.8558 
G01 X-1.3022 Y9.7801 
G01 X-1.1377 Y9.6702 
G01 X-0.9978 Y9.5303 
G01 X-0.8879 Y9.3658 
G01 X-0.8122 Y9.1830 
G01 X-0.7736 Y8.9889 
G01 X-0.7736 Y8.7911 
G01 X-0.8122 Y8.5970 
G01 X-0.8879 Y8.4142 
G01 X-0.9978 Y8.2497 
G01 X-1.1377 Y8.1098 
G01 X-1.3022 Y7.9999 
G01 X-1.4850 Y7.9242 
G01 X-1.6791 Y7.8856 
G01 X-3.4009 Y7.8856 
G01 X-3.5950 Y7.9242 
G01 X-3.7778 Y7.9999 
G01 X-3.9423 Y8.1098 
G01 X-4.0822 Y8.2497 
G01 X-4.1921 Y8.4142 
G01 X-4.2361 Y8.5206 
G01 X-8.7370 Y8.5206 
G01 X-10.2014 Y7.0562 
G01 X-10.1941 Y7.0512 
G01 X-10.0684 Y6.9255 
G01 X-9.9695 Y6.7776 
G01 X-9.9015 Y6.6133 
G01 X-9.8668 Y6.4389 
G01 X-9.8668 Y6.2611 
G01 X-9.9015 Y6.0867 
G01 X-9.9695 Y5.9224 
G01 X-10.0684 Y5.7745 
G01 X-10.1941 Y5.6488 
G01 X-10.3420 Y5.5499 
G01 X-10.5063 Y5.4819 
G01 X-10.6807 Y5.4472 
G00 Z2.5400 
G00 X-10.6807 Y7.9872 
G01 Z-0.1500 F254.00 
G01 X-12.1793 Y7.9872 F508.00 
G01 X-12.3537 Y8.0219 
G01 X-12.5180 Y8.0899 
G01 X-12.6659 Y8.1888 
G01 X-12.7916 Y8.3145 
G01 X-12.8904 Y8.4624 
G01 X-12.9585 Y8.6267 
G01 X-12.9932 Y8.8011 
G01 X-12.9932 Y8.9789 
G01 X-12.9585 Y9.1533 
G01 X-12.8904 Y9.3176 
G01 X-12.7916 Y9.4655 
G01 X-12.6659 Y9.5912 
G01 X-12.5180 Y9.6900 
G01 X-12.3537 Y9.7581 
G01 X-12.1793 Y9.7928 
G01 X-11.0496 Y9.7928 
G01 X-9.1856 Y11.6568 
G01 X-9.1168 Y11.7256 
G01 X-9.0326 Y11.7742 
G01 X-8.9386 Y11.7994 
G01 X-4.2361 Y11.7994 
G01 X-4.1921 Y11.9058 
G01 X-4.0822 Y12.0703 
G01 X-3.9423 Y12.2102 
G01 X-3.7778 Y12.3201 
G01 X-3.5950 Y12.3958 
G01 X-3.4009 Y12.4344 
G01 X-1.6791 Y12.4344 
G01 X-1.4850 Y12.3958 
G01 X-1.3022 Y12.3201 
G01 X-1.1377 Y12.2102 
G01 X-0.9978 Y12.0703 
G01 X-0.8879 Y11.9058 
G01 X-0.8122 Y11.7230 
G01 X-0.7736 Y11.5289 
G01 X-0.7736 Y11.3311 
G01 X-0.8122 Y11.1370 
G01 X-0.8879 Y10.9542 
G01 X-0.9978 Y10.7897 
G01 X-1.1377 Y10.6498 
G01 X-1.3022 Y10.5399 
G01 X-1.4850 Y10.4642 
G01 X-1.6791 Y10.4256 
G01 X-3.4009 Y10.4256 
G01 X-3.5950 Y10.4642 
G01 X-3.7778 Y10.5399 
G01 X-3.9423 Y10.6498 
G01 X-4.0822 Y10.7897 
G01 X-4.1921 Y10.9542 
G01 X-4.2361 Y11.0606 
G01 X-8.7370 Y11.0606 
G01 X-10.2014 Y9.5961 
G01 X-10.1941 Y9.5912 
G01 X-10.0684 Y9.4655 
G01 X-9.9695 Y9.3176 
G01 X-9.9015 Y9.1533 
G01 X-9.8668 Y8.9789 
G01 X-9.8668 Y8.8011 
G01 X-9.9015 Y8.6267 
G01 X-9.9695 Y8.4624 
G01 X-10.0684 Y8.3145 
G01 X-10.1941 Y8.1888 
G01 X-10.3420 Y8.0899 
G01 X-10.5063 Y8.0219 
G01 X-10.6807 Y7.9872 
G00 Z2.5400 
G00 X-10.6807 Y10.5272 
G01 Z-0.1500 F254.00 
G01 X-12.1793 Y10.5272 F508.00 
G01 X-12.3537 Y10.5619 
G01 X-12.5180 Y10.6300 
G01 X-12.6659 Y10.7287 
G01 X-12.7916 Y10.8545 
G01 X-12.8904 Y11.0024 
G01 X-12.9585 Y11.1667 
G01 X-12.9932 Y11.3411 
G01 X-12.9932 Y11.5189 
G01 X-12.9585 Y11.6933 
G01 X-12.8904 Y11.8576 
G01 X-12.7916 Y12.0055 
G01 X-12.6659 Y12.1312 
G01 X-12.5180 Y12.2300 
G01 X-12.3537 Y12.2981 
G01 X-12.1793 Y12.3328 
G01 X-11.0496 Y12.3328 
G01 X-9.1856 Y14.1968 
G01 X-9.1168 Y14.2656 
G01 X-9.0326 Y14.3142 
G01 X-8.9386 Y14.3394 
G01 X-4.2361 Y14.3394 
G01 X-4.1921 Y14.4458 
G01 X-4.0822 Y14.6103 
G01 X-3.9423 Y14.7502 
G01 X-3.7778 Y14.8601 
G01 X-3.5950 Y14.9358 
G01 X-3.4009 Y14.9744 
G01 X-1.6791 Y14.9744 
G01 X-1.4850 Y14.9358 
G01 X-1.3022 Y14.8601 
G01 X-1.1377 Y14.7502 
G01 X-0.9978 Y14.6103 
G01 X-0.8879 Y14.4458 
G01 X-0.8122 Y14.2630 
G01 X-0.7736 Y14.0689 
G01 X-0.7736 Y13.8711 
G01 X-0.8122 Y13.6770 
G01 X-0.8879 Y13.4942 
G01 X-0.9978 Y13.3297 
G01 X-1.1377 Y13.1898 
G01 X-1.3022 Y13.0799 
G01 X-1.4850 Y13.0042 
G01 X-1.6791 Y12.9656 
G01 X-3.4009 Y12.9656 
G01 X-3.5950 Y13.0042 
G01 X-3.7778 Y13.0799 
G01 X-3.9423 Y13.1898 
G01 X-4.0822 Y13.3297 
G01 X-4.1921 Y13.4942 
G01 X-4.2361 Y13.6006 
G01 X-8.7370 Y13.6006 
G01 X-10.2014 Y12.1362 
G01 X-10.1941 Y12.1312 
G01 X-10.0684 Y12.0055 
G01 X-9.9695 Y11.8576 
G01 X-9.9015 Y11.6933 
G01 X-9.8668 Y11.5189 
G01 X-9.8668 Y11.3411 
G01 X-9.9015 Y11.1667 
G01 X-9.9695 Y11.0024 
G01 X-10.0684 Y10.8545 
G01 X-10.1941 Y10.7287 
G01 X-10.3420 Y10.6300 
G01 X-10.5063 Y10.5619 
G01 X-10.6807 Y10.5272 
G00 Z2.5400 
G00 X-10.6807 Y13.0672 
G01 Z-0.1500 F254.00 
G01 X-12.1793 Y13.0672 F508.00 
G01 X-12.3537 Y13.1019 
G01 X-12.5180 Y13.1700 
G01 X-12.6659 Y13.2688 
G01 X-12.7916 Y13.3945 
G01 X-12.8904 Y13.5424 
G01 X-12.9585 Y13.7067 
G01 X-12.9932 Y13.8811 
G01 X-12.9932 Y14.0589 
G01 X-12.9585 Y14.2333 
G01 X-12.8904 Y14.3976 
G01 X-12.7916 Y14.5455 
G01 X-12.6659 Y14.6712 
G01 X-12.5180 Y14.7700 
G01 X-12.3537 Y14.8381 
G01 X-12.1793 Y14.8728 
G01 X-11.0496 Y14.8728 
G01 X-9.1856 Y16.7368 
G01 X-9.1168 Y16.8056 
G01 X-9.0326 Y16.8542 
G01 X-8.9386 Y16.8794 
G01 X-4.2361 Y16.8794 
G01 X-4.1921 Y16.9858 
G01 X-4.0822 Y17.1503 
G01 X-3.9423 Y17.2902 
G01 X-3.7778 Y17.4001 
G01 X-3.5950 Y17.4758 
G01 X-3.4009 Y17.5144 
G01 X-1.6791 Y17.5144 
G01 X-1.4850 Y17.4758 
G01 X-1.3022 Y17.4001 
G01 X-1.1377 Y17.2902 
G01 X-0.9978 Y17.1503 
G01 X-0.8879 Y16.9858 
G01 X-0.8122 Y16.8030 
G01 X-0.7736 Y16.6089 
G01 X-0.7736 Y16.4111 
G01 X-0.8122 Y16.2170 
G01 X-0.8879 Y16.0342 
G01 X-0.9978 Y15.8697 
G01 X-1.1377 Y15.7298 
G01 X-1.3022 Y15.6199 
G01 X-1.4850 Y15.5442 
G01 X-1.6791 Y15.5056 
G01 X-3.4009 Y15.5056 
G01 X-3.5950 Y15.5442 
G01 X-3.7778 Y15.6199 
G01 X-3.9423 Y15.7298 
G01 X-4.0822 Y15.8697 
G01 X-4.1921 Y16.0342 
G01 X-4.2361 Y16.1406 
G01 X-8.7370 Y16.1406 
G01 X-10.2014 Y14.6762 
G01 X-10.1941 Y14.6712 
G01 X-10.0684 Y14.5455 
G01 X-9.9695 Y14.3976 
G01 X-9.9015 Y14.2333 
G01 X-9.8668 Y14.0589 
G01 X-9.8668 Y13.8811 
G01 X-9.9015 Y13.7067 
G01 X-9.9695 Y13.5424 
G01 X-10.0684 Y13.3945 
G01 X-10.1941 Y13.2688 
G01 X-10.3420 Y13.1700 
G01 X-10.5063 Y13.1019 
G01 X-10.6807 Y13.0672 
G00 Z2.5400 
G00 X-10.6807 Y15.6072 
G01 Z-0.1500 F254.00 
G01 X-12.1793 Y15.6072 F508.00 
G01 X-12.3537 Y15.6419 
G01 X-12.5180 Y15.7100 
G01 X-12.6659 Y15.8088 
G01 X-12.7916 Y15.9345 
G01 X-12.8904 Y16.0824 
G01 X-12.9585 Y16.2467 
G01 X-12.9932 Y16.4211 
G01 X-12.9932 Y16.5989 
G01 X-12.9585 Y16.7733 
G01 X-12.8904 Y16.9376 
G01 X-12.7916 Y17.0855 
G01 X-12.6659 Y17.2112 
G01 X-12.5180 Y17.3100 
G01 X-12.3537 Y17.3781 
G01 X-12.1793 Y17.4128 
G01 X-11.0496 Y17.4128 
G01 X-9.1856 Y19.2768 
G01 X-9.1168 Y19.3456 
G01 X-9.0326 Y19.3942 
G01 X-8.9386 Y19.4194 
G01 X-4.2361 Y19.4194 
G01 X-4.1921 Y19.5258 
G01 X-4.0822 Y19.6903 
G01 X-3.9423 Y19.8302 
G01 X-3.7778 Y19.9401 
G01 X-3.5950 Y20.0158 
G01 X-3.4009 Y20.0544 
G01 X-1.6791 Y20.0544 
G01 X-1.4850 Y20.0158 
G01 X-1.3022 Y19.9401 
G01 X-1.1377 Y19.8302 
G01 X-0.9978 Y19.6903 
G01 X-0.8879 Y19.5258 
G01 X-0.8122 Y19.3430 
G01 X-0.7736 Y19.1489 
G01 X-0.7736 Y18.9511 
G01 X-0.8122 Y18.7570 
G01 X-0.8879 Y18.5742 
G01 X-0.9978 Y18.4097 
G01 X-1.1377 Y18.2698 
G01 X-1.3022 Y18.1599 
G01 X-1.4850 Y18.0842 
G01 X-1.6791 Y18.0456 
G01 X-3.4009 Y18.0456 
G01 X-3.5950 Y18.0842 
G01 X-3.7778 Y18.1599 
G01 X-3.9423 Y18.2698 
G01 X-4.0822 Y18.4097 
G01 X-4.1921 Y18.5742 
G01 X-4.2361 Y18.6806 
G01 X-8.7370 Y18.6806 
G01 X-10.2014 Y17.2162 
G01 X-10.1941 Y17.2112 
G01 X-10.0684 Y17.0855 
G01 X-9.9695 Y16.9376 
G01 X-9.9015 Y16.7733 
G01 X-9.8668 Y16.5989 
G01 X-9.8668 Y16.4211 
G01 X-9.9015 Y16.2467 
G01 X-9.9695 Y16.0824 
G01 X-10.0684 Y15.9345 
G01 X-10.1941 Y15.8088 
G01 X-10.3420 Y15.7100 
G01 X-10.5063 Y15.6419 
G01 X-10.6807 Y15.6072 
G00 Z2.5400 
G00 X-10.6807 Y18.1472 
G01 Z-0.1500 F254.00 
G01 X-12.1793 Y18.1472 F508.00 
G01 X-12.3537 Y18.1819 
G01 X-12.5180 Y18.2500 
G01 X-12.6659 Y18.3488 
G01 X-12.7916 Y18.4745 
G01 X-12.8904 Y18.6224 
G01 X-12.9585 Y18.7867 
G01 X-12.9932 Y18.9611 
G01 X-12.9932 Y19.1389 
G01 X-12.9585 Y19.3133 
G01 X-12.8904 Y19.4776 
G01 X-12.7916 Y19.6255 
G01 X-12.6659 Y19.7512 
G01 X-12.5180 Y19.8500 
G01 X-12.3537 Y19.9181 
G01 X-12.1793 Y19.9528 
G01 X-11.0496 Y19.9528 
G01 X-9.1856 Y21.8168 
G01 X-9.1168 Y21.8856 
G01 X-9.0326 Y21.9342 
G01 X-8.9386 Y21.9594 
G01 X-4.2361 Y21.9594 
G01 X-4.1921 Y22.0658 
G01 X-4.0822 Y22.2303 
G01 X-3.9423 Y22.3702 
G01 X-3.7778 Y22.4801 
G01 X-3.5950 Y22.5558 
G01 X-3.4009 Y22.5944 
G01 X-1.6791 Y22.5944 
G01 X-1.4850 Y22.5558 
G01 X-1.3022 Y22.4801 
G01 X-1.1377 Y22.3702 
G01 X-0.9978 Y22.2303 
G01 X-0.8879 Y22.0658 
G01 X-0.8122 Y21.8830 
G01 X-0.7736 Y21.6889 
G01 X-0.7736 Y21.4911 
G01 X-0.8122 Y21.2970 
G01 X-0.8879 Y21.1142 
G01 X-0.9978 Y20.9497 
G01 X-1.1377 Y20.8098 
G01 X-1.3022 Y20.6999 
G01 X-1.4850 Y20.6242 
G01 X-1.6791 Y20.5856 
G01 X-3.4009 Y20.5856 
G01 X-3.5950 Y20.6242 
G01 X-3.7778 Y20.6999 
G01 X-3.9423 Y20.8098 
G01 X-4.0822 Y20.9497 
G01 X-4.1921 Y21.1142 
G01 X-4.2361 Y21.2206 
G01 X-8.7370 Y21.2206 
G01 X-10.2014 Y19.7562 
G01 X-10.1941 Y19.7512 
G01 X-10.0684 Y19.6255 
G01 X-9.9695 Y19.4776 
G01 X-9.9015 Y19.3133 
G01 X-9.8668 Y19.1389 
G01 X-9.8668 Y18.9611 
G01 X-9.9015 Y18.7867 
G01 X-9.9695 Y18.6224 
G01 X-10.0684 Y18.4745 
G01 X-10.1941 Y18.3488 
G01 X-10.3420 Y18.2500 
G01 X-10.5063 Y18.1819 
G01 X-10.6807 Y18.1472 
G00 Z2.5400 
G00 X-10.6807 Y23.2272 
G01 Z-0.1500 F254.00 
G01 X-12.1793 Y23.2272 F508.00 
G01 X-12.3537 Y23.2619 
G01 X-12.5180 Y23.3300 
G01 X-12.6659 Y23.4288 
G01 X-12.7916 Y23.5545 
G01 X-12.8904 Y23.7024 
G01 X-12.9585 Y23.8667 
G01 X-12.9932 Y24.0411 
G01 X-12.9932 Y24.2189 
G01 X-12.9585 Y24.3933 
G01 X-12.8904 Y24.5576 
G01 X-12.7916 Y24.7055 
G01 X-12.6659 Y24.8312 
G01 X-12.5180 Y24.9300 
G01 X-12.3537 Y24.9981 
G01 X-12.1793 Y25.0328 
G01 X-10.6807 Y25.0328 
G01 X-10.5063 Y24.9981 
G01 X-10.3420 Y24.9300 
G01 X-10.1941 Y24.8312 
G01 X-10.0684 Y24.7055 
G01 X-9.9695 Y24.5576 
G01 X-9.9015 Y24.3933 
G01 X-9.8668 Y24.2189 
G01 X-9.8668 Y24.0411 
G01 X-9.9015 Y23.8667 
G01 X-9.9695 Y23.7024 
G01 X-10.0684 Y23.5545 
G01 X-10.1941 Y23.4288 
G01 X-10.3420 Y23.3300 
G01 X-10.5063 Y23.2619 
G01 X-10.6807 Y23.2272 
G00 Z2.5400 
G00 X-10.6807 Y28.3072 
G01 Z-0.1500 F254.00 
G01 X-12.1793 Y28.3072 F508.00 
G01 X-12.3537 Y28.3419 
G01 X-12.5180 Y28.4100 
G01 X-12.6659 Y28.5088 
G01 X-12.7916 Y28.6345 
G01 X-12.8904 Y28.7824 
G01 X-12.9585 Y28.9467 
G01 X-12.9932 Y29.1211 
G01 X-12.9932 Y29.2989 
G01 X-12.9585 Y29.4733 
G01 X-12.8904 Y29.6376 
G01 X-12.7916 Y29.7855 
G01 X-12.6659 Y29.9112 
G01 X-12.5180 Y30.0100 
G01 X-12.3537 Y30.0781 
G01 X-12.1793 Y30.1128 
G01 X-11.0496 Y30.1128 
G01 X-5.4494 Y35.7130 
G01 X-5.4494 Y45.3506 
G01 X-48.1070 Y45.3506 
G01 X-49.4575 Y44.0001 
G01 X-49.3977 Y43.9602 
G01 X-49.2578 Y43.8203 
G01 X-49.1479 Y43.6558 
G01 X-49.0722 Y43.4730 
G01 X-49.0336 Y43.2789 
G01 X-49.0336 Y43.0811 
G01 X-49.0714 Y42.8910 
G01 X-47.2168 Y44.7456 
G01 X-47.1326 Y44.7942 
G01 X-47.0386 Y44.8194 
G01 X-6.3014 Y44.8194 
G01 X-6.2074 Y44.7942 
G01 X-6.1232 Y44.7456 
G01 X-6.0544 Y44.6768 
G01 X-6.0058 Y44.5926 
G01 X-5.9806 Y44.4986 
G01 X-5.9806 Y35.5114 
G01 X-6.0058 Y35.4174 
G01 X-6.0544 Y35.3332 
G01 X-6.1232 Y35.2644 
G01 X-8.6632 Y32.7244 
G01 X-8.7474 Y32.6758 
G01 X-8.8414 Y32.6506 
G01 X-10.0070 Y32.6506 
G01 X-10.2014 Y32.4562 
G01 X-10.1941 Y32.4512 
G01 X-10.0684 Y32.3255 
G01 X-9.9695 Y32.1776 
G01 X-9.9015 Y32.0133 
G01 X-9.8668 Y31.8389 
G01 X-9.8668 Y31.6611 
G01 X-9.9015 Y31.4867 
G01 X-9.9695 Y31.3224 
G01 X-10.0684 Y31.1745 
G01 X-10.1941 Y31.0488 
G01 X-10.3420 Y30.9500 
G01 X-10.5063 Y30.8819 
G01 X-10.6807 Y30.8472 
G01 X-12.1793 Y30.8472 
G01 X-12.3537 Y30.8819 
G01 X-12.5180 Y30.9500 
G01 X-12.6659 Y31.0488 
G01 X-12.7916 Y31.1745 
G01 X-12.8904 Y31.3224 
G01 X-12.9585 Y31.4867 
G01 X-12.9932 Y31.6611 
G01 X-12.9932 Y31.8389 
G01 X-12.9585 Y32.0133 
G01 X-12.8904 Y32.1776 
G01 X-12.7916 Y32.3255 
G01 X-12.6659 Y32.4512 
G01 X-12.5180 Y32.5500 
G01 X-12.3537 Y32.6181 
G01 X-12.1793 Y32.6528 
G01 X-11.0496 Y32.6528 
G01 X-10.4556 Y33.2468 
G01 X-10.3868 Y33.3156 
G01 X-10.3026 Y33.3642 
G01 X-10.2086 Y33.3894 
G01 X-9.0430 Y33.3894 
G01 X-6.7194 Y35.7130 
G01 X-6.7194 Y44.0806 
G01 X-46.8370 Y44.0806 
G01 X-49.4575 Y41.4601 
G01 X-49.3977 Y41.4202 
G01 X-49.2578 Y41.2803 
G01 X-49.1479 Y41.1158 
G01 X-49.0722 Y40.9330 
G01 X-49.0336 Y40.7389 
G01 X-49.0336 Y40.5411 
G01 X-49.0714 Y40.3510 
G01 X-45.9468 Y43.4756 
G01 X-45.8626 Y43.5242 
G01 X-45.7686 Y43.5494 
G01 X-7.5714 Y43.5494 
G01 X-7.4774 Y43.5242 
G01 X-7.3932 Y43.4756 
G01 X-7.3244 Y43.4068 
G01 X-7.2758 Y43.3226 
G01 X-7.2506 Y43.2286 
G01 X-7.2506 Y35.5114 
G01 X-7.2758 Y35.4174 
G01 X-7.3244 Y35.3332 
G01 X-7.3932 Y35.2644 
G01 X-8.6632 Y33.9944 
G01 X-8.7474 Y33.9458 
G01 X-8.8414 Y33.9206 
G01 X-9.9454 Y33.9206 
G01 X-9.9695 Y33.8624 
G01 X-10.0684 Y33.7145 
G01 X-10.1941 Y33.5888 
G01 X-10.3420 Y33.4900 
G01 X-10.5063 Y33.4219 
G01 X-10.6807 Y33.3872 
G01 X-12.1793 Y33.3872 
G01 X-12.3537 Y33.4219 
G01 X-12.5180 Y33.4900 
G01 X-12.6659 Y33.5888 
G01 X-12.7916 Y33.7145 
G01 X-12.8904 Y33.8624 
G01 X-12.9585 Y34.0267 
G01 X-12.9932 Y34.2011 
G01 X-12.9932 Y34.3789 
G01 X-12.9585 Y34.5533 
G01 X-12.8904 Y34.7176 
G01 X-12.7916 Y34.8655 
G01 X-12.6659 Y34.9912 
G01 X-12.5180 Y35.0900 
G01 X-12.3537 Y35.1581 
G01 X-12.1904 Y35.1906 
G01 X-12.7486 Y35.1906 
G01 X-12.8426 Y35.2158 
G01 X-12.9268 Y35.2644 
G01 X-17.9330 Y40.2706 
G01 X-18.2896 Y40.2706 
G01 X-18.1263 Y40.2381 
G01 X-17.9620 Y40.1700 
G01 X-17.8141 Y40.0712 
G01 X-17.6883 Y39.9455 
G01 X-17.5895 Y39.7976 
G01 X-17.5215 Y39.6333 
G01 X-17.4868 Y39.4589 
G01 X-17.4868 Y39.2811 
G01 X-17.5215 Y39.1067 
G01 X-17.5895 Y38.9424 
G01 X-17.6883 Y38.7945 
G01 X-17.8141 Y38.6688 
G01 X-17.9620 Y38.5699 
G01 X-18.1263 Y38.5019 
G01 X-18.3007 Y38.4672 
G01 X-19.4304 Y38.4672 
G01 X-21.2944 Y36.6032 
G01 X-21.3632 Y36.5344 
G01 X-21.4474 Y36.4858 
G01 X-21.5414 Y36.4606 
G01 X-44.2970 Y36.4606 
G01 X-49.4575 Y31.3001 
G01 X-49.3977 Y31.2602 
G01 X-49.2578 Y31.1203 
G01 X-49.1479 Y30.9558 
G01 X-49.0722 Y30.7730 
G01 X-49.0336 Y30.5789 
G01 X-49.0336 Y30.3811 
G01 X-49.0722 Y30.1870 
G01 X-49.1479 Y30.0042 
G01 X-49.2578 Y29.8397 
G01 X-49.3977 Y29.6998 
G01 X-49.5622 Y29.5899 
G01 X-49.7450 Y29.5142 
G01 X-49.9391 Y29.4756 
G01 X-51.6609 Y29.4756 
G01 X-51.8550 Y29.5142 
G01 X-52.0378 Y29.5899 
G01 X-52.2023 Y29.6998 
G01 X-52.3422 Y29.8397 
G01 X-52.4521 Y30.0042 
G01 X-52.5278 Y30.1870 
G01 X-52.5664 Y30.3811 
G01 X-52.5664 Y30.5789 
G01 X-52.5278 Y30.7730 
G01 X-52.4521 Y30.9558 
G01 X-52.3422 Y31.1203 
G01 X-52.2023 Y31.2602 
G01 X-52.0378 Y31.3701 
G01 X-51.8550 Y31.4458 
G01 X-51.6609 Y31.4844 
G01 X-50.3180 Y31.4844 
G01 X-49.7490 Y32.0534 
G01 X-49.9391 Y32.0156 
G01 X-51.6609 Y32.0156 
G01 X-51.8550 Y32.0542 
G01 X-52.0378 Y32.1299 
G01 X-52.2023 Y32.2398 
G01 X-52.3422 Y32.3797 
G01 X-52.4521 Y32.5442 
G01 X-52.5278 Y32.7270 
G01 X-52.5664 Y32.9211 
G01 X-52.5664 Y33.1189 
G01 X-52.5278 Y33.3130 
G01 X-52.4521 Y33.4958 
G01 X-52.3422 Y33.6603 
G01 X-52.2023 Y33.8002 
G01 X-52.0378 Y33.9101 
G01 X-51.8550 Y33.9858 
G01 X-51.6609 Y34.0244 
G01 X-50.3180 Y34.0244 
G01 X-49.7490 Y34.5934 
G01 X-49.9391 Y34.5556 
G01 X-51.6609 Y34.5556 
G01 X-51.8550 Y34.5942 
G01 X-52.0378 Y34.6699 
G01 X-52.2023 Y34.7798 
G01 X-52.3422 Y34.9197 
G01 X-52.4521 Y35.0842 
G01 X-52.5278 Y35.2670 
G01 X-52.5664 Y35.4611 
G01 X-52.5664 Y35.6589 
G01 X-52.5278 Y35.8530 
G01 X-52.4521 Y36.0358 
G01 X-52.3422 Y36.2003 
G01 X-52.2023 Y36.3402 
G01 X-52.0378 Y36.4501 
G01 X-51.8550 Y36.5258 
G01 X-51.6609 Y36.5644 
G01 X-50.3180 Y36.5644 
G01 X-49.7490 Y37.1334 
G01 X-49.9391 Y37.0956 
G01 X-51.6609 Y37.0956 
G01 X-51.8550 Y37.1342 
G01 X-52.0378 Y37.2099 
G01 X-52.2023 Y37.3198 
G01 X-52.3422 Y37.4597 
G01 X-52.4521 Y37.6242 
G01 X-52.5278 Y37.8070 
G01 X-52.5664 Y38.0011 
G01 X-52.5664 Y38.1989 
G01 X-52.5278 Y38.3930 
G01 X-52.4521 Y38.5758 
G01 X-52.3422 Y38.7403 
G01 X-52.2023 Y38.8802 
G01 X-52.0378 Y38.9901 
G01 X-51.8550 Y39.0658 
G01 X-51.6609 Y39.1044 
G01 X-50.3180 Y39.1044 
G01 X-49.7490 Y39.6734 
G01 X-49.9391 Y39.6356 
G01 X-51.6609 Y39.6356 
G01 X-51.8550 Y39.6742 
G01 X-52.0378 Y39.7499 
G01 X-52.2023 Y39.8598 
G01 X-52.3422 Y39.9997 
G01 X-52.4521 Y40.1642 
G01 X-52.5278 Y40.3470 
G01 X-52.5664 Y40.5411 
G01 X-52.5664 Y40.7389 
G01 X-52.5278 Y40.9330 
G01 X-52.4521 Y41.1158 
G01 X-52.3422 Y41.2803 
G01 X-52.2023 Y41.4202 
G01 X-52.0378 Y41.5301 
G01 X-51.8550 Y41.6058 
G01 X-51.6609 Y41.6444 
G01 X-50.3180 Y41.6444 
G01 X-49.7490 Y42.2134 
G01 X-49.9391 Y42.1756 
G01 X-51.6609 Y42.1756 
G01 X-51.8550 Y42.2142 
G01 X-52.0378 Y42.2899 
G01 X-52.2023 Y42.3998 
G01 X-52.3422 Y42.5397 
G01 X-52.4521 Y42.7042 
G01 X-52.5278 Y42.8870 
G01 X-52.5664 Y43.0811 
G01 X-52.5664 Y43.2789 
G01 X-52.5278 Y43.4730 
G01 X-52.4521 Y43.6558 
G01 X-52.3422 Y43.8203 
G01 X-52.2023 Y43.9602 
G01 X-52.0378 Y44.0701 
G01 X-51.8550 Y44.1458 
G01 X-51.6609 Y44.1844 
G01 X-50.3180 Y44.1844 
G01 X-48.5928 Y45.9096 
G01 X-51.6862 Y45.9096 
G01 X-51.7753 Y45.9465 
G01 X-51.8435 Y46.0147 
G01 X-51.8804 Y46.1038 
G01 X-51.8804 Y50.4162 
G01 X-51.8435 Y50.5053 
G01 X-51.7753 Y50.5735 
G01 X-51.6862 Y50.6104 
G01 X-47.3738 Y50.6104 
G01 X-47.2847 Y50.5735 
G01 X-47.2165 Y50.5053 
G01 X-47.1796 Y50.4162 
G01 X-47.1796 Y46.1038 
G01 X-47.1856 Y46.0894 
G01 X-6.1544 Y46.0894 
G01 X-6.1604 Y46.1038 
G01 X-6.1604 Y50.4162 
G01 X-6.1235 Y50.5053 
G01 X-6.0553 Y50.5735 
G01 X-5.9662 Y50.6104 
G01 X-1.6538 Y50.6104 
G01 X-1.5647 Y50.5735 
G01 X-1.4965 Y50.5053 
G01 X-1.4596 Y50.4162 
G01 X-1.4596 Y46.1038 
G01 X-1.4965 Y46.0147 
G01 X-1.5647 Y45.9465 
G01 X-1.6538 Y45.9096 
G01 X-4.7629 Y45.9096 
G01 X-4.7358 Y45.8626 
G01 X-4.7106 Y45.7686 
G01 X-4.7106 Y35.5114 
G01 X-4.7358 Y35.4174 
G01 X-4.7844 Y35.3332 
G01 X-4.8532 Y35.2644 
G01 X-10.2014 Y29.9162 
G01 X-10.1941 Y29.9112 
G01 X-10.0684 Y29.7855 
G01 X-9.9695 Y29.6376 
G01 X-9.9015 Y29.4733 
G01 X-9.8668 Y29.2989 
G01 X-9.8668 Y29.1211 
G01 X-9.9015 Y28.9467 
G01 X-9.9695 Y28.7824 
G01 X-10.0684 Y28.6345 
G01 X-10.1941 Y28.5088 
G01 X-10.3420 Y28.4100 
G01 X-10.5063 Y28.3419 
G01 X-10.6807 Y28.3072 
G00 Z2.5400 
G00 X-18.3007 Y33.3872 
G01 Z-0.1500 F254.00 
G01 X-19.4304 Y33.3872 F508.00 
G01 X-21.2944 Y31.5232 
G01 X-21.3632 Y31.4544 
G01 X-21.4474 Y31.4058 
G01 X-21.5414 Y31.3806 
G01 X-43.0270 Y31.3806 
G01 X-49.4575 Y24.9501 
G01 X-49.3977 Y24.9102 
G01 X-49.2578 Y24.7703 
G01 X-49.1479 Y24.6058 
G01 X-49.0722 Y24.4230 
G01 X-49.0336 Y24.2289 
G01 X-49.0336 Y24.0311 
G01 X-49.0714 Y23.8410 
G01 X-42.1368 Y30.7756 
G01 X-42.0526 Y30.8242 
G01 X-41.9586 Y30.8494 
G01 X-20.4730 Y30.8494 
G01 X-20.2786 Y31.0438 
G01 X-20.2859 Y31.0488 
G01 X-20.4116 Y31.1745 
G01 X-20.5104 Y31.3224 
G01 X-20.5785 Y31.4867 
G01 X-20.6132 Y31.6611 
G01 X-20.6132 Y31.8389 
G01 X-20.5785 Y32.0133 
G01 X-20.5104 Y32.1776 
G01 X-20.4116 Y32.3255 
G01 X-20.2859 Y32.4512 
G01 X-20.1380 Y32.5500 
G01 X-19.9737 Y32.6181 
G01 X-19.7993 Y32.6528 
G01 X-18.3007 Y32.6528 
G01 X-18.1263 Y32.6181 
G01 X-17.9620 Y32.5500 
G01 X-17.8141 Y32.4512 
G01 X-17.6883 Y32.3255 
G01 X-17.5895 Y32.1776 
G01 X-17.5215 Y32.0133 
G01 X-17.4868 Y31.8389 
G01 X-17.4868 Y31.6611 
G01 X-17.5215 Y31.4867 
G01 X-17.5895 Y31.3224 
G01 X-17.6883 Y31.1745 
G01 X-17.8141 Y31.0488 
G01 X-17.9620 Y30.9500 
G01 X-18.1263 Y30.8819 
G01 X-18.3007 Y30.8472 
G01 X-19.4304 Y30.8472 
G01 X-20.0932 Y30.1844 
G01 X-20.1774 Y30.1358 
G01 X-20.2714 Y30.1106 
G01 X-41.7570 Y30.1106 
G01 X-49.4575 Y22.4101 
G01 X-49.3977 Y22.3702 
G01 X-49.2578 Y22.2303 
G01 X-49.1479 Y22.0658 
G01 X-49.0722 Y21.8830 
G01 X-49.0336 Y21.6889 
G01 X-49.0336 Y21.4911 
G01 X-49.0722 Y21.2970 
G01 X-49.1479 Y21.1142 
G01 X-49.2578 Y20.9497 
G01 X-49.3977 Y20.8098 
G01 X-49.5622 Y20.6999 
G01 X-49.7450 Y20.6242 
G01 X-49.9391 Y20.5856 
G01 X-51.6609 Y20.5856 
G01 X-51.8550 Y20.6242 
G01 X-52.0378 Y20.6999 
G01 X-52.2023 Y20.8098 
G01 X-52.3422 Y20.9497 
G01 X-52.4521 Y21.1142 
G01 X-52.5278 Y21.2970 
G01 X-52.5664 Y21.4911 
G01 X-52.5664 Y21.6889 
G01 X-52.5278 Y21.8830 
G01 X-52.4521 Y22.0658 
G01 X-52.3422 Y22.2303 
G01 X-52.2023 Y22.3702 
G01 X-52.0378 Y22.4801 
G01 X-51.8550 Y22.5558 
G01 X-51.6609 Y22.5944 
G01 X-50.3180 Y22.5944 
G01 X-49.7490 Y23.1634 
G01 X-49.9391 Y23.1256 
G01 X-51.6609 Y23.1256 
G01 X-51.8550 Y23.1642 
G01 X-52.0378 Y23.2399 
G01 X-52.2023 Y23.3498 
G01 X-52.3422 Y23.4897 
G01 X-52.4521 Y23.6542 
G01 X-52.5278 Y23.8370 
G01 X-52.5664 Y24.0311 
G01 X-52.5664 Y24.2289 
G01 X-52.5278 Y24.4230 
G01 X-52.4521 Y24.6058 
G01 X-52.3422 Y24.7703 
G01 X-52.2023 Y24.9102 
G01 X-52.0378 Y25.0201 
G01 X-51.8550 Y25.0958 
G01 X-51.6609 Y25.1344 
G01 X-50.3180 Y25.1344 
G01 X-49.7490 Y25.7034 
G01 X-49.9391 Y25.6656 
G01 X-51.6609 Y25.6656 
G01 X-51.8550 Y25.7042 
G01 X-52.0378 Y25.7799 
G01 X-52.2023 Y25.8898 
G01 X-52.3422 Y26.0297 
G01 X-52.4521 Y26.1942 
G01 X-52.5278 Y26.3770 
G01 X-52.5664 Y26.5711 
G01 X-52.5664 Y26.7689 
G01 X-52.5278 Y26.9630 
G01 X-52.4521 Y27.1458 
G01 X-52.3422 Y27.3103 
G01 X-52.2023 Y27.4502 
G01 X-52.0378 Y27.5601 
G01 X-51.8550 Y27.6358 
G01 X-51.6609 Y27.6744 
G01 X-50.3180 Y27.6744 
G01 X-43.4068 Y34.5856 
G01 X-43.3226 Y34.6342 
G01 X-43.2286 Y34.6594 
G01 X-21.7430 Y34.6594 
G01 X-20.2786 Y36.1238 
G01 X-20.2859 Y36.1288 
G01 X-20.4116 Y36.2545 
G01 X-20.5104 Y36.4024 
G01 X-20.5785 Y36.5667 
G01 X-20.6132 Y36.7411 
G01 X-20.6132 Y36.9189 
G01 X-20.5785 Y37.0933 
G01 X-20.5104 Y37.2576 
G01 X-20.4116 Y37.4055 
G01 X-20.2859 Y37.5312 
G01 X-20.1380 Y37.6300 
G01 X-19.9737 Y37.6981 
G01 X-19.7993 Y37.7328 
G01 X-18.3007 Y37.7328 
G01 X-18.1263 Y37.6981 
G01 X-17.9620 Y37.6300 
G01 X-17.8141 Y37.5312 
G01 X-17.6883 Y37.4055 
G01 X-17.5895 Y37.2576 
G01 X-17.5215 Y37.0933 
G01 X-17.4868 Y36.9189 
G01 X-17.4868 Y36.7411 
G01 X-17.5215 Y36.5667 
G01 X-17.5895 Y36.4024 
G01 X-17.6883 Y36.2545 
G01 X-17.8141 Y36.1288 
G01 X-17.9620 Y36.0299 
G01 X-18.1263 Y35.9619 
G01 X-18.3007 Y35.9272 
G01 X-19.4304 Y35.9272 
G01 X-21.2944 Y34.0632 
G01 X-21.3632 Y33.9944 
G01 X-21.4474 Y33.9458 
G01 X-21.5414 Y33.9206 
G01 X-43.0270 Y33.9206 
G01 X-49.4575 Y27.4901 
G01 X-49.3977 Y27.4502 
G01 X-49.2578 Y27.3103 
G01 X-49.1479 Y27.1458 
G01 X-49.0722 Y26.9630 
G01 X-49.0336 Y26.7689 
G01 X-49.0336 Y26.5711 
G01 X-49.0714 Y26.3810 
G01 X-43.4068 Y32.0456 
G01 X-43.3226 Y32.0942 
G01 X-43.2286 Y32.1194 
G01 X-21.7430 Y32.1194 
G01 X-20.2786 Y33.5838 
G01 X-20.2859 Y33.5888 
G01 X-20.4116 Y33.7145 
G01 X-20.5104 Y33.8624 
G01 X-20.5785 Y34.0267 
G01 X-20.6132 Y34.2011 
G01 X-20.6132 Y34.3789 
G01 X-20.5785 Y34.5533 
G01 X-20.5104 Y34.7176 
G01 X-20.4116 Y34.8655 
G01 X-20.2859 Y34.9912 
G01 X-20.1380 Y35.0900 
G01 X-19.9737 Y35.1581 
G01 X-19.7993 Y35.1928 
G01 X-18.3007 Y35.1928 
G01 X-18.1263 Y35.1581 
G01 X-17.9620 Y35.0900 
G01 X-17.8141 Y34.9912 
G01 X-17.6883 Y34.8655 
G01 X-17.5895 Y34.7176 
G01 X-17.5215 Y34.5533 
G01 X-17.4868 Y34.3789 
G01 X-17.4868 Y34.2011 
G01 X-17.5215 Y34.0267 
G01 X-17.5895 Y33.8624 
G01 X-17.6883 Y33.7145 
G01 X-17.8141 Y33.5888 
G01 X-17.9620 Y33.4900 
G01 X-18.1263 Y33.4219 
G01 X-18.3007 Y33.3872 
G00 Z2.5400 
G00 X-18.3007 Y28.3072 
G01 Z-0.1500 F254.00 
G01 X-19.7993 Y28.3072 F508.00 
G01 X-19.9737 Y28.3419 
G01 X-20.1380 Y28.4100 
G01 X-20.2859 Y28.5088 
G01 X-20.4116 Y28.6345 
G01 X-20.5104 Y28.7824 
G01 X-20.5346 Y28.8406 
G01 X-24.5277 Y28.8406 
G01 X-24.5319 Y28.8197 
G01 X-24.5999 Y28.6554 
G01 X-24.6988 Y28.5075 
G01 X-24.8245 Y28.3818 
G01 X-24.9724 Y28.2829 
G01 X-25.1367 Y28.2149 
G01 X-25.3111 Y28.1802 
G01 X-25.4889 Y28.1802 
G01 X-25.6633 Y28.2149 
G01 X-25.8276 Y28.2829 
G01 X-25.9755 Y28.3818 
G01 X-26.1012 Y28.5075 
G01 X-26.2000 Y28.6554 
G01 X-26.2681 Y28.8197 
G01 X-26.3028 Y28.9941 
G01 X-26.3028 Y29.1719 
G01 X-26.2681 Y29.3463 
G01 X-26.2000 Y29.5106 
G01 X-26.1012 Y29.6585 
G01 X-25.9755 Y29.7842 
G01 X-25.8276 Y29.8830 
G01 X-25.6633 Y29.9511 
G01 X-25.4889 Y29.9858 
G01 X-25.3111 Y29.9858 
G01 X-25.1367 Y29.9511 
G01 X-24.9724 Y29.8830 
G01 X-24.8245 Y29.7842 
G01 X-24.6988 Y29.6585 
G01 X-24.6459 Y29.5794 
G01 X-20.5346 Y29.5794 
G01 X-20.5104 Y29.6376 
G01 X-20.4116 Y29.7855 
G01 X-20.2859 Y29.9112 
G01 X-20.1380 Y30.0100 
G01 X-19.9737 Y30.0781 
G01 X-19.7993 Y30.1128 
G01 X-18.3007 Y30.1128 
G01 X-18.1263 Y30.0781 
G01 X-17.9620 Y30.0100 
G01 X-17.8141 Y29.9112 
G01 X-17.6883 Y29.7855 
G01 X-17.5895 Y29.6376 
G01 X-17.5215 Y29.4733 
G01 X-17.4868 Y29.2989 
G01 X-17.4868 Y29.1211 
G01 X-17.5215 Y28.9467 
G01 X-17.5895 Y28.7824 
G01 X-17.6883 Y28.6345 
G01 X-17.8141 Y28.5088 
G01 X-17.9620 Y28.4100 
G01 X-18.1263 Y28.3419 
G01 X-18.3007 Y28.3072 
G00 Z2.5400 
G00 X-18.3007 Y15.6072 
G01 Z-0.1500 F254.00 
G01 X-19.7993 Y15.6072 F508.00 
G01 X-19.9737 Y15.6419 
G01 X-20.1380 Y15.7100 
G01 X-20.2859 Y15.8088 
G01 X-20.4116 Y15.9345 
G01 X-20.5104 Y16.0824 
G01 X-20.5346 Y16.1406 
G01 X-49.1039 Y16.1406 
G01 X-49.1479 Y16.0342 
G01 X-49.2578 Y15.8697 
G01 X-49.3977 Y15.7298 
G01 X-49.5622 Y15.6199 
G01 X-49.7450 Y15.5442 
G01 X-49.9391 Y15.5056 
G01 X-51.6609 Y15.5056 
G01 X-51.8550 Y15.5442 
G01 X-52.0378 Y15.6199 
G01 X-52.2023 Y15.7298 
G01 X-52.3422 Y15.8697 
G01 X-52.4521 Y16.0342 
G01 X-52.5278 Y16.2170 
G01 X-52.5664 Y16.4111 
G01 X-52.5664 Y16.6089 
G01 X-52.5278 Y16.8030 
G01 X-52.4521 Y16.9858 
G01 X-52.3422 Y17.1503 
G01 X-52.2023 Y17.2902 
G01 X-52.0378 Y17.4001 
G01 X-51.8550 Y17.4758 
G01 X-51.6609 Y17.5144 
G01 X-49.9391 Y17.5144 
G01 X-49.7450 Y17.4758 
G01 X-49.5622 Y17.4001 
G01 X-49.3977 Y17.2902 
G01 X-49.2578 Y17.1503 
G01 X-49.1479 Y16.9858 
G01 X-49.1039 Y16.8794 
G01 X-20.5346 Y16.8794 
G01 X-20.5104 Y16.9376 
G01 X-20.4116 Y17.0855 
G01 X-20.2859 Y17.2112 
G01 X-20.1380 Y17.3100 
G01 X-19.9737 Y17.3781 
G01 X-19.7993 Y17.4128 
G01 X-18.3007 Y17.4128 
G01 X-18.1263 Y17.3781 
G01 X-17.9620 Y17.3100 
G01 X-17.8141 Y17.2112 
G01 X-17.6883 Y17.0855 
G01 X-17.5895 Y16.9376 
G01 X-17.5215 Y16.7733 
G01 X-17.4868 Y16.5989 
G01 X-17.4868 Y16.4211 
G01 X-17.5215 Y16.2467 
G01 X-17.5895 Y16.0824 
G01 X-17.6883 Y15.9345 
G01 X-17.8141 Y15.8088 
G01 X-17.9620 Y15.7100 
G01 X-18.1263 Y15.6419 
G01 X-18.3007 Y15.6072 
G00 Z2.5400 
G00 X-51.6609 Y14.9744 
G01 Z-0.1500 F254.00 
G01 X-49.9391 Y14.9744 F508.00 
G01 X-49.7450 Y14.9358 
G01 X-49.5622 Y14.8601 
G01 X-49.3977 Y14.7502 
G01 X-49.2578 Y14.6103 
G01 X-49.1479 Y14.4458 
G01 X-49.1039 Y14.3394 
G01 X-20.5346 Y14.3394 
G01 X-20.5104 Y14.3976 
G01 X-20.4116 Y14.5455 
G01 X-20.2859 Y14.6712 
G01 X-20.1380 Y14.7700 
G01 X-19.9737 Y14.8381 
G01 X-19.7993 Y14.8728 
G01 X-18.3007 Y14.8728 
G01 X-18.1263 Y14.8381 
G01 X-17.9620 Y14.7700 
G01 X-17.8141 Y14.6712 
G01 X-17.6883 Y14.5455 
G01 X-17.5895 Y14.3976 
G01 X-17.5215 Y14.2333 
G01 X-17.4868 Y14.0589 
G01 X-17.4868 Y13.8811 
G01 X-17.5215 Y13.7067 
G01 X-17.5895 Y13.5424 
G01 X-17.6883 Y13.3945 
G01 X-17.8141 Y13.2688 
G01 X-17.9620 Y13.1700 
G01 X-18.1263 Y13.1019 
G01 X-18.3007 Y13.0672 
G01 X-19.7993 Y13.0672 
G01 X-19.9737 Y13.1019 
G01 X-20.1380 Y13.1700 
G01 X-20.2859 Y13.2688 
G01 X-20.4116 Y13.3945 
G01 X-20.5104 Y13.5424 
G01 X-20.5346 Y13.6006 
G01 X-49.1039 Y13.6006 
G01 X-49.1479 Y13.4942 
G01 X-49.2578 Y13.3297 
G01 X-49.3977 Y13.1898 
G01 X-49.5622 Y13.0799 
G01 X-49.7450 Y13.0042 
G01 X-49.9391 Y12.9656 
G01 X-51.6609 Y12.9656 
G01 X-51.8550 Y13.0042 
G01 X-52.0378 Y13.0799 
G01 X-52.2023 Y13.1898 
G01 X-52.3422 Y13.3297 
G01 X-52.4521 Y13.4942 
G01 X-52.5278 Y13.6770 
G01 X-52.5664 Y13.8711 
G01 X-52.5664 Y14.0689 
G01 X-52.5278 Y14.2630 
G01 X-52.4521 Y14.4458 
G01 X-52.3422 Y14.6103 
G01 X-52.2023 Y14.7502 
G01 X-52.0378 Y14.8601 
G01 X-51.8550 Y14.9358 
G01 X-51.6609 Y14.9744 
G00 Z2.5400 
G00 X-51.6609 Y20.0544 
G01 Z-0.1500 F254.00 
G01 X-49.9391 Y20.0544 F508.00 
G01 X-49.7450 Y20.0158 
G01 X-49.5622 Y19.9401 
G01 X-49.3977 Y19.8302 
G01 X-49.2578 Y19.6903 
G01 X-49.1479 Y19.5258 
G01 X-49.1039 Y19.4194 
G01 X-20.5346 Y19.4194 
G01 X-20.5104 Y19.4776 
G01 X-20.4116 Y19.6255 
G01 X-20.2859 Y19.7512 
G01 X-20.1380 Y19.8500 
G01 X-19.9737 Y19.9181 
G01 X-19.7993 Y19.9528 
G01 X-18.3007 Y19.9528 
G01 X-18.1263 Y19.9181 
G01 X-17.9620 Y19.8500 
G01 X-17.8141 Y19.7512 
G01 X-17.6883 Y19.6255 
G01 X-17.5895 Y19.4776 
G01 X-17.5215 Y19.3133 
G01 X-17.4868 Y19.1389 
G01 X-17.4868 Y18.9611 
G01 X-17.5215 Y18.7867 
G01 X-17.5895 Y18.6224 
G01 X-17.6883 Y18.4745 
G01 X-17.8141 Y18.3488 
G01 X-17.9620 Y18.2500 
G01 X-18.1263 Y18.1819 
G01 X-18.3007 Y18.1472 
G01 X-19.7993 Y18.1472 
G01 X-19.9737 Y18.1819 
G01 X-20.1380 Y18.2500 
G01 X-20.2859 Y18.3488 
G01 X-20.4116 Y18.4745 
G01 X-20.5104 Y18.6224 
G01 X-20.5346 Y18.6806 
G01 X-49.1039 Y18.6806 
G01 X-49.1479 Y18.5742 
G01 X-49.2578 Y18.4097 
G01 X-49.3977 Y18.2698 
G01 X-49.5622 Y18.1599 
G01 X-49.7450 Y18.0842 
G01 X-49.9391 Y18.0456 
G01 X-51.6609 Y18.0456 
G01 X-51.8550 Y18.0842 
G01 X-52.0378 Y18.1599 
G01 X-52.2023 Y18.2698 
G01 X-52.3422 Y18.4097 
G01 X-52.4521 Y18.5742 
G01 X-52.5278 Y18.7570 
G01 X-52.5664 Y18.9511 
G01 X-52.5664 Y19.1489 
G01 X-52.5278 Y19.3430 
G01 X-52.4521 Y19.5258 
G01 X-52.3422 Y19.6903 
G01 X-52.2023 Y19.8302 
G01 X-52.0378 Y19.9401 
G01 X-51.8550 Y20.0158 
G01 X-51.6609 Y20.0544 
G00 Z2.5400 
G00 X-3.4009 Y35.2944 
G01 Z-0.1500 F254.00 
G01 X-1.6791 Y35.2944 F508.00 
G01 X-1.4850 Y35.2558 
G01 X-1.3022 Y35.1801 
G01 X-1.1377 Y35.0702 
G01 X-0.9978 Y34.9303 
G01 X-0.8879 Y34.7658 
G01 X-0.8122 Y34.5830 
G01 X-0.7736 Y34.3889 
G01 X-0.7736 Y34.1911 
G01 X-0.8122 Y33.9970 
G01 X-0.8879 Y33.8142 
G01 X-0.9978 Y33.6497 
G01 X-1.1377 Y33.5098 
G01 X-1.3022 Y33.3999 
G01 X-1.4850 Y33.3242 
G01 X-1.6791 Y33.2856 
G01 X-3.0220 Y33.2856 
G01 X-3.5910 Y32.7166 
G01 X-3.4009 Y32.7544 
G01 X-1.6791 Y32.7544 
G01 X-1.4850 Y32.7158 
G01 X-1.3022 Y32.6401 
G01 X-1.1377 Y32.5302 
G01 X-0.9978 Y32.3903 
G01 X-0.8879 Y32.2258 
G01 X-0.8122 Y32.0430 
G01 X-0.7736 Y31.8489 
G01 X-0.7736 Y31.6511 
G01 X-0.8122 Y31.4570 
G01 X-0.8879 Y31.2742 
G01 X-0.9978 Y31.1097 
G01 X-1.1377 Y30.9698 
G01 X-1.3022 Y30.8599 
G01 X-1.4850 Y30.7842 
G01 X-1.6791 Y30.7456 
G01 X-2.1706 Y30.7456 
G01 X-2.1706 Y30.2144 
G01 X-1.6791 Y30.2144 
G01 X-1.4850 Y30.1758 
G01 X-1.3022 Y30.1001 
G01 X-1.1377 Y29.9902 
G01 X-0.9978 Y29.8503 
G01 X-0.8879 Y29.6858 
G01 X-0.8122 Y29.5030 
G01 X-0.7736 Y29.3089 
G01 X-0.7736 Y29.1111 
G01 X-0.8122 Y28.9170 
G01 X-0.8879 Y28.7342 
G01 X-0.9978 Y28.5697 
G01 X-1.1377 Y28.4298 
G01 X-1.3022 Y28.3199 
G01 X-1.4850 Y28.2442 
G01 X-1.6791 Y28.2056 
G01 X-3.4009 Y28.2056 
G01 X-3.5950 Y28.2442 
G01 X-3.7778 Y28.3199 
G01 X-3.9423 Y28.4298 
G01 X-4.0822 Y28.5697 
G01 X-4.1921 Y28.7342 
G01 X-4.2678 Y28.9170 
G01 X-4.3064 Y29.1111 
G01 X-4.3064 Y29.3089 
G01 X-4.2678 Y29.5030 
G01 X-4.1921 Y29.6858 
G01 X-4.0822 Y29.8503 
G01 X-3.9423 Y29.9902 
G01 X-3.7778 Y30.1001 
G01 X-3.5950 Y30.1758 
G01 X-3.4009 Y30.2144 
G01 X-2.9094 Y30.2144 
G01 X-2.9094 Y30.7456 
G01 X-3.4009 Y30.7456 
G01 X-3.5950 Y30.7842 
G01 X-3.7778 Y30.8599 
G01 X-3.9423 Y30.9698 
G01 X-4.0822 Y31.1097 
G01 X-4.1921 Y31.2742 
G01 X-4.2678 Y31.4570 
G01 X-4.3064 Y31.6511 
G01 X-4.3064 Y31.8489 
G01 X-4.2686 Y32.0390 
G01 X-9.2682 Y27.0394 
G01 X-4.2361 Y27.0394 
G01 X-4.1921 Y27.1458 
G01 X-4.0822 Y27.3103 
G01 X-3.9423 Y27.4502 
G01 X-3.7778 Y27.5601 
G01 X-3.5950 Y27.6358 
G01 X-3.4009 Y27.6744 
G01 X-1.6791 Y27.6744 
G01 X-1.4850 Y27.6358 
G01 X-1.3022 Y27.5601 
G01 X-1.1377 Y27.4502 
G01 X-0.9978 Y27.3103 
G01 X-0.8879 Y27.1458 
G01 X-0.8122 Y26.9630 
G01 X-0.7736 Y26.7689 
G01 X-0.7736 Y26.5711 
G01 X-0.8122 Y26.3770 
G01 X-0.8879 Y26.1942 
G01 X-0.9978 Y26.0297 
G01 X-1.1377 Y25.8898 
G01 X-1.3022 Y25.7799 
G01 X-1.4850 Y25.7042 
G01 X-1.6791 Y25.6656 
G01 X-3.4009 Y25.6656 
G01 X-3.5950 Y25.7042 
G01 X-3.7778 Y25.7799 
G01 X-3.9423 Y25.8898 
G01 X-4.0822 Y26.0297 
G01 X-4.1921 Y26.1942 
G01 X-4.2361 Y26.3006 
G01 X-9.9454 Y26.3006 
G01 X-9.9695 Y26.2424 
G01 X-10.0684 Y26.0945 
G01 X-10.1941 Y25.9688 
G01 X-10.3420 Y25.8700 
G01 X-10.5063 Y25.8019 
G01 X-10.6807 Y25.7672 
G01 X-11.8104 Y25.7672 
G01 X-12.4732 Y25.1044 
G01 X-12.5574 Y25.0558 
G01 X-12.6514 Y25.0306 
G01 X-18.2896 Y25.0306 
G01 X-18.1263 Y24.9981 
G01 X-17.9620 Y24.9300 
G01 X-17.8141 Y24.8312 
G01 X-17.6883 Y24.7055 
G01 X-17.5895 Y24.5576 
G01 X-17.5654 Y24.4994 
G01 X-13.9214 Y24.4994 
G01 X-13.8274 Y24.4742 
G01 X-13.7432 Y24.4256 
G01 X-13.6744 Y24.3568 
G01 X-11.8104 Y22.4928 
G01 X-10.6807 Y22.4928 
G01 X-10.5063 Y22.4581 
G01 X-10.3420 Y22.3900 
G01 X-10.1941 Y22.2912 
G01 X-10.0684 Y22.1655 
G01 X-9.9695 Y22.0176 
G01 X-9.9015 Y21.8533 
G01 X-9.8668 Y21.6789 
G01 X-9.8668 Y21.5011 
G01 X-9.9015 Y21.3267 
G01 X-9.9695 Y21.1624 
G01 X-10.0684 Y21.0145 
G01 X-10.1941 Y20.8888 
G01 X-10.3420 Y20.7900 
G01 X-10.5063 Y20.7219 
G01 X-10.6807 Y20.6872 
G01 X-12.1793 Y20.6872 
G01 X-12.3537 Y20.7219 
G01 X-12.5180 Y20.7900 
G01 X-12.6659 Y20.8888 
G01 X-12.7916 Y21.0145 
