(.../pcb-gcode-3.6.0.4/pcb-gcode.ulp)
(Copyright 2005 - 2012 by John Johnson)
(See readme.txt for licensing terms.)
(This file generated from the board:)
(.../Documents/eagle/atmega module/shm.brd)
(Current profile is .../pcb-gcode-3.6.0.4/profiles/emc.pp  )
(This file generated 5/4/2014 12:34:38 AM)
(Settings from pcb-machine.h)
(  Tool Size)
(0.1000 )
(Z Axis Settings)
(  High     Up        Down     Drill)
(12.7000 	2.5400 	-0.1778 	-0.8128 )
(spindle on time = 3.0000)
(milling depth = -0.2540)
(text depth = -0.1270)
(tool change at 12.7000 15.2400 25.4000 )
(feed rate xy = F508.00 )
(feed rate z  = F254.00 )
(Settings from pcb-defaults.h)
(isolate min = 0.0254)
(isolate max = 0.5080)
(isolate step = 0.1270)
(Generated top outlines, bottom outlines, bottom drill, )
(Unit of measure: mm)
(Metric Mode)
G21
(Absolute Coordinates)
G90
G00 X0.0000 Y0.0000 
M03
G04 P3.000000
G00 Z2.5400 
G00 X-3.3845 Y35.1274 
G01 Z-0.1778 F254.00 
G01 X-1.6955 Y35.1274 F508.00 
G01 X-1.5337 Y35.0952 
G01 X-1.3813 Y35.0321 
G01 X-1.2442 Y34.9404 
G01 X-1.1275 Y34.8238 
G01 X-1.0359 Y34.6867 
G01 X-0.9728 Y34.5343 
G01 X-0.9406 Y34.3725 
G01 X-0.9406 Y34.2075 
G01 X-0.9728 Y34.0457 
G01 X-1.0359 Y33.8933 
G01 X-1.1275 Y33.7562 
G01 X-1.2442 Y33.6395 
G01 X-1.3813 Y33.5479 
G01 X-1.5337 Y33.4848 
G01 X-1.6955 Y33.4526 
G01 X-3.3845 Y33.4526 
G01 X-3.5463 Y33.4848 
G01 X-3.6987 Y33.5479 
G01 X-3.8358 Y33.6395 
G01 X-3.9525 Y33.7562 
G01 X-4.0441 Y33.8933 
G01 X-4.1072 Y34.0457 
G01 X-4.1155 Y34.0876 
G01 X-4.8776 Y34.0876 
G01 X-4.8776 Y29.2938 
G01 X-3.0912 Y27.5074 
G01 X-1.6955 Y27.5074 
G01 X-1.5337 Y27.4752 
G01 X-1.3813 Y27.4121 
G01 X-1.2442 Y27.3205 
G01 X-1.1275 Y27.2038 
G01 X-1.0359 Y27.0667 
G01 X-0.9728 Y26.9143 
G01 X-0.9406 Y26.7525 
G01 X-0.9406 Y26.5875 
G01 X-0.9728 Y26.4257 
G01 X-1.0359 Y26.2733 
G01 X-1.1275 Y26.1362 
G01 X-1.2442 Y26.0195 
G01 X-1.3813 Y25.9279 
G01 X-1.5337 Y25.8648 
G01 X-1.6955 Y25.8326 
G01 X-3.3845 Y25.8326 
G01 X-3.5463 Y25.8648 
G01 X-3.6987 Y25.9279 
G01 X-3.8358 Y26.0195 
G01 X-3.9525 Y26.1362 
G01 X-4.0441 Y26.2733 
G01 X-4.1072 Y26.4257 
G01 X-4.1394 Y26.5875 
G01 X-4.1394 Y26.7525 
G01 X-4.1072 Y26.9143 
G01 X-4.0441 Y27.0667 
G01 X-3.9525 Y27.2038 
G01 X-3.8358 Y27.3205 
G01 X-3.6987 Y27.4121 
G01 X-3.6065 Y27.4503 
G01 X-5.1947 Y29.0384 
G01 X-5.2516 Y29.0953 
G01 X-5.2824 Y29.1697 
G01 X-5.2824 Y34.3303 
G01 X-5.2516 Y34.4047 
G01 X-5.1947 Y34.4616 
G01 X-5.1203 Y34.4924 
G01 X-4.1155 Y34.4924 
G01 X-4.1072 Y34.5343 
G01 X-4.0441 Y34.6867 
G01 X-3.9525 Y34.8238 
G01 X-3.8358 Y34.9404 
G01 X-3.6987 Y35.0321 
G01 X-3.5463 Y35.0952 
G01 X-3.3845 Y35.1274 
G00 Z2.5400 
G00 X-3.3845 Y32.5874 
G01 Z-0.1778 F254.00 
G01 X-1.6955 Y32.5874 F508.00 
G01 X-1.5337 Y32.5552 
G01 X-1.3813 Y32.4921 
G01 X-1.2442 Y32.4004 
G01 X-1.1275 Y32.2838 
G01 X-1.0359 Y32.1467 
G01 X-0.9728 Y31.9943 
G01 X-0.9406 Y31.8325 
G01 X-0.9406 Y31.6675 
G01 X-0.9728 Y31.5057 
G01 X-1.0359 Y31.3533 
G01 X-1.1275 Y31.2162 
G01 X-1.2442 Y31.0995 
G01 X-1.3813 Y31.0079 
G01 X-1.5337 Y30.9448 
G01 X-1.6955 Y30.9126 
G01 X-3.3845 Y30.9126 
G01 X-3.5463 Y30.9448 
G01 X-3.6987 Y31.0079 
G01 X-3.8358 Y31.0995 
G01 X-3.9525 Y31.2162 
G01 X-4.0441 Y31.3533 
G01 X-4.1072 Y31.5057 
G01 X-4.1394 Y31.6675 
G01 X-4.1394 Y31.8325 
G01 X-4.1072 Y31.9943 
G01 X-4.0441 Y32.1467 
G01 X-3.9525 Y32.2838 
G01 X-3.8358 Y32.4004 
G01 X-3.6987 Y32.4921 
G01 X-3.5463 Y32.5552 
G01 X-3.3845 Y32.5874 
G00 Z2.5400 
G00 X-3.3845 Y30.0474 
G01 Z-0.1778 F254.00 
G01 X-1.6955 Y30.0474 F508.00 
G01 X-1.5337 Y30.0152 
G01 X-1.3813 Y29.9521 
G01 X-1.2442 Y29.8605 
G01 X-1.1275 Y29.7438 
G01 X-1.0359 Y29.6067 
G01 X-0.9728 Y29.4543 
G01 X-0.9406 Y29.2925 
G01 X-0.9406 Y29.1275 
G01 X-0.9728 Y28.9657 
G01 X-1.0359 Y28.8133 
G01 X-1.1275 Y28.6762 
G01 X-1.2442 Y28.5595 
G01 X-1.3813 Y28.4679 
G01 X-1.5337 Y28.4048 
G01 X-1.6955 Y28.3726 
G01 X-3.3845 Y28.3726 
G01 X-3.5463 Y28.4048 
G01 X-3.6987 Y28.4679 
G01 X-3.8358 Y28.5595 
G01 X-3.9525 Y28.6762 
G01 X-4.0441 Y28.8133 
G01 X-4.1072 Y28.9657 
G01 X-4.1394 Y29.1275 
G01 X-4.1394 Y29.2925 
G01 X-4.1072 Y29.4543 
G01 X-4.0441 Y29.6067 
G01 X-3.9525 Y29.7438 
G01 X-3.8358 Y29.8605 
G01 X-3.6987 Y29.9521 
G01 X-3.5463 Y30.0152 
G01 X-3.3845 Y30.0474 
G00 Z2.5400 
G00 X-3.3845 Y22.4274 
G01 Z-0.1778 F254.00 
G01 X-1.6955 Y22.4274 F508.00 
G01 X-1.5337 Y22.3952 
G01 X-1.3813 Y22.3321 
G01 X-1.2442 Y22.2405 
G01 X-1.1275 Y22.1238 
G01 X-1.0359 Y21.9867 
G01 X-0.9728 Y21.8343 
G01 X-0.9406 Y21.6725 
G01 X-0.9406 Y21.5075 
G01 X-0.9728 Y21.3457 
G01 X-1.0359 Y21.1933 
G01 X-1.1275 Y21.0562 
G01 X-1.2442 Y20.9395 
G01 X-1.3813 Y20.8479 
G01 X-1.5337 Y20.7848 
G01 X-1.6955 Y20.7526 
G01 X-3.3845 Y20.7526 
G01 X-3.5463 Y20.7848 
G01 X-3.6987 Y20.8479 
G01 X-3.8358 Y20.9395 
G01 X-3.9525 Y21.0562 
G01 X-4.0441 Y21.1933 
G01 X-4.1072 Y21.3457 
G01 X-4.1394 Y21.5075 
G01 X-4.1394 Y21.6725 
G01 X-4.1072 Y21.8343 
G01 X-4.0441 Y21.9867 
G01 X-3.9525 Y22.1238 
G01 X-3.8358 Y22.2405 
G01 X-3.6987 Y22.3321 
G01 X-3.5463 Y22.3952 
G01 X-3.3845 Y22.4274 
G00 Z2.5400 
G00 X-3.3845 Y19.8874 
G01 Z-0.1778 F254.00 
G01 X-1.6955 Y19.8874 F508.00 
G01 X-1.5337 Y19.8552 
G01 X-1.3813 Y19.7921 
G01 X-1.2442 Y19.7005 
G01 X-1.1275 Y19.5838 
G01 X-1.0359 Y19.4467 
G01 X-0.9728 Y19.2943 
G01 X-0.9406 Y19.1325 
G01 X-0.9406 Y18.9675 
G01 X-0.9728 Y18.8057 
G01 X-1.0359 Y18.6533 
G01 X-1.1275 Y18.5162 
G01 X-1.2442 Y18.3995 
G01 X-1.3813 Y18.3079 
G01 X-1.5337 Y18.2448 
G01 X-1.6955 Y18.2126 
G01 X-3.3845 Y18.2126 
G01 X-3.5463 Y18.2448 
G01 X-3.6987 Y18.3079 
G01 X-3.8358 Y18.3995 
G01 X-3.9525 Y18.5162 
G01 X-4.0441 Y18.6533 
G01 X-4.1072 Y18.8057 
G01 X-4.1394 Y18.9675 
G01 X-4.1394 Y19.1325 
G01 X-4.1072 Y19.2943 
G01 X-4.0441 Y19.4467 
G01 X-3.9525 Y19.5838 
G01 X-3.8358 Y19.7005 
G01 X-3.6987 Y19.7921 
G01 X-3.5463 Y19.8552 
G01 X-3.3845 Y19.8874 
G00 Z2.5400 
G00 X-3.3845 Y17.3474 
G01 Z-0.1778 F254.00 
G01 X-1.6955 Y17.3474 F508.00 
G01 X-1.5337 Y17.3152 
G01 X-1.3813 Y17.2521 
G01 X-1.2442 Y17.1605 
G01 X-1.1275 Y17.0438 
G01 X-1.0359 Y16.9067 
G01 X-0.9728 Y16.7543 
G01 X-0.9406 Y16.5925 
G01 X-0.9406 Y16.4275 
G01 X-0.9728 Y16.2657 
G01 X-1.0359 Y16.1133 
G01 X-1.1275 Y15.9762 
G01 X-1.2442 Y15.8595 
G01 X-1.3813 Y15.7679 
G01 X-1.5337 Y15.7048 
G01 X-1.6955 Y15.6726 
G01 X-3.3845 Y15.6726 
G01 X-3.5463 Y15.7048 
G01 X-3.6987 Y15.7679 
G01 X-3.8358 Y15.8595 
G01 X-3.9525 Y15.9762 
G01 X-4.0441 Y16.1133 
G01 X-4.1072 Y16.2657 
G01 X-4.1394 Y16.4275 
G01 X-4.1394 Y16.5925 
G01 X-4.1072 Y16.7543 
G01 X-4.0441 Y16.9067 
G01 X-3.9525 Y17.0438 
G01 X-3.8358 Y17.1605 
G01 X-3.6987 Y17.2521 
G01 X-3.5463 Y17.3152 
G01 X-3.3845 Y17.3474 
G00 Z2.5400 
G00 X-3.3845 Y14.8074 
G01 Z-0.1778 F254.00 
G01 X-1.6955 Y14.8074 F508.00 
G01 X-1.5337 Y14.7752 
G01 X-1.3813 Y14.7121 
G01 X-1.2442 Y14.6204 
G01 X-1.1275 Y14.5038 
G01 X-1.0359 Y14.3667 
G01 X-0.9728 Y14.2143 
G01 X-0.9406 Y14.0525 
G01 X-0.9406 Y13.8875 
G01 X-0.9728 Y13.7257 
G01 X-1.0359 Y13.5733 
G01 X-1.1275 Y13.4362 
G01 X-1.2442 Y13.3195 
G01 X-1.3813 Y13.2279 
G01 X-1.5337 Y13.1648 
G01 X-1.6955 Y13.1326 
G01 X-3.3845 Y13.1326 
G01 X-3.5463 Y13.1648 
G01 X-3.6987 Y13.2279 
G01 X-3.8358 Y13.3195 
G01 X-3.9525 Y13.4362 
G01 X-4.0441 Y13.5733 
G01 X-4.1072 Y13.7257 
G01 X-4.1394 Y13.8875 
G01 X-4.1394 Y14.0525 
G01 X-4.1072 Y14.2143 
G01 X-4.0441 Y14.3667 
G01 X-3.9525 Y14.5038 
G01 X-3.8358 Y14.6204 
G01 X-3.6987 Y14.7121 
G01 X-3.5463 Y14.7752 
G01 X-3.3845 Y14.8074 
G00 Z2.5400 
G00 X-3.3845 Y12.2674 
G01 Z-0.1778 F254.00 
G01 X-1.6955 Y12.2674 F508.00 
G01 X-1.5337 Y12.2352 
G01 X-1.3813 Y12.1721 
G01 X-1.2442 Y12.0805 
G01 X-1.1275 Y11.9638 
G01 X-1.0359 Y11.8267 
G01 X-0.9728 Y11.6743 
G01 X-0.9406 Y11.5125 
G01 X-0.9406 Y11.3475 
G01 X-0.9728 Y11.1857 
G01 X-1.0359 Y11.0333 
G01 X-1.1275 Y10.8962 
G01 X-1.2442 Y10.7795 
G01 X-1.3813 Y10.6879 
G01 X-1.5337 Y10.6248 
G01 X-1.6955 Y10.5926 
G01 X-3.3845 Y10.5926 
G01 X-3.5463 Y10.6248 
G01 X-3.6987 Y10.6879 
G01 X-3.8358 Y10.7795 
G01 X-3.9525 Y10.8962 
G01 X-4.0441 Y11.0333 
G01 X-4.1072 Y11.1857 
G01 X-4.1394 Y11.3475 
G01 X-4.1394 Y11.5125 
G01 X-4.1072 Y11.6743 
G01 X-4.0441 Y11.8267 
G01 X-3.9525 Y11.9638 
G01 X-3.8358 Y12.0805 
G01 X-3.6987 Y12.1721 
G01 X-3.5463 Y12.2352 
G01 X-3.3845 Y12.2674 
G00 Z2.5400 
G00 X-3.3845 Y9.7274 
G01 Z-0.1778 F254.00 
G01 X-1.6955 Y9.7274 F508.00 
G01 X-1.5337 Y9.6952 
G01 X-1.3813 Y9.6321 
G01 X-1.2442 Y9.5404 
G01 X-1.1275 Y9.4238 
G01 X-1.0359 Y9.2867 
G01 X-0.9728 Y9.1343 
G01 X-0.9406 Y8.9725 
G01 X-0.9406 Y8.8075 
G01 X-0.9728 Y8.6457 
G01 X-1.0359 Y8.4933 
G01 X-1.1275 Y8.3562 
G01 X-1.2442 Y8.2395 
G01 X-1.3813 Y8.1479 
G01 X-1.5337 Y8.0848 
G01 X-1.6955 Y8.0526 
G01 X-3.3845 Y8.0526 
G01 X-3.5463 Y8.0848 
G01 X-3.6987 Y8.1479 
G01 X-3.8358 Y8.2395 
G01 X-3.9525 Y8.3562 
G01 X-4.0441 Y8.4933 
G01 X-4.1072 Y8.6457 
G01 X-4.1394 Y8.8075 
G01 X-4.1394 Y8.9725 
G01 X-4.1072 Y9.1343 
G01 X-4.0441 Y9.2867 
G01 X-3.9525 Y9.4238 
G01 X-3.8358 Y9.5404 
G01 X-3.6987 Y9.6321 
G01 X-3.5463 Y9.6952 
G01 X-3.3845 Y9.7274 
G00 Z2.5400 
G00 X-51.6445 Y44.0174 
G01 Z-0.1778 F254.00 
G01 X-49.9555 Y44.0174 F508.00 
G01 X-49.7937 Y43.9852 
G01 X-49.6413 Y43.9221 
G01 X-49.5042 Y43.8304 
G01 X-49.3875 Y43.7138 
G01 X-49.2959 Y43.5767 
G01 X-49.2328 Y43.4243 
G01 X-49.2006 Y43.2625 
G01 X-49.2006 Y43.0975 
G01 X-49.2328 Y42.9357 
G01 X-49.2959 Y42.7833 
G01 X-49.3875 Y42.6462 
G01 X-49.5042 Y42.5295 
G01 X-49.6413 Y42.4379 
G01 X-49.7937 Y42.3748 
G01 X-49.9555 Y42.3426 
G01 X-51.6445 Y42.3426 
G01 X-51.8063 Y42.3748 
G01 X-51.9587 Y42.4379 
G01 X-52.0958 Y42.5295 
G01 X-52.2125 Y42.6462 
G01 X-52.3041 Y42.7833 
G01 X-52.3672 Y42.9357 
G01 X-52.3994 Y43.0975 
G01 X-52.3994 Y43.2625 
G01 X-52.3672 Y43.4243 
G01 X-52.3041 Y43.5767 
G01 X-52.2125 Y43.7138 
G01 X-52.0958 Y43.8304 
G01 X-51.9587 Y43.9221 
G01 X-51.8063 Y43.9852 
G01 X-51.6445 Y44.0174 
G00 Z2.5400 
G00 X-51.6445 Y38.9374 
G01 Z-0.1778 F254.00 
G01 X-49.9555 Y38.9374 F508.00 
G01 X-49.7937 Y38.9052 
G01 X-49.6413 Y38.8421 
G01 X-49.5042 Y38.7505 
G01 X-49.3875 Y38.6338 
G01 X-49.2959 Y38.4967 
G01 X-49.2328 Y38.3443 
G01 X-49.2006 Y38.1825 
G01 X-49.2006 Y38.0175 
G01 X-49.2328 Y37.8557 
G01 X-49.2959 Y37.7033 
G01 X-49.3875 Y37.5662 
G01 X-49.5042 Y37.4495 
G01 X-49.6413 Y37.3579 
G01 X-49.7937 Y37.2948 
G01 X-49.9555 Y37.2626 
G01 X-51.6445 Y37.2626 
G01 X-51.8063 Y37.2948 
G01 X-51.9587 Y37.3579 
G01 X-52.0958 Y37.4495 
G01 X-52.2125 Y37.5662 
G01 X-52.3041 Y37.7033 
G01 X-52.3672 Y37.8557 
G01 X-52.3994 Y38.0175 
G01 X-52.3994 Y38.1825 
G01 X-52.3672 Y38.3443 
G01 X-52.3041 Y38.4967 
G01 X-52.2125 Y38.6338 
G01 X-52.0958 Y38.7505 
G01 X-51.9587 Y38.8421 
G01 X-51.8063 Y38.9052 
G01 X-51.6445 Y38.9374 
G00 Z2.5400 
G00 X-51.6445 Y36.3974 
G01 Z-0.1778 F254.00 
G01 X-49.9555 Y36.3974 F508.00 
G01 X-49.7937 Y36.3652 
G01 X-49.6413 Y36.3021 
G01 X-49.5042 Y36.2105 
G01 X-49.3875 Y36.0938 
G01 X-49.2959 Y35.9567 
G01 X-49.2328 Y35.8043 
G01 X-49.2006 Y35.6425 
G01 X-49.2006 Y35.4775 
G01 X-49.2328 Y35.3157 
G01 X-49.2959 Y35.1633 
G01 X-49.3875 Y35.0262 
G01 X-49.5042 Y34.9095 
G01 X-49.6413 Y34.8179 
G01 X-49.7937 Y34.7548 
G01 X-49.9555 Y34.7226 
G01 X-51.6445 Y34.7226 
G01 X-51.8063 Y34.7548 
G01 X-51.9587 Y34.8179 
G01 X-52.0958 Y34.9095 
G01 X-52.2125 Y35.0262 
G01 X-52.3041 Y35.1633 
G01 X-52.3672 Y35.3157 
G01 X-52.3994 Y35.4775 
G01 X-52.3994 Y35.6425 
G01 X-52.3672 Y35.8043 
G01 X-52.3041 Y35.9567 
G01 X-52.2125 Y36.0938 
G01 X-52.0958 Y36.2105 
G01 X-51.9587 Y36.3021 
G01 X-51.8063 Y36.3652 
G01 X-51.6445 Y36.3974 
G00 Z2.5400 
G00 X-51.6445 Y31.3174 
G01 Z-0.1778 F254.00 
G01 X-50.2488 Y31.3174 F508.00 
G01 X-39.4847 Y42.0816 
G01 X-39.4103 Y42.1124 
G01 X-16.6104 Y42.1124 
G01 X-16.6079 Y42.1246 
G01 X-16.5525 Y42.2585 
G01 X-16.4719 Y42.3790 
G01 X-16.3694 Y42.4815 
G01 X-16.2489 Y42.5621 
G01 X-16.1150 Y42.6175 
G01 X-15.9729 Y42.6458 
G01 X-14.5071 Y42.6458 
G01 X-14.3650 Y42.6175 
G01 X-14.2311 Y42.5621 
G01 X-14.1106 Y42.4815 
G01 X-14.0081 Y42.3790 
G01 X-13.9275 Y42.2585 
G01 X-13.8721 Y42.1246 
G01 X-13.8438 Y41.9825 
G01 X-13.8438 Y41.8375 
G01 X-13.8721 Y41.6954 
G01 X-13.9275 Y41.5615 
G01 X-14.0081 Y41.4410 
G01 X-14.1106 Y41.3385 
G01 X-14.2311 Y41.2579 
G01 X-14.3650 Y41.2025 
G01 X-14.5071 Y41.1742 
G01 X-15.9729 Y41.1742 
G01 X-16.1150 Y41.2025 
G01 X-16.2489 Y41.2579 
G01 X-16.3694 Y41.3385 
G01 X-16.4719 Y41.4410 
G01 X-16.5525 Y41.5615 
G01 X-16.6079 Y41.6954 
G01 X-16.6104 Y41.7076 
G01 X-39.2862 Y41.7076 
G01 X-49.7335 Y31.2603 
G01 X-49.6413 Y31.2221 
G01 X-49.5042 Y31.1304 
G01 X-49.3875 Y31.0138 
G01 X-49.2959 Y30.8767 
G01 X-49.2328 Y30.7243 
G01 X-49.2006 Y30.5625 
G01 X-49.2006 Y30.3975 
G01 X-49.2328 Y30.2357 
G01 X-49.2959 Y30.0833 
G01 X-49.3875 Y29.9462 
G01 X-49.5042 Y29.8295 
G01 X-49.6413 Y29.7379 
G01 X-49.7937 Y29.6748 
G01 X-49.9555 Y29.6426 
G01 X-51.6445 Y29.6426 
G01 X-51.8063 Y29.6748 
G01 X-51.9587 Y29.7379 
G01 X-52.0958 Y29.8295 
G01 X-52.2125 Y29.9462 
G01 X-52.3041 Y30.0833 
G01 X-52.3672 Y30.2357 
G01 X-52.3994 Y30.3975 
G01 X-52.3994 Y30.5625 
G01 X-52.3672 Y30.7243 
G01 X-52.3041 Y30.8767 
G01 X-52.2125 Y31.0138 
G01 X-52.0958 Y31.1304 
G01 X-51.9587 Y31.2221 
G01 X-51.8063 Y31.2852 
G01 X-51.6445 Y31.3174 
G00 Z2.5400 
G00 X-51.6445 Y27.5074 
G01 Z-0.1778 F254.00 
G01 X-49.9555 Y27.5074 F508.00 
G01 X-49.7937 Y27.4752 
G01 X-49.6413 Y27.4121 
G01 X-49.5042 Y27.3205 
G01 X-49.3875 Y27.2038 
G01 X-49.2959 Y27.0667 
G01 X-49.2328 Y26.9143 
G01 X-49.2245 Y26.8724 
G01 X-48.4624 Y26.8724 
G01 X-48.4624 Y31.7903 
G01 X-48.4316 Y31.8647 
G01 X-48.3747 Y31.9216 
G01 X-40.7547 Y39.5416 
G01 X-40.6803 Y39.5724 
G01 X-16.6104 Y39.5724 
G01 X-16.6079 Y39.5846 
G01 X-16.5525 Y39.7185 
G01 X-16.4719 Y39.8390 
G01 X-16.3694 Y39.9415 
G01 X-16.2489 Y40.0221 
G01 X-16.1150 Y40.0775 
G01 X-15.9729 Y40.1058 
G01 X-14.5071 Y40.1058 
G01 X-14.3650 Y40.0775 
G01 X-14.2311 Y40.0221 
G01 X-14.1106 Y39.9415 
G01 X-14.0081 Y39.8390 
G01 X-13.9275 Y39.7185 
G01 X-13.8721 Y39.5846 
G01 X-13.8438 Y39.4425 
G01 X-13.8438 Y39.2975 
G01 X-13.8721 Y39.1554 
G01 X-13.9275 Y39.0215 
G01 X-14.0081 Y38.9010 
G01 X-14.1106 Y38.7985 
G01 X-14.2311 Y38.7179 
G01 X-14.3650 Y38.6625 
G01 X-14.5071 Y38.6342 
G01 X-15.9729 Y38.6342 
G01 X-16.1150 Y38.6625 
G01 X-16.2489 Y38.7179 
G01 X-16.3694 Y38.7985 
G01 X-16.4719 Y38.9010 
G01 X-16.5525 Y39.0215 
G01 X-16.6079 Y39.1554 
G01 X-16.6104 Y39.1676 
G01 X-40.5562 Y39.1676 
G01 X-48.0576 Y31.6662 
G01 X-48.0576 Y26.6297 
G01 X-48.0884 Y26.5553 
G01 X-48.1453 Y26.4984 
G01 X-48.2197 Y26.4676 
G01 X-49.2245 Y26.4676 
G01 X-49.2328 Y26.4257 
G01 X-49.2959 Y26.2733 
G01 X-49.3875 Y26.1362 
G01 X-49.5042 Y26.0195 
G01 X-49.6413 Y25.9279 
G01 X-49.7937 Y25.8648 
G01 X-49.9555 Y25.8326 
G01 X-51.6445 Y25.8326 
G01 X-51.8063 Y25.8648 
G01 X-51.9587 Y25.9279 
G01 X-52.0958 Y26.0195 
G01 X-52.2125 Y26.1362 
G01 X-52.3041 Y26.2733 
G01 X-52.3672 Y26.4257 
G01 X-52.3994 Y26.5875 
G01 X-52.3994 Y26.7525 
G01 X-52.3672 Y26.9143 
G01 X-52.3041 Y27.0667 
G01 X-52.2125 Y27.2038 
G01 X-52.0958 Y27.3205 
G01 X-51.9587 Y27.4121 
G01 X-51.8063 Y27.4752 
G01 X-51.6445 Y27.5074 
G00 Z2.5400 
G00 X-51.6445 Y22.4274 
G01 Z-0.1778 F254.00 
G01 X-50.2488 Y22.4274 F508.00 
G01 X-43.2947 Y29.3816 
G01 X-43.2203 Y29.4124 
G01 X-20.4038 Y29.4124 
G01 X-16.1990 Y33.6172 
G01 X-16.2489 Y33.6379 
G01 X-16.3694 Y33.7185 
G01 X-16.4719 Y33.8210 
G01 X-16.5525 Y33.9415 
G01 X-16.6079 Y34.0754 
G01 X-16.6362 Y34.2175 
G01 X-16.6362 Y34.3625 
G01 X-16.6079 Y34.5046 
G01 X-16.5525 Y34.6385 
G01 X-16.4719 Y34.7590 
G01 X-16.3694 Y34.8615 
G01 X-16.2489 Y34.9421 
G01 X-16.1150 Y34.9975 
G01 X-15.9729 Y35.0258 
G01 X-14.5071 Y35.0258 
G01 X-14.3650 Y34.9975 
G01 X-14.2311 Y34.9421 
G01 X-14.1106 Y34.8615 
G01 X-14.0081 Y34.7590 
G01 X-13.9275 Y34.6385 
G01 X-13.8721 Y34.5046 
G01 X-13.8438 Y34.3625 
G01 X-13.8438 Y34.2175 
G01 X-13.8721 Y34.0754 
G01 X-13.9275 Y33.9415 
G01 X-14.0081 Y33.8210 
G01 X-14.1106 Y33.7185 
G01 X-14.2311 Y33.6379 
G01 X-14.3650 Y33.5825 
G01 X-14.5071 Y33.5542 
G01 X-15.6896 Y33.5542 
G01 X-20.1484 Y29.0953 
G01 X-20.2053 Y29.0384 
G01 X-20.2797 Y29.0076 
G01 X-43.0962 Y29.0076 
G01 X-49.7335 Y22.3703 
G01 X-49.6413 Y22.3321 
G01 X-49.5042 Y22.2405 
G01 X-49.3875 Y22.1238 
G01 X-49.2959 Y21.9867 
G01 X-49.2328 Y21.8343 
G01 X-49.2006 Y21.6725 
G01 X-49.2006 Y21.5075 
G01 X-49.2328 Y21.3457 
G01 X-49.2959 Y21.1933 
G01 X-49.3875 Y21.0562 
G01 X-49.5042 Y20.9395 
G01 X-49.6413 Y20.8479 
G01 X-49.7937 Y20.7848 
G01 X-49.9555 Y20.7526 
G01 X-51.6445 Y20.7526 
G01 X-51.8063 Y20.7848 
G01 X-51.9587 Y20.8479 
G01 X-52.0958 Y20.9395 
G01 X-52.2125 Y21.0562 
G01 X-52.3041 Y21.1933 
G01 X-52.3672 Y21.3457 
G01 X-52.3994 Y21.5075 
G01 X-52.3994 Y21.6725 
G01 X-52.3672 Y21.8343 
G01 X-52.3041 Y21.9867 
G01 X-52.2125 Y22.1238 
G01 X-52.0958 Y22.2405 
G01 X-51.9587 Y22.3321 
G01 X-51.8063 Y22.3952 
G01 X-51.6445 Y22.4274 
G00 Z2.5400 
G00 X-51.6445 Y19.8874 
G01 Z-0.1778 F254.00 
G01 X-49.9555 Y19.8874 F508.00 
G01 X-49.7937 Y19.8552 
G01 X-49.6413 Y19.7921 
G01 X-49.5042 Y19.7005 
G01 X-49.3875 Y19.5838 
G01 X-49.2959 Y19.4467 
G01 X-49.2328 Y19.2943 
G01 X-49.2006 Y19.1325 
G01 X-49.2006 Y18.9675 
G01 X-49.2328 Y18.8057 
G01 X-49.2959 Y18.6533 
G01 X-49.3875 Y18.5162 
G01 X-49.5042 Y18.3995 
G01 X-49.6413 Y18.3079 
G01 X-49.7937 Y18.2448 
G01 X-49.9555 Y18.2126 
G01 X-51.6445 Y18.2126 
G01 X-51.8063 Y18.2448 
G01 X-51.9587 Y18.3079 
G01 X-52.0958 Y18.3995 
G01 X-52.2125 Y18.5162 
G01 X-52.3041 Y18.6533 
G01 X-52.3672 Y18.8057 
G01 X-52.3994 Y18.9675 
G01 X-52.3994 Y19.1325 
G01 X-52.3672 Y19.2943 
G01 X-52.3041 Y19.4467 
G01 X-52.2125 Y19.5838 
G01 X-52.0958 Y19.7005 
G01 X-51.9587 Y19.7921 
G01 X-51.8063 Y19.8552 
G01 X-51.6445 Y19.8874 
G00 Z2.5400 
G00 X-51.6445 Y17.3474 
G01 Z-0.1778 F254.00 
G01 X-49.9555 Y17.3474 F508.00 
G01 X-49.7937 Y17.3152 
G01 X-49.6413 Y17.2521 
G01 X-49.5042 Y17.1605 
G01 X-49.3875 Y17.0438 
G01 X-49.2959 Y16.9067 
G01 X-49.2328 Y16.7543 
G01 X-49.2006 Y16.5925 
G01 X-49.2006 Y16.4275 
G01 X-49.2328 Y16.2657 
G01 X-49.2959 Y16.1133 
G01 X-49.3875 Y15.9762 
G01 X-49.5042 Y15.8595 
G01 X-49.6413 Y15.7679 
G01 X-49.7937 Y15.7048 
G01 X-49.9555 Y15.6726 
G01 X-51.6445 Y15.6726 
G01 X-51.8063 Y15.7048 
G01 X-51.9587 Y15.7679 
G01 X-52.0958 Y15.8595 
G01 X-52.2125 Y15.9762 
G01 X-52.3041 Y16.1133 
G01 X-52.3672 Y16.2657 
G01 X-52.3994 Y16.4275 
G01 X-52.3994 Y16.5925 
G01 X-52.3672 Y16.7543 
G01 X-52.3041 Y16.9067 
G01 X-52.2125 Y17.0438 
G01 X-52.0958 Y17.1605 
G01 X-51.9587 Y17.2521 
G01 X-51.8063 Y17.3152 
G01 X-51.6445 Y17.3474 
G00 Z2.5400 
G00 X-51.6445 Y14.8074 
G01 Z-0.1778 F254.00 
G01 X-49.9555 Y14.8074 F508.00 
G01 X-49.7937 Y14.7752 
G01 X-49.6413 Y14.7121 
G01 X-49.5042 Y14.6204 
G01 X-49.3875 Y14.5038 
G01 X-49.2959 Y14.3667 
G01 X-49.2328 Y14.2143 
G01 X-49.2006 Y14.0525 
G01 X-49.2006 Y13.8875 
G01 X-49.2328 Y13.7257 
G01 X-49.2959 Y13.5733 
G01 X-49.3875 Y13.4362 
G01 X-49.5042 Y13.3195 
G01 X-49.6413 Y13.2279 
G01 X-49.7937 Y13.1648 
G01 X-49.9555 Y13.1326 
G01 X-51.6445 Y13.1326 
G01 X-51.8063 Y13.1648 
G01 X-51.9587 Y13.2279 
G01 X-52.0958 Y13.3195 
G01 X-52.2125 Y13.4362 
G01 X-52.3041 Y13.5733 
G01 X-52.3672 Y13.7257 
G01 X-52.3994 Y13.8875 
G01 X-52.3994 Y14.0525 
G01 X-52.3672 Y14.2143 
G01 X-52.3041 Y14.3667 
G01 X-52.2125 Y14.5038 
G01 X-52.0958 Y14.6204 
G01 X-51.9587 Y14.7121 
G01 X-51.8063 Y14.7752 
G01 X-51.6445 Y14.8074 
G00 Z2.5400 
G00 X-14.5071 Y8.1542 
G01 Z-0.1778 F254.00 
G01 X-15.9729 Y8.1542 F508.00 
G01 X-16.1150 Y8.1825 
G01 X-16.2489 Y8.2379 
G01 X-16.3694 Y8.3185 
G01 X-16.4719 Y8.4210 
G01 X-16.5525 Y8.5415 
G01 X-16.6079 Y8.6754 
G01 X-16.6362 Y8.8175 
G01 X-16.6362 Y8.9625 
G01 X-16.6079 Y9.1046 
G01 X-16.5525 Y9.2385 
G01 X-16.4719 Y9.3590 
G01 X-16.3694 Y9.4615 
G01 X-16.2489 Y9.5421 
G01 X-16.1150 Y9.5975 
G01 X-15.9729 Y9.6258 
G01 X-14.5071 Y9.6258 
G01 X-14.3650 Y9.5975 
G01 X-14.2311 Y9.5421 
G01 X-14.1106 Y9.4615 
G01 X-14.0081 Y9.3590 
G01 X-13.9275 Y9.2385 
G01 X-13.8721 Y9.1046 
G01 X-13.8438 Y8.9625 
G01 X-13.8438 Y8.8175 
G01 X-13.8721 Y8.6754 
G01 X-13.9275 Y8.5415 
G01 X-14.0081 Y8.4210 
G01 X-14.1106 Y8.3185 
G01 X-14.2311 Y8.2379 
G01 X-14.3650 Y8.1825 
G01 X-14.5071 Y8.1542 
G00 Z2.5400 
G00 X-14.5071 Y10.6942 
G01 Z-0.1778 F254.00 
G01 X-15.6896 Y10.6942 F508.00 
G01 X-17.6084 Y8.7753 
G01 X-17.6653 Y8.7184 
G01 X-17.7397 Y8.6876 
G01 X-49.2245 Y8.6876 
G01 X-49.2328 Y8.6457 
G01 X-49.2959 Y8.4933 
G01 X-49.3875 Y8.3562 
G01 X-49.5042 Y8.2395 
G01 X-49.6413 Y8.1479 
G01 X-49.7937 Y8.0848 
G01 X-49.9555 Y8.0526 
G01 X-51.6445 Y8.0526 
G01 X-51.8063 Y8.0848 
G01 X-51.9587 Y8.1479 
G01 X-52.0958 Y8.2395 
G01 X-52.2125 Y8.3562 
G01 X-52.3041 Y8.4933 
G01 X-52.3672 Y8.6457 
G01 X-52.3994 Y8.8075 
G01 X-52.3994 Y8.9725 
G01 X-52.3672 Y9.1343 
G01 X-52.3041 Y9.2867 
G01 X-52.2125 Y9.4238 
G01 X-52.0958 Y9.5404 
G01 X-51.9587 Y9.6321 
G01 X-51.8063 Y9.6952 
G01 X-51.6445 Y9.7274 
G01 X-49.9555 Y9.7274 
G01 X-49.7937 Y9.6952 
G01 X-49.6413 Y9.6321 
G01 X-49.5042 Y9.5404 
G01 X-49.3875 Y9.4238 
G01 X-49.2959 Y9.2867 
G01 X-49.2328 Y9.1343 
G01 X-49.2245 Y9.0924 
G01 X-17.8638 Y9.0924 
G01 X-16.1990 Y10.7573 
G01 X-16.2489 Y10.7779 
G01 X-16.3694 Y10.8585 
G01 X-16.4719 Y10.9610 
G01 X-16.5525 Y11.0815 
G01 X-16.6079 Y11.2154 
G01 X-16.6362 Y11.3575 
G01 X-16.6362 Y11.5025 
G01 X-16.6079 Y11.6446 
G01 X-16.5525 Y11.7785 
G01 X-16.4719 Y11.8990 
G01 X-16.3694 Y12.0015 
G01 X-16.2489 Y12.0821 
G01 X-16.1150 Y12.1375 
G01 X-15.9729 Y12.1658 
G01 X-14.5071 Y12.1658 
G01 X-14.3650 Y12.1375 
G01 X-14.2311 Y12.0821 
G01 X-14.1106 Y12.0015 
G01 X-14.0081 Y11.8990 
G01 X-13.9275 Y11.7785 
G01 X-13.8721 Y11.6446 
G01 X-13.8438 Y11.5025 
G01 X-13.8438 Y11.3575 
G01 X-13.8721 Y11.2154 
G01 X-13.9275 Y11.0815 
G01 X-14.0081 Y10.9610 
G01 X-14.1106 Y10.8585 
G01 X-14.2311 Y10.7779 
G01 X-14.3650 Y10.7225 
G01 X-14.5071 Y10.6942 
G00 Z2.5400 
G00 X-14.5071 Y13.2342 
G01 Z-0.1778 F254.00 
G01 X-15.6896 Y13.2342 F508.00 
G01 X-17.6084 Y11.3153 
G01 X-17.6653 Y11.2584 
G01 X-17.7397 Y11.2276 
G01 X-49.2245 Y11.2276 
G01 X-49.2328 Y11.1857 
G01 X-49.2959 Y11.0333 
G01 X-49.3875 Y10.8962 
G01 X-49.5042 Y10.7795 
G01 X-49.6413 Y10.6879 
G01 X-49.7937 Y10.6248 
G01 X-49.9555 Y10.5926 
G01 X-51.6445 Y10.5926 
G01 X-51.8063 Y10.6248 
G01 X-51.9587 Y10.6879 
G01 X-52.0958 Y10.7795 
G01 X-52.2125 Y10.8962 
G01 X-52.3041 Y11.0333 
G01 X-52.3672 Y11.1857 
G01 X-52.3994 Y11.3475 
G01 X-52.3994 Y11.5125 
G01 X-52.3672 Y11.6743 
G01 X-52.3041 Y11.8267 
G01 X-52.2125 Y11.9638 
G01 X-52.0958 Y12.0805 
G01 X-51.9587 Y12.1721 
G01 X-51.8063 Y12.2352 
G01 X-51.6445 Y12.2674 
G01 X-49.9555 Y12.2674 
G01 X-49.7937 Y12.2352 
G01 X-49.6413 Y12.1721 
G01 X-49.5042 Y12.0805 
G01 X-49.3875 Y11.9638 
G01 X-49.2959 Y11.8267 
G01 X-49.2328 Y11.6743 
G01 X-49.2245 Y11.6324 
G01 X-17.8638 Y11.6324 
G01 X-16.1990 Y13.2973 
G01 X-16.2489 Y13.3179 
G01 X-16.3694 Y13.3985 
G01 X-16.4719 Y13.5010 
G01 X-16.5525 Y13.6215 
G01 X-16.6079 Y13.7554 
G01 X-16.6362 Y13.8975 
G01 X-16.6362 Y14.0425 
G01 X-16.6079 Y14.1846 
G01 X-16.5525 Y14.3185 
G01 X-16.4719 Y14.4390 
G01 X-16.3694 Y14.5415 
G01 X-16.2489 Y14.6221 
G01 X-16.1150 Y14.6775 
G01 X-15.9729 Y14.7058 
G01 X-14.5071 Y14.7058 
G01 X-14.3650 Y14.6775 
G01 X-14.2311 Y14.6221 
G01 X-14.1106 Y14.5415 
G01 X-14.0081 Y14.4390 
G01 X-13.9275 Y14.3185 
G01 X-13.8721 Y14.1846 
G01 X-13.8438 Y14.0425 
G01 X-13.8438 Y13.8975 
G01 X-13.8721 Y13.7554 
G01 X-13.9275 Y13.6215 
G01 X-14.0081 Y13.5010 
G01 X-14.1106 Y13.3985 
G01 X-14.2311 Y13.3179 
G01 X-14.3650 Y13.2625 
G01 X-14.5071 Y13.2342 
G00 Z2.5400 
G00 X-14.5071 Y15.7742 
G01 Z-0.1778 F254.00 
G01 X-15.9729 Y15.7742 F508.00 
G01 X-16.1150 Y15.8025 
G01 X-16.2489 Y15.8579 
G01 X-16.3694 Y15.9385 
G01 X-16.4719 Y16.0410 
G01 X-16.5525 Y16.1615 
G01 X-16.6079 Y16.2954 
G01 X-16.6362 Y16.4375 
G01 X-16.6362 Y16.5825 
G01 X-16.6079 Y16.7246 
G01 X-16.5525 Y16.8585 
G01 X-16.4719 Y16.9790 
G01 X-16.3694 Y17.0815 
G01 X-16.2489 Y17.1621 
G01 X-16.1150 Y17.2175 
G01 X-15.9729 Y17.2458 
G01 X-14.5071 Y17.2458 
G01 X-14.3650 Y17.2175 
G01 X-14.2311 Y17.1621 
G01 X-14.1106 Y17.0815 
G01 X-14.0081 Y16.9790 
G01 X-13.9275 Y16.8585 
G01 X-13.8721 Y16.7246 
G01 X-13.8438 Y16.5825 
G01 X-13.8438 Y16.4375 
G01 X-13.8721 Y16.2954 
G01 X-13.9275 Y16.1615 
G01 X-14.0081 Y16.0410 
G01 X-14.1106 Y15.9385 
G01 X-14.2311 Y15.8579 
G01 X-14.3650 Y15.8025 
G01 X-14.5071 Y15.7742 
G00 Z2.5400 
G00 X-14.5071 Y18.3142 
G01 Z-0.1778 F254.00 
G01 X-15.9729 Y18.3142 F508.00 
G01 X-16.1150 Y18.3425 
G01 X-16.2489 Y18.3979 
G01 X-16.3694 Y18.4785 
G01 X-16.4719 Y18.5810 
G01 X-16.5525 Y18.7015 
G01 X-16.6079 Y18.8354 
G01 X-16.6362 Y18.9775 
G01 X-16.6362 Y19.1225 
G01 X-16.6079 Y19.2646 
G01 X-16.5525 Y19.3985 
G01 X-16.4719 Y19.5190 
G01 X-16.3694 Y19.6215 
G01 X-16.2489 Y19.7021 
G01 X-16.1150 Y19.7575 
G01 X-15.9729 Y19.7858 
G01 X-14.5071 Y19.7858 
G01 X-14.3650 Y19.7575 
G01 X-14.2311 Y19.7021 
G01 X-14.1106 Y19.6215 
G01 X-14.0081 Y19.5190 
G01 X-13.9275 Y19.3985 
G01 X-13.8721 Y19.2646 
G01 X-13.8438 Y19.1225 
G01 X-13.8438 Y18.9775 
G01 X-13.8721 Y18.8354 
G01 X-13.9275 Y18.7015 
G01 X-14.0081 Y18.5810 
G01 X-14.1106 Y18.4785 
G01 X-14.2311 Y18.3979 
G01 X-14.3650 Y18.3425 
G01 X-14.5071 Y18.3142 
G00 Z2.5400 
G00 X-14.5071 Y20.8542 
G01 Z-0.1778 F254.00 
G01 X-15.9729 Y20.8542 F508.00 
G01 X-16.1150 Y20.8825 
G01 X-16.2489 Y20.9379 
G01 X-16.3694 Y21.0185 
G01 X-16.4719 Y21.1210 
G01 X-16.5525 Y21.2415 
G01 X-16.6079 Y21.3754 
G01 X-16.6362 Y21.5175 
G01 X-16.6362 Y21.6625 
G01 X-16.6079 Y21.8046 
G01 X-16.5525 Y21.9385 
G01 X-16.4719 Y22.0590 
G01 X-16.3694 Y22.1615 
G01 X-16.2489 Y22.2421 
G01 X-16.1150 Y22.2975 
G01 X-15.9729 Y22.3258 
G01 X-14.5071 Y22.3258 
G01 X-14.3650 Y22.2975 
G01 X-14.2311 Y22.2421 
G01 X-14.1106 Y22.1615 
G01 X-14.0081 Y22.0590 
G01 X-13.9275 Y21.9385 
G01 X-13.8721 Y21.8046 
G01 X-13.8438 Y21.6625 
G01 X-13.8438 Y21.5175 
G01 X-13.8721 Y21.3754 
G01 X-13.9275 Y21.2415 
G01 X-14.0081 Y21.1210 
G01 X-14.1106 Y21.0185 
G01 X-14.2311 Y20.9379 
G01 X-14.3650 Y20.8825 
G01 X-14.5071 Y20.8542 
G00 Z2.5400 
G00 X-14.5071 Y23.3942 
G01 Z-0.1778 F254.00 
G01 X-15.9729 Y23.3942 F508.00 
G01 X-16.1150 Y23.4225 
G01 X-16.2489 Y23.4779 
G01 X-16.3694 Y23.5585 
G01 X-16.4719 Y23.6610 
G01 X-16.5525 Y23.7815 
G01 X-16.6079 Y23.9154 
G01 X-16.6362 Y24.0575 
G01 X-16.6362 Y24.2025 
G01 X-16.6079 Y24.3446 
G01 X-16.5525 Y24.4785 
G01 X-16.4719 Y24.5990 
G01 X-16.3694 Y24.7015 
G01 X-16.2489 Y24.7821 
G01 X-16.1150 Y24.8375 
G01 X-15.9729 Y24.8658 
G01 X-14.5071 Y24.8658 
G01 X-14.3650 Y24.8375 
G01 X-14.2311 Y24.7821 
G01 X-14.1106 Y24.7015 
G01 X-14.0081 Y24.5990 
G01 X-13.9275 Y24.4785 
G01 X-13.8721 Y24.3446 
G01 X-13.8438 Y24.2025 
G01 X-13.8438 Y24.0575 
G01 X-13.8721 Y23.9154 
G01 X-13.9275 Y23.7815 
G01 X-14.0081 Y23.6610 
G01 X-14.1106 Y23.5585 
G01 X-14.2311 Y23.4779 
G01 X-14.3650 Y23.4225 
G01 X-14.5071 Y23.3942 
G00 Z2.5400 
G00 X-14.5071 Y28.4742 
G01 Z-0.1778 F254.00 
G01 X-15.9729 Y28.4742 F508.00 
G01 X-16.1150 Y28.5025 
G01 X-16.2489 Y28.5579 
G01 X-16.3694 Y28.6385 
G01 X-16.4719 Y28.7410 
G01 X-16.5525 Y28.8615 
G01 X-16.6079 Y28.9954 
G01 X-16.6362 Y29.1375 
G01 X-16.6362 Y29.2825 
G01 X-16.6079 Y29.4246 
G01 X-16.5525 Y29.5585 
G01 X-16.4719 Y29.6790 
G01 X-16.3694 Y29.7815 
G01 X-16.2489 Y29.8621 
G01 X-16.1150 Y29.9175 
G01 X-15.9729 Y29.9458 
G01 X-14.5071 Y29.9458 
G01 X-14.3650 Y29.9175 
G01 X-14.2311 Y29.8621 
G01 X-14.1106 Y29.7815 
G01 X-14.0081 Y29.6790 
G01 X-13.9275 Y29.5585 
G01 X-13.8721 Y29.4246 
G01 X-13.8438 Y29.2825 
G01 X-13.8438 Y29.1375 
G01 X-13.8721 Y28.9954 
G01 X-13.9275 Y28.8615 
G01 X-14.0081 Y28.7410 
G01 X-14.1106 Y28.6385 
G01 X-14.2311 Y28.5579 
G01 X-14.3650 Y28.5025 
G01 X-14.5071 Y28.4742 
G00 Z2.5400 
G00 X-14.5071 Y31.0142 
G01 Z-0.1778 F254.00 
G01 X-15.9729 Y31.0142 F508.00 
G01 X-16.1150 Y31.0425 
G01 X-16.2489 Y31.0979 
G01 X-16.3694 Y31.1785 
G01 X-16.4719 Y31.2810 
G01 X-16.5525 Y31.4015 
G01 X-16.6079 Y31.5354 
G01 X-16.6362 Y31.6775 
G01 X-16.6362 Y31.8225 
G01 X-16.6079 Y31.9646 
G01 X-16.5525 Y32.0985 
G01 X-16.4719 Y32.2190 
G01 X-16.3694 Y32.3215 
G01 X-16.2489 Y32.4021 
G01 X-16.1150 Y32.4575 
G01 X-15.9729 Y32.4858 
G01 X-14.5071 Y32.4858 
G01 X-14.3650 Y32.4575 
G01 X-14.2311 Y32.4021 
G01 X-14.1106 Y32.3215 
G01 X-14.0081 Y32.2190 
G01 X-13.9275 Y32.0985 
G01 X-13.8721 Y31.9646 
G01 X-13.8438 Y31.8225 
G01 X-13.8438 Y31.6775 
G01 X-13.8721 Y31.5354 
G01 X-13.9275 Y31.4015 
G01 X-14.0081 Y31.2810 
G01 X-14.1106 Y31.1785 
G01 X-14.2311 Y31.0979 
G01 X-14.3650 Y31.0425 
G01 X-14.5071 Y31.0142 
G00 Z2.5400 
G00 X-14.5071 Y36.0942 
G01 Z-0.1778 F254.00 
G01 X-15.6896 Y36.0942 F508.00 
G01 X-21.4184 Y30.3653 
G01 X-21.4753 Y30.3084 
G01 X-21.5497 Y30.2776 
G01 X-43.0962 Y30.2776 
G01 X-49.2006 Y24.1732 
G01 X-49.2006 Y24.0475 
G01 X-49.2328 Y23.8857 
G01 X-49.2959 Y23.7333 
G01 X-49.3875 Y23.5962 
G01 X-49.5042 Y23.4795 
G01 X-49.6413 Y23.3879 
G01 X-49.7937 Y23.3248 
G01 X-49.9555 Y23.2926 
G01 X-51.6445 Y23.2926 
G01 X-51.8063 Y23.3248 
G01 X-51.9587 Y23.3879 
G01 X-52.0958 Y23.4795 
G01 X-52.2125 Y23.5962 
G01 X-52.3041 Y23.7333 
G01 X-52.3672 Y23.8857 
G01 X-52.3994 Y24.0475 
G01 X-52.3994 Y24.2125 
G01 X-52.3672 Y24.3743 
G01 X-52.3041 Y24.5267 
G01 X-52.2125 Y24.6638 
G01 X-52.0958 Y24.7805 
G01 X-51.9587 Y24.8721 
G01 X-51.8063 Y24.9352 
G01 X-51.6445 Y24.9674 
G01 X-49.9555 Y24.9674 
G01 X-49.7937 Y24.9352 
G01 X-49.6413 Y24.8721 
G01 X-49.5042 Y24.7805 
G01 X-49.3875 Y24.6638 
G01 X-49.3454 Y24.6008 
G01 X-43.2947 Y30.6516 
G01 X-43.2203 Y30.6824 
G01 X-21.6738 Y30.6824 
G01 X-16.1990 Y36.1573 
G01 X-16.2489 Y36.1779 
G01 X-16.3694 Y36.2585 
G01 X-16.4719 Y36.3610 
G01 X-16.5525 Y36.4815 
G01 X-16.6079 Y36.6154 
G01 X-16.6362 Y36.7575 
G01 X-16.6362 Y36.9025 
G01 X-16.6079 Y37.0446 
G01 X-16.5525 Y37.1785 
G01 X-16.4719 Y37.2990 
G01 X-16.3694 Y37.4015 
G01 X-16.2489 Y37.4821 
G01 X-16.1150 Y37.5375 
G01 X-15.9729 Y37.5658 
G01 X-14.5071 Y37.5658 
G01 X-14.3650 Y37.5375 
G01 X-14.2311 Y37.4821 
G01 X-14.1106 Y37.4015 
G01 X-14.0081 Y37.2990 
G01 X-13.9275 Y37.1785 
G01 X-13.8721 Y37.0446 
G01 X-13.8438 Y36.9025 
G01 X-13.8438 Y36.7575 
G01 X-13.8721 Y36.6154 
G01 X-13.9275 Y36.4815 
G01 X-14.0081 Y36.3610 
G01 X-14.1106 Y36.2585 
G01 X-14.2311 Y36.1779 
G01 X-14.3650 Y36.1225 
G01 X-14.5071 Y36.0942 
G00 Z2.5400 
G00 X-6.8871 Y41.1742 
G01 Z-0.1778 F254.00 
G01 X-8.3529 Y41.1742 F508.00 
G01 X-8.4950 Y41.2025 
G01 X-8.6289 Y41.2579 
G01 X-8.7494 Y41.3385 
G01 X-8.8519 Y41.4410 
G01 X-8.9325 Y41.5615 
G01 X-8.9879 Y41.6954 
G01 X-9.0162 Y41.8375 
G01 X-9.0162 Y41.9825 
G01 X-8.9879 Y42.1246 
G01 X-8.9325 Y42.2585 
G01 X-8.8519 Y42.3790 
G01 X-8.7494 Y42.4815 
G01 X-8.6289 Y42.5621 
G01 X-8.5790 Y42.5827 
G01 X-8.9738 Y42.9776 
G01 X-40.5562 Y42.9776 
G01 X-49.7335 Y33.8003 
G01 X-49.6413 Y33.7621 
G01 X-49.5042 Y33.6705 
G01 X-49.3875 Y33.5538 
G01 X-49.2959 Y33.4167 
G01 X-49.2328 Y33.2643 
G01 X-49.2006 Y33.1025 
G01 X-49.2006 Y32.9375 
G01 X-49.2328 Y32.7757 
G01 X-49.2959 Y32.6233 
G01 X-49.3875 Y32.4862 
G01 X-49.5042 Y32.3695 
G01 X-49.6413 Y32.2779 
G01 X-49.7937 Y32.2148 
G01 X-49.9555 Y32.1826 
G01 X-51.6445 Y32.1826 
G01 X-51.8063 Y32.2148 
G01 X-51.9587 Y32.2779 
G01 X-52.0958 Y32.3695 
G01 X-52.2125 Y32.4862 
G01 X-52.3041 Y32.6233 
G01 X-52.3672 Y32.7757 
G01 X-52.3994 Y32.9375 
G01 X-52.3994 Y33.1025 
G01 X-52.3672 Y33.2643 
G01 X-52.3041 Y33.4167 
G01 X-52.2125 Y33.5538 
G01 X-52.0958 Y33.6705 
G01 X-51.9587 Y33.7621 
G01 X-51.8063 Y33.8252 
G01 X-51.6445 Y33.8574 
G01 X-50.2488 Y33.8574 
G01 X-40.7547 Y43.3516 
G01 X-40.6803 Y43.3824 
G01 X-8.8497 Y43.3824 
G01 X-8.7753 Y43.3516 
G01 X-8.7184 Y43.2947 
G01 X-8.0696 Y42.6458 
G01 X-6.8871 Y42.6458 
G01 X-6.7450 Y42.6175 
G01 X-6.6111 Y42.5621 
G01 X-6.4906 Y42.4815 
G01 X-6.3881 Y42.3790 
G01 X-6.3075 Y42.2585 
G01 X-6.2521 Y42.1246 
G01 X-6.2238 Y41.9825 
G01 X-6.2238 Y41.8375 
G01 X-6.2521 Y41.6954 
G01 X-6.3075 Y41.5615 
G01 X-6.3881 Y41.4410 
G01 X-6.4906 Y41.3385 
G01 X-6.6111 Y41.2579 
G01 X-6.7450 Y41.2025 
G01 X-6.8871 Y41.1742 
G00 Z2.5400 
G00 X-6.8871 Y38.6342 
G01 Z-0.1778 F254.00 
G01 X-8.3529 Y38.6342 F508.00 
G01 X-8.4950 Y38.6625 
G01 X-8.6289 Y38.7179 
G01 X-8.7494 Y38.7985 
G01 X-8.8519 Y38.9010 
G01 X-8.9325 Y39.0215 
G01 X-8.9879 Y39.1554 
G01 X-9.0162 Y39.2975 
G01 X-9.0162 Y39.4425 
G01 X-8.9879 Y39.5846 
G01 X-8.9325 Y39.7185 
G01 X-8.8519 Y39.8390 
G01 X-8.7494 Y39.9415 
G01 X-8.6289 Y40.0221 
G01 X-8.5790 Y40.0427 
G01 X-8.9738 Y40.4376 
G01 X-36.2824 Y40.4376 
G01 X-36.3130 Y40.3637 
G01 X-36.3768 Y40.2681 
G01 X-36.4581 Y40.1868 
G01 X-36.5537 Y40.1230 
G01 X-36.6598 Y40.0790 
G01 X-36.7725 Y40.0566 
G01 X-36.8875 Y40.0566 
G01 X-37.0002 Y40.0790 
G01 X-37.1063 Y40.1230 
G01 X-37.2019 Y40.1868 
G01 X-37.2832 Y40.2681 
G01 X-37.3470 Y40.3637 
G01 X-37.3910 Y40.4698 
G01 X-37.4134 Y40.5825 
G01 X-37.4134 Y40.6975 
G01 X-37.3910 Y40.8102 
G01 X-37.3470 Y40.9163 
G01 X-37.2832 Y41.0119 
G01 X-37.2019 Y41.0932 
G01 X-37.1063 Y41.1570 
G01 X-37.0002 Y41.2010 
G01 X-36.8875 Y41.2234 
G01 X-36.7725 Y41.2234 
G01 X-36.6598 Y41.2010 
G01 X-36.5537 Y41.1570 
G01 X-36.4581 Y41.0932 
G01 X-36.3768 Y41.0119 
G01 X-36.3130 Y40.9163 
G01 X-36.2824 Y40.8424 
G01 X-8.8497 Y40.8424 
G01 X-8.7753 Y40.8116 
G01 X-8.7184 Y40.7547 
G01 X-8.0696 Y40.1058 
G01 X-6.8871 Y40.1058 
G01 X-6.7450 Y40.0775 
G01 X-6.6111 Y40.0221 
G01 X-6.4906 Y39.9415 
G01 X-6.3881 Y39.8390 
G01 X-6.3075 Y39.7185 
G01 X-6.2521 Y39.5846 
G01 X-6.2238 Y39.4425 
G01 X-6.2238 Y39.2975 
G01 X-6.2521 Y39.1554 
G01 X-6.3075 Y39.0215 
G01 X-6.3881 Y38.9010 
G01 X-6.4906 Y38.7985 
G01 X-6.6111 Y38.7179 
G01 X-6.7450 Y38.6625 
G01 X-6.8871 Y38.6342 
G00 Z2.5400 
G00 X-6.8871 Y36.0942 
G01 Z-0.1778 F254.00 
G01 X-8.3529 Y36.0942 F508.00 
G01 X-8.4950 Y36.1225 
G01 X-8.6289 Y36.1779 
G01 X-8.7494 Y36.2585 
G01 X-8.8519 Y36.3610 
G01 X-8.9325 Y36.4815 
G01 X-8.9879 Y36.6154 
G01 X-9.0162 Y36.7575 
G01 X-9.0162 Y36.9025 
G01 X-8.9879 Y37.0446 
G01 X-8.9325 Y37.1785 
G01 X-8.8519 Y37.2990 
G01 X-8.7494 Y37.4015 
G01 X-8.6289 Y37.4821 
G01 X-8.5790 Y37.5027 
G01 X-8.9738 Y37.8976 
G01 X-40.0924 Y37.8976 
G01 X-40.1230 Y37.8237 
G01 X-40.1868 Y37.7281 
G01 X-40.2681 Y37.6468 
G01 X-40.3637 Y37.5830 
G01 X-40.4698 Y37.5390 
G01 X-40.5825 Y37.5166 
G01 X-40.6975 Y37.5166 
G01 X-40.8102 Y37.5390 
G01 X-40.9163 Y37.5830 
G01 X-41.0119 Y37.6468 
G01 X-41.0932 Y37.7281 
G01 X-41.1570 Y37.8237 
G01 X-41.2010 Y37.9298 
G01 X-41.2234 Y38.0425 
G01 X-41.2234 Y38.1575 
G01 X-41.2010 Y38.2702 
G01 X-41.1570 Y38.3763 
G01 X-41.0932 Y38.4719 
G01 X-41.0119 Y38.5532 
G01 X-40.9163 Y38.6170 
G01 X-40.8102 Y38.6610 
G01 X-40.6975 Y38.6834 
G01 X-40.5825 Y38.6834 
G01 X-40.4698 Y38.6610 
G01 X-40.3637 Y38.6170 
G01 X-40.2681 Y38.5532 
G01 X-40.1868 Y38.4719 
G01 X-40.1230 Y38.3763 
G01 X-40.0924 Y38.3024 
G01 X-8.8497 Y38.3024 
G01 X-8.7753 Y38.2716 
G01 X-8.7184 Y38.2146 
G01 X-8.0696 Y37.5658 
G01 X-6.8871 Y37.5658 
G01 X-6.7450 Y37.5375 
G01 X-6.6111 Y37.4821 
G01 X-6.4906 Y37.4015 
G01 X-6.3881 Y37.2990 
G01 X-6.3075 Y37.1785 
G01 X-6.2521 Y37.0446 
G01 X-6.2238 Y36.9025 
G01 X-6.2238 Y36.7575 
G01 X-6.2521 Y36.6154 
G01 X-6.3075 Y36.4815 
G01 X-6.3881 Y36.3610 
G01 X-6.4906 Y36.2585 
G01 X-6.6111 Y36.1779 
G01 X-6.7450 Y36.1225 
G01 X-6.8871 Y36.0942 
G00 Z2.5400 
G00 X-6.8871 Y33.5542 
G01 Z-0.1778 F254.00 
G01 X-8.3529 Y33.5542 F508.00 
G01 X-8.4950 Y33.5825 
G01 X-8.6289 Y33.6379 
G01 X-8.7494 Y33.7185 
G01 X-8.8519 Y33.8210 
G01 X-8.9325 Y33.9415 
G01 X-8.9879 Y34.0754 
G01 X-9.0162 Y34.2175 
G01 X-9.0162 Y34.3625 
G01 X-8.9879 Y34.5046 
G01 X-8.9325 Y34.6385 
G01 X-8.8519 Y34.7590 
G01 X-8.7494 Y34.8615 
G01 X-8.6289 Y34.9421 
G01 X-8.4950 Y34.9975 
G01 X-8.3529 Y35.0258 
G01 X-7.1704 Y35.0258 
G01 X-5.2824 Y36.9138 
G01 X-5.2824 Y45.5176 
G01 X-45.6362 Y45.5176 
G01 X-49.7335 Y41.4203 
G01 X-49.6413 Y41.3821 
G01 X-49.5042 Y41.2904 
G01 X-49.3875 Y41.1738 
G01 X-49.2959 Y41.0367 
G01 X-49.2328 Y40.8843 
G01 X-49.2006 Y40.7225 
G01 X-49.2006 Y40.5575 
G01 X-49.2328 Y40.3957 
G01 X-49.2959 Y40.2433 
G01 X-49.3875 Y40.1062 
G01 X-49.5042 Y39.9895 
G01 X-49.6413 Y39.8979 
G01 X-49.7937 Y39.8348 
G01 X-49.9555 Y39.8026 
G01 X-51.6445 Y39.8026 
G01 X-51.8063 Y39.8348 
G01 X-51.9587 Y39.8979 
G01 X-52.0958 Y39.9895 
G01 X-52.2125 Y40.1062 
G01 X-52.3041 Y40.2433 
G01 X-52.3672 Y40.3957 
G01 X-52.3994 Y40.5575 
G01 X-52.3994 Y40.7225 
G01 X-52.3672 Y40.8843 
G01 X-52.3041 Y41.0367 
G01 X-52.2125 Y41.1738 
G01 X-52.0958 Y41.2904 
G01 X-51.9587 Y41.3821 
G01 X-51.8063 Y41.4452 
G01 X-51.6445 Y41.4774 
G01 X-50.2488 Y41.4774 
G01 X-45.8347 Y45.8916 
G01 X-45.7603 Y45.9224 
G01 X-5.0397 Y45.9224 
G01 X-4.9653 Y45.8916 
G01 X-4.9084 Y45.8347 
G01 X-4.8776 Y45.7603 
G01 X-4.8776 Y36.7897 
G01 X-4.9084 Y36.7153 
G01 X-4.9653 Y36.6584 
G01 X-6.6610 Y34.9627 
G01 X-6.6111 Y34.9421 
G01 X-6.4906 Y34.8615 
G01 X-6.3881 Y34.7590 
G01 X-6.3075 Y34.6385 
G01 X-6.2521 Y34.5046 
G01 X-6.2238 Y34.3625 
G01 X-6.2238 Y34.2175 
G01 X-6.2521 Y34.0754 
G01 X-6.3075 Y33.9415 
G01 X-6.3881 Y33.8210 
G01 X-6.4906 Y33.7185 
G01 X-6.6111 Y33.6379 
G01 X-6.7450 Y33.5825 
G01 X-6.8871 Y33.5542 
G00 Z2.5400 
G00 X-6.8871 Y31.0142 
G01 Z-0.1778 F254.00 
G01 X-8.3529 Y31.0142 F508.00 
G01 X-8.4950 Y31.0425 
G01 X-8.6289 Y31.0979 
G01 X-8.7494 Y31.1785 
G01 X-8.8519 Y31.2810 
G01 X-8.9325 Y31.4015 
G01 X-8.9879 Y31.5354 
G01 X-9.0162 Y31.6775 
G01 X-9.0162 Y31.8225 
G01 X-8.9879 Y31.9646 
G01 X-8.9325 Y32.0985 
G01 X-8.8519 Y32.2190 
G01 X-8.7494 Y32.3215 
G01 X-8.6289 Y32.4021 
G01 X-8.4950 Y32.4575 
G01 X-8.3529 Y32.4858 
G01 X-6.8871 Y32.4858 
G01 X-6.7450 Y32.4575 
G01 X-6.6111 Y32.4021 
G01 X-6.4906 Y32.3215 
G01 X-6.3881 Y32.2190 
G01 X-6.3075 Y32.0985 
G01 X-6.2521 Y31.9646 
G01 X-6.2238 Y31.8225 
G01 X-6.2238 Y31.6775 
G01 X-6.2521 Y31.5354 
G01 X-6.3075 Y31.4015 
G01 X-6.3881 Y31.2810 
G01 X-6.4906 Y31.1785 
G01 X-6.6111 Y31.0979 
G01 X-6.7450 Y31.0425 
G01 X-6.8871 Y31.0142 
G00 Z2.5400 
G00 X-6.8871 Y28.4742 
G01 Z-0.1778 F254.00 
G01 X-8.3529 Y28.4742 F508.00 
G01 X-8.4950 Y28.5025 
G01 X-8.6289 Y28.5579 
G01 X-8.7494 Y28.6385 
G01 X-8.8519 Y28.7410 
G01 X-8.9325 Y28.8615 
G01 X-8.9879 Y28.9954 
G01 X-9.0162 Y29.1375 
G01 X-9.0162 Y29.2825 
G01 X-8.9879 Y29.4246 
G01 X-8.9325 Y29.5585 
G01 X-8.8519 Y29.6790 
G01 X-8.7494 Y29.7815 
G01 X-8.6289 Y29.8621 
G01 X-8.4950 Y29.9175 
G01 X-8.3529 Y29.9458 
G01 X-6.8871 Y29.9458 
G01 X-6.7450 Y29.9175 
G01 X-6.6111 Y29.8621 
G01 X-6.4906 Y29.7815 
G01 X-6.3881 Y29.6790 
G01 X-6.3075 Y29.5585 
G01 X-6.2521 Y29.4246 
G01 X-6.2238 Y29.2825 
G01 X-6.2238 Y29.1375 
G01 X-6.2521 Y28.9954 
G01 X-6.3075 Y28.8615 
G01 X-6.3881 Y28.7410 
G01 X-6.4906 Y28.6385 
G01 X-6.6111 Y28.5579 
G01 X-6.7450 Y28.5025 
G01 X-6.8871 Y28.4742 
G00 Z2.5400 
G00 X-6.8871 Y25.9342 
G01 Z-0.1778 F254.00 
G01 X-8.3529 Y25.9342 F508.00 
G01 X-8.4950 Y25.9625 
G01 X-8.6289 Y26.0179 
G01 X-8.7494 Y26.0985 
G01 X-8.8519 Y26.2010 
G01 X-8.9325 Y26.3215 
G01 X-8.9879 Y26.4554 
G01 X-9.0162 Y26.5975 
G01 X-9.0162 Y26.7425 
G01 X-8.9879 Y26.8846 
G01 X-8.9325 Y27.0185 
G01 X-8.8519 Y27.1390 
G01 X-8.7494 Y27.2415 
G01 X-8.6289 Y27.3221 
G01 X-8.4950 Y27.3775 
G01 X-8.3529 Y27.4058 
G01 X-6.8871 Y27.4058 
G01 X-6.7450 Y27.3775 
G01 X-6.6111 Y27.3221 
G01 X-6.4906 Y27.2415 
G01 X-6.3881 Y27.1390 
G01 X-6.3075 Y27.0185 
G01 X-6.2521 Y26.8846 
G01 X-6.2238 Y26.7425 
G01 X-6.2238 Y26.5975 
G01 X-6.2521 Y26.4554 
G01 X-6.3075 Y26.3215 
G01 X-6.3881 Y26.2010 
G01 X-6.4906 Y26.0985 
G01 X-6.6111 Y26.0179 
G01 X-6.7450 Y25.9625 
G01 X-6.8871 Y25.9342 
G00 Z2.5400 
G00 X-6.8871 Y23.3942 
G01 Z-0.1778 F254.00 
G01 X-8.3529 Y23.3942 F508.00 
G01 X-8.4950 Y23.4225 
G01 X-8.6289 Y23.4779 
G01 X-8.7494 Y23.5585 
G01 X-8.8519 Y23.6610 
G01 X-8.9325 Y23.7815 
G01 X-8.9879 Y23.9154 
G01 X-9.0162 Y24.0575 
G01 X-9.0162 Y24.2025 
G01 X-8.9879 Y24.3446 
G01 X-8.9325 Y24.4785 
G01 X-8.8519 Y24.5990 
G01 X-8.7494 Y24.7015 
G01 X-8.6289 Y24.7821 
G01 X-8.4950 Y24.8375 
G01 X-8.3529 Y24.8658 
G01 X-6.8871 Y24.8658 
G01 X-6.7450 Y24.8375 
G01 X-6.6111 Y24.7821 
G01 X-6.4906 Y24.7015 
G01 X-6.3881 Y24.5990 
G01 X-6.3075 Y24.4785 
G01 X-6.2521 Y24.3446 
G01 X-6.2238 Y24.2025 
G01 X-6.2238 Y24.0575 
G01 X-6.2521 Y23.9154 
G01 X-6.3075 Y23.7815 
G01 X-6.3881 Y23.6610 
G01 X-6.4906 Y23.5585 
G01 X-6.6111 Y23.4779 
G01 X-6.7450 Y23.4225 
G01 X-6.8871 Y23.3942 
G00 Z2.5400 
G00 X-6.8871 Y20.8542 
G01 Z-0.1778 F254.00 
G01 X-8.3529 Y20.8542 F508.00 
G01 X-8.4950 Y20.8825 
G01 X-8.6289 Y20.9379 
G01 X-8.7494 Y21.0185 
G01 X-8.8519 Y21.1210 
G01 X-8.9325 Y21.2415 
G01 X-8.9879 Y21.3754 
G01 X-9.0162 Y21.5175 
G01 X-9.0162 Y21.6625 
G01 X-8.9879 Y21.8046 
G01 X-8.9325 Y21.9385 
G01 X-8.8519 Y22.0590 
G01 X-8.7494 Y22.1615 
G01 X-8.6289 Y22.2421 
G01 X-8.4950 Y22.2975 
G01 X-8.3529 Y22.3258 
G01 X-6.8871 Y22.3258 
G01 X-6.7450 Y22.2975 
G01 X-6.6111 Y22.2421 
G01 X-6.4906 Y22.1615 
G01 X-6.3881 Y22.0590 
G01 X-6.3075 Y21.9385 
G01 X-6.2521 Y21.8046 
G01 X-6.2238 Y21.6625 
G01 X-6.2238 Y21.5175 
G01 X-6.2521 Y21.3754 
G01 X-6.3075 Y21.2415 
G01 X-6.3881 Y21.1210 
G01 X-6.4906 Y21.0185 
G01 X-6.6111 Y20.9379 
G01 X-6.7450 Y20.8825 
G01 X-6.8871 Y20.8542 
G00 Z2.5400 
G00 X-6.8871 Y18.3142 
G01 Z-0.1778 F254.00 
G01 X-8.3529 Y18.3142 F508.00 
G01 X-8.4950 Y18.3425 
G01 X-8.6289 Y18.3979 
G01 X-8.7494 Y18.4785 
G01 X-8.8519 Y18.5810 
G01 X-8.9325 Y18.7015 
G01 X-8.9879 Y18.8354 
G01 X-9.0162 Y18.9775 
G01 X-9.0162 Y19.1225 
G01 X-8.9879 Y19.2646 
G01 X-8.9325 Y19.3985 
G01 X-8.8519 Y19.5190 
G01 X-8.7494 Y19.6215 
G01 X-8.6289 Y19.7021 
G01 X-8.4950 Y19.7575 
G01 X-8.3529 Y19.7858 
G01 X-6.8871 Y19.7858 
G01 X-6.7450 Y19.7575 
G01 X-6.6111 Y19.7021 
G01 X-6.4906 Y19.6215 
G01 X-6.3881 Y19.5190 
G01 X-6.3075 Y19.3985 
G01 X-6.2521 Y19.2646 
G01 X-6.2238 Y19.1225 
G01 X-6.2238 Y18.9775 
G01 X-6.2521 Y18.8354 
G01 X-6.3075 Y18.7015 
G01 X-6.3881 Y18.5810 
G01 X-6.4906 Y18.4785 
G01 X-6.6111 Y18.3979 
G01 X-6.7450 Y18.3425 
G01 X-6.8871 Y18.3142 
G00 Z2.5400 
G00 X-6.8871 Y15.7742 
G01 Z-0.1778 F254.00 
G01 X-8.3529 Y15.7742 F508.00 
G01 X-8.4950 Y15.8025 
G01 X-8.6289 Y15.8579 
G01 X-8.7494 Y15.9385 
G01 X-8.8519 Y16.0410 
G01 X-8.9325 Y16.1615 
G01 X-8.9879 Y16.2954 
G01 X-9.0162 Y16.4375 
G01 X-9.0162 Y16.5825 
G01 X-8.9879 Y16.7246 
G01 X-8.9325 Y16.8585 
G01 X-8.8519 Y16.9790 
G01 X-8.7494 Y17.0815 
G01 X-8.6289 Y17.1621 
G01 X-8.4950 Y17.2175 
G01 X-8.3529 Y17.2458 
G01 X-6.8871 Y17.2458 
G01 X-6.7450 Y17.2175 
G01 X-6.6111 Y17.1621 
G01 X-6.4906 Y17.0815 
G01 X-6.3881 Y16.9790 
G01 X-6.3075 Y16.8585 
G01 X-6.2521 Y16.7246 
G01 X-6.2238 Y16.5825 
G01 X-6.2238 Y16.4375 
G01 X-6.2521 Y16.2954 
G01 X-6.3075 Y16.1615 
G01 X-6.3881 Y16.0410 
G01 X-6.4906 Y15.9385 
G01 X-6.6111 Y15.8579 
G01 X-6.7450 Y15.8025 
G01 X-6.8871 Y15.7742 
G00 Z2.5400 
G00 X-6.8871 Y13.2342 
G01 Z-0.1778 F254.00 
G01 X-8.3529 Y13.2342 F508.00 
G01 X-8.4950 Y13.2625 
G01 X-8.6289 Y13.3179 
G01 X-8.7494 Y13.3985 
G01 X-8.8519 Y13.5010 
G01 X-8.9325 Y13.6215 
G01 X-8.9879 Y13.7554 
G01 X-9.0162 Y13.8975 
G01 X-9.0162 Y14.0425 
G01 X-8.9879 Y14.1846 
G01 X-8.9325 Y14.3185 
G01 X-8.8519 Y14.4390 
G01 X-8.7494 Y14.5415 
G01 X-8.6289 Y14.6221 
G01 X-8.4950 Y14.6775 
G01 X-8.3529 Y14.7058 
G01 X-6.8871 Y14.7058 
G01 X-6.7450 Y14.6775 
G01 X-6.6111 Y14.6221 
G01 X-6.4906 Y14.5415 
G01 X-6.3881 Y14.4390 
G01 X-6.3075 Y14.3185 
G01 X-6.2521 Y14.1846 
G01 X-6.2238 Y14.0425 
G01 X-6.2238 Y13.8975 
G01 X-6.2521 Y13.7554 
G01 X-6.3075 Y13.6215 
G01 X-6.3881 Y13.5010 
G01 X-6.4906 Y13.3985 
G01 X-6.6111 Y13.3179 
G01 X-6.7450 Y13.2625 
G01 X-6.8871 Y13.2342 
G00 Z2.5400 
G00 X-6.8871 Y10.6942 
G01 Z-0.1778 F254.00 
G01 X-8.3529 Y10.6942 F508.00 
G01 X-8.4950 Y10.7225 
G01 X-8.6289 Y10.7779 
G01 X-8.7494 Y10.8585 
G01 X-8.8519 Y10.9610 
G01 X-8.9325 Y11.0815 
G01 X-8.9879 Y11.2154 
G01 X-9.0162 Y11.3575 
G01 X-9.0162 Y11.5025 
G01 X-8.9879 Y11.6446 
G01 X-8.9325 Y11.7785 
G01 X-8.8519 Y11.8990 
G01 X-8.7494 Y12.0015 
G01 X-8.6289 Y12.0821 
G01 X-8.4950 Y12.1375 
G01 X-8.3529 Y12.1658 
G01 X-6.8871 Y12.1658 
G01 X-6.7450 Y12.1375 
G01 X-6.6111 Y12.0821 
G01 X-6.4906 Y12.0015 
G01 X-6.3881 Y11.8990 
G01 X-6.3075 Y11.7785 
G01 X-6.2521 Y11.6446 
G01 X-6.2238 Y11.5025 
G01 X-6.2238 Y11.3575 
G01 X-6.2521 Y11.2154 
G01 X-6.3075 Y11.0815 
G01 X-6.3881 Y10.9610 
G01 X-6.4906 Y10.8585 
G01 X-6.6111 Y10.7779 
G01 X-6.7450 Y10.7225 
G01 X-6.8871 Y10.6942 
G00 Z2.5400 
G00 X-6.8871 Y8.1542 
G01 Z-0.1778 F254.00 
G01 X-8.3529 Y8.1542 F508.00 
G01 X-8.4950 Y8.1825 
G01 X-8.6289 Y8.2379 
G01 X-8.7494 Y8.3185 
G01 X-8.8519 Y8.4210 
G01 X-8.9325 Y8.5415 
G01 X-8.9879 Y8.6754 
G01 X-9.0162 Y8.8175 
G01 X-9.0162 Y8.9625 
G01 X-8.9879 Y9.1046 
G01 X-8.9325 Y9.2385 
G01 X-8.8519 Y9.3590 
G01 X-8.7494 Y9.4615 
G01 X-8.6289 Y9.5421 
G01 X-8.4950 Y9.5975 
G01 X-8.3529 Y9.6258 
G01 X-6.8871 Y9.6258 
G01 X-6.7450 Y9.5975 
G01 X-6.6111 Y9.5421 
G01 X-6.4906 Y9.4615 
G01 X-6.3881 Y9.3590 
G01 X-6.3075 Y9.2385 
G01 X-6.2521 Y9.1046 
G01 X-6.2238 Y8.9625 
G01 X-6.2238 Y8.8175 
G01 X-6.2521 Y8.6754 
G01 X-6.3075 Y8.5415 
G01 X-6.3881 Y8.4210 
G01 X-6.4906 Y8.3185 
G01 X-6.6111 Y8.2379 
G01 X-6.7450 Y8.1825 
G01 X-6.8871 Y8.1542 
G00 Z2.5400 
G00 X-23.5958 Y32.8205 
G01 Z-0.1778 F254.00 
G01 X-23.5958 Y32.9655 F508.00 
G01 X-23.5675 Y33.1076 
G01 X-23.5121 Y33.2415 
G01 X-23.4315 Y33.3620 
G01 X-23.3290 Y33.4645 
G01 X-23.2085 Y33.5451 
G01 X-23.0746 Y33.6005 
G01 X-22.9325 Y33.6288 
G01 X-22.7875 Y33.6288 
G01 X-22.6454 Y33.6005 
G01 X-22.5115 Y33.5451 
G01 X-22.3910 Y33.4645 
G01 X-22.2885 Y33.3620 
G01 X-22.2079 Y33.2415 
G01 X-22.1525 Y33.1076 
G01 X-22.1242 Y32.9655 
G01 X-22.1242 Y32.8205 
G01 X-22.1525 Y32.6784 
G01 X-22.2079 Y32.5445 
G01 X-22.2885 Y32.4240 
G01 X-22.3910 Y32.3215 
G01 X-22.5115 Y32.2409 
G01 X-22.6454 Y32.1855 
G01 X-22.7875 Y32.1572 
G01 X-22.9325 Y32.1572 
G01 X-23.0746 Y32.1855 
G01 X-23.2085 Y32.2409 
G01 X-23.3290 Y32.3215 
G01 X-23.4315 Y32.4240 
G01 X-23.5121 Y32.5445 
G01 X-23.5675 Y32.6784 
G01 X-23.5958 Y32.8205 
G00 Z2.5400 
G00 X-23.5958 Y27.9945 
G01 Z-0.1778 F254.00 
G01 X-23.5958 Y28.1395 F508.00 
G01 X-23.5675 Y28.2816 
G01 X-23.5121 Y28.4155 
G01 X-23.4315 Y28.5360 
G01 X-23.3290 Y28.6385 
G01 X-23.2085 Y28.7191 
G01 X-23.0746 Y28.7745 
G01 X-22.9325 Y28.8028 
G01 X-22.7875 Y28.8028 
G01 X-22.6454 Y28.7745 
G01 X-22.5115 Y28.7191 
G01 X-22.3910 Y28.6385 
G01 X-22.2885 Y28.5360 
G01 X-22.2079 Y28.4155 
G01 X-22.1525 Y28.2816 
G01 X-22.1242 Y28.1395 
G01 X-22.1242 Y27.9945 
G01 X-22.1525 Y27.8524 
G01 X-22.2079 Y27.7185 
G01 X-22.2885 Y27.5980 
G01 X-22.3910 Y27.4955 
G01 X-22.5115 Y27.4149 
G01 X-22.6454 Y27.3595 
G01 X-22.7875 Y27.3312 
G01 X-22.9325 Y27.3312 
G01 X-23.0746 Y27.3595 
G01 X-23.2085 Y27.4149 
G01 X-23.3290 Y27.4955 
G01 X-23.4315 Y27.5980 
G01 X-23.5121 Y27.7185 
G01 X-23.5675 Y27.8524 
G01 X-23.5958 Y27.9945 
G00 Z2.5400 
G00 X-31.3555 Y27.5774 
G01 Z-0.1778 F254.00 
G01 X-31.3555 Y28.3026 F508.00 
G01 X-30.8426 Y28.8155 
G01 X-30.1174 Y28.8155 
G01 X-29.6045 Y28.3026 
G01 X-29.6045 Y27.5774 
G01 X-29.7178 Y27.4640 
G01 X-29.1262 Y26.8724 
G01 X-16.6104 Y26.8724 
G01 X-16.6079 Y26.8846 
G01 X-16.5525 Y27.0185 
G01 X-16.4719 Y27.1390 
G01 X-16.3694 Y27.2415 
G01 X-16.2489 Y27.3221 
G01 X-16.1150 Y27.3775 
G01 X-15.9729 Y27.4058 
G01 X-14.5071 Y27.4058 
G01 X-14.3650 Y27.3775 
G01 X-14.2311 Y27.3221 
G01 X-14.1106 Y27.2415 
G01 X-14.0081 Y27.1390 
G01 X-13.9275 Y27.0185 
G01 X-13.8721 Y26.8846 
G01 X-13.8438 Y26.7425 
G01 X-13.8438 Y26.5975 
G01 X-13.8721 Y26.4554 
G01 X-13.9275 Y26.3215 
G01 X-14.0081 Y26.2010 
G01 X-14.1106 Y26.0985 
G01 X-14.2311 Y26.0179 
G01 X-14.3650 Y25.9625 
G01 X-14.5071 Y25.9342 
G01 X-15.9729 Y25.9342 
G01 X-16.1150 Y25.9625 
G01 X-16.2489 Y26.0179 
G01 X-16.3694 Y26.0985 
G01 X-16.4719 Y26.2010 
G01 X-16.5525 Y26.3215 
G01 X-16.6079 Y26.4554 
G01 X-16.6104 Y26.4676 
G01 X-29.2503 Y26.4676 
G01 X-29.3247 Y26.4984 
G01 X-29.3816 Y26.5553 
G01 X-30.0040 Y27.1778 
G01 X-30.1174 Y27.0645 
G01 X-30.8426 Y27.0645 
G01 X-31.3555 Y27.5774 
G00 Z2.5400 
G00 X-31.3555 Y25.0374 
G01 Z-0.1778 F254.00 
G01 X-31.3555 Y25.7626 F508.00 
G01 X-30.8426 Y26.2755 
G01 X-30.1174 Y26.2755 
G01 X-29.6045 Y25.7626 
G01 X-29.6045 Y25.0374 
G01 X-30.1174 Y24.5245 
G01 X-30.8426 Y24.5245 
G01 X-31.3555 Y25.0374 
G00 Z2.5400 
G00 X-31.3555 Y31.3874 
G01 Z-0.1778 F254.00 
G01 X-31.3555 Y32.1126 F508.00 
G01 X-30.8426 Y32.6255 
G01 X-30.1174 Y32.6255 
G01 X-29.6045 Y32.1126 
G01 X-29.6045 Y31.3874 
G01 X-30.1174 Y30.8745 
G01 X-30.8426 Y30.8745 
G01 X-31.3555 Y31.3874 
G00 Z2.5400 
G00 X-31.3555 Y33.9274 
G01 Z-0.1778 F254.00 
G01 X-31.3555 Y34.6526 F508.00 
G01 X-30.8426 Y35.1655 
G01 X-30.1174 Y35.1655 
G01 X-29.6045 Y34.6526 
G01 X-29.6045 Y33.9274 
G01 X-30.1174 Y33.4145 
G01 X-30.8426 Y33.4145 
G01 X-31.3555 Y33.9274 
G00 Z2.5400 
G00 X-41.3758 Y47.9552 
G01 Z-0.1778 F254.00 
G01 X-41.3758 Y48.5648 F508.00 
G01 X-40.9448 Y48.9958 
G01 X-40.3352 Y48.9958 
G01 X-39.9042 Y48.5648 
G01 X-39.9042 Y47.9552 
G01 X-40.3352 Y47.5242 
G01 X-40.9448 Y47.5242 
G01 X-41.3758 Y47.9552 
G00 Z2.5400 
G00 X-22.1271 Y47.5242 
G01 Z-0.1778 F254.00 
G01 X-23.5929 Y47.5242 F508.00 
G01 X-23.7350 Y47.5525 
G01 X-23.8689 Y47.6079 
G01 X-23.9894 Y47.6885 
G01 X-24.0919 Y47.7910 
G01 X-24.1725 Y47.9115 
G01 X-24.2279 Y48.0454 
G01 X-24.2562 Y48.1875 
G01 X-24.2562 Y48.3325 
G01 X-24.2279 Y48.4746 
G01 X-24.1725 Y48.6085 
G01 X-24.0919 Y48.7290 
G01 X-23.9894 Y48.8315 
G01 X-23.8689 Y48.9121 
G01 X-23.8190 Y48.9327 
G01 X-24.2138 Y49.3276 
G01 X-41.8262 Y49.3276 
G01 X-42.5166 Y48.6372 
G01 X-42.4442 Y48.5648 
G01 X-42.4442 Y47.9552 
G01 X-42.8752 Y47.5242 
G01 X-43.4848 Y47.5242 
G01 X-43.9158 Y47.9552 
G01 X-43.9158 Y48.5648 
G01 X-43.4848 Y48.9958 
G01 X-42.8752 Y48.9958 
G01 X-42.8028 Y48.9234 
G01 X-42.0247 Y49.7016 
G01 X-41.9503 Y49.7324 
G01 X-24.0897 Y49.7324 
G01 X-24.0153 Y49.7016 
G01 X-23.9584 Y49.6447 
G01 X-23.3096 Y48.9958 
G01 X-22.1271 Y48.9958 
G01 X-21.9850 Y48.9675 
G01 X-21.8511 Y48.9121 
G01 X-21.7306 Y48.8315 
G01 X-21.6281 Y48.7290 
G01 X-21.5475 Y48.6085 
G01 X-21.4921 Y48.4746 
G01 X-21.4638 Y48.3325 
G01 X-21.4638 Y48.1875 
G01 X-21.4921 Y48.0454 
G01 X-21.5475 Y47.9115 
G01 X-21.6281 Y47.7910 
G01 X-21.7306 Y47.6885 
G01 X-21.8511 Y47.6079 
G01 X-21.9850 Y47.5525 
G01 X-22.1271 Y47.5242 
G00 Z2.5400 
G00 X-14.5071 Y47.5242 
G01 Z-0.1778 F254.00 
G01 X-15.9729 Y47.5242 F508.00 
G01 X-16.1150 Y47.5525 
G01 X-16.2489 Y47.6079 
G01 X-16.3694 Y47.6885 
G01 X-16.4719 Y47.7910 
G01 X-16.5525 Y47.9115 
G01 X-16.6079 Y48.0454 
G01 X-16.6362 Y48.1875 
G01 X-16.6362 Y48.3325 
G01 X-16.6079 Y48.4746 
G01 X-16.5525 Y48.6085 
G01 X-16.4719 Y48.7290 
G01 X-16.3694 Y48.8315 
G01 X-16.2489 Y48.9121 
G01 X-16.1150 Y48.9675 
G01 X-15.9729 Y48.9958 
G01 X-14.5071 Y48.9958 
G01 X-14.3650 Y48.9675 
G01 X-14.2311 Y48.9121 
G01 X-14.1106 Y48.8315 
G01 X-14.0081 Y48.7290 
G01 X-13.9275 Y48.6085 
G01 X-13.8721 Y48.4746 
G01 X-13.8438 Y48.3325 
G01 X-13.8438 Y48.1875 
G01 X-13.8721 Y48.0454 
G01 X-13.9275 Y47.9115 
G01 X-14.0081 Y47.7910 
G01 X-14.1106 Y47.6885 
G01 X-14.2311 Y47.6079 
G01 X-14.3650 Y47.5525 
G01 X-14.5071 Y47.5242 
G00 Z2.5400 
G00 X-20.1541 Y20.0152 
G01 Z-0.1778 F254.00 
G01 X-20.1541 Y20.6248 F508.00 
G01 X-19.7231 Y21.0558 
G01 X-19.1135 Y21.0558 
G01 X-18.6825 Y20.6248 
G01 X-18.6825 Y20.0152 
G01 X-19.1135 Y19.5842 
G01 X-19.7231 Y19.5842 
G01 X-20.1541 Y20.0152 
G00 Z2.5400 
G00 X-20.1541 Y12.3952 
G01 Z-0.1778 F254.00 
G01 X-20.1541 Y13.0048 F508.00 
G01 X-19.7231 Y13.4358 
G01 X-19.1135 Y13.4358 
G01 X-18.6825 Y13.0048 
G01 X-18.6825 Y12.3952 
G01 X-19.1135 Y11.9642 
G01 X-19.7231 Y11.9642 
G01 X-20.1541 Y12.3952 
G00 Z2.5400 
G00 X-26.1358 Y44.1452 
G01 Z-0.1778 F254.00 
G01 X-26.1358 Y44.7548 F508.00 
G01 X-25.7048 Y45.1858 
G01 X-25.0952 Y45.1858 
G01 X-24.6642 Y44.7548 
G01 X-24.6642 Y44.1452 
G01 X-25.0952 Y43.7142 
G01 X-25.7048 Y43.7142 
G01 X-26.1358 Y44.1452 
G00 Z2.5400 
G00 X-33.7558 Y44.1452 
G01 Z-0.1778 F254.00 
G01 X-33.7558 Y44.7548 F508.00 
G01 X-33.3248 Y45.1858 
G01 X-32.7152 Y45.1858 
G01 X-32.2842 Y44.7548 
G01 X-32.2842 Y44.1452 
G01 X-32.7152 Y43.7142 
G01 X-33.3248 Y43.7142 
G01 X-33.7558 Y44.1452 
G00 Z2.5400 
G00 X-51.7134 Y46.1370 
G01 Z-0.1778 F254.00 
G01 X-51.7134 Y50.3830 F508.00 
G01 X-51.7019 Y50.4107 
G01 X-51.6807 Y50.4319 
G01 X-51.6530 Y50.4434 
G01 X-47.4070 Y50.4434 
G01 X-47.3793 Y50.4319 
G01 X-47.3581 Y50.4107 
G01 X-47.3466 Y50.3830 
G01 X-47.3466 Y46.1370 
G01 X-47.3581 Y46.1093 
G01 X-47.3793 Y46.0881 
G01 X-47.4070 Y46.0766 
G01 X-51.6530 Y46.0766 
G01 X-51.6807 Y46.0881 
G01 X-51.7019 Y46.1093 
G01 X-51.7134 Y46.1370 
G00 Z2.5400 
G00 X-51.7134 Y1.6870 
G01 Z-0.1778 F254.00 
G01 X-51.7134 Y5.9330 F508.00 
G01 X-51.7019 Y5.9607 
G01 X-51.6807 Y5.9819 
G01 X-51.6530 Y5.9934 
G01 X-47.4070 Y5.9934 
G01 X-47.3793 Y5.9819 
G01 X-47.3581 Y5.9607 
G01 X-47.3466 Y5.9330 
G01 X-47.3466 Y1.6870 
G01 X-47.3581 Y1.6593 
G01 X-47.3793 Y1.6381 
G01 X-47.4070 Y1.6266 
G01 X-51.6530 Y1.6266 
G01 X-51.6807 Y1.6381 
G01 X-51.7019 Y1.6593 
G01 X-51.7134 Y1.6870 
G00 Z2.5400 
G00 X-5.9934 Y1.6870 
G01 Z-0.1778 F254.00 
G01 X-5.9934 Y5.9330 F508.00 
G01 X-5.9819 Y5.9607 
G01 X-5.9607 Y5.9819 
G01 X-5.9330 Y5.9934 
G01 X-1.6870 Y5.9934 
G01 X-1.6593 Y5.9819 
G01 X-1.6381 Y5.9607 
G01 X-1.6266 Y5.9330 
G01 X-1.6266 Y1.6870 
G01 X-1.6381 Y1.6593 
G01 X-1.6593 Y1.6381 
G01 X-1.6870 Y1.6266 
G01 X-5.9330 Y1.6266 
G01 X-5.9607 Y1.6381 
G01 X-5.9819 Y1.6593 
G01 X-5.9934 Y1.6870 
G00 Z2.5400 
G00 X-5.9934 Y46.1370 
G01 Z-0.1778 F254.00 
G01 X-5.9934 Y50.3830 F508.00 
G01 X-5.9819 Y50.4107 
G01 X-5.9607 Y50.4319 
G01 X-5.9330 Y50.4434 
G01 X-1.6870 Y50.4434 
G01 X-1.6593 Y50.4319 
G01 X-1.6381 Y50.4107 
G01 X-1.6266 Y50.3830 
G01 X-1.6266 Y46.1370 
G01 X-1.6381 Y46.1093 
G01 X-1.6593 Y46.0881 
G01 X-1.6870 Y46.0766 
G01 X-5.9330 Y46.0766 
G01 X-5.9607 Y46.0881 
G01 X-5.9819 Y46.1093 
G01 X-5.9934 Y46.1370 
G00 Z2.5400 
G00 X-6.1204 Y1.6617 
G01 Z-0.1778 F254.00 
G01 X-6.1204 Y5.9583 F508.00 
G01 X-6.0896 Y6.0327 
G01 X-6.0327 Y6.0896 
G01 X-5.9583 Y6.1204 
G01 X-1.6617 Y6.1204 
G01 X-1.5873 Y6.0896 
G01 X-1.5304 Y6.0327 
G01 X-1.4996 Y5.9583 
G01 X-1.4996 Y1.6617 
G01 X-1.5304 Y1.5873 
G01 X-1.5873 Y1.5304 
G01 X-1.6617 Y1.4996 
G01 X-5.9583 Y1.4996 
G01 X-6.0327 Y1.5304 
G01 X-6.0896 Y1.5873 
G01 X-6.1204 Y1.6617 
G00 Z2.5400 
G00 X-51.8404 Y1.6617 
G01 Z-0.1778 F254.00 
G01 X-51.8404 Y5.9583 F508.00 
G01 X-51.8096 Y6.0327 
G01 X-51.7527 Y6.0896 
G01 X-51.6783 Y6.1204 
G01 X-47.3817 Y6.1204 
G01 X-47.3073 Y6.0896 
G01 X-47.2504 Y6.0327 
G01 X-47.2196 Y5.9583 
G01 X-47.2196 Y1.6617 
G01 X-47.2504 Y1.5873 
G01 X-47.3073 Y1.5304 
G01 X-47.3817 Y1.4996 
G01 X-51.6783 Y1.4996 
G01 X-51.7527 Y1.5304 
G01 X-51.8096 Y1.5873 
G01 X-51.8404 Y1.6617 
G00 Z2.5400 
G00 X-51.8404 Y46.1117 
G01 Z-0.1778 F254.00 
G01 X-51.8404 Y50.4083 F508.00 
G01 X-51.8096 Y50.4826 
G01 X-51.7527 Y50.5396 
G01 X-51.6783 Y50.5704 
G01 X-47.3817 Y50.5704 
G01 X-47.3073 Y50.5396 
G01 X-47.2504 Y50.4826 
G01 X-47.2196 Y50.4083 
G01 X-47.2196 Y46.1117 
G01 X-47.2504 Y46.0373 
G01 X-47.3073 Y45.9804 
G01 X-47.3817 Y45.9496 
G01 X-51.6783 Y45.9496 
G01 X-51.7527 Y45.9804 
G01 X-51.8096 Y46.0373 
G01 X-51.8404 Y46.1117 
G00 Z2.5400 
G00 X-3.3970 Y35.2544 
G01 Z-0.1778 F254.00 
G01 X-1.6830 Y35.2544 F508.00 
G01 X-1.4967 Y35.2173 
G01 X-1.3212 Y35.1446 
G01 X-1.1632 Y35.0391 
G01 X-1.0289 Y34.9048 
G01 X-0.9234 Y34.7468 
G01 X-0.8507 Y34.5713 
G01 X-0.8136 Y34.3850 
G01 X-0.8136 Y34.1950 
G01 X-0.8507 Y34.0087 
G01 X-0.9234 Y33.8332 
G01 X-1.0289 Y33.6752 
G01 X-1.1632 Y33.5409 
G01 X-1.3212 Y33.4354 
G01 X-1.4967 Y33.3627 
G01 X-1.6830 Y33.3256 
G01 X-3.3970 Y33.3256 
G01 X-3.5833 Y33.3627 
G01 X-3.7588 Y33.4354 
G01 X-3.9168 Y33.5409 
G01 X-4.0511 Y33.6752 
G01 X-4.1566 Y33.8332 
G01 X-4.2094 Y33.9606 
G01 X-4.7506 Y33.9606 
G01 X-4.7506 Y29.3464 
G01 X-4.1552 Y28.7510 
G01 X-4.2293 Y28.9287 
G01 X-4.2664 Y29.1150 
G01 X-4.2664 Y29.3050 
G01 X-4.2293 Y29.4913 
G01 X-4.1566 Y29.6668 
G01 X-4.0511 Y29.8248 
G01 X-3.9168 Y29.9591 
G01 X-3.7588 Y30.0646 
G01 X-3.5833 Y30.1373 
G01 X-3.3970 Y30.1744 
G01 X-1.6830 Y30.1744 
G01 X-1.4967 Y30.1373 
G01 X-1.3212 Y30.0646 
G01 X-1.1632 Y29.9591 
G01 X-1.0289 Y29.8248 
G01 X-0.9234 Y29.6668 
G01 X-0.8507 Y29.4913 
G01 X-0.8136 Y29.3050 
G01 X-0.8136 Y29.1150 
G01 X-0.8507 Y28.9287 
G01 X-0.9234 Y28.7532 
G01 X-1.0289 Y28.5952 
G01 X-1.1632 Y28.4609 
G01 X-1.3212 Y28.3554 
G01 X-1.4967 Y28.2827 
G01 X-1.6830 Y28.2456 
G01 X-3.3970 Y28.2456 
G01 X-3.5833 Y28.2827 
G01 X-3.7588 Y28.3554 
G01 X-3.0386 Y27.6344 
G01 X-1.6830 Y27.6344 
G01 X-1.4967 Y27.5973 
G01 X-1.3212 Y27.5246 
G01 X-1.1632 Y27.4191 
G01 X-1.0289 Y27.2848 
G01 X-0.9234 Y27.1268 
G01 X-0.8507 Y26.9513 
G01 X-0.8136 Y26.7650 
G01 X-0.8136 Y26.5750 
G01 X-0.8507 Y26.3887 
G01 X-0.9234 Y26.2132 
G01 X-1.0289 Y26.0552 
G01 X-1.1632 Y25.9209 
G01 X-1.3212 Y25.8154 
G01 X-1.4967 Y25.7427 
G01 X-1.6830 Y25.7056 
G01 X-3.3970 Y25.7056 
G01 X-3.5833 Y25.7427 
G01 X-3.7588 Y25.8154 
G01 X-3.9168 Y25.9209 
G01 X-4.0511 Y26.0552 
G01 X-4.1566 Y26.2132 
G01 X-4.2293 Y26.3887 
G01 X-4.2664 Y26.5750 
G01 X-4.2664 Y26.7650 
G01 X-4.2293 Y26.9513 
G01 X-4.1566 Y27.1268 
G01 X-4.0511 Y27.2848 
G01 X-3.9168 Y27.4191 
G01 X-3.8198 Y27.4839 
G01 X-5.2823 Y28.9464 
G01 X-5.3436 Y29.0077 
G01 X-5.3870 Y29.0829 
G01 X-5.4094 Y29.1666 
G01 X-5.4094 Y34.3334 
G01 X-5.3870 Y34.4171 
G01 X-5.3436 Y34.4923 
G01 X-5.2823 Y34.5536 
G01 X-5.2071 Y34.5969 
G01 X-5.1234 Y34.6194 
G01 X-4.2094 Y34.6194 
G01 X-4.1566 Y34.7468 
G01 X-4.0511 Y34.9048 
G01 X-3.9168 Y35.0391 
G01 X-3.7588 Y35.1446 
G01 X-3.5833 Y35.2173 
G01 X-3.3970 Y35.2544 
G00 Z2.5400 
G00 X-3.3970 Y32.7144 
G01 Z-0.1778 F254.00 
G01 X-1.6830 Y32.7144 F508.00 
G01 X-1.4967 Y32.6773 
G01 X-1.3212 Y32.6046 
G01 X-1.1632 Y32.4991 
G01 X-1.0289 Y32.3648 
G01 X-0.9234 Y32.2068 
G01 X-0.8507 Y32.0313 
G01 X-0.8136 Y31.8450 
G01 X-0.8136 Y31.6550 
G01 X-0.8507 Y31.4687 
G01 X-0.9234 Y31.2932 
G01 X-1.0289 Y31.1352 
G01 X-1.1632 Y31.0009 
G01 X-1.3212 Y30.8954 
G01 X-1.4967 Y30.8227 
G01 X-1.6830 Y30.7856 
G01 X-3.3970 Y30.7856 
G01 X-3.5833 Y30.8227 
G01 X-3.7588 Y30.8954 
G01 X-3.9168 Y31.0009 
G01 X-4.0511 Y31.1352 
G01 X-4.1566 Y31.2932 
G01 X-4.2293 Y31.4687 
G01 X-4.2664 Y31.6550 
G01 X-4.2664 Y31.8450 
G01 X-4.2293 Y32.0313 
G01 X-4.1566 Y32.2068 
G01 X-4.0511 Y32.3648 
G01 X-3.9168 Y32.4991 
G01 X-3.7588 Y32.6046 
G01 X-3.5833 Y32.6773 
G01 X-3.3970 Y32.7144 
G00 Z2.5400 
G00 X-3.3970 Y22.5544 
G01 Z-0.1778 F254.00 
G01 X-1.6830 Y22.5544 F508.00 
G01 X-1.4967 Y22.5173 
G01 X-1.3212 Y22.4446 
G01 X-1.1632 Y22.3391 
G01 X-1.0289 Y22.2048 
G01 X-0.9234 Y22.0468 
G01 X-0.8507 Y21.8713 
G01 X-0.8136 Y21.6850 
G01 X-0.8136 Y21.4950 
G01 X-0.8507 Y21.3087 
G01 X-0.9234 Y21.1332 
G01 X-1.0289 Y20.9752 
G01 X-1.1632 Y20.8409 
G01 X-1.3212 Y20.7354 
G01 X-1.4967 Y20.6627 
G01 X-1.6830 Y20.6256 
G01 X-3.3970 Y20.6256 
G01 X-3.5833 Y20.6627 
G01 X-3.7588 Y20.7354 
G01 X-3.9168 Y20.8409 
G01 X-4.0511 Y20.9752 
G01 X-4.1566 Y21.1332 
G01 X-4.2293 Y21.3087 
G01 X-4.2664 Y21.4950 
G01 X-4.2664 Y21.6850 
G01 X-4.2293 Y21.8713 
G01 X-4.1566 Y22.0468 
G01 X-4.0511 Y22.2048 
G01 X-3.9168 Y22.3391 
G01 X-3.7588 Y22.4446 
G01 X-3.5833 Y22.5173 
G01 X-3.3970 Y22.5544 
G00 Z2.5400 
G00 X-3.3970 Y20.0144 
G01 Z-0.1778 F254.00 
G01 X-1.6830 Y20.0144 F508.00 
G01 X-1.4967 Y19.9773 
G01 X-1.3212 Y19.9046 
G01 X-1.1632 Y19.7991 
G01 X-1.0289 Y19.6648 
G01 X-0.9234 Y19.5068 
G01 X-0.8507 Y19.3313 
G01 X-0.8136 Y19.1450 
G01 X-0.8136 Y18.9550 
G01 X-0.8507 Y18.7687 
G01 X-0.9234 Y18.5932 
G01 X-1.0289 Y18.4352 
G01 X-1.1632 Y18.3009 
G01 X-1.3212 Y18.1954 
G01 X-1.4967 Y18.1227 
G01 X-1.6830 Y18.0856 
G01 X-3.3970 Y18.0856 
G01 X-3.5833 Y18.1227 
G01 X-3.7588 Y18.1954 
G01 X-3.9168 Y18.3009 
G01 X-4.0511 Y18.4352 
G01 X-4.1566 Y18.5932 
G01 X-4.2293 Y18.7687 
G01 X-4.2664 Y18.9550 
G01 X-4.2664 Y19.1450 
G01 X-4.2293 Y19.3313 
G01 X-4.1566 Y19.5068 
G01 X-4.0511 Y19.6648 
G01 X-3.9168 Y19.7991 
G01 X-3.7588 Y19.9046 
G01 X-3.5833 Y19.9773 
G01 X-3.3970 Y20.0144 
G00 Z2.5400 
G00 X-3.3970 Y17.4744 
G01 Z-0.1778 F254.00 
G01 X-1.6830 Y17.4744 F508.00 
G01 X-1.4967 Y17.4373 
G01 X-1.3212 Y17.3646 
G01 X-1.1632 Y17.2591 
G01 X-1.0289 Y17.1248 
G01 X-0.9234 Y16.9668 
G01 X-0.8507 Y16.7913 
G01 X-0.8136 Y16.6050 
G01 X-0.8136 Y16.4150 
G01 X-0.8507 Y16.2287 
G01 X-0.9234 Y16.0532 
G01 X-1.0289 Y15.8952 
G01 X-1.1632 Y15.7609 
G01 X-1.3212 Y15.6554 
G01 X-1.4967 Y15.5827 
G01 X-1.6830 Y15.5456 
G01 X-3.3970 Y15.5456 
G01 X-3.5833 Y15.5827 
G01 X-3.7588 Y15.6554 
G01 X-3.9168 Y15.7609 
G01 X-4.0511 Y15.8952 
G01 X-4.1566 Y16.0532 
G01 X-4.2293 Y16.2287 
G01 X-4.2664 Y16.4150 
G01 X-4.2664 Y16.6050 
G01 X-4.2293 Y16.7913 
G01 X-4.1566 Y16.9668 
G01 X-4.0511 Y17.1248 
G01 X-3.9168 Y17.2591 
G01 X-3.7588 Y17.3646 
G01 X-3.5833 Y17.4373 
G01 X-3.3970 Y17.4744 
G00 Z2.5400 
G00 X-3.3970 Y14.9344 
G01 Z-0.1778 F254.00 
G01 X-1.6830 Y14.9344 F508.00 
G01 X-1.4967 Y14.8973 
G01 X-1.3212 Y14.8246 
G01 X-1.1632 Y14.7191 
G01 X-1.0289 Y14.5848 
G01 X-0.9234 Y14.4268 
G01 X-0.8507 Y14.2513 
G01 X-0.8136 Y14.0650 
G01 X-0.8136 Y13.8750 
G01 X-0.8507 Y13.6887 
G01 X-0.9234 Y13.5132 
G01 X-1.0289 Y13.3552 
G01 X-1.1632 Y13.2209 
G01 X-1.3212 Y13.1154 
G01 X-1.4967 Y13.0427 
G01 X-1.6830 Y13.0056 
G01 X-3.3970 Y13.0056 
G01 X-3.5833 Y13.0427 
G01 X-3.7588 Y13.1154 
G01 X-3.9168 Y13.2209 
G01 X-4.0511 Y13.3552 
G01 X-4.1566 Y13.5132 
G01 X-4.2293 Y13.6887 
G01 X-4.2664 Y13.8750 
G01 X-4.2664 Y14.0650 
G01 X-4.2293 Y14.2513 
G01 X-4.1566 Y14.4268 
G01 X-4.0511 Y14.5848 
G01 X-3.9168 Y14.7191 
G01 X-3.7588 Y14.8246 
G01 X-3.5833 Y14.8973 
G01 X-3.3970 Y14.9344 
G00 Z2.5400 
G00 X-3.3970 Y12.3944 
G01 Z-0.1778 F254.00 
G01 X-1.6830 Y12.3944 F508.00 
G01 X-1.4967 Y12.3573 
G01 X-1.3212 Y12.2846 
G01 X-1.1632 Y12.1791 
G01 X-1.0289 Y12.0448 
G01 X-0.9234 Y11.8868 
G01 X-0.8507 Y11.7113 
G01 X-0.8136 Y11.5250 
G01 X-0.8136 Y11.3350 
G01 X-0.8507 Y11.1487 
G01 X-0.9234 Y10.9732 
G01 X-1.0289 Y10.8152 
G01 X-1.1632 Y10.6809 
G01 X-1.3212 Y10.5754 
G01 X-1.4967 Y10.5027 
G01 X-1.6830 Y10.4656 
G01 X-3.3970 Y10.4656 
G01 X-3.5833 Y10.5027 
G01 X-3.7588 Y10.5754 
G01 X-3.9168 Y10.6809 
G01 X-4.0511 Y10.8152 
G01 X-4.1566 Y10.9732 
G01 X-4.2293 Y11.1487 
G01 X-4.2664 Y11.3350 
G01 X-4.2664 Y11.5250 
G01 X-4.2293 Y11.7113 
G01 X-4.1566 Y11.8868 
G01 X-4.0511 Y12.0448 
G01 X-3.9168 Y12.1791 
G01 X-3.7588 Y12.2846 
G01 X-3.5833 Y12.3573 
G01 X-3.3970 Y12.3944 
G00 Z2.5400 
G00 X-3.3970 Y9.8544 
G01 Z-0.1778 F254.00 
G01 X-1.6830 Y9.8544 F508.00 
G01 X-1.4967 Y9.8173 
G01 X-1.3212 Y9.7446 
G01 X-1.1632 Y9.6391 
G01 X-1.0289 Y9.5048 
G01 X-0.9234 Y9.3468 
G01 X-0.8507 Y9.1713 
G01 X-0.8136 Y8.9850 
G01 X-0.8136 Y8.7950 
G01 X-0.8507 Y8.6087 
G01 X-0.9234 Y8.4332 
G01 X-1.0289 Y8.2752 
G01 X-1.1632 Y8.1409 
G01 X-1.3212 Y8.0354 
G01 X-1.4967 Y7.9627 
G01 X-1.6830 Y7.9256 
G01 X-3.3970 Y7.9256 
G01 X-3.5833 Y7.9627 
G01 X-3.7588 Y8.0354 
G01 X-3.9168 Y8.1409 
G01 X-4.0511 Y8.2752 
G01 X-4.1566 Y8.4332 
G01 X-4.2293 Y8.6087 
G01 X-4.2664 Y8.7950 
G01 X-4.2664 Y8.9850 
G01 X-4.2293 Y9.1713 
G01 X-4.1566 Y9.3468 
G01 X-4.0511 Y9.5048 
G01 X-3.9168 Y9.6391 
G01 X-3.7588 Y9.7446 
G01 X-3.5833 Y9.8173 
G01 X-3.3970 Y9.8544 
G00 Z2.5400 
G00 X-51.6570 Y39.0644 
G01 Z-0.1778 F254.00 
G01 X-49.9430 Y39.0644 F508.00 
G01 X-49.7567 Y39.0273 
G01 X-49.5812 Y38.9546 
G01 X-49.4232 Y38.8491 
G01 X-49.2889 Y38.7148 
G01 X-49.1834 Y38.5568 
G01 X-49.1107 Y38.3813 
G01 X-49.0736 Y38.1950 
G01 X-49.0736 Y38.0050 
G01 X-49.1107 Y37.8187 
G01 X-49.1834 Y37.6432 
G01 X-49.2889 Y37.4852 
G01 X-49.4232 Y37.3509 
G01 X-49.5812 Y37.2454 
G01 X-49.7567 Y37.1727 
G01 X-49.9430 Y37.1356 
G01 X-51.6570 Y37.1356 
G01 X-51.8433 Y37.1727 
G01 X-52.0188 Y37.2454 
G01 X-52.1768 Y37.3509 
G01 X-52.3111 Y37.4852 
G01 X-52.4166 Y37.6432 
G01 X-52.4893 Y37.8187 
G01 X-52.5264 Y38.0050 
G01 X-52.5264 Y38.1950 
G01 X-52.4893 Y38.3813 
G01 X-52.4166 Y38.5568 
G01 X-52.3111 Y38.7148 
G01 X-52.1768 Y38.8491 
G01 X-52.0188 Y38.9546 
G01 X-51.8433 Y39.0273 
G01 X-51.6570 Y39.0644 
G00 Z2.5400 
G00 X-51.6570 Y20.0144 
G01 Z-0.1778 F254.00 
G01 X-49.9430 Y20.0144 F508.00 
G01 X-49.7567 Y19.9773 
G01 X-49.5812 Y19.9046 
G01 X-49.4232 Y19.7991 
G01 X-49.2889 Y19.6648 
G01 X-49.1834 Y19.5068 
G01 X-49.1107 Y19.3313 
G01 X-49.0736 Y19.1450 
G01 X-49.0736 Y18.9550 
G01 X-49.1107 Y18.7687 
G01 X-49.1834 Y18.5932 
G01 X-49.2889 Y18.4352 
G01 X-49.4232 Y18.3009 
G01 X-49.5812 Y18.1954 
G01 X-49.7567 Y18.1227 
G01 X-49.9430 Y18.0856 
G01 X-51.6570 Y18.0856 
G01 X-51.8433 Y18.1227 
G01 X-52.0188 Y18.1954 
G01 X-52.1768 Y18.3009 
G01 X-52.3111 Y18.4352 
G01 X-52.4166 Y18.5932 
G01 X-52.4893 Y18.7687 
G01 X-52.5264 Y18.9550 
G01 X-52.5264 Y19.1450 
G01 X-52.4893 Y19.3313 
G01 X-52.4166 Y19.5068 
G01 X-52.3111 Y19.6648 
G01 X-52.1768 Y19.7991 
G01 X-52.0188 Y19.9046 
G01 X-51.8433 Y19.9773 
G01 X-51.6570 Y20.0144 
G00 Z2.5400 
G00 X-51.6570 Y17.4744 
G01 Z-0.1778 F254.00 
G01 X-49.9430 Y17.4744 F508.00 
G01 X-49.7567 Y17.4373 
G01 X-49.5812 Y17.3646 
G01 X-49.4232 Y17.2591 
G01 X-49.2889 Y17.1248 
G01 X-49.1834 Y16.9668 
G01 X-49.1107 Y16.7913 
G01 X-49.0736 Y16.6050 
G01 X-49.0736 Y16.4150 
G01 X-49.1107 Y16.2287 
G01 X-49.1834 Y16.0532 
G01 X-49.2889 Y15.8952 
G01 X-49.4232 Y15.7609 
G01 X-49.5812 Y15.6554 
G01 X-49.7567 Y15.5827 
G01 X-49.9430 Y15.5456 
G01 X-51.6570 Y15.5456 
G01 X-51.8433 Y15.5827 
G01 X-52.0188 Y15.6554 
G01 X-52.1768 Y15.7609 
G01 X-52.3111 Y15.8952 
G01 X-52.4166 Y16.0532 
G01 X-52.4893 Y16.2287 
G01 X-52.5264 Y16.4150 
G01 X-52.5264 Y16.6050 
G01 X-52.4893 Y16.7913 
G01 X-52.4166 Y16.9668 
G01 X-52.3111 Y17.1248 
G01 X-52.1768 Y17.2591 
G01 X-52.0188 Y17.3646 
G01 X-51.8433 Y17.4373 
G01 X-51.6570 Y17.4744 
G00 Z2.5400 
G00 X-51.6570 Y14.9344 
G01 Z-0.1778 F254.00 
G01 X-49.9430 Y14.9344 F508.00 
G01 X-49.7567 Y14.8973 
G01 X-49.5812 Y14.8246 
G01 X-49.4232 Y14.7191 
G01 X-49.2889 Y14.5848 
G01 X-49.1834 Y14.4268 
G01 X-49.1107 Y14.2513 
G01 X-49.0736 Y14.0650 
G01 X-49.0736 Y13.8750 
G01 X-49.1107 Y13.6887 
G01 X-49.1834 Y13.5132 
G01 X-49.2889 Y13.3552 
G01 X-49.4232 Y13.2209 
G01 X-49.5812 Y13.1154 
G01 X-49.7567 Y13.0427 
G01 X-49.9430 Y13.0056 
G01 X-51.6570 Y13.0056 
G01 X-51.8433 Y13.0427 
G01 X-52.0188 Y13.1154 
G01 X-52.1768 Y13.2209 
G01 X-52.3111 Y13.3552 
G01 X-52.4166 Y13.5132 
G01 X-52.4893 Y13.6887 
G01 X-52.5264 Y13.8750 
G01 X-52.5264 Y14.0650 
G01 X-52.4893 Y14.2513 
G01 X-52.4166 Y14.4268 
G01 X-52.3111 Y14.5848 
G01 X-52.1768 Y14.7191 
G01 X-52.0188 Y14.8246 
G01 X-51.8433 Y14.8973 
G01 X-51.6570 Y14.9344 
G00 Z2.5400 
G00 X-14.4946 Y8.0272 
G01 Z-0.1778 F254.00 
G01 X-15.9854 Y8.0272 F508.00 
G01 X-16.1521 Y8.0604 
G01 X-16.3091 Y8.1254 
G01 X-16.4504 Y8.2198 
G01 X-16.5706 Y8.3400 
G01 X-16.6650 Y8.4813 
G01 X-16.7300 Y8.6383 
G01 X-16.7632 Y8.8050 
G01 X-16.7632 Y8.9750 
G01 X-16.7300 Y9.1417 
G01 X-16.6650 Y9.2987 
G01 X-16.5706 Y9.4400 
G01 X-16.4504 Y9.5602 
G01 X-16.3091 Y9.6546 
G01 X-16.1521 Y9.7196 
G01 X-15.9854 Y9.7528 
G01 X-14.4946 Y9.7528 
G01 X-14.3279 Y9.7196 
G01 X-14.1709 Y9.6546 
G01 X-14.0296 Y9.5602 
G01 X-13.9094 Y9.4400 
G01 X-13.8150 Y9.2987 
G01 X-13.7500 Y9.1417 
G01 X-13.7168 Y8.9750 
G01 X-13.7168 Y8.8050 
G01 X-13.7500 Y8.6383 
G01 X-13.8150 Y8.4813 
G01 X-13.9094 Y8.3400 
G01 X-14.0296 Y8.2198 
G01 X-14.1709 Y8.1254 
G01 X-14.3279 Y8.0604 
G01 X-14.4946 Y8.0272 
G00 Z2.5400 
G00 X-14.4946 Y10.5672 
G01 Z-0.1778 F254.00 
G01 X-15.6370 Y10.5672 F508.00 
G01 X-17.5164 Y8.6877 
G01 X-17.5777 Y8.6264 
G01 X-17.6529 Y8.5830 
G01 X-17.7366 Y8.5606 
G01 X-49.1306 Y8.5606 
G01 X-49.1834 Y8.4332 
G01 X-49.2889 Y8.2752 
G01 X-49.4232 Y8.1409 
G01 X-49.5812 Y8.0354 
G01 X-49.7567 Y7.9627 
G01 X-49.9430 Y7.9256 
G01 X-51.6570 Y7.9256 
G01 X-51.8433 Y7.9627 
G01 X-52.0188 Y8.0354 
G01 X-52.1768 Y8.1409 
G01 X-52.3111 Y8.2752 
G01 X-52.4166 Y8.4332 
G01 X-52.4893 Y8.6087 
G01 X-52.5264 Y8.7950 
G01 X-52.5264 Y8.9850 
G01 X-52.4893 Y9.1713 
G01 X-52.4166 Y9.3468 
G01 X-52.3111 Y9.5048 
G01 X-52.1768 Y9.6391 
G01 X-52.0188 Y9.7446 
G01 X-51.8433 Y9.8173 
G01 X-51.6570 Y9.8544 
G01 X-49.9430 Y9.8544 
G01 X-49.7567 Y9.8173 
G01 X-49.5812 Y9.7446 
G01 X-49.4232 Y9.6391 
G01 X-49.2889 Y9.5048 
G01 X-49.1834 Y9.3468 
G01 X-49.1306 Y9.2194 
G01 X-17.9164 Y9.2194 
G01 X-16.4058 Y10.7300 
G01 X-16.4504 Y10.7598 
G01 X-16.5706 Y10.8800 
G01 X-16.6650 Y11.0213 
G01 X-16.7300 Y11.1783 
G01 X-16.7632 Y11.3450 
G01 X-16.7632 Y11.5150 
G01 X-16.7300 Y11.6817 
G01 X-16.6650 Y11.8387 
G01 X-16.5706 Y11.9800 
G01 X-16.4504 Y12.1002 
G01 X-16.3091 Y12.1946 
G01 X-16.1521 Y12.2596 
G01 X-15.9854 Y12.2928 
G01 X-14.4946 Y12.2928 
G01 X-14.3279 Y12.2596 
G01 X-14.1709 Y12.1946 
G01 X-14.0296 Y12.1002 
G01 X-13.9094 Y11.9800 
G01 X-13.8150 Y11.8387 
G01 X-13.7500 Y11.6817 
G01 X-13.7168 Y11.5150 
G01 X-13.7168 Y11.3450 
G01 X-13.7500 Y11.1783 
G01 X-13.8150 Y11.0213 
G01 X-13.9094 Y10.8800 
G01 X-14.0296 Y10.7598 
G01 X-14.1709 Y10.6654 
G01 X-14.3279 Y10.6004 
G01 X-14.4946 Y10.5672 
G00 Z2.5400 
G00 X-14.4946 Y13.1072 
G01 Z-0.1778 F254.00 
G01 X-15.6370 Y13.1072 F508.00 
G01 X-17.5164 Y11.2277 
G01 X-17.5777 Y11.1664 
G01 X-17.6529 Y11.1230 
G01 X-17.7366 Y11.1006 
G01 X-49.1306 Y11.1006 
G01 X-49.1834 Y10.9732 
G01 X-49.2889 Y10.8152 
G01 X-49.4232 Y10.6809 
G01 X-49.5812 Y10.5754 
G01 X-49.7567 Y10.5027 
G01 X-49.9430 Y10.4656 
G01 X-51.6570 Y10.4656 
G01 X-51.8433 Y10.5027 
G01 X-52.0188 Y10.5754 
G01 X-52.1768 Y10.6809 
G01 X-52.3111 Y10.8152 
G01 X-52.4166 Y10.9732 
G01 X-52.4893 Y11.1487 
G01 X-52.5264 Y11.3350 
G01 X-52.5264 Y11.5250 
G01 X-52.4893 Y11.7113 
G01 X-52.4166 Y11.8868 
G01 X-52.3111 Y12.0448 
G01 X-52.1768 Y12.1791 
G01 X-52.0188 Y12.2846 
G01 X-51.8433 Y12.3573 
G01 X-51.6570 Y12.3944 
G01 X-49.9430 Y12.3944 
G01 X-49.7567 Y12.3573 
G01 X-49.5812 Y12.2846 
G01 X-49.4232 Y12.1791 
G01 X-49.2889 Y12.0448 
G01 X-49.1834 Y11.8868 
G01 X-49.1306 Y11.7594 
G01 X-17.9164 Y11.7594 
G01 X-16.4058 Y13.2700 
G01 X-16.4504 Y13.2998 
G01 X-16.5706 Y13.4200 
G01 X-16.6650 Y13.5613 
G01 X-16.7300 Y13.7183 
G01 X-16.7632 Y13.8850 
G01 X-16.7632 Y14.0550 
G01 X-16.7300 Y14.2217 
G01 X-16.6650 Y14.3787 
G01 X-16.5706 Y14.5200 
G01 X-16.4504 Y14.6402 
G01 X-16.3091 Y14.7346 
G01 X-16.1521 Y14.7996 
G01 X-15.9854 Y14.8328 
G01 X-14.4946 Y14.8328 
G01 X-14.3279 Y14.7996 
G01 X-14.1709 Y14.7346 
G01 X-14.0296 Y14.6402 
G01 X-13.9094 Y14.5200 
G01 X-13.8150 Y14.3787 
G01 X-13.7500 Y14.2217 
G01 X-13.7168 Y14.0550 
G01 X-13.7168 Y13.8850 
G01 X-13.7500 Y13.7183 
G01 X-13.8150 Y13.5613 
G01 X-13.9094 Y13.4200 
G01 X-14.0296 Y13.2998 
G01 X-14.1709 Y13.2054 
G01 X-14.3279 Y13.1404 
G01 X-14.4946 Y13.1072 
G00 Z2.5400 
G00 X-14.4946 Y15.6472 
G01 Z-0.1778 F254.00 
G01 X-15.9854 Y15.6472 F508.00 
G01 X-16.1521 Y15.6804 
G01 X-16.3091 Y15.7454 
G01 X-16.4504 Y15.8398 
G01 X-16.5706 Y15.9600 
G01 X-16.6650 Y16.1013 
G01 X-16.7300 Y16.2583 
G01 X-16.7632 Y16.4250 
G01 X-16.7632 Y16.5950 
G01 X-16.7300 Y16.7617 
G01 X-16.6650 Y16.9187 
G01 X-16.5706 Y17.0600 
G01 X-16.4504 Y17.1802 
G01 X-16.3091 Y17.2746 
G01 X-16.1521 Y17.3396 
G01 X-15.9854 Y17.3728 
G01 X-14.4946 Y17.3728 
G01 X-14.3279 Y17.3396 
G01 X-14.1709 Y17.2746 
G01 X-14.0296 Y17.1802 
G01 X-13.9094 Y17.0600 
G01 X-13.8150 Y16.9187 
G01 X-13.7500 Y16.7617 
G01 X-13.7168 Y16.5950 
G01 X-13.7168 Y16.4250 
G01 X-13.7500 Y16.2583 
G01 X-13.8150 Y16.1013 
G01 X-13.9094 Y15.9600 
G01 X-14.0296 Y15.8398 
G01 X-14.1709 Y15.7454 
G01 X-14.3279 Y15.6804 
G01 X-14.4946 Y15.6472 
G00 Z2.5400 
G00 X-14.4946 Y18.1872 
G01 Z-0.1778 F254.00 
G01 X-15.9854 Y18.1872 F508.00 
G01 X-16.1521 Y18.2204 
G01 X-16.3091 Y18.2854 
G01 X-16.4504 Y18.3798 
G01 X-16.5706 Y18.5000 
G01 X-16.6650 Y18.6413 
G01 X-16.7300 Y18.7983 
G01 X-16.7632 Y18.9650 
G01 X-16.7632 Y19.1350 
G01 X-16.7300 Y19.3017 
G01 X-16.6650 Y19.4587 
G01 X-16.5706 Y19.6000 
G01 X-16.4504 Y19.7202 
G01 X-16.3091 Y19.8146 
G01 X-16.1521 Y19.8796 
G01 X-15.9854 Y19.9128 
G01 X-14.4946 Y19.9128 
G01 X-14.3279 Y19.8796 
G01 X-14.1709 Y19.8146 
G01 X-14.0296 Y19.7202 
G01 X-13.9094 Y19.6000 
G01 X-13.8150 Y19.4587 
G01 X-13.7500 Y19.3017 
G01 X-13.7168 Y19.1350 
G01 X-13.7168 Y18.9650 
G01 X-13.7500 Y18.7983 
G01 X-13.8150 Y18.6413 
G01 X-13.9094 Y18.5000 
G01 X-14.0296 Y18.3798 
G01 X-14.1709 Y18.2854 
G01 X-14.3279 Y18.2204 
G01 X-14.4946 Y18.1872 
G00 Z2.5400 
G00 X-14.4946 Y20.7272 
G01 Z-0.1778 F254.00 
G01 X-15.9854 Y20.7272 F508.00 
G01 X-16.1521 Y20.7604 
G01 X-16.3091 Y20.8254 
G01 X-16.4504 Y20.9198 
G01 X-16.5706 Y21.0400 
G01 X-16.6650 Y21.1813 
G01 X-16.7300 Y21.3383 
G01 X-16.7632 Y21.5050 
G01 X-16.7632 Y21.6750 
G01 X-16.7300 Y21.8417 
G01 X-16.6650 Y21.9987 
G01 X-16.5706 Y22.1400 
G01 X-16.4504 Y22.2602 
G01 X-16.3091 Y22.3546 
G01 X-16.1521 Y22.4196 
G01 X-15.9854 Y22.4528 
G01 X-14.4946 Y22.4528 
G01 X-14.3279 Y22.4196 
G01 X-14.1709 Y22.3546 
G01 X-14.0296 Y22.2602 
G01 X-13.9094 Y22.1400 
G01 X-13.8150 Y21.9987 
G01 X-13.7500 Y21.8417 
G01 X-13.7168 Y21.6750 
G01 X-13.7168 Y21.5050 
G01 X-13.7500 Y21.3383 
G01 X-13.8150 Y21.1813 
G01 X-13.9094 Y21.0400 
G01 X-14.0296 Y20.9198 
G01 X-14.1709 Y20.8254 
G01 X-14.3279 Y20.7604 
G01 X-14.4946 Y20.7272 
G00 Z2.5400 
G00 X-14.4946 Y23.2672 
G01 Z-0.1778 F254.00 
G01 X-15.9854 Y23.2672 F508.00 
G01 X-16.1521 Y23.3004 
G01 X-16.3091 Y23.3654 
G01 X-16.4504 Y23.4598 
G01 X-16.5706 Y23.5800 
G01 X-16.6650 Y23.7213 
G01 X-16.7300 Y23.8783 
G01 X-16.7632 Y24.0450 
G01 X-16.7632 Y24.2150 
G01 X-16.7300 Y24.3817 
G01 X-16.6650 Y24.5387 
G01 X-16.5706 Y24.6800 
G01 X-16.4504 Y24.8002 
G01 X-16.3091 Y24.8946 
G01 X-16.1521 Y24.9596 
G01 X-15.9854 Y24.9928 
G01 X-14.4946 Y24.9928 
G01 X-14.3279 Y24.9596 
G01 X-14.1709 Y24.8946 
G01 X-14.0296 Y24.8002 
G01 X-13.9094 Y24.6800 
G01 X-13.8150 Y24.5387 
G01 X-13.7500 Y24.3817 
G01 X-13.7168 Y24.2150 
G01 X-13.7168 Y24.0450 
G01 X-13.7500 Y23.8783 
G01 X-13.8150 Y23.7213 
G01 X-13.9094 Y23.5800 
G01 X-14.0296 Y23.4598 
G01 X-14.1709 Y23.3654 
G01 X-14.3279 Y23.3004 
G01 X-14.4946 Y23.2672 
G00 Z2.5400 
G00 X-14.4946 Y28.3472 
G01 Z-0.1778 F254.00 
G01 X-15.9854 Y28.3472 F508.00 
G01 X-16.1521 Y28.3804 
G01 X-16.3091 Y28.4454 
G01 X-16.4504 Y28.5398 
G01 X-16.5706 Y28.6600 
G01 X-16.6650 Y28.8013 
G01 X-16.7300 Y28.9583 
G01 X-16.7632 Y29.1250 
G01 X-16.7632 Y29.2950 
G01 X-16.7300 Y29.4617 
G01 X-16.6650 Y29.6187 
G01 X-16.5706 Y29.7600 
G01 X-16.4504 Y29.8802 
G01 X-16.3091 Y29.9746 
G01 X-16.1521 Y30.0396 
G01 X-15.9854 Y30.0728 
G01 X-14.4946 Y30.0728 
G01 X-14.3279 Y30.0396 
G01 X-14.1709 Y29.9746 
G01 X-14.0296 Y29.8802 
G01 X-13.9094 Y29.7600 
G01 X-13.8150 Y29.6187 
G01 X-13.7500 Y29.4617 
G01 X-13.7168 Y29.2950 
G01 X-13.7168 Y29.1250 
G01 X-13.7500 Y28.9583 
G01 X-13.8150 Y28.8013 
G01 X-13.9094 Y28.6600 
G01 X-14.0296 Y28.5398 
G01 X-14.1709 Y28.4454 
G01 X-14.3279 Y28.3804 
G01 X-14.4946 Y28.3472 
G00 Z2.5400 
G00 X-14.4946 Y30.8872 
G01 Z-0.1778 F254.00 
G01 X-15.9854 Y30.8872 F508.00 
G01 X-16.1521 Y30.9204 
G01 X-16.3091 Y30.9854 
G01 X-16.4504 Y31.0798 
G01 X-16.5706 Y31.2000 
G01 X-16.6650 Y31.3413 
G01 X-16.7300 Y31.4983 
G01 X-16.7632 Y31.6650 
G01 X-16.7632 Y31.8350 
G01 X-16.7300 Y32.0017 
G01 X-16.6650 Y32.1587 
G01 X-16.5706 Y32.3000 
G01 X-16.4504 Y32.4202 
G01 X-16.3091 Y32.5146 
G01 X-16.1521 Y32.5796 
G01 X-15.9854 Y32.6128 
G01 X-14.4946 Y32.6128 
G01 X-14.3279 Y32.5796 
G01 X-14.1709 Y32.5146 
G01 X-14.0296 Y32.4202 
G01 X-13.9094 Y32.3000 
G01 X-13.8150 Y32.1587 
G01 X-13.7500 Y32.0017 
G01 X-13.7168 Y31.8350 
G01 X-13.7168 Y31.6650 
G01 X-13.7500 Y31.4983 
G01 X-13.8150 Y31.3413 
G01 X-13.9094 Y31.2000 
G01 X-14.0296 Y31.0798 
G01 X-14.1709 Y30.9854 
G01 X-14.3279 Y30.9204 
G01 X-14.4946 Y30.8872 
G00 Z2.5400 
G00 X-14.4946 Y35.9672 
G01 Z-0.1778 F254.00 
G01 X-15.6370 Y35.9672 F508.00 
G01 X-21.3264 Y30.2777 
G01 X-21.3877 Y30.2164 
G01 X-21.4629 Y30.1730 
G01 X-21.5466 Y30.1506 
G01 X-43.0436 Y30.1506 
G01 X-49.0736 Y24.1206 
G01 X-49.0736 Y24.0350 
G01 X-49.1107 Y23.8487 
G01 X-49.1834 Y23.6732 
G01 X-43.3823 Y29.4736 
G01 X-43.3071 Y29.5170 
G01 X-43.2234 Y29.5394 
G01 X-20.4564 Y29.5394 
G01 X-16.4058 Y33.5900 
G01 X-16.4504 Y33.6198 
G01 X-16.5706 Y33.7400 
G01 X-16.6650 Y33.8813 
G01 X-16.7300 Y34.0383 
G01 X-16.7632 Y34.2050 
G01 X-16.7632 Y34.3750 
G01 X-16.7300 Y34.5417 
G01 X-16.6650 Y34.6987 
G01 X-16.5706 Y34.8400 
G01 X-16.4504 Y34.9602 
G01 X-16.3091 Y35.0546 
G01 X-16.1521 Y35.1196 
G01 X-15.9854 Y35.1528 
G01 X-14.4946 Y35.1528 
G01 X-14.3279 Y35.1196 
G01 X-14.1709 Y35.0546 
G01 X-14.0296 Y34.9602 
G01 X-13.9094 Y34.8400 
G01 X-13.8150 Y34.6987 
G01 X-13.7500 Y34.5417 
G01 X-13.7168 Y34.3750 
G01 X-13.7168 Y34.2050 
G01 X-13.7500 Y34.0383 
G01 X-13.8150 Y33.8813 
G01 X-13.9094 Y33.7400 
G01 X-14.0296 Y33.6198 
G01 X-14.1709 Y33.5254 
G01 X-14.3279 Y33.4604 
G01 X-14.4946 Y33.4272 
G01 X-15.6370 Y33.4272 
G01 X-20.0564 Y29.0077 
G01 X-20.1177 Y28.9464 
G01 X-20.1929 Y28.9030 
G01 X-20.2766 Y28.8806 
G01 X-22.5696 Y28.8806 
G01 X-22.4513 Y28.8316 
G01 X-22.3100 Y28.7372 
G01 X-22.1898 Y28.6170 
G01 X-22.0954 Y28.4757 
G01 X-22.0304 Y28.3187 
G01 X-21.9972 Y28.1520 
G01 X-21.9972 Y27.9820 
G01 X-22.0304 Y27.8153 
G01 X-22.0954 Y27.6583 
G01 X-22.1898 Y27.5170 
G01 X-22.3100 Y27.3968 
G01 X-22.4513 Y27.3024 
G01 X-22.6083 Y27.2374 
G01 X-22.7750 Y27.2042 
G01 X-22.9450 Y27.2042 
G01 X-23.1117 Y27.2374 
G01 X-23.2687 Y27.3024 
G01 X-23.4100 Y27.3968 
G01 X-23.5302 Y27.5170 
G01 X-23.6246 Y27.6583 
G01 X-23.6896 Y27.8153 
G01 X-23.7228 Y27.9820 
G01 X-23.7228 Y28.1520 
G01 X-23.6896 Y28.3187 
G01 X-23.6246 Y28.4757 
G01 X-23.5302 Y28.6170 
G01 X-23.4100 Y28.7372 
G01 X-23.2687 Y28.8316 
G01 X-23.1504 Y28.8806 
G01 X-30.0029 Y28.8806 
G01 X-29.4775 Y28.3552 
G01 X-29.4775 Y27.5248 
G01 X-29.5382 Y27.4640 
G01 X-29.0736 Y26.9994 
G01 X-16.6978 Y26.9994 
G01 X-16.6650 Y27.0787 
G01 X-16.5706 Y27.2200 
G01 X-16.4504 Y27.3402 
G01 X-16.3091 Y27.4346 
G01 X-16.1521 Y27.4996 
G01 X-15.9854 Y27.5328 
G01 X-14.4946 Y27.5328 
G01 X-14.3279 Y27.4996 
G01 X-14.1709 Y27.4346 
G01 X-14.0296 Y27.3402 
G01 X-13.9094 Y27.2200 
G01 X-13.8150 Y27.0787 
G01 X-13.7500 Y26.9217 
G01 X-13.7168 Y26.7550 
G01 X-13.7168 Y26.5850 
G01 X-13.7500 Y26.4183 
G01 X-13.8150 Y26.2613 
G01 X-13.9094 Y26.1200 
G01 X-14.0296 Y25.9998 
G01 X-14.1709 Y25.9054 
G01 X-14.3279 Y25.8404 
G01 X-14.4946 Y25.8072 
G01 X-15.9854 Y25.8072 
G01 X-16.1521 Y25.8404 
G01 X-16.3091 Y25.9054 
G01 X-16.4504 Y25.9998 
G01 X-16.5706 Y26.1200 
G01 X-16.6650 Y26.2613 
G01 X-16.6978 Y26.3406 
G01 X-29.2534 Y26.3406 
G01 X-29.3371 Y26.3630 
G01 X-29.4123 Y26.4064 
G01 X-29.4736 Y26.4677 
G01 X-30.0040 Y26.9982 
G01 X-30.0648 Y26.9375 
G01 X-30.8952 Y26.9375 
G01 X-31.4825 Y27.5248 
G01 X-31.4825 Y28.3552 
G01 X-30.9571 Y28.8806 
G01 X-43.0436 Y28.8806 
G01 X-49.5202 Y22.4039 
G01 X-49.4232 Y22.3391 
G01 X-49.2889 Y22.2048 
G01 X-49.1834 Y22.0468 
G01 X-49.1107 Y21.8713 
G01 X-49.0736 Y21.6850 
G01 X-49.0736 Y21.4950 
G01 X-49.1107 Y21.3087 
G01 X-49.1834 Y21.1332 
G01 X-49.2889 Y20.9752 
G01 X-49.4232 Y20.8409 
G01 X-49.5812 Y20.7354 
G01 X-49.7567 Y20.6627 
G01 X-49.9430 Y20.6256 
G01 X-51.6570 Y20.6256 
G01 X-51.8433 Y20.6627 
G01 X-52.0188 Y20.7354 
G01 X-52.1768 Y20.8409 
G01 X-52.3111 Y20.9752 
G01 X-52.4166 Y21.1332 
G01 X-52.4893 Y21.3087 
G01 X-52.5264 Y21.4950 
G01 X-52.5264 Y21.6850 
G01 X-52.4893 Y21.8713 
G01 X-52.4166 Y22.0468 
G01 X-52.3111 Y22.2048 
G01 X-52.1768 Y22.3391 
G01 X-52.0188 Y22.4446 
G01 X-51.8433 Y22.5173 
G01 X-51.6570 Y22.5544 
G01 X-50.3014 Y22.5544 
G01 X-49.5790 Y23.2768 
G01 X-49.7567 Y23.2027 
G01 X-49.9430 Y23.1656 
G01 X-51.6570 Y23.1656 
G01 X-51.8433 Y23.2027 
G01 X-52.0188 Y23.2754 
G01 X-52.1768 Y23.3809 
G01 X-52.3111 Y23.5152 
G01 X-52.4166 Y23.6732 
G01 X-52.4893 Y23.8487 
G01 X-52.5264 Y24.0350 
G01 X-52.5264 Y24.2250 
G01 X-52.4893 Y24.4113 
G01 X-52.4166 Y24.5868 
G01 X-52.3111 Y24.7448 
G01 X-52.1768 Y24.8791 
G01 X-52.0188 Y24.9846 
G01 X-51.8433 Y25.0573 
G01 X-51.6570 Y25.0944 
G01 X-49.9430 Y25.0944 
G01 X-49.7567 Y25.0573 
G01 X-49.5812 Y24.9846 
G01 X-49.4232 Y24.8791 
G01 X-49.3350 Y24.7909 
G01 X-43.3823 Y30.7436 
G01 X-43.3071 Y30.7870 
G01 X-43.2234 Y30.8094 
G01 X-30.9571 Y30.8094 
G01 X-31.4825 Y31.3348 
G01 X-31.4825 Y32.1652 
G01 X-30.8952 Y32.7525 
G01 X-30.0648 Y32.7525 
G01 X-29.4775 Y32.1652 
G01 X-29.4775 Y31.3348 
G01 X-30.0029 Y30.8094 
G01 X-21.7264 Y30.8094 
G01 X-16.4058 Y36.1300 
G01 X-16.4504 Y36.1598 
G01 X-16.5706 Y36.2800 
G01 X-16.6650 Y36.4213 
G01 X-16.7300 Y36.5783 
G01 X-16.7632 Y36.7450 
G01 X-16.7632 Y36.9150 
G01 X-16.7300 Y37.0817 
G01 X-16.6650 Y37.2387 
G01 X-16.5706 Y37.3800 
G01 X-16.4504 Y37.5002 
G01 X-16.3091 Y37.5946 
G01 X-16.1521 Y37.6596 
G01 X-15.9854 Y37.6928 
G01 X-14.4946 Y37.6928 
G01 X-14.3279 Y37.6596 
G01 X-14.1709 Y37.5946 
G01 X-14.0296 Y37.5002 
G01 X-13.9094 Y37.3800 
G01 X-13.8150 Y37.2387 
G01 X-13.7500 Y37.0817 
G01 X-13.7168 Y36.9150 
G01 X-13.7168 Y36.7450 
G01 X-13.7500 Y36.5783 
G01 X-13.8150 Y36.4213 
G01 X-13.9094 Y36.2800 
G01 X-14.0296 Y36.1598 
G01 X-14.1709 Y36.0654 
G01 X-14.3279 Y36.0004 
G01 X-14.4946 Y35.9672 
G00 Z2.5400 
G00 X-6.8746 Y41.0472 
G01 Z-0.1778 F254.00 
G01 X-8.3654 Y41.0472 F508.00 
G01 X-8.5321 Y41.0804 
G01 X-8.6891 Y41.1454 
G01 X-8.8304 Y41.2398 
G01 X-8.9506 Y41.3600 
G01 X-9.0450 Y41.5013 
G01 X-9.1100 Y41.6583 
G01 X-9.1432 Y41.8250 
G01 X-9.1432 Y41.9950 
G01 X-9.1100 Y42.1617 
G01 X-9.0450 Y42.3187 
G01 X-8.9506 Y42.4600 
G01 X-8.8304 Y42.5802 
G01 X-8.7858 Y42.6100 
G01 X-9.0264 Y42.8506 
G01 X-40.5036 Y42.8506 
G01 X-49.5202 Y33.8339 
G01 X-49.4232 Y33.7691 
G01 X-49.2889 Y33.6348 
G01 X-49.1834 Y33.4768 
G01 X-49.1107 Y33.3013 
G01 X-49.0736 Y33.1150 
G01 X-49.0736 Y32.9250 
G01 X-49.1107 Y32.7387 
G01 X-49.1834 Y32.5632 
G01 X-39.5723 Y42.1736 
G01 X-39.4971 Y42.2170 
G01 X-39.4134 Y42.2394 
G01 X-16.6978 Y42.2394 
G01 X-16.6650 Y42.3187 
G01 X-16.5706 Y42.4600 
G01 X-16.4504 Y42.5802 
G01 X-16.3091 Y42.6746 
G01 X-16.1521 Y42.7396 
G01 X-15.9854 Y42.7728 
G01 X-14.4946 Y42.7728 
G01 X-14.3279 Y42.7396 
G01 X-14.1709 Y42.6746 
G01 X-14.0296 Y42.5802 
G01 X-13.9094 Y42.4600 
G01 X-13.8150 Y42.3187 
G01 X-13.7500 Y42.1617 
G01 X-13.7168 Y41.9950 
G01 X-13.7168 Y41.8250 
G01 X-13.7500 Y41.6583 
G01 X-13.8150 Y41.5013 
G01 X-13.9094 Y41.3600 
G01 X-14.0296 Y41.2398 
G01 X-14.1709 Y41.1454 
G01 X-14.3279 Y41.0804 
G01 X-14.4946 Y41.0472 
G01 X-15.9854 Y41.0472 
G01 X-16.1521 Y41.0804 
G01 X-16.3091 Y41.1454 
G01 X-16.4504 Y41.2398 
G01 X-16.5706 Y41.3600 
G01 X-16.6650 Y41.5013 
G01 X-16.6978 Y41.5806 
G01 X-39.2336 Y41.5806 
G01 X-49.5202 Y31.2939 
G01 X-49.4232 Y31.2291 
G01 X-49.2889 Y31.0948 
G01 X-49.1834 Y30.9368 
G01 X-49.1107 Y30.7613 
G01 X-49.0736 Y30.5750 
G01 X-49.0736 Y30.3850 
G01 X-49.1107 Y30.1987 
G01 X-49.1834 Y30.0232 
G01 X-49.2889 Y29.8652 
G01 X-49.4232 Y29.7309 
G01 X-49.5812 Y29.6254 
G01 X-49.7567 Y29.5527 
G01 X-49.9430 Y29.5156 
G01 X-51.6570 Y29.5156 
G01 X-51.8433 Y29.5527 
G01 X-52.0188 Y29.6254 
G01 X-52.1768 Y29.7309 
G01 X-52.3111 Y29.8652 
G01 X-52.4166 Y30.0232 
G01 X-52.4893 Y30.1987 
G01 X-52.5264 Y30.3850 
G01 X-52.5264 Y30.5750 
G01 X-52.4893 Y30.7613 
G01 X-52.4166 Y30.9368 
G01 X-52.3111 Y31.0948 
G01 X-52.1768 Y31.2291 
G01 X-52.0188 Y31.3346 
G01 X-51.8433 Y31.4073 
G01 X-51.6570 Y31.4444 
G01 X-50.3014 Y31.4444 
G01 X-49.5790 Y32.1668 
G01 X-49.7567 Y32.0927 
G01 X-49.9430 Y32.0556 
G01 X-51.6570 Y32.0556 
G01 X-51.8433 Y32.0927 
G01 X-52.0188 Y32.1654 
G01 X-52.1768 Y32.2709 
G01 X-52.3111 Y32.4052 
G01 X-52.4166 Y32.5632 
G01 X-52.4893 Y32.7387 
G01 X-52.5264 Y32.9250 
G01 X-52.5264 Y33.1150 
G01 X-52.4893 Y33.3013 
G01 X-52.4166 Y33.4768 
G01 X-52.3111 Y33.6348 
G01 X-52.1768 Y33.7691 
G01 X-52.0188 Y33.8746 
G01 X-51.8433 Y33.9473 
G01 X-51.6570 Y33.9844 
G01 X-50.3014 Y33.9844 
G01 X-49.5790 Y34.7068 
G01 X-49.7567 Y34.6327 
G01 X-49.9430 Y34.5956 
G01 X-51.6570 Y34.5956 
G01 X-51.8433 Y34.6327 
G01 X-52.0188 Y34.7054 
G01 X-52.1768 Y34.8109 
G01 X-52.3111 Y34.9452 
G01 X-52.4166 Y35.1032 
G01 X-52.4893 Y35.2787 
G01 X-52.5264 Y35.4650 
G01 X-52.5264 Y35.6550 
G01 X-52.4893 Y35.8413 
G01 X-52.4166 Y36.0168 
G01 X-52.3111 Y36.1748 
G01 X-52.1768 Y36.3091 
G01 X-52.0188 Y36.4146 
G01 X-51.8433 Y36.4873 
G01 X-51.6570 Y36.5244 
G01 X-49.9430 Y36.5244 
G01 X-49.7567 Y36.4873 
G01 X-49.5812 Y36.4146 
G01 X-49.4232 Y36.3091 
G01 X-49.2889 Y36.1748 
G01 X-49.1834 Y36.0168 
G01 X-49.1107 Y35.8413 
G01 X-49.0736 Y35.6550 
G01 X-49.0736 Y35.4650 
G01 X-49.1107 Y35.2787 
G01 X-49.1834 Y35.1032 
G01 X-40.8423 Y43.4436 
G01 X-40.7671 Y43.4870 
G01 X-40.6834 Y43.5094 
G01 X-8.8466 Y43.5094 
G01 X-8.7629 Y43.4870 
G01 X-8.6877 Y43.4436 
G01 X-8.6264 Y43.3823 
G01 X-8.0170 Y42.7728 
G01 X-6.8746 Y42.7728 
G01 X-6.7079 Y42.7396 
G01 X-6.5509 Y42.6746 
G01 X-6.4096 Y42.5802 
G01 X-6.2894 Y42.4600 
G01 X-6.1950 Y42.3187 
G01 X-6.1300 Y42.1617 
G01 X-6.0968 Y41.9950 
G01 X-6.0968 Y41.8250 
G01 X-6.1300 Y41.6583 
G01 X-6.1950 Y41.5013 
G01 X-6.2894 Y41.3600 
G01 X-6.4096 Y41.2398 
G01 X-6.5509 Y41.1454 
G01 X-6.7079 Y41.0804 
G01 X-6.8746 Y41.0472 
G00 Z2.5400 
G00 X-6.8746 Y38.5072 
G01 Z-0.1778 F254.00 
G01 X-8.3654 Y38.5072 F508.00 
G01 X-8.5321 Y38.5404 
G01 X-8.6891 Y38.6054 
G01 X-8.8304 Y38.6998 
G01 X-8.9506 Y38.8200 
G01 X-9.0450 Y38.9613 
G01 X-9.1100 Y39.1183 
G01 X-9.1432 Y39.2850 
G01 X-9.1432 Y39.4550 
G01 X-9.1100 Y39.6217 
G01 X-9.0450 Y39.7787 
G01 X-8.9506 Y39.9200 
G01 X-8.8304 Y40.0402 
G01 X-8.7858 Y40.0700 
G01 X-9.0264 Y40.3106 
G01 X-36.1975 Y40.3106 
G01 X-36.2005 Y40.3035 
G01 X-36.2782 Y40.1871 
G01 X-36.3771 Y40.0882 
G01 X-36.4935 Y40.0104 
G01 X-36.6228 Y39.9569 
G01 X-36.7600 Y39.9296 
G01 X-36.9000 Y39.9296 
G01 X-37.0372 Y39.9569 
G01 X-37.1665 Y40.0104 
G01 X-37.2829 Y40.0882 
G01 X-37.3818 Y40.1871 
G01 X-37.4595 Y40.3035 
G01 X-37.5131 Y40.4328 
G01 X-37.5404 Y40.5700 
G01 X-37.5404 Y40.7100 
G01 X-37.5131 Y40.8472 
G01 X-37.4595 Y40.9765 
G01 X-37.3818 Y41.0929 
G01 X-37.2829 Y41.1918 
G01 X-37.1665 Y41.2695 
G01 X-37.0372 Y41.3231 
G01 X-36.9000 Y41.3504 
G01 X-36.7600 Y41.3504 
G01 X-36.6228 Y41.3231 
G01 X-36.4935 Y41.2695 
G01 X-36.3771 Y41.1918 
G01 X-36.2782 Y41.0929 
G01 X-36.2005 Y40.9765 
G01 X-36.1975 Y40.9694 
G01 X-8.8466 Y40.9694 
G01 X-8.7629 Y40.9470 
G01 X-8.6877 Y40.9036 
G01 X-8.6264 Y40.8423 
G01 X-8.0170 Y40.2328 
G01 X-6.8746 Y40.2328 
G01 X-6.7079 Y40.1996 
G01 X-6.5509 Y40.1346 
G01 X-6.4096 Y40.0402 
G01 X-6.2894 Y39.9200 
G01 X-6.1950 Y39.7787 
G01 X-6.1300 Y39.6217 
G01 X-6.0968 Y39.4550 
G01 X-6.0968 Y39.2850 
G01 X-6.1300 Y39.1183 
G01 X-6.1950 Y38.9613 
G01 X-6.2894 Y38.8200 
G01 X-6.4096 Y38.6998 
G01 X-6.5509 Y38.6054 
G01 X-6.7079 Y38.5404 
G01 X-6.8746 Y38.5072 
G00 Z2.5400 
G00 X-6.8746 Y35.9672 
G01 Z-0.1778 F254.00 
G01 X-8.3654 Y35.9672 F508.00 
G01 X-8.5321 Y36.0004 
G01 X-8.6891 Y36.0654 
G01 X-8.8304 Y36.1598 
G01 X-8.9506 Y36.2800 
G01 X-9.0450 Y36.4213 
G01 X-9.1100 Y36.5783 
G01 X-9.1432 Y36.7450 
G01 X-9.1432 Y36.9150 
G01 X-9.1100 Y37.0817 
G01 X-9.0450 Y37.2387 
G01 X-8.9506 Y37.3800 
G01 X-8.8304 Y37.5002 
G01 X-8.7858 Y37.5300 
G01 X-9.0264 Y37.7706 
G01 X-40.0075 Y37.7706 
G01 X-40.0104 Y37.7635 
G01 X-40.0882 Y37.6471 
G01 X-40.1871 Y37.5482 
G01 X-40.3035 Y37.4704 
G01 X-40.4328 Y37.4169 
G01 X-40.5700 Y37.3896 
G01 X-40.7100 Y37.3896 
G01 X-40.8472 Y37.4169 
G01 X-40.9765 Y37.4704 
G01 X-41.0929 Y37.5482 
G01 X-41.1918 Y37.6471 
G01 X-41.2695 Y37.7635 
G01 X-41.3231 Y37.8928 
G01 X-41.3504 Y38.0300 
G01 X-41.3504 Y38.1700 
G01 X-41.3445 Y38.1997 
G01 X-47.9306 Y31.6136 
G01 X-47.9306 Y26.6266 
G01 X-47.9530 Y26.5429 
G01 X-47.9964 Y26.4677 
G01 X-48.0577 Y26.4064 
G01 X-48.1329 Y26.3630 
G01 X-48.2166 Y26.3406 
G01 X-49.1306 Y26.3406 
G01 X-49.1834 Y26.2132 
G01 X-49.2889 Y26.0552 
G01 X-49.4232 Y25.9209 
G01 X-49.5812 Y25.8154 
G01 X-49.7567 Y25.7427 
G01 X-49.9430 Y25.7056 
G01 X-51.6570 Y25.7056 
G01 X-51.8433 Y25.7427 
G01 X-52.0188 Y25.8154 
G01 X-52.1768 Y25.9209 
G01 X-52.3111 Y26.0552 
G01 X-52.4166 Y26.2132 
G01 X-52.4893 Y26.3887 
G01 X-52.5264 Y26.5750 
G01 X-52.5264 Y26.7650 
G01 X-52.4893 Y26.9513 
G01 X-52.4166 Y27.1268 
G01 X-52.3111 Y27.2848 
G01 X-52.1768 Y27.4191 
G01 X-52.0188 Y27.5246 
G01 X-51.8433 Y27.5973 
G01 X-51.6570 Y27.6344 
G01 X-49.9430 Y27.6344 
G01 X-49.7567 Y27.5973 
G01 X-49.5812 Y27.5246 
G01 X-49.4232 Y27.4191 
G01 X-49.2889 Y27.2848 
G01 X-49.1834 Y27.1268 
G01 X-49.1306 Y26.9994 
G01 X-48.5894 Y26.9994 
G01 X-48.5894 Y31.7934 
G01 X-48.5670 Y31.8771 
G01 X-48.5236 Y31.9523 
G01 X-48.4623 Y32.0136 
G01 X-40.8423 Y39.6336 
G01 X-40.7671 Y39.6770 
G01 X-40.6834 Y39.6994 
G01 X-16.6978 Y39.6994 
G01 X-16.6650 Y39.7787 
G01 X-16.5706 Y39.9200 
G01 X-16.4504 Y40.0402 
G01 X-16.3091 Y40.1346 
G01 X-16.1521 Y40.1996 
G01 X-15.9854 Y40.2328 
G01 X-14.4946 Y40.2328 
G01 X-14.3279 Y40.1996 
G01 X-14.1709 Y40.1346 
G01 X-14.0296 Y40.0402 
G01 X-13.9094 Y39.9200 
G01 X-13.8150 Y39.7787 
G01 X-13.7500 Y39.6217 
G01 X-13.7168 Y39.4550 
G01 X-13.7168 Y39.2850 
G01 X-13.7500 Y39.1183 
G01 X-13.8150 Y38.9613 
G01 X-13.9094 Y38.8200 
G01 X-14.0296 Y38.6998 
G01 X-14.1709 Y38.6054 
G01 X-14.3279 Y38.5404 
G01 X-14.4946 Y38.5072 
G01 X-15.9854 Y38.5072 
G01 X-16.1521 Y38.5404 
G01 X-16.3091 Y38.6054 
G01 X-16.4504 Y38.6998 
G01 X-16.5706 Y38.8200 
G01 X-16.6650 Y38.9613 
G01 X-16.6978 Y39.0406 
G01 X-40.5036 Y39.0406 
G01 X-40.7397 Y38.8045 
G01 X-40.7100 Y38.8104 
G01 X-40.5700 Y38.8104 
G01 X-40.4328 Y38.7831 
G01 X-40.3035 Y38.7295 
G01 X-40.1871 Y38.6518 
G01 X-40.0882 Y38.5529 
G01 X-40.0104 Y38.4365 
G01 X-40.0075 Y38.4294 
G01 X-8.8466 Y38.4294 
G01 X-8.7629 Y38.4070 
G01 X-8.6877 Y38.3636 
G01 X-8.6264 Y38.3023 
G01 X-8.0170 Y37.6928 
G01 X-6.8746 Y37.6928 
G01 X-6.7079 Y37.6596 
G01 X-6.5509 Y37.5946 
G01 X-6.4096 Y37.5002 
G01 X-6.2894 Y37.3800 
G01 X-6.1950 Y37.2387 
G01 X-6.1300 Y37.0817 
G01 X-6.0968 Y36.9150 
G01 X-6.0968 Y36.7450 
G01 X-6.1300 Y36.5783 
G01 X-6.1950 Y36.4213 
G01 X-6.2894 Y36.2800 
G01 X-6.4096 Y36.1598 
G01 X-6.5509 Y36.0654 
G01 X-6.7079 Y36.0004 
G01 X-6.8746 Y35.9672 
G00 Z2.5400 
G00 X-6.8746 Y33.4272 
G01 Z-0.1778 F254.00 
G01 X-8.3654 Y33.4272 F508.00 
G01 X-8.5321 Y33.4604 
G01 X-8.6891 Y33.5254 
G01 X-8.8304 Y33.6198 
G01 X-8.9506 Y33.7400 
G01 X-9.0450 Y33.8813 
G01 X-9.1100 Y34.0383 
G01 X-9.1432 Y34.2050 
G01 X-9.1432 Y34.3750 
G01 X-9.1100 Y34.5417 
G01 X-9.0450 Y34.6987 
G01 X-8.9506 Y34.8400 
G01 X-8.8304 Y34.9602 
G01 X-8.6891 Y35.0546 
G01 X-8.5321 Y35.1196 
G01 X-8.3654 Y35.1528 
G01 X-7.2230 Y35.1528 
G01 X-5.4094 Y36.9664 
G01 X-5.4094 Y45.3906 
G01 X-45.5836 Y45.3906 
G01 X-49.5202 Y41.4539 
G01 X-49.4232 Y41.3891 
G01 X-49.2889 Y41.2548 
G01 X-49.1834 Y41.0968 
G01 X-49.1107 Y40.9213 
G01 X-49.0736 Y40.7350 
G01 X-49.0736 Y40.5450 
G01 X-49.1107 Y40.3587 
G01 X-49.1834 Y40.1832 
G01 X-49.2889 Y40.0252 
G01 X-49.4232 Y39.8909 
G01 X-49.5812 Y39.7854 
G01 X-49.7567 Y39.7127 
G01 X-49.9430 Y39.6756 
G01 X-51.6570 Y39.6756 
G01 X-51.8433 Y39.7127 
G01 X-52.0188 Y39.7854 
G01 X-52.1768 Y39.8909 
G01 X-52.3111 Y40.0252 
G01 X-52.4166 Y40.1832 
G01 X-52.4893 Y40.3587 
G01 X-52.5264 Y40.5450 
G01 X-52.5264 Y40.7350 
G01 X-52.4893 Y40.9213 
G01 X-52.4166 Y41.0968 
G01 X-52.3111 Y41.2548 
G01 X-52.1768 Y41.3891 
G01 X-52.0188 Y41.4946 
G01 X-51.8433 Y41.5673 
G01 X-51.6570 Y41.6044 
G01 X-50.3014 Y41.6044 
G01 X-49.5790 Y42.3268 
G01 X-49.7567 Y42.2527 
G01 X-49.9430 Y42.2156 
G01 X-51.6570 Y42.2156 
G01 X-51.8433 Y42.2527 
G01 X-52.0188 Y42.3254 
G01 X-52.1768 Y42.4309 
G01 X-52.3111 Y42.5652 
G01 X-52.4166 Y42.7232 
G01 X-52.4893 Y42.8987 
G01 X-52.5264 Y43.0850 
G01 X-52.5264 Y43.2750 
G01 X-52.4893 Y43.4613 
G01 X-52.4166 Y43.6368 
G01 X-52.3111 Y43.7948 
G01 X-52.1768 Y43.9291 
G01 X-52.0188 Y44.0346 
G01 X-51.8433 Y44.1073 
G01 X-51.6570 Y44.1444 
G01 X-49.9430 Y44.1444 
G01 X-49.7567 Y44.1073 
G01 X-49.5812 Y44.0346 
G01 X-49.4232 Y43.9291 
G01 X-49.2889 Y43.7948 
G01 X-49.1834 Y43.6368 
G01 X-49.1107 Y43.4613 
G01 X-49.0736 Y43.2750 
G01 X-49.0736 Y43.0850 
G01 X-49.1107 Y42.8987 
G01 X-49.1834 Y42.7232 
G01 X-45.9223 Y45.9836 
G01 X-45.8471 Y46.0269 
G01 X-45.7634 Y46.0494 
G01 X-6.0946 Y46.0494 
G01 X-6.1204 Y46.1117 
G01 X-6.1204 Y50.4083 
G01 X-6.0896 Y50.4826 
G01 X-6.0327 Y50.5396 
G01 X-5.9583 Y50.5704 
G01 X-1.6617 Y50.5704 
G01 X-1.5873 Y50.5396 
G01 X-1.5304 Y50.4826 
G01 X-1.4996 Y50.4083 
G01 X-1.4996 Y46.1117 
G01 X-1.5304 Y46.0373 
G01 X-1.5873 Y45.9804 
G01 X-1.6617 Y45.9496 
G01 X-4.8438 Y45.9496 
G01 X-4.8164 Y45.9223 
G01 X-4.7730 Y45.8471 
G01 X-4.7506 Y45.7634 
G01 X-4.7506 Y36.7866 
G01 X-4.7730 Y36.7029 
G01 X-4.8164 Y36.6277 
G01 X-4.8777 Y36.5664 
G01 X-6.4542 Y34.9900 
G01 X-6.4096 Y34.9602 
G01 X-6.2894 Y34.8400 
G01 X-6.1950 Y34.6987 
G01 X-6.1300 Y34.5417 
G01 X-6.0968 Y34.3750 
G01 X-6.0968 Y34.2050 
G01 X-6.1300 Y34.0383 
G01 X-6.1950 Y33.8813 
G01 X-6.2894 Y33.7400 
G01 X-6.4096 Y33.6198 
G01 X-6.5509 Y33.5254 
G01 X-6.7079 Y33.4604 
G01 X-6.8746 Y33.4272 
G00 Z2.5400 
G00 X-6.8746 Y30.8872 
G01 Z-0.1778 F254.00 
G01 X-8.3654 Y30.8872 F508.00 
G01 X-8.5321 Y30.9204 
G01 X-8.6891 Y30.9854 
G01 X-8.8304 Y31.0798 
G01 X-8.9506 Y31.2000 
G01 X-9.0450 Y31.3413 
G01 X-9.1100 Y31.4983 
G01 X-9.1432 Y31.6650 
G01 X-9.1432 Y31.8350 
G01 X-9.1100 Y32.0017 
G01 X-9.0450 Y32.1587 
G01 X-8.9506 Y32.3000 
G01 X-8.8304 Y32.4202 
G01 X-8.6891 Y32.5146 
G01 X-8.5321 Y32.5796 
G01 X-8.3654 Y32.6128 
G01 X-6.8746 Y32.6128 
G01 X-6.7079 Y32.5796 
G01 X-6.5509 Y32.5146 
G01 X-6.4096 Y32.4202 
G01 X-6.2894 Y32.3000 
G01 X-6.1950 Y32.1587 
G01 X-6.1300 Y32.0017 
G01 X-6.0968 Y31.8350 
G01 X-6.0968 Y31.6650 
G01 X-6.1300 Y31.4983 
G01 X-6.1950 Y31.3413 
G01 X-6.2894 Y31.2000 
G01 X-6.4096 Y31.0798 
G01 X-6.5509 Y30.9854 
G01 X-6.7079 Y30.9204 
G01 X-6.8746 Y30.8872 
G00 Z2.5400 
G00 X-6.8746 Y28.3472 
G01 Z-0.1778 F254.00 
G01 X-8.3654 Y28.3472 F508.00 
G01 X-8.5321 Y28.3804 
G01 X-8.6891 Y28.4454 
G01 X-8.8304 Y28.5398 
G01 X-8.9506 Y28.6600 
G01 X-9.0450 Y28.8013 
G01 X-9.1100 Y28.9583 
G01 X-9.1432 Y29.1250 
G01 X-9.1432 Y29.2950 
G01 X-9.1100 Y29.4617 
G01 X-9.0450 Y29.6187 
G01 X-8.9506 Y29.7600 
G01 X-8.8304 Y29.8802 
G01 X-8.6891 Y29.9746 
G01 X-8.5321 Y30.0396 
G01 X-8.3654 Y30.0728 
G01 X-6.8746 Y30.0728 
G01 X-6.7079 Y30.0396 
G01 X-6.5509 Y29.9746 
G01 X-6.4096 Y29.8802 
G01 X-6.2894 Y29.7600 
G01 X-6.1950 Y29.6187 
G01 X-6.1300 Y29.4617 
G01 X-6.0968 Y29.2950 
G01 X-6.0968 Y29.1250 
G01 X-6.1300 Y28.9583 
G01 X-6.1950 Y28.8013 
G01 X-6.2894 Y28.6600 
G01 X-6.4096 Y28.5398 
G01 X-6.5509 Y28.4454 
G01 X-6.7079 Y28.3804 
G01 X-6.8746 Y28.3472 
G00 Z2.5400 
G00 X-6.8746 Y25.8072 
G01 Z-0.1778 F254.00 
G01 X-8.3654 Y25.8072 F508.00 
G01 X-8.5321 Y25.8404 
G01 X-8.6891 Y25.9054 
G01 X-8.8304 Y25.9998 
G01 X-8.9506 Y26.1200 
G01 X-9.0450 Y26.2613 
G01 X-9.1100 Y26.4183 
G01 X-9.1432 Y26.5850 
G01 X-9.1432 Y26.7550 
G01 X-9.1100 Y26.9217 
G01 X-9.0450 Y27.0787 
G01 X-8.9506 Y27.2200 
G01 X-8.8304 Y27.3402 
G01 X-8.6891 Y27.4346 
G01 X-8.5321 Y27.4996 
G01 X-8.3654 Y27.5328 
G01 X-6.8746 Y27.5328 
G01 X-6.7079 Y27.4996 
G01 X-6.5509 Y27.4346 
G01 X-6.4096 Y27.3402 
G01 X-6.2894 Y27.2200 
G01 X-6.1950 Y27.0787 
G01 X-6.1300 Y26.9217 
G01 X-6.0968 Y26.7550 
G01 X-6.0968 Y26.5850 
G01 X-6.1300 Y26.4183 
G01 X-6.1950 Y26.2613 
G01 X-6.2894 Y26.1200 
G01 X-6.4096 Y25.9998 
G01 X-6.5509 Y25.9054 
G01 X-6.7079 Y25.8404 
G01 X-6.8746 Y25.8072 
G00 Z2.5400 
G00 X-6.8746 Y23.2672 
G01 Z-0.1778 F254.00 
G01 X-8.3654 Y23.2672 F508.00 
G01 X-8.5321 Y23.3004 
G01 X-8.6891 Y23.3654 
G01 X-8.8304 Y23.4598 
G01 X-8.9506 Y23.5800 
G01 X-9.0450 Y23.7213 
G01 X-9.1100 Y23.8783 
G01 X-9.1432 Y24.0450 
G01 X-9.1432 Y24.2150 
G01 X-9.1100 Y24.3817 
G01 X-9.0450 Y24.5387 
G01 X-8.9506 Y24.6800 
G01 X-8.8304 Y24.8002 
G01 X-8.6891 Y24.8946 
G01 X-8.5321 Y24.9596 
G01 X-8.3654 Y24.9928 
G01 X-6.8746 Y24.9928 
G01 X-6.7079 Y24.9596 
G01 X-6.5509 Y24.8946 
G01 X-6.4096 Y24.8002 
G01 X-6.2894 Y24.6800 
G01 X-6.1950 Y24.5387 
G01 X-6.1300 Y24.3817 
G01 X-6.0968 Y24.2150 
G01 X-6.0968 Y24.0450 
G01 X-6.1300 Y23.8783 
G01 X-6.1950 Y23.7213 
G01 X-6.2894 Y23.5800 
G01 X-6.4096 Y23.4598 
G01 X-6.5509 Y23.3654 
G01 X-6.7079 Y23.3004 
G01 X-6.8746 Y23.2672 
G00 Z2.5400 
G00 X-6.8746 Y20.7272 
G01 Z-0.1778 F254.00 
G01 X-8.3654 Y20.7272 F508.00 
G01 X-8.5321 Y20.7604 
G01 X-8.6891 Y20.8254 
G01 X-8.8304 Y20.9198 
G01 X-8.9506 Y21.0400 
G01 X-9.0450 Y21.1813 
G01 X-9.1100 Y21.3383 
G01 X-9.1432 Y21.5050 
G01 X-9.1432 Y21.6750 
G01 X-9.1100 Y21.8417 
G01 X-9.0450 Y21.9987 
G01 X-8.9506 Y22.1400 
G01 X-8.8304 Y22.2602 
G01 X-8.6891 Y22.3546 
G01 X-8.5321 Y22.4196 
G01 X-8.3654 Y22.4528 
G01 X-6.8746 Y22.4528 
G01 X-6.7079 Y22.4196 
G01 X-6.5509 Y22.3546 
G01 X-6.4096 Y22.2602 
G01 X-6.2894 Y22.1400 
G01 X-6.1950 Y21.9987 
G01 X-6.1300 Y21.8417 
G01 X-6.0968 Y21.6750 
G01 X-6.0968 Y21.5050 
G01 X-6.1300 Y21.3383 
G01 X-6.1950 Y21.1813 
G01 X-6.2894 Y21.0400 
G01 X-6.4096 Y20.9198 
G01 X-6.5509 Y20.8254 
G01 X-6.7079 Y20.7604 
G01 X-6.8746 Y20.7272 
G00 Z2.5400 
G00 X-6.8746 Y18.1872 
G01 Z-0.1778 F254.00 
G01 X-8.3654 Y18.1872 F508.00 
G01 X-8.5321 Y18.2204 
G01 X-8.6891 Y18.2854 
G01 X-8.8304 Y18.3798 
G01 X-8.9506 Y18.5000 
G01 X-9.0450 Y18.6413 
G01 X-9.1100 Y18.7983 
G01 X-9.1432 Y18.9650 
G01 X-9.1432 Y19.1350 
G01 X-9.1100 Y19.3017 
G01 X-9.0450 Y19.4587 
G01 X-8.9506 Y19.6000 
G01 X-8.8304 Y19.7202 
G01 X-8.6891 Y19.8146 
G01 X-8.5321 Y19.8796 
G01 X-8.3654 Y19.9128 
G01 X-6.8746 Y19.9128 
G01 X-6.7079 Y19.8796 
G01 X-6.5509 Y19.8146 
G01 X-6.4096 Y19.7202 
G01 X-6.2894 Y19.6000 
G01 X-6.1950 Y19.4587 
G01 X-6.1300 Y19.3017 
G01 X-6.0968 Y19.1350 
G01 X-6.0968 Y18.9650 
G01 X-6.1300 Y18.7983 
G01 X-6.1950 Y18.6413 
G01 X-6.2894 Y18.5000 
G01 X-6.4096 Y18.3798 
G01 X-6.5509 Y18.2854 
G01 X-6.7079 Y18.2204 
G01 X-6.8746 Y18.1872 
G00 Z2.5400 
G00 X-6.8746 Y15.6472 
G01 Z-0.1778 F254.00 
G01 X-8.3654 Y15.6472 F508.00 
G01 X-8.5321 Y15.6804 
G01 X-8.6891 Y15.7454 
G01 X-8.8304 Y15.8398 
G01 X-8.9506 Y15.9600 
G01 X-9.0450 Y16.1013 
G01 X-9.1100 Y16.2583 
G01 X-9.1432 Y16.4250 
G01 X-9.1432 Y16.5950 
G01 X-9.1100 Y16.7617 
G01 X-9.0450 Y16.9187 
G01 X-8.9506 Y17.0600 
G01 X-8.8304 Y17.1802 
G01 X-8.6891 Y17.2746 
G01 X-8.5321 Y17.3396 
G01 X-8.3654 Y17.3728 
G01 X-6.8746 Y17.3728 
G01 X-6.7079 Y17.3396 
G01 X-6.5509 Y17.2746 
G01 X-6.4096 Y17.1802 
G01 X-6.2894 Y17.0600 
G01 X-6.1950 Y16.9187 
G01 X-6.1300 Y16.7617 
G01 X-6.0968 Y16.5950 
G01 X-6.0968 Y16.4250 
G01 X-6.1300 Y16.2583 
G01 X-6.1950 Y16.1013 
G01 X-6.2894 Y15.9600 
G01 X-6.4096 Y15.8398 
G01 X-6.5509 Y15.7454 
G01 X-6.7079 Y15.6804 
G01 X-6.8746 Y15.6472 
G00 Z2.5400 
G00 X-6.8746 Y13.1072 
G01 Z-0.1778 F254.00 
G01 X-8.3654 Y13.1072 F508.00 
G01 X-8.5321 Y13.1404 
G01 X-8.6891 Y13.2054 
G01 X-8.8304 Y13.2998 
G01 X-8.9506 Y13.4200 
G01 X-9.0450 Y13.5613 
G01 X-9.1100 Y13.7183 
G01 X-9.1432 Y13.8850 
G01 X-9.1432 Y14.0550 
G01 X-9.1100 Y14.2217 
G01 X-9.0450 Y14.3787 
G01 X-8.9506 Y14.5200 
G01 X-8.8304 Y14.6402 
G01 X-8.6891 Y14.7346 
G01 X-8.5321 Y14.7996 
G01 X-8.3654 Y14.8328 
G01 X-6.8746 Y14.8328 
G01 X-6.7079 Y14.7996 
G01 X-6.5509 Y14.7346 
G01 X-6.4096 Y14.6402 
G01 X-6.2894 Y14.5200 
G01 X-6.1950 Y14.3787 
G01 X-6.1300 Y14.2217 
G01 X-6.0968 Y14.0550 
G01 X-6.0968 Y13.8850 
G01 X-6.1300 Y13.7183 
G01 X-6.1950 Y13.5613 
G01 X-6.2894 Y13.4200 
G01 X-6.4096 Y13.2998 
G01 X-6.5509 Y13.2054 
G01 X-6.7079 Y13.1404 
G01 X-6.8746 Y13.1072 
G00 Z2.5400 
G00 X-6.8746 Y10.5672 
G01 Z-0.1778 F254.00 
G01 X-8.3654 Y10.5672 F508.00 
G01 X-8.5321 Y10.6004 
G01 X-8.6891 Y10.6654 
G01 X-8.8304 Y10.7598 
G01 X-8.9506 Y10.8800 
G01 X-9.0450 Y11.0213 
G01 X-9.1100 Y11.1783 
G01 X-9.1432 Y11.3450 
G01 X-9.1432 Y11.5150 
G01 X-9.1100 Y11.6817 
G01 X-9.0450 Y11.8387 
G01 X-8.9506 Y11.9800 
G01 X-8.8304 Y12.1002 
G01 X-8.6891 Y12.1946 
G01 X-8.5321 Y12.2596 
G01 X-8.3654 Y12.2928 
G01 X-6.8746 Y12.2928 
G01 X-6.7079 Y12.2596 
G01 X-6.5509 Y12.1946 
G01 X-6.4096 Y12.1002 
G01 X-6.2894 Y11.9800 
G01 X-6.1950 Y11.8387 
G01 X-6.1300 Y11.6817 
G01 X-6.0968 Y11.5150 
G01 X-6.0968 Y11.3450 
G01 X-6.1300 Y11.1783 
G01 X-6.1950 Y11.0213 
G01 X-6.2894 Y10.8800 
G01 X-6.4096 Y10.7598 
G01 X-6.5509 Y10.6654 
G01 X-6.7079 Y10.6004 
G01 X-6.8746 Y10.5672 
G00 Z2.5400 
