(.../pcb-gcode-3.6.0.4/pcb-gcode.ulp)
(Copyright 2005 - 2012 by John Johnson)
(See readme.txt for licensing terms.)
(This file generated from the board:)
(.../eagle/eagle/atmega module/shm.brd)
(Current profile is .../pcb-gcode-3.6.0.4/profiles/emc.pp  )
(This file generated 5/20/2014 11:26:56 AM)
(Settings from pcb-machine.h)
(  Tool Size)
(0.2000 )
(Z Axis Settings)
(  High     Up        Down     Drill)
(12.7000 	2.5400 	-0.1500 	-0.8128 )
(spindle on time = 3.0000)
(milling depth = -0.1500)
(text depth = -0.1270)
(tool change at 12.7000 15.2400 25.4000 )
(feed rate xy = F508.00 )
(feed rate z  = F254.00 )
(Settings from pcb-defaults.h)
(isolate min = 0.0154)
(isolate max = 0.5080)
(isolate step = 0.1270)
(Generated top outlines, top drill, bottom outlines, bottom drill, )
(Unit of measure: mm)
(Metric Mode)
G21
(Absolute Coordinates)
G90
G00 X0.0000 Y0.0000 
M03
G04 P3.000000
G00 Z2.5400 
G00 X-17.1969 Y48.3876 
G01 Z-0.1500 F254.00 
G01 X-17.1969 Y48.8545 F508.00 
G01 X-17.3778 Y49.0354 
G01 X-18.0256 Y49.0354 
G01 X-18.0256 Y48.2067 
G01 X-17.3778 Y48.2067 
G01 X-17.1969 Y48.3876 
G00 Z2.5400 
G00 X-22.2888 Y48.9087 
G01 Z-0.1500 F254.00 
G01 X-22.6308 Y48.5668 F508.00 
G01 X-21.9469 Y48.5668 
G01 X-22.2888 Y48.9087 
G00 Z2.5400 
G00 X-51.7534 Y46.1290 
G01 Z-0.1500 F254.00 
G01 X-51.7534 Y50.3910 F508.00 
G01 X-51.7358 Y50.4334 
G01 X-51.7034 Y50.4658 
G01 X-51.6610 Y50.4834 
G01 X-47.3990 Y50.4834 
G01 X-47.3566 Y50.4658 
G01 X-47.3242 Y50.4334 
G01 X-47.3066 Y50.3910 
G01 X-47.3066 Y46.1290 
G01 X-47.3242 Y46.0866 
G01 X-47.3566 Y46.0542 
G01 X-47.3990 Y46.0366 
G01 X-51.6610 Y46.0366 
G01 X-51.7034 Y46.0542 
G01 X-51.7358 Y46.0866 
G01 X-51.7534 Y46.1290 
G00 Z2.5400 
G00 X-20.6640 Y7.2576 
G01 Z-0.1500 F254.00 
G01 X-20.6640 Y7.4236 F508.00 
G01 X-20.6380 Y7.5877 
G01 X-20.5867 Y7.7457 
G01 X-20.5113 Y7.8936 
G01 X-20.4137 Y8.0280 
G01 X-20.2962 Y8.1455 
G01 X-20.1618 Y8.2431 
G01 X-20.0139 Y8.3185 
G01 X-19.8559 Y8.3698 
G01 X-19.6918 Y8.3958 
G01 X-19.5258 Y8.3958 
G01 X-19.3617 Y8.3698 
G01 X-19.2037 Y8.3185 
G01 X-19.0558 Y8.2431 
G01 X-18.9214 Y8.1455 
G01 X-18.8039 Y8.0280 
G01 X-18.7063 Y7.8936 
G01 X-18.6309 Y7.7457 
G01 X-18.5796 Y7.5877 
G01 X-18.5536 Y7.4236 
G01 X-18.5536 Y7.2576 
G01 X-18.5796 Y7.0935 
G01 X-18.6309 Y6.9355 
G01 X-18.7063 Y6.7876 
G01 X-18.8039 Y6.6532 
G01 X-18.9214 Y6.5357 
G01 X-19.0558 Y6.4381 
G01 X-19.2037 Y6.3627 
G01 X-19.3617 Y6.3114 
G01 X-19.5258 Y6.2854 
G01 X-19.6918 Y6.2854 
G01 X-19.8559 Y6.3114 
G01 X-20.0139 Y6.3627 
G01 X-20.1618 Y6.4381 
G01 X-20.2962 Y6.5357 
G01 X-20.4137 Y6.6532 
G01 X-20.5113 Y6.7876 
G01 X-20.5867 Y6.9355 
G01 X-20.6380 Y7.0935 
G01 X-20.6640 Y7.2576 
G00 Z2.5400 
G00 X-20.6640 Y2.7364 
G01 Z-0.1500 F254.00 
G01 X-20.6640 Y2.9024 F508.00 
G01 X-20.6380 Y3.0665 
G01 X-20.5867 Y3.2245 
G01 X-20.5113 Y3.3724 
G01 X-20.4137 Y3.5068 
G01 X-20.2962 Y3.6243 
G01 X-20.1618 Y3.7219 
G01 X-20.0139 Y3.7973 
G01 X-19.8559 Y3.8486 
G01 X-19.6918 Y3.8746 
G01 X-19.5258 Y3.8746 
G01 X-19.3617 Y3.8486 
G01 X-19.2037 Y3.7973 
G01 X-19.0558 Y3.7219 
G01 X-18.9214 Y3.6243 
G01 X-18.8039 Y3.5068 
G01 X-18.7063 Y3.3724 
G01 X-18.6309 Y3.2245 
G01 X-18.5796 Y3.0665 
G01 X-18.5536 Y2.9024 
G01 X-18.5536 Y2.7364 
G01 X-18.5796 Y2.5723 
G01 X-18.6309 Y2.4143 
G01 X-18.7063 Y2.2664 
G01 X-18.8039 Y2.1320 
G01 X-18.9214 Y2.0145 
G01 X-19.0558 Y1.9169 
G01 X-19.2037 Y1.8415 
G01 X-19.3617 Y1.7902 
G01 X-19.5258 Y1.7642 
G01 X-19.6918 Y1.7642 
G01 X-19.8559 Y1.7902 
G01 X-20.0139 Y1.8415 
G01 X-20.1618 Y1.9169 
G01 X-20.2962 Y2.0145 
G01 X-20.4137 Y2.1320 
G01 X-20.5113 Y2.2664 
G01 X-20.5867 Y2.4143 
G01 X-20.6380 Y2.5723 
G01 X-20.6640 Y2.7364 
G00 Z2.5400 
G00 X-35.2055 Y14.8608 
G01 Z-0.1500 F254.00 
G01 X-35.2055 Y15.6192 F508.00 
G01 X-34.6692 Y16.1555 
G01 X-33.9108 Y16.1555 
G01 X-33.3745 Y15.6192 
G01 X-33.3745 Y14.8608 
G01 X-33.9108 Y14.3245 
G01 X-34.6692 Y14.3245 
G01 X-35.2055 Y14.8608 
G00 Z2.5400 
G00 X-31.2558 Y22.5387 
G01 Z-0.1500 F254.00 
G01 X-31.2558 Y23.1813 F508.00 
G01 X-30.8013 Y23.6358 
G01 X-30.1587 Y23.6358 
G01 X-29.7042 Y23.1813 
G01 X-29.7042 Y22.5387 
G01 X-30.1587 Y22.0842 
G01 X-30.8013 Y22.0842 
G01 X-31.2558 Y22.5387 
G00 Z2.5400 
G00 X-23.6358 Y22.5387 
G01 Z-0.1500 F254.00 
G01 X-23.6358 Y23.1813 F508.00 
G01 X-23.1813 Y23.6358 
G01 X-22.5387 Y23.6358 
G01 X-22.0842 Y23.1813 
G01 X-22.0842 Y22.5387 
G01 X-22.5387 Y22.0842 
G01 X-23.1813 Y22.0842 
G01 X-23.6358 Y22.5387 
G00 Z2.5400 
G00 X-20.1941 Y12.3787 
G01 Z-0.1500 F254.00 
G01 X-20.1941 Y13.0213 F508.00 
G01 X-19.7396 Y13.4758 
G01 X-19.0970 Y13.4758 
G01 X-18.6425 Y13.0213 
G01 X-18.6425 Y12.3787 
G01 X-19.0970 Y11.9242 
G01 X-19.7396 Y11.9242 
G01 X-20.1941 Y12.3787 
G00 Z2.5400 
G00 X-41.4158 Y21.2687 
G01 Z-0.1500 F254.00 
G01 X-41.4158 Y21.9113 F508.00 
G01 X-40.9613 Y22.3658 
G01 X-40.3187 Y22.3658 
G01 X-39.8642 Y21.9113 
G01 X-39.8642 Y21.2687 
G01 X-40.3187 Y20.8142 
G01 X-40.9613 Y20.8142 
G01 X-41.4158 Y21.2687 
G00 Z2.5400 
G00 X-35.2055 Y36.4508 
G01 Z-0.1500 F254.00 
G01 X-35.2055 Y37.2092 F508.00 
G01 X-34.6692 Y37.7455 
G01 X-33.9108 Y37.7455 
G01 X-33.3745 Y37.2092 
G01 X-33.3745 Y36.4508 
G01 X-33.9108 Y35.9145 
G01 X-34.6692 Y35.9145 
G01 X-35.2055 Y36.4508 
G00 Z2.5400 
G00 X-35.2055 Y33.9108 
G01 Z-0.1500 F254.00 
G01 X-35.2055 Y34.6692 F508.00 
G01 X-34.6692 Y35.2055 
G01 X-33.9108 Y35.2055 
G01 X-33.3745 Y34.6692 
G01 X-33.3745 Y33.9108 
G01 X-33.9108 Y33.3745 
G01 X-34.6692 Y33.3745 
G01 X-35.2055 Y33.9108 
G00 Z2.5400 
G00 X-35.2055 Y25.0208 
G01 Z-0.1500 F254.00 
G01 X-35.2055 Y25.7792 F508.00 
G01 X-34.6692 Y26.3155 
G01 X-33.9108 Y26.3155 
G01 X-33.3745 Y25.7792 
G01 X-33.3745 Y25.0208 
G01 X-33.9108 Y24.4845 
G01 X-34.6692 Y24.4845 
G01 X-35.2055 Y25.0208 
G00 Z2.5400 
G00 X-35.2055 Y27.5608 
G01 Z-0.1500 F254.00 
G01 X-35.2055 Y28.3192 F508.00 
G01 X-34.6692 Y28.8555 
G01 X-33.9108 Y28.8555 
G01 X-33.3745 Y28.3192 
G01 X-33.3745 Y27.5608 
G01 X-33.9108 Y27.0245 
G01 X-34.6692 Y27.0245 
G01 X-35.2055 Y27.5608 
G00 Z2.5400 
G00 X-23.6358 Y27.9906 
G01 Z-0.1500 F254.00 
G01 X-23.6358 Y28.1434 F508.00 
G01 X-23.6060 Y28.2933 
G01 X-23.5475 Y28.4345 
G01 X-23.4626 Y28.5615 
G01 X-23.3545 Y28.6696 
G01 X-23.2275 Y28.7545 
G01 X-23.0863 Y28.8130 
G01 X-22.9364 Y28.8428 
G01 X-22.7836 Y28.8428 
G01 X-22.6337 Y28.8130 
G01 X-22.4925 Y28.7545 
G01 X-22.3655 Y28.6696 
G01 X-22.2574 Y28.5615 
G01 X-22.1725 Y28.4345 
G01 X-22.1140 Y28.2933 
G01 X-22.0842 Y28.1434 
G01 X-22.0842 Y27.9906 
G01 X-22.1140 Y27.8407 
G01 X-22.1725 Y27.6995 
G01 X-22.2574 Y27.5725 
G01 X-22.3655 Y27.4644 
G01 X-22.4925 Y27.3795 
G01 X-22.6337 Y27.3210 
G01 X-22.7836 Y27.2912 
G01 X-22.9364 Y27.2912 
G01 X-23.0863 Y27.3210 
G01 X-23.2275 Y27.3795 
G01 X-23.3545 Y27.4644 
G01 X-23.4626 Y27.5725 
G01 X-23.5475 Y27.6995 
G01 X-23.6060 Y27.8407 
G01 X-23.6358 Y27.9906 
G00 Z2.5400 
G00 X-23.6358 Y32.8166 
G01 Z-0.1500 F254.00 
G01 X-23.6358 Y32.9694 F508.00 
G01 X-23.6060 Y33.1193 
G01 X-23.5475 Y33.2605 
G01 X-23.4626 Y33.3875 
G01 X-23.3545 Y33.4956 
G01 X-23.2275 Y33.5805 
G01 X-23.0863 Y33.6390 
G01 X-22.9364 Y33.6688 
G01 X-22.7836 Y33.6688 
G01 X-22.6337 Y33.6390 
G01 X-22.4925 Y33.5805 
G01 X-22.3655 Y33.4956 
G01 X-22.2574 Y33.3875 
G01 X-22.1725 Y33.2605 
G01 X-22.1140 Y33.1193 
G01 X-22.0842 Y32.9694 
G01 X-22.0842 Y32.8166 
G01 X-22.1140 Y32.6667 
G01 X-22.1725 Y32.5255 
G01 X-22.2574 Y32.3985 
G01 X-22.3655 Y32.2904 
G01 X-22.4925 Y32.2055 
G01 X-22.6337 Y32.1470 
G01 X-22.7836 Y32.1172 
G01 X-22.9364 Y32.1172 
G01 X-23.0863 Y32.1470 
G01 X-23.2275 Y32.2055 
G01 X-23.3545 Y32.2904 
G01 X-23.4626 Y32.3985 
G01 X-23.5475 Y32.5255 
G01 X-23.6060 Y32.6667 
G01 X-23.6358 Y32.8166 
G00 Z2.5400 
G00 X-6.8832 Y8.1142 
G01 Z-0.1500 F254.00 
G01 X-8.3568 Y8.1142 F508.00 
G01 X-8.5067 Y8.1440 
G01 X-8.6479 Y8.2025 
G01 X-8.7749 Y8.2874 
G01 X-8.8830 Y8.3955 
G01 X-8.9679 Y8.5225 
G01 X-9.0264 Y8.6637 
G01 X-9.0562 Y8.8136 
G01 X-9.0562 Y8.9664 
G01 X-9.0264 Y9.1163 
G01 X-8.9679 Y9.2575 
G01 X-8.8830 Y9.3845 
G01 X-8.7749 Y9.4926 
G01 X-8.6479 Y9.5775 
G01 X-8.5067 Y9.6360 
G01 X-8.3568 Y9.6658 
G01 X-6.8832 Y9.6658 
G01 X-6.7333 Y9.6360 
G01 X-6.5921 Y9.5775 
G01 X-6.4651 Y9.4926 
G01 X-6.3570 Y9.3845 
G01 X-6.2721 Y9.2575 
G01 X-6.2136 Y9.1163 
G01 X-6.1838 Y8.9664 
G01 X-6.1838 Y8.8136 
G01 X-6.2136 Y8.6637 
G01 X-6.2721 Y8.5225 
G01 X-6.3570 Y8.3955 
G01 X-6.4651 Y8.2874 
G01 X-6.5921 Y8.2025 
G01 X-6.7333 Y8.1440 
G01 X-6.8832 Y8.1142 
G00 Z2.5400 
G00 X-6.8832 Y10.6542 
G01 Z-0.1500 F254.00 
G01 X-8.3568 Y10.6542 F508.00 
G01 X-8.5067 Y10.6840 
G01 X-8.6479 Y10.7425 
G01 X-8.7749 Y10.8274 
G01 X-8.8830 Y10.9355 
G01 X-8.9679 Y11.0625 
G01 X-9.0264 Y11.2037 
G01 X-9.0562 Y11.3536 
G01 X-9.0562 Y11.5064 
G01 X-9.0264 Y11.6563 
G01 X-8.9679 Y11.7975 
G01 X-8.8830 Y11.9245 
G01 X-8.7749 Y12.0326 
G01 X-8.6479 Y12.1175 
G01 X-8.5067 Y12.1760 
G01 X-8.3568 Y12.2058 
G01 X-6.8832 Y12.2058 
G01 X-6.7333 Y12.1760 
G01 X-6.5921 Y12.1175 
G01 X-6.4651 Y12.0326 
G01 X-6.3570 Y11.9245 
G01 X-6.2721 Y11.7975 
G01 X-6.2136 Y11.6563 
G01 X-6.1838 Y11.5064 
G01 X-6.1838 Y11.3536 
G01 X-6.2136 Y11.2037 
G01 X-6.2721 Y11.0625 
G01 X-6.3570 Y10.9355 
G01 X-6.4651 Y10.8274 
G01 X-6.5921 Y10.7425 
G01 X-6.7333 Y10.6840 
G01 X-6.8832 Y10.6542 
G00 Z2.5400 
G00 X-6.8832 Y13.1942 
G01 Z-0.1500 F254.00 
G01 X-8.3568 Y13.1942 F508.00 
G01 X-8.5067 Y13.2240 
G01 X-8.6479 Y13.2825 
G01 X-8.7749 Y13.3674 
G01 X-8.8830 Y13.4755 
G01 X-8.9679 Y13.6025 
G01 X-9.0264 Y13.7437 
G01 X-9.0562 Y13.8936 
G01 X-9.0562 Y14.0464 
G01 X-9.0264 Y14.1963 
G01 X-8.9679 Y14.3375 
G01 X-8.8830 Y14.4645 
G01 X-8.7749 Y14.5726 
G01 X-8.6479 Y14.6575 
G01 X-8.5067 Y14.7160 
G01 X-8.3568 Y14.7458 
G01 X-6.8832 Y14.7458 
G01 X-6.7333 Y14.7160 
G01 X-6.5921 Y14.6575 
G01 X-6.4651 Y14.5726 
G01 X-6.3570 Y14.4645 
G01 X-6.2721 Y14.3375 
G01 X-6.2136 Y14.1963 
G01 X-6.1838 Y14.0464 
G01 X-6.1838 Y13.8936 
G01 X-6.2136 Y13.7437 
G01 X-6.2721 Y13.6025 
G01 X-6.3570 Y13.4755 
G01 X-6.4651 Y13.3674 
G01 X-6.5921 Y13.2825 
G01 X-6.7333 Y13.2240 
G01 X-6.8832 Y13.1942 
G00 Z2.5400 
G00 X-6.8832 Y15.7342 
G01 Z-0.1500 F254.00 
G01 X-8.3568 Y15.7342 F508.00 
G01 X-8.5067 Y15.7640 
G01 X-8.6479 Y15.8225 
G01 X-8.7749 Y15.9074 
G01 X-8.8830 Y16.0155 
G01 X-8.9679 Y16.1425 
G01 X-9.0264 Y16.2837 
G01 X-9.0562 Y16.4336 
G01 X-9.0562 Y16.5864 
G01 X-9.0264 Y16.7363 
G01 X-8.9679 Y16.8775 
G01 X-8.8830 Y17.0045 
G01 X-8.7749 Y17.1126 
G01 X-8.6479 Y17.1975 
G01 X-8.5067 Y17.2560 
G01 X-8.3568 Y17.2858 
G01 X-6.8832 Y17.2858 
G01 X-6.7333 Y17.2560 
G01 X-6.5921 Y17.1975 
G01 X-6.4651 Y17.1126 
G01 X-6.3570 Y17.0045 
G01 X-6.2721 Y16.8775 
G01 X-6.2136 Y16.7363 
G01 X-6.1838 Y16.5864 
G01 X-6.1838 Y16.4336 
G01 X-6.2136 Y16.2837 
G01 X-6.2721 Y16.1425 
G01 X-6.3570 Y16.0155 
G01 X-6.4651 Y15.9074 
G01 X-6.5921 Y15.8225 
G01 X-6.7333 Y15.7640 
G01 X-6.8832 Y15.7342 
G00 Z2.5400 
G00 X-6.8832 Y18.2742 
G01 Z-0.1500 F254.00 
G01 X-8.3568 Y18.2742 F508.00 
G01 X-8.5067 Y18.3040 
G01 X-8.6479 Y18.3625 
G01 X-8.7749 Y18.4474 
G01 X-8.8830 Y18.5555 
G01 X-8.9679 Y18.6825 
G01 X-9.0264 Y18.8237 
G01 X-9.0562 Y18.9736 
G01 X-9.0562 Y19.1264 
G01 X-9.0264 Y19.2763 
G01 X-8.9679 Y19.4175 
G01 X-8.8830 Y19.5445 
G01 X-8.7749 Y19.6526 
G01 X-8.6479 Y19.7375 
G01 X-8.5067 Y19.7960 
G01 X-8.3568 Y19.8258 
G01 X-6.8832 Y19.8258 
G01 X-6.7333 Y19.7960 
G01 X-6.5921 Y19.7375 
G01 X-6.4651 Y19.6526 
G01 X-6.3570 Y19.5445 
G01 X-6.2721 Y19.4175 
G01 X-6.2136 Y19.2763 
G01 X-6.1838 Y19.1264 
G01 X-6.1838 Y18.9736 
G01 X-6.2136 Y18.8237 
G01 X-6.2721 Y18.6825 
G01 X-6.3570 Y18.5555 
G01 X-6.4651 Y18.4474 
G01 X-6.5921 Y18.3625 
G01 X-6.7333 Y18.3040 
G01 X-6.8832 Y18.2742 
G00 Z2.5400 
G00 X-6.8832 Y20.8142 
G01 Z-0.1500 F254.00 
G01 X-8.3568 Y20.8142 F508.00 
G01 X-8.5067 Y20.8440 
G01 X-8.6479 Y20.9025 
G01 X-8.7749 Y20.9874 
G01 X-8.8830 Y21.0955 
G01 X-8.9679 Y21.2225 
G01 X-9.0264 Y21.3637 
G01 X-9.0562 Y21.5136 
G01 X-9.0562 Y21.6664 
G01 X-9.0264 Y21.8163 
G01 X-8.9679 Y21.9575 
G01 X-8.8830 Y22.0845 
G01 X-8.7749 Y22.1926 
G01 X-8.6479 Y22.2775 
G01 X-8.5067 Y22.3360 
G01 X-8.3568 Y22.3658 
G01 X-6.8832 Y22.3658 
G01 X-6.7333 Y22.3360 
G01 X-6.5921 Y22.2775 
G01 X-6.4651 Y22.1926 
G01 X-6.3570 Y22.0845 
G01 X-6.2721 Y21.9575 
G01 X-6.2136 Y21.8163 
G01 X-6.1838 Y21.6664 
G01 X-6.1838 Y21.5136 
G01 X-6.2136 Y21.3637 
G01 X-6.2721 Y21.2225 
G01 X-6.3570 Y21.0955 
G01 X-6.4651 Y20.9874 
G01 X-6.5921 Y20.9025 
G01 X-6.7333 Y20.8440 
G01 X-6.8832 Y20.8142 
G00 Z2.5400 
G00 X-6.8832 Y23.3542 
G01 Z-0.1500 F254.00 
G01 X-8.3568 Y23.3542 F508.00 
G01 X-8.5067 Y23.3840 
G01 X-8.6479 Y23.4425 
G01 X-8.7749 Y23.5274 
G01 X-8.8830 Y23.6355 
G01 X-8.9679 Y23.7625 
G01 X-9.0264 Y23.9037 
G01 X-9.0562 Y24.0536 
G01 X-9.0562 Y24.2064 
G01 X-9.0264 Y24.3563 
G01 X-8.9679 Y24.4975 
G01 X-8.8830 Y24.6245 
G01 X-8.7749 Y24.7326 
G01 X-8.6479 Y24.8175 
G01 X-8.5067 Y24.8760 
G01 X-8.3568 Y24.9058 
G01 X-7.1870 Y24.9058 
G01 X-3.6771 Y28.4157 
G01 X-3.7176 Y28.4325 
G01 X-3.8613 Y28.5285 
G01 X-3.9835 Y28.6507 
G01 X-4.0795 Y28.7944 
G01 X-4.1457 Y28.9541 
G01 X-4.1794 Y29.1236 
G01 X-4.1794 Y29.2964 
G01 X-4.1457 Y29.4659 
G01 X-4.0795 Y29.6256 
G01 X-3.9835 Y29.7693 
G01 X-3.8613 Y29.8915 
G01 X-3.7176 Y29.9875 
G01 X-3.5579 Y30.0537 
G01 X-3.3884 Y30.0874 
G01 X-1.6916 Y30.0874 
G01 X-1.5221 Y30.0537 
G01 X-1.3624 Y29.9875 
G01 X-1.2187 Y29.8915 
G01 X-1.0965 Y29.7693 
G01 X-1.0005 Y29.6256 
G01 X-0.9343 Y29.4659 
G01 X-0.9006 Y29.2964 
G01 X-0.9006 Y29.1236 
G01 X-0.9343 Y28.9541 
G01 X-1.0005 Y28.7944 
G01 X-1.0965 Y28.6507 
G01 X-1.2187 Y28.5285 
G01 X-1.3624 Y28.4325 
G01 X-1.5221 Y28.3663 
G01 X-1.6916 Y28.3326 
G01 X-3.0746 Y28.3326 
G01 X-6.5907 Y24.8165 
G01 X-6.4651 Y24.7326 
G01 X-6.3570 Y24.6245 
G01 X-6.2721 Y24.4975 
G01 X-6.2136 Y24.3563 
G01 X-6.1838 Y24.2064 
G01 X-6.1838 Y24.0536 
G01 X-6.2136 Y23.9037 
G01 X-6.2721 Y23.7625 
G01 X-6.3570 Y23.6355 
G01 X-6.4651 Y23.5274 
G01 X-6.5921 Y23.4425 
G01 X-6.7333 Y23.3840 
G01 X-6.8832 Y23.3542 
G00 Z2.5400 
G00 X-6.8832 Y25.8942 
G01 Z-0.1500 F254.00 
G01 X-8.3568 Y25.8942 F508.00 
G01 X-8.5067 Y25.9240 
G01 X-8.6479 Y25.9825 
G01 X-8.7749 Y26.0674 
G01 X-8.8830 Y26.1755 
G01 X-8.9679 Y26.3025 
G01 X-9.0264 Y26.4437 
G01 X-9.0562 Y26.5936 
G01 X-9.0562 Y26.7464 
G01 X-9.0264 Y26.8963 
G01 X-8.9679 Y27.0375 
G01 X-8.8830 Y27.1645 
G01 X-8.7749 Y27.2726 
G01 X-8.6479 Y27.3575 
G01 X-8.5067 Y27.4160 
G01 X-8.3568 Y27.4458 
G01 X-6.8832 Y27.4458 
G01 X-6.7333 Y27.4160 
G01 X-6.5921 Y27.3575 
G01 X-6.4651 Y27.2726 
G01 X-6.3570 Y27.1645 
G01 X-6.2721 Y27.0375 
G01 X-6.2136 Y26.8963 
G01 X-6.1838 Y26.7464 
G01 X-6.1838 Y26.5936 
G01 X-6.2136 Y26.4437 
G01 X-6.2721 Y26.3025 
G01 X-6.3570 Y26.1755 
G01 X-6.4651 Y26.0674 
G01 X-6.5921 Y25.9825 
G01 X-6.7333 Y25.9240 
G01 X-6.8832 Y25.8942 
G00 Z2.5400 
G00 X-6.8832 Y28.4342 
G01 Z-0.1500 F254.00 
G01 X-8.3568 Y28.4342 F508.00 
G01 X-8.5067 Y28.4640 
G01 X-8.6479 Y28.5225 
G01 X-8.7749 Y28.6074 
G01 X-8.8830 Y28.7155 
G01 X-8.9679 Y28.8425 
G01 X-9.0197 Y28.9676 
G01 X-10.0596 Y28.9676 
G01 X-14.2107 Y24.8165 
G01 X-14.0851 Y24.7326 
G01 X-13.9770 Y24.6245 
G01 X-13.8921 Y24.4975 
G01 X-13.8336 Y24.3563 
G01 X-13.8038 Y24.2064 
G01 X-13.8038 Y24.0536 
G01 X-13.8336 Y23.9037 
G01 X-13.8921 Y23.7625 
G01 X-13.9770 Y23.6355 
G01 X-14.0851 Y23.5274 
G01 X-14.2121 Y23.4425 
G01 X-14.3533 Y23.3840 
G01 X-14.5032 Y23.3542 
G01 X-15.6730 Y23.3542 
G01 X-18.6425 Y20.3847 
G01 X-18.6425 Y19.9987 
G01 X-19.0970 Y19.5442 
G01 X-19.7396 Y19.5442 
G01 X-20.1941 Y19.9987 
G01 X-20.1941 Y20.6413 
G01 X-19.7396 Y21.0958 
G01 X-19.0970 Y21.0958 
G01 X-18.8570 Y20.8558 
G01 X-16.2693 Y23.4435 
G01 X-16.3949 Y23.5274 
G01 X-16.5030 Y23.6355 
G01 X-16.5879 Y23.7625 
G01 X-16.6464 Y23.9037 
G01 X-16.6762 Y24.0536 
G01 X-16.6762 Y24.2064 
G01 X-16.6464 Y24.3563 
G01 X-16.5879 Y24.4975 
G01 X-16.5030 Y24.6245 
G01 X-16.3949 Y24.7326 
G01 X-16.2679 Y24.8175 
G01 X-16.1267 Y24.8760 
G01 X-15.9768 Y24.9058 
G01 X-14.8070 Y24.9058 
G01 X-10.3655 Y29.3473 
G01 X-10.2973 Y29.4155 
G01 X-10.2082 Y29.4524 
G01 X-9.0197 Y29.4524 
G01 X-8.9679 Y29.5775 
G01 X-8.8830 Y29.7045 
G01 X-8.7749 Y29.8126 
G01 X-8.6479 Y29.8975 
G01 X-8.5067 Y29.9560 
G01 X-8.3568 Y29.9858 
G01 X-6.8832 Y29.9858 
G01 X-6.7333 Y29.9560 
G01 X-6.5921 Y29.8975 
G01 X-6.4651 Y29.8126 
G01 X-6.3570 Y29.7045 
G01 X-6.2721 Y29.5775 
G01 X-6.2136 Y29.4363 
G01 X-6.1838 Y29.2864 
G01 X-6.1838 Y29.1336 
G01 X-6.2136 Y28.9837 
G01 X-6.2721 Y28.8425 
G01 X-6.3570 Y28.7155 
G01 X-6.4651 Y28.6074 
G01 X-6.5921 Y28.5225 
G01 X-6.7333 Y28.4640 
G01 X-6.8832 Y28.4342 
G00 Z2.5400 
G00 X-6.8832 Y33.5142 
G01 Z-0.1500 F254.00 
G01 X-8.3568 Y33.5142 F508.00 
G01 X-8.5067 Y33.5440 
G01 X-8.6479 Y33.6025 
G01 X-8.7749 Y33.6874 
G01 X-8.8830 Y33.7955 
G01 X-8.9679 Y33.9225 
G01 X-9.0264 Y34.0637 
G01 X-9.0562 Y34.2136 
G01 X-9.0562 Y34.3664 
G01 X-9.0264 Y34.5163 
G01 X-8.9679 Y34.6575 
G01 X-8.8830 Y34.7845 
G01 X-8.7749 Y34.8926 
G01 X-8.6493 Y34.9765 
G01 X-14.0704 Y40.3976 
G01 X-49.1916 Y40.3976 
G01 X-49.1943 Y40.3841 
G01 X-49.2605 Y40.2244 
G01 X-49.3565 Y40.0807 
G01 X-49.4787 Y39.9585 
G01 X-49.6224 Y39.8625 
G01 X-49.7821 Y39.7963 
G01 X-49.9516 Y39.7626 
G01 X-51.6484 Y39.7626 
G01 X-51.8179 Y39.7963 
G01 X-51.9776 Y39.8625 
G01 X-52.1213 Y39.9585 
G01 X-52.2435 Y40.0807 
G01 X-52.3395 Y40.2244 
G01 X-52.4057 Y40.3841 
G01 X-52.4394 Y40.5536 
G01 X-52.4394 Y40.7264 
G01 X-52.4057 Y40.8959 
G01 X-52.3395 Y41.0556 
G01 X-52.2435 Y41.1993 
G01 X-52.1213 Y41.3215 
G01 X-51.9776 Y41.4175 
G01 X-51.8179 Y41.4837 
G01 X-51.6484 Y41.5174 
G01 X-49.9516 Y41.5174 
G01 X-49.7821 Y41.4837 
G01 X-49.6224 Y41.4175 
G01 X-49.4787 Y41.3215 
G01 X-49.3565 Y41.1993 
G01 X-49.2605 Y41.0556 
G01 X-49.1943 Y40.8959 
G01 X-49.1916 Y40.8824 
G01 X-13.9218 Y40.8824 
G01 X-13.8327 Y40.8455 
G01 X-13.7645 Y40.7773 
G01 X-8.0530 Y35.0658 
G01 X-6.8832 Y35.0658 
G01 X-6.7333 Y35.0360 
G01 X-6.5921 Y34.9775 
G01 X-6.4651 Y34.8926 
G01 X-6.3570 Y34.7845 
G01 X-6.2721 Y34.6575 
G01 X-6.2136 Y34.5163 
G01 X-6.1838 Y34.3664 
G01 X-6.1838 Y34.2136 
G01 X-6.2136 Y34.0637 
G01 X-6.2721 Y33.9225 
G01 X-6.3570 Y33.7955 
G01 X-6.4651 Y33.6874 
G01 X-6.5921 Y33.6025 
G01 X-6.7333 Y33.5440 
G01 X-6.8832 Y33.5142 
G00 Z2.5400 
G00 X-6.8832 Y36.0542 
G01 Z-0.1500 F254.00 
G01 X-8.3568 Y36.0542 F508.00 
G01 X-8.5067 Y36.0840 
G01 X-8.6479 Y36.1425 
G01 X-8.7749 Y36.2274 
G01 X-8.8830 Y36.3355 
G01 X-8.9679 Y36.4625 
G01 X-9.0264 Y36.6037 
G01 X-9.0562 Y36.7536 
G01 X-9.0562 Y36.9064 
G01 X-9.0264 Y37.0563 
G01 X-8.9679 Y37.1975 
G01 X-8.8830 Y37.3245 
G01 X-8.7749 Y37.4326 
G01 X-8.6479 Y37.5175 
G01 X-8.5067 Y37.5760 
G01 X-8.3568 Y37.6058 
G01 X-6.8832 Y37.6058 
G01 X-6.7333 Y37.5760 
G01 X-6.5921 Y37.5175 
G01 X-6.4651 Y37.4326 
G01 X-6.3570 Y37.3245 
G01 X-6.2721 Y37.1975 
G01 X-6.2136 Y37.0563 
G01 X-6.1838 Y36.9064 
G01 X-6.1838 Y36.7536 
G01 X-6.2136 Y36.6037 
G01 X-6.2721 Y36.4625 
G01 X-6.3570 Y36.3355 
G01 X-6.4651 Y36.2274 
G01 X-6.5921 Y36.1425 
G01 X-6.7333 Y36.0840 
G01 X-6.8832 Y36.0542 
G00 Z2.5400 
G00 X-6.8832 Y38.5942 
G01 Z-0.1500 F254.00 
G01 X-8.3568 Y38.5942 F508.00 
G01 X-8.5067 Y38.6240 
G01 X-8.6479 Y38.6825 
G01 X-8.7749 Y38.7674 
G01 X-8.8830 Y38.8755 
G01 X-8.9679 Y39.0025 
G01 X-9.0264 Y39.1437 
G01 X-9.0562 Y39.2936 
G01 X-9.0562 Y39.4464 
G01 X-9.0264 Y39.5963 
G01 X-8.9679 Y39.7375 
G01 X-8.8830 Y39.8645 
G01 X-8.7749 Y39.9726 
G01 X-8.6479 Y40.0575 
G01 X-8.5067 Y40.1160 
G01 X-8.3568 Y40.1458 
G01 X-6.8832 Y40.1458 
G01 X-6.7333 Y40.1160 
G01 X-6.5921 Y40.0575 
G01 X-6.4651 Y39.9726 
G01 X-6.3570 Y39.8645 
G01 X-6.2721 Y39.7375 
G01 X-6.2136 Y39.5963 
G01 X-6.1838 Y39.4464 
G01 X-6.1838 Y39.2936 
G01 X-6.2136 Y39.1437 
G01 X-6.2721 Y39.0025 
G01 X-6.3570 Y38.8755 
G01 X-6.4651 Y38.7674 
G01 X-6.5921 Y38.6825 
G01 X-6.7333 Y38.6240 
G01 X-6.8832 Y38.5942 
G00 Z2.5400 
G00 X-6.8832 Y41.1342 
G01 Z-0.1500 F254.00 
G01 X-8.3568 Y41.1342 F508.00 
G01 X-8.5067 Y41.1640 
G01 X-8.6479 Y41.2225 
G01 X-8.7749 Y41.3074 
G01 X-8.8830 Y41.4155 
G01 X-8.9679 Y41.5425 
G01 X-9.0264 Y41.6837 
G01 X-9.0562 Y41.8336 
G01 X-9.0562 Y41.9864 
G01 X-9.0264 Y42.1363 
G01 X-8.9679 Y42.2775 
G01 X-8.8830 Y42.4045 
G01 X-8.7749 Y42.5126 
G01 X-8.6479 Y42.5975 
G01 X-8.5067 Y42.6560 
G01 X-8.3568 Y42.6858 
G01 X-6.8832 Y42.6858 
G01 X-6.7333 Y42.6560 
G01 X-6.5921 Y42.5975 
G01 X-6.4651 Y42.5126 
G01 X-6.3570 Y42.4045 
G01 X-6.2721 Y42.2775 
G01 X-6.2136 Y42.1363 
G01 X-6.1838 Y41.9864 
G01 X-6.1838 Y41.8336 
G01 X-6.2136 Y41.6837 
G01 X-6.2721 Y41.5425 
G01 X-6.3570 Y41.4155 
G01 X-6.4651 Y41.3074 
G01 X-6.5921 Y41.2225 
G01 X-6.7333 Y41.1640 
G01 X-6.8832 Y41.1342 
G00 Z2.5400 
G00 X-14.5032 Y41.1342 
G01 Z-0.1500 F254.00 
G01 X-15.9768 Y41.1342 F508.00 
G01 X-16.1267 Y41.1640 
G01 X-16.2679 Y41.2225 
G01 X-16.3949 Y41.3074 
G01 X-16.5030 Y41.4155 
G01 X-16.5879 Y41.5425 
G01 X-16.6464 Y41.6837 
G01 X-16.6762 Y41.8336 
G01 X-16.6762 Y41.9864 
G01 X-16.6464 Y42.1363 
G01 X-16.5879 Y42.2775 
G01 X-16.5030 Y42.4045 
G01 X-16.3949 Y42.5126 
G01 X-16.2679 Y42.5975 
G01 X-16.1267 Y42.6560 
G01 X-15.9768 Y42.6858 
G01 X-14.5032 Y42.6858 
G01 X-14.3533 Y42.6560 
G01 X-14.2121 Y42.5975 
G01 X-14.0851 Y42.5126 
G01 X-13.9770 Y42.4045 
G01 X-13.8921 Y42.2775 
G01 X-13.8336 Y42.1363 
G01 X-13.8038 Y41.9864 
G01 X-13.8038 Y41.8336 
G01 X-13.8336 Y41.6837 
G01 X-13.8921 Y41.5425 
G01 X-13.9770 Y41.4155 
G01 X-14.0851 Y41.3074 
G01 X-14.2121 Y41.2225 
G01 X-14.3533 Y41.1640 
G01 X-14.5032 Y41.1342 
G00 Z2.5400 
G00 X-14.5032 Y36.0542 
G01 Z-0.1500 F254.00 
G01 X-15.6730 Y36.0542 F508.00 
G01 X-21.3845 Y30.3427 
G01 X-21.4527 Y30.2745 
G01 X-21.5418 Y30.2376 
G01 X-44.3496 Y30.2376 
G01 X-49.6629 Y24.9243 
G01 X-49.6224 Y24.9075 
G01 X-49.4787 Y24.8115 
G01 X-49.3565 Y24.6893 
G01 X-49.2605 Y24.5456 
G01 X-49.1943 Y24.3859 
G01 X-49.1606 Y24.2164 
G01 X-49.1606 Y24.0436 
G01 X-49.1943 Y23.8741 
G01 X-49.2605 Y23.7144 
G01 X-49.3565 Y23.5707 
G01 X-49.4787 Y23.4485 
G01 X-49.6224 Y23.3525 
G01 X-49.7821 Y23.2863 
G01 X-49.9516 Y23.2526 
G01 X-51.6484 Y23.2526 
G01 X-51.8179 Y23.2863 
G01 X-51.9776 Y23.3525 
G01 X-52.1213 Y23.4485 
G01 X-52.2435 Y23.5707 
G01 X-52.3395 Y23.7144 
G01 X-52.4057 Y23.8741 
G01 X-52.4394 Y24.0436 
G01 X-52.4394 Y24.2164 
G01 X-52.4057 Y24.3859 
G01 X-52.3395 Y24.5456 
G01 X-52.2435 Y24.6893 
G01 X-52.1213 Y24.8115 
G01 X-51.9776 Y24.9075 
G01 X-51.8179 Y24.9737 
G01 X-51.6484 Y25.0074 
G01 X-50.2654 Y25.0074 
G01 X-44.5873 Y30.6855 
G01 X-44.4982 Y30.7224 
G01 X-21.6904 Y30.7224 
G01 X-16.2693 Y36.1435 
G01 X-16.3949 Y36.2274 
G01 X-16.5030 Y36.3355 
G01 X-16.5879 Y36.4625 
G01 X-16.6464 Y36.6037 
G01 X-16.6762 Y36.7536 
G01 X-16.6762 Y36.9064 
G01 X-16.6464 Y37.0563 
G01 X-16.5879 Y37.1975 
G01 X-16.5030 Y37.3245 
G01 X-16.3949 Y37.4326 
G01 X-16.2679 Y37.5175 
G01 X-16.1267 Y37.5760 
G01 X-15.9768 Y37.6058 
G01 X-14.5032 Y37.6058 
G01 X-14.3533 Y37.5760 
G01 X-14.2121 Y37.5175 
G01 X-14.0851 Y37.4326 
G01 X-13.9770 Y37.3245 
G01 X-13.8921 Y37.1975 
G01 X-13.8336 Y37.0563 
G01 X-13.8038 Y36.9064 
G01 X-13.8038 Y36.7536 
G01 X-13.8336 Y36.6037 
G01 X-13.8921 Y36.4625 
G01 X-13.9770 Y36.3355 
G01 X-14.0851 Y36.2274 
G01 X-14.2121 Y36.1425 
G01 X-14.3533 Y36.0840 
G01 X-14.5032 Y36.0542 
G00 Z2.5400 
G00 X-14.5032 Y30.9742 
G01 Z-0.1500 F254.00 
G01 X-15.9768 Y30.9742 F508.00 
G01 X-16.1267 Y31.0040 
G01 X-16.2679 Y31.0625 
G01 X-16.3949 Y31.1474 
G01 X-16.5030 Y31.2555 
G01 X-16.5879 Y31.3825 
G01 X-16.6464 Y31.5237 
G01 X-16.6762 Y31.6736 
G01 X-16.6762 Y31.8264 
G01 X-16.6464 Y31.9763 
G01 X-16.5879 Y32.1175 
G01 X-16.5030 Y32.2445 
G01 X-16.3949 Y32.3526 
G01 X-16.2679 Y32.4375 
G01 X-16.1267 Y32.4960 
G01 X-15.9768 Y32.5258 
G01 X-14.5032 Y32.5258 
G01 X-14.3533 Y32.4960 
G01 X-14.2121 Y32.4375 
G01 X-14.0851 Y32.3526 
G01 X-13.9770 Y32.2445 
G01 X-13.8921 Y32.1175 
G01 X-13.8336 Y31.9763 
G01 X-13.8038 Y31.8264 
G01 X-13.8038 Y31.6736 
G01 X-13.8336 Y31.5237 
G01 X-13.8921 Y31.3825 
G01 X-13.9770 Y31.2555 
G01 X-14.0851 Y31.1474 
G01 X-14.2121 Y31.0625 
G01 X-14.3533 Y31.0040 
G01 X-14.5032 Y30.9742 
G00 Z2.5400 
G00 X-14.5032 Y28.4342 
G01 Z-0.1500 F254.00 
G01 X-15.9768 Y28.4342 F508.00 
G01 X-16.1267 Y28.4640 
G01 X-16.2679 Y28.5225 
G01 X-16.3949 Y28.6074 
G01 X-16.5030 Y28.7155 
G01 X-16.5879 Y28.8425 
G01 X-16.6464 Y28.9837 
G01 X-16.6762 Y29.1336 
G01 X-16.6762 Y29.2864 
G01 X-16.6464 Y29.4363 
G01 X-16.5879 Y29.5775 
G01 X-16.5030 Y29.7045 
G01 X-16.3949 Y29.8126 
G01 X-16.2679 Y29.8975 
G01 X-16.1267 Y29.9560 
G01 X-15.9768 Y29.9858 
G01 X-14.5032 Y29.9858 
G01 X-14.3533 Y29.9560 
G01 X-14.2121 Y29.8975 
G01 X-14.0851 Y29.8126 
G01 X-13.9770 Y29.7045 
G01 X-13.8921 Y29.5775 
G01 X-13.8336 Y29.4363 
G01 X-13.8038 Y29.2864 
G01 X-13.8038 Y29.1336 
G01 X-13.8336 Y28.9837 
G01 X-13.8921 Y28.8425 
G01 X-13.9770 Y28.7155 
G01 X-14.0851 Y28.6074 
G01 X-14.2121 Y28.5225 
G01 X-14.3533 Y28.4640 
G01 X-14.5032 Y28.4342 
G00 Z2.5400 
G00 X-14.5032 Y25.8942 
G01 Z-0.1500 F254.00 
G01 X-15.6730 Y25.8942 F508.00 
G01 X-23.9245 Y17.6427 
G01 X-23.9927 Y17.5745 
G01 X-24.0818 Y17.5376 
G01 X-26.4276 Y17.5376 
G01 X-26.4276 Y8.3473 
G01 X-26.3583 Y8.3698 
G01 X-26.1942 Y8.3958 
G01 X-26.0282 Y8.3958 
G01 X-25.8641 Y8.3698 
G01 X-25.7061 Y8.3185 
G01 X-25.5582 Y8.2431 
G01 X-25.4238 Y8.1455 
G01 X-25.3063 Y8.0280 
G01 X-25.2087 Y7.8936 
G01 X-25.1333 Y7.7457 
G01 X-25.0820 Y7.5877 
G01 X-25.0560 Y7.4236 
G01 X-25.0560 Y7.2576 
G01 X-25.0820 Y7.0935 
G01 X-25.1333 Y6.9355 
G01 X-25.2087 Y6.7876 
G01 X-25.3063 Y6.6532 
G01 X-25.4238 Y6.5357 
G01 X-25.5582 Y6.4381 
G01 X-25.7061 Y6.3627 
G01 X-25.8641 Y6.3114 
G01 X-26.0282 Y6.2854 
G01 X-26.1942 Y6.2854 
G01 X-26.3583 Y6.3114 
G01 X-26.5163 Y6.3627 
G01 X-26.6642 Y6.4381 
G01 X-26.7986 Y6.5357 
G01 X-26.9161 Y6.6532 
G01 X-27.0137 Y6.7876 
G01 X-27.0891 Y6.9355 
G01 X-27.1404 Y7.0935 
G01 X-27.1664 Y7.2576 
G01 X-27.1664 Y7.4236 
G01 X-27.1404 Y7.5877 
G01 X-27.0891 Y7.7457 
G01 X-27.0137 Y7.8936 
G01 X-26.9161 Y8.0280 
G01 X-26.9124 Y8.0317 
G01 X-26.9124 Y17.5376 
G01 X-33.3745 Y17.5376 
G01 X-33.3745 Y17.4008 
G01 X-33.9108 Y16.8645 
G01 X-34.6692 Y16.8645 
G01 X-35.2055 Y17.4008 
G01 X-35.2055 Y18.1592 
G01 X-35.1088 Y18.2560 
G01 X-40.2628 Y23.4100 
G01 X-40.3187 Y23.3542 
G01 X-40.9613 Y23.3542 
G01 X-41.4158 Y23.8087 
G01 X-41.4158 Y24.4513 
G01 X-40.9613 Y24.9058 
G01 X-40.3187 Y24.9058 
G01 X-39.8642 Y24.4513 
G01 X-39.8642 Y23.8087 
G01 X-39.9200 Y23.7528 
G01 X-34.7660 Y18.5988 
G01 X-34.6692 Y18.6955 
G01 X-33.9108 Y18.6955 
G01 X-33.3745 Y18.1592 
G01 X-33.3745 Y18.0224 
G01 X-24.2304 Y18.0224 
G01 X-16.2693 Y25.9835 
G01 X-16.3949 Y26.0674 
G01 X-16.5030 Y26.1755 
G01 X-16.5879 Y26.3025 
G01 X-16.6464 Y26.4437 
G01 X-16.6762 Y26.5936 
G01 X-16.6762 Y26.7464 
G01 X-16.6464 Y26.8963 
G01 X-16.5879 Y27.0375 
G01 X-16.5030 Y27.1645 
G01 X-16.3949 Y27.2726 
G01 X-16.2679 Y27.3575 
G01 X-16.1267 Y27.4160 
G01 X-15.9768 Y27.4458 
G01 X-14.5032 Y27.4458 
G01 X-14.3533 Y27.4160 
G01 X-14.2121 Y27.3575 
G01 X-14.0851 Y27.2726 
G01 X-13.9770 Y27.1645 
G01 X-13.8921 Y27.0375 
G01 X-13.8336 Y26.8963 
G01 X-13.8038 Y26.7464 
G01 X-13.8038 Y26.5936 
G01 X-13.8336 Y26.4437 
G01 X-13.8921 Y26.3025 
G01 X-13.9770 Y26.1755 
G01 X-14.0851 Y26.0674 
G01 X-14.2121 Y25.9825 
G01 X-14.3533 Y25.9240 
G01 X-14.5032 Y25.8942 
G00 Z2.5400 
G00 X-14.5032 Y20.8142 
G01 Z-0.1500 F254.00 
G01 X-15.9768 Y20.8142 F508.00 
G01 X-16.1267 Y20.8440 
G01 X-16.2679 Y20.9025 
G01 X-16.3949 Y20.9874 
G01 X-16.5030 Y21.0955 
G01 X-16.5879 Y21.2225 
G01 X-16.6464 Y21.3637 
G01 X-16.6762 Y21.5136 
G01 X-16.6762 Y21.6664 
G01 X-16.6464 Y21.8163 
G01 X-16.5879 Y21.9575 
G01 X-16.5030 Y22.0845 
G01 X-16.3949 Y22.1926 
G01 X-16.2679 Y22.2775 
G01 X-16.1267 Y22.3360 
G01 X-15.9768 Y22.3658 
G01 X-14.5032 Y22.3658 
G01 X-14.3533 Y22.3360 
G01 X-14.2121 Y22.2775 
G01 X-14.0851 Y22.1926 
G01 X-13.9770 Y22.0845 
G01 X-13.8921 Y21.9575 
G01 X-13.8336 Y21.8163 
G01 X-13.8038 Y21.6664 
G01 X-13.8038 Y21.5136 
G01 X-13.8336 Y21.3637 
G01 X-13.8921 Y21.2225 
G01 X-13.9770 Y21.0955 
G01 X-14.0851 Y20.9874 
G01 X-14.2121 Y20.9025 
G01 X-14.3533 Y20.8440 
G01 X-14.5032 Y20.8142 
G00 Z2.5400 
G00 X-14.5032 Y18.2742 
G01 Z-0.1500 F254.00 
G01 X-15.9768 Y18.2742 F508.00 
G01 X-16.1267 Y18.3040 
G01 X-16.2679 Y18.3625 
G01 X-16.3949 Y18.4474 
G01 X-16.5030 Y18.5555 
G01 X-16.5879 Y18.6825 
G01 X-16.6464 Y18.8237 
G01 X-16.6762 Y18.9736 
G01 X-16.6762 Y19.1264 
G01 X-16.6464 Y19.2763 
G01 X-16.5879 Y19.4175 
G01 X-16.5030 Y19.5445 
G01 X-16.3949 Y19.6526 
G01 X-16.2679 Y19.7375 
G01 X-16.1267 Y19.7960 
G01 X-15.9768 Y19.8258 
G01 X-14.5032 Y19.8258 
G01 X-14.3533 Y19.7960 
G01 X-14.2121 Y19.7375 
G01 X-14.0851 Y19.6526 
G01 X-13.9770 Y19.5445 
G01 X-13.8921 Y19.4175 
G01 X-13.8336 Y19.2763 
G01 X-13.8038 Y19.1264 
G01 X-13.8038 Y18.9736 
G01 X-13.8336 Y18.8237 
G01 X-13.8921 Y18.6825 
G01 X-13.9770 Y18.5555 
G01 X-14.0851 Y18.4474 
G01 X-14.2121 Y18.3625 
G01 X-14.3533 Y18.3040 
G01 X-14.5032 Y18.2742 
G00 Z2.5400 
G00 X-14.5032 Y15.7342 
G01 Z-0.1500 F254.00 
G01 X-15.9768 Y15.7342 F508.00 
G01 X-16.1267 Y15.7640 
G01 X-16.2679 Y15.8225 
G01 X-16.3949 Y15.9074 
G01 X-16.5030 Y16.0155 
G01 X-16.5879 Y16.1425 
G01 X-16.6464 Y16.2837 
G01 X-16.6762 Y16.4336 
G01 X-16.6762 Y16.5864 
G01 X-16.6464 Y16.7363 
G01 X-16.5879 Y16.8775 
G01 X-16.5030 Y17.0045 
G01 X-16.3949 Y17.1126 
G01 X-16.2679 Y17.1975 
G01 X-16.1267 Y17.2560 
G01 X-15.9768 Y17.2858 
G01 X-14.5032 Y17.2858 
G01 X-14.3533 Y17.2560 
G01 X-14.2121 Y17.1975 
G01 X-14.0851 Y17.1126 
G01 X-13.9770 Y17.0045 
G01 X-13.8921 Y16.8775 
G01 X-13.8336 Y16.7363 
G01 X-13.8038 Y16.5864 
G01 X-13.8038 Y16.4336 
G01 X-13.8336 Y16.2837 
G01 X-13.8921 Y16.1425 
G01 X-13.9770 Y16.0155 
G01 X-14.0851 Y15.9074 
G01 X-14.2121 Y15.8225 
G01 X-14.3533 Y15.7640 
G01 X-14.5032 Y15.7342 
G00 Z2.5400 
G00 X-14.5032 Y13.1942 
G01 Z-0.1500 F254.00 
G01 X-15.6730 Y13.1942 F508.00 
G01 X-23.9245 Y4.9427 
G01 X-23.9927 Y4.8745 
G01 X-24.0818 Y4.8376 
G01 X-44.4982 Y4.8376 
G01 X-44.5873 Y4.8745 
G01 X-50.2654 Y10.5526 
G01 X-51.6484 Y10.5526 
G01 X-51.8179 Y10.5863 
G01 X-51.9776 Y10.6525 
G01 X-52.1213 Y10.7485 
G01 X-52.2435 Y10.8707 
G01 X-52.3395 Y11.0144 
G01 X-52.4057 Y11.1741 
G01 X-52.4394 Y11.3436 
G01 X-52.4394 Y11.5164 
G01 X-52.4057 Y11.6859 
G01 X-52.3395 Y11.8456 
G01 X-52.2435 Y11.9893 
G01 X-52.1213 Y12.1115 
G01 X-51.9776 Y12.2075 
G01 X-51.8179 Y12.2737 
G01 X-51.6484 Y12.3074 
G01 X-49.9516 Y12.3074 
G01 X-49.7821 Y12.2737 
G01 X-49.6224 Y12.2075 
G01 X-49.4787 Y12.1115 
G01 X-49.3565 Y11.9893 
G01 X-49.2605 Y11.8456 
G01 X-49.1943 Y11.6859 
G01 X-49.1606 Y11.5164 
G01 X-49.1606 Y11.3436 
G01 X-49.1943 Y11.1741 
G01 X-49.2605 Y11.0144 
G01 X-49.3565 Y10.8707 
G01 X-49.4787 Y10.7485 
G01 X-49.6224 Y10.6525 
G01 X-49.6629 Y10.6357 
G01 X-44.3496 Y5.3224 
G01 X-24.2304 Y5.3224 
G01 X-16.2693 Y13.2835 
G01 X-16.3949 Y13.3674 
G01 X-16.5030 Y13.4755 
G01 X-16.5879 Y13.6025 
G01 X-16.6464 Y13.7437 
G01 X-16.6762 Y13.8936 
G01 X-16.6762 Y14.0464 
G01 X-16.6464 Y14.1963 
G01 X-16.5879 Y14.3375 
G01 X-16.5030 Y14.4645 
G01 X-16.3949 Y14.5726 
G01 X-16.2679 Y14.6575 
G01 X-16.1267 Y14.7160 
G01 X-15.9768 Y14.7458 
G01 X-14.5032 Y14.7458 
G01 X-14.3533 Y14.7160 
G01 X-14.2121 Y14.6575 
G01 X-14.0851 Y14.5726 
G01 X-13.9770 Y14.4645 
G01 X-13.8921 Y14.3375 
G01 X-13.8336 Y14.1963 
G01 X-13.8038 Y14.0464 
G01 X-13.8038 Y13.8936 
G01 X-13.8336 Y13.7437 
G01 X-13.8921 Y13.6025 
G01 X-13.9770 Y13.4755 
G01 X-14.0851 Y13.3674 
G01 X-14.2121 Y13.2825 
G01 X-14.3533 Y13.2240 
G01 X-14.5032 Y13.1942 
G00 Z2.5400 
G00 X-14.5032 Y10.6542 
G01 Z-0.1500 F254.00 
G01 X-15.9768 Y10.6542 F508.00 
G01 X-16.1267 Y10.6840 
G01 X-16.2679 Y10.7425 
G01 X-16.3949 Y10.8274 
G01 X-16.5030 Y10.9355 
G01 X-16.5879 Y11.0625 
G01 X-16.6464 Y11.2037 
G01 X-16.6762 Y11.3536 
G01 X-16.6762 Y11.5064 
G01 X-16.6464 Y11.6563 
G01 X-16.5879 Y11.7975 
G01 X-16.5030 Y11.9245 
G01 X-16.3949 Y12.0326 
G01 X-16.2679 Y12.1175 
G01 X-16.1267 Y12.1760 
G01 X-15.9768 Y12.2058 
G01 X-14.5032 Y12.2058 
G01 X-14.3533 Y12.1760 
G01 X-14.2121 Y12.1175 
G01 X-14.0851 Y12.0326 
G01 X-13.9770 Y11.9245 
G01 X-13.8921 Y11.7975 
G01 X-13.8336 Y11.6563 
G01 X-13.8038 Y11.5064 
G01 X-13.8038 Y11.3536 
G01 X-13.8336 Y11.2037 
G01 X-13.8921 Y11.0625 
G01 X-13.9770 Y10.9355 
G01 X-14.0851 Y10.8274 
G01 X-14.2121 Y10.7425 
G01 X-14.3533 Y10.6840 
G01 X-14.5032 Y10.6542 
G00 Z2.5400 
G00 X-14.5032 Y8.1142 
G01 Z-0.1500 F254.00 
G01 X-15.6730 Y8.1142 F508.00 
G01 X-18.9127 Y4.8745 
G01 X-19.0018 Y4.8376 
G01 X-22.7596 Y4.8376 
G01 X-25.1095 Y2.4877 
G01 X-25.1333 Y2.4143 
G01 X-25.2087 Y2.2664 
G01 X-25.3063 Y2.1320 
G01 X-25.4238 Y2.0145 
G01 X-25.5582 Y1.9169 
G01 X-25.7061 Y1.8415 
G01 X-25.8641 Y1.7902 
G01 X-26.0282 Y1.7642 
G01 X-26.1942 Y1.7642 
G01 X-26.3583 Y1.7902 
G01 X-26.5163 Y1.8415 
G01 X-26.6642 Y1.9169 
G01 X-26.7986 Y2.0145 
G01 X-26.9161 Y2.1320 
G01 X-27.0137 Y2.2664 
G01 X-27.0891 Y2.4143 
G01 X-27.1404 Y2.5723 
G01 X-27.1664 Y2.7364 
G01 X-27.1664 Y2.9024 
G01 X-27.1404 Y3.0665 
G01 X-27.0891 Y3.2245 
G01 X-27.0137 Y3.3724 
G01 X-26.9161 Y3.5068 
G01 X-26.7986 Y3.6243 
G01 X-26.6642 Y3.7219 
G01 X-26.5163 Y3.7973 
G01 X-26.3583 Y3.8486 
G01 X-26.1942 Y3.8746 
G01 X-26.0282 Y3.8746 
G01 X-25.8641 Y3.8486 
G01 X-25.7061 Y3.7973 
G01 X-25.5582 Y3.7219 
G01 X-25.4238 Y3.6243 
G01 X-25.3063 Y3.5068 
G01 X-25.2087 Y3.3724 
G01 X-25.1333 Y3.2245 
G01 X-25.1149 Y3.1679 
G01 X-23.0655 Y5.2173 
G01 X-22.9973 Y5.2855 
G01 X-22.9082 Y5.3224 
G01 X-19.1504 Y5.3224 
G01 X-16.2693 Y8.2035 
G01 X-16.3949 Y8.2874 
G01 X-16.5030 Y8.3955 
G01 X-16.5879 Y8.5225 
G01 X-16.6464 Y8.6637 
G01 X-16.6762 Y8.8136 
G01 X-16.6762 Y8.9664 
G01 X-16.6464 Y9.1163 
G01 X-16.5879 Y9.2575 
G01 X-16.5030 Y9.3845 
G01 X-16.3949 Y9.4926 
G01 X-16.2679 Y9.5775 
G01 X-16.1267 Y9.6360 
G01 X-15.9768 Y9.6658 
G01 X-14.5032 Y9.6658 
G01 X-14.3533 Y9.6360 
G01 X-14.2121 Y9.5775 
G01 X-14.0851 Y9.4926 
G01 X-13.9770 Y9.3845 
G01 X-13.8921 Y9.2575 
G01 X-13.8336 Y9.1163 
G01 X-13.8038 Y8.9664 
G01 X-13.8038 Y8.8136 
G01 X-13.8336 Y8.6637 
G01 X-13.8921 Y8.5225 
G01 X-13.9770 Y8.3955 
G01 X-14.0851 Y8.2874 
G01 X-14.2121 Y8.2025 
G01 X-14.3533 Y8.1440 
G01 X-14.5032 Y8.1142 
G00 Z2.5400 
G00 X-51.6484 Y9.7674 
G01 Z-0.1500 F254.00 
G01 X-49.9516 Y9.7674 F508.00 
G01 X-49.7821 Y9.7337 
G01 X-49.6224 Y9.6675 
G01 X-49.4787 Y9.5715 
G01 X-49.3565 Y9.4493 
G01 X-49.2605 Y9.3056 
G01 X-49.1943 Y9.1459 
G01 X-49.1606 Y8.9764 
G01 X-49.1606 Y8.8036 
G01 X-49.1943 Y8.6341 
G01 X-49.2605 Y8.4744 
G01 X-49.3565 Y8.3307 
G01 X-49.4787 Y8.2085 
G01 X-49.6224 Y8.1125 
G01 X-49.7821 Y8.0463 
G01 X-49.9516 Y8.0126 
G01 X-51.6484 Y8.0126 
G01 X-51.8179 Y8.0463 
G01 X-51.9776 Y8.1125 
G01 X-52.1213 Y8.2085 
G01 X-52.2435 Y8.3307 
G01 X-52.3395 Y8.4744 
G01 X-52.4057 Y8.6341 
G01 X-52.4394 Y8.8036 
G01 X-52.4394 Y8.9764 
G01 X-52.4057 Y9.1459 
G01 X-52.3395 Y9.3056 
G01 X-52.2435 Y9.4493 
G01 X-52.1213 Y9.5715 
G01 X-51.9776 Y9.6675 
G01 X-51.8179 Y9.7337 
G01 X-51.6484 Y9.7674 
G00 Z2.5400 
G00 X-51.6484 Y14.8474 
G01 Z-0.1500 F254.00 
G01 X-49.9516 Y14.8474 F508.00 
G01 X-49.7821 Y14.8137 
G01 X-49.6224 Y14.7475 
G01 X-49.4787 Y14.6515 
G01 X-49.3565 Y14.5293 
G01 X-49.2605 Y14.3856 
G01 X-49.1943 Y14.2259 
G01 X-49.1606 Y14.0564 
G01 X-49.1606 Y13.8836 
G01 X-49.1943 Y13.7141 
G01 X-49.2605 Y13.5544 
G01 X-49.3565 Y13.4107 
G01 X-49.4787 Y13.2885 
G01 X-49.6224 Y13.1925 
G01 X-49.7821 Y13.1263 
G01 X-49.9516 Y13.0926 
G01 X-51.6484 Y13.0926 
G01 X-51.8179 Y13.1263 
G01 X-51.9776 Y13.1925 
G01 X-52.1213 Y13.2885 
G01 X-52.2435 Y13.4107 
G01 X-52.3395 Y13.5544 
G01 X-52.4057 Y13.7141 
G01 X-52.4394 Y13.8836 
G01 X-52.4394 Y14.0564 
G01 X-52.4057 Y14.2259 
G01 X-52.3395 Y14.3856 
G01 X-52.2435 Y14.5293 
G01 X-52.1213 Y14.6515 
G01 X-51.9776 Y14.7475 
G01 X-51.8179 Y14.8137 
G01 X-51.6484 Y14.8474 
G00 Z2.5400 
G00 X-51.6484 Y17.3874 
G01 Z-0.1500 F254.00 
G01 X-49.9516 Y17.3874 F508.00 
G01 X-49.7821 Y17.3537 
G01 X-49.6224 Y17.2875 
G01 X-49.4787 Y17.1915 
G01 X-49.3565 Y17.0693 
G01 X-49.2605 Y16.9256 
G01 X-49.1943 Y16.7659 
G01 X-49.1606 Y16.5964 
G01 X-49.1606 Y16.4236 
G01 X-49.1943 Y16.2541 
G01 X-49.2605 Y16.0944 
G01 X-49.3565 Y15.9507 
G01 X-49.4787 Y15.8285 
G01 X-49.6224 Y15.7325 
G01 X-49.7821 Y15.6663 
G01 X-49.9516 Y15.6326 
G01 X-51.6484 Y15.6326 
G01 X-51.8179 Y15.6663 
G01 X-51.9776 Y15.7325 
G01 X-52.1213 Y15.8285 
G01 X-52.2435 Y15.9507 
G01 X-52.3395 Y16.0944 
G01 X-52.4057 Y16.2541 
G01 X-52.4394 Y16.4236 
G01 X-52.4394 Y16.5964 
G01 X-52.4057 Y16.7659 
G01 X-52.3395 Y16.9256 
G01 X-52.2435 Y17.0693 
G01 X-52.1213 Y17.1915 
G01 X-51.9776 Y17.2875 
G01 X-51.8179 Y17.3537 
G01 X-51.6484 Y17.3874 
G00 Z2.5400 
G00 X-51.6484 Y19.9274 
G01 Z-0.1500 F254.00 
G01 X-49.9516 Y19.9274 F508.00 
G01 X-49.7821 Y19.8937 
G01 X-49.6224 Y19.8275 
G01 X-49.4787 Y19.7315 
G01 X-49.3565 Y19.6093 
G01 X-49.2605 Y19.4656 
G01 X-49.1943 Y19.3059 
G01 X-49.1606 Y19.1364 
G01 X-49.1606 Y18.9636 
G01 X-49.1943 Y18.7941 
G01 X-49.2605 Y18.6344 
G01 X-49.3565 Y18.4907 
G01 X-49.4787 Y18.3685 
G01 X-49.6224 Y18.2725 
G01 X-49.7821 Y18.2063 
G01 X-49.9516 Y18.1726 
G01 X-51.6484 Y18.1726 
G01 X-51.8179 Y18.2063 
G01 X-51.9776 Y18.2725 
G01 X-52.1213 Y18.3685 
G01 X-52.2435 Y18.4907 
G01 X-52.3395 Y18.6344 
G01 X-52.4057 Y18.7941 
G01 X-52.4394 Y18.9636 
G01 X-52.4394 Y19.1364 
G01 X-52.4057 Y19.3059 
G01 X-52.3395 Y19.4656 
G01 X-52.2435 Y19.6093 
G01 X-52.1213 Y19.7315 
G01 X-51.9776 Y19.8275 
G01 X-51.8179 Y19.8937 
G01 X-51.6484 Y19.9274 
G00 Z2.5400 
G00 X-51.6484 Y22.4674 
G01 Z-0.1500 F254.00 
G01 X-50.2654 Y22.4674 F508.00 
G01 X-43.3173 Y29.4155 
G01 X-43.2282 Y29.4524 
G01 X-20.4204 Y29.4524 
G01 X-16.2693 Y33.6035 
G01 X-16.3949 Y33.6874 
G01 X-16.5030 Y33.7955 
G01 X-16.5879 Y33.9225 
G01 X-16.6464 Y34.0637 
G01 X-16.6762 Y34.2136 
G01 X-16.6762 Y34.3664 
G01 X-16.6464 Y34.5163 
G01 X-16.5879 Y34.6575 
G01 X-16.5030 Y34.7845 
G01 X-16.3949 Y34.8926 
G01 X-16.2679 Y34.9775 
G01 X-16.1267 Y35.0360 
G01 X-15.9768 Y35.0658 
G01 X-14.5032 Y35.0658 
G01 X-14.3533 Y35.0360 
G01 X-14.2121 Y34.9775 
G01 X-14.0851 Y34.8926 
G01 X-13.9770 Y34.7845 
G01 X-13.8921 Y34.6575 
G01 X-13.8336 Y34.5163 
G01 X-13.8038 Y34.3664 
G01 X-13.8038 Y34.2136 
G01 X-13.8336 Y34.0637 
G01 X-13.8921 Y33.9225 
G01 X-13.9770 Y33.7955 
G01 X-14.0851 Y33.6874 
G01 X-14.2121 Y33.6025 
G01 X-14.3533 Y33.5440 
G01 X-14.5032 Y33.5142 
G01 X-15.6730 Y33.5142 
G01 X-20.1145 Y29.0727 
G01 X-20.1827 Y29.0045 
G01 X-20.2718 Y28.9676 
G01 X-43.0796 Y28.9676 
G01 X-49.6629 Y22.3843 
G01 X-49.6224 Y22.3675 
G01 X-49.4787 Y22.2715 
G01 X-49.3565 Y22.1493 
G01 X-49.2605 Y22.0056 
G01 X-49.1943 Y21.8459 
G01 X-49.1606 Y21.6764 
G01 X-49.1606 Y21.5036 
G01 X-49.1943 Y21.3341 
G01 X-49.2605 Y21.1744 
G01 X-49.3565 Y21.0307 
G01 X-49.4787 Y20.9085 
G01 X-49.6224 Y20.8125 
G01 X-49.7821 Y20.7463 
G01 X-49.9516 Y20.7126 
G01 X-51.6484 Y20.7126 
G01 X-51.8179 Y20.7463 
G01 X-51.9776 Y20.8125 
G01 X-52.1213 Y20.9085 
G01 X-52.2435 Y21.0307 
G01 X-52.3395 Y21.1744 
G01 X-52.4057 Y21.3341 
G01 X-52.4394 Y21.5036 
G01 X-52.4394 Y21.6764 
G01 X-52.4057 Y21.8459 
G01 X-52.3395 Y22.0056 
G01 X-52.2435 Y22.1493 
G01 X-52.1213 Y22.2715 
G01 X-51.9776 Y22.3675 
G01 X-51.8179 Y22.4337 
G01 X-51.6484 Y22.4674 
G00 Z2.5400 
G00 X-51.6484 Y27.5474 
G01 Z-0.1500 F254.00 
G01 X-50.2654 Y27.5474 F508.00 
G01 X-39.5073 Y38.3055 
G01 X-39.4182 Y38.3424 
G01 X-16.6104 Y38.3424 
G01 X-16.2693 Y38.6835 
G01 X-16.3949 Y38.7674 
G01 X-16.5030 Y38.8755 
G01 X-16.5879 Y39.0025 
G01 X-16.6464 Y39.1437 
G01 X-16.6762 Y39.2936 
G01 X-16.6762 Y39.4464 
G01 X-16.6464 Y39.5963 
G01 X-16.5879 Y39.7375 
G01 X-16.5030 Y39.8645 
G01 X-16.3949 Y39.9726 
G01 X-16.2679 Y40.0575 
G01 X-16.1267 Y40.1160 
G01 X-15.9768 Y40.1458 
G01 X-14.5032 Y40.1458 
G01 X-14.3533 Y40.1160 
G01 X-14.2121 Y40.0575 
G01 X-14.0851 Y39.9726 
G01 X-13.9770 Y39.8645 
G01 X-13.8921 Y39.7375 
G01 X-13.8336 Y39.5963 
G01 X-13.8038 Y39.4464 
G01 X-13.8038 Y39.2936 
G01 X-13.8336 Y39.1437 
G01 X-13.8921 Y39.0025 
G01 X-13.9770 Y38.8755 
G01 X-14.0851 Y38.7674 
G01 X-14.2121 Y38.6825 
G01 X-14.3533 Y38.6240 
G01 X-14.5032 Y38.5942 
G01 X-15.6730 Y38.5942 
G01 X-16.3045 Y37.9627 
G01 X-16.3727 Y37.8945 
G01 X-16.4618 Y37.8576 
G01 X-39.2696 Y37.8576 
G01 X-49.6629 Y27.4643 
G01 X-49.6224 Y27.4475 
G01 X-49.4787 Y27.3515 
G01 X-49.3565 Y27.2293 
G01 X-49.2605 Y27.0856 
G01 X-49.1943 Y26.9259 
G01 X-49.1606 Y26.7564 
G01 X-49.1606 Y26.5836 
G01 X-49.1943 Y26.4141 
G01 X-49.2605 Y26.2544 
G01 X-49.3565 Y26.1107 
G01 X-49.4787 Y25.9885 
G01 X-49.6224 Y25.8925 
G01 X-49.7821 Y25.8263 
G01 X-49.9516 Y25.7926 
G01 X-51.6484 Y25.7926 
G01 X-51.8179 Y25.8263 
G01 X-51.9776 Y25.8925 
G01 X-52.1213 Y25.9885 
G01 X-52.2435 Y26.1107 
G01 X-52.3395 Y26.2544 
G01 X-52.4057 Y26.4141 
G01 X-52.4394 Y26.5836 
G01 X-52.4394 Y26.7564 
G01 X-52.4057 Y26.9259 
G01 X-52.3395 Y27.0856 
G01 X-52.2435 Y27.2293 
G01 X-52.1213 Y27.3515 
G01 X-51.9776 Y27.4475 
G01 X-51.8179 Y27.5137 
G01 X-51.6484 Y27.5474 
G00 Z2.5400 
G00 X-51.6484 Y31.3574 
G01 Z-0.1500 F254.00 
G01 X-49.9516 Y31.3574 F508.00 
G01 X-49.7821 Y31.3237 
G01 X-49.6224 Y31.2575 
G01 X-49.4787 Y31.1615 
G01 X-49.3565 Y31.0393 
G01 X-49.2605 Y30.8956 
G01 X-49.1943 Y30.7359 
G01 X-49.1606 Y30.5664 
G01 X-49.1606 Y30.3936 
G01 X-49.1943 Y30.2241 
G01 X-49.2605 Y30.0644 
G01 X-49.3565 Y29.9207 
G01 X-49.4787 Y29.7985 
G01 X-49.6224 Y29.7025 
G01 X-49.7821 Y29.6363 
G01 X-49.9516 Y29.6026 
G01 X-51.6484 Y29.6026 
G01 X-51.8179 Y29.6363 
G01 X-51.9776 Y29.7025 
G01 X-52.1213 Y29.7985 
G01 X-52.2435 Y29.9207 
G01 X-52.3395 Y30.0644 
G01 X-52.4057 Y30.2241 
G01 X-52.4394 Y30.3936 
G01 X-52.4394 Y30.5664 
G01 X-52.4057 Y30.7359 
G01 X-52.3395 Y30.8956 
G01 X-52.2435 Y31.0393 
G01 X-52.1213 Y31.1615 
G01 X-51.9776 Y31.2575 
G01 X-51.8179 Y31.3237 
G01 X-51.6484 Y31.3574 
G00 Z2.5400 
G00 X-51.6484 Y33.8974 
G01 Z-0.1500 F254.00 
G01 X-49.9516 Y33.8974 F508.00 
G01 X-49.7821 Y33.8637 
G01 X-49.6224 Y33.7975 
G01 X-49.4787 Y33.7015 
G01 X-49.3565 Y33.5793 
G01 X-49.2605 Y33.4356 
G01 X-49.1943 Y33.2759 
G01 X-49.1606 Y33.1064 
G01 X-49.1606 Y32.9336 
G01 X-49.1943 Y32.7641 
G01 X-49.2605 Y32.6044 
G01 X-49.3565 Y32.4607 
G01 X-49.4787 Y32.3385 
G01 X-49.6224 Y32.2425 
G01 X-49.7821 Y32.1763 
G01 X-49.9516 Y32.1426 
G01 X-51.6484 Y32.1426 
G01 X-51.8179 Y32.1763 
G01 X-51.9776 Y32.2425 
G01 X-52.1213 Y32.3385 
G01 X-52.2435 Y32.4607 
G01 X-52.3395 Y32.6044 
G01 X-52.4057 Y32.7641 
G01 X-52.4394 Y32.9336 
G01 X-52.4394 Y33.1064 
G01 X-52.4057 Y33.2759 
G01 X-52.3395 Y33.4356 
G01 X-52.2435 Y33.5793 
G01 X-52.1213 Y33.7015 
G01 X-51.9776 Y33.7975 
G01 X-51.8179 Y33.8637 
G01 X-51.6484 Y33.8974 
G00 Z2.5400 
G00 X-51.6484 Y38.9774 
G01 Z-0.1500 F254.00 
G01 X-49.9516 Y38.9774 F508.00 
G01 X-49.7821 Y38.9437 
G01 X-49.6224 Y38.8775 
G01 X-49.4787 Y38.7815 
G01 X-49.3565 Y38.6593 
G01 X-49.2605 Y38.5156 
G01 X-49.1943 Y38.3559 
G01 X-49.1606 Y38.1864 
G01 X-49.1606 Y38.0136 
G01 X-49.1943 Y37.8441 
G01 X-49.2605 Y37.6844 
G01 X-49.3565 Y37.5407 
G01 X-49.4787 Y37.4185 
G01 X-49.6224 Y37.3225 
G01 X-49.7821 Y37.2563 
G01 X-49.9516 Y37.2226 
G01 X-51.6484 Y37.2226 
G01 X-51.8179 Y37.2563 
G01 X-51.9776 Y37.3225 
G01 X-52.1213 Y37.4185 
G01 X-52.2435 Y37.5407 
G01 X-52.3395 Y37.6844 
G01 X-52.4057 Y37.8441 
G01 X-52.4394 Y38.0136 
G01 X-52.4394 Y38.1864 
G01 X-52.4057 Y38.3559 
G01 X-52.3395 Y38.5156 
G01 X-52.2435 Y38.6593 
G01 X-52.1213 Y38.7815 
G01 X-51.9776 Y38.8775 
G01 X-51.8179 Y38.9437 
G01 X-51.6484 Y38.9774 
G00 Z2.5400 
G00 X-51.6484 Y44.0574 
G01 Z-0.1500 F254.00 
G01 X-49.9516 Y44.0574 F508.00 
G01 X-49.7821 Y44.0237 
G01 X-49.6224 Y43.9575 
G01 X-49.4787 Y43.8615 
G01 X-49.3565 Y43.7393 
G01 X-49.2605 Y43.5956 
G01 X-49.1943 Y43.4359 
G01 X-49.1916 Y43.4224 
G01 X-5.0318 Y43.4224 
G01 X-4.9427 Y43.3855 
G01 X-4.8745 Y43.3173 
G01 X-4.8376 Y43.2282 
G01 X-4.8376 Y34.2418 
G01 X-4.8745 Y34.1527 
G01 X-4.9427 Y34.0845 
G01 X-6.5907 Y32.4365 
G01 X-6.4651 Y32.3526 
G01 X-6.3570 Y32.2445 
G01 X-6.2721 Y32.1175 
G01 X-6.2136 Y31.9763 
G01 X-6.1838 Y31.8264 
G01 X-6.1838 Y31.6736 
G01 X-6.2136 Y31.5237 
G01 X-6.2721 Y31.3825 
G01 X-6.3570 Y31.2555 
G01 X-6.4651 Y31.1474 
G01 X-6.5921 Y31.0625 
G01 X-6.7333 Y31.0040 
G01 X-6.8832 Y30.9742 
G01 X-8.3568 Y30.9742 
G01 X-8.5067 Y31.0040 
G01 X-8.6479 Y31.0625 
G01 X-8.7749 Y31.1474 
G01 X-8.8830 Y31.2555 
G01 X-8.9679 Y31.3825 
G01 X-9.0264 Y31.5237 
G01 X-9.0562 Y31.6736 
G01 X-9.0562 Y31.8264 
G01 X-9.0264 Y31.9763 
G01 X-8.9679 Y32.1175 
G01 X-8.8830 Y32.2445 
G01 X-8.7749 Y32.3526 
G01 X-8.6479 Y32.4375 
G01 X-8.5067 Y32.4960 
G01 X-8.3568 Y32.5258 
G01 X-7.1870 Y32.5258 
G01 X-5.3224 Y34.3904 
G01 X-5.3224 Y42.9376 
G01 X-49.1916 Y42.9376 
G01 X-49.1943 Y42.9241 
G01 X-49.2605 Y42.7644 
G01 X-49.3565 Y42.6207 
G01 X-49.4787 Y42.4985 
G01 X-49.6224 Y42.4025 
G01 X-49.7821 Y42.3363 
G01 X-49.9516 Y42.3026 
G01 X-51.6484 Y42.3026 
G01 X-51.8179 Y42.3363 
G01 X-51.9776 Y42.4025 
G01 X-52.1213 Y42.4985 
G01 X-52.2435 Y42.6207 
G01 X-52.3395 Y42.7644 
G01 X-52.4057 Y42.9241 
G01 X-52.4394 Y43.0936 
G01 X-52.4394 Y43.2664 
G01 X-52.4057 Y43.4359 
G01 X-52.3395 Y43.5956 
G01 X-52.2435 Y43.7393 
G01 X-52.1213 Y43.8615 
G01 X-51.9776 Y43.9575 
G01 X-51.8179 Y44.0237 
G01 X-51.6484 Y44.0574 
G00 Z2.5400 
G00 X-3.3884 Y9.7674 
G01 Z-0.1500 F254.00 
G01 X-1.6916 Y9.7674 F508.00 
G01 X-1.5221 Y9.7337 
G01 X-1.3624 Y9.6675 
G01 X-1.2187 Y9.5715 
G01 X-1.0965 Y9.4493 
G01 X-1.0005 Y9.3056 
G01 X-0.9343 Y9.1459 
G01 X-0.9006 Y8.9764 
G01 X-0.9006 Y8.8036 
G01 X-0.9343 Y8.6341 
G01 X-1.0005 Y8.4744 
G01 X-1.0965 Y8.3307 
G01 X-1.2187 Y8.2085 
G01 X-1.3624 Y8.1125 
G01 X-1.5221 Y8.0463 
G01 X-1.6916 Y8.0126 
G01 X-3.3884 Y8.0126 
G01 X-3.5579 Y8.0463 
G01 X-3.7176 Y8.1125 
G01 X-3.8613 Y8.2085 
G01 X-3.9835 Y8.3307 
G01 X-4.0795 Y8.4744 
G01 X-4.1457 Y8.6341 
G01 X-4.1794 Y8.8036 
G01 X-4.1794 Y8.9764 
G01 X-4.1457 Y9.1459 
G01 X-4.0795 Y9.3056 
G01 X-3.9835 Y9.4493 
G01 X-3.8613 Y9.5715 
G01 X-3.7176 Y9.6675 
G01 X-3.5579 Y9.7337 
G01 X-3.3884 Y9.7674 
G00 Z2.5400 
G00 X-3.3884 Y12.3074 
G01 Z-0.1500 F254.00 
G01 X-1.6916 Y12.3074 F508.00 
G01 X-1.5221 Y12.2737 
G01 X-1.3624 Y12.2075 
G01 X-1.2187 Y12.1115 
G01 X-1.0965 Y11.9893 
G01 X-1.0005 Y11.8456 
G01 X-0.9343 Y11.6859 
G01 X-0.9006 Y11.5164 
G01 X-0.9006 Y11.3436 
G01 X-0.9343 Y11.1741 
G01 X-1.0005 Y11.0144 
G01 X-1.0965 Y10.8707 
G01 X-1.2187 Y10.7485 
G01 X-1.3624 Y10.6525 
G01 X-1.5221 Y10.5863 
G01 X-1.6916 Y10.5526 
G01 X-3.3884 Y10.5526 
G01 X-3.5579 Y10.5863 
G01 X-3.7176 Y10.6525 
G01 X-3.8613 Y10.7485 
G01 X-3.9835 Y10.8707 
G01 X-4.0795 Y11.0144 
G01 X-4.1457 Y11.1741 
G01 X-4.1794 Y11.3436 
G01 X-4.1794 Y11.5164 
G01 X-4.1457 Y11.6859 
G01 X-4.0795 Y11.8456 
G01 X-3.9835 Y11.9893 
G01 X-3.8613 Y12.1115 
G01 X-3.7176 Y12.2075 
G01 X-3.5579 Y12.2737 
G01 X-3.3884 Y12.3074 
G00 Z2.5400 
G00 X-3.3884 Y14.8474 
G01 Z-0.1500 F254.00 
G01 X-1.6916 Y14.8474 F508.00 
G01 X-1.5221 Y14.8137 
G01 X-1.3624 Y14.7475 
G01 X-1.2187 Y14.6515 
G01 X-1.0965 Y14.5293 
G01 X-1.0005 Y14.3856 
G01 X-0.9343 Y14.2259 
G01 X-0.9006 Y14.0564 
G01 X-0.9006 Y13.8836 
G01 X-0.9343 Y13.7141 
G01 X-1.0005 Y13.5544 
G01 X-1.0965 Y13.4107 
G01 X-1.2187 Y13.2885 
G01 X-1.3624 Y13.1925 
G01 X-1.5221 Y13.1263 
G01 X-1.6916 Y13.0926 
G01 X-3.3884 Y13.0926 
G01 X-3.5579 Y13.1263 
G01 X-3.7176 Y13.1925 
G01 X-3.8613 Y13.2885 
G01 X-3.9835 Y13.4107 
G01 X-4.0795 Y13.5544 
G01 X-4.1457 Y13.7141 
G01 X-4.1794 Y13.8836 
G01 X-4.1794 Y14.0564 
G01 X-4.1457 Y14.2259 
G01 X-4.0795 Y14.3856 
G01 X-3.9835 Y14.5293 
G01 X-3.8613 Y14.6515 
G01 X-3.7176 Y14.7475 
G01 X-3.5579 Y14.8137 
G01 X-3.3884 Y14.8474 
G00 Z2.5400 
G00 X-3.3884 Y17.3874 
G01 Z-0.1500 F254.00 
G01 X-1.6916 Y17.3874 F508.00 
G01 X-1.5221 Y17.3537 
G01 X-1.3624 Y17.2875 
G01 X-1.2187 Y17.1915 
G01 X-1.0965 Y17.0693 
G01 X-1.0005 Y16.9256 
G01 X-0.9343 Y16.7659 
G01 X-0.9006 Y16.5964 
G01 X-0.9006 Y16.4236 
G01 X-0.9343 Y16.2541 
G01 X-1.0005 Y16.0944 
G01 X-1.0965 Y15.9507 
G01 X-1.2187 Y15.8285 
G01 X-1.3624 Y15.7325 
G01 X-1.5221 Y15.6663 
G01 X-1.6916 Y15.6326 
G01 X-3.3884 Y15.6326 
G01 X-3.5579 Y15.6663 
G01 X-3.7176 Y15.7325 
G01 X-3.8613 Y15.8285 
G01 X-3.9835 Y15.9507 
G01 X-4.0795 Y16.0944 
G01 X-4.1457 Y16.2541 
G01 X-4.1794 Y16.4236 
G01 X-4.1794 Y16.5964 
G01 X-4.1457 Y16.7659 
G01 X-4.0795 Y16.9256 
G01 X-3.9835 Y17.0693 
G01 X-3.8613 Y17.1915 
G01 X-3.7176 Y17.2875 
G01 X-3.5579 Y17.3537 
G01 X-3.3884 Y17.3874 
G00 Z2.5400 
G00 X-3.3884 Y19.9274 
G01 Z-0.1500 F254.00 
G01 X-1.6916 Y19.9274 F508.00 
G01 X-1.5221 Y19.8937 
G01 X-1.3624 Y19.8275 
G01 X-1.2187 Y19.7315 
G01 X-1.0965 Y19.6093 
G01 X-1.0005 Y19.4656 
G01 X-0.9343 Y19.3059 
G01 X-0.9006 Y19.1364 
G01 X-0.9006 Y18.9636 
G01 X-0.9343 Y18.7941 
G01 X-1.0005 Y18.6344 
G01 X-1.0965 Y18.4907 
G01 X-1.2187 Y18.3685 
G01 X-1.3624 Y18.2725 
G01 X-1.5221 Y18.2063 
G01 X-1.6916 Y18.1726 
G01 X-3.3884 Y18.1726 
G01 X-3.5579 Y18.2063 
G01 X-3.7176 Y18.2725 
G01 X-3.8613 Y18.3685 
G01 X-3.9835 Y18.4907 
G01 X-4.0795 Y18.6344 
G01 X-4.1457 Y18.7941 
G01 X-4.1794 Y18.9636 
G01 X-4.1794 Y19.1364 
G01 X-4.1457 Y19.3059 
G01 X-4.0795 Y19.4656 
G01 X-3.9835 Y19.6093 
G01 X-3.8613 Y19.7315 
G01 X-3.7176 Y19.8275 
G01 X-3.5579 Y19.8937 
G01 X-3.3884 Y19.9274 
G00 Z2.5400 
G00 X-3.3884 Y22.4674 
G01 Z-0.1500 F254.00 
G01 X-1.6916 Y22.4674 F508.00 
G01 X-1.5221 Y22.4337 
G01 X-1.3624 Y22.3675 
G01 X-1.2187 Y22.2715 
G01 X-1.0965 Y22.1493 
G01 X-1.0005 Y22.0056 
G01 X-0.9343 Y21.8459 
G01 X-0.9006 Y21.6764 
G01 X-0.9006 Y21.5036 
G01 X-0.9343 Y21.3341 
G01 X-1.0005 Y21.1744 
G01 X-1.0965 Y21.0307 
G01 X-1.2187 Y20.9085 
G01 X-1.3624 Y20.8125 
G01 X-1.5221 Y20.7463 
G01 X-1.6916 Y20.7126 
G01 X-3.3884 Y20.7126 
G01 X-3.5579 Y20.7463 
G01 X-3.7176 Y20.8125 
G01 X-3.8613 Y20.9085 
G01 X-3.9835 Y21.0307 
G01 X-4.0795 Y21.1744 
G01 X-4.1457 Y21.3341 
G01 X-4.1794 Y21.5036 
G01 X-4.1794 Y21.6764 
G01 X-4.1457 Y21.8459 
G01 X-4.0795 Y22.0056 
G01 X-3.9835 Y22.1493 
G01 X-3.8613 Y22.2715 
G01 X-3.7176 Y22.3675 
G01 X-3.5579 Y22.4337 
G01 X-3.3884 Y22.4674 
G00 Z2.5400 
G00 X-3.3884 Y27.5474 
G01 Z-0.1500 F254.00 
G01 X-1.6916 Y27.5474 F508.00 
G01 X-1.5221 Y27.5137 
G01 X-1.3624 Y27.4475 
G01 X-1.2187 Y27.3515 
G01 X-1.0965 Y27.2293 
G01 X-1.0005 Y27.0856 
G01 X-0.9343 Y26.9259 
G01 X-0.9006 Y26.7564 
G01 X-0.9006 Y26.5836 
G01 X-0.9343 Y26.4141 
G01 X-1.0005 Y26.2544 
G01 X-1.0965 Y26.1107 
G01 X-1.2187 Y25.9885 
G01 X-1.3624 Y25.8925 
G01 X-1.5221 Y25.8263 
G01 X-1.6916 Y25.7926 
G01 X-3.3884 Y25.7926 
G01 X-3.5579 Y25.8263 
G01 X-3.7176 Y25.8925 
G01 X-3.8613 Y25.9885 
G01 X-3.9835 Y26.1107 
G01 X-4.0795 Y26.2544 
G01 X-4.1457 Y26.4141 
G01 X-4.1794 Y26.5836 
G01 X-4.1794 Y26.7564 
G01 X-4.1457 Y26.9259 
G01 X-4.0795 Y27.0856 
G01 X-3.9835 Y27.2293 
G01 X-3.8613 Y27.3515 
G01 X-3.7176 Y27.4475 
G01 X-3.5579 Y27.5137 
G01 X-3.3884 Y27.5474 
G00 Z2.5400 
G00 X-3.3884 Y32.6274 
G01 Z-0.1500 F254.00 
G01 X-1.6916 Y32.6274 F508.00 
G01 X-1.5221 Y32.5937 
G01 X-1.3624 Y32.5275 
G01 X-1.2187 Y32.4315 
G01 X-1.0965 Y32.3093 
G01 X-1.0005 Y32.1656 
G01 X-0.9343 Y32.0059 
G01 X-0.9006 Y31.8364 
G01 X-0.9006 Y31.6636 
G01 X-0.9343 Y31.4941 
G01 X-1.0005 Y31.3344 
G01 X-1.0965 Y31.1907 
G01 X-1.2187 Y31.0685 
G01 X-1.3624 Y30.9725 
G01 X-1.5221 Y30.9063 
G01 X-1.6916 Y30.8726 
G01 X-3.3884 Y30.8726 
G01 X-3.5579 Y30.9063 
G01 X-3.7176 Y30.9725 
G01 X-3.8613 Y31.0685 
G01 X-3.9835 Y31.1907 
G01 X-4.0795 Y31.3344 
G01 X-4.1457 Y31.4941 
G01 X-4.1794 Y31.6636 
G01 X-4.1794 Y31.8364 
G01 X-4.1457 Y32.0059 
G01 X-4.0795 Y32.1656 
G01 X-3.9835 Y32.3093 
G01 X-3.8613 Y32.4315 
G01 X-3.7176 Y32.5275 
G01 X-3.5579 Y32.5937 
G01 X-3.3884 Y32.6274 
G00 Z2.5400 
G00 X-3.3884 Y35.1674 
G01 Z-0.1500 F254.00 
G01 X-1.6916 Y35.1674 F508.00 
G01 X-1.5221 Y35.1337 
G01 X-1.3624 Y35.0675 
G01 X-1.2187 Y34.9715 
G01 X-1.0965 Y34.8493 
G01 X-1.0005 Y34.7056 
G01 X-0.9343 Y34.5459 
G01 X-0.9006 Y34.3764 
G01 X-0.9006 Y34.2036 
G01 X-0.9343 Y34.0341 
G01 X-1.0005 Y33.8744 
G01 X-1.0965 Y33.7307 
G01 X-1.2187 Y33.6085 
G01 X-1.3624 Y33.5125 
G01 X-1.5221 Y33.4463 
G01 X-1.6916 Y33.4126 
G01 X-3.3884 Y33.4126 
G01 X-3.5579 Y33.4463 
G01 X-3.7176 Y33.5125 
G01 X-3.8613 Y33.6085 
G01 X-3.9835 Y33.7307 
G01 X-4.0795 Y33.8744 
G01 X-4.1457 Y34.0341 
G01 X-4.1794 Y34.2036 
G01 X-4.1794 Y34.3764 
G01 X-4.1457 Y34.5459 
G01 X-4.0795 Y34.7056 
G01 X-3.9835 Y34.8493 
G01 X-3.8613 Y34.9715 
G01 X-3.7176 Y35.0675 
G01 X-3.5579 Y35.1337 
G01 X-3.3884 Y35.1674 
G00 Z2.5400 
G00 X-27.9926 Y49.3816 
G01 Z-0.1500 F254.00 
G01 X-27.9718 Y49.4594 F508.00 
G01 X-27.9315 Y49.5292 
G01 X-27.8745 Y49.5861 
G01 X-27.8048 Y49.6264 
G01 X-27.7270 Y49.6472 
G01 X-27.6464 Y49.6472 
G01 X-27.5686 Y49.6264 
G01 X-27.4989 Y49.5861 
G01 X-27.4419 Y49.5292 
G01 X-27.4017 Y49.4594 
G01 X-27.3808 Y49.3816 
G01 X-27.3808 Y47.9190 
G01 X-27.2112 Y48.0886 
G01 X-27.1543 Y48.1456 
G01 X-27.0845 Y48.1858 
G01 X-27.0067 Y48.2067 
G01 X-26.9262 Y48.2067 
G01 X-26.8484 Y48.1858 
G01 X-26.7786 Y48.1456 
G01 X-26.5521 Y47.9190 
G01 X-26.5521 Y49.3816 
G01 X-26.5312 Y49.4594 
G01 X-26.4909 Y49.5292 
G01 X-26.4340 Y49.5861 
G01 X-26.3642 Y49.6264 
G01 X-26.2864 Y49.6472 
G01 X-26.2059 Y49.6472 
G01 X-26.1281 Y49.6264 
G01 X-26.0583 Y49.5861 
G01 X-26.0014 Y49.5292 
G01 X-25.9611 Y49.4594 
G01 X-25.9403 Y49.3816 
G01 X-25.9403 Y47.1402 
G01 X-25.9611 Y47.0624 
G01 X-26.0014 Y46.9927 
G01 X-26.0583 Y46.9357 
G01 X-26.1281 Y46.8954 
G01 X-26.2059 Y46.8746 
G01 X-26.2864 Y46.8746 
G01 X-26.3642 Y46.8954 
G01 X-26.4340 Y46.9357 
G01 X-26.4909 Y46.9927 
G01 X-26.9664 Y47.4682 
G01 X-27.4989 Y46.9357 
G01 X-27.5686 Y46.8954 
G01 X-27.6464 Y46.8746 
G01 X-27.7270 Y46.8746 
G01 X-27.8048 Y46.8954 
G01 X-27.8745 Y46.9357 
G01 X-27.9315 Y46.9927 
G01 X-27.9718 Y47.0624 
G01 X-27.9926 Y47.1402 
G01 X-27.9926 Y47.2208 
G01 X-27.9926 Y49.3816 
G00 Z2.5400 
G00 X-32.6702 Y47.1402 
G01 Z-0.1500 F254.00 
G01 X-32.6702 Y49.3816 F508.00 
G01 X-32.6494 Y49.4594 
G01 X-32.6091 Y49.5292 
G01 X-32.5521 Y49.5861 
G01 X-32.4824 Y49.6264 
G01 X-32.4046 Y49.6472 
G01 X-32.3240 Y49.6472 
G01 X-32.2462 Y49.6264 
G01 X-32.1765 Y49.5861 
G01 X-32.1195 Y49.5292 
G01 X-32.0793 Y49.4594 
G01 X-32.0584 Y49.3816 
G01 X-32.0584 Y48.6393 
G01 X-31.1116 Y49.5861 
G01 X-31.0418 Y49.6264 
G01 X-30.9640 Y49.6472 
G01 X-30.8835 Y49.6472 
G01 X-30.8057 Y49.6264 
G01 X-30.7359 Y49.5861 
G01 X-30.6790 Y49.5292 
G01 X-30.6387 Y49.4594 
G01 X-30.6179 Y49.3816 
G01 X-30.6179 Y49.3011 
G01 X-30.6387 Y49.2233 
G01 X-30.6790 Y49.1535 
G01 X-31.5716 Y48.2609 
G01 X-30.6790 Y47.3683 
G01 X-30.6387 Y47.2986 
G01 X-30.6179 Y47.2208 
G01 X-30.6179 Y47.1402 
G01 X-30.6387 Y47.0624 
G01 X-30.6790 Y46.9927 
G01 X-30.7359 Y46.9357 
G01 X-30.8057 Y46.8954 
G01 X-30.8835 Y46.8746 
G01 X-30.9640 Y46.8746 
G01 X-31.0418 Y46.8954 
G01 X-31.1116 Y46.9357 
G01 X-32.0042 Y47.8283 
G01 X-32.0584 Y47.7741 
G01 X-32.0584 Y47.1402 
G01 X-32.0793 Y47.0624 
G01 X-32.1195 Y46.9927 
G01 X-32.1765 Y46.9357 
G01 X-32.2462 Y46.8954 
G01 X-32.3240 Y46.8746 
G01 X-32.4046 Y46.8746 
G01 X-32.4824 Y46.8954 
G01 X-32.5521 Y46.9357 
G01 X-32.6091 Y46.9927 
G01 X-32.6494 Y47.0624 
G01 X-32.6702 Y47.1402 
G00 Z2.5400 
G00 X-40.0342 Y49.1690 
G01 Z-0.1500 F254.00 
G01 X-39.9939 Y49.0993 F508.00 
G01 X-39.9730 Y49.0215 
G01 X-39.9730 Y48.9409 
G01 X-39.9939 Y48.8631 
G01 X-40.0342 Y48.7934 
G01 X-40.0911 Y48.7364 
G01 X-40.1609 Y48.6962 
G01 X-40.2387 Y48.6753 
G01 X-40.3192 Y48.6753 
G01 X-40.3970 Y48.6962 
G01 X-40.4668 Y48.7364 
G01 X-40.7658 Y49.0354 
G01 X-41.2326 Y49.0354 
G01 X-41.4136 Y48.8545 
G01 X-41.4136 Y47.6673 
G01 X-41.2326 Y47.4864 
G01 X-40.7658 Y47.4864 
G01 X-40.4668 Y47.7854 
G01 X-40.3970 Y47.8257 
G01 X-40.3192 Y47.8465 
G01 X-40.2387 Y47.8465 
G01 X-40.1609 Y47.8257 
G01 X-40.0911 Y47.7854 
G01 X-40.0342 Y47.7285 
G01 X-39.9939 Y47.6587 
G01 X-39.9730 Y47.5809 
G01 X-39.9730 Y47.5004 
G01 X-39.9939 Y47.4226 
G01 X-40.0342 Y47.3528 
G01 X-40.4513 Y46.9357 
G01 X-40.5210 Y46.8954 
G01 X-40.5988 Y46.8746 
G01 X-41.3996 Y46.8746 
G01 X-41.4774 Y46.8954 
G01 X-41.5472 Y46.9357 
G01 X-41.6041 Y46.9927 
G01 X-41.9643 Y47.3528 
G01 X-42.0046 Y47.4226 
G01 X-42.0254 Y47.5004 
G01 X-42.0254 Y49.0215 
G01 X-42.0046 Y49.0993 
G01 X-41.9643 Y49.1690 
G01 X-41.9578 Y49.1755 
G01 X-41.6041 Y49.5292 
G01 X-41.5537 Y49.5796 
G01 X-41.5472 Y49.5861 
G01 X-41.4774 Y49.6264 
G01 X-41.3996 Y49.6472 
G01 X-40.5988 Y49.6472 
G01 X-40.5210 Y49.6264 
G01 X-40.4513 Y49.5861 
G01 X-40.3943 Y49.5292 
G01 X-40.0342 Y49.1690 
G00 Z2.5400 
G00 X-37.3478 Y49.3816 
G01 Z-0.1500 F254.00 
G01 X-37.3270 Y49.4594 F508.00 
G01 X-37.2867 Y49.5292 
G01 X-37.2297 Y49.5861 
G01 X-37.1600 Y49.6264 
G01 X-37.0822 Y49.6472 
G01 X-37.0016 Y49.6472 
G01 X-36.9238 Y49.6264 
G01 X-36.8541 Y49.5861 
G01 X-36.7971 Y49.5292 
G01 X-36.7569 Y49.4594 
G01 X-36.7360 Y49.3816 
G01 X-36.7360 Y47.4864 
G01 X-35.5611 Y47.4864 
G01 X-35.4833 Y47.4656 
G01 X-35.4135 Y47.4253 
G01 X-35.3566 Y47.3683 
G01 X-35.3163 Y47.2986 
G01 X-35.2954 Y47.2208 
G01 X-35.2954 Y47.1402 
G01 X-35.3163 Y47.0624 
G01 X-35.3566 Y46.9927 
G01 X-35.4135 Y46.9357 
G01 X-35.4833 Y46.8954 
G01 X-35.5611 Y46.8746 
G01 X-37.0822 Y46.8746 
G01 X-37.1600 Y46.8954 
G01 X-37.2297 Y46.9357 
G01 X-37.2867 Y46.9927 
G01 X-37.3270 Y47.0624 
G01 X-37.3478 Y47.1402 
G01 X-37.3478 Y47.2208 
G01 X-37.3478 Y49.3816 
G00 Z2.5400 
G00 X-22.7032 Y47.1402 
G01 Z-0.1500 F254.00 
G01 X-22.7241 Y47.0624 F508.00 
G01 X-22.7643 Y46.9927 
G01 X-22.8213 Y46.9357 
G01 X-22.8910 Y46.8954 
G01 X-22.9688 Y46.8746 
G01 X-23.0494 Y46.8746 
G01 X-23.1272 Y46.8954 
G01 X-23.1970 Y46.9357 
G01 X-23.2539 Y46.9927 
G01 X-23.2942 Y47.0624 
G01 X-23.3150 Y47.1402 
G01 X-23.3150 Y48.6613 
G01 X-23.2942 Y48.7391 
G01 X-23.2539 Y48.8089 
G01 X-22.5336 Y49.5292 
G01 X-22.4767 Y49.5861 
G01 X-22.4069 Y49.6264 
G01 X-22.3291 Y49.6472 
G01 X-22.2486 Y49.6472 
G01 X-22.1708 Y49.6264 
G01 X-22.1010 Y49.5861 
G01 X-22.0889 Y49.5740 
G01 X-22.0441 Y49.5292 
G01 X-21.3359 Y48.8210 
G01 X-21.3238 Y48.8089 
G01 X-21.2835 Y48.7391 
G01 X-21.2627 Y48.6613 
G01 X-21.2627 Y47.1402 
G01 X-21.2835 Y47.0624 
G01 X-21.3238 Y46.9927 
G01 X-21.3807 Y46.9357 
G01 X-21.4505 Y46.8954 
G01 X-21.5283 Y46.8746 
G01 X-21.6088 Y46.8746 
G01 X-21.6866 Y46.8954 
G01 X-21.7564 Y46.9357 
G01 X-21.8133 Y46.9927 
G01 X-21.8536 Y47.0624 
G01 X-21.8745 Y47.1402 
G01 X-21.8745 Y47.9550 
G01 X-22.7032 Y47.9550 
G01 X-22.7032 Y47.1402 
G00 Z2.5400 
G00 X-18.0256 Y47.1402 
G01 Z-0.1500 F254.00 
G01 X-18.0465 Y47.0624 F508.00 
G01 X-18.0868 Y46.9927 
G01 X-18.1437 Y46.9357 
G01 X-18.2135 Y46.8954 
G01 X-18.2913 Y46.8746 
G01 X-18.3718 Y46.8746 
G01 X-18.4496 Y46.8954 
G01 X-18.5194 Y46.9357 
G01 X-18.5763 Y46.9927 
G01 X-18.6166 Y47.0624 
G01 X-18.6374 Y47.1402 
G01 X-18.6374 Y49.3816 
G01 X-18.6166 Y49.4594 
G01 X-18.5763 Y49.5292 
G01 X-18.5194 Y49.5861 
G01 X-18.4496 Y49.6264 
G01 X-18.3718 Y49.6472 
G01 X-17.2108 Y49.6472 
G01 X-17.1330 Y49.6264 
G01 X-17.0633 Y49.5861 
G01 X-17.0568 Y49.5796 
G01 X-17.0063 Y49.5292 
G01 X-16.6527 Y49.1755 
G01 X-16.6462 Y49.1690 
G01 X-16.6059 Y49.0993 
G01 X-16.5851 Y49.0215 
G01 X-16.5851 Y48.2206 
G01 X-16.6059 Y48.1428 
G01 X-16.6462 Y48.0731 
G01 X-16.9986 Y47.7207 
G01 X-16.6462 Y47.3683 
G01 X-16.6059 Y47.2986 
G01 X-16.5851 Y47.2208 
G01 X-16.5851 Y47.1402 
G01 X-16.6059 Y47.0624 
G01 X-16.6462 Y46.9927 
G01 X-16.7031 Y46.9357 
G01 X-16.7729 Y46.8954 
G01 X-16.8507 Y46.8746 
G01 X-16.9312 Y46.8746 
G01 X-17.0090 Y46.8954 
G01 X-17.0788 Y46.9357 
G01 X-17.7380 Y47.5949 
G01 X-18.0256 Y47.5949 
G01 X-18.0256 Y47.1402 
G00 Z2.5400 
G00 X-12.1731 Y49.6472 
G01 Z-0.1500 F254.00 
G01 X-12.0953 Y49.6264 F508.00 
G01 X-12.0255 Y49.5861 
G01 X-11.9686 Y49.5292 
G01 X-11.9283 Y49.4594 
G01 X-11.9075 Y49.3816 
G01 X-11.9075 Y49.3011 
G01 X-11.9283 Y49.2233 
G01 X-11.9686 Y49.1535 
G01 X-12.0255 Y49.0966 
G01 X-12.0953 Y49.0563 
G01 X-12.1731 Y49.0354 
G01 X-13.3480 Y49.0354 
G01 X-13.3480 Y48.5668 
G01 X-12.8934 Y48.5668 
G01 X-12.8156 Y48.5460 
G01 X-12.7458 Y48.5057 
G01 X-12.6889 Y48.4487 
G01 X-12.6486 Y48.3790 
G01 X-12.6278 Y48.3012 
G01 X-12.6278 Y48.2206 
G01 X-12.6486 Y48.1428 
G01 X-12.6889 Y48.0731 
G01 X-12.7458 Y48.0161 
G01 X-12.8156 Y47.9759 
G01 X-12.8934 Y47.9550 
G01 X-13.3480 Y47.9550 
G01 X-13.3480 Y47.4864 
G01 X-12.1731 Y47.4864 
G01 X-12.0953 Y47.4656 
G01 X-12.0255 Y47.4253 
G01 X-11.9686 Y47.3683 
G01 X-11.9283 Y47.2986 
G01 X-11.9075 Y47.2208 
G01 X-11.9075 Y47.1402 
G01 X-11.9283 Y47.0624 
G01 X-11.9686 Y46.9927 
G01 X-12.0255 Y46.9357 
G01 X-12.0953 Y46.8954 
G01 X-12.1731 Y46.8746 
G01 X-13.6942 Y46.8746 
G01 X-13.7720 Y46.8954 
G01 X-13.8418 Y46.9357 
G01 X-13.8987 Y46.9927 
G01 X-13.9390 Y47.0624 
G01 X-13.9598 Y47.1402 
G01 X-13.9598 Y49.3816 
G01 X-13.9390 Y49.4594 
G01 X-13.8987 Y49.5292 
G01 X-13.8418 Y49.5861 
G01 X-13.7720 Y49.6264 
G01 X-13.6942 Y49.6472 
G01 X-13.6137 Y49.6472 
G01 X-12.1731 Y49.6472 
G00 Z2.5400 
G00 X-48.0545 Y35.4227 
G01 Z-0.1500 F254.00 
G01 X-48.1227 Y35.3545 F508.00 
G01 X-48.2118 Y35.3176 
G01 X-49.1916 Y35.3176 
G01 X-49.1943 Y35.3041 
G01 X-49.2605 Y35.1444 
G01 X-49.3565 Y35.0007 
G01 X-49.4787 Y34.8785 
G01 X-49.6224 Y34.7825 
G01 X-49.7821 Y34.7163 
G01 X-49.9516 Y34.6826 
G01 X-51.6484 Y34.6826 
G01 X-51.8179 Y34.7163 
G01 X-51.9776 Y34.7825 
G01 X-52.1213 Y34.8785 
G01 X-52.2435 Y35.0007 
G01 X-52.3395 Y35.1444 
G01 X-52.4057 Y35.3041 
G01 X-52.4394 Y35.4736 
G01 X-52.4394 Y35.6464 
G01 X-52.4057 Y35.8159 
G01 X-52.3395 Y35.9756 
G01 X-52.2435 Y36.1193 
G01 X-52.1213 Y36.2415 
G01 X-51.9776 Y36.3375 
G01 X-51.8179 Y36.4037 
G01 X-51.6484 Y36.4374 
G01 X-49.9516 Y36.4374 
G01 X-49.7821 Y36.4037 
G01 X-49.6224 Y36.3375 
G01 X-49.4787 Y36.2415 
G01 X-49.3565 Y36.1193 
G01 X-49.2605 Y35.9756 
G01 X-49.1943 Y35.8159 
G01 X-49.1916 Y35.8024 
G01 X-48.3604 Y35.8024 
G01 X-46.2975 Y37.8653 
G01 X-46.3194 Y37.9182 
G01 X-46.3434 Y38.0386 
G01 X-46.3434 Y38.1614 
G01 X-46.3194 Y38.2818 
G01 X-46.2724 Y38.3953 
G01 X-46.2042 Y38.4974 
G01 X-46.1174 Y38.5842 
G01 X-46.0153 Y38.6524 
G01 X-45.9018 Y38.6994 
G01 X-45.7814 Y38.7234 
G01 X-45.6586 Y38.7234 
G01 X-45.5382 Y38.6994 
G01 X-45.4247 Y38.6524 
G01 X-45.3226 Y38.5842 
G01 X-45.2358 Y38.4974 
G01 X-45.1676 Y38.3953 
G01 X-45.1206 Y38.2818 
G01 X-45.0966 Y38.1614 
G01 X-45.0966 Y38.0386 
G01 X-45.1206 Y37.9182 
G01 X-45.1676 Y37.8047 
G01 X-45.2358 Y37.7026 
G01 X-45.3226 Y37.6158 
G01 X-45.4247 Y37.5476 
G01 X-45.5382 Y37.5006 
G01 X-45.6586 Y37.4766 
G01 X-45.7814 Y37.4766 
G01 X-45.9018 Y37.5006 
G01 X-45.9547 Y37.5225 
G01 X-48.0545 Y35.4227 
G00 Z2.5400 
G00 X-51.7534 Y1.6790 
G01 Z-0.1500 F254.00 
G01 X-51.7534 Y5.9410 F508.00 
G01 X-51.7358 Y5.9834 
G01 X-51.7034 Y6.0158 
G01 X-51.6610 Y6.0334 
G01 X-47.3990 Y6.0334 
G01 X-47.3566 Y6.0158 
G01 X-47.3242 Y5.9834 
G01 X-47.3066 Y5.9410 
G01 X-47.3066 Y1.6790 
G01 X-47.3242 Y1.6366 
G01 X-47.3566 Y1.6042 
G01 X-47.3990 Y1.5866 
G01 X-51.6610 Y1.5866 
G01 X-51.7034 Y1.6042 
G01 X-51.7358 Y1.6366 
G01 X-51.7534 Y1.6790 
G00 Z2.5400 
G00 X-6.0334 Y1.6790 
G01 Z-0.1500 F254.00 
G01 X-6.0334 Y5.9410 F508.00 
G01 X-6.0158 Y5.9834 
G01 X-5.9834 Y6.0158 
G01 X-5.9410 Y6.0334 
G01 X-1.6790 Y6.0334 
G01 X-1.6366 Y6.0158 
G01 X-1.6042 Y5.9834 
G01 X-1.5866 Y5.9410 
G01 X-1.5866 Y1.6790 
G01 X-1.6042 Y1.6366 
G01 X-1.6366 Y1.6042 
G01 X-1.6790 Y1.5866 
G01 X-5.9410 Y1.5866 
G01 X-5.9834 Y1.6042 
G01 X-6.0158 Y1.6366 
G01 X-6.0334 Y1.6790 
G00 Z2.5400 
G00 X-6.0334 Y46.1290 
G01 Z-0.1500 F254.00 
G01 X-6.0334 Y50.3910 F508.00 
G01 X-6.0158 Y50.4334 
G01 X-5.9834 Y50.4658 
G01 X-5.9410 Y50.4834 
G01 X-1.6790 Y50.4834 
G01 X-1.6366 Y50.4658 
G01 X-1.6042 Y50.4334 
G01 X-1.5866 Y50.3910 
G01 X-1.5866 Y46.1290 
G01 X-1.6042 Y46.0866 
G01 X-1.6366 Y46.0542 
G01 X-1.6790 Y46.0366 
G01 X-5.9410 Y46.0366 
G01 X-5.9834 Y46.0542 
G01 X-6.0158 Y46.0866 
G01 X-6.0334 Y46.1290 
G00 Z2.5400 
G00 X-22.2888 Y48.7291 
G01 Z-0.1500 F254.00 
G01 X-22.3242 Y48.6938 F508.00 
G01 X-22.2535 Y48.6938 
G01 X-22.2888 Y48.7291 
G00 Z2.5400 
G00 X-17.3239 Y48.4402 
G01 Z-0.1500 F254.00 
G01 X-17.3239 Y48.8019 F508.00 
G01 X-17.4304 Y48.9084 
G01 X-17.8986 Y48.9084 
G01 X-17.8986 Y48.3337 
G01 X-17.4304 Y48.3337 
G01 X-17.3239 Y48.4402 
G00 Z2.5400 
G00 X-51.8804 Y46.1038 
G01 Z-0.1500 F254.00 
G01 X-51.8804 Y50.4162 F508.00 
G01 X-51.8435 Y50.5053 
G01 X-51.7753 Y50.5735 
G01 X-51.6862 Y50.6104 
G01 X-47.3738 Y50.6104 
G01 X-47.2847 Y50.5735 
G01 X-47.2165 Y50.5053 
G01 X-47.1796 Y50.4162 
G01 X-47.1796 Y46.1038 
G01 X-47.2165 Y46.0147 
G01 X-47.2847 Y45.9465 
G01 X-47.3738 Y45.9096 
G01 X-51.6862 Y45.9096 
G01 X-51.7753 Y45.9465 
G01 X-51.8435 Y46.0147 
G01 X-51.8804 Y46.1038 
G00 Z2.5400 
G00 X-12.1564 Y49.7742 
G01 Z-0.1500 F254.00 
G01 X-12.0463 Y49.7447 F508.00 
G01 X-11.9476 Y49.6878 
G01 X-11.8670 Y49.6072 
G01 X-11.8100 Y49.5084 
G01 X-11.7805 Y49.3983 
G01 X-11.7805 Y49.2844 
G01 X-11.8100 Y49.1743 
G01 X-11.8670 Y49.0755 
G01 X-11.9476 Y48.9949 
G01 X-12.0463 Y48.9379 
G01 X-12.1564 Y48.9084 
G01 X-13.2210 Y48.9084 
G01 X-13.2210 Y48.6938 
G01 X-12.8767 Y48.6938 
G01 X-12.7666 Y48.6643 
G01 X-12.6678 Y48.6073 
G01 X-12.5873 Y48.5267 
G01 X-12.5303 Y48.4280 
G01 X-12.5008 Y48.3179 
G01 X-12.5008 Y48.2039 
G01 X-12.5303 Y48.0938 
G01 X-12.5873 Y47.9951 
G01 X-12.6678 Y47.9145 
G01 X-12.7666 Y47.8575 
G01 X-12.8767 Y47.8280 
G01 X-13.2210 Y47.8280 
G01 X-13.2210 Y47.6134 
G01 X-12.1564 Y47.6134 
G01 X-12.0463 Y47.5839 
G01 X-11.9476 Y47.5269 
G01 X-11.8670 Y47.4463 
G01 X-11.8100 Y47.3476 
G01 X-11.7805 Y47.2375 
G01 X-11.7805 Y47.1235 
G01 X-11.8100 Y47.0134 
G01 X-11.8670 Y46.9147 
G01 X-11.9476 Y46.8341 
G01 X-12.0463 Y46.7771 
G01 X-12.1564 Y46.7476 
G01 X-13.7109 Y46.7476 
G01 X-13.8210 Y46.7771 
G01 X-13.9197 Y46.8341 
G01 X-14.0003 Y46.9147 
G01 X-14.0573 Y47.0134 
G01 X-14.0868 Y47.1235 
G01 X-14.0868 Y49.3983 
G01 X-14.0573 Y49.5084 
G01 X-14.0003 Y49.6072 
G01 X-13.9197 Y49.6878 
G01 X-13.8210 Y49.7447 
G01 X-13.7109 Y49.7742 
G01 X-13.5969 Y49.7742 
G01 X-12.1564 Y49.7742 
G00 Z2.5400 
G00 X-17.8986 Y47.1235 
G01 Z-0.1500 F254.00 
G01 X-17.9281 Y47.0134 F508.00 
G01 X-17.9851 Y46.9147 
G01 X-18.0657 Y46.8341 
G01 X-18.1644 Y46.7771 
G01 X-18.2745 Y46.7476 
G01 X-18.3885 Y46.7476 
G01 X-18.4986 Y46.7771 
G01 X-18.5973 Y46.8341 
G01 X-18.6779 Y46.9147 
G01 X-18.7349 Y47.0134 
G01 X-18.7644 Y47.1235 
G01 X-18.7644 Y49.3983 
G01 X-18.7349 Y49.5084 
G01 X-18.6779 Y49.6072 
G01 X-18.5973 Y49.6878 
G01 X-18.4986 Y49.7447 
G01 X-18.3885 Y49.7742 
G01 X-17.1941 Y49.7742 
G01 X-17.1634 Y49.7660 
G01 X-17.0840 Y49.7447 
G01 X-16.9883 Y49.6895 
G01 X-16.9853 Y49.6878 
G01 X-16.9784 Y49.6809 
G01 X-16.9047 Y49.6072 
G01 X-16.5514 Y49.2539 
G01 X-16.5446 Y49.2470 
G01 X-16.4893 Y49.1513 
G01 X-16.4876 Y49.1483 
G01 X-16.4581 Y49.0382 
G01 X-16.4581 Y48.2039 
G01 X-16.4876 Y48.0938 
G01 X-16.5446 Y47.9951 
G01 X-16.8190 Y47.7207 
G01 X-16.5446 Y47.4463 
G01 X-16.4876 Y47.3476 
G01 X-16.4581 Y47.2375 
G01 X-16.4581 Y47.1235 
G01 X-16.4876 Y47.0134 
G01 X-16.5446 Y46.9147 
G01 X-16.6252 Y46.8341 
G01 X-16.7239 Y46.7771 
G01 X-16.8340 Y46.7476 
G01 X-16.9480 Y46.7476 
G01 X-17.0581 Y46.7771 
G01 X-17.1568 Y46.8341 
G01 X-17.7906 Y47.4679 
G01 X-17.8986 Y47.4679 
G01 X-17.8986 Y47.1235 
G00 Z2.5400 
G00 X-22.5762 Y47.1235 
G01 Z-0.1500 F254.00 
G01 X-22.6057 Y47.0134 F508.00 
G01 X-22.6627 Y46.9147 
G01 X-22.7433 Y46.8341 
G01 X-22.8420 Y46.7771 
G01 X-22.9521 Y46.7476 
G01 X-23.0661 Y46.7476 
G01 X-23.1762 Y46.7771 
G01 X-23.2749 Y46.8341 
G01 X-23.3555 Y46.9147 
G01 X-23.4125 Y47.0134 
G01 X-23.4420 Y47.1235 
G01 X-23.4420 Y48.6781 
G01 X-23.4125 Y48.7882 
G01 X-23.3555 Y48.8869 
G01 X-23.2749 Y48.9675 
G01 X-22.6352 Y49.6072 
G01 X-22.6207 Y49.6217 
G01 X-22.5547 Y49.6878 
G01 X-22.4989 Y49.7199 
G01 X-22.4559 Y49.7447 
G01 X-22.3741 Y49.7667 
G01 X-22.3458 Y49.7742 
G01 X-22.2318 Y49.7742 
G01 X-22.2011 Y49.7660 
G01 X-22.1218 Y49.7447 
G01 X-22.0813 Y49.7214 
G01 X-22.0230 Y49.6878 
G01 X-21.9549 Y49.6196 
G01 X-21.9424 Y49.6072 
G01 X-21.3028 Y48.9675 
G01 X-21.2222 Y48.8869 
G01 X-21.1652 Y48.7882 
G01 X-21.1357 Y48.6781 
G01 X-21.1357 Y47.1235 
G01 X-21.1652 Y47.0134 
G01 X-21.2222 Y46.9147 
G01 X-21.3028 Y46.8341 
G01 X-21.4015 Y46.7771 
G01 X-21.5116 Y46.7476 
G01 X-21.6256 Y46.7476 
G01 X-21.7357 Y46.7771 
G01 X-21.8344 Y46.8341 
G01 X-21.9150 Y46.9147 
G01 X-21.9720 Y47.0134 
G01 X-22.0015 Y47.1235 
G01 X-22.0015 Y47.8280 
G01 X-22.5762 Y47.8280 
G01 X-22.5762 Y47.1235 
G00 Z2.5400 
G00 X-37.4748 Y49.3983 
G01 Z-0.1500 F254.00 
G01 X-37.4453 Y49.5084 F508.00 
G01 X-37.3883 Y49.6072 
G01 X-37.3077 Y49.6878 
G01 X-37.2090 Y49.7447 
G01 X-37.0989 Y49.7742 
G01 X-36.9849 Y49.7742 
G01 X-36.8748 Y49.7447 
G01 X-36.7761 Y49.6878 
G01 X-36.6955 Y49.6072 
G01 X-36.6385 Y49.5084 
G01 X-36.6090 Y49.3983 
G01 X-36.6090 Y47.6134 
G01 X-35.5444 Y47.6134 
G01 X-35.4342 Y47.5839 
G01 X-35.3355 Y47.5269 
G01 X-35.2549 Y47.4463 
G01 X-35.1979 Y47.3476 
G01 X-35.1684 Y47.2375 
G01 X-35.1684 Y47.1235 
G01 X-35.1979 Y47.0134 
G01 X-35.2549 Y46.9147 
G01 X-35.3355 Y46.8341 
G01 X-35.4342 Y46.7771 
G01 X-35.5444 Y46.7476 
G01 X-37.0989 Y46.7476 
G01 X-37.2090 Y46.7771 
G01 X-37.3077 Y46.8341 
G01 X-37.3883 Y46.9147 
G01 X-37.4453 Y47.0134 
G01 X-37.4748 Y47.1235 
G01 X-37.4748 Y47.2375 
G01 X-37.4748 Y49.3983 
G00 Z2.5400 
G00 X-39.9325 Y49.2470 
G01 Z-0.1500 F254.00 
G01 X-39.8755 Y49.1483 F508.00 
G01 X-39.8460 Y49.0382 
G01 X-39.8460 Y48.9242 
G01 X-39.8755 Y48.8141 
G01 X-39.9325 Y48.7154 
G01 X-40.0131 Y48.6348 
G01 X-40.1118 Y48.5778 
G01 X-40.2219 Y48.5483 
G01 X-40.3359 Y48.5483 
G01 X-40.4460 Y48.5778 
G01 X-40.5447 Y48.6348 
G01 X-40.8184 Y48.9084 
G01 X-41.1800 Y48.9084 
G01 X-41.2866 Y48.8019 
G01 X-41.2866 Y47.7200 
G01 X-41.1800 Y47.6134 
G01 X-40.8184 Y47.6134 
G01 X-40.5447 Y47.8870 
G01 X-40.4460 Y47.9440 
G01 X-40.3359 Y47.9735 
G01 X-40.2219 Y47.9735 
G01 X-40.1118 Y47.9440 
G01 X-40.0131 Y47.8870 
G01 X-39.9325 Y47.8064 
G01 X-39.8755 Y47.7077 
G01 X-39.8460 Y47.5976 
G01 X-39.8460 Y47.4836 
G01 X-39.8755 Y47.3735 
G01 X-39.9325 Y47.2748 
G01 X-40.3733 Y46.8341 
G01 X-40.4720 Y46.7771 
G01 X-40.5821 Y46.7476 
G01 X-41.4164 Y46.7476 
G01 X-41.5265 Y46.7771 
G01 X-41.6252 Y46.8341 
G01 X-41.7058 Y46.9147 
G01 X-42.0659 Y47.2748 
G01 X-42.1229 Y47.3735 
G01 X-42.1524 Y47.4836 
G01 X-42.1524 Y49.0382 
G01 X-42.1229 Y49.1483 
G01 X-42.1212 Y49.1513 
G01 X-42.0659 Y49.2470 
G01 X-42.0590 Y49.2539 
G01 X-41.7058 Y49.6072 
G01 X-41.6320 Y49.6809 
G01 X-41.6252 Y49.6878 
G01 X-41.6222 Y49.6895 
G01 X-41.5265 Y49.7447 
G01 X-41.4471 Y49.7660 
G01 X-41.4164 Y49.7742 
G01 X-40.5821 Y49.7742 
G01 X-40.5538 Y49.7667 
G01 X-40.4720 Y49.7447 
G01 X-40.3733 Y49.6878 
G01 X-40.2927 Y49.6072 
G01 X-39.9325 Y49.2470 
G00 Z2.5400 
G00 X-32.7972 Y47.1235 
G01 Z-0.1500 F254.00 
G01 X-32.7972 Y49.3983 F508.00 
G01 X-32.7677 Y49.5084 
G01 X-32.7107 Y49.6072 
G01 X-32.6301 Y49.6878 
G01 X-32.5314 Y49.7447 
G01 X-32.4213 Y49.7742 
G01 X-32.3073 Y49.7742 
G01 X-32.1972 Y49.7447 
G01 X-32.0985 Y49.6878 
G01 X-32.0179 Y49.6072 
G01 X-31.9609 Y49.5084 
G01 X-31.9314 Y49.3983 
G01 X-31.9314 Y48.9459 
G01 X-31.1896 Y49.6878 
G01 X-31.0908 Y49.7447 
G01 X-30.9807 Y49.7742 
G01 X-30.8668 Y49.7742 
G01 X-30.7567 Y49.7447 
G01 X-30.6579 Y49.6878 
G01 X-30.5773 Y49.6072 
G01 X-30.5204 Y49.5084 
G01 X-30.4909 Y49.3983 
G01 X-30.4909 Y49.2844 
G01 X-30.5204 Y49.1743 
G01 X-30.5773 Y49.0755 
G01 X-31.3920 Y48.2609 
G01 X-30.5773 Y47.4463 
G01 X-30.5204 Y47.3476 
G01 X-30.4909 Y47.2375 
G01 X-30.4909 Y47.1235 
G01 X-30.5204 Y47.0134 
G01 X-30.5773 Y46.9147 
G01 X-30.6579 Y46.8341 
G01 X-30.7567 Y46.7771 
G01 X-30.8668 Y46.7476 
G01 X-30.9807 Y46.7476 
G01 X-31.0908 Y46.7771 
G01 X-31.1896 Y46.8341 
G01 X-31.9314 Y47.5760 
G01 X-31.9314 Y47.1235 
G01 X-31.9609 Y47.0134 
G01 X-32.0179 Y46.9147 
G01 X-32.0985 Y46.8341 
G01 X-32.1972 Y46.7771 
G01 X-32.3073 Y46.7476 
G01 X-32.4213 Y46.7476 
G01 X-32.5314 Y46.7771 
G01 X-32.6301 Y46.8341 
G01 X-32.7107 Y46.9147 
G01 X-32.7677 Y47.0134 
G01 X-32.7972 Y47.1235 
G00 Z2.5400 
G00 X-28.1196 Y49.3983 
G01 Z-0.1500 F254.00 
G01 X-28.0901 Y49.5084 F508.00 
G01 X-28.0331 Y49.6072 
G01 X-27.9525 Y49.6878 
G01 X-27.8538 Y49.7447 
G01 X-27.7437 Y49.7742 
G01 X-27.6297 Y49.7742 
G01 X-27.5196 Y49.7447 
G01 X-27.4209 Y49.6878 
G01 X-27.3403 Y49.6072 
G01 X-27.2833 Y49.5084 
G01 X-27.2538 Y49.3983 
G01 X-27.2538 Y48.2256 
G01 X-27.2322 Y48.2472 
G01 X-27.1335 Y48.3042 
G01 X-27.0234 Y48.3337 
G01 X-26.9094 Y48.3337 
G01 X-26.7993 Y48.3042 
G01 X-26.7006 Y48.2472 
G01 X-26.6791 Y48.2256 
G01 X-26.6791 Y49.3983 
G01 X-26.6496 Y49.5084 
G01 X-26.5926 Y49.6072 
G01 X-26.5120 Y49.6878 
G01 X-26.4132 Y49.7447 
G01 X-26.3031 Y49.7742 
G01 X-26.1892 Y49.7742 
G01 X-26.0791 Y49.7447 
G01 X-25.9803 Y49.6878 
G01 X-25.8998 Y49.6072 
G01 X-25.8428 Y49.5084 
G01 X-25.8133 Y49.3983 
G01 X-25.8133 Y47.1235 
G01 X-25.8428 Y47.0134 
G01 X-25.8998 Y46.9147 
G01 X-25.9803 Y46.8341 
G01 X-26.0791 Y46.7771 
G01 X-26.1892 Y46.7476 
G01 X-26.3031 Y46.7476 
G01 X-26.4132 Y46.7771 
G01 X-26.5120 Y46.8341 
G01 X-26.5926 Y46.9147 
G01 X-26.9664 Y47.2886 
G01 X-27.4209 Y46.8341 
G01 X-27.5196 Y46.7771 
G01 X-27.6297 Y46.7476 
G01 X-27.7437 Y46.7476 
G01 X-27.8538 Y46.7771 
G01 X-27.9525 Y46.8341 
G01 X-28.0331 Y46.9147 
G01 X-28.0901 Y47.0134 
G01 X-28.1196 Y47.1235 
G01 X-28.1196 Y47.2375 
G01 X-28.1196 Y49.3983 
G00 Z2.5400 
G00 X-3.4009 Y35.2944 
G01 Z-0.1500 F254.00 
G01 X-1.6791 Y35.2944 F508.00 
G01 X-1.4850 Y35.2558 
G01 X-1.3022 Y35.1801 
G01 X-1.1377 Y35.0702 
G01 X-0.9978 Y34.9303 
G01 X-0.8879 Y34.7658 
G01 X-0.8122 Y34.5830 
G01 X-0.7736 Y34.3889 
G01 X-0.7736 Y34.1911 
G01 X-0.8122 Y33.9970 
G01 X-0.8879 Y33.8142 
G01 X-0.9978 Y33.6497 
G01 X-1.1377 Y33.5098 
G01 X-1.3022 Y33.3999 
G01 X-1.4850 Y33.3242 
G01 X-1.6791 Y33.2856 
G01 X-3.4009 Y33.2856 
G01 X-3.5950 Y33.3242 
G01 X-3.7778 Y33.3999 
G01 X-3.9423 Y33.5098 
G01 X-4.0822 Y33.6497 
G01 X-4.1921 Y33.8142 
G01 X-4.2678 Y33.9970 
G01 X-4.3064 Y34.1911 
G01 X-4.3064 Y34.3889 
G01 X-4.2678 Y34.5830 
G01 X-4.1921 Y34.7658 
G01 X-4.0822 Y34.9303 
G01 X-3.9423 Y35.0702 
G01 X-3.7778 Y35.1801 
G01 X-3.5950 Y35.2558 
G01 X-3.4009 Y35.2944 
G00 Z2.5400 
G00 X-3.4009 Y32.7544 
G01 Z-0.1500 F254.00 
G01 X-1.6791 Y32.7544 F508.00 
G01 X-1.4850 Y32.7158 
G01 X-1.3022 Y32.6401 
G01 X-1.1377 Y32.5302 
G01 X-0.9978 Y32.3903 
G01 X-0.8879 Y32.2258 
G01 X-0.8122 Y32.0430 
G01 X-0.7736 Y31.8489 
G01 X-0.7736 Y31.6511 
G01 X-0.8122 Y31.4570 
G01 X-0.8879 Y31.2742 
G01 X-0.9978 Y31.1097 
G01 X-1.1377 Y30.9698 
G01 X-1.3022 Y30.8599 
G01 X-1.4850 Y30.7842 
G01 X-1.6791 Y30.7456 
G01 X-3.4009 Y30.7456 
G01 X-3.5950 Y30.7842 
G01 X-3.7778 Y30.8599 
G01 X-3.9423 Y30.9698 
G01 X-4.0822 Y31.1097 
G01 X-4.1921 Y31.2742 
G01 X-4.2678 Y31.4570 
G01 X-4.3064 Y31.6511 
G01 X-4.3064 Y31.8489 
G01 X-4.2678 Y32.0430 
G01 X-4.1921 Y32.2258 
G01 X-4.0822 Y32.3903 
G01 X-3.9423 Y32.5302 
G01 X-3.7778 Y32.6401 
G01 X-3.5950 Y32.7158 
G01 X-3.4009 Y32.7544 
G00 Z2.5400 
G00 X-3.4009 Y22.5944 
G01 Z-0.1500 F254.00 
G01 X-1.6791 Y22.5944 F508.00 
G01 X-1.4850 Y22.5558 
G01 X-1.3022 Y22.4801 
G01 X-1.1377 Y22.3702 
G01 X-0.9978 Y22.2303 
G01 X-0.8879 Y22.0658 
G01 X-0.8122 Y21.8830 
G01 X-0.7736 Y21.6889 
G01 X-0.7736 Y21.4911 
G01 X-0.8122 Y21.2970 
G01 X-0.8879 Y21.1142 
G01 X-0.9978 Y20.9497 
G01 X-1.1377 Y20.8098 
G01 X-1.3022 Y20.6999 
G01 X-1.4850 Y20.6242 
G01 X-1.6791 Y20.5856 
G01 X-3.4009 Y20.5856 
G01 X-3.5950 Y20.6242 
G01 X-3.7778 Y20.6999 
G01 X-3.9423 Y20.8098 
G01 X-4.0822 Y20.9497 
G01 X-4.1921 Y21.1142 
G01 X-4.2678 Y21.2970 
G01 X-4.3064 Y21.4911 
G01 X-4.3064 Y21.6889 
G01 X-4.2678 Y21.8830 
G01 X-4.1921 Y22.0658 
G01 X-4.0822 Y22.2303 
G01 X-3.9423 Y22.3702 
G01 X-3.7778 Y22.4801 
G01 X-3.5950 Y22.5558 
G01 X-3.4009 Y22.5944 
G00 Z2.5400 
G00 X-3.4009 Y20.0544 
G01 Z-0.1500 F254.00 
G01 X-1.6791 Y20.0544 F508.00 
G01 X-1.4850 Y20.0158 
G01 X-1.3022 Y19.9401 
G01 X-1.1377 Y19.8302 
G01 X-0.9978 Y19.6903 
G01 X-0.8879 Y19.5258 
G01 X-0.8122 Y19.3430 
G01 X-0.7736 Y19.1489 
G01 X-0.7736 Y18.9511 
G01 X-0.8122 Y18.7570 
G01 X-0.8879 Y18.5742 
G01 X-0.9978 Y18.4097 
G01 X-1.1377 Y18.2698 
G01 X-1.3022 Y18.1599 
G01 X-1.4850 Y18.0842 
G01 X-1.6791 Y18.0456 
G01 X-3.4009 Y18.0456 
G01 X-3.5950 Y18.0842 
G01 X-3.7778 Y18.1599 
G01 X-3.9423 Y18.2698 
G01 X-4.0822 Y18.4097 
G01 X-4.1921 Y18.5742 
G01 X-4.2678 Y18.7570 
G01 X-4.3064 Y18.9511 
G01 X-4.3064 Y19.1489 
G01 X-4.2678 Y19.3430 
G01 X-4.1921 Y19.5258 
G01 X-4.0822 Y19.6903 
G01 X-3.9423 Y19.8302 
G01 X-3.7778 Y19.9401 
G01 X-3.5950 Y20.0158 
G01 X-3.4009 Y20.0544 
G00 Z2.5400 
G00 X-3.4009 Y17.5144 
G01 Z-0.1500 F254.00 
G01 X-1.6791 Y17.5144 F508.00 
G01 X-1.4850 Y17.4758 
G01 X-1.3022 Y17.4001 
G01 X-1.1377 Y17.2902 
G01 X-0.9978 Y17.1503 
G01 X-0.8879 Y16.9858 
G01 X-0.8122 Y16.8030 
G01 X-0.7736 Y16.6089 
G01 X-0.7736 Y16.4111 
G01 X-0.8122 Y16.2170 
G01 X-0.8879 Y16.0342 
G01 X-0.9978 Y15.8697 
G01 X-1.1377 Y15.7298 
G01 X-1.3022 Y15.6199 
G01 X-1.4850 Y15.5442 
G01 X-1.6791 Y15.5056 
G01 X-3.4009 Y15.5056 
G01 X-3.5950 Y15.5442 
G01 X-3.7778 Y15.6199 
G01 X-3.9423 Y15.7298 
G01 X-4.0822 Y15.8697 
G01 X-4.1921 Y16.0342 
G01 X-4.2678 Y16.2170 
G01 X-4.3064 Y16.4111 
G01 X-4.3064 Y16.6089 
G01 X-4.2678 Y16.8030 
G01 X-4.1921 Y16.9858 
G01 X-4.0822 Y17.1503 
G01 X-3.9423 Y17.2902 
G01 X-3.7778 Y17.4001 
G01 X-3.5950 Y17.4758 
G01 X-3.4009 Y17.5144 
G00 Z2.5400 
G00 X-3.4009 Y14.9744 
G01 Z-0.1500 F254.00 
G01 X-1.6791 Y14.9744 F508.00 
G01 X-1.4850 Y14.9358 
G01 X-1.3022 Y14.8601 
G01 X-1.1377 Y14.7502 
G01 X-0.9978 Y14.6103 
G01 X-0.8879 Y14.4458 
G01 X-0.8122 Y14.2630 
G01 X-0.7736 Y14.0689 
G01 X-0.7736 Y13.8711 
G01 X-0.8122 Y13.6770 
G01 X-0.8879 Y13.4942 
G01 X-0.9978 Y13.3297 
G01 X-1.1377 Y13.1898 
G01 X-1.3022 Y13.0799 
G01 X-1.4850 Y13.0042 
G01 X-1.6791 Y12.9656 
G01 X-3.4009 Y12.9656 
G01 X-3.5950 Y13.0042 
G01 X-3.7778 Y13.0799 
G01 X-3.9423 Y13.1898 
G01 X-4.0822 Y13.3297 
G01 X-4.1921 Y13.4942 
G01 X-4.2678 Y13.6770 
G01 X-4.3064 Y13.8711 
G01 X-4.3064 Y14.0689 
G01 X-4.2678 Y14.2630 
G01 X-4.1921 Y14.4458 
G01 X-4.0822 Y14.6103 
G01 X-3.9423 Y14.7502 
G01 X-3.7778 Y14.8601 
G01 X-3.5950 Y14.9358 
G01 X-3.4009 Y14.9744 
G00 Z2.5400 
G00 X-3.4009 Y12.4344 
G01 Z-0.1500 F254.00 
G01 X-1.6791 Y12.4344 F508.00 
G01 X-1.4850 Y12.3958 
G01 X-1.3022 Y12.3201 
G01 X-1.1377 Y12.2102 
G01 X-0.9978 Y12.0703 
G01 X-0.8879 Y11.9058 
G01 X-0.8122 Y11.7230 
G01 X-0.7736 Y11.5289 
G01 X-0.7736 Y11.3311 
G01 X-0.8122 Y11.1370 
G01 X-0.8879 Y10.9542 
G01 X-0.9978 Y10.7897 
G01 X-1.1377 Y10.6498 
G01 X-1.3022 Y10.5399 
G01 X-1.4850 Y10.4642 
G01 X-1.6791 Y10.4256 
G01 X-3.4009 Y10.4256 
G01 X-3.5950 Y10.4642 
G01 X-3.7778 Y10.5399 
G01 X-3.9423 Y10.6498 
G01 X-4.0822 Y10.7897 
G01 X-4.1921 Y10.9542 
G01 X-4.2678 Y11.1370 
G01 X-4.3064 Y11.3311 
G01 X-4.3064 Y11.5289 
G01 X-4.2678 Y11.7230 
G01 X-4.1921 Y11.9058 
G01 X-4.0822 Y12.0703 
G01 X-3.9423 Y12.2102 
G01 X-3.7778 Y12.3201 
G01 X-3.5950 Y12.3958 
G01 X-3.4009 Y12.4344 
G00 Z2.5400 
G00 X-3.4009 Y9.8944 
G01 Z-0.1500 F254.00 
G01 X-1.6791 Y9.8944 F508.00 
G01 X-1.4850 Y9.8558 
G01 X-1.3022 Y9.7801 
G01 X-1.1377 Y9.6702 
G01 X-0.9978 Y9.5303 
G01 X-0.8879 Y9.3658 
G01 X-0.8122 Y9.1830 
G01 X-0.7736 Y8.9889 
G01 X-0.7736 Y8.7911 
G01 X-0.8122 Y8.5970 
G01 X-0.8879 Y8.4142 
G01 X-0.9978 Y8.2497 
G01 X-1.1377 Y8.1098 
G01 X-1.3022 Y7.9999 
G01 X-1.4850 Y7.9242 
G01 X-1.6791 Y7.8856 
G01 X-3.4009 Y7.8856 
G01 X-3.5950 Y7.9242 
G01 X-3.7778 Y7.9999 
G01 X-3.9423 Y8.1098 
G01 X-4.0822 Y8.2497 
G01 X-4.1921 Y8.4142 
G01 X-4.2678 Y8.5970 
G01 X-4.3064 Y8.7911 
G01 X-4.3064 Y8.9889 
G01 X-4.2678 Y9.1830 
G01 X-4.1921 Y9.3658 
G01 X-4.0822 Y9.5303 
G01 X-3.9423 Y9.6702 
G01 X-3.7778 Y9.7801 
G01 X-3.5950 Y9.8558 
G01 X-3.4009 Y9.8944 
G00 Z2.5400 
G00 X-51.6609 Y39.1044 
G01 Z-0.1500 F254.00 
G01 X-49.9391 Y39.1044 F508.00 
G01 X-49.7450 Y39.0658 
G01 X-49.5622 Y38.9901 
G01 X-49.3977 Y38.8802 
G01 X-49.2578 Y38.7403 
G01 X-49.1479 Y38.5758 
G01 X-49.0722 Y38.3930 
G01 X-49.0336 Y38.1989 
G01 X-49.0336 Y38.0011 
G01 X-49.0722 Y37.8070 
G01 X-49.1479 Y37.6242 
G01 X-49.2578 Y37.4597 
G01 X-49.3977 Y37.3198 
G01 X-49.5622 Y37.2099 
G01 X-49.7450 Y37.1342 
G01 X-49.9391 Y37.0956 
G01 X-51.6609 Y37.0956 
G01 X-51.8550 Y37.1342 
G01 X-52.0378 Y37.2099 
G01 X-52.2023 Y37.3198 
G01 X-52.3422 Y37.4597 
G01 X-52.4521 Y37.6242 
G01 X-52.5278 Y37.8070 
G01 X-52.5664 Y38.0011 
G01 X-52.5664 Y38.1989 
G01 X-52.5278 Y38.3930 
G01 X-52.4521 Y38.5758 
G01 X-52.3422 Y38.7403 
G01 X-52.2023 Y38.8802 
G01 X-52.0378 Y38.9901 
G01 X-51.8550 Y39.0658 
G01 X-51.6609 Y39.1044 
G00 Z2.5400 
G00 X-51.6609 Y34.0244 
G01 Z-0.1500 F254.00 
G01 X-49.9391 Y34.0244 F508.00 
G01 X-49.7450 Y33.9858 
G01 X-49.5622 Y33.9101 
G01 X-49.3977 Y33.8002 
G01 X-49.2578 Y33.6603 
G01 X-49.1479 Y33.4958 
G01 X-49.0722 Y33.3130 
G01 X-49.0336 Y33.1189 
G01 X-49.0336 Y32.9211 
G01 X-49.0722 Y32.7270 
G01 X-49.1479 Y32.5442 
G01 X-49.2578 Y32.3797 
G01 X-49.3977 Y32.2398 
G01 X-49.5622 Y32.1299 
G01 X-49.7450 Y32.0542 
G01 X-49.9391 Y32.0156 
G01 X-51.6609 Y32.0156 
G01 X-51.8550 Y32.0542 
G01 X-52.0378 Y32.1299 
G01 X-52.2023 Y32.2398 
G01 X-52.3422 Y32.3797 
G01 X-52.4521 Y32.5442 
G01 X-52.5278 Y32.7270 
G01 X-52.5664 Y32.9211 
G01 X-52.5664 Y33.1189 
G01 X-52.5278 Y33.3130 
G01 X-52.4521 Y33.4958 
G01 X-52.3422 Y33.6603 
G01 X-52.2023 Y33.8002 
G01 X-52.0378 Y33.9101 
G01 X-51.8550 Y33.9858 
G01 X-51.6609 Y34.0244 
G00 Z2.5400 
G00 X-51.6609 Y31.4844 
G01 Z-0.1500 F254.00 
G01 X-49.9391 Y31.4844 F508.00 
G01 X-49.7450 Y31.4458 
G01 X-49.5622 Y31.3701 
G01 X-49.3977 Y31.2602 
G01 X-49.2578 Y31.1203 
G01 X-49.1479 Y30.9558 
G01 X-49.0722 Y30.7730 
G01 X-49.0336 Y30.5789 
G01 X-49.0336 Y30.3811 
G01 X-49.0722 Y30.1870 
G01 X-49.1479 Y30.0042 
G01 X-49.2578 Y29.8397 
G01 X-49.3977 Y29.6998 
G01 X-49.5622 Y29.5899 
G01 X-49.7450 Y29.5142 
G01 X-49.9391 Y29.4756 
G01 X-51.6609 Y29.4756 
G01 X-51.8550 Y29.5142 
G01 X-52.0378 Y29.5899 
G01 X-52.2023 Y29.6998 
G01 X-52.3422 Y29.8397 
G01 X-52.4521 Y30.0042 
G01 X-52.5278 Y30.1870 
G01 X-52.5664 Y30.3811 
G01 X-52.5664 Y30.5789 
G01 X-52.5278 Y30.7730 
G01 X-52.4521 Y30.9558 
G01 X-52.3422 Y31.1203 
G01 X-52.2023 Y31.2602 
G01 X-52.0378 Y31.3701 
G01 X-51.8550 Y31.4458 
G01 X-51.6609 Y31.4844 
G00 Z2.5400 
G00 X-51.6609 Y20.0544 
G01 Z-0.1500 F254.00 
G01 X-49.9391 Y20.0544 F508.00 
G01 X-49.7450 Y20.0158 
G01 X-49.5622 Y19.9401 
G01 X-49.3977 Y19.8302 
G01 X-49.2578 Y19.6903 
G01 X-49.1479 Y19.5258 
G01 X-49.0722 Y19.3430 
G01 X-49.0336 Y19.1489 
G01 X-49.0336 Y18.9511 
G01 X-49.0722 Y18.7570 
G01 X-49.1479 Y18.5742 
G01 X-49.2578 Y18.4097 
G01 X-49.3977 Y18.2698 
G01 X-49.5622 Y18.1599 
G01 X-49.7450 Y18.0842 
G01 X-49.9391 Y18.0456 
G01 X-51.6609 Y18.0456 
G01 X-51.8550 Y18.0842 
G01 X-52.0378 Y18.1599 
G01 X-52.2023 Y18.2698 
G01 X-52.3422 Y18.4097 
G01 X-52.4521 Y18.5742 
G01 X-52.5278 Y18.7570 
G01 X-52.5664 Y18.9511 
G01 X-52.5664 Y19.1489 
G01 X-52.5278 Y19.3430 
G01 X-52.4521 Y19.5258 
G01 X-52.3422 Y19.6903 
G01 X-52.2023 Y19.8302 
G01 X-52.0378 Y19.9401 
G01 X-51.8550 Y20.0158 
G01 X-51.6609 Y20.0544 
G00 Z2.5400 
G00 X-51.6609 Y17.5144 
G01 Z-0.1500 F254.00 
G01 X-49.9391 Y17.5144 F508.00 
G01 X-49.7450 Y17.4758 
G01 X-49.5622 Y17.4001 
G01 X-49.3977 Y17.2902 
G01 X-49.2578 Y17.1503 
G01 X-49.1479 Y16.9858 
G01 X-49.0722 Y16.8030 
G01 X-49.0336 Y16.6089 
G01 X-49.0336 Y16.4111 
G01 X-49.0722 Y16.2170 
G01 X-49.1479 Y16.0342 
G01 X-49.2578 Y15.8697 
G01 X-49.3977 Y15.7298 
G01 X-49.5622 Y15.6199 
G01 X-49.7450 Y15.5442 
G01 X-49.9391 Y15.5056 
G01 X-51.6609 Y15.5056 
G01 X-51.8550 Y15.5442 
G01 X-52.0378 Y15.6199 
G01 X-52.2023 Y15.7298 
G01 X-52.3422 Y15.8697 
G01 X-52.4521 Y16.0342 
G01 X-52.5278 Y16.2170 
G01 X-52.5664 Y16.4111 
G01 X-52.5664 Y16.6089 
G01 X-52.5278 Y16.8030 
G01 X-52.4521 Y16.9858 
G01 X-52.3422 Y17.1503 
G01 X-52.2023 Y17.2902 
G01 X-52.0378 Y17.4001 
G01 X-51.8550 Y17.4758 
G01 X-51.6609 Y17.5144 
G00 Z2.5400 
G00 X-51.6609 Y14.9744 
G01 Z-0.1500 F254.00 
G01 X-49.9391 Y14.9744 F508.00 
G01 X-49.7450 Y14.9358 
G01 X-49.5622 Y14.8601 
G01 X-49.3977 Y14.7502 
G01 X-49.2578 Y14.6103 
G01 X-49.1479 Y14.4458 
G01 X-49.0722 Y14.2630 
G01 X-49.0336 Y14.0689 
G01 X-49.0336 Y13.8711 
G01 X-49.0722 Y13.6770 
G01 X-49.1479 Y13.4942 
G01 X-49.2578 Y13.3297 
G01 X-49.3977 Y13.1898 
G01 X-49.5622 Y13.0799 
G01 X-49.7450 Y13.0042 
G01 X-49.9391 Y12.9656 
G01 X-51.6609 Y12.9656 
G01 X-51.8550 Y13.0042 
G01 X-52.0378 Y13.0799 
G01 X-52.2023 Y13.1898 
G01 X-52.3422 Y13.3297 
G01 X-52.4521 Y13.4942 
G01 X-52.5278 Y13.6770 
G01 X-52.5664 Y13.8711 
G01 X-52.5664 Y14.0689 
G01 X-52.5278 Y14.2630 
G01 X-52.4521 Y14.4458 
G01 X-52.3422 Y14.6103 
G01 X-52.2023 Y14.7502 
G01 X-52.0378 Y14.8601 
G01 X-51.8550 Y14.9358 
G01 X-51.6609 Y14.9744 
G00 Z2.5400 
G00 X-51.6609 Y12.4344 
G01 Z-0.1500 F254.00 
G01 X-49.9391 Y12.4344 F508.00 
G01 X-49.7450 Y12.3958 
G01 X-49.5622 Y12.3201 
G01 X-49.3977 Y12.2102 
G01 X-49.2578 Y12.0703 
G01 X-49.1479 Y11.9058 
G01 X-49.0722 Y11.7230 
G01 X-49.0336 Y11.5289 
G01 X-49.0336 Y11.3311 
G01 X-49.0722 Y11.1370 
G01 X-49.1479 Y10.9542 
G01 X-49.2578 Y10.7897 
G01 X-49.3977 Y10.6498 
G01 X-49.4575 Y10.6099 
G01 X-44.2970 Y5.4494 
G01 X-24.2830 Y5.4494 
G01 X-16.4686 Y13.2638 
G01 X-16.4759 Y13.2688 
G01 X-16.6016 Y13.3945 
G01 X-16.7004 Y13.5424 
G01 X-16.7685 Y13.7067 
G01 X-16.8032 Y13.8811 
G01 X-16.8032 Y14.0589 
G01 X-16.7685 Y14.2333 
G01 X-16.7004 Y14.3976 
G01 X-16.6016 Y14.5455 
G01 X-16.4759 Y14.6712 
G01 X-16.3280 Y14.7700 
G01 X-16.1637 Y14.8381 
G01 X-15.9893 Y14.8728 
G01 X-14.4907 Y14.8728 
G01 X-14.3163 Y14.8381 
G01 X-14.1520 Y14.7700 
G01 X-14.0041 Y14.6712 
G01 X-13.8784 Y14.5455 
G01 X-13.7796 Y14.3976 
G01 X-13.7115 Y14.2333 
G01 X-13.6768 Y14.0589 
G01 X-13.6768 Y13.8811 
G01 X-13.7115 Y13.7067 
G01 X-13.7796 Y13.5424 
G01 X-13.8784 Y13.3945 
G01 X-14.0041 Y13.2688 
G01 X-14.1520 Y13.1700 
G01 X-14.3163 Y13.1019 
G01 X-14.4907 Y13.0672 
G01 X-15.6204 Y13.0672 
G01 X-23.8344 Y4.8532 
G01 X-23.9032 Y4.7844 
G01 X-23.9874 Y4.7358 
G01 X-24.0814 Y4.7106 
G01 X-44.4986 Y4.7106 
G01 X-44.5926 Y4.7358 
G01 X-44.6768 Y4.7844 
G01 X-49.0714 Y9.1790 
G01 X-49.0336 Y8.9889 
G01 X-49.0336 Y8.7911 
G01 X-49.0722 Y8.5970 
G01 X-49.1479 Y8.4142 
G01 X-49.2578 Y8.2497 
G01 X-49.3977 Y8.1098 
G01 X-49.5622 Y7.9999 
G01 X-49.7450 Y7.9242 
G01 X-49.9391 Y7.8856 
G01 X-51.6609 Y7.8856 
G01 X-51.8550 Y7.9242 
G01 X-52.0378 Y7.9999 
G01 X-52.2023 Y8.1098 
G01 X-52.3422 Y8.2497 
G01 X-52.4521 Y8.4142 
G01 X-52.5278 Y8.5970 
G01 X-52.5664 Y8.7911 
G01 X-52.5664 Y8.9889 
G01 X-52.5278 Y9.1830 
G01 X-52.4521 Y9.3658 
G01 X-52.3422 Y9.5303 
G01 X-52.2023 Y9.6702 
G01 X-52.0378 Y9.7801 
G01 X-51.8550 Y9.8558 
G01 X-51.6609 Y9.8944 
G01 X-49.9391 Y9.8944 
G01 X-49.7490 Y9.8566 
G01 X-50.3180 Y10.4256 
G01 X-51.6609 Y10.4256 
G01 X-51.8550 Y10.4642 
G01 X-52.0378 Y10.5399 
G01 X-52.2023 Y10.6498 
G01 X-52.3422 Y10.7897 
G01 X-52.4521 Y10.9542 
G01 X-52.5278 Y11.1370 
G01 X-52.5664 Y11.3311 
G01 X-52.5664 Y11.5289 
G01 X-52.5278 Y11.7230 
G01 X-52.4521 Y11.9058 
G01 X-52.3422 Y12.0703 
G01 X-52.2023 Y12.2102 
G01 X-52.0378 Y12.3201 
G01 X-51.8550 Y12.3958 
G01 X-51.6609 Y12.4344 
G00 Z2.5400 
G00 X-14.4907 Y10.5272 
G01 Z-0.1500 F254.00 
G01 X-15.9893 Y10.5272 F508.00 
G01 X-16.1637 Y10.5619 
G01 X-16.3280 Y10.6300 
G01 X-16.4759 Y10.7287 
G01 X-16.6016 Y10.8545 
G01 X-16.7004 Y11.0024 
G01 X-16.7685 Y11.1667 
G01 X-16.8032 Y11.3411 
G01 X-16.8032 Y11.5189 
G01 X-16.7685 Y11.6933 
G01 X-16.7004 Y11.8576 
G01 X-16.6016 Y12.0055 
G01 X-16.4759 Y12.1312 
G01 X-16.3280 Y12.2300 
G01 X-16.1637 Y12.2981 
G01 X-15.9893 Y12.3328 
G01 X-14.4907 Y12.3328 
G01 X-14.3163 Y12.2981 
G01 X-14.1520 Y12.2300 
G01 X-14.0041 Y12.1312 
G01 X-13.8784 Y12.0055 
G01 X-13.7796 Y11.8576 
G01 X-13.7115 Y11.6933 
G01 X-13.6768 Y11.5189 
G01 X-13.6768 Y11.3411 
G01 X-13.7115 Y11.1667 
G01 X-13.7796 Y11.0024 
G01 X-13.8784 Y10.8545 
G01 X-14.0041 Y10.7287 
G01 X-14.1520 Y10.6300 
G01 X-14.3163 Y10.5619 
G01 X-14.4907 Y10.5272 
G00 Z2.5400 
G00 X-14.4907 Y15.6072 
G01 Z-0.1500 F254.00 
G01 X-15.9893 Y15.6072 F508.00 
G01 X-16.1637 Y15.6419 
G01 X-16.3280 Y15.7100 
G01 X-16.4759 Y15.8088 
G01 X-16.6016 Y15.9345 
G01 X-16.7004 Y16.0824 
G01 X-16.7685 Y16.2467 
G01 X-16.8032 Y16.4211 
G01 X-16.8032 Y16.5989 
G01 X-16.7685 Y16.7733 
G01 X-16.7004 Y16.9376 
G01 X-16.6016 Y17.0855 
G01 X-16.4759 Y17.2112 
G01 X-16.3280 Y17.3100 
G01 X-16.1637 Y17.3781 
G01 X-15.9893 Y17.4128 
G01 X-14.4907 Y17.4128 
G01 X-14.3163 Y17.3781 
G01 X-14.1520 Y17.3100 
G01 X-14.0041 Y17.2112 
G01 X-13.8784 Y17.0855 
G01 X-13.7796 Y16.9376 
G01 X-13.7115 Y16.7733 
G01 X-13.6768 Y16.5989 
G01 X-13.6768 Y16.4211 
G01 X-13.7115 Y16.2467 
G01 X-13.7796 Y16.0824 
G01 X-13.8784 Y15.9345 
G01 X-14.0041 Y15.8088 
G01 X-14.1520 Y15.7100 
G01 X-14.3163 Y15.6419 
G01 X-14.4907 Y15.6072 
G00 Z2.5400 
G00 X-14.4907 Y18.1472 
G01 Z-0.1500 F254.00 
G01 X-15.9893 Y18.1472 F508.00 
G01 X-16.1637 Y18.1819 
G01 X-16.3280 Y18.2500 
G01 X-16.4759 Y18.3488 
G01 X-16.6016 Y18.4745 
G01 X-16.7004 Y18.6224 
G01 X-16.7685 Y18.7867 
G01 X-16.8032 Y18.9611 
G01 X-16.8032 Y19.1389 
G01 X-16.7685 Y19.3133 
G01 X-16.7004 Y19.4776 
G01 X-16.6016 Y19.6255 
G01 X-16.4759 Y19.7512 
G01 X-16.3280 Y19.8500 
G01 X-16.1637 Y19.9181 
G01 X-15.9893 Y19.9528 
G01 X-14.4907 Y19.9528 
G01 X-14.3163 Y19.9181 
G01 X-14.1520 Y19.8500 
G01 X-14.0041 Y19.7512 
G01 X-13.8784 Y19.6255 
G01 X-13.7796 Y19.4776 
G01 X-13.7115 Y19.3133 
G01 X-13.6768 Y19.1389 
G01 X-13.6768 Y18.9611 
G01 X-13.7115 Y18.7867 
G01 X-13.7796 Y18.6224 
G01 X-13.8784 Y18.4745 
G01 X-14.0041 Y18.3488 
G01 X-14.1520 Y18.2500 
G01 X-14.3163 Y18.1819 
G01 X-14.4907 Y18.1472 
G00 Z2.5400 
G00 X-14.4907 Y20.6872 
G01 Z-0.1500 F254.00 
G01 X-15.9893 Y20.6872 F508.00 
G01 X-16.1637 Y20.7219 
G01 X-16.3280 Y20.7900 
G01 X-16.4759 Y20.8888 
G01 X-16.6016 Y21.0145 
G01 X-16.7004 Y21.1624 
G01 X-16.7685 Y21.3267 
G01 X-16.8032 Y21.5011 
G01 X-16.8032 Y21.6789 
G01 X-16.7685 Y21.8533 
G01 X-16.7004 Y22.0176 
G01 X-16.6016 Y22.1655 
G01 X-16.4759 Y22.2912 
G01 X-16.3280 Y22.3900 
G01 X-16.1637 Y22.4581 
G01 X-15.9893 Y22.4928 
G01 X-14.4907 Y22.4928 
G01 X-14.3163 Y22.4581 
G01 X-14.1520 Y22.3900 
G01 X-14.0041 Y22.2912 
G01 X-13.8784 Y22.1655 
G01 X-13.7796 Y22.0176 
G01 X-13.7115 Y21.8533 
G01 X-13.6768 Y21.6789 
G01 X-13.6768 Y21.5011 
G01 X-13.7115 Y21.3267 
G01 X-13.7796 Y21.1624 
G01 X-13.8784 Y21.0145 
G01 X-14.0041 Y20.8888 
G01 X-14.1520 Y20.7900 
G01 X-14.3163 Y20.7219 
G01 X-14.4907 Y20.6872 
G00 Z2.5400 
G00 X-14.4907 Y28.3072 
G01 Z-0.1500 F254.00 
G01 X-15.9893 Y28.3072 F508.00 
G01 X-16.1637 Y28.3419 
G01 X-16.3280 Y28.4100 
G01 X-16.4759 Y28.5088 
G01 X-16.6016 Y28.6345 
G01 X-16.7004 Y28.7824 
G01 X-16.7685 Y28.9467 
G01 X-16.8032 Y29.1211 
G01 X-16.8032 Y29.2989 
G01 X-16.7685 Y29.4733 
G01 X-16.7004 Y29.6376 
G01 X-16.6016 Y29.7855 
G01 X-16.4759 Y29.9112 
G01 X-16.3280 Y30.0100 
G01 X-16.1637 Y30.0781 
G01 X-15.9893 Y30.1128 
G01 X-14.4907 Y30.1128 
G01 X-14.3163 Y30.0781 
G01 X-14.1520 Y30.0100 
G01 X-14.0041 Y29.9112 
G01 X-13.8784 Y29.7855 
G01 X-13.7796 Y29.6376 
G01 X-13.7115 Y29.4733 
G01 X-13.6768 Y29.2989 
G01 X-13.6768 Y29.1211 
G01 X-13.7115 Y28.9467 
G01 X-13.7796 Y28.7824 
G01 X-13.8784 Y28.6345 
G01 X-14.0041 Y28.5088 
G01 X-14.1520 Y28.4100 
G01 X-14.3163 Y28.3419 
G01 X-14.4907 Y28.3072 
G00 Z2.5400 
G00 X-14.4907 Y30.8472 
G01 Z-0.1500 F254.00 
G01 X-15.9893 Y30.8472 F508.00 
G01 X-16.1637 Y30.8819 
G01 X-16.3280 Y30.9500 
G01 X-16.4759 Y31.0488 
G01 X-16.6016 Y31.1745 
G01 X-16.7004 Y31.3224 
G01 X-16.7685 Y31.4867 
G01 X-16.8032 Y31.6611 
G01 X-16.8032 Y31.8389 
G01 X-16.7685 Y32.0133 
G01 X-16.7004 Y32.1776 
G01 X-16.6016 Y32.3255 
G01 X-16.4759 Y32.4512 
G01 X-16.3280 Y32.5500 
G01 X-16.1637 Y32.6181 
G01 X-15.9893 Y32.6528 
G01 X-14.4907 Y32.6528 
G01 X-14.3163 Y32.6181 
G01 X-14.1520 Y32.5500 
G01 X-14.0041 Y32.4512 
G01 X-13.8784 Y32.3255 
G01 X-13.7796 Y32.1776 
G01 X-13.7115 Y32.0133 
G01 X-13.6768 Y31.8389 
G01 X-13.6768 Y31.6611 
G01 X-13.7115 Y31.4867 
G01 X-13.7796 Y31.3224 
G01 X-13.8784 Y31.1745 
G01 X-14.0041 Y31.0488 
G01 X-14.1520 Y30.9500 
G01 X-14.3163 Y30.8819 
G01 X-14.4907 Y30.8472 
G00 Z2.5400 
G00 X-6.8707 Y38.4672 
G01 Z-0.1500 F254.00 
G01 X-8.3693 Y38.4672 F508.00 
G01 X-8.5437 Y38.5019 
G01 X-8.7080 Y38.5699 
G01 X-8.8559 Y38.6688 
G01 X-8.9816 Y38.7945 
G01 X-9.0804 Y38.9424 
G01 X-9.1485 Y39.1067 
G01 X-9.1832 Y39.2811 
G01 X-9.1832 Y39.4589 
G01 X-9.1485 Y39.6333 
G01 X-9.0804 Y39.7976 
G01 X-8.9816 Y39.9455 
G01 X-8.8559 Y40.0712 
G01 X-8.7080 Y40.1700 
G01 X-8.5437 Y40.2381 
G01 X-8.3693 Y40.2728 
G01 X-6.8707 Y40.2728 
G01 X-6.6963 Y40.2381 
G01 X-6.5320 Y40.1700 
G01 X-6.3841 Y40.0712 
G01 X-6.2584 Y39.9455 
G01 X-6.1596 Y39.7976 
G01 X-6.0915 Y39.6333 
G01 X-6.0568 Y39.4589 
G01 X-6.0568 Y39.2811 
G01 X-6.0915 Y39.1067 
G01 X-6.1596 Y38.9424 
G01 X-6.2584 Y38.7945 
G01 X-6.3841 Y38.6688 
G01 X-6.5320 Y38.5699 
G01 X-6.6963 Y38.5019 
G01 X-6.8707 Y38.4672 
G00 Z2.5400 
G00 X-6.8707 Y35.9272 
G01 Z-0.1500 F254.00 
G01 X-8.3693 Y35.9272 F508.00 
G01 X-8.5437 Y35.9619 
G01 X-8.7080 Y36.0299 
G01 X-8.8559 Y36.1288 
G01 X-8.9816 Y36.2545 
G01 X-9.0804 Y36.4024 
G01 X-9.1485 Y36.5667 
G01 X-9.1832 Y36.7411 
G01 X-9.1832 Y36.9189 
G01 X-9.1485 Y37.0933 
G01 X-9.0804 Y37.2576 
G01 X-8.9816 Y37.4055 
G01 X-8.8559 Y37.5312 
G01 X-8.7080 Y37.6300 
G01 X-8.5437 Y37.6981 
G01 X-8.3693 Y37.7328 
G01 X-6.8707 Y37.7328 
G01 X-6.6963 Y37.6981 
G01 X-6.5320 Y37.6300 
G01 X-6.3841 Y37.5312 
G01 X-6.2584 Y37.4055 
G01 X-6.1596 Y37.2576 
G01 X-6.0915 Y37.0933 
G01 X-6.0568 Y36.9189 
G01 X-6.0568 Y36.7411 
G01 X-6.0915 Y36.5667 
G01 X-6.1596 Y36.4024 
G01 X-6.2584 Y36.2545 
G01 X-6.3841 Y36.1288 
G01 X-6.5320 Y36.0299 
G01 X-6.6963 Y35.9619 
G01 X-6.8707 Y35.9272 
G00 Z2.5400 
G00 X-6.8707 Y30.8472 
G01 Z-0.1500 F254.00 
G01 X-8.3693 Y30.8472 F508.00 
G01 X-8.5437 Y30.8819 
G01 X-8.7080 Y30.9500 
G01 X-8.8559 Y31.0488 
G01 X-8.9816 Y31.1745 
G01 X-9.0804 Y31.3224 
G01 X-9.1485 Y31.4867 
G01 X-9.1832 Y31.6611 
G01 X-9.1832 Y31.8389 
G01 X-9.1485 Y32.0133 
G01 X-9.0804 Y32.1776 
G01 X-8.9816 Y32.3255 
G01 X-8.8559 Y32.4512 
G01 X-8.7080 Y32.5500 
G01 X-8.5437 Y32.6181 
G01 X-8.3693 Y32.6528 
G01 X-7.2396 Y32.6528 
G01 X-5.4494 Y34.4430 
G01 X-5.4494 Y42.8106 
G01 X-6.8596 Y42.8106 
G01 X-6.6963 Y42.7781 
G01 X-6.5320 Y42.7100 
G01 X-6.3841 Y42.6112 
G01 X-6.2584 Y42.4855 
G01 X-6.1596 Y42.3376 
G01 X-6.0915 Y42.1733 
G01 X-6.0568 Y41.9989 
G01 X-6.0568 Y41.8211 
G01 X-6.0915 Y41.6467 
G01 X-6.1596 Y41.4824 
G01 X-6.2584 Y41.3345 
G01 X-6.3841 Y41.2088 
G01 X-6.5320 Y41.1100 
G01 X-6.6963 Y41.0419 
G01 X-6.8707 Y41.0072 
G01 X-8.3693 Y41.0072 
G01 X-8.5437 Y41.0419 
G01 X-8.7080 Y41.1100 
G01 X-8.8559 Y41.2088 
G01 X-8.9816 Y41.3345 
G01 X-9.0804 Y41.4824 
G01 X-9.1485 Y41.6467 
G01 X-9.1832 Y41.8211 
G01 X-9.1832 Y41.9989 
G01 X-9.1485 Y42.1733 
G01 X-9.0804 Y42.3376 
G01 X-8.9816 Y42.4855 
G01 X-8.8559 Y42.6112 
G01 X-8.7080 Y42.7100 
G01 X-8.5437 Y42.7781 
G01 X-8.3804 Y42.8106 
G01 X-14.4796 Y42.8106 
G01 X-14.3163 Y42.7781 
G01 X-14.1520 Y42.7100 
G01 X-14.0041 Y42.6112 
G01 X-13.8784 Y42.4855 
G01 X-13.7796 Y42.3376 
G01 X-13.7115 Y42.1733 
G01 X-13.6768 Y41.9989 
G01 X-13.6768 Y41.8211 
G01 X-13.7115 Y41.6467 
G01 X-13.7796 Y41.4824 
G01 X-13.8784 Y41.3345 
G01 X-14.0041 Y41.2088 
G01 X-14.1520 Y41.1100 
G01 X-14.3163 Y41.0419 
G01 X-14.4796 Y41.0094 
G01 X-13.9214 Y41.0094 
G01 X-13.8274 Y40.9842 
G01 X-13.7432 Y40.9356 
G01 X-13.6744 Y40.8668 
G01 X-8.0004 Y35.1928 
G01 X-6.8707 Y35.1928 
G01 X-6.6963 Y35.1581 
G01 X-6.5320 Y35.0900 
G01 X-6.3841 Y34.9912 
G01 X-6.2584 Y34.8655 
G01 X-6.1596 Y34.7176 
G01 X-6.0915 Y34.5533 
G01 X-6.0568 Y34.3789 
G01 X-6.0568 Y34.2011 
G01 X-6.0915 Y34.0267 
G01 X-6.1596 Y33.8624 
G01 X-6.2584 Y33.7145 
G01 X-6.3841 Y33.5888 
G01 X-6.5320 Y33.4900 
G01 X-6.6963 Y33.4219 
G01 X-6.8707 Y33.3872 
G01 X-8.3693 Y33.3872 
G01 X-8.5437 Y33.4219 
G01 X-8.7080 Y33.4900 
G01 X-8.8559 Y33.5888 
G01 X-8.9816 Y33.7145 
G01 X-9.0804 Y33.8624 
G01 X-9.1485 Y34.0267 
G01 X-9.1832 Y34.2011 
G01 X-9.1832 Y34.3789 
G01 X-9.1485 Y34.5533 
G01 X-9.0804 Y34.7176 
G01 X-8.9816 Y34.8655 
G01 X-8.8559 Y34.9912 
G01 X-8.8486 Y34.9962 
G01 X-14.1230 Y40.2706 
G01 X-14.4796 Y40.2706 
G01 X-14.3163 Y40.2381 
G01 X-14.1520 Y40.1700 
G01 X-14.0041 Y40.0712 
G01 X-13.8784 Y39.9455 
G01 X-13.7796 Y39.7976 
G01 X-13.7115 Y39.6333 
G01 X-13.6768 Y39.4589 
G01 X-13.6768 Y39.2811 
G01 X-13.7115 Y39.1067 
G01 X-13.7796 Y38.9424 
G01 X-13.8784 Y38.7945 
G01 X-14.0041 Y38.6688 
G01 X-14.1520 Y38.5699 
G01 X-14.3163 Y38.5019 
G01 X-14.4907 Y38.4672 
G01 X-15.6204 Y38.4672 
G01 X-16.2144 Y37.8732 
G01 X-16.2832 Y37.8044 
G01 X-16.3674 Y37.7558 
G01 X-16.4614 Y37.7306 
G01 X-33.7163 Y37.7306 
G01 X-33.2475 Y37.2618 
G01 X-33.2475 Y36.3982 
G01 X-33.8582 Y35.7875 
G01 X-34.7218 Y35.7875 
G01 X-35.3325 Y36.3982 
G01 X-35.3325 Y37.2618 
G01 X-34.8637 Y37.7306 
G01 X-39.2170 Y37.7306 
G01 X-49.4575 Y27.4901 
G01 X-49.3977 Y27.4502 
G01 X-49.2578 Y27.3103 
G01 X-49.1479 Y27.1458 
G01 X-49.0722 Y26.9630 
G01 X-49.0336 Y26.7689 
G01 X-49.0336 Y26.5711 
G01 X-49.0714 Y26.3810 
G01 X-44.6768 Y30.7756 
G01 X-44.5926 Y30.8242 
G01 X-44.4986 Y30.8494 
G01 X-21.7430 Y30.8494 
G01 X-16.4686 Y36.1238 
G01 X-16.4759 Y36.1288 
G01 X-16.6016 Y36.2545 
G01 X-16.7004 Y36.4024 
G01 X-16.7685 Y36.5667 
G01 X-16.8032 Y36.7411 
G01 X-16.8032 Y36.9189 
G01 X-16.7685 Y37.0933 
G01 X-16.7004 Y37.2576 
G01 X-16.6016 Y37.4055 
G01 X-16.4759 Y37.5312 
G01 X-16.3280 Y37.6300 
G01 X-16.1637 Y37.6981 
G01 X-15.9893 Y37.7328 
G01 X-14.4907 Y37.7328 
G01 X-14.3163 Y37.6981 
G01 X-14.1520 Y37.6300 
G01 X-14.0041 Y37.5312 
G01 X-13.8784 Y37.4055 
G01 X-13.7796 Y37.2576 
G01 X-13.7115 Y37.0933 
G01 X-13.6768 Y36.9189 
G01 X-13.6768 Y36.7411 
G01 X-13.7115 Y36.5667 
G01 X-13.7796 Y36.4024 
G01 X-13.8784 Y36.2545 
G01 X-14.0041 Y36.1288 
G01 X-14.1520 Y36.0299 
G01 X-14.3163 Y35.9619 
G01 X-14.4907 Y35.9272 
G01 X-15.6204 Y35.9272 
G01 X-21.2944 Y30.2532 
G01 X-21.3632 Y30.1844 
G01 X-21.4474 Y30.1358 
G01 X-21.5414 Y30.1106 
G01 X-44.2970 Y30.1106 
G01 X-49.4575 Y24.9501 
G01 X-49.3977 Y24.9102 
G01 X-49.2578 Y24.7703 
G01 X-49.1479 Y24.6058 
G01 X-49.0722 Y24.4230 
G01 X-49.0336 Y24.2289 
G01 X-49.0336 Y24.0311 
G01 X-49.0714 Y23.8410 
G01 X-43.4068 Y29.5056 
G01 X-43.3226 Y29.5542 
G01 X-43.2286 Y29.5794 
G01 X-20.4730 Y29.5794 
G01 X-16.4686 Y33.5838 
G01 X-16.4759 Y33.5888 
G01 X-16.6016 Y33.7145 
G01 X-16.7004 Y33.8624 
G01 X-16.7685 Y34.0267 
G01 X-16.8032 Y34.2011 
G01 X-16.8032 Y34.3789 
G01 X-16.7685 Y34.5533 
G01 X-16.7004 Y34.7176 
G01 X-16.6016 Y34.8655 
G01 X-16.4759 Y34.9912 
G01 X-16.3280 Y35.0900 
G01 X-16.1637 Y35.1581 
G01 X-15.9893 Y35.1928 
G01 X-14.4907 Y35.1928 
G01 X-14.3163 Y35.1581 
G01 X-14.1520 Y35.0900 
G01 X-14.0041 Y34.9912 
G01 X-13.8784 Y34.8655 
G01 X-13.7796 Y34.7176 
G01 X-13.7115 Y34.5533 
G01 X-13.6768 Y34.3789 
G01 X-13.6768 Y34.2011 
G01 X-13.7115 Y34.0267 
G01 X-13.7796 Y33.8624 
G01 X-13.8784 Y33.7145 
G01 X-14.0041 Y33.5888 
G01 X-14.1520 Y33.4900 
G01 X-14.3163 Y33.4219 
G01 X-14.4907 Y33.3872 
G01 X-15.6204 Y33.3872 
G01 X-20.0244 Y28.9832 
G01 X-20.0932 Y28.9144 
G01 X-20.1774 Y28.8658 
G01 X-20.2714 Y28.8406 
G01 X-22.3928 Y28.8406 
G01 X-22.2845 Y28.7682 
G01 X-22.1588 Y28.6425 
G01 X-22.0600 Y28.4946 
G01 X-21.9919 Y28.3303 
G01 X-21.9572 Y28.1559 
G01 X-21.9572 Y27.9781 
G01 X-21.9919 Y27.8037 
G01 X-22.0600 Y27.6394 
G01 X-22.1588 Y27.4915 
G01 X-22.2845 Y27.3658 
G01 X-22.4324 Y27.2670 
G01 X-22.5967 Y27.1989 
G01 X-22.7711 Y27.1642 
G01 X-22.9489 Y27.1642 
G01 X-23.1233 Y27.1989 
G01 X-23.2876 Y27.2670 
G01 X-23.4355 Y27.3658 
G01 X-23.5612 Y27.4915 
G01 X-23.6600 Y27.6394 
G01 X-23.7281 Y27.8037 
G01 X-23.7628 Y27.9781 
G01 X-23.7628 Y28.1559 
G01 X-23.7281 Y28.3303 
G01 X-23.6600 Y28.4946 
G01 X-23.5612 Y28.6425 
G01 X-23.4355 Y28.7682 
G01 X-23.3272 Y28.8406 
G01 X-33.7163 Y28.8406 
G01 X-33.2475 Y28.3718 
G01 X-33.2475 Y27.5082 
G01 X-33.8582 Y26.8975 
G01 X-34.7218 Y26.8975 
G01 X-35.3325 Y27.5082 
G01 X-35.3325 Y28.3718 
G01 X-34.8637 Y28.8406 
G01 X-43.0270 Y28.8406 
G01 X-49.4575 Y22.4101 
