(.../pcb-gcode-3_6_0_4/pcb-gcode.ulp)
(Copyright 2005 - 2012 by John Johnson)
(See readme.txt for licensing terms.)
(This file generated from the board:)
(.../GitHub/eagle/KMO_IO_M/KMO_IO_M.brd)
(Current profile is .../pcb-gcode-3_6_0_4/profiles/emc.pp  )
(This file generated 9/3/2018 3:45 PM)
(Settings from pcb-machine.h)
(  Tool Size)
(0.1778 )
(Z Axis Settings)
(  High     Up        Down     Drill)
(12.7000 	2.5400 	-0.1778 	-0.8128 )
(spindle on time = 3.0000)
(milling depth = -0.2540)
(text depth = -0.1270)
(tool change at 12.7000 15.2400 25.4000 )
(feed rate xy = F508.00 )
(feed rate z  = F254.00 )
(Settings from pcb-defaults.h)
(isolate min = 0.0254)
(isolate max = 0.5080)
(isolate step = 0.1270)
(Generated top outlines, top drill, bottom outlines, bottom drill, )
(Unit of measure: mm)
( Tool|       Size       |  Min Sub |  Max Sub |   Count )
( T01 | 0.500mm 0.0197in | 0.0000in | 0.0000in |       0 )
( T02 | 0.800mm 0.0315in | 0.0000in | 0.0000in |       0 )
( T03 | 0.850mm 0.0335in | 0.0000in | 0.0000in |       0 )
( T04 | 0.914mm 0.0360in | 0.0000in | 0.0000in |       0 )
( T05 | 1.016mm 0.0400in | 0.0000in | 0.0000in |       0 )
( T06 | 1.397mm 0.0550in | 0.0000in | 0.0000in |       0 )
( T07 | 2.000mm 0.0787in | 0.0000in | 0.0000in |       0 )
( T08 | 2.032mm 0.0800in | 0.0000in | 0.0000in |       0 )
( T09 | 3.000mm 0.1181in | 0.0000in | 0.0000in |       0 )
(Metric Mode)
G21
(Absolute Coordinates)
G90
M05
G00 Z25.4000 
G00 X12.7000 Y15.2400 
M06 T01 (0.5000 )
G01 Z0.0000 F254.00 
M06 T01 (0.5000 )
G00 Z2.5400 
M03
G04 P3.000000
G82 X-34.7875 Y45.1000 Z-0.8128 F254.00 R2.5400 P1.000000
G82 X-34.7875 Y63.3875 
G82 X-39.8750 Y8.1125 
G82 X-40.0125 Y65.7250 
G82 X-42.4875 Y90.3375 
G82 X-42.7625 Y62.7000 
G82 X-44.4125 Y73.0125 
G82 X-45.1000 Y4.2625 
G82 X-48.8125 Y60.3625 
M05
G00 Z25.4000 
M06 T02 (0.8000 )
G01 Z0.0000 F254.00 
M06 T02 (0.8000 )
G00 Z2.5400 
M03
G04 P3.000000
G82 X-33.1125 Y7.2050 Z-0.8128 F254.00 R2.5400 P1.000000
G82 X-33.1125 Y9.7450 
G82 X-33.1125 Y12.2850 
G82 X-33.1125 Y14.8250 
G82 X-30.5725 Y7.2050 
G82 X-30.5725 Y9.7450 
G82 X-30.5725 Y12.2850 
G82 X-30.5725 Y14.8250 
M05
G00 Z25.4000 
M06 T03 (0.8500 )
G01 Z0.0000 F254.00 
M06 T03 (0.8500 )
G00 Z2.5400 
M03
G04 P3.000000
G82 X-33.6800 Y33.2100 Z-0.8128 F254.00 R2.5400 P1.000000
G82 X-33.6800 Y35.7500 
G82 X-33.6800 Y38.2900 
G82 X-33.6800 Y40.8300 
G82 X-33.6800 Y30.6700 
G82 X-31.1400 Y33.2100 
G82 X-31.1400 Y35.7500 
G82 X-31.1400 Y38.2900 
G82 X-31.1400 Y40.8300 
G82 X-31.1400 Y30.6700 
M05
G00 Z25.4000 
M06 T04 (0.9144 )
G01 Z0.0000 F254.00 
M06 T04 (0.9144 )
G00 Z2.5400 
M03
G04 P3.000000
G82 X-57.4800 Y4.0000 Z-0.8128 F254.00 R2.5400 P1.000000
G82 X-60.0200 Y4.0000 
M05
G00 Z25.4000 
M06 T05 (1.0160 )
G01 Z0.0000 F254.00 
M06 T05 (1.0160 )
G00 Z2.5400 
M03
G04 P3.000000
G82 X-47.3800 Y63.3000 Z-0.8128 F254.00 R2.5400 P1.000000
G82 X-47.3800 Y65.8400 
G82 X-47.3800 Y68.3800 
G82 X-47.3800 Y70.9200 
G82 X-47.3800 Y73.4600 
G82 X-47.3800 Y76.0000 
G82 X-47.3800 Y78.5400 
G82 X-47.3800 Y81.0800 
G82 X-47.3800 Y83.6200 
G82 X-47.3800 Y86.1600 
G82 X-47.3800 Y88.7000 
G82 X-47.3800 Y91.2400 
G82 X-62.6200 Y63.3000 
G82 X-62.6200 Y65.8400 
G82 X-62.6200 Y68.3800 
G82 X-62.6200 Y70.9200 
G82 X-62.6200 Y73.4600 
G82 X-62.6200 Y76.0000 
G82 X-62.6200 Y78.5400 
G82 X-62.6200 Y81.0800 
G82 X-62.6200 Y83.6200 
G82 X-62.6200 Y86.1600 
G82 X-62.6200 Y88.7000 
G82 X-62.6200 Y91.2400 
G82 X-80.2500 Y57.0000 
G82 X-80.2500 Y59.5000 
G82 X-80.2500 Y62.0000 
G82 X-80.2500 Y71.2500 
G82 X-80.2500 Y73.7500 
G82 X-80.2500 Y76.2500 
G82 X-80.2500 Y85.5000 
G82 X-80.2500 Y88.0000 
G82 X-80.2500 Y90.5000 
M05
G00 Z25.4000 
M06 T06 (1.3970 )
G01 Z0.0000 F254.00 
M06 T06 (1.3970 )
G00 Z2.5400 
M03
G04 P3.000000
G82 X-6.8300 Y65.0500 Z-0.8128 F254.00 R2.5400 P1.000000
G82 X-6.8300 Y70.1300 
G82 X-6.8300 Y75.2100 
G82 X-6.8300 Y80.2900 
G82 X-6.8300 Y85.3700 
G82 X-6.8300 Y90.4500 
G82 X-7.0800 Y31.9500 
G82 X-7.0800 Y6.5500 
G82 X-7.0800 Y11.6300 
G82 X-7.0800 Y16.7100 
G82 X-7.0800 Y21.7900 
G82 X-7.0800 Y26.8700 
M05
G00 Z25.4000 
M06 T07 (2.0000 )
G01 Z0.0000 F254.00 
M06 T07 (2.0000 )
G00 Z2.5400 
M03
G04 P3.000000
G82 X-32.1560 Y49.7200 Z-0.8128 F254.00 R2.5400 P1.000000
G82 X-32.1560 Y21.7800 
G82 X-80.9240 Y49.7200 
G82 X-80.9240 Y21.7800 
M05
G00 Z25.4000 
M06 T08 (2.0320 )
G01 Z0.0000 F254.00 
M06 T08 (2.0320 )
G00 Z2.5400 
M03
G04 P3.000000
G82 X-76.4280 Y10.0000 Z-0.8128 F254.00 R2.5400 P1.000000
G82 X-81.0000 Y10.0000 
M05
G00 Z25.4000 
M06 T09 (3.0000 )
G01 Z0.0000 F254.00 
M06 T09 (3.0000 )
G00 Z2.5400 
M03
G04 P3.000000
G82 X-67.2500 Y83.2500 Z-0.8128 F254.00 R2.5400 P1.000000
G82 X-67.2500 Y13.2500 
G82 X-17.2500 Y83.2500 
G82 X-17.2500 Y13.2500 
T01 
G00 Z12.7000 
M05
M02
