(.../pcb-gcode-3_6_0_4/pcb-gcode.ulp)
(Copyright 2005 - 2012 by John Johnson)
(See readme.txt for licensing terms.)
(This file generated from the board:)
(.../GitHub/eagle/KMO_IO_M/KMO_IO_M.brd)
(Current profile is .../pcb-gcode-3_6_0_4/profiles/emc.pp  )
(This file generated 9/3/2018 3:45 PM)
(Settings from pcb-machine.h)
(  Tool Size)
(0.1778 )
(Z Axis Settings)
(  High     Up        Down     Drill)
(12.7000 	2.5400 	-0.1778 	-0.8128 )
(spindle on time = 3.0000)
(milling depth = -0.2540)
(text depth = -0.1270)
(tool change at 12.7000 15.2400 25.4000 )
(feed rate xy = F508.00 )
(feed rate z  = F254.00 )
(Settings from pcb-defaults.h)
(isolate min = 0.0254)
(isolate max = 0.5080)
(isolate step = 0.1270)
(Generated top outlines, top drill, bottom outlines, bottom drill, )
(Unit of measure: mm)
(Metric Mode)
G21
(Absolute Coordinates)
G90
G00 X0.0000 Y0.0000 
M03
G04 P3.000000
G00 Z2.5400 
G00 X38.7945 Y66.1957 
G01 Z-0.1778 F254.00 
G01 X38.9812 Y66.3825 F508.00 
G01 X39.1680 Y66.1957 
G01 X38.7945 Y66.1957 
G00 Z2.5400 
G00 X31.0502 Y42.9740 
G01 Z-0.1778 F254.00 
G01 X31.0010 Y42.9248 F508.00 
G01 X30.9662 Y42.8645 
G01 X30.9482 Y42.7973 
G01 X30.9482 Y41.6233 
G01 X30.4383 Y41.6233 
G01 X30.3963 Y41.6059 
G01 X30.3641 Y41.5737 
G01 X30.3467 Y41.5317 
G01 X30.3467 Y40.1283 
G01 X30.3641 Y40.0863 
G01 X30.3963 Y40.0541 
G01 X30.4383 Y40.0367 
G01 X30.8107 Y40.0367 
G01 X30.8107 Y39.9845 
G01 X29.2627 Y38.4365 
G01 X29.2135 Y38.3873 
G01 X29.1787 Y38.3270 
G01 X29.1607 Y38.2598 
G01 X29.1607 Y13.4402 
G01 X29.1787 Y13.3730 
G01 X29.2135 Y13.3127 
G01 X29.8874 Y12.6388 
G01 X29.8337 Y12.5091 
G01 X29.8042 Y12.3607 
G01 X29.8042 Y12.2093 
G01 X29.8337 Y12.0609 
G01 X29.8916 Y11.9211 
G01 X29.9757 Y11.7952 
G01 X30.0827 Y11.6882 
G01 X30.2086 Y11.6041 
G01 X30.3484 Y11.5462 
G01 X30.3982 Y11.5363 
G01 X30.3982 Y11.2402 
G01 X30.4162 Y11.1730 
G01 X30.4510 Y11.1127 
G01 X31.4982 Y10.0655 
G01 X31.4982 Y8.4970 
G01 X30.9015 Y7.9003 
G01 X30.7966 Y7.9438 
G01 X30.6482 Y7.9733 
G01 X30.4968 Y7.9733 
G01 X30.3484 Y7.9438 
G01 X30.2086 Y7.8859 
G01 X30.0827 Y7.8018 
G01 X29.9757 Y7.6948 
G01 X29.8916 Y7.5689 
G01 X29.8337 Y7.4291 
G01 X29.8042 Y7.2807 
G01 X29.8042 Y7.1293 
G01 X29.8337 Y6.9809 
G01 X29.8916 Y6.8411 
G01 X29.9757 Y6.7152 
G01 X30.0827 Y6.6082 
G01 X30.2086 Y6.5241 
G01 X30.3484 Y6.4662 
G01 X30.4968 Y6.4367 
G01 X30.6482 Y6.4367 
G01 X30.7966 Y6.4662 
G01 X30.9210 Y6.5177 
G01 X31.6002 Y5.8385 
G01 X31.6605 Y5.8037 
G01 X31.7277 Y5.7857 
G01 X33.9973 Y5.7857 
G01 X34.0645 Y5.8037 
G01 X34.1248 Y5.8385 
G01 X34.1740 Y5.8877 
G01 X34.7595 Y6.4732 
G01 X40.9857 Y6.4732 
G01 X40.9857 Y3.4027 
G01 X41.0037 Y3.3355 
G01 X41.0385 Y3.2752 
G01 X41.0877 Y3.2260 
G01 X41.7752 Y2.5385 
G01 X41.8355 Y2.5037 
G01 X41.9027 Y2.4857 
G01 X50.2223 Y2.4857 
G01 X50.2895 Y2.5037 
G01 X50.3498 Y2.5385 
G01 X50.3990 Y2.5877 
G01 X50.6740 Y2.8627 
G01 X50.7088 Y2.9230 
G01 X50.7268 Y2.9902 
G01 X50.7268 Y4.5723 
G01 X50.7088 Y4.6395 
G01 X50.6740 Y4.6998 
G01 X50.6248 Y4.7490 
G01 X50.0393 Y5.3345 
G01 X50.0393 Y8.8280 
G01 X57.4470 Y16.2357 
G01 X57.5857 Y16.2357 
G01 X57.5857 Y15.8773 
G01 X57.6031 Y15.8353 
G01 X57.6353 Y15.8031 
G01 X57.6773 Y15.7857 
G01 X58.5227 Y15.7857 
G01 X58.5647 Y15.8031 
G01 X58.5969 Y15.8353 
G01 X58.6143 Y15.8773 
G01 X58.6143 Y17.1227 
G01 X58.5969 Y17.1647 
G01 X58.5647 Y17.1969 
G01 X58.5227 Y17.2143 
G01 X58.2893 Y17.2143 
G01 X58.2893 Y17.2223 
G01 X58.2713 Y17.2895 
G01 X58.2365 Y17.3498 
G01 X53.0882 Y22.4981 
G01 X53.0882 Y24.1756 
G01 X53.0708 Y24.2176 
G01 X53.0386 Y24.2498 
G01 X52.9966 Y24.2672 
G01 X51.4526 Y24.2672 
G01 X51.4106 Y24.2498 
G01 X51.3784 Y24.2176 
G01 X51.3610 Y24.1756 
G01 X51.3610 Y22.1236 
G01 X51.3784 Y22.0816 
G01 X51.4106 Y22.0494 
G01 X51.4526 Y22.0320 
G01 X52.8067 Y22.0320 
G01 X57.6399 Y17.1988 
G01 X57.6353 Y17.1969 
G01 X57.6031 Y17.1647 
G01 X57.5857 Y17.1227 
G01 X57.5857 Y16.7643 
G01 X57.3027 Y16.7643 
G01 X57.2355 Y16.7463 
G01 X57.1752 Y16.7115 
G01 X49.6127 Y9.1490 
G01 X49.5635 Y9.0998 
G01 X49.5287 Y9.0395 
G01 X49.5107 Y8.9723 
G01 X49.5107 Y5.1902 
G01 X49.5287 Y5.1230 
G01 X49.5635 Y5.0627 
G01 X50.1982 Y4.4280 
G01 X50.1982 Y3.1345 
G01 X50.0780 Y3.0143 
G01 X42.0470 Y3.0143 
G01 X41.5143 Y3.5470 
G01 X41.5143 Y6.4732 
G01 X46.5098 Y6.4732 
G01 X46.5770 Y6.4912 
G01 X46.6373 Y6.5260 
G01 X46.6865 Y6.5752 
G01 X47.4623 Y7.3510 
G01 X47.5115 Y7.4002 
G01 X47.5463 Y7.4605 
G01 X47.5643 Y7.5277 
G01 X47.5643 Y16.5348 
G01 X47.5463 Y16.6020 
G01 X47.5115 Y16.6623 
G01 X47.4623 Y16.7115 
G01 X44.9591 Y19.2147 
G01 X44.9643 Y19.2273 
G01 X44.9643 Y20.0727 
G01 X44.9469 Y20.1147 
G01 X44.9147 Y20.1469 
G01 X44.8727 Y20.1643 
G01 X43.6273 Y20.1643 
G01 X43.5853 Y20.1469 
G01 X43.5531 Y20.1147 
G01 X43.5357 Y20.0727 
G01 X43.5357 Y19.2273 
G01 X43.5531 Y19.1853 
G01 X43.5853 Y19.1531 
G01 X43.6273 Y19.1357 
G01 X44.2905 Y19.1357 
G01 X47.0357 Y16.3905 
G01 X47.0357 Y7.6720 
G01 X46.3655 Y7.0018 
G01 X34.6152 Y7.0018 
G01 X34.5480 Y6.9838 
G01 X34.4877 Y6.9490 
G01 X33.8530 Y6.3143 
G01 X31.8720 Y6.3143 
G01 X31.2803 Y6.9060 
G01 X31.3113 Y6.9809 
G01 X31.3408 Y7.1293 
G01 X31.3408 Y7.2807 
G01 X31.3113 Y7.4291 
G01 X31.2722 Y7.5234 
G01 X31.9740 Y8.2252 
G01 X32.0088 Y8.2855 
G01 X32.0268 Y8.3527 
G01 X32.0268 Y10.2098 
G01 X32.0088 Y10.2770 
G01 X31.9740 Y10.3373 
G01 X31.9248 Y10.3865 
G01 X30.9268 Y11.3845 
G01 X30.9268 Y11.6002 
G01 X30.9364 Y11.6041 
G01 X31.0623 Y11.6882 
G01 X31.1693 Y11.7952 
G01 X31.2534 Y11.9211 
G01 X31.3113 Y12.0609 
G01 X31.3408 Y12.2093 
G01 X31.3408 Y12.3607 
G01 X31.3113 Y12.5091 
G01 X31.2534 Y12.6489 
G01 X31.1693 Y12.7748 
G01 X31.0623 Y12.8818 
G01 X30.9364 Y12.9659 
G01 X30.7966 Y13.0238 
G01 X30.6482 Y13.0533 
G01 X30.4968 Y13.0533 
G01 X30.3484 Y13.0238 
G01 X30.2788 Y12.9950 
G01 X29.6893 Y13.5845 
G01 X29.6893 Y38.1155 
G01 X31.2865 Y39.7127 
G01 X31.3213 Y39.7730 
G01 X31.3393 Y39.8402 
G01 X31.3393 Y40.0367 
G01 X31.8417 Y40.0367 
G01 X31.8837 Y40.0541 
G01 X31.9159 Y40.0863 
G01 X31.9333 Y40.1283 
G01 X31.9333 Y41.5317 
G01 X31.9159 Y41.5737 
G01 X31.8837 Y41.6059 
G01 X31.8417 Y41.6233 
G01 X31.4768 Y41.6233 
G01 X31.4768 Y42.6530 
G01 X48.6439 Y59.8202 
G01 X48.7378 Y59.7950 
G01 X48.8872 Y59.7950 
G01 X49.0315 Y59.8337 
G01 X49.1609 Y59.9084 
G01 X49.2666 Y60.0140 
G01 X49.3413 Y60.1435 
G01 X49.3800 Y60.2878 
G01 X49.3800 Y60.4372 
G01 X49.3413 Y60.5815 
G01 X49.2666 Y60.7110 
G01 X49.1609 Y60.8166 
G01 X49.0315 Y60.8913 
G01 X48.8872 Y60.9300 
G01 X48.7378 Y60.9300 
G01 X48.5935 Y60.8913 
G01 X48.4640 Y60.8166 
G01 X48.3584 Y60.7110 
G01 X48.2837 Y60.5815 
G01 X48.2450 Y60.4372 
G01 X48.2450 Y60.2878 
G01 X48.2702 Y60.1939 
G01 X31.0502 Y42.9740 
G00 Z2.5400 
G00 X12.6273 Y17.8857 
G01 Z-0.1778 F254.00 
G01 X13.8727 Y17.8857 F508.00 
G01 X13.9147 Y17.9031 
G01 X13.9469 Y17.9353 
G01 X13.9643 Y17.9773 
G01 X13.9643 Y18.8227 
G01 X13.9469 Y18.8647 
G01 X13.9147 Y18.8969 
G01 X13.8727 Y18.9143 
G01 X13.4643 Y18.9143 
G01 X13.4643 Y20.7973 
G01 X13.4463 Y20.8645 
G01 X13.4115 Y20.9248 
G01 X8.5507 Y25.7856 
G01 X8.5738 Y25.7931 
G01 X8.7368 Y25.8761 
G01 X8.8848 Y25.9836 
G01 X9.0141 Y26.1130 
G01 X9.1216 Y26.2610 
G01 X9.2047 Y26.4239 
G01 X9.2612 Y26.5979 
G01 X9.2898 Y26.7785 
G01 X9.2898 Y26.9615 
G01 X9.2612 Y27.1421 
G01 X9.2047 Y27.3161 
G01 X9.1216 Y27.4790 
G01 X9.0141 Y27.6270 
G01 X8.8848 Y27.7564 
G01 X8.7368 Y27.8639 
G01 X8.5738 Y27.9469 
G01 X8.3999 Y28.0034 
G01 X8.2192 Y28.0320 
G01 X5.9408 Y28.0320 
G01 X5.7601 Y28.0034 
G01 X5.5862 Y27.9469 
G01 X5.4232 Y27.8639 
G01 X5.2752 Y27.7564 
G01 X5.1459 Y27.6270 
G01 X5.0384 Y27.4790 
G01 X4.9553 Y27.3161 
G01 X4.8988 Y27.1421 
G01 X4.8702 Y26.9615 
G01 X4.8702 Y26.7785 
G01 X4.8988 Y26.5979 
G01 X4.9553 Y26.4239 
G01 X5.0384 Y26.2610 
G01 X5.1459 Y26.1130 
G01 X5.2752 Y25.9836 
G01 X5.4232 Y25.8761 
G01 X5.5862 Y25.7931 
G01 X5.7601 Y25.7366 
G01 X5.9408 Y25.7080 
G01 X7.8808 Y25.7080 
G01 X12.9357 Y20.6530 
G01 X12.9357 Y18.9143 
G01 X12.6273 Y18.9143 
G01 X12.5853 Y18.8969 
G01 X12.5531 Y18.8647 
G01 X12.5357 Y18.8227 
G01 X12.5357 Y18.6893 
G01 X5.6027 Y18.6893 
G01 X5.5355 Y18.6713 
G01 X5.4752 Y18.6365 
G01 X5.4260 Y18.5873 
G01 X4.3752 Y17.5365 
G01 X4.3260 Y17.4873 
G01 X4.2912 Y17.4270 
G01 X4.2732 Y17.3598 
G01 X4.2732 Y16.0527 
G01 X4.2912 Y15.9855 
G01 X4.3260 Y15.9252 
G01 X4.3752 Y15.8760 
G01 X6.9877 Y13.2635 
G01 X7.0480 Y13.2287 
G01 X7.1152 Y13.2107 
G01 X12.5357 Y13.2107 
G01 X12.5357 Y12.9773 
G01 X12.5531 Y12.9353 
G01 X12.5853 Y12.9031 
G01 X12.6273 Y12.8857 
G01 X13.4155 Y12.8857 
G01 X14.0357 Y12.2655 
G01 X14.0357 Y11.1095 
G01 X13.1260 Y10.1998 
G01 X13.0912 Y10.1395 
G01 X13.0732 Y10.0723 
G01 X13.0732 Y8.9143 
G01 X12.6273 Y8.9143 
G01 X12.5853 Y8.8969 
G01 X12.5531 Y8.8647 
G01 X12.5357 Y8.8227 
G01 X12.5357 Y7.9773 
G01 X12.5531 Y7.9353 
G01 X12.5853 Y7.9031 
G01 X12.6273 Y7.8857 
G01 X13.8727 Y7.8857 
G01 X13.9147 Y7.9031 
G01 X13.9469 Y7.9353 
G01 X13.9643 Y7.9773 
G01 X13.9643 Y8.8227 
G01 X13.9469 Y8.8647 
G01 X13.9147 Y8.8969 
G01 X13.8727 Y8.9143 
G01 X13.6018 Y8.9143 
G01 X13.6018 Y9.9280 
G01 X14.4623 Y10.7885 
G01 X14.5115 Y10.8377 
G01 X14.5463 Y10.8980 
G01 X14.5643 Y10.9652 
G01 X14.5643 Y12.4098 
G01 X14.5463 Y12.4770 
G01 X14.5115 Y12.5373 
G01 X13.9643 Y13.0845 
G01 X13.9643 Y13.8227 
G01 X13.9469 Y13.8647 
G01 X13.9147 Y13.8969 
G01 X13.8727 Y13.9143 
G01 X12.6273 Y13.9143 
G01 X12.5853 Y13.8969 
G01 X12.5531 Y13.8647 
G01 X12.5357 Y13.8227 
G01 X12.5357 Y13.7393 
G01 X7.2595 Y13.7393 
G01 X4.8018 Y16.1970 
G01 X4.8018 Y17.2155 
G01 X5.7470 Y18.1607 
G01 X12.5357 Y18.1607 
G01 X12.5357 Y17.9773 
G01 X12.5531 Y17.9353 
G01 X12.5853 Y17.9031 
G01 X12.6273 Y17.8857 
G00 Z2.5400 
G00 X81.0983 Y91.3763 
G01 Z-0.1778 F254.00 
G01 X79.4017 Y91.3763 F508.00 
G01 X79.2324 Y91.3426 
G01 X79.0729 Y91.2766 
G01 X78.9294 Y91.1807 
G01 X78.8073 Y91.0586 
G01 X78.7114 Y90.9151 
G01 X78.6454 Y90.7556 
G01 X78.6117 Y90.5863 
G01 X78.6117 Y90.4137 
G01 X78.6454 Y90.2444 
G01 X78.7114 Y90.0849 
G01 X78.8073 Y89.9414 
G01 X78.9294 Y89.8193 
G01 X79.0729 Y89.7234 
G01 X79.2324 Y89.6574 
G01 X79.4017 Y89.6237 
G01 X81.0983 Y89.6237 
G01 X81.2676 Y89.6574 
G01 X81.4271 Y89.7234 
G01 X81.5706 Y89.8193 
G01 X81.6927 Y89.9414 
G01 X81.7886 Y90.0849 
G01 X81.8546 Y90.2444 
G01 X81.8883 Y90.4137 
G01 X81.8883 Y90.5863 
G01 X81.8546 Y90.7556 
G01 X81.7886 Y90.9151 
G01 X81.6927 Y91.0586 
G01 X81.5706 Y91.1807 
G01 X81.4271 Y91.2766 
G01 X81.2676 Y91.3426 
G01 X81.0983 Y91.3763 
G00 Z2.5400 
G00 X72.8773 Y86.8857 
G01 Z-0.1778 F254.00 
G01 X74.1227 Y86.8857 F508.00 
G01 X74.1647 Y86.9031 
G01 X74.1969 Y86.9353 
G01 X74.2143 Y86.9773 
G01 X74.2143 Y87.1857 
G01 X79.1640 Y87.1857 
G01 X79.2324 Y87.1574 
G01 X79.4017 Y87.1237 
G01 X81.0983 Y87.1237 
G01 X81.2676 Y87.1574 
G01 X81.4271 Y87.2234 
G01 X81.5706 Y87.3193 
G01 X81.6927 Y87.4414 
G01 X81.7886 Y87.5849 
G01 X81.8546 Y87.7444 
G01 X81.8883 Y87.9137 
G01 X81.8883 Y88.0863 
G01 X81.8546 Y88.2556 
G01 X81.7886 Y88.4151 
G01 X81.6927 Y88.5586 
G01 X81.5706 Y88.6807 
G01 X81.4271 Y88.7766 
G01 X81.2676 Y88.8426 
G01 X81.0983 Y88.8763 
G01 X79.4017 Y88.8763 
G01 X79.2324 Y88.8426 
G01 X79.0729 Y88.7766 
G01 X78.9294 Y88.6807 
G01 X78.8073 Y88.5586 
G01 X78.7114 Y88.4151 
G01 X78.6454 Y88.2556 
G01 X78.6117 Y88.0863 
G01 X78.6117 Y87.9137 
G01 X78.6454 Y87.7444 
G01 X78.6578 Y87.7143 
G01 X74.2143 Y87.7143 
G01 X74.2143 Y87.8227 
G01 X74.1969 Y87.8647 
G01 X74.1647 Y87.8969 
G01 X74.1227 Y87.9143 
G01 X72.8773 Y87.9143 
G01 X72.8353 Y87.8969 
G01 X72.8031 Y87.8647 
G01 X72.7857 Y87.8227 
G01 X72.7857 Y86.9773 
G01 X72.8031 Y86.9353 
G01 X72.8353 Y86.9031 
G01 X72.8773 Y86.8857 
G00 Z2.5400 
G00 X39.5560 Y66.9573 
G01 Z-0.1778 F254.00 
G01 X39.5560 Y66.9573 F508.00 
G01 X39.6052 Y67.0065 
G01 X42.8365 Y70.2377 
G01 X42.8713 Y70.2980 
G01 X42.8893 Y70.3652 
G01 X42.8893 Y77.3098 
G01 X42.8713 Y77.3770 
G01 X42.8365 Y77.4373 
G01 X42.7873 Y77.4865 
G01 X42.2143 Y78.0595 
G01 X42.2143 Y78.8227 
G01 X42.1969 Y78.8647 
G01 X42.1647 Y78.8969 
G01 X42.1227 Y78.9143 
G01 X40.8773 Y78.9143 
G01 X40.8353 Y78.8969 
G01 X40.8031 Y78.8647 
G01 X40.7857 Y78.8227 
G01 X40.7857 Y77.9773 
G01 X40.8031 Y77.9353 
G01 X40.8353 Y77.9031 
G01 X40.8773 Y77.8857 
G01 X41.6405 Y77.8857 
G01 X42.3607 Y77.1655 
G01 X42.3607 Y70.5095 
G01 X39.3938 Y67.5425 
G01 X35.0518 Y71.8845 
G01 X35.0518 Y74.1405 
G01 X37.3365 Y76.4252 
G01 X37.3713 Y76.4855 
G01 X37.3893 Y76.5527 
G01 X37.3893 Y76.8843 
G01 X39.0677 Y76.8843 
G01 X39.1097 Y76.9017 
G01 X39.1419 Y76.9339 
G01 X39.1593 Y76.9759 
G01 X39.1593 Y79.1041 
G01 X39.1419 Y79.1461 
G01 X39.1097 Y79.1783 
G01 X39.0677 Y79.1957 
G01 X38.7320 Y79.1957 
G01 X42.5615 Y83.0252 
G01 X42.5963 Y83.0855 
G01 X42.6143 Y83.1527 
G01 X42.6143 Y89.7840 
G01 X42.7065 Y89.8087 
G01 X42.8360 Y89.8834 
G01 X42.9416 Y89.9890 
G01 X43.0163 Y90.1185 
G01 X43.0550 Y90.2628 
G01 X43.0550 Y90.4122 
G01 X43.0163 Y90.5565 
G01 X42.9416 Y90.6860 
G01 X42.8360 Y90.7916 
G01 X42.7065 Y90.8663 
G01 X42.5622 Y90.9050 
G01 X42.4128 Y90.9050 
G01 X42.2685 Y90.8663 
G01 X42.2219 Y90.8394 
G01 X41.9643 Y91.0970 
G01 X41.9643 Y91.8227 
G01 X41.9469 Y91.8647 
G01 X41.9147 Y91.8969 
G01 X41.8727 Y91.9143 
G01 X40.6273 Y91.9143 
G01 X40.5853 Y91.8969 
G01 X40.5531 Y91.8647 
G01 X40.5357 Y91.8227 
G01 X40.5357 Y91.5643 
G01 X39.1593 Y91.5643 
G01 X39.1593 Y92.1041 
G01 X39.1419 Y92.1461 
G01 X39.1097 Y92.1783 
G01 X39.0677 Y92.1957 
G01 X35.2123 Y92.1957 
G01 X35.1703 Y92.1783 
G01 X35.1381 Y92.1461 
G01 X35.1207 Y92.1041 
G01 X35.1207 Y89.9759 
G01 X35.1381 Y89.9339 
G01 X35.1703 Y89.9017 
G01 X35.2123 Y89.8843 
G01 X39.0677 Y89.8843 
G01 X39.1097 Y89.9017 
G01 X39.1419 Y89.9339 
G01 X39.1593 Y89.9759 
G01 X39.1593 Y91.0357 
G01 X40.5357 Y91.0357 
G01 X40.5357 Y90.9773 
G01 X40.5531 Y90.9353 
G01 X40.5853 Y90.9031 
G01 X40.6273 Y90.8857 
G01 X41.4280 Y90.8857 
G01 X41.9200 Y90.3937 
G01 X41.9200 Y90.2628 
G01 X41.9587 Y90.1185 
G01 X42.0334 Y89.9890 
G01 X42.0857 Y89.9367 
G01 X42.0857 Y83.2970 
G01 X37.9844 Y79.1957 
G01 X35.2123 Y79.1957 
G01 X35.1703 Y79.1783 
G01 X35.1381 Y79.1461 
G01 X35.1207 Y79.1041 
G01 X35.1207 Y76.9759 
G01 X35.1381 Y76.9339 
G01 X35.1703 Y76.9017 
G01 X35.2123 Y76.8843 
G01 X36.8607 Y76.8843 
G01 X36.8607 Y76.6970 
G01 X34.6252 Y74.4615 
G01 X34.5760 Y74.4123 
G01 X34.5412 Y74.3520 
G01 X34.5232 Y74.2848 
G01 X34.5232 Y71.7402 
G01 X34.5412 Y71.6730 
G01 X34.5760 Y71.6127 
G01 X39.0200 Y67.1687 
G01 X38.8190 Y66.9677 
G01 X38.7698 Y66.9185 
G01 X38.0469 Y66.1957 
G01 X35.4623 Y66.1957 
G01 X35.4203 Y66.1783 
G01 X35.3881 Y66.1461 
G01 X35.3707 Y66.1041 
G01 X35.3707 Y63.9759 
G01 X35.3881 Y63.9339 
G01 X35.4203 Y63.9017 
G01 X35.4623 Y63.8843 
G01 X39.3177 Y63.8843 
G01 X39.3597 Y63.9017 
G01 X39.3919 Y63.9339 
G01 X39.4093 Y63.9759 
G01 X39.4093 Y65.9544 
G01 X39.4702 Y65.8936 
G01 X39.4450 Y65.7997 
G01 X39.4450 Y65.6503 
G01 X39.4837 Y65.5059 
G01 X39.5584 Y65.3765 
G01 X39.6640 Y65.2709 
G01 X39.7934 Y65.1962 
G01 X39.9378 Y65.1575 
G01 X40.0872 Y65.1575 
G01 X40.2315 Y65.1962 
G01 X40.3610 Y65.2709 
G01 X40.4666 Y65.3765 
G01 X40.5413 Y65.5059 
G01 X40.5800 Y65.6503 
G01 X40.5800 Y65.7997 
G01 X40.5413 Y65.9440 
G01 X40.4666 Y66.0735 
G01 X40.3610 Y66.1791 
G01 X40.2315 Y66.2538 
G01 X40.0872 Y66.2925 
G01 X39.9378 Y66.2925 
G01 X39.8439 Y66.2673 
G01 X39.3550 Y66.7563 
G01 X39.5560 Y66.9573 
G00 Z2.5400 
G00 X39.3177 Y61.1157 
G01 Z-0.1778 F254.00 
G01 X39.0770 Y61.1157 F508.00 
G01 X39.2970 Y61.3357 
G01 X40.7857 Y61.3357 
G01 X40.7857 Y61.1773 
G01 X40.8031 Y61.1353 
G01 X40.8353 Y61.1031 
G01 X40.8773 Y61.0857 
G01 X42.1227 Y61.0857 
G01 X42.1647 Y61.1031 
G01 X42.1969 Y61.1353 
G01 X42.2143 Y61.1773 
G01 X42.2143 Y61.4732 
G01 X47.7473 Y61.4732 
G01 X47.8145 Y61.4912 
G01 X47.8748 Y61.5260 
G01 X47.9240 Y61.5752 
G01 X49.0240 Y62.6752 
G01 X49.0588 Y62.7355 
G01 X49.0768 Y62.8027 
G01 X49.0768 Y66.5780 
G01 X62.5264 Y80.0276 
G01 X62.5370 Y80.0259 
G01 X62.7030 Y80.0259 
G01 X62.8668 Y80.0519 
G01 X63.0246 Y80.1031 
G01 X63.1725 Y80.1785 
G01 X63.3067 Y80.2760 
G01 X63.4240 Y80.3933 
G01 X63.5215 Y80.5275 
G01 X63.5969 Y80.6754 
G01 X63.6481 Y80.8332 
G01 X63.6741 Y80.9970 
G01 X63.6741 Y81.1630 
G01 X63.6481 Y81.3268 
G01 X63.5969 Y81.4846 
G01 X63.5215 Y81.6325 
G01 X63.4240 Y81.7667 
G01 X63.3067 Y81.8840 
G01 X63.1725 Y81.9815 
G01 X63.0246 Y82.0569 
G01 X62.8668 Y82.1081 
G01 X62.7030 Y82.1341 
G01 X62.5370 Y82.1341 
G01 X62.3732 Y82.1081 
G01 X62.2154 Y82.0569 
G01 X62.0675 Y81.9815 
G01 X61.9333 Y81.8840 
G01 X61.8160 Y81.7667 
G01 X61.7185 Y81.6325 
G01 X61.6431 Y81.4846 
G01 X61.5919 Y81.3268 
G01 X61.5659 Y81.1630 
G01 X61.5659 Y80.9970 
G01 X61.5919 Y80.8332 
G01 X61.6431 Y80.6754 
G01 X61.7185 Y80.5275 
G01 X61.8160 Y80.3933 
G01 X61.9333 Y80.2760 
G01 X61.9877 Y80.2365 
G01 X48.6502 Y66.8990 
G01 X48.6010 Y66.8498 
G01 X48.5662 Y66.7895 
G01 X48.5482 Y66.7223 
G01 X48.5482 Y62.9470 
G01 X47.6030 Y62.0018 
G01 X42.2143 Y62.0018 
G01 X42.2143 Y62.0227 
G01 X42.1969 Y62.0647 
G01 X42.1647 Y62.0969 
G01 X42.1227 Y62.1143 
G01 X40.8773 Y62.1143 
G01 X40.8353 Y62.0969 
G01 X40.8031 Y62.0647 
G01 X40.7857 Y62.0227 
G01 X40.7857 Y61.8643 
G01 X39.1527 Y61.8643 
G01 X39.0855 Y61.8463 
G01 X39.0252 Y61.8115 
G01 X38.3294 Y61.1157 
G01 X35.4623 Y61.1157 
G01 X35.4203 Y61.0983 
G01 X35.3881 Y61.0661 
G01 X35.3707 Y61.0241 
G01 X35.3707 Y58.8959 
G01 X35.3881 Y58.8539 
G01 X35.4203 Y58.8217 
G01 X35.4623 Y58.8043 
G01 X39.3177 Y58.8043 
G01 X39.3597 Y58.8217 
G01 X39.3919 Y58.8539 
G01 X39.4093 Y58.8959 
G01 X39.4093 Y61.0241 
G01 X39.3919 Y61.0661 
G01 X39.3597 Y61.0983 
G01 X39.3177 Y61.1157 
G00 Z2.5400 
G00 X16.4923 Y60.3507 
G01 Z-0.1778 F254.00 
G01 X18.0077 Y60.3507 F508.00 
G01 X18.0497 Y60.3681 
G01 X18.0819 Y60.4003 
G01 X18.0993 Y60.4423 
G01 X18.0993 Y60.9232 
G01 X21.4007 Y60.9232 
G01 X21.4007 Y56.7623 
G01 X21.4181 Y56.7203 
G01 X21.4503 Y56.6881 
G01 X21.4923 Y56.6707 
G01 X30.4277 Y56.6707 
G01 X30.4697 Y56.6881 
G01 X30.5019 Y56.7203 
G01 X30.5193 Y56.7623 
G01 X30.5193 Y68.2377 
G01 X30.5019 Y68.2797 
G01 X30.4697 Y68.3119 
G01 X30.4277 Y68.3293 
G01 X21.4923 Y68.3293 
G01 X21.4503 Y68.3119 
G01 X21.4181 Y68.2797 
G01 X21.4007 Y68.2377 
G01 X21.4007 Y61.4518 
G01 X18.0993 Y61.4518 
G01 X18.0993 Y61.7577 
G01 X18.0819 Y61.7997 
G01 X18.0497 Y61.8319 
G01 X18.0077 Y61.8493 
G01 X16.4923 Y61.8493 
G01 X16.4503 Y61.8319 
G01 X16.4181 Y61.7997 
G01 X16.4007 Y61.7577 
G01 X16.4007 Y61.4518 
G01 X15.6470 Y61.4518 
G01 X11.8498 Y65.2490 
G01 X11.7895 Y65.2838 
G01 X11.7223 Y65.3018 
G01 X9.0144 Y65.3018 
G01 X9.0112 Y65.3221 
G01 X8.9547 Y65.4961 
G01 X8.8716 Y65.6590 
G01 X8.7641 Y65.8070 
G01 X8.6348 Y65.9364 
G01 X8.4868 Y66.0439 
G01 X8.3238 Y66.1269 
G01 X8.1499 Y66.1834 
G01 X7.9692 Y66.2120 
G01 X5.6908 Y66.2120 
G01 X5.5101 Y66.1834 
G01 X5.3362 Y66.1269 
G01 X5.1732 Y66.0439 
G01 X5.0252 Y65.9364 
G01 X4.8959 Y65.8070 
G01 X4.7884 Y65.6590 
G01 X4.7053 Y65.4961 
G01 X4.6488 Y65.3221 
G01 X4.6202 Y65.1415 
G01 X4.6202 Y64.9585 
G01 X4.6488 Y64.7779 
G01 X4.7053 Y64.6039 
G01 X4.7884 Y64.4410 
G01 X4.8959 Y64.2930 
G01 X5.0252 Y64.1636 
G01 X5.1732 Y64.0561 
G01 X5.3362 Y63.9731 
G01 X5.5101 Y63.9166 
G01 X5.6908 Y63.8880 
G01 X7.9692 Y63.8880 
G01 X8.1499 Y63.9166 
G01 X8.3238 Y63.9731 
G01 X8.4868 Y64.0561 
G01 X8.6348 Y64.1636 
G01 X8.7641 Y64.2930 
G01 X8.8716 Y64.4410 
G01 X8.9547 Y64.6039 
G01 X9.0097 Y64.7732 
G01 X11.5780 Y64.7732 
G01 X15.3260 Y61.0252 
G01 X15.3752 Y60.9760 
G01 X15.4355 Y60.9412 
G01 X15.5027 Y60.9232 
G01 X16.4007 Y60.9232 
G01 X16.4007 Y60.4423 
G01 X16.4181 Y60.4003 
G01 X16.4503 Y60.3681 
G01 X16.4923 Y60.3507 
G00 Z2.5400 
G00 X40.8773 Y62.8857 
G01 Z-0.1778 F254.00 
G01 X42.1227 Y62.8857 F508.00 
G01 X42.1647 Y62.9031 
G01 X42.1752 Y62.9135 
G01 X42.2202 Y62.8686 
G01 X42.1950 Y62.7747 
G01 X42.1950 Y62.6253 
G01 X42.2337 Y62.4809 
G01 X42.3084 Y62.3515 
G01 X42.4140 Y62.2459 
G01 X42.5434 Y62.1712 
G01 X42.6878 Y62.1325 
G01 X42.8372 Y62.1325 
G01 X42.9815 Y62.1712 
G01 X43.1110 Y62.2459 
G01 X43.2166 Y62.3515 
G01 X43.2913 Y62.4809 
G01 X43.3300 Y62.6253 
G01 X43.3300 Y62.7747 
G01 X43.2913 Y62.9190 
G01 X43.2166 Y63.0485 
G01 X43.1110 Y63.1541 
G01 X42.9815 Y63.2288 
G01 X42.8372 Y63.2675 
G01 X42.6878 Y63.2675 
G01 X42.5939 Y63.2423 
G01 X42.2373 Y63.5990 
G01 X42.2143 Y63.6123 
G01 X42.2143 Y63.8227 
G01 X42.1969 Y63.8647 
G01 X42.1647 Y63.8969 
G01 X42.1227 Y63.9143 
G01 X40.8773 Y63.9143 
G01 X40.8353 Y63.8969 
G01 X40.8031 Y63.8647 
G01 X40.7857 Y63.8227 
G01 X40.7857 Y62.9773 
G01 X40.8031 Y62.9353 
G01 X40.8353 Y62.9031 
G01 X40.8773 Y62.8857 
G00 Z2.5400 
G00 X8.2192 Y22.9520 
G01 Z-0.1778 F254.00 
G01 X5.9408 Y22.9520 F508.00 
G01 X5.7601 Y22.9234 
G01 X5.5862 Y22.8669 
G01 X5.4232 Y22.7839 
G01 X5.2752 Y22.6764 
G01 X5.1459 Y22.5470 
G01 X5.0384 Y22.3990 
G01 X4.9553 Y22.2361 
G01 X4.8988 Y22.0621 
G01 X4.8702 Y21.8815 
G01 X4.8702 Y21.6985 
G01 X4.8988 Y21.5179 
G01 X4.9553 Y21.3439 
G01 X5.0384 Y21.1810 
G01 X5.1459 Y21.0330 
G01 X5.2752 Y20.9036 
G01 X5.4232 Y20.7961 
G01 X5.5862 Y20.7131 
G01 X5.7601 Y20.6566 
G01 X5.9408 Y20.6280 
G01 X8.2192 Y20.6280 
G01 X8.3999 Y20.6566 
G01 X8.5738 Y20.7131 
G01 X8.7368 Y20.7961 
G01 X8.8848 Y20.9036 
G01 X9.0141 Y21.0330 
G01 X9.1216 Y21.1810 
G01 X9.2047 Y21.3439 
G01 X9.2612 Y21.5179 
G01 X9.2898 Y21.6985 
G01 X9.2898 Y21.8815 
G01 X9.2612 Y22.0621 
G01 X9.2047 Y22.2361 
G01 X9.1216 Y22.3990 
G01 X9.0141 Y22.5470 
G01 X8.8848 Y22.6764 
G01 X8.7368 Y22.7839 
G01 X8.5738 Y22.8669 
G01 X8.3999 Y22.9234 
G01 X8.2192 Y22.9520 
G00 Z2.5400 
G00 X8.2192 Y33.1120 
G01 Z-0.1778 F254.00 
G01 X5.9408 Y33.1120 F508.00 
G01 X5.7601 Y33.0834 
G01 X5.5862 Y33.0269 
G01 X5.4232 Y32.9439 
G01 X5.2752 Y32.8364 
G01 X5.1459 Y32.7070 
G01 X5.0384 Y32.5590 
G01 X4.9553 Y32.3961 
G01 X4.8988 Y32.2221 
G01 X4.8702 Y32.0415 
G01 X4.8702 Y31.8585 
G01 X4.8988 Y31.6779 
G01 X4.9553 Y31.5039 
G01 X5.0384 Y31.3410 
G01 X5.1459 Y31.1930 
G01 X5.2752 Y31.0636 
G01 X5.4232 Y30.9561 
G01 X5.5862 Y30.8731 
G01 X5.7601 Y30.8166 
G01 X5.9408 Y30.7880 
G01 X8.2192 Y30.7880 
G01 X8.3999 Y30.8166 
G01 X8.5738 Y30.8731 
G01 X8.7368 Y30.9561 
G01 X8.8848 Y31.0636 
G01 X9.0141 Y31.1930 
G01 X9.1216 Y31.3410 
G01 X9.2047 Y31.5039 
G01 X9.2612 Y31.6779 
G01 X9.2898 Y31.8585 
G01 X9.2898 Y32.0415 
G01 X9.2612 Y32.2221 
G01 X9.2047 Y32.3961 
G01 X9.1216 Y32.5590 
G01 X9.0141 Y32.7070 
G01 X8.8848 Y32.8364 
G01 X8.7368 Y32.9439 
G01 X8.5738 Y33.0269 
G01 X8.3999 Y33.0834 
G01 X8.2192 Y33.1120 
G00 Z2.5400 
G00 X7.9692 Y86.5320 
G01 Z-0.1778 F254.00 
G01 X5.6908 Y86.5320 F508.00 
G01 X5.5101 Y86.5034 
G01 X5.3362 Y86.4469 
G01 X5.1732 Y86.3639 
G01 X5.0252 Y86.2564 
G01 X4.8959 Y86.1270 
G01 X4.7884 Y85.9790 
G01 X4.7053 Y85.8161 
G01 X4.6488 Y85.6421 
G01 X4.6202 Y85.4615 
G01 X4.6202 Y85.2785 
G01 X4.6488 Y85.0979 
G01 X4.7053 Y84.9239 
G01 X4.7884 Y84.7610 
G01 X4.8959 Y84.6130 
G01 X5.0252 Y84.4836 
G01 X5.1732 Y84.3761 
G01 X5.3362 Y84.2931 
G01 X5.5101 Y84.2366 
G01 X5.6908 Y84.2080 
G01 X7.9692 Y84.2080 
G01 X8.1499 Y84.2366 
G01 X8.3238 Y84.2931 
G01 X8.4868 Y84.3761 
G01 X8.6348 Y84.4836 
G01 X8.7641 Y84.6130 
G01 X8.8716 Y84.7610 
G01 X8.9547 Y84.9239 
G01 X9.0112 Y85.0979 
G01 X9.0152 Y85.1232 
G01 X14.0598 Y85.1232 
G01 X14.1270 Y85.1412 
G01 X14.1873 Y85.1760 
G01 X16.6120 Y87.6007 
G01 X17.7577 Y87.6007 
G01 X17.7997 Y87.6181 
G01 X17.8319 Y87.6503 
G01 X17.8493 Y87.6923 
G01 X17.8493 Y88.1482 
G01 X21.1507 Y88.1482 
G01 X21.1507 Y82.7623 
G01 X21.1681 Y82.7203 
G01 X21.2003 Y82.6881 
G01 X21.2423 Y82.6707 
G01 X30.1777 Y82.6707 
G01 X30.2197 Y82.6881 
G01 X30.2519 Y82.7203 
G01 X30.2693 Y82.7623 
G01 X30.2693 Y94.2377 
G01 X30.2519 Y94.2797 
G01 X30.2197 Y94.3119 
G01 X30.1777 Y94.3293 
G01 X21.2423 Y94.3293 
G01 X21.2003 Y94.3119 
G01 X21.1681 Y94.2797 
G01 X21.1507 Y94.2377 
G01 X21.1507 Y88.6768 
G01 X17.8493 Y88.6768 
G01 X17.8493 Y89.0077 
G01 X17.8319 Y89.0497 
G01 X17.7997 Y89.0819 
G01 X17.7577 Y89.0993 
G01 X16.2423 Y89.0993 
G01 X16.2003 Y89.0819 
G01 X16.1681 Y89.0497 
G01 X16.1507 Y89.0077 
G01 X16.1507 Y87.8870 
G01 X13.9155 Y85.6518 
G01 X9.0080 Y85.6518 
G01 X8.9547 Y85.8161 
G01 X8.8716 Y85.9790 
G01 X8.7641 Y86.1270 
G01 X8.6348 Y86.2564 
G01 X8.4868 Y86.3639 
G01 X8.3238 Y86.4469 
G01 X8.1499 Y86.5034 
G01 X7.9692 Y86.5320 
G00 Z2.5400 
G00 X34.4733 Y40.7519 
G01 Z-0.1778 F254.00 
G01 X34.4733 Y40.9081 F508.00 
G01 X34.4428 Y41.0614 
G01 X34.3830 Y41.2058 
G01 X34.2962 Y41.3357 
G01 X34.1857 Y41.4462 
G01 X34.0558 Y41.5330 
G01 X33.9114 Y41.5928 
G01 X33.7581 Y41.6233 
G01 X33.6019 Y41.6233 
G01 X33.4486 Y41.5928 
G01 X33.3042 Y41.5330 
G01 X33.1743 Y41.4462 
G01 X33.0638 Y41.3357 
G01 X32.9770 Y41.2058 
G01 X32.9172 Y41.0614 
G01 X32.8867 Y40.9081 
G01 X32.8867 Y40.7519 
G01 X32.9172 Y40.5986 
G01 X32.9634 Y40.4871 
G01 X32.3760 Y39.8998 
G01 X32.3412 Y39.8395 
G01 X32.3232 Y39.7723 
G01 X32.3232 Y38.1970 
G01 X31.5155 Y37.3893 
G01 X30.9027 Y37.3893 
G01 X30.8355 Y37.3713 
G01 X30.7752 Y37.3365 
G01 X30.7260 Y37.2873 
G01 X29.7635 Y36.3248 
G01 X29.7287 Y36.2645 
G01 X29.7107 Y36.1973 
G01 X29.7107 Y20.7277 
G01 X29.7287 Y20.6605 
G01 X29.7635 Y20.6002 
G01 X29.8127 Y20.5510 
G01 X32.7357 Y17.6280 
G01 X32.7357 Y15.5933 
G01 X32.4358 Y15.5933 
G01 X32.3938 Y15.5759 
G01 X32.3616 Y15.5437 
G01 X32.3442 Y15.5017 
G01 X32.3442 Y14.1483 
G01 X32.3616 Y14.1063 
G01 X32.3938 Y14.0741 
G01 X32.4358 Y14.0567 
G01 X33.7892 Y14.0567 
G01 X33.8312 Y14.0741 
G01 X33.8634 Y14.1063 
G01 X33.8808 Y14.1483 
G01 X33.8808 Y15.5017 
G01 X33.8634 Y15.5437 
G01 X33.8312 Y15.5759 
G01 X33.7892 Y15.5933 
G01 X33.2643 Y15.5933 
G01 X33.2643 Y17.7723 
G01 X33.2463 Y17.8395 
G01 X33.2115 Y17.8998 
G01 X30.2393 Y20.8720 
G01 X30.2393 Y36.0530 
G01 X31.0470 Y36.8607 
G01 X31.6598 Y36.8607 
G01 X31.7270 Y36.8787 
G01 X31.7873 Y36.9135 
G01 X32.7498 Y37.8760 
G01 X32.7990 Y37.9252 
G01 X32.8338 Y37.9855 
G01 X32.8518 Y38.0527 
G01 X32.8518 Y39.6280 
G01 X33.3371 Y40.1134 
G01 X33.4486 Y40.0672 
G01 X33.6019 Y40.0367 
G01 X33.7581 Y40.0367 
G01 X33.9114 Y40.0672 
G01 X34.0558 Y40.1270 
G01 X34.1857 Y40.2138 
G01 X34.2962 Y40.3243 
G01 X34.3830 Y40.4542 
G01 X34.4428 Y40.5986 
G01 X34.4733 Y40.7519 
G00 Z2.5400 
G00 X34.4733 Y38.2119 
G01 Z-0.1778 F254.00 
G01 X34.4733 Y38.3681 F508.00 
G01 X34.4428 Y38.5214 
G01 X34.3830 Y38.6658 
G01 X34.2962 Y38.7957 
G01 X34.1857 Y38.9062 
G01 X34.0558 Y38.9930 
G01 X33.9114 Y39.0528 
G01 X33.7581 Y39.0833 
G01 X33.6019 Y39.0833 
G01 X33.4486 Y39.0528 
G01 X33.3042 Y38.9930 
G01 X33.1743 Y38.9062 
G01 X33.0638 Y38.7957 
G01 X32.9770 Y38.6658 
G01 X32.9172 Y38.5214 
G01 X32.8867 Y38.3681 
G01 X32.8867 Y38.2119 
G01 X32.9172 Y38.0586 
G01 X32.9770 Y37.9142 
G01 X33.0638 Y37.7843 
G01 X33.1743 Y37.6738 
G01 X33.3042 Y37.5870 
G01 X33.4486 Y37.5272 
G01 X33.6019 Y37.4967 
G01 X33.7581 Y37.4967 
G01 X33.9114 Y37.5272 
G01 X34.0558 Y37.5870 
G01 X34.1857 Y37.6738 
G01 X34.2962 Y37.7843 
G01 X34.3830 Y37.9142 
G01 X34.4428 Y38.0586 
G01 X34.4733 Y38.2119 
G00 Z2.5400 
G00 X34.4733 Y35.6719 
G01 Z-0.1778 F254.00 
G01 X34.4733 Y35.8281 F508.00 
G01 X34.4428 Y35.9814 
G01 X34.3830 Y36.1258 
G01 X34.2962 Y36.2557 
G01 X34.1857 Y36.3662 
G01 X34.0558 Y36.4530 
G01 X33.9114 Y36.5128 
G01 X33.7581 Y36.5433 
G01 X33.6019 Y36.5433 
G01 X33.4486 Y36.5128 
G01 X33.3042 Y36.4530 
G01 X33.1743 Y36.3662 
G01 X33.0638 Y36.2557 
G01 X32.9770 Y36.1258 
G01 X32.9172 Y35.9814 
G01 X32.8867 Y35.8281 
G01 X32.8867 Y35.6719 
G01 X32.9172 Y35.5186 
G01 X32.9770 Y35.3742 
G01 X33.0638 Y35.2443 
G01 X33.1743 Y35.1338 
G01 X33.3042 Y35.0470 
G01 X33.4486 Y34.9872 
G01 X33.6019 Y34.9567 
G01 X33.7581 Y34.9567 
G01 X33.9114 Y34.9872 
G01 X34.0558 Y35.0470 
G01 X34.1857 Y35.1338 
G01 X34.2962 Y35.2443 
G01 X34.3830 Y35.3742 
G01 X34.4428 Y35.5186 
G01 X34.4733 Y35.6719 
G00 Z2.5400 
G00 X34.4733 Y33.1319 
G01 Z-0.1778 F254.00 
G01 X34.4733 Y33.2881 F508.00 
G01 X34.4428 Y33.4414 
G01 X34.3830 Y33.5858 
G01 X34.2962 Y33.7157 
G01 X34.1857 Y33.8262 
G01 X34.0558 Y33.9130 
G01 X33.9518 Y33.9561 
G01 X33.9518 Y33.9905 
G01 X34.9498 Y34.9885 
G01 X34.9990 Y35.0377 
G01 X35.0338 Y35.0980 
G01 X35.0518 Y35.1652 
G01 X35.0518 Y44.5973 
G01 X35.1360 Y44.6459 
G01 X35.2416 Y44.7515 
G01 X35.3163 Y44.8810 
G01 X35.3550 Y45.0253 
G01 X35.3550 Y45.1747 
G01 X35.3163 Y45.3190 
G01 X35.2416 Y45.4485 
G01 X35.1360 Y45.5541 
G01 X35.0065 Y45.6288 
G01 X34.8622 Y45.6675 
G01 X34.7128 Y45.6675 
G01 X34.5684 Y45.6288 
G01 X34.4390 Y45.5541 
G01 X34.3334 Y45.4485 
G01 X34.2587 Y45.3190 
G01 X34.2200 Y45.1747 
G01 X34.2200 Y45.0253 
G01 X34.2587 Y44.8810 
G01 X34.3334 Y44.7515 
G01 X34.4390 Y44.6459 
G01 X34.5232 Y44.5973 
G01 X34.5232 Y35.3095 
G01 X33.4760 Y34.2623 
G01 X33.4412 Y34.2020 
G01 X33.4232 Y34.1348 
G01 X33.4232 Y33.9623 
G01 X33.3042 Y33.9130 
G01 X33.1743 Y33.8262 
G01 X33.0638 Y33.7157 
G01 X32.9770 Y33.5858 
G01 X32.9172 Y33.4414 
G01 X32.8867 Y33.2881 
G01 X32.8867 Y33.1319 
G01 X32.9172 Y32.9786 
G01 X32.9770 Y32.8342 
G01 X33.0638 Y32.7043 
G01 X33.1743 Y32.5938 
G01 X33.3042 Y32.5070 
G01 X33.4486 Y32.4472 
G01 X33.6019 Y32.4167 
G01 X33.7581 Y32.4167 
G01 X33.9114 Y32.4472 
G01 X34.0558 Y32.5070 
G01 X34.1857 Y32.5938 
G01 X34.2962 Y32.7043 
G01 X34.3830 Y32.8342 
G01 X34.4428 Y32.9786 
G01 X34.4733 Y33.1319 
G00 Z2.5400 
G00 X34.4733 Y30.5919 
G01 Z-0.1778 F254.00 
G01 X34.4733 Y30.7481 F508.00 
G01 X34.4428 Y30.9014 
G01 X34.3830 Y31.0458 
G01 X34.3526 Y31.0913 
G01 X64.2373 Y60.9760 
G01 X64.2865 Y61.0252 
G01 X64.3213 Y61.0855 
G01 X64.3393 Y61.1527 
G01 X64.3393 Y72.0848 
G01 X64.3213 Y72.1520 
G01 X64.2865 Y72.2123 
G01 X63.5451 Y72.9537 
G01 X63.5969 Y73.0554 
G01 X63.6481 Y73.2132 
G01 X63.6741 Y73.3770 
G01 X63.6741 Y73.5430 
G01 X63.6481 Y73.7068 
G01 X63.5969 Y73.8646 
G01 X63.5215 Y74.0125 
G01 X63.4240 Y74.1467 
G01 X63.3067 Y74.2640 
G01 X63.1725 Y74.3615 
G01 X63.0246 Y74.4369 
G01 X62.8668 Y74.4881 
G01 X62.7030 Y74.5141 
G01 X62.5370 Y74.5141 
G01 X62.3732 Y74.4881 
G01 X62.2154 Y74.4369 
G01 X62.0675 Y74.3615 
G01 X61.9333 Y74.2640 
G01 X61.8160 Y74.1467 
G01 X61.7185 Y74.0125 
G01 X61.6431 Y73.8646 
G01 X61.5919 Y73.7068 
G01 X61.5659 Y73.5430 
G01 X61.5659 Y73.3770 
G01 X61.5919 Y73.2132 
G01 X61.6431 Y73.0554 
G01 X61.7185 Y72.9075 
G01 X61.8160 Y72.7733 
G01 X61.9333 Y72.6560 
G01 X62.0675 Y72.5585 
G01 X62.2154 Y72.4831 
G01 X62.3732 Y72.4319 
G01 X62.5370 Y72.4059 
G01 X62.7030 Y72.4059 
G01 X62.8668 Y72.4319 
G01 X63.0246 Y72.4831 
G01 X63.1725 Y72.5585 
G01 X63.1842 Y72.5670 
G01 X63.8107 Y71.9405 
G01 X63.8107 Y61.2970 
G01 X33.9362 Y31.4225 
G01 X33.9114 Y31.4328 
G01 X33.7581 Y31.4633 
G01 X33.6019 Y31.4633 
G01 X33.4486 Y31.4328 
G01 X33.3042 Y31.3730 
G01 X33.1743 Y31.2862 
G01 X33.0638 Y31.1757 
G01 X32.9770 Y31.0458 
G01 X32.9172 Y30.9014 
G01 X32.8867 Y30.7481 
G01 X32.8867 Y30.5919 
G01 X32.9172 Y30.4386 
G01 X32.9770 Y30.2942 
G01 X33.0638 Y30.1643 
G01 X33.1743 Y30.0538 
G01 X33.3042 Y29.9670 
G01 X33.4486 Y29.9072 
G01 X33.6019 Y29.8767 
G01 X33.7581 Y29.8767 
G01 X33.9114 Y29.9072 
G01 X34.0558 Y29.9670 
G01 X34.1857 Y30.0538 
G01 X34.2962 Y30.1643 
G01 X34.3830 Y30.2942 
G01 X34.4428 Y30.4386 
G01 X34.4733 Y30.5919 
G00 Z2.5400 
G00 X31.9333 Y30.5919 
G01 Z-0.1778 F254.00 
G01 X31.9333 Y30.7481 F508.00 
G01 X31.9028 Y30.9014 
G01 X31.8430 Y31.0458 
G01 X31.7562 Y31.1757 
G01 X31.6457 Y31.2862 
G01 X31.5158 Y31.3730 
G01 X31.3714 Y31.4328 
G01 X31.2181 Y31.4633 
G01 X31.0619 Y31.4633 
G01 X30.9086 Y31.4328 
G01 X30.7642 Y31.3730 
G01 X30.6343 Y31.2862 
G01 X30.5238 Y31.1757 
G01 X30.4370 Y31.0458 
G01 X30.3772 Y30.9014 
G01 X30.3467 Y30.7481 
G01 X30.3467 Y30.5919 
G01 X30.3772 Y30.4386 
G01 X30.4370 Y30.2942 
G01 X30.5238 Y30.1643 
G01 X30.6343 Y30.0538 
G01 X30.7642 Y29.9670 
G01 X30.9086 Y29.9072 
G01 X31.0619 Y29.8767 
G01 X31.2181 Y29.8767 
G01 X31.3714 Y29.9072 
G01 X31.5158 Y29.9670 
G01 X31.6457 Y30.0538 
G01 X31.7562 Y30.1643 
G01 X31.8430 Y30.2942 
G01 X31.9028 Y30.4386 
G01 X31.9333 Y30.5919 
G00 Z2.5400 
G00 X31.9333 Y33.1319 
G01 Z-0.1778 F254.00 
G01 X31.9333 Y33.2881 F508.00 
G01 X31.9028 Y33.4414 
G01 X31.8430 Y33.5858 
G01 X31.7562 Y33.7157 
G01 X31.6457 Y33.8262 
G01 X31.5158 Y33.9130 
G01 X31.3714 Y33.9728 
G01 X31.2181 Y34.0033 
G01 X31.0619 Y34.0033 
G01 X30.9086 Y33.9728 
G01 X30.7642 Y33.9130 
G01 X30.6343 Y33.8262 
G01 X30.5238 Y33.7157 
G01 X30.4370 Y33.5858 
G01 X30.3772 Y33.4414 
G01 X30.3467 Y33.2881 
G01 X30.3467 Y33.1319 
G01 X30.3772 Y32.9786 
G01 X30.4370 Y32.8342 
G01 X30.5238 Y32.7043 
G01 X30.6343 Y32.5938 
G01 X30.7642 Y32.5070 
G01 X30.9086 Y32.4472 
G01 X31.0619 Y32.4167 
G01 X31.2181 Y32.4167 
G01 X31.3714 Y32.4472 
G01 X31.5158 Y32.5070 
G01 X31.6457 Y32.5938 
G01 X31.7562 Y32.7043 
G01 X31.8430 Y32.8342 
G01 X31.9028 Y32.9786 
G01 X31.9333 Y33.1319 
G00 Z2.5400 
G00 X31.9333 Y35.6719 
G01 Z-0.1778 F254.00 
G01 X31.9333 Y35.8281 F508.00 
G01 X31.9028 Y35.9814 
G01 X31.8430 Y36.1258 
G01 X31.7562 Y36.2557 
G01 X31.6457 Y36.3662 
G01 X31.5158 Y36.4530 
G01 X31.3714 Y36.5128 
G01 X31.2181 Y36.5433 
G01 X31.0619 Y36.5433 
G01 X30.9086 Y36.5128 
G01 X30.7642 Y36.4530 
G01 X30.6343 Y36.3662 
G01 X30.5238 Y36.2557 
G01 X30.4370 Y36.1258 
G01 X30.3772 Y35.9814 
G01 X30.3467 Y35.8281 
G01 X30.3467 Y35.6719 
G01 X30.3772 Y35.5186 
G01 X30.4370 Y35.3742 
G01 X30.5238 Y35.2443 
G01 X30.6343 Y35.1338 
G01 X30.7642 Y35.0470 
G01 X30.9086 Y34.9872 
G01 X31.0619 Y34.9567 
G01 X31.2181 Y34.9567 
G01 X31.3714 Y34.9872 
G01 X31.5158 Y35.0470 
G01 X31.6457 Y35.1338 
G01 X31.7562 Y35.2443 
G01 X31.8430 Y35.3742 
G01 X31.9028 Y35.5186 
G01 X31.9333 Y35.6719 
G00 Z2.5400 
G00 X31.9333 Y38.2119 
G01 Z-0.1778 F254.00 
G01 X31.9333 Y38.3681 F508.00 
G01 X31.9028 Y38.5214 
G01 X31.8430 Y38.6658 
G01 X31.7562 Y38.7957 
G01 X31.6457 Y38.9062 
G01 X31.5158 Y38.9930 
G01 X31.3714 Y39.0528 
G01 X31.2181 Y39.0833 
G01 X31.0619 Y39.0833 
G01 X30.9086 Y39.0528 
G01 X30.7642 Y38.9930 
G01 X30.6343 Y38.9062 
G01 X30.5238 Y38.7957 
G01 X30.4370 Y38.6658 
G01 X30.3772 Y38.5214 
G01 X30.3467 Y38.3681 
G01 X30.3467 Y38.2119 
G01 X30.3772 Y38.0586 
G01 X30.4370 Y37.9142 
G01 X30.5238 Y37.7843 
G01 X30.6343 Y37.6738 
G01 X30.7642 Y37.5870 
G01 X30.9086 Y37.5272 
G01 X31.0619 Y37.4967 
G01 X31.2181 Y37.4967 
G01 X31.3714 Y37.5272 
G01 X31.5158 Y37.5870 
G01 X31.6457 Y37.6738 
G01 X31.7562 Y37.7843 
G01 X31.8430 Y37.9142 
G01 X31.9028 Y38.0586 
G01 X31.9333 Y38.2119 
G00 Z2.5400 
G00 X48.4341 Y63.2170 
G01 Z-0.1778 F254.00 
G01 X48.4341 Y63.3830 F508.00 
G01 X48.4081 Y63.5468 
G01 X48.3569 Y63.7046 
G01 X48.2815 Y63.8525 
G01 X48.1840 Y63.9867 
G01 X48.0667 Y64.1040 
G01 X47.9325 Y64.2015 
G01 X47.7846 Y64.2769 
G01 X47.6268 Y64.3281 
G01 X47.4630 Y64.3541 
G01 X47.2970 Y64.3541 
G01 X47.1332 Y64.3281 
G01 X46.9754 Y64.2769 
G01 X46.8275 Y64.2015 
G01 X46.6933 Y64.1040 
G01 X46.5760 Y63.9867 
G01 X46.4785 Y63.8525 
G01 X46.4031 Y63.7046 
G01 X46.3519 Y63.5468 
G01 X46.3259 Y63.3830 
G01 X46.3259 Y63.2170 
G01 X46.3519 Y63.0532 
G01 X46.4031 Y62.8954 
G01 X46.4785 Y62.7475 
G01 X46.5760 Y62.6133 
G01 X46.6933 Y62.4960 
G01 X46.8275 Y62.3985 
G01 X46.9754 Y62.3231 
G01 X47.1332 Y62.2719 
G01 X47.2970 Y62.2459 
G01 X47.4630 Y62.2459 
G01 X47.6268 Y62.2719 
G01 X47.7846 Y62.3231 
G01 X47.9325 Y62.3985 
G01 X48.0667 Y62.4960 
G01 X48.1840 Y62.6133 
G01 X48.2815 Y62.7475 
G01 X48.3569 Y62.8954 
G01 X48.4081 Y63.0532 
G01 X48.4341 Y63.2170 
G00 Z2.5400 
G00 X48.4341 Y65.7570 
G01 Z-0.1778 F254.00 
G01 X48.4341 Y65.9230 F508.00 
G01 X48.4081 Y66.0868 
G01 X48.3569 Y66.2446 
G01 X48.2815 Y66.3925 
G01 X48.1840 Y66.5267 
G01 X48.0667 Y66.6440 
G01 X47.9325 Y66.7415 
G01 X47.7846 Y66.8169 
G01 X47.6268 Y66.8681 
G01 X47.4630 Y66.8941 
G01 X47.2970 Y66.8941 
G01 X47.1332 Y66.8681 
G01 X46.9754 Y66.8169 
G01 X46.8275 Y66.7415 
G01 X46.6933 Y66.6440 
G01 X46.5760 Y66.5267 
G01 X46.4785 Y66.3925 
G01 X46.4031 Y66.2446 
G01 X46.3519 Y66.0868 
G01 X46.3259 Y65.9230 
G01 X46.3259 Y65.7570 
G01 X46.3519 Y65.5932 
G01 X46.4031 Y65.4354 
G01 X46.4785 Y65.2875 
G01 X46.5760 Y65.1533 
G01 X46.6933 Y65.0360 
G01 X46.8275 Y64.9385 
G01 X46.9754 Y64.8631 
G01 X47.1332 Y64.8119 
G01 X47.2970 Y64.7859 
G01 X47.4630 Y64.7859 
G01 X47.6268 Y64.8119 
G01 X47.7846 Y64.8631 
G01 X47.9325 Y64.9385 
G01 X48.0667 Y65.0360 
G01 X48.1840 Y65.1533 
G01 X48.2815 Y65.2875 
G01 X48.3569 Y65.4354 
G01 X48.4081 Y65.5932 
G01 X48.4341 Y65.7570 
G00 Z2.5400 
G00 X48.4341 Y68.2970 
G01 Z-0.1778 F254.00 
G01 X48.4341 Y68.4630 F508.00 
G01 X48.4081 Y68.6268 
G01 X48.3569 Y68.7846 
G01 X48.2815 Y68.9325 
G01 X48.1840 Y69.0667 
G01 X48.0667 Y69.1840 
G01 X47.9325 Y69.2815 
G01 X47.7846 Y69.3569 
G01 X47.6268 Y69.4081 
G01 X47.4630 Y69.4341 
G01 X47.2970 Y69.4341 
G01 X47.1332 Y69.4081 
G01 X46.9754 Y69.3569 
G01 X46.8275 Y69.2815 
G01 X46.6933 Y69.1840 
G01 X46.5760 Y69.0667 
G01 X46.4785 Y68.9325 
G01 X46.4031 Y68.7846 
G01 X46.3519 Y68.6268 
G01 X46.3259 Y68.4630 
G01 X46.3259 Y68.2970 
G01 X46.3519 Y68.1332 
G01 X46.4031 Y67.9754 
G01 X46.4785 Y67.8275 
G01 X46.5760 Y67.6933 
G01 X46.6933 Y67.5760 
G01 X46.8275 Y67.4785 
G01 X46.9754 Y67.4031 
G01 X47.1332 Y67.3519 
G01 X47.2970 Y67.3259 
G01 X47.4630 Y67.3259 
G01 X47.6268 Y67.3519 
G01 X47.7846 Y67.4031 
G01 X47.9325 Y67.4785 
G01 X48.0667 Y67.5760 
G01 X48.1840 Y67.6933 
G01 X48.2815 Y67.8275 
G01 X48.3569 Y67.9754 
G01 X48.4081 Y68.1332 
G01 X48.4341 Y68.2970 
G00 Z2.5400 
G00 X48.4341 Y70.8370 
G01 Z-0.1778 F254.00 
G01 X48.4341 Y71.0030 F508.00 
G01 X48.4081 Y71.1668 
G01 X48.3569 Y71.3246 
G01 X48.2815 Y71.4725 
G01 X48.1840 Y71.6067 
G01 X48.0667 Y71.7240 
G01 X47.9325 Y71.8215 
G01 X47.7846 Y71.8969 
G01 X47.6268 Y71.9481 
G01 X47.4630 Y71.9741 
G01 X47.2970 Y71.9741 
G01 X47.1332 Y71.9481 
G01 X46.9754 Y71.8969 
G01 X46.8275 Y71.8215 
G01 X46.6933 Y71.7240 
G01 X46.5760 Y71.6067 
G01 X46.4785 Y71.4725 
G01 X46.4031 Y71.3246 
G01 X46.3519 Y71.1668 
G01 X46.3259 Y71.0030 
G01 X46.3259 Y70.8370 
G01 X46.3519 Y70.6732 
G01 X46.4031 Y70.5154 
G01 X46.4785 Y70.3675 
G01 X46.5760 Y70.2333 
G01 X46.6933 Y70.1160 
G01 X46.8275 Y70.0185 
G01 X46.9754 Y69.9431 
G01 X47.1332 Y69.8919 
G01 X47.2970 Y69.8659 
G01 X47.4630 Y69.8659 
G01 X47.6268 Y69.8919 
G01 X47.7846 Y69.9431 
G01 X47.9325 Y70.0185 
G01 X48.0667 Y70.1160 
G01 X48.1840 Y70.2333 
G01 X48.2815 Y70.3675 
G01 X48.3569 Y70.5154 
G01 X48.4081 Y70.6732 
G01 X48.4341 Y70.8370 
G00 Z2.5400 
G00 X48.4341 Y73.3770 
G01 Z-0.1778 F254.00 
G01 X48.4341 Y73.5430 F508.00 
G01 X48.4081 Y73.7068 
G01 X48.3569 Y73.8646 
G01 X48.2815 Y74.0125 
G01 X48.1840 Y74.1467 
G01 X48.0667 Y74.2640 
G01 X47.9325 Y74.3615 
G01 X47.7846 Y74.4369 
G01 X47.6268 Y74.4881 
G01 X47.4630 Y74.5141 
G01 X47.2970 Y74.5141 
G01 X47.1332 Y74.4881 
G01 X46.9754 Y74.4369 
G01 X46.8275 Y74.3615 
G01 X46.6933 Y74.2640 
G01 X46.5760 Y74.1467 
G01 X46.4785 Y74.0125 
G01 X46.4031 Y73.8646 
G01 X46.3519 Y73.7068 
G01 X46.3259 Y73.5430 
G01 X46.3259 Y73.3770 
G01 X46.3519 Y73.2132 
G01 X46.4031 Y73.0554 
G01 X46.4785 Y72.9075 
G01 X46.5760 Y72.7733 
G01 X46.6933 Y72.6560 
G01 X46.7810 Y72.5923 
G01 X42.0502 Y67.8615 
G01 X42.0010 Y67.8123 
G01 X41.9662 Y67.7520 
G01 X41.9482 Y67.6848 
G01 X41.9482 Y65.8345 
G01 X40.1252 Y64.0115 
G01 X40.0760 Y63.9623 
G01 X40.0412 Y63.9020 
G01 X40.0232 Y63.8348 
G01 X40.0232 Y63.6345 
G01 X38.1155 Y61.7268 
G01 X35.3027 Y61.7268 
G01 X35.2355 Y61.7088 
G01 X35.1752 Y61.6740 
G01 X34.2127 Y60.7115 
G01 X34.1635 Y60.6623 
G01 X34.1287 Y60.6020 
G01 X34.1107 Y60.5348 
G01 X34.1107 Y46.8595 
G01 X19.7752 Y32.5240 
G01 X19.7260 Y32.4748 
G01 X19.6912 Y32.4145 
G01 X19.6732 Y32.3473 
G01 X19.6732 Y12.2095 
G01 X14.3280 Y6.8643 
G01 X13.9643 Y6.8643 
G01 X13.9643 Y7.0227 
G01 X13.9469 Y7.0647 
G01 X13.9147 Y7.0969 
G01 X13.8727 Y7.1143 
G01 X12.6273 Y7.1143 
G01 X12.5853 Y7.0969 
G01 X12.5531 Y7.0647 
G01 X12.5357 Y7.0227 
G01 X12.5357 Y6.8643 
G01 X9.2475 Y6.8643 
G01 X9.2047 Y6.9961 
G01 X9.1216 Y7.1590 
G01 X9.0141 Y7.3070 
G01 X8.8848 Y7.4364 
G01 X8.7368 Y7.5439 
G01 X8.5738 Y7.6269 
G01 X8.3999 Y7.6834 
G01 X8.2192 Y7.7120 
G01 X5.9408 Y7.7120 
G01 X5.7601 Y7.6834 
G01 X5.5862 Y7.6269 
G01 X5.4232 Y7.5439 
G01 X5.2752 Y7.4364 
G01 X5.1459 Y7.3070 
G01 X5.0384 Y7.1590 
G01 X4.9553 Y6.9961 
G01 X4.8988 Y6.8221 
G01 X4.8702 Y6.6415 
G01 X4.8702 Y6.4585 
G01 X4.8988 Y6.2779 
G01 X4.9553 Y6.1039 
G01 X5.0384 Y5.9410 
G01 X5.1459 Y5.7930 
G01 X5.2752 Y5.6636 
G01 X5.4232 Y5.5561 
G01 X5.5862 Y5.4731 
G01 X5.7601 Y5.4166 
G01 X5.9408 Y5.3880 
G01 X8.2192 Y5.3880 
G01 X8.3999 Y5.4166 
G01 X8.5738 Y5.4731 
G01 X8.7368 Y5.5561 
G01 X8.8848 Y5.6636 
G01 X9.0141 Y5.7930 
G01 X9.1216 Y5.9410 
G01 X9.2047 Y6.1039 
G01 X9.2612 Y6.2779 
G01 X9.2703 Y6.3357 
G01 X12.5357 Y6.3357 
G01 X12.5357 Y6.1773 
G01 X12.5531 Y6.1353 
G01 X12.5853 Y6.1031 
G01 X12.6273 Y6.0857 
G01 X13.8727 Y6.0857 
G01 X13.9147 Y6.1031 
G01 X13.9469 Y6.1353 
G01 X13.9643 Y6.1773 
G01 X13.9643 Y6.3357 
G01 X14.4723 Y6.3357 
G01 X14.5395 Y6.3537 
G01 X14.5998 Y6.3885 
G01 X14.6490 Y6.4377 
G01 X20.1490 Y11.9377 
G01 X20.1838 Y11.9980 
G01 X20.2018 Y12.0652 
G01 X20.2018 Y32.2030 
G01 X34.5865 Y46.5877 
G01 X34.6213 Y46.6480 
G01 X34.6393 Y46.7152 
G01 X34.6393 Y60.3905 
G01 X35.4470 Y61.1982 
G01 X38.2598 Y61.1982 
G01 X38.3270 Y61.2162 
G01 X38.3873 Y61.2510 
G01 X38.4365 Y61.3002 
G01 X40.4990 Y63.3627 
G01 X40.5338 Y63.4230 
G01 X40.5518 Y63.4902 
G01 X40.5518 Y63.6905 
G01 X42.4240 Y65.5627 
G01 X42.4588 Y65.6230 
G01 X42.4768 Y65.6902 
G01 X42.4768 Y67.5405 
G01 X47.3422 Y72.4059 
G01 X47.4630 Y72.4059 
G01 X47.6268 Y72.4319 
G01 X47.7846 Y72.4831 
G01 X47.9325 Y72.5585 
G01 X48.0667 Y72.6560 
G01 X48.1840 Y72.7733 
G01 X48.2815 Y72.9075 
G01 X48.3569 Y73.0554 
G01 X48.4081 Y73.2132 
G01 X48.4341 Y73.3770 
G00 Z2.5400 
G00 X48.4341 Y75.9170 
G01 Z-0.1778 F254.00 
G01 X48.4341 Y76.0830 F508.00 
G01 X48.4081 Y76.2468 
G01 X48.3569 Y76.4046 
G01 X48.2815 Y76.5525 
G01 X48.1840 Y76.6867 
G01 X48.0667 Y76.8040 
G01 X47.9325 Y76.9015 
G01 X47.7846 Y76.9769 
G01 X47.6268 Y77.0281 
G01 X47.4630 Y77.0541 
G01 X47.2970 Y77.0541 
G01 X47.1332 Y77.0281 
G01 X46.9754 Y76.9769 
G01 X46.8275 Y76.9015 
G01 X46.6933 Y76.8040 
G01 X46.5760 Y76.6867 
G01 X46.4785 Y76.5525 
G01 X46.4031 Y76.4046 
G01 X46.3519 Y76.2468 
G01 X46.3259 Y76.0830 
G01 X46.3259 Y75.9170 
G01 X46.3519 Y75.7532 
G01 X46.4031 Y75.5954 
G01 X46.4769 Y75.4506 
G01 X44.5811 Y73.5548 
G01 X44.4872 Y73.5800 
G01 X44.3378 Y73.5800 
G01 X44.1934 Y73.5413 
G01 X44.0640 Y73.4666 
G01 X43.9584 Y73.3610 
G01 X43.8837 Y73.2315 
G01 X43.8450 Y73.0872 
G01 X43.8450 Y72.9378 
G01 X43.8837 Y72.7935 
G01 X43.9584 Y72.6640 
G01 X44.0640 Y72.5584 
G01 X44.1934 Y72.4837 
G01 X44.3378 Y72.4450 
G01 X44.4872 Y72.4450 
G01 X44.6315 Y72.4837 
G01 X44.7610 Y72.5584 
G01 X44.8666 Y72.6640 
G01 X44.9413 Y72.7935 
G01 X44.9800 Y72.9378 
G01 X44.9800 Y73.0872 
G01 X44.9548 Y73.1811 
G01 X46.8571 Y75.0834 
G01 X46.9754 Y75.0231 
G01 X47.1332 Y74.9719 
G01 X47.2970 Y74.9459 
G01 X47.4630 Y74.9459 
G01 X47.6268 Y74.9719 
G01 X47.7846 Y75.0231 
G01 X47.9325 Y75.0985 
G01 X48.0667 Y75.1960 
G01 X48.1840 Y75.3133 
G01 X48.2815 Y75.4475 
G01 X48.3569 Y75.5954 
G01 X48.4081 Y75.7532 
G01 X48.4341 Y75.9170 
G00 Z2.5400 
G00 X48.4341 Y78.4570 
G01 Z-0.1778 F254.00 
G01 X48.4341 Y78.6230 F508.00 
G01 X48.4081 Y78.7868 
G01 X48.3569 Y78.9446 
G01 X48.2815 Y79.0925 
G01 X48.1840 Y79.2267 
G01 X48.0667 Y79.3440 
G01 X47.9325 Y79.4415 
G01 X47.7846 Y79.5169 
G01 X47.6268 Y79.5681 
G01 X47.4630 Y79.5941 
G01 X47.2970 Y79.5941 
G01 X47.1332 Y79.5681 
G01 X46.9754 Y79.5169 
G01 X46.8275 Y79.4415 
G01 X46.6933 Y79.3440 
G01 X46.5760 Y79.2267 
G01 X46.4785 Y79.0925 
G01 X46.4031 Y78.9446 
G01 X46.3519 Y78.7868 
G01 X46.3259 Y78.6230 
G01 X46.3259 Y78.4570 
G01 X46.3519 Y78.2932 
G01 X46.4031 Y78.1354 
G01 X46.4785 Y77.9875 
G01 X46.5760 Y77.8533 
G01 X46.6933 Y77.7360 
G01 X46.7767 Y77.6754 
G01 X43.0127 Y73.9115 
G01 X42.9635 Y73.8623 
G01 X42.9287 Y73.8020 
G01 X42.9107 Y73.7348 
G01 X42.9107 Y69.5470 
G01 X40.8127 Y67.4490 
G01 X40.7635 Y67.3998 
G01 X40.7287 Y67.3395 
G01 X40.7107 Y67.2723 
G01 X40.7107 Y65.4220 
G01 X39.5752 Y64.2865 
G01 X39.5260 Y64.2373 
G01 X39.4912 Y64.1770 
G01 X39.4732 Y64.1098 
G01 X39.4732 Y63.9095 
G01 X37.8405 Y62.2768 
G01 X35.0277 Y62.2768 
G01 X34.9605 Y62.2588 
G01 X34.9002 Y62.2240 
G01 X31.3252 Y58.6490 
G01 X31.2760 Y58.5998 
G01 X31.2412 Y58.5395 
G01 X31.2232 Y58.4723 
G01 X31.2232 Y52.3595 
G01 X14.1377 Y35.2740 
G01 X14.0885 Y35.2248 
G01 X14.0537 Y35.1645 
G01 X14.0357 Y35.0973 
G01 X14.0357 Y17.9845 
G01 X13.1655 Y17.1143 
G01 X12.6273 Y17.1143 
G01 X12.5853 Y17.0969 
G01 X12.5531 Y17.0647 
G01 X12.5357 Y17.0227 
G01 X12.5357 Y16.9018 
G01 X9.2739 Y16.9018 
G01 X9.2612 Y16.9821 
G01 X9.2047 Y17.1561 
G01 X9.1216 Y17.3190 
G01 X9.0141 Y17.4670 
G01 X8.8848 Y17.5964 
G01 X8.7368 Y17.7039 
G01 X8.5738 Y17.7869 
G01 X8.3999 Y17.8434 
G01 X8.2192 Y17.8720 
G01 X5.9408 Y17.8720 
G01 X5.7601 Y17.8434 
G01 X5.5862 Y17.7869 
G01 X5.4232 Y17.7039 
G01 X5.2752 Y17.5964 
G01 X5.1459 Y17.4670 
G01 X5.0384 Y17.3190 
G01 X4.9553 Y17.1561 
G01 X4.8988 Y16.9821 
G01 X4.8702 Y16.8015 
G01 X4.8702 Y16.6185 
G01 X4.8988 Y16.4379 
G01 X4.9553 Y16.2639 
G01 X5.0384 Y16.1010 
G01 X5.1459 Y15.9530 
G01 X5.2752 Y15.8236 
G01 X5.4232 Y15.7161 
G01 X5.5862 Y15.6331 
G01 X5.7601 Y15.5766 
G01 X5.9408 Y15.5480 
G01 X8.2192 Y15.5480 
G01 X8.3999 Y15.5766 
G01 X8.5738 Y15.6331 
G01 X8.7368 Y15.7161 
G01 X8.8848 Y15.8236 
G01 X9.0141 Y15.9530 
G01 X9.1216 Y16.1010 
G01 X9.2047 Y16.2639 
G01 X9.2402 Y16.3732 
G01 X12.5357 Y16.3732 
G01 X12.5357 Y16.1773 
G01 X12.5531 Y16.1353 
G01 X12.5853 Y16.1031 
G01 X12.6273 Y16.0857 
G01 X13.8727 Y16.0857 
G01 X13.9147 Y16.1031 
G01 X13.9469 Y16.1353 
G01 X13.9643 Y16.1773 
G01 X13.9643 Y17.0227 
G01 X13.9469 Y17.0647 
G01 X13.9147 Y17.0969 
G01 X13.9013 Y17.1025 
G01 X14.5115 Y17.7127 
G01 X14.5463 Y17.7730 
G01 X14.5643 Y17.8402 
G01 X14.5643 Y34.9530 
G01 X31.6990 Y52.0877 
G01 X31.7338 Y52.1480 
G01 X31.7518 Y52.2152 
G01 X31.7518 Y58.3280 
G01 X35.1720 Y61.7482 
G01 X37.9848 Y61.7482 
G01 X38.0520 Y61.7662 
G01 X38.1123 Y61.8010 
G01 X38.1615 Y61.8502 
G01 X39.9490 Y63.6377 
G01 X39.9838 Y63.6980 
G01 X40.0018 Y63.7652 
G01 X40.0018 Y63.9655 
G01 X41.1373 Y65.1010 
G01 X41.1865 Y65.1502 
G01 X41.2213 Y65.2105 
G01 X41.2393 Y65.2777 
G01 X41.2393 Y67.1280 
G01 X43.3865 Y69.2752 
G01 X43.4213 Y69.3355 
G01 X43.4393 Y69.4027 
G01 X43.4393 Y73.5905 
G01 X47.3347 Y77.4859 
G01 X47.4630 Y77.4859 
G01 X47.6268 Y77.5119 
G01 X47.7846 Y77.5631 
G01 X47.9325 Y77.6385 
G01 X48.0667 Y77.7360 
G01 X48.1840 Y77.8533 
G01 X48.2815 Y77.9875 
G01 X48.3569 Y78.1354 
G01 X48.4081 Y78.2932 
G01 X48.4341 Y78.4570 
G00 Z2.5400 
G00 X48.4341 Y80.9970 
G01 Z-0.1778 F254.00 
G01 X48.4341 Y81.1630 F508.00 
G01 X48.4081 Y81.3268 
G01 X48.3569 Y81.4846 
G01 X48.2815 Y81.6325 
G01 X48.1840 Y81.7667 
G01 X48.0667 Y81.8840 
G01 X47.9325 Y81.9815 
G01 X47.7846 Y82.0569 
G01 X47.6268 Y82.1081 
G01 X47.4630 Y82.1341 
G01 X47.2970 Y82.1341 
G01 X47.1332 Y82.1081 
G01 X46.9754 Y82.0569 
G01 X46.8275 Y81.9815 
G01 X46.6933 Y81.8840 
G01 X46.5760 Y81.7667 
G01 X46.4785 Y81.6325 
G01 X46.4031 Y81.4846 
G01 X46.3519 Y81.3268 
G01 X46.3259 Y81.1630 
G01 X46.3259 Y80.9970 
G01 X46.3519 Y80.8332 
G01 X46.4031 Y80.6754 
G01 X46.4785 Y80.5275 
G01 X46.5760 Y80.3933 
G01 X46.6933 Y80.2760 
G01 X46.8275 Y80.1785 
G01 X46.9754 Y80.1031 
G01 X47.1332 Y80.0519 
G01 X47.2970 Y80.0259 
G01 X47.4630 Y80.0259 
G01 X47.6268 Y80.0519 
G01 X47.7846 Y80.1031 
G01 X47.9325 Y80.1785 
G01 X48.0667 Y80.2760 
G01 X48.1840 Y80.3933 
G01 X48.2815 Y80.5275 
G01 X48.3569 Y80.6754 
G01 X48.4081 Y80.8332 
G01 X48.4341 Y80.9970 
G00 Z2.5400 
G00 X48.4341 Y83.5370 
G01 Z-0.1778 F254.00 
G01 X48.4341 Y83.7030 F508.00 
G01 X48.4081 Y83.8668 
G01 X48.3569 Y84.0246 
G01 X48.2815 Y84.1725 
G01 X48.1840 Y84.3067 
G01 X48.0667 Y84.4240 
G01 X47.9325 Y84.5215 
G01 X47.7846 Y84.5969 
G01 X47.6268 Y84.6481 
G01 X47.4630 Y84.6741 
G01 X47.2970 Y84.6741 
G01 X47.1332 Y84.6481 
G01 X46.9754 Y84.5969 
G01 X46.8275 Y84.5215 
G01 X46.6933 Y84.4240 
G01 X46.5760 Y84.3067 
G01 X46.4785 Y84.1725 
G01 X46.4031 Y84.0246 
G01 X46.3519 Y83.8668 
G01 X46.3259 Y83.7030 
G01 X46.3259 Y83.5370 
G01 X46.3519 Y83.3732 
G01 X46.4031 Y83.2154 
G01 X46.4785 Y83.0675 
G01 X46.5760 Y82.9333 
G01 X46.6933 Y82.8160 
G01 X46.8275 Y82.7185 
G01 X46.9754 Y82.6431 
G01 X47.1332 Y82.5919 
G01 X47.2970 Y82.5659 
G01 X47.4630 Y82.5659 
G01 X47.6268 Y82.5919 
G01 X47.7846 Y82.6431 
G01 X47.9325 Y82.7185 
G01 X48.0667 Y82.8160 
G01 X48.1840 Y82.9333 
G01 X48.2815 Y83.0675 
G01 X48.3569 Y83.2154 
G01 X48.4081 Y83.3732 
G01 X48.4341 Y83.5370 
G00 Z2.5400 
G00 X48.4341 Y86.0770 
G01 Z-0.1778 F254.00 
G01 X48.4341 Y86.2430 F508.00 
G01 X48.4081 Y86.4068 
G01 X48.3569 Y86.5646 
G01 X48.2815 Y86.7125 
G01 X48.1840 Y86.8467 
G01 X48.0667 Y86.9640 
G01 X47.9325 Y87.0615 
G01 X47.7846 Y87.1369 
G01 X47.6268 Y87.1881 
G01 X47.4630 Y87.2141 
G01 X47.2970 Y87.2141 
G01 X47.1332 Y87.1881 
G01 X46.9754 Y87.1369 
G01 X46.8275 Y87.0615 
G01 X46.6933 Y86.9640 
G01 X46.5760 Y86.8467 
G01 X46.4785 Y86.7125 
G01 X46.4031 Y86.5646 
G01 X46.3519 Y86.4068 
G01 X46.3259 Y86.2430 
G01 X46.3259 Y86.0770 
G01 X46.3519 Y85.9132 
G01 X46.4031 Y85.7554 
G01 X46.4785 Y85.6075 
G01 X46.5760 Y85.4733 
G01 X46.6933 Y85.3560 
G01 X46.8275 Y85.2585 
G01 X46.9754 Y85.1831 
G01 X47.1332 Y85.1319 
G01 X47.2970 Y85.1059 
G01 X47.4630 Y85.1059 
G01 X47.6268 Y85.1319 
G01 X47.7846 Y85.1831 
G01 X47.9325 Y85.2585 
G01 X48.0667 Y85.3560 
G01 X48.1840 Y85.4733 
G01 X48.2815 Y85.6075 
G01 X48.3569 Y85.7554 
G01 X48.4081 Y85.9132 
G01 X48.4341 Y86.0770 
G00 Z2.5400 
G00 X48.4341 Y88.6170 
G01 Z-0.1778 F254.00 
G01 X48.4341 Y88.7830 F508.00 
G01 X48.4081 Y88.9468 
G01 X48.3569 Y89.1046 
G01 X48.2815 Y89.2525 
G01 X48.1840 Y89.3867 
G01 X48.0667 Y89.5040 
G01 X47.9325 Y89.6015 
G01 X47.7846 Y89.6769 
G01 X47.6268 Y89.7281 
G01 X47.4630 Y89.7541 
G01 X47.2970 Y89.7541 
G01 X47.1332 Y89.7281 
G01 X46.9754 Y89.6769 
G01 X46.8275 Y89.6015 
G01 X46.6933 Y89.5040 
G01 X46.5760 Y89.3867 
G01 X46.4785 Y89.2525 
G01 X46.4031 Y89.1046 
G01 X46.3519 Y88.9468 
G01 X46.3259 Y88.7830 
G01 X46.3259 Y88.6170 
G01 X46.3519 Y88.4532 
G01 X46.4031 Y88.2954 
G01 X46.4785 Y88.1475 
G01 X46.5760 Y88.0133 
G01 X46.6933 Y87.8960 
G01 X46.8275 Y87.7985 
G01 X46.9754 Y87.7231 
G01 X47.1332 Y87.6719 
G01 X47.2970 Y87.6459 
G01 X47.4630 Y87.6459 
G01 X47.6268 Y87.6719 
G01 X47.7846 Y87.7231 
G01 X47.9325 Y87.7985 
G01 X48.0667 Y87.8960 
G01 X48.1840 Y88.0133 
G01 X48.2815 Y88.1475 
G01 X48.3569 Y88.2954 
G01 X48.4081 Y88.4532 
G01 X48.4341 Y88.6170 
G00 Z2.5400 
G00 X48.4341 Y91.1570 
G01 Z-0.1778 F254.00 
G01 X48.4341 Y91.3230 F508.00 
G01 X48.4081 Y91.4868 
G01 X48.3569 Y91.6446 
G01 X48.2815 Y91.7925 
G01 X48.1840 Y91.9267 
G01 X48.0667 Y92.0440 
G01 X47.9325 Y92.1415 
G01 X47.7846 Y92.2169 
G01 X47.6268 Y92.2681 
G01 X47.4630 Y92.2941 
G01 X47.2970 Y92.2941 
G01 X47.1332 Y92.2681 
G01 X46.9754 Y92.2169 
G01 X46.8275 Y92.1415 
G01 X46.6933 Y92.0440 
G01 X46.5760 Y91.9267 
G01 X46.4785 Y91.7925 
G01 X46.4031 Y91.6446 
G01 X46.3519 Y91.4868 
G01 X46.3259 Y91.3230 
G01 X46.3259 Y91.1570 
G01 X46.3519 Y90.9932 
G01 X46.4031 Y90.8354 
G01 X46.4785 Y90.6875 
G01 X46.5760 Y90.5533 
G01 X46.6933 Y90.4360 
G01 X46.8275 Y90.3385 
G01 X46.9754 Y90.2631 
G01 X47.1332 Y90.2119 
G01 X47.2970 Y90.1859 
G01 X47.4630 Y90.1859 
G01 X47.6268 Y90.2119 
G01 X47.7846 Y90.2631 
G01 X47.9325 Y90.3385 
G01 X48.0667 Y90.4360 
G01 X48.1840 Y90.5533 
G01 X48.2815 Y90.6875 
G01 X48.3569 Y90.8354 
G01 X48.4081 Y90.9932 
G01 X48.4341 Y91.1570 
G00 Z2.5400 
G00 X63.6741 Y86.0770 
G01 Z-0.1778 F254.00 
G01 X63.6741 Y86.2430 F508.00 
G01 X63.6481 Y86.4068 
G01 X63.5969 Y86.5646 
G01 X63.5215 Y86.7125 
G01 X63.4240 Y86.8467 
G01 X63.3067 Y86.9640 
G01 X63.1725 Y87.0615 
G01 X63.0246 Y87.1369 
G01 X62.8668 Y87.1881 
G01 X62.7030 Y87.2141 
G01 X62.5370 Y87.2141 
G01 X62.3732 Y87.1881 
G01 X62.2154 Y87.1369 
G01 X62.0675 Y87.0615 
G01 X61.9333 Y86.9640 
G01 X61.8160 Y86.8467 
G01 X61.7185 Y86.7125 
G01 X61.6431 Y86.5646 
G01 X61.6146 Y86.4768 
G01 X55.2470 Y86.4768 
G01 X48.3365 Y93.3873 
G01 X48.2873 Y93.4365 
G01 X48.2270 Y93.4713 
G01 X48.1598 Y93.4893 
G01 X35.7152 Y93.4893 
G01 X35.6480 Y93.4713 
G01 X35.5877 Y93.4365 
G01 X34.6252 Y92.4740 
G01 X34.5760 Y92.4248 
G01 X34.5412 Y92.3645 
G01 X34.5232 Y92.2973 
G01 X34.5232 Y89.7527 
G01 X34.5412 Y89.6855 
G01 X34.5760 Y89.6252 
G01 X37.0855 Y87.1157 
G01 X35.2123 Y87.1157 
G01 X35.1703 Y87.0983 
G01 X35.1381 Y87.0661 
G01 X35.1207 Y87.0241 
G01 X35.1207 Y84.8959 
G01 X35.1381 Y84.8539 
G01 X35.1703 Y84.8217 
G01 X35.2123 Y84.8043 
G01 X39.0677 Y84.8043 
G01 X39.1097 Y84.8217 
G01 X39.1419 Y84.8539 
G01 X39.1593 Y84.8959 
G01 X39.1593 Y87.0241 
G01 X39.1419 Y87.0661 
G01 X39.1097 Y87.0983 
G01 X39.0677 Y87.1157 
G01 X38.6770 Y87.1157 
G01 X40.6470 Y89.0857 
G01 X41.8727 Y89.0857 
G01 X41.9147 Y89.1031 
G01 X41.9469 Y89.1353 
G01 X41.9643 Y89.1773 
G01 X41.9643 Y90.0227 
G01 X41.9469 Y90.0647 
G01 X41.9147 Y90.0969 
G01 X41.8727 Y90.1143 
G01 X40.6273 Y90.1143 
G01 X40.5853 Y90.0969 
G01 X40.5531 Y90.0647 
G01 X40.5357 Y90.0227 
G01 X40.5357 Y89.7220 
G01 X37.9294 Y87.1157 
G01 X37.8331 Y87.1157 
G01 X35.0518 Y89.8970 
G01 X35.0518 Y92.1530 
G01 X35.8595 Y92.9607 
G01 X48.0155 Y92.9607 
G01 X54.9752 Y86.0010 
G01 X55.0355 Y85.9662 
G01 X55.1027 Y85.9482 
G01 X61.5863 Y85.9482 
G01 X61.5919 Y85.9132 
G01 X61.6431 Y85.7554 
G01 X61.7185 Y85.6075 
G01 X61.8160 Y85.4733 
G01 X61.9333 Y85.3560 
G01 X62.0675 Y85.2585 
G01 X62.2154 Y85.1831 
G01 X62.3732 Y85.1319 
G01 X62.5370 Y85.1059 
G01 X62.7030 Y85.1059 
G01 X62.8668 Y85.1319 
G01 X63.0246 Y85.1831 
G01 X63.1725 Y85.2585 
G01 X63.3067 Y85.3560 
G01 X63.4240 Y85.4733 
G01 X63.5215 Y85.6075 
G01 X63.5969 Y85.7554 
G01 X63.6481 Y85.9132 
G01 X63.6741 Y86.0770 
G00 Z2.5400 
G00 X63.6741 Y83.5370 
G01 Z-0.1778 F254.00 
G01 X63.6741 Y83.7030 F508.00 
G01 X63.6481 Y83.8668 
G01 X63.5969 Y84.0246 
G01 X63.5215 Y84.1725 
G01 X63.4240 Y84.3067 
G01 X63.3067 Y84.4240 
G01 X63.1725 Y84.5215 
G01 X63.0246 Y84.5969 
G01 X62.8668 Y84.6481 
G01 X62.7030 Y84.6741 
G01 X62.5370 Y84.6741 
G01 X62.3732 Y84.6481 
G01 X62.2154 Y84.5969 
G01 X62.0675 Y84.5215 
G01 X61.9333 Y84.4240 
G01 X61.8160 Y84.3067 
G01 X61.7185 Y84.1725 
G01 X61.6431 Y84.0246 
G01 X61.6357 Y84.0018 
G01 X56.8970 Y84.0018 
G01 X48.0615 Y92.8373 
G01 X48.0123 Y92.8865 
G01 X47.9520 Y92.9213 
G01 X47.8848 Y92.9393 
G01 X46.8527 Y92.9393 
G01 X46.7855 Y92.9213 
G01 X46.7252 Y92.8865 
G01 X42.7377 Y88.8990 
G01 X42.6885 Y88.8498 
G01 X42.6537 Y88.7895 
G01 X42.6357 Y88.7223 
G01 X42.6357 Y81.5095 
G01 X40.2627 Y79.1365 
G01 X40.2135 Y79.0873 
G01 X40.1787 Y79.0270 
G01 X40.1607 Y78.9598 
G01 X40.1607 Y77.1027 
G01 X40.1787 Y77.0355 
G01 X40.2135 Y76.9752 
G01 X40.5325 Y76.6562 
G01 X37.9919 Y74.1157 
G01 X35.2123 Y74.1157 
G01 X35.1703 Y74.0983 
G01 X35.1381 Y74.0661 
G01 X35.1207 Y74.0241 
G01 X35.1207 Y71.8959 
G01 X35.1381 Y71.8539 
G01 X35.1703 Y71.8217 
G01 X35.2123 Y71.8043 
G01 X39.0677 Y71.8043 
G01 X39.1097 Y71.8217 
G01 X39.1419 Y71.8539 
G01 X39.1593 Y71.8959 
G01 X39.1593 Y74.0241 
G01 X39.1419 Y74.0661 
G01 X39.1097 Y74.0983 
G01 X39.0677 Y74.1157 
G01 X38.7395 Y74.1157 
G01 X40.7902 Y76.1664 
G01 X40.8031 Y76.1353 
G01 X40.8353 Y76.1031 
G01 X40.8773 Y76.0857 
G01 X42.1227 Y76.0857 
G01 X42.1647 Y76.1031 
G01 X42.1969 Y76.1353 
G01 X42.2143 Y76.1773 
G01 X42.2143 Y77.0227 
G01 X42.1969 Y77.0647 
G01 X42.1647 Y77.0969 
G01 X42.1227 Y77.1143 
G01 X40.8773 Y77.1143 
G01 X40.8382 Y77.0981 
G01 X40.6893 Y77.2470 
G01 X40.6893 Y78.8155 
G01 X43.1115 Y81.2377 
G01 X43.1463 Y81.2980 
G01 X43.1643 Y81.3652 
G01 X43.1643 Y88.5780 
G01 X46.9970 Y92.4107 
G01 X47.7405 Y92.4107 
G01 X56.6252 Y83.5260 
G01 X56.6855 Y83.4912 
G01 X56.7527 Y83.4732 
G01 X61.5760 Y83.4732 
G01 X61.5919 Y83.3732 
G01 X61.6431 Y83.2154 
G01 X61.7185 Y83.0675 
G01 X61.8160 Y82.9333 
G01 X61.9333 Y82.8160 
G01 X62.0675 Y82.7185 
G01 X62.2154 Y82.6431 
G01 X62.3732 Y82.5919 
G01 X62.5370 Y82.5659 
G01 X62.7030 Y82.5659 
G01 X62.8668 Y82.5919 
G01 X63.0246 Y82.6431 
G01 X63.1725 Y82.7185 
G01 X63.3067 Y82.8160 
G01 X63.4240 Y82.9333 
G01 X63.5215 Y83.0675 
G01 X63.5969 Y83.2154 
G01 X63.6481 Y83.3732 
G01 X63.6741 Y83.5370 
G00 Z2.5400 
G00 X63.6741 Y78.4570 
G01 Z-0.1778 F254.00 
G01 X63.6741 Y78.6230 F508.00 
G01 X63.6481 Y78.7868 
G01 X63.5969 Y78.9446 
G01 X63.5215 Y79.0925 
G01 X63.4240 Y79.2267 
G01 X63.3067 Y79.3440 
G01 X63.1725 Y79.4415 
G01 X63.0246 Y79.5169 
G01 X62.8668 Y79.5681 
G01 X62.7030 Y79.5941 
G01 X62.5370 Y79.5941 
G01 X62.3732 Y79.5681 
G01 X62.2154 Y79.5169 
G01 X62.0675 Y79.4415 
G01 X61.9333 Y79.3440 
G01 X61.8160 Y79.2267 
G01 X61.7185 Y79.0925 
G01 X61.6431 Y78.9446 
G01 X61.5919 Y78.7868 
G01 X61.5659 Y78.6230 
G01 X61.5659 Y78.4570 
G01 X61.5919 Y78.2932 
G01 X61.6431 Y78.1354 
G01 X61.7000 Y78.0238 
G01 X60.9760 Y77.2998 
G01 X60.9412 Y77.2395 
G01 X60.9232 Y77.1723 
G01 X60.9232 Y59.2345 
G01 X33.9905 Y32.3018 
G01 X33.3777 Y32.3018 
G01 X33.3105 Y32.2838 
G01 X33.2502 Y32.2490 
G01 X33.2010 Y32.1998 
G01 X32.3760 Y31.3748 
G01 X32.3412 Y31.3145 
G01 X32.3232 Y31.2473 
G01 X32.3232 Y30.0777 
G01 X32.3412 Y30.0105 
G01 X32.3760 Y29.9502 
G01 X32.4252 Y29.9010 
G01 X34.1107 Y28.2155 
G01 X34.1107 Y9.5970 
G01 X32.9260 Y8.4123 
G01 X32.8912 Y8.3520 
G01 X32.8732 Y8.2848 
G01 X32.8732 Y7.9733 
G01 X32.4358 Y7.9733 
G01 X32.3938 Y7.9559 
G01 X32.3616 Y7.9237 
G01 X32.3442 Y7.8817 
G01 X32.3442 Y6.5283 
G01 X32.3616 Y6.4863 
G01 X32.3938 Y6.4541 
G01 X32.4358 Y6.4367 
G01 X33.7892 Y6.4367 
G01 X33.8312 Y6.4541 
G01 X33.8634 Y6.4863 
G01 X33.8808 Y6.5283 
G01 X33.8808 Y7.8817 
G01 X33.8634 Y7.9237 
G01 X33.8312 Y7.9559 
G01 X33.7892 Y7.9733 
G01 X33.4018 Y7.9733 
G01 X33.4018 Y8.1405 
G01 X34.5373 Y9.2760 
G01 X34.5865 Y9.3252 
G01 X34.6213 Y9.3855 
G01 X34.6393 Y9.4527 
G01 X34.6393 Y28.3598 
G01 X34.6213 Y28.4270 
G01 X34.5865 Y28.4873 
G01 X32.8518 Y30.2220 
G01 X32.8518 Y31.1030 
G01 X33.5220 Y31.7732 
G01 X34.1348 Y31.7732 
G01 X34.2020 Y31.7912 
G01 X34.2623 Y31.8260 
G01 X61.3498 Y58.9135 
G01 X61.3990 Y58.9627 
G01 X61.4338 Y59.0230 
G01 X61.4518 Y59.0902 
G01 X61.4518 Y77.0280 
G01 X62.0645 Y77.6407 
G01 X62.0675 Y77.6385 
G01 X62.2154 Y77.5631 
G01 X62.3732 Y77.5119 
G01 X62.5370 Y77.4859 
G01 X62.7030 Y77.4859 
G01 X62.8668 Y77.5119 
G01 X63.0246 Y77.5631 
G01 X63.1725 Y77.6385 
G01 X63.3067 Y77.7360 
G01 X63.4240 Y77.8533 
G01 X63.5215 Y77.9875 
G01 X63.5969 Y78.1354 
G01 X63.6481 Y78.2932 
G01 X63.6741 Y78.4570 
G00 Z2.5400 
G00 X63.6741 Y75.9170 
G01 Z-0.1778 F254.00 
G01 X63.6741 Y76.0830 F508.00 
G01 X63.6481 Y76.2468 
G01 X63.5969 Y76.4046 
G01 X63.5215 Y76.5525 
G01 X63.4240 Y76.6867 
G01 X63.3067 Y76.8040 
G01 X63.1725 Y76.9015 
G01 X63.0246 Y76.9769 
G01 X62.8668 Y77.0281 
G01 X62.7030 Y77.0541 
G01 X62.5370 Y77.0541 
G01 X62.3732 Y77.0281 
G01 X62.2154 Y76.9769 
G01 X62.0675 Y76.9015 
G01 X61.9333 Y76.8040 
G01 X61.8160 Y76.6867 
G01 X61.7185 Y76.5525 
G01 X61.6431 Y76.4046 
G01 X61.5919 Y76.2468 
G01 X61.5659 Y76.0830 
G01 X61.5659 Y75.9170 
G01 X61.5919 Y75.7532 
G01 X61.6431 Y75.5954 
G01 X61.7185 Y75.4475 
G01 X61.8160 Y75.3133 
G01 X61.9333 Y75.1960 
G01 X62.0675 Y75.0985 
G01 X62.2154 Y75.0231 
G01 X62.3732 Y74.9719 
G01 X62.5370 Y74.9459 
G01 X62.7030 Y74.9459 
G01 X62.8668 Y74.9719 
G01 X63.0246 Y75.0231 
G01 X63.1725 Y75.0985 
G01 X63.3067 Y75.1960 
G01 X63.4240 Y75.3133 
G01 X63.5215 Y75.4475 
G01 X63.5969 Y75.5954 
G01 X63.6481 Y75.7532 
G01 X63.6741 Y75.9170 
G00 Z2.5400 
G00 X63.6741 Y70.8370 
G01 Z-0.1778 F254.00 
G01 X63.6741 Y71.0030 F508.00 
G01 X63.6481 Y71.1668 
G01 X63.5969 Y71.3246 
G01 X63.5215 Y71.4725 
G01 X63.4240 Y71.6067 
G01 X63.3067 Y71.7240 
G01 X63.1725 Y71.8215 
G01 X63.0246 Y71.8969 
G01 X62.8668 Y71.9481 
G01 X62.7030 Y71.9741 
G01 X62.5370 Y71.9741 
G01 X62.3732 Y71.9481 
G01 X62.2154 Y71.8969 
G01 X62.0675 Y71.8215 
G01 X61.9333 Y71.7240 
G01 X61.8160 Y71.6067 
G01 X61.7185 Y71.4725 
G01 X61.6431 Y71.3246 
G01 X61.5919 Y71.1668 
G01 X61.5659 Y71.0030 
G01 X61.5659 Y70.8370 
G01 X61.5919 Y70.6732 
G01 X61.6431 Y70.5154 
G01 X61.7185 Y70.3675 
G01 X61.8160 Y70.2333 
G01 X61.9333 Y70.1160 
G01 X62.0675 Y70.0185 
G01 X62.2154 Y69.9431 
G01 X62.3732 Y69.8919 
G01 X62.5370 Y69.8659 
G01 X62.7030 Y69.8659 
G01 X62.8668 Y69.8919 
G01 X63.0246 Y69.9431 
G01 X63.1725 Y70.0185 
G01 X63.3067 Y70.1160 
G01 X63.4240 Y70.2333 
G01 X63.5215 Y70.3675 
G01 X63.5969 Y70.5154 
G01 X63.6481 Y70.6732 
G01 X63.6741 Y70.8370 
G00 Z2.5400 
G00 X63.6741 Y68.2970 
G01 Z-0.1778 F254.00 
G01 X63.6741 Y68.4630 F508.00 
G01 X63.6481 Y68.6268 
G01 X63.5969 Y68.7846 
G01 X63.5215 Y68.9325 
G01 X63.4240 Y69.0667 
G01 X63.3067 Y69.1840 
G01 X63.1725 Y69.2815 
G01 X63.0246 Y69.3569 
G01 X62.8668 Y69.4081 
G01 X62.7030 Y69.4341 
G01 X62.5370 Y69.4341 
G01 X62.3732 Y69.4081 
G01 X62.2154 Y69.3569 
G01 X62.0675 Y69.2815 
G01 X61.9333 Y69.1840 
G01 X61.8160 Y69.0667 
G01 X61.7185 Y68.9325 
G01 X61.6431 Y68.7846 
G01 X61.5919 Y68.6268 
G01 X61.5659 Y68.4630 
G01 X61.5659 Y68.2970 
G01 X61.5919 Y68.1332 
G01 X61.6431 Y67.9754 
G01 X61.7185 Y67.8275 
G01 X61.8160 Y67.6933 
G01 X61.9333 Y67.5760 
G01 X62.0675 Y67.4785 
G01 X62.2154 Y67.4031 
G01 X62.3732 Y67.3519 
G01 X62.5370 Y67.3259 
G01 X62.7030 Y67.3259 
G01 X62.8668 Y67.3519 
G01 X63.0246 Y67.4031 
G01 X63.1725 Y67.4785 
G01 X63.3067 Y67.5760 
G01 X63.4240 Y67.6933 
G01 X63.5215 Y67.8275 
G01 X63.5969 Y67.9754 
G01 X63.6481 Y68.1332 
G01 X63.6741 Y68.2970 
G00 Z2.5400 
G00 X63.6741 Y65.7570 
G01 Z-0.1778 F254.00 
G01 X63.6741 Y65.9230 F508.00 
G01 X63.6481 Y66.0868 
G01 X63.5969 Y66.2446 
G01 X63.5215 Y66.3925 
G01 X63.4240 Y66.5267 
G01 X63.3067 Y66.6440 
G01 X63.1725 Y66.7415 
G01 X63.0246 Y66.8169 
G01 X62.8668 Y66.8681 
G01 X62.7030 Y66.8941 
G01 X62.5370 Y66.8941 
G01 X62.3732 Y66.8681 
G01 X62.2154 Y66.8169 
G01 X62.0675 Y66.7415 
G01 X61.9333 Y66.6440 
G01 X61.8160 Y66.5267 
G01 X61.7185 Y66.3925 
G01 X61.6431 Y66.2446 
G01 X61.5919 Y66.0868 
G01 X61.5659 Y65.9230 
G01 X61.5659 Y65.7570 
G01 X61.5919 Y65.5932 
G01 X61.6431 Y65.4354 
G01 X61.7185 Y65.2875 
G01 X61.8160 Y65.1533 
G01 X61.9333 Y65.0360 
G01 X62.0675 Y64.9385 
G01 X62.2154 Y64.8631 
G01 X62.3732 Y64.8119 
G01 X62.5370 Y64.7859 
G01 X62.7030 Y64.7859 
G01 X62.8668 Y64.8119 
G01 X63.0246 Y64.8631 
G01 X63.1725 Y64.9385 
G01 X63.3067 Y65.0360 
G01 X63.4240 Y65.1533 
G01 X63.5215 Y65.2875 
G01 X63.5969 Y65.4354 
G01 X63.6481 Y65.5932 
G01 X63.6741 Y65.7570 
G00 Z2.5400 
G00 X63.6741 Y63.2170 
G01 Z-0.1778 F254.00 
G01 X63.6741 Y63.3830 F508.00 
G01 X63.6481 Y63.5468 
G01 X63.5969 Y63.7046 
G01 X63.5215 Y63.8525 
G01 X63.4240 Y63.9867 
G01 X63.3067 Y64.1040 
G01 X63.1725 Y64.2015 
G01 X63.0246 Y64.2769 
G01 X62.8668 Y64.3281 
G01 X62.7030 Y64.3541 
G01 X62.5370 Y64.3541 
G01 X62.3732 Y64.3281 
G01 X62.2154 Y64.2769 
G01 X62.0675 Y64.2015 
G01 X61.9333 Y64.1040 
G01 X61.8160 Y63.9867 
G01 X61.7185 Y63.8525 
G01 X61.6431 Y63.7046 
G01 X61.5919 Y63.5468 
G01 X61.5659 Y63.3830 
G01 X61.5659 Y63.2170 
G01 X61.5919 Y63.0532 
G01 X61.6431 Y62.8954 
G01 X61.7185 Y62.7475 
G01 X61.8160 Y62.6133 
G01 X61.9333 Y62.4960 
G01 X62.0675 Y62.3985 
G01 X62.2154 Y62.3231 
G01 X62.3732 Y62.2719 
G01 X62.5370 Y62.2459 
G01 X62.7030 Y62.2459 
G01 X62.8668 Y62.2719 
G01 X63.0246 Y62.3231 
G01 X63.1725 Y62.3985 
G01 X63.3067 Y62.4960 
G01 X63.4240 Y62.6133 
G01 X63.5215 Y62.7475 
G01 X63.5969 Y62.8954 
G01 X63.6481 Y63.0532 
G01 X63.6741 Y63.2170 
G00 Z2.5400 
G00 X31.3408 Y14.7493 
G01 Z-0.1778 F254.00 
G01 X31.3408 Y14.9007 F508.00 
G01 X31.3113 Y15.0491 
G01 X31.2534 Y15.1889 
G01 X31.1693 Y15.3148 
G01 X31.0623 Y15.4218 
G01 X30.9364 Y15.5059 
G01 X30.7966 Y15.5638 
G01 X30.6482 Y15.5933 
G01 X30.4968 Y15.5933 
G01 X30.3484 Y15.5638 
G01 X30.2086 Y15.5059 
G01 X30.0827 Y15.4218 
G01 X29.9757 Y15.3148 
G01 X29.8916 Y15.1889 
G01 X29.8337 Y15.0491 
G01 X29.8042 Y14.9007 
G01 X29.8042 Y14.7493 
G01 X29.8337 Y14.6009 
G01 X29.8916 Y14.4611 
G01 X29.9757 Y14.3352 
G01 X30.0827 Y14.2282 
G01 X30.2086 Y14.1441 
G01 X30.3484 Y14.0862 
G01 X30.4968 Y14.0567 
G01 X30.6482 Y14.0567 
G01 X30.7966 Y14.0862 
G01 X30.9364 Y14.1441 
G01 X31.0623 Y14.2282 
G01 X31.1693 Y14.3352 
G01 X31.2534 Y14.4611 
G01 X31.3113 Y14.6009 
G01 X31.3408 Y14.7493 
G00 Z2.5400 
G00 X31.3408 Y9.6693 
G01 Z-0.1778 F254.00 
G01 X31.3408 Y9.8207 F508.00 
G01 X31.3113 Y9.9691 
G01 X31.2534 Y10.1089 
G01 X31.1693 Y10.2348 
G01 X31.0623 Y10.3418 
G01 X30.9364 Y10.4259 
G01 X30.7966 Y10.4838 
G01 X30.6482 Y10.5133 
G01 X30.4968 Y10.5133 
G01 X30.3484 Y10.4838 
G01 X30.2086 Y10.4259 
G01 X30.0827 Y10.3418 
G01 X29.9757 Y10.2348 
G01 X29.8916 Y10.1089 
G01 X29.8337 Y9.9691 
G01 X29.8042 Y9.8207 
G01 X29.8042 Y9.6693 
G01 X29.8337 Y9.5209 
G01 X29.8916 Y9.3811 
G01 X29.9757 Y9.2552 
G01 X30.0827 Y9.1482 
G01 X30.2086 Y9.0641 
G01 X30.3484 Y9.0062 
G01 X30.4968 Y8.9767 
G01 X30.6482 Y8.9767 
G01 X30.7966 Y9.0062 
G01 X30.9364 Y9.0641 
G01 X31.0623 Y9.1482 
G01 X31.1693 Y9.2552 
G01 X31.2534 Y9.3811 
G01 X31.3113 Y9.5209 
G01 X31.3408 Y9.6693 
G00 Z2.5400 
G00 X33.8808 Y9.6693 
G01 Z-0.1778 F254.00 
G01 X33.8808 Y9.8207 F508.00 
G01 X33.8513 Y9.9691 
G01 X33.7934 Y10.1089 
G01 X33.7093 Y10.2348 
G01 X33.6023 Y10.3418 
G01 X33.4764 Y10.4259 
G01 X33.3366 Y10.4838 
G01 X33.1882 Y10.5133 
G01 X33.0368 Y10.5133 
G01 X32.8884 Y10.4838 
G01 X32.7486 Y10.4259 
G01 X32.6227 Y10.3418 
G01 X32.5157 Y10.2348 
G01 X32.4316 Y10.1089 
G01 X32.3737 Y9.9691 
G01 X32.3442 Y9.8207 
G01 X32.3442 Y9.6693 
G01 X32.3737 Y9.5209 
G01 X32.4316 Y9.3811 
G01 X32.5157 Y9.2552 
G01 X32.6227 Y9.1482 
G01 X32.7486 Y9.0641 
G01 X32.8884 Y9.0062 
G01 X33.0368 Y8.9767 
G01 X33.1882 Y8.9767 
G01 X33.3366 Y9.0062 
G01 X33.4764 Y9.0641 
G01 X33.6023 Y9.1482 
G01 X33.7093 Y9.2552 
G01 X33.7934 Y9.3811 
G01 X33.8513 Y9.5209 
G01 X33.8808 Y9.6693 
G00 Z2.5400 
G00 X33.8808 Y12.2093 
G01 Z-0.1778 F254.00 
G01 X33.8808 Y12.3607 F508.00 
G01 X33.8513 Y12.5091 
G01 X33.7934 Y12.6489 
G01 X33.7093 Y12.7748 
G01 X33.6023 Y12.8818 
G01 X33.4764 Y12.9659 
G01 X33.3366 Y13.0238 
G01 X33.1882 Y13.0533 
G01 X33.0368 Y13.0533 
G01 X32.8884 Y13.0238 
G01 X32.7486 Y12.9659 
G01 X32.6227 Y12.8818 
G01 X32.5157 Y12.7748 
G01 X32.4316 Y12.6489 
G01 X32.3737 Y12.5091 
G01 X32.3442 Y12.3607 
G01 X32.3442 Y12.2093 
G01 X32.3737 Y12.0609 
G01 X32.4316 Y11.9211 
G01 X32.5157 Y11.7952 
G01 X32.6227 Y11.6882 
G01 X32.7486 Y11.6041 
G01 X32.8884 Y11.5462 
G01 X33.0368 Y11.5167 
G01 X33.1882 Y11.5167 
G01 X33.3366 Y11.5462 
G01 X33.4764 Y11.6041 
G01 X33.6023 Y11.6882 
G01 X33.7093 Y11.7952 
G01 X33.7934 Y11.9211 
G01 X33.8513 Y12.0609 
G01 X33.8808 Y12.2093 
G00 Z2.5400 
G00 X16.2423 Y73.1007 
G01 Z-0.1778 F254.00 
G01 X17.7577 Y73.1007 F508.00 
G01 X17.7997 Y73.1181 
G01 X17.8319 Y73.1503 
G01 X17.8493 Y73.1923 
G01 X17.8493 Y73.7107 
G01 X21.1507 Y73.7107 
G01 X21.1507 Y69.7623 
G01 X21.1681 Y69.7203 
G01 X21.2003 Y69.6881 
G01 X21.2423 Y69.6707 
G01 X30.1777 Y69.6707 
G01 X30.2197 Y69.6881 
G01 X30.2519 Y69.7203 
G01 X30.2693 Y69.7623 
G01 X30.2693 Y81.2377 
G01 X30.2519 Y81.2797 
G01 X30.2197 Y81.3119 
G01 X30.1777 Y81.3293 
G01 X21.2423 Y81.3293 
G01 X21.2003 Y81.3119 
G01 X21.1681 Y81.2797 
G01 X21.1507 Y81.2377 
G01 X21.1507 Y74.2393 
G01 X17.8493 Y74.2393 
G01 X17.8493 Y74.5077 
G01 X17.8319 Y74.5497 
G01 X17.7997 Y74.5819 
G01 X17.7577 Y74.5993 
G01 X16.6620 Y74.5993 
G01 X15.9748 Y75.2865 
G01 X15.9145 Y75.3213 
G01 X15.8473 Y75.3393 
G01 X9.0338 Y75.3393 
G01 X9.0112 Y75.4821 
G01 X8.9547 Y75.6561 
G01 X8.8716 Y75.8190 
G01 X8.7641 Y75.9670 
G01 X8.6348 Y76.0964 
G01 X8.4868 Y76.2039 
G01 X8.3238 Y76.2869 
G01 X8.1499 Y76.3434 
G01 X7.9692 Y76.3720 
G01 X5.6908 Y76.3720 
G01 X5.5101 Y76.3434 
G01 X5.3362 Y76.2869 
G01 X5.1732 Y76.2039 
G01 X5.0252 Y76.0964 
G01 X4.8959 Y75.9670 
G01 X4.7884 Y75.8190 
G01 X4.7053 Y75.6561 
G01 X4.6488 Y75.4821 
G01 X4.6202 Y75.3015 
G01 X4.6202 Y75.1185 
G01 X4.6488 Y74.9379 
G01 X4.7053 Y74.7639 
G01 X4.7884 Y74.6010 
G01 X4.8959 Y74.4530 
G01 X5.0252 Y74.3236 
G01 X5.1732 Y74.2161 
G01 X5.3362 Y74.1331 
G01 X5.5101 Y74.0766 
G01 X5.6908 Y74.0480 
G01 X7.9692 Y74.0480 
G01 X8.1499 Y74.0766 
G01 X8.3238 Y74.1331 
G01 X8.4868 Y74.2161 
G01 X8.6348 Y74.3236 
G01 X8.7641 Y74.4530 
G01 X8.8716 Y74.6010 
G01 X8.9547 Y74.7639 
G01 X8.9699 Y74.8107 
G01 X15.7030 Y74.8107 
G01 X16.1507 Y74.3630 
G01 X16.1507 Y73.1923 
G01 X16.1681 Y73.1503 
G01 X16.2003 Y73.1181 
G01 X16.2423 Y73.1007 
G00 Z2.5400 
G00 X81.0983 Y74.6263 
G01 Z-0.1778 F254.00 
G01 X79.4017 Y74.6263 F508.00 
G01 X79.2324 Y74.5926 
G01 X79.0729 Y74.5266 
G01 X78.9294 Y74.4307 
G01 X78.8073 Y74.3086 
G01 X78.7114 Y74.1651 
G01 X78.6454 Y74.0056 
G01 X78.6117 Y73.8363 
G01 X78.6117 Y73.6637 
G01 X78.6454 Y73.4944 
G01 X78.6786 Y73.4143 
G01 X74.4643 Y73.4143 
G01 X74.4643 Y73.5727 
G01 X74.4469 Y73.6147 
G01 X74.4147 Y73.6469 
G01 X74.3727 Y73.6643 
G01 X73.9643 Y73.6643 
G01 X73.9643 Y80.6098 
G01 X73.9463 Y80.6770 
G01 X73.9115 Y80.7373 
G01 X73.8623 Y80.7865 
G01 X63.6492 Y90.9996 
G01 X63.6741 Y91.1570 
G01 X63.6741 Y91.3230 
G01 X63.6481 Y91.4868 
G01 X63.5969 Y91.6446 
G01 X63.5215 Y91.7925 
G01 X63.4240 Y91.9267 
G01 X63.3067 Y92.0440 
G01 X63.1725 Y92.1415 
G01 X63.0246 Y92.2169 
G01 X62.8668 Y92.2681 
G01 X62.7030 Y92.2941 
G01 X62.5370 Y92.2941 
G01 X62.3732 Y92.2681 
G01 X62.2154 Y92.2169 
G01 X62.0675 Y92.1415 
G01 X61.9333 Y92.0440 
G01 X61.8160 Y91.9267 
G01 X61.7185 Y91.7925 
G01 X61.6431 Y91.6446 
G01 X61.5919 Y91.4868 
G01 X61.5659 Y91.3230 
G01 X61.5659 Y91.1570 
G01 X61.5919 Y90.9932 
G01 X61.6431 Y90.8354 
G01 X61.7185 Y90.6875 
G01 X61.8160 Y90.5533 
G01 X61.9333 Y90.4360 
G01 X62.0675 Y90.3385 
G01 X62.2154 Y90.2631 
G01 X62.3732 Y90.2119 
G01 X62.5370 Y90.1859 
G01 X62.7030 Y90.1859 
G01 X62.8668 Y90.2119 
G01 X63.0246 Y90.2631 
G01 X63.1725 Y90.3385 
G01 X63.3067 Y90.4360 
G01 X63.3860 Y90.5153 
G01 X73.4357 Y80.4655 
G01 X73.4357 Y73.6643 
G01 X73.1273 Y73.6643 
G01 X73.0853 Y73.6469 
G01 X73.0531 Y73.6147 
G01 X73.0357 Y73.5727 
G01 X73.0357 Y72.7273 
G01 X73.0531 Y72.6853 
G01 X73.0853 Y72.6531 
G01 X73.1273 Y72.6357 
G01 X74.3727 Y72.6357 
G01 X74.4147 Y72.6531 
G01 X74.4469 Y72.6853 
G01 X74.4643 Y72.7273 
G01 X74.4643 Y72.8857 
G01 X79.3414 Y72.8857 
G01 X79.4017 Y72.8737 
G01 X81.0983 Y72.8737 
G01 X81.2676 Y72.9074 
G01 X81.4271 Y72.9734 
G01 X81.5706 Y73.0693 
G01 X81.6927 Y73.1914 
G01 X81.7886 Y73.3349 
G01 X81.8546 Y73.4944 
G01 X81.8883 Y73.6637 
G01 X81.8883 Y73.8363 
G01 X81.8546 Y74.0056 
G01 X81.7886 Y74.1651 
G01 X81.6927 Y74.3086 
G01 X81.5706 Y74.4307 
G01 X81.4271 Y74.5266 
G01 X81.2676 Y74.5926 
G01 X81.0983 Y74.6263 
G00 Z2.5400 
G00 X81.0983 Y77.1263 
G01 Z-0.1778 F254.00 
G01 X79.4017 Y77.1263 F508.00 
G01 X79.2324 Y77.0926 
G01 X79.0729 Y77.0266 
G01 X78.9294 Y76.9307 
G01 X78.8073 Y76.8086 
G01 X78.7114 Y76.6651 
G01 X78.6454 Y76.5056 
G01 X78.6117 Y76.3363 
G01 X78.6117 Y76.1637 
G01 X78.6454 Y75.9944 
G01 X78.7114 Y75.8349 
G01 X78.8073 Y75.6914 
G01 X78.9294 Y75.5693 
G01 X79.0729 Y75.4734 
G01 X79.2324 Y75.4074 
G01 X79.4017 Y75.3737 
G01 X81.0983 Y75.3737 
G01 X81.2676 Y75.4074 
G01 X81.4271 Y75.4734 
G01 X81.5706 Y75.5693 
G01 X81.6927 Y75.6914 
G01 X81.7886 Y75.8349 
G01 X81.8546 Y75.9944 
G01 X81.8883 Y76.1637 
G01 X81.8883 Y76.3363 
G01 X81.8546 Y76.5056 
G01 X81.7886 Y76.6651 
G01 X81.6927 Y76.8086 
G01 X81.5706 Y76.9307 
G01 X81.4271 Y77.0266 
G01 X81.2676 Y77.0926 
G01 X81.0983 Y77.1263 
G00 Z2.5400 
G00 X73.1273 Y70.8357 
G01 Z-0.1778 F254.00 
G01 X74.3727 Y70.8357 F508.00 
G01 X74.4147 Y70.8531 
G01 X74.4469 Y70.8853 
G01 X74.4643 Y70.9273 
G01 X74.4643 Y71.0982 
G01 X78.6247 Y71.0982 
G01 X78.6454 Y70.9944 
G01 X78.7114 Y70.8349 
G01 X78.8073 Y70.6914 
G01 X78.9294 Y70.5693 
G01 X79.0729 Y70.4734 
G01 X79.2324 Y70.4074 
G01 X79.4017 Y70.3737 
G01 X80.7775 Y70.3737 
G01 X81.9607 Y69.1905 
G01 X81.9607 Y59.0970 
G01 X80.7400 Y57.8763 
G01 X79.4017 Y57.8763 
G01 X79.2324 Y57.8426 
G01 X79.0729 Y57.7766 
G01 X78.9294 Y57.6807 
G01 X78.8073 Y57.5586 
G01 X78.7114 Y57.4151 
G01 X78.6749 Y57.3268 
G01 X74.2143 Y57.3268 
G01 X74.2143 Y57.5227 
G01 X74.1969 Y57.5647 
G01 X74.1647 Y57.5969 
G01 X74.1227 Y57.6143 
G01 X72.8773 Y57.6143 
G01 X72.8353 Y57.5969 
G01 X72.8031 Y57.5647 
G01 X72.7857 Y57.5227 
G01 X72.7857 Y56.6773 
G01 X72.8031 Y56.6353 
G01 X72.8353 Y56.6031 
G01 X72.8773 Y56.5857 
G01 X74.1227 Y56.5857 
G01 X74.1647 Y56.6031 
G01 X74.1969 Y56.6353 
G01 X74.2143 Y56.6773 
G01 X74.2143 Y56.7982 
G01 X78.6347 Y56.7982 
G01 X78.6454 Y56.7444 
G01 X78.7114 Y56.5849 
G01 X78.8073 Y56.4414 
G01 X78.9294 Y56.3193 
G01 X79.0729 Y56.2234 
G01 X79.2324 Y56.1574 
G01 X79.4017 Y56.1237 
G01 X81.0983 Y56.1237 
G01 X81.2676 Y56.1574 
G01 X81.4271 Y56.2234 
G01 X81.5706 Y56.3193 
G01 X81.6927 Y56.4414 
G01 X81.7886 Y56.5849 
G01 X81.8546 Y56.7444 
G01 X81.8883 Y56.9137 
G01 X81.8883 Y57.0863 
G01 X81.8546 Y57.2556 
G01 X81.7886 Y57.4151 
G01 X81.6927 Y57.5586 
G01 X81.5706 Y57.6807 
G01 X81.4271 Y57.7766 
G01 X81.3993 Y57.7881 
G01 X82.3873 Y58.7760 
G01 X82.4365 Y58.8252 
G01 X82.4713 Y58.8855 
G01 X82.4893 Y58.9527 
G01 X82.4893 Y69.3348 
G01 X82.4713 Y69.4020 
G01 X82.4365 Y69.4623 
G01 X81.4258 Y70.4729 
G01 X81.5706 Y70.5693 
G01 X81.6927 Y70.6914 
G01 X81.7886 Y70.8349 
G01 X81.8546 Y70.9944 
G01 X81.8883 Y71.1637 
G01 X81.8883 Y71.3363 
G01 X81.8546 Y71.5056 
G01 X81.7886 Y71.6651 
G01 X81.6927 Y71.8086 
G01 X81.5706 Y71.9307 
G01 X81.4271 Y72.0266 
G01 X81.3640 Y72.0527 
G01 X82.3873 Y73.0760 
G01 X82.4365 Y73.1252 
G01 X82.4713 Y73.1855 
G01 X82.4893 Y73.2527 
G01 X82.4893 Y83.4973 
G01 X82.4713 Y83.5645 
G01 X82.4365 Y83.6248 
G01 X81.3640 Y84.6973 
G01 X81.4271 Y84.7234 
G01 X81.5706 Y84.8193 
G01 X81.6927 Y84.9414 
G01 X81.7886 Y85.0849 
G01 X81.8546 Y85.2444 
G01 X81.8883 Y85.4137 
G01 X81.8883 Y85.5863 
G01 X81.8546 Y85.7556 
G01 X81.7886 Y85.9151 
G01 X81.6927 Y86.0586 
G01 X81.5706 Y86.1807 
G01 X81.4271 Y86.2766 
G01 X81.2676 Y86.3426 
G01 X81.0983 Y86.3763 
G01 X79.4017 Y86.3763 
G01 X79.2324 Y86.3426 
G01 X79.0729 Y86.2766 
G01 X78.9294 Y86.1807 
G01 X78.8073 Y86.0586 
G01 X78.7114 Y85.9151 
G01 X78.6593 Y85.7893 
G01 X74.2143 Y85.7893 
G01 X74.2143 Y86.0227 
G01 X74.1969 Y86.0647 
G01 X74.1647 Y86.0969 
G01 X74.1227 Y86.1143 
G01 X72.8773 Y86.1143 
G01 X72.8353 Y86.0969 
G01 X72.8031 Y86.0647 
G01 X72.7857 Y86.0227 
G01 X72.7857 Y85.1773 
G01 X72.8031 Y85.1353 
G01 X72.8353 Y85.1031 
G01 X72.8773 Y85.0857 
G01 X74.1227 Y85.0857 
G01 X74.1647 Y85.1031 
G01 X74.1969 Y85.1353 
G01 X74.2143 Y85.1773 
G01 X74.2143 Y85.2607 
G01 X78.6421 Y85.2607 
G01 X78.6454 Y85.2444 
G01 X78.7114 Y85.0849 
G01 X78.8073 Y84.9414 
G01 X78.9294 Y84.8193 
G01 X79.0729 Y84.7234 
G01 X79.2324 Y84.6574 
G01 X79.4017 Y84.6237 
G01 X80.6900 Y84.6237 
G01 X81.9607 Y83.3530 
G01 X81.9607 Y73.3970 
G01 X80.6900 Y72.1263 
G01 X79.4017 Y72.1263 
G01 X79.2324 Y72.0926 
G01 X79.0729 Y72.0266 
G01 X78.9294 Y71.9307 
G01 X78.8073 Y71.8086 
G01 X78.7114 Y71.6651 
G01 X78.6956 Y71.6268 
G01 X74.4643 Y71.6268 
G01 X74.4643 Y71.7727 
G01 X74.4469 Y71.8147 
G01 X74.4147 Y71.8469 
G01 X74.3727 Y71.8643 
G01 X73.1273 Y71.8643 
G01 X73.0853 Y71.8469 
G01 X73.0531 Y71.8147 
G01 X73.0357 Y71.7727 
G01 X73.0357 Y70.9273 
G01 X73.0531 Y70.8853 
G01 X73.0853 Y70.8531 
G01 X73.1273 Y70.8357 
G00 Z2.5400 
G00 X81.0983 Y62.8763 
G01 Z-0.1778 F254.00 
G01 X79.4017 Y62.8763 F508.00 
G01 X79.2324 Y62.8426 
G01 X79.0729 Y62.7766 
G01 X78.9294 Y62.6807 
G01 X78.8073 Y62.5586 
G01 X78.7114 Y62.4151 
G01 X78.6454 Y62.2556 
G01 X78.6117 Y62.0863 
G01 X78.6117 Y61.9137 
G01 X78.6454 Y61.7444 
G01 X78.7114 Y61.5849 
G01 X78.8073 Y61.4414 
G01 X78.9294 Y61.3193 
G01 X79.0729 Y61.2234 
G01 X79.2324 Y61.1574 
G01 X79.4017 Y61.1237 
G01 X81.0983 Y61.1237 
G01 X81.2676 Y61.1574 
G01 X81.4271 Y61.2234 
G01 X81.5706 Y61.3193 
G01 X81.6927 Y61.4414 
G01 X81.7886 Y61.5849 
G01 X81.8546 Y61.7444 
G01 X81.8883 Y61.9137 
G01 X81.8883 Y62.0863 
G01 X81.8546 Y62.2556 
G01 X81.7886 Y62.4151 
G01 X81.6927 Y62.5586 
G01 X81.5706 Y62.6807 
G01 X81.4271 Y62.7766 
G01 X81.2676 Y62.8426 
G01 X81.0983 Y62.8763 
G00 Z2.5400 
G00 X72.8773 Y58.3857 
G01 Z-0.1778 F254.00 
G01 X74.1227 Y58.3857 F508.00 
G01 X74.1647 Y58.4031 
G01 X74.1969 Y58.4353 
G01 X74.2143 Y58.4773 
G01 X74.2143 Y58.7232 
G01 X79.0735 Y58.7232 
G01 X79.2324 Y58.6574 
G01 X79.4017 Y58.6237 
G01 X81.0983 Y58.6237 
G01 X81.2676 Y58.6574 
G01 X81.4271 Y58.7234 
G01 X81.5706 Y58.8193 
G01 X81.6927 Y58.9414 
G01 X81.7886 Y59.0849 
G01 X81.8546 Y59.2444 
G01 X81.8883 Y59.4137 
G01 X81.8883 Y59.5863 
G01 X81.8546 Y59.7556 
G01 X81.7886 Y59.9151 
G01 X81.6927 Y60.0586 
G01 X81.5706 Y60.1807 
G01 X81.4271 Y60.2766 
G01 X81.2676 Y60.3426 
G01 X81.0983 Y60.3763 
G01 X79.4017 Y60.3763 
G01 X79.2324 Y60.3426 
G01 X79.0729 Y60.2766 
G01 X78.9294 Y60.1807 
G01 X78.8073 Y60.0586 
G01 X78.7114 Y59.9151 
G01 X78.6454 Y59.7556 
G01 X78.6117 Y59.5863 
G01 X78.6117 Y59.4137 
G01 X78.6439 Y59.2518 
G01 X74.2143 Y59.2518 
G01 X74.2143 Y59.3227 
G01 X74.1969 Y59.3647 
G01 X74.1647 Y59.3969 
G01 X74.1227 Y59.4143 
G01 X73.8268 Y59.4143 
G01 X73.8268 Y63.4223 
G01 X73.8088 Y63.4895 
G01 X73.7740 Y63.5498 
G01 X73.7248 Y63.5990 
G01 X64.7518 Y72.5720 
G01 X64.7518 Y86.2473 
G01 X64.7338 Y86.3145 
G01 X64.6990 Y86.3748 
G01 X64.6498 Y86.4240 
G01 X63.2320 Y87.8417 
G01 X63.3067 Y87.8960 
G01 X63.4240 Y88.0133 
G01 X63.5215 Y88.1475 
G01 X63.5969 Y88.2954 
G01 X63.6481 Y88.4532 
G01 X63.6741 Y88.6170 
G01 X63.6741 Y88.7830 
G01 X63.6481 Y88.9468 
G01 X63.5969 Y89.1046 
G01 X63.5215 Y89.2525 
G01 X63.4240 Y89.3867 
G01 X63.3067 Y89.5040 
G01 X63.1725 Y89.6015 
G01 X63.0246 Y89.6769 
G01 X62.8668 Y89.7281 
G01 X62.7030 Y89.7541 
G01 X62.5370 Y89.7541 
G01 X62.3732 Y89.7281 
G01 X62.2154 Y89.6769 
G01 X62.0675 Y89.6015 
G01 X61.9333 Y89.5040 
G01 X61.8160 Y89.3867 
G01 X61.7185 Y89.2525 
G01 X61.6431 Y89.1046 
G01 X61.5919 Y88.9468 
G01 X61.5659 Y88.7830 
G01 X61.5659 Y88.6170 
G01 X61.5919 Y88.4532 
G01 X61.6431 Y88.2954 
G01 X61.7185 Y88.1475 
G01 X61.8160 Y88.0133 
G01 X61.9333 Y87.8960 
G01 X62.0675 Y87.7985 
G01 X62.2154 Y87.7231 
G01 X62.3732 Y87.6719 
G01 X62.5370 Y87.6459 
G01 X62.6803 Y87.6459 
G01 X64.2232 Y86.1030 
G01 X64.2232 Y72.4277 
G01 X64.2412 Y72.3605 
G01 X64.2760 Y72.3002 
G01 X73.2982 Y63.2780 
G01 X73.2982 Y59.4143 
G01 X72.8773 Y59.4143 
G01 X72.8353 Y59.3969 
G01 X72.8031 Y59.3647 
G01 X72.7857 Y59.3227 
G01 X72.7857 Y58.4773 
G01 X72.8031 Y58.4353 
G01 X72.8353 Y58.4031 
G01 X72.8773 Y58.3857 
G00 Z2.5400 
G00 X17.7577 Y93.3993 
G01 Z-0.1778 F254.00 
G01 X16.2423 Y93.3993 F508.00 
G01 X16.2003 Y93.3819 
G01 X16.1681 Y93.3497 
G01 X16.1507 Y93.3077 
G01 X16.1507 Y92.8018 
G01 X8.9027 Y92.8018 
G01 X8.8355 Y92.7838 
G01 X8.7752 Y92.7490 
G01 X7.6383 Y91.6120 
G01 X5.6908 Y91.6120 
G01 X5.5101 Y91.5834 
G01 X5.3362 Y91.5269 
G01 X5.1732 Y91.4439 
G01 X5.0252 Y91.3364 
G01 X4.8959 Y91.2070 
G01 X4.7884 Y91.0590 
G01 X4.7053 Y90.8961 
G01 X4.6488 Y90.7221 
G01 X4.6202 Y90.5415 
G01 X4.6202 Y90.3585 
G01 X4.6488 Y90.1779 
G01 X4.7053 Y90.0039 
G01 X4.7884 Y89.8410 
G01 X4.8959 Y89.6930 
G01 X5.0252 Y89.5636 
G01 X5.1732 Y89.4561 
G01 X5.3362 Y89.3731 
G01 X5.5101 Y89.3166 
G01 X5.6908 Y89.2880 
G01 X6.4732 Y89.2880 
G01 X6.4732 Y88.5220 
G01 X4.1002 Y86.1490 
G01 X4.0510 Y86.0998 
G01 X4.0162 Y86.0395 
G01 X3.9982 Y85.9723 
G01 X3.9982 Y82.7402 
G01 X4.0162 Y82.6730 
G01 X4.0510 Y82.6127 
G01 X5.3101 Y81.3536 
G01 X5.1732 Y81.2839 
G01 X5.0252 Y81.1764 
G01 X4.8959 Y81.0470 
G01 X4.7884 Y80.8990 
G01 X4.7053 Y80.7361 
G01 X4.6488 Y80.5621 
G01 X4.6202 Y80.3815 
G01 X4.6202 Y80.1985 
G01 X4.6488 Y80.0179 
G01 X4.7053 Y79.8439 
G01 X4.7884 Y79.6810 
G01 X4.8959 Y79.5330 
G01 X5.0252 Y79.4036 
G01 X5.1732 Y79.2961 
G01 X5.3362 Y79.2131 
G01 X5.5101 Y79.1566 
G01 X5.6908 Y79.1279 
G01 X7.2542 Y79.1279 
G01 X4.1002 Y75.9740 
G01 X4.0510 Y75.9248 
G01 X4.0162 Y75.8645 
G01 X3.9982 Y75.7973 
G01 X3.9982 Y72.7027 
G01 X4.0162 Y72.6355 
G01 X4.0510 Y72.5752 
G01 X5.3989 Y71.2273 
G01 X5.3362 Y71.2069 
G01 X5.1732 Y71.1239 
G01 X5.0252 Y71.0164 
G01 X4.8959 Y70.8870 
G01 X4.7884 Y70.7390 
G01 X4.7053 Y70.5761 
G01 X4.6488 Y70.4021 
G01 X4.6202 Y70.2215 
G01 X4.6202 Y70.0385 
G01 X4.6488 Y69.8579 
G01 X4.7053 Y69.6839 
G01 X4.7884 Y69.5210 
G01 X4.8959 Y69.3730 
G01 X5.0252 Y69.2436 
G01 X5.1732 Y69.1361 
G01 X5.3362 Y69.0531 
G01 X5.5101 Y68.9966 
G01 X5.6908 Y68.9680 
G01 X7.9692 Y68.9680 
G01 X8.1499 Y68.9966 
G01 X8.1724 Y69.0039 
G01 X11.9377 Y65.2385 
G01 X11.9980 Y65.2037 
G01 X12.0652 Y65.1857 
G01 X16.4007 Y65.1857 
G01 X16.4007 Y64.7423 
G01 X16.4181 Y64.7003 
G01 X16.4503 Y64.6681 
G01 X16.4923 Y64.6507 
G01 X18.0077 Y64.6507 
G01 X18.0497 Y64.6681 
G01 X18.0819 Y64.7003 
G01 X18.0993 Y64.7423 
G01 X18.0993 Y66.0577 
G01 X18.0819 Y66.0997 
G01 X18.0497 Y66.1319 
G01 X18.0077 Y66.1493 
G01 X16.4923 Y66.1493 
G01 X16.4503 Y66.1319 
G01 X16.4181 Y66.0997 
G01 X16.4007 Y66.0577 
G01 X16.4007 Y65.7143 
G01 X12.2095 Y65.7143 
G01 X8.6575 Y69.2663 
G01 X8.7641 Y69.3730 
G01 X8.8716 Y69.5210 
G01 X8.9547 Y69.6839 
G01 X9.0112 Y69.8579 
G01 X9.0398 Y70.0385 
G01 X9.0398 Y70.2215 
G01 X9.0112 Y70.4021 
G01 X8.9547 Y70.5761 
G01 X8.8716 Y70.7390 
G01 X8.7641 Y70.8870 
G01 X8.6348 Y71.0164 
G01 X8.4868 Y71.1239 
G01 X8.3238 Y71.2069 
G01 X8.1499 Y71.2634 
G01 X7.9692 Y71.2920 
G01 X6.0817 Y71.2920 
G01 X4.5268 Y72.8470 
G01 X4.5268 Y75.6530 
G01 X7.7687 Y78.8950 
G01 X8.6377 Y78.0260 
G01 X8.6980 Y77.9912 
G01 X8.7652 Y77.9732 
G01 X16.1507 Y77.9732 
G01 X16.1507 Y77.4923 
G01 X16.1681 Y77.4503 
G01 X16.2003 Y77.4181 
G01 X16.2423 Y77.4007 
G01 X17.7577 Y77.4007 
G01 X17.7997 Y77.4181 
G01 X17.8319 Y77.4503 
G01 X17.8493 Y77.4923 
G01 X17.8493 Y78.8077 
G01 X17.8319 Y78.8497 
G01 X17.7997 Y78.8819 
G01 X17.7577 Y78.8993 
G01 X16.2423 Y78.8993 
G01 X16.2003 Y78.8819 
G01 X16.1681 Y78.8497 
G01 X16.1507 Y78.8077 
G01 X16.1507 Y78.5018 
G01 X8.9095 Y78.5018 
G01 X8.2290 Y79.1823 
G01 X8.3238 Y79.2131 
G01 X8.4868 Y79.2961 
G01 X8.6348 Y79.4036 
G01 X8.7641 Y79.5330 
G01 X8.8716 Y79.6810 
G01 X8.9547 Y79.8439 
G01 X9.0112 Y80.0179 
G01 X9.0398 Y80.1985 
G01 X9.0398 Y80.3815 
G01 X9.0112 Y80.5621 
G01 X8.9547 Y80.7361 
G01 X8.8716 Y80.8990 
G01 X8.7641 Y81.0470 
G01 X8.6348 Y81.1764 
G01 X8.4868 Y81.2839 
G01 X8.3238 Y81.3669 
G01 X8.1499 Y81.4234 
G01 X7.9692 Y81.4520 
G01 X5.9592 Y81.4520 
G01 X4.5268 Y82.8845 
G01 X4.5268 Y85.8280 
G01 X6.9490 Y88.2502 
G01 X6.9838 Y88.3105 
G01 X7.0018 Y88.3777 
G01 X7.0018 Y89.2880 
G01 X7.9692 Y89.2880 
G01 X8.1499 Y89.3166 
G01 X8.3238 Y89.3731 
G01 X8.4868 Y89.4561 
G01 X8.6348 Y89.5636 
G01 X8.7641 Y89.6930 
G01 X8.8716 Y89.8410 
G01 X8.9547 Y90.0039 
G01 X9.0112 Y90.1779 
G01 X9.0398 Y90.3585 
G01 X9.0398 Y90.5415 
G01 X9.0112 Y90.7221 
G01 X8.9547 Y90.8961 
G01 X8.8716 Y91.0590 
G01 X8.7641 Y91.2070 
G01 X8.6348 Y91.3364 
G01 X8.4868 Y91.4439 
G01 X8.3238 Y91.5269 
G01 X8.3064 Y91.5326 
G01 X9.0470 Y92.2732 
G01 X16.1507 Y92.2732 
G01 X16.1507 Y91.9923 
G01 X16.1681 Y91.9503 
G01 X16.2003 Y91.9181 
G01 X16.2423 Y91.9007 
G01 X17.7577 Y91.9007 
G01 X17.7997 Y91.9181 
G01 X17.8319 Y91.9503 
G01 X17.8493 Y91.9923 
G01 X17.8493 Y93.3077 
G01 X17.8319 Y93.3497 
G01 X17.7997 Y93.3819 
G01 X17.7577 Y93.3993 
G00 Z2.5400 
G00 X56.6545 Y4.7925 
G01 Z-0.1778 F254.00 
G01 X56.6545 Y4.2518 F508.00 
G01 X51.9143 Y4.2518 
G01 X51.9143 Y4.3727 
G01 X51.8969 Y4.4147 
G01 X51.8647 Y4.4469 
G01 X51.8227 Y4.4643 
G01 X51.5518 Y4.4643 
G01 X51.5518 Y7.6057 
G01 X51.8727 Y7.6057 
G01 X51.9147 Y7.6231 
G01 X51.9469 Y7.6553 
G01 X51.9643 Y7.6973 
G01 X51.9643 Y8.1405 
G01 X53.4595 Y9.6357 
G01 X55.0057 Y9.6357 
G01 X55.0057 Y8.3773 
G01 X55.0231 Y8.3353 
G01 X55.0553 Y8.3031 
G01 X55.0973 Y8.2857 
G01 X56.9227 Y8.2857 
G01 X56.9647 Y8.3031 
G01 X56.9969 Y8.3353 
G01 X57.0143 Y8.3773 
G01 X57.0143 Y11.6227 
G01 X56.9969 Y11.6647 
G01 X56.9647 Y11.6969 
G01 X56.9227 Y11.7143 
G01 X55.0973 Y11.7143 
G01 X55.0553 Y11.6969 
G01 X55.0231 Y11.6647 
G01 X55.0057 Y11.6227 
G01 X55.0057 Y10.1643 
G01 X53.3152 Y10.1643 
G01 X53.2480 Y10.1463 
G01 X53.1877 Y10.1115 
G01 X51.8995 Y8.8232 
G01 X51.8727 Y8.8343 
G01 X50.2273 Y8.8343 
G01 X50.1853 Y8.8169 
G01 X50.1531 Y8.7847 
G01 X50.1357 Y8.7427 
G01 X50.1357 Y7.6973 
G01 X50.1531 Y7.6553 
G01 X50.1853 Y7.6231 
G01 X50.2273 Y7.6057 
G01 X51.0232 Y7.6057 
G01 X51.0232 Y4.4643 
G01 X50.9773 Y4.4643 
G01 X50.9353 Y4.4469 
G01 X50.9031 Y4.4147 
G01 X50.8857 Y4.3727 
G01 X50.8857 Y3.1273 
G01 X50.9031 Y3.0853 
G01 X50.9353 Y3.0531 
G01 X50.9773 Y3.0357 
G01 X51.8227 Y3.0357 
G01 X51.8647 Y3.0531 
G01 X51.8969 Y3.0853 
G01 X51.9143 Y3.1273 
G01 X51.9143 Y3.7232 
G01 X56.6545 Y3.7232 
G01 X56.6545 Y3.2075 
G01 X56.6862 Y3.0480 
G01 X56.7485 Y2.8978 
G01 X56.8388 Y2.7626 
G01 X56.9538 Y2.6476 
G01 X57.0890 Y2.5573 
G01 X57.2392 Y2.4950 
G01 X57.3987 Y2.4633 
G01 X57.5613 Y2.4633 
G01 X57.7208 Y2.4950 
G01 X57.8710 Y2.5573 
G01 X58.0062 Y2.6476 
G01 X58.1212 Y2.7626 
G01 X58.2115 Y2.8978 
G01 X58.2738 Y3.0480 
G01 X58.3055 Y3.2075 
G01 X58.3055 Y4.7925 
G01 X58.2738 Y4.9520 
G01 X58.2115 Y5.1022 
G01 X58.1212 Y5.2374 
G01 X58.0062 Y5.3524 
G01 X57.8710 Y5.4427 
G01 X57.7208 Y5.5050 
G01 X57.5613 Y5.5367 
G01 X57.3987 Y5.5367 
G01 X57.2392 Y5.5050 
G01 X57.0890 Y5.4427 
G01 X56.9538 Y5.3524 
G01 X56.8388 Y5.2374 
G01 X56.7485 Y5.1022 
G01 X56.6862 Y4.9520 
G01 X56.6545 Y4.7925 
G00 Z2.5400 
G00 X46.8727 Y13.3143 
G01 Z-0.1778 F254.00 
G01 X44.4018 Y13.3143 F508.00 
G01 X44.4018 Y17.3357 
G01 X44.8727 Y17.3357 
G01 X44.9147 Y17.3531 
G01 X44.9469 Y17.3853 
G01 X44.9643 Y17.4273 
G01 X44.9643 Y18.2727 
G01 X44.9469 Y18.3147 
G01 X44.9147 Y18.3469 
G01 X44.8727 Y18.3643 
G01 X44.2970 Y18.3643 
G01 X43.4393 Y19.2220 
G01 X43.4393 Y20.1030 
G01 X47.6845 Y24.3482 
G01 X53.1030 Y24.3482 
G01 X53.6470 Y23.8042 
G01 X53.6470 Y22.1236 
G01 X53.6644 Y22.0816 
G01 X53.6966 Y22.0494 
G01 X53.7386 Y22.0320 
G01 X55.2826 Y22.0320 
G01 X55.3246 Y22.0494 
G01 X55.3568 Y22.0816 
G01 X55.3742 Y22.1236 
G01 X55.3742 Y22.8357 
G01 X57.7780 Y22.8357 
G01 X64.0857 Y16.5280 
G01 X64.0857 Y15.8773 
G01 X64.1031 Y15.8353 
G01 X64.1353 Y15.8031 
G01 X64.1773 Y15.7857 
G01 X65.4227 Y15.7857 
G01 X65.4647 Y15.8031 
G01 X65.4969 Y15.8353 
G01 X65.5143 Y15.8773 
G01 X65.5143 Y16.7405 
G01 X65.8345 Y17.0607 
G01 X76.3405 Y17.0607 
G01 X77.8002 Y15.6010 
G01 X77.8605 Y15.5662 
G01 X77.9277 Y15.5482 
G01 X79.4857 Y15.5482 
G01 X79.4857 Y14.4773 
G01 X79.5031 Y14.4353 
G01 X79.5353 Y14.4031 
G01 X79.5773 Y14.3857 
G01 X82.4227 Y14.3857 
G01 X82.4647 Y14.4031 
G01 X82.4969 Y14.4353 
G01 X82.5143 Y14.4773 
G01 X82.5143 Y16.9227 
G01 X82.4969 Y16.9647 
G01 X82.4647 Y16.9969 
G01 X82.4227 Y17.0143 
G01 X79.5773 Y17.0143 
G01 X79.5353 Y16.9969 
G01 X79.5031 Y16.9647 
G01 X79.4857 Y16.9227 
G01 X79.4857 Y16.0768 
G01 X78.0720 Y16.0768 
G01 X76.6615 Y17.4873 
G01 X76.6123 Y17.5365 
G01 X76.5520 Y17.5713 
G01 X76.4848 Y17.5893 
G01 X65.6902 Y17.5893 
G01 X65.6230 Y17.5713 
G01 X65.5627 Y17.5365 
G01 X65.2405 Y17.2143 
G01 X64.1773 Y17.2143 
G01 X64.1558 Y17.2054 
G01 X58.0990 Y23.2623 
G01 X58.0498 Y23.3115 
G01 X57.9895 Y23.3463 
G01 X57.9223 Y23.3643 
G01 X55.3742 Y23.3643 
G01 X55.3742 Y24.1756 
G01 X55.3568 Y24.2176 
G01 X55.3246 Y24.2498 
G01 X55.2826 Y24.2672 
G01 X53.9316 Y24.2672 
G01 X53.3748 Y24.8240 
G01 X53.3145 Y24.8588 
G01 X53.2473 Y24.8768 
G01 X47.5402 Y24.8768 
G01 X47.4730 Y24.8588 
G01 X47.4127 Y24.8240 
G01 X47.3635 Y24.7748 
G01 X42.9635 Y20.3748 
G01 X42.9287 Y20.3145 
G01 X42.9107 Y20.2473 
G01 X42.9107 Y19.0777 
G01 X42.9287 Y19.0105 
G01 X42.9635 Y18.9502 
G01 X43.0127 Y18.9010 
G01 X43.5760 Y18.3377 
G01 X43.5531 Y18.3147 
G01 X43.5357 Y18.2727 
G01 X43.5357 Y17.4273 
G01 X43.5531 Y17.3853 
G01 X43.5853 Y17.3531 
G01 X43.6273 Y17.3357 
G01 X43.8732 Y17.3357 
G01 X43.8732 Y13.3143 
G01 X40.6273 Y13.3143 
G01 X40.5853 Y13.2969 
G01 X40.5531 Y13.2647 
G01 X40.5357 Y13.2227 
G01 X40.5357 Y9.1470 
G01 X40.0436 Y8.6548 
G01 X39.9497 Y8.6800 
G01 X39.8003 Y8.6800 
G01 X39.6560 Y8.6413 
G01 X39.5265 Y8.5666 
G01 X39.4209 Y8.4610 
G01 X39.3462 Y8.3315 
G01 X39.3075 Y8.1872 
G01 X39.3075 Y8.0378 
G01 X39.3462 Y7.8935 
G01 X39.4209 Y7.7640 
G01 X39.5265 Y7.6584 
G01 X39.6560 Y7.5837 
G01 X39.8003 Y7.5450 
G01 X39.9497 Y7.5450 
G01 X40.0940 Y7.5837 
G01 X40.2234 Y7.6584 
G01 X40.3291 Y7.7640 
G01 X40.4038 Y7.8935 
G01 X40.4425 Y8.0378 
G01 X40.4425 Y8.1872 
G01 X40.4173 Y8.2811 
G01 X40.5357 Y8.3994 
G01 X40.5357 Y7.7773 
G01 X40.5531 Y7.7353 
G01 X40.5853 Y7.7031 
G01 X40.6273 Y7.6857 
G01 X46.8727 Y7.6857 
G01 X46.9147 Y7.7031 
G01 X46.9469 Y7.7353 
G01 X46.9643 Y7.7773 
G01 X46.9643 Y13.2227 
G01 X46.9469 Y13.2647 
G01 X46.9147 Y13.2969 
G01 X46.8727 Y13.3143 
G00 Z2.5400 
G00 X73.3857 Y16.9227 
G01 Z-0.1778 F254.00 
G01 X73.3857 Y14.4773 F508.00 
G01 X73.4031 Y14.4353 
G01 X73.4353 Y14.4031 
G01 X73.4773 Y14.3857 
G01 X76.3227 Y14.3857 
G01 X76.3647 Y14.4031 
G01 X76.3969 Y14.4353 
G01 X76.4143 Y14.4773 
G01 X76.4143 Y16.9227 
G01 X76.3969 Y16.9647 
G01 X76.3647 Y16.9969 
G01 X76.3227 Y17.0143 
G01 X73.4773 Y17.0143 
G01 X73.4353 Y16.9969 
G01 X73.4031 Y16.9647 
G01 X73.3857 Y16.9227 
G00 Z2.5400 
G00 X73.3857 Y5.5227 
G01 Z-0.1778 F254.00 
G01 X73.3857 Y3.0773 F508.00 
G01 X73.4031 Y3.0353 
G01 X73.4353 Y3.0031 
G01 X73.4773 Y2.9857 
G01 X76.3227 Y2.9857 
G01 X76.3647 Y3.0031 
G01 X76.3969 Y3.0353 
G01 X76.4143 Y3.0773 
G01 X76.4143 Y5.5227 
G01 X76.3969 Y5.5647 
G01 X76.3647 Y5.5969 
G01 X76.3227 Y5.6143 
G01 X73.4773 Y5.6143 
G01 X73.4353 Y5.5969 
G01 X73.4031 Y5.5647 
G01 X73.3857 Y5.5227 
G00 Z2.5400 
G00 X79.4857 Y5.5227 
G01 Z-0.1778 F254.00 
G01 X79.4857 Y3.0773 F508.00 
G01 X79.5031 Y3.0353 
G01 X79.5353 Y3.0031 
G01 X79.5773 Y2.9857 
G01 X82.4227 Y2.9857 
G01 X82.4647 Y3.0031 
G01 X82.4969 Y3.0353 
G01 X82.5143 Y3.0773 
G01 X82.5143 Y5.5227 
G01 X82.4969 Y5.5647 
G01 X82.4647 Y5.5969 
G01 X82.4227 Y5.6143 
G01 X80.1470 Y5.6143 
G01 X78.1248 Y7.6365 
G01 X78.0645 Y7.6713 
G01 X77.9973 Y7.6893 
G01 X68.6493 Y7.6893 
G01 X68.6493 Y8.2577 
G01 X68.6319 Y8.2997 
G01 X68.5997 Y8.3319 
G01 X68.5577 Y8.3493 
G01 X67.2423 Y8.3493 
G01 X67.2003 Y8.3319 
G01 X67.1681 Y8.2997 
G01 X67.1507 Y8.2577 
G01 X67.1507 Y6.7423 
G01 X67.1681 Y6.7003 
G01 X67.2003 Y6.6681 
G01 X67.2423 Y6.6507 
G01 X68.5577 Y6.6507 
G01 X68.5997 Y6.6681 
G01 X68.6319 Y6.7003 
G01 X68.6493 Y6.7423 
G01 X68.6493 Y7.1607 
G01 X77.8530 Y7.1607 
G01 X79.4873 Y5.5265 
G01 X79.4857 Y5.5227 
G00 Z2.5400 
G00 X50.2307 Y17.8764 
G01 Z-0.1778 F254.00 
G01 X50.2307 Y15.8244 F508.00 
G01 X50.2481 Y15.7824 
G01 X50.2803 Y15.7502 
G01 X50.3223 Y15.7328 
G01 X54.1777 Y15.7328 
G01 X54.2197 Y15.7502 
G01 X54.2519 Y15.7824 
G01 X54.2693 Y15.8244 
G01 X54.2693 Y17.8764 
G01 X54.2519 Y17.9184 
G01 X54.2197 Y17.9506 
G01 X54.1777 Y17.9680 
G01 X50.3223 Y17.9680 
G01 X50.2803 Y17.9506 
G01 X50.2481 Y17.9184 
G01 X50.2307 Y17.8764 
G00 Z2.5400 
G00 X59.9857 Y11.6227 
G01 Z-0.1778 F254.00 
G01 X59.9857 Y8.3773 F508.00 
G01 X60.0031 Y8.3353 
G01 X60.0353 Y8.3031 
G01 X60.0773 Y8.2857 
G01 X61.9027 Y8.2857 
G01 X61.9447 Y8.3031 
G01 X61.9769 Y8.3353 
G01 X61.9943 Y8.3773 
G01 X61.9943 Y8.7194 
G01 X62.8507 Y7.8630 
G01 X62.8507 Y7.2620 
G01 X60.7273 Y5.1385 
G01 X60.6612 Y5.2374 
G01 X60.5462 Y5.3524 
G01 X60.4110 Y5.4427 
G01 X60.2608 Y5.5050 
G01 X60.1013 Y5.5367 
G01 X59.9387 Y5.5367 
G01 X59.7792 Y5.5050 
G01 X59.6290 Y5.4427 
G01 X59.4938 Y5.3524 
G01 X59.3788 Y5.2374 
G01 X59.2885 Y5.1022 
G01 X59.2262 Y4.9520 
G01 X59.1945 Y4.7925 
G01 X59.1945 Y3.2075 
G01 X59.2262 Y3.0480 
G01 X59.2885 Y2.8978 
G01 X59.3788 Y2.7626 
G01 X59.4938 Y2.6476 
G01 X59.6290 Y2.5573 
G01 X59.7792 Y2.4950 
G01 X59.9387 Y2.4633 
G01 X60.1013 Y2.4633 
G01 X60.2608 Y2.4950 
G01 X60.4110 Y2.5573 
G01 X60.5462 Y2.6476 
G01 X60.6612 Y2.7626 
G01 X60.7515 Y2.8978 
G01 X60.8138 Y3.0480 
G01 X60.8455 Y3.2075 
G01 X60.8455 Y4.5092 
G01 X62.9870 Y6.6507 
G01 X64.2577 Y6.6507 
G01 X64.2997 Y6.6681 
G01 X64.3319 Y6.7003 
G01 X64.3493 Y6.7423 
G01 X64.3493 Y8.2577 
G01 X64.3319 Y8.2997 
G01 X64.2997 Y8.3319 
G01 X64.2577 Y8.3493 
G01 X63.1120 Y8.3493 
G01 X61.9943 Y9.4670 
G01 X61.9943 Y11.6227 
G01 X61.9769 Y11.6647 
G01 X61.9447 Y11.6969 
G01 X61.9027 Y11.7143 
G01 X60.0773 Y11.7143 
G01 X60.0353 Y11.6969 
G01 X60.0031 Y11.6647 
G01 X59.9857 Y11.6227 
G00 Z2.5400 
G00 X41.5857 Y4.8727 
G01 Z-0.1778 F254.00 
G01 X41.5857 Y3.6273 F508.00 
G01 X41.6031 Y3.5853 
G01 X41.6353 Y3.5531 
G01 X41.6773 Y3.5357 
G01 X42.5227 Y3.5357 
G01 X42.5647 Y3.5531 
G01 X42.5969 Y3.5853 
G01 X42.6143 Y3.6273 
G01 X42.6143 Y4.2905 
G01 X44.2470 Y5.9232 
G01 X46.7848 Y5.9232 
G01 X46.8520 Y5.9412 
G01 X46.9123 Y5.9760 
G01 X49.3873 Y8.4510 
G01 X49.4365 Y8.5002 
G01 X49.4713 Y8.5605 
G01 X49.4893 Y8.6277 
G01 X49.4893 Y10.7530 
G01 X50.9020 Y12.1657 
G01 X51.8727 Y12.1657 
G01 X51.9147 Y12.1831 
G01 X51.9469 Y12.2153 
G01 X51.9643 Y12.2573 
G01 X51.9643 Y13.3027 
G01 X51.9469 Y13.3447 
G01 X51.9147 Y13.3769 
G01 X51.8727 Y13.3943 
G01 X50.9170 Y13.3943 
G01 X50.1768 Y14.1345 
G01 X50.1768 Y22.0320 
G01 X50.7106 Y22.0320 
G01 X50.7526 Y22.0494 
G01 X50.7848 Y22.0816 
G01 X50.8022 Y22.1236 
G01 X50.8022 Y24.1756 
G01 X50.7848 Y24.2176 
G01 X50.7526 Y24.2498 
G01 X50.7106 Y24.2672 
G01 X49.1666 Y24.2672 
G01 X49.1246 Y24.2498 
G01 X49.0924 Y24.2176 
G01 X49.0750 Y24.1756 
G01 X49.0750 Y22.1236 
G01 X49.0924 Y22.0816 
G01 X49.1246 Y22.0494 
G01 X49.1666 Y22.0320 
G01 X49.6482 Y22.0320 
G01 X49.6482 Y13.9902 
G01 X49.6662 Y13.9230 
G01 X49.7010 Y13.8627 
G01 X50.1864 Y13.3774 
G01 X50.1531 Y13.3447 
G01 X50.1357 Y13.3027 
G01 X50.1357 Y12.2573 
G01 X50.1531 Y12.2153 
G01 X50.1785 Y12.1898 
G01 X49.0135 Y11.0248 
G01 X48.9787 Y10.9645 
G01 X48.9607 Y10.8973 
G01 X48.9607 Y8.7720 
G01 X46.6405 Y6.4518 
G01 X44.1027 Y6.4518 
G01 X44.0355 Y6.4338 
G01 X43.9752 Y6.3990 
G01 X43.9260 Y6.3498 
G01 X42.5353 Y4.9591 
G01 X42.5227 Y4.9643 
G01 X41.6773 Y4.9643 
G01 X41.6353 Y4.9469 
G01 X41.6031 Y4.9147 
G01 X41.5857 Y4.8727 
G00 Z2.5400 
G00 X43.3857 Y4.8727 
G01 Z-0.1778 F254.00 
G01 X43.3857 Y3.6273 F508.00 
G01 X43.4031 Y3.5853 
G01 X43.4353 Y3.5531 
G01 X43.4773 Y3.5357 
G01 X44.3227 Y3.5357 
G01 X44.3647 Y3.5531 
G01 X44.3969 Y3.5853 
G01 X44.4143 Y3.6273 
G01 X44.4143 Y3.8607 
G01 X44.6992 Y3.8607 
G01 X44.7515 Y3.8084 
G01 X44.8810 Y3.7337 
G01 X45.0253 Y3.6950 
G01 X45.1747 Y3.6950 
G01 X45.3190 Y3.7337 
G01 X45.4485 Y3.8084 
G01 X45.5008 Y3.8607 
G01 X49.0857 Y3.8607 
G01 X49.0857 Y3.1273 
G01 X49.1031 Y3.0853 
G01 X49.1353 Y3.0531 
G01 X49.1773 Y3.0357 
G01 X50.0227 Y3.0357 
G01 X50.0647 Y3.0531 
G01 X50.0969 Y3.0853 
G01 X50.1143 Y3.1273 
G01 X50.1143 Y4.3727 
G01 X50.0969 Y4.4147 
G01 X50.0647 Y4.4469 
G01 X50.0227 Y4.4643 
G01 X49.1773 Y4.4643 
G01 X49.1353 Y4.4469 
G01 X49.1031 Y4.4147 
G01 X49.0926 Y4.3893 
G01 X45.6535 Y4.3893 
G01 X45.6288 Y4.4815 
G01 X45.5541 Y4.6109 
G01 X45.4485 Y4.7166 
G01 X45.3190 Y4.7913 
G01 X45.1747 Y4.8300 
G01 X45.0253 Y4.8300 
G01 X44.8810 Y4.7913 
G01 X44.7515 Y4.7166 
G01 X44.6459 Y4.6109 
G01 X44.5712 Y4.4815 
G01 X44.5465 Y4.3893 
G01 X44.4143 Y4.3893 
G01 X44.4143 Y4.8727 
G01 X44.3969 Y4.9147 
G01 X44.3647 Y4.9469 
G01 X44.3227 Y4.9643 
G01 X43.4773 Y4.9643 
G01 X43.4353 Y4.9469 
G01 X43.4031 Y4.9147 
G01 X43.3857 Y4.8727 
G00 Z2.5400 
G00 X62.0773 Y15.7857 
G01 Z-0.1778 F254.00 
G01 X63.3227 Y15.7857 F508.00 
G01 X63.3647 Y15.8031 
G01 X63.3969 Y15.8353 
G01 X63.4143 Y15.8773 
G01 X63.4143 Y17.1227 
G01 X63.3969 Y17.1647 
G01 X63.3647 Y17.1969 
G01 X63.3227 Y17.2143 
G01 X62.0773 Y17.2143 
G01 X62.0353 Y17.1969 
G01 X62.0031 Y17.1647 
G01 X61.9857 Y17.1227 
G01 X61.9857 Y16.7643 
G01 X60.4143 Y16.7643 
G01 X60.4143 Y17.1227 
G01 X60.3969 Y17.1647 
G01 X60.3647 Y17.1969 
G01 X60.3227 Y17.2143 
G01 X59.4773 Y17.2143 
G01 X59.4353 Y17.1969 
G01 X59.4031 Y17.1647 
G01 X59.3857 Y17.1227 
G01 X59.3857 Y15.8773 
G01 X59.4031 Y15.8353 
G01 X59.4353 Y15.8031 
G01 X59.4773 Y15.7857 
G01 X60.3227 Y15.7857 
G01 X60.3647 Y15.8031 
G01 X60.3969 Y15.8353 
G01 X60.4143 Y15.8773 
G01 X60.4143 Y16.2357 
G01 X61.9857 Y16.2357 
G01 X61.9857 Y15.8773 
G01 X62.0031 Y15.8353 
G01 X62.0353 Y15.8031 
G01 X62.0773 Y15.7857 
G00 Z2.5400 
G00 X34.5232 Y62.6720 
G01 Z-0.1778 F254.00 
G01 X30.7752 Y58.9240 F508.00 
G01 X30.7260 Y58.8748 
G01 X30.6912 Y58.8145 
G01 X30.6732 Y58.7473 
G01 X30.6732 Y52.7720 
G01 X6.4905 Y28.5893 
G01 X5.3277 Y28.5893 
G01 X5.2605 Y28.5713 
G01 X5.2002 Y28.5365 
G01 X3.8252 Y27.1615 
G01 X3.7760 Y27.1123 
G01 X3.7412 Y27.0520 
G01 X3.7232 Y26.9848 
G01 X3.7232 Y14.9527 
G01 X3.7412 Y14.8855 
G01 X3.7760 Y14.8252 
G01 X5.8272 Y12.7741 
G01 X5.7601 Y12.7634 
G01 X5.5862 Y12.7069 
G01 X5.4232 Y12.6239 
G01 X5.2752 Y12.5164 
G01 X5.1459 Y12.3870 
G01 X5.0384 Y12.2390 
G01 X4.9553 Y12.0761 
G01 X4.8988 Y11.9021 
G01 X4.8702 Y11.7215 
G01 X4.8702 Y11.5385 
G01 X4.8988 Y11.3579 
G01 X4.9553 Y11.1839 
G01 X5.0384 Y11.0210 
G01 X5.1459 Y10.8730 
G01 X5.2752 Y10.7436 
G01 X5.4232 Y10.6361 
G01 X5.5862 Y10.5531 
G01 X5.7601 Y10.4966 
G01 X5.9408 Y10.4680 
G01 X8.2192 Y10.4680 
G01 X8.3999 Y10.4966 
G01 X8.5738 Y10.5531 
G01 X8.7368 Y10.6361 
G01 X8.8848 Y10.7436 
G01 X9.0141 Y10.8730 
G01 X9.1216 Y11.0210 
G01 X9.2047 Y11.1839 
G01 X9.2612 Y11.3579 
G01 X9.2715 Y11.4232 
G01 X12.5357 Y11.4232 
G01 X12.5357 Y11.1773 
G01 X12.5531 Y11.1353 
G01 X12.5853 Y11.1031 
G01 X12.6273 Y11.0857 
G01 X13.8727 Y11.0857 
G01 X13.9147 Y11.1031 
G01 X13.9469 Y11.1353 
G01 X13.9643 Y11.1773 
G01 X13.9643 Y12.0227 
G01 X13.9469 Y12.0647 
G01 X13.9147 Y12.0969 
G01 X13.8727 Y12.1143 
G01 X12.6273 Y12.1143 
G01 X12.5853 Y12.0969 
G01 X12.5531 Y12.0647 
G01 X12.5357 Y12.0227 
G01 X12.5357 Y11.9518 
G01 X9.2450 Y11.9518 
G01 X9.2047 Y12.0761 
G01 X9.1216 Y12.2390 
G01 X9.0141 Y12.3870 
G01 X8.8848 Y12.5164 
G01 X8.7368 Y12.6239 
G01 X8.5738 Y12.7069 
G01 X8.3999 Y12.7634 
G01 X8.2192 Y12.7920 
G01 X6.5567 Y12.7920 
G01 X4.2518 Y15.0970 
G01 X4.2518 Y26.8405 
G01 X5.4720 Y28.0607 
G01 X6.6348 Y28.0607 
G01 X6.7020 Y28.0787 
G01 X6.7623 Y28.1135 
G01 X6.8115 Y28.1627 
G01 X31.1490 Y52.5002 
G01 X31.1838 Y52.5605 
G01 X31.2018 Y52.6277 
G01 X31.2018 Y58.6030 
G01 X34.9990 Y62.4002 
G01 X35.0338 Y62.4605 
G01 X35.0518 Y62.5277 
G01 X35.0518 Y62.8848 
G01 X35.1360 Y62.9334 
G01 X35.2416 Y63.0390 
G01 X35.3163 Y63.1684 
G01 X35.3550 Y63.3128 
G01 X35.3550 Y63.4622 
G01 X35.3163 Y63.6065 
G01 X35.2416 Y63.7360 
G01 X35.1360 Y63.8416 
G01 X35.0065 Y63.9163 
G01 X34.8622 Y63.9550 
G01 X34.7128 Y63.9550 
G01 X34.5684 Y63.9163 
G01 X34.4390 Y63.8416 
G01 X34.3334 Y63.7360 
G01 X34.2587 Y63.6065 
G01 X34.2200 Y63.4622 
G01 X34.2200 Y63.3128 
G01 X34.2587 Y63.1684 
G01 X34.3334 Y63.0390 
G01 X34.4390 Y62.9334 
G01 X34.5232 Y62.8848 
G01 X34.5232 Y62.6720 
G00 Z2.5400 
G00 X44.3496 Y18.4913 
G01 Z-0.1778 F254.00 
G01 X43.8322 Y19.0087 F508.00 
G01 X44.2379 Y19.0087 
G01 X44.7553 Y18.4913 
G01 X44.3496 Y18.4913 
G00 Z2.5400 
G00 X46.8980 Y13.4413 
G01 Z-0.1778 F254.00 
G01 X44.5288 Y13.4413 F508.00 
G01 X44.5288 Y17.2087 
G01 X44.8980 Y17.2087 
G01 X44.9867 Y17.2454 
G01 X45.0546 Y17.3133 
G01 X45.0913 Y17.4020 
G01 X45.0913 Y18.1553 
G01 X46.9087 Y16.3379 
G01 X46.9087 Y13.4369 
G01 X46.8980 Y13.4413 
G00 Z2.5400 
G00 X45.0913 Y19.2621 
G01 Z-0.1778 F254.00 
G01 X45.0913 Y20.0980 F508.00 
G01 X45.0546 Y20.1867 
G01 X44.9867 Y20.2546 
G01 X44.8980 Y20.2913 
G01 X43.8072 Y20.2913 
G01 X47.7371 Y24.2212 
G01 X48.9564 Y24.2212 
G01 X48.9480 Y24.2009 
G01 X48.9480 Y22.0983 
G01 X48.9847 Y22.0096 
G01 X49.0526 Y21.9417 
G01 X49.1413 Y21.9050 
G01 X49.5212 Y21.9050 
G01 X49.5212 Y13.9735 
G01 X49.5479 Y13.8740 
G01 X49.5994 Y13.7847 
G01 X50.0226 Y13.3615 
G01 X50.0087 Y13.3280 
G01 X50.0087 Y12.2320 
G01 X50.0182 Y12.2091 
G01 X48.9119 Y11.1028 
G01 X48.8604 Y11.0135 
G01 X48.8337 Y10.9140 
G01 X48.8337 Y8.8246 
G01 X47.6913 Y7.6822 
G01 X47.6913 Y16.5515 
G01 X47.6646 Y16.6510 
G01 X47.6131 Y16.7403 
G01 X47.5403 Y16.8131 
G01 X45.0913 Y19.2621 
G00 Z2.5400 
G00 X53.2152 Y24.0564 
G01 Z-0.1778 F254.00 
G01 X53.5200 Y23.7516 F508.00 
G01 X53.5200 Y22.2459 
G01 X53.2152 Y22.5507 
G01 X53.2152 Y24.0564 
G00 Z2.5400 
G00 X43.7428 Y6.3462 
G01 Z-0.1778 F254.00 
G01 X42.4879 Y5.0913 F508.00 
G01 X41.6520 Y5.0913 
G01 X41.6413 Y5.0869 
G01 X41.6413 Y6.3462 
G01 X43.7428 Y6.3462 
