(.../pcb-gcode-3_6_0_4/pcb-gcode.ulp)
(Copyright 2005 - 2012 by John Johnson)
(See readme.txt for licensing terms.)
(This file generated from the board:)
(.../GitHub/eagle/KMO_IO_M/KMO_IO_M.brd)
(Current profile is .../pcb-gcode-3_6_0_4/profiles/emc.pp  )
(This file generated 9/3/2018 3:45 PM)
(Settings from pcb-machine.h)
(  Tool Size)
(0.1778 )
(Z Axis Settings)
(  High     Up        Down     Drill)
(12.7000 	2.5400 	-0.1778 	-0.8128 )
(spindle on time = 3.0000)
(milling depth = -0.2540)
(text depth = -0.1270)
(tool change at 12.7000 15.2400 25.4000 )
(feed rate xy = F508.00 )
(feed rate z  = F254.00 )
(Settings from pcb-defaults.h)
(isolate min = 0.0254)
(isolate max = 0.5080)
(isolate step = 0.1270)
(Generated top outlines, top drill, bottom outlines, bottom drill, )
(Unit of measure: mm)
(Metric Mode)
G21
(Absolute Coordinates)
G90
G00 X0.0000 Y0.0000 
M03
G04 P3.000000
G00 Z2.5400 
G00 X-42.4982 Y50.0220 
G01 Z-0.1778 F254.00 
G01 X-34.0229 Y41.5466 F508.00 
G01 X-33.9114 Y41.5928 
G01 X-33.7581 Y41.6233 
G01 X-33.6019 Y41.6233 
G01 X-33.4486 Y41.5928 
G01 X-33.3042 Y41.5330 
G01 X-33.1743 Y41.4462 
G01 X-33.0638 Y41.3357 
G01 X-32.9770 Y41.2058 
G01 X-32.9172 Y41.0614 
G01 X-32.8867 Y40.9081 
G01 X-32.8867 Y40.7519 
G01 X-32.9172 Y40.5986 
G01 X-32.9770 Y40.4542 
G01 X-33.0638 Y40.3243 
G01 X-33.1743 Y40.2138 
G01 X-33.3042 Y40.1270 
G01 X-33.4486 Y40.0672 
G01 X-33.6019 Y40.0367 
G01 X-33.7581 Y40.0367 
G01 X-33.9114 Y40.0672 
G01 X-34.0558 Y40.1270 
G01 X-34.1857 Y40.2138 
G01 X-34.2962 Y40.3243 
G01 X-34.3830 Y40.4542 
G01 X-34.4428 Y40.5986 
G01 X-34.4733 Y40.7519 
G01 X-34.4733 Y40.9081 
G01 X-34.4428 Y41.0614 
G01 X-34.3966 Y41.1729 
G01 X-42.9740 Y49.7502 
G01 X-43.0088 Y49.8105 
G01 X-43.0268 Y49.8777 
G01 X-43.0268 Y62.1973 
G01 X-43.1110 Y62.2459 
G01 X-43.2166 Y62.3515 
G01 X-43.2913 Y62.4809 
G01 X-43.3300 Y62.6253 
G01 X-43.3300 Y62.7747 
G01 X-43.2913 Y62.9190 
G01 X-43.2166 Y63.0485 
G01 X-43.1110 Y63.1541 
G01 X-42.9815 Y63.2288 
G01 X-42.8462 Y63.2651 
G01 X-40.5548 Y65.5564 
G01 X-40.5800 Y65.6503 
G01 X-40.5800 Y65.7997 
G01 X-40.5413 Y65.9440 
G01 X-40.4666 Y66.0735 
G01 X-40.3610 Y66.1791 
G01 X-40.2315 Y66.2538 
G01 X-40.0872 Y66.2925 
G01 X-39.9378 Y66.2925 
G01 X-39.7934 Y66.2538 
G01 X-39.6640 Y66.1791 
G01 X-39.5584 Y66.0735 
G01 X-39.4837 Y65.9440 
G01 X-39.4450 Y65.7997 
G01 X-39.4450 Y65.6503 
G01 X-39.4837 Y65.5059 
G01 X-39.5584 Y65.3765 
G01 X-39.6640 Y65.2709 
G01 X-39.7934 Y65.1962 
G01 X-39.9378 Y65.1575 
G01 X-40.0872 Y65.1575 
G01 X-40.1811 Y65.1827 
G01 X-42.3118 Y63.0519 
G01 X-42.3084 Y63.0485 
G01 X-42.2337 Y62.9190 
G01 X-42.1950 Y62.7747 
G01 X-42.1950 Y62.6253 
G01 X-42.2337 Y62.4809 
G01 X-42.3084 Y62.3515 
G01 X-42.4140 Y62.2459 
G01 X-42.4982 Y62.1973 
G01 X-42.4982 Y50.0220 
G00 Z2.5400 
G00 X-81.0983 Y88.8763 
G01 Z-0.1778 F254.00 
G01 X-79.6600 Y88.8763 F508.00 
G01 X-75.0998 Y93.4365 
G01 X-75.0395 Y93.4713 
G01 X-74.9723 Y93.4893 
G01 X-61.8402 Y93.4893 
G01 X-61.7730 Y93.4713 
G01 X-61.7127 Y93.4365 
G01 X-61.6635 Y93.3873 
G01 X-49.6655 Y81.3893 
G01 X-48.3878 Y81.3893 
G01 X-48.3569 Y81.4846 
G01 X-48.2815 Y81.6325 
G01 X-48.1840 Y81.7667 
G01 X-48.0667 Y81.8840 
G01 X-47.9325 Y81.9815 
G01 X-47.7846 Y82.0569 
G01 X-47.6268 Y82.1081 
G01 X-47.4630 Y82.1341 
G01 X-47.2970 Y82.1341 
G01 X-47.1332 Y82.1081 
G01 X-46.9754 Y82.0569 
G01 X-46.8275 Y81.9815 
G01 X-46.6933 Y81.8840 
G01 X-46.5760 Y81.7667 
G01 X-46.4785 Y81.6325 
G01 X-46.4031 Y81.4846 
G01 X-46.3519 Y81.3268 
G01 X-46.3259 Y81.1630 
G01 X-46.3259 Y80.9970 
G01 X-46.3519 Y80.8332 
G01 X-46.4031 Y80.6754 
G01 X-46.4785 Y80.5275 
G01 X-46.5760 Y80.3933 
G01 X-46.6933 Y80.2760 
G01 X-46.8275 Y80.1785 
G01 X-46.9754 Y80.1031 
G01 X-47.1332 Y80.0519 
G01 X-47.2970 Y80.0259 
G01 X-47.4630 Y80.0259 
G01 X-47.6268 Y80.0519 
G01 X-47.7846 Y80.1031 
G01 X-47.9325 Y80.1785 
G01 X-48.0667 Y80.2760 
G01 X-48.1840 Y80.3933 
G01 X-48.2815 Y80.5275 
G01 X-48.3569 Y80.6754 
G01 X-48.4081 Y80.8332 
G01 X-48.4125 Y80.8607 
G01 X-49.8098 Y80.8607 
G01 X-49.8770 Y80.8787 
G01 X-49.9373 Y80.9135 
G01 X-61.9845 Y92.9607 
G01 X-74.8280 Y92.9607 
G01 X-79.0365 Y88.7522 
G01 X-78.9294 Y88.6807 
G01 X-78.8073 Y88.5586 
G01 X-78.7114 Y88.4151 
G01 X-78.6454 Y88.2556 
G01 X-78.6117 Y88.0863 
G01 X-78.6117 Y87.9137 
G01 X-78.6454 Y87.7444 
G01 X-78.7114 Y87.5849 
G01 X-78.8073 Y87.4414 
G01 X-78.9294 Y87.3193 
G01 X-79.0729 Y87.2234 
G01 X-79.2324 Y87.1574 
G01 X-79.4017 Y87.1237 
G01 X-81.0983 Y87.1237 
G01 X-81.2676 Y87.1574 
G01 X-81.4271 Y87.2234 
G01 X-81.5706 Y87.3193 
G01 X-81.6927 Y87.4414 
G01 X-81.7886 Y87.5849 
G01 X-81.8546 Y87.7444 
G01 X-81.8883 Y87.9137 
G01 X-81.8883 Y88.0863 
G01 X-81.8546 Y88.2556 
G01 X-81.7886 Y88.4151 
G01 X-81.6927 Y88.5586 
G01 X-81.5706 Y88.6807 
G01 X-81.4271 Y88.7766 
G01 X-81.2676 Y88.8426 
G01 X-81.0983 Y88.8763 
G00 Z2.5400 
G00 X-81.0983 Y91.3763 
G01 Z-0.1778 F254.00 
G01 X-79.4017 Y91.3763 F508.00 
G01 X-79.2324 Y91.3426 
G01 X-79.0729 Y91.2766 
G01 X-78.9294 Y91.1807 
G01 X-78.8073 Y91.0586 
G01 X-78.7114 Y90.9151 
G01 X-78.6956 Y90.8768 
G01 X-78.4845 Y90.8768 
G01 X-75.4240 Y93.9373 
G01 X-75.3748 Y93.9865 
G01 X-75.3145 Y94.0213 
G01 X-75.2473 Y94.0393 
G01 X-45.8902 Y94.0393 
G01 X-45.8230 Y94.0213 
G01 X-45.7627 Y93.9865 
G01 X-42.6561 Y90.8798 
G01 X-42.5622 Y90.9050 
G01 X-42.4128 Y90.9050 
G01 X-42.2685 Y90.8663 
G01 X-42.1390 Y90.7916 
G01 X-42.0334 Y90.6860 
G01 X-41.9587 Y90.5565 
G01 X-41.9200 Y90.4122 
G01 X-41.9200 Y90.2628 
G01 X-41.9587 Y90.1185 
G01 X-42.0334 Y89.9890 
G01 X-42.1390 Y89.8834 
G01 X-42.2685 Y89.8087 
G01 X-42.4128 Y89.7700 
G01 X-42.5622 Y89.7700 
G01 X-42.7065 Y89.8087 
G01 X-42.8360 Y89.8834 
G01 X-42.9416 Y89.9890 
G01 X-43.0163 Y90.1185 
G01 X-43.0550 Y90.2628 
G01 X-43.0550 Y90.4122 
G01 X-43.0298 Y90.5061 
G01 X-46.0345 Y93.5107 
G01 X-75.1030 Y93.5107 
G01 X-78.2127 Y90.4010 
G01 X-78.2730 Y90.3662 
G01 X-78.3402 Y90.3482 
G01 X-78.6247 Y90.3482 
G01 X-78.6454 Y90.2444 
G01 X-78.7114 Y90.0849 
G01 X-78.8073 Y89.9414 
G01 X-78.9294 Y89.8193 
G01 X-79.0729 Y89.7234 
G01 X-79.2324 Y89.6574 
G01 X-79.4017 Y89.6237 
G01 X-80.7775 Y89.6237 
G01 X-81.9607 Y88.4405 
G01 X-81.9607 Y78.3470 
G01 X-80.7400 Y77.1263 
G01 X-79.4017 Y77.1263 
G01 X-79.2324 Y77.0926 
G01 X-79.0729 Y77.0266 
G01 X-78.9294 Y76.9307 
G01 X-78.8073 Y76.8086 
G01 X-78.7114 Y76.6651 
G01 X-78.6454 Y76.5056 
G01 X-78.6117 Y76.3363 
G01 X-78.6117 Y76.1637 
G01 X-78.6454 Y75.9944 
G01 X-78.7114 Y75.8349 
G01 X-78.8073 Y75.6914 
G01 X-78.9294 Y75.5693 
G01 X-79.0729 Y75.4734 
G01 X-79.2324 Y75.4074 
G01 X-79.4017 Y75.3737 
G01 X-80.7275 Y75.3737 
G01 X-81.9607 Y74.1405 
G01 X-81.9607 Y70.9220 
G01 X-80.2313 Y69.1925 
G01 X-78.3998 Y71.0240 
G01 X-78.3395 Y71.0588 
G01 X-78.2723 Y71.0768 
G01 X-63.6624 Y71.0768 
G01 X-63.6481 Y71.1668 
G01 X-63.5969 Y71.3246 
G01 X-63.5215 Y71.4725 
G01 X-63.4240 Y71.6067 
G01 X-63.3067 Y71.7240 
G01 X-63.1725 Y71.8215 
G01 X-63.0246 Y71.8969 
G01 X-62.8668 Y71.9481 
G01 X-62.7030 Y71.9741 
G01 X-62.5370 Y71.9741 
G01 X-62.3732 Y71.9481 
G01 X-62.2154 Y71.8969 
G01 X-62.0675 Y71.8215 
G01 X-61.9333 Y71.7240 
G01 X-61.8160 Y71.6067 
G01 X-61.7185 Y71.4725 
G01 X-61.6431 Y71.3246 
G01 X-61.5919 Y71.1668 
G01 X-61.5659 Y71.0030 
G01 X-61.5659 Y70.8370 
G01 X-61.5919 Y70.6732 
G01 X-61.6431 Y70.5154 
G01 X-61.7185 Y70.3675 
G01 X-61.8160 Y70.2333 
G01 X-61.9333 Y70.1160 
G01 X-62.0675 Y70.0185 
G01 X-62.2154 Y69.9431 
G01 X-62.3732 Y69.8919 
G01 X-62.5370 Y69.8659 
G01 X-62.7030 Y69.8659 
G01 X-62.8668 Y69.8919 
G01 X-63.0246 Y69.9431 
G01 X-63.1725 Y70.0185 
G01 X-63.3067 Y70.1160 
G01 X-63.4240 Y70.2333 
G01 X-63.5215 Y70.3675 
G01 X-63.5969 Y70.5154 
G01 X-63.6075 Y70.5482 
G01 X-78.1280 Y70.5482 
G01 X-79.9510 Y68.7252 
G01 X-80.0002 Y68.6760 
G01 X-80.0357 Y68.6555 
G01 X-80.0357 Y62.8763 
G01 X-79.4017 Y62.8763 
G01 X-79.2324 Y62.8426 
G01 X-79.0729 Y62.7766 
G01 X-78.9294 Y62.6807 
G01 X-78.8073 Y62.5586 
G01 X-78.7114 Y62.4151 
G01 X-78.6454 Y62.2556 
G01 X-78.6117 Y62.0863 
G01 X-78.6117 Y61.9137 
G01 X-78.6454 Y61.7444 
G01 X-78.7114 Y61.5849 
G01 X-78.8073 Y61.4414 
G01 X-78.9294 Y61.3193 
G01 X-79.0729 Y61.2234 
G01 X-79.2324 Y61.1574 
G01 X-79.4017 Y61.1237 
G01 X-81.0983 Y61.1237 
G01 X-81.2676 Y61.1574 
G01 X-81.4271 Y61.2234 
G01 X-81.5706 Y61.3193 
G01 X-81.6927 Y61.4414 
G01 X-81.7886 Y61.5849 
G01 X-81.8546 Y61.7444 
G01 X-81.8883 Y61.9137 
G01 X-81.8883 Y62.0863 
G01 X-81.8546 Y62.2556 
G01 X-81.7886 Y62.4151 
G01 X-81.6927 Y62.5586 
G01 X-81.5706 Y62.6807 
G01 X-81.4271 Y62.7766 
G01 X-81.2676 Y62.8426 
G01 X-81.0983 Y62.8763 
G01 X-80.5643 Y62.8763 
G01 X-80.5643 Y68.7780 
G01 X-82.3873 Y70.6010 
G01 X-82.4365 Y70.6502 
G01 X-82.4713 Y70.7105 
G01 X-82.4893 Y70.7777 
G01 X-82.4893 Y74.2848 
G01 X-82.4713 Y74.3520 
G01 X-82.4365 Y74.4123 
G01 X-81.3905 Y75.4583 
G01 X-81.4271 Y75.4734 
G01 X-81.5706 Y75.5693 
G01 X-81.6927 Y75.6914 
G01 X-81.7886 Y75.8349 
G01 X-81.8546 Y75.9944 
G01 X-81.8883 Y76.1637 
G01 X-81.8883 Y76.3363 
G01 X-81.8546 Y76.5056 
G01 X-81.7886 Y76.6651 
G01 X-81.6927 Y76.8086 
G01 X-81.5706 Y76.9307 
G01 X-81.4271 Y77.0266 
G01 X-81.3993 Y77.0381 
G01 X-82.4365 Y78.0752 
G01 X-82.4713 Y78.1355 
G01 X-82.4893 Y78.2027 
G01 X-82.4893 Y88.5848 
G01 X-82.4713 Y88.6520 
G01 X-82.4365 Y88.7123 
G01 X-82.3873 Y88.7615 
G01 X-81.4258 Y89.7229 
G01 X-81.5706 Y89.8193 
G01 X-81.6927 Y89.9414 
G01 X-81.7886 Y90.0849 
G01 X-81.8546 Y90.2444 
G01 X-81.8883 Y90.4137 
G01 X-81.8883 Y90.5863 
G01 X-81.8546 Y90.7556 
G01 X-81.7886 Y90.9151 
G01 X-81.6927 Y91.0586 
G01 X-81.5706 Y91.1807 
G01 X-81.4271 Y91.2766 
G01 X-81.2676 Y91.3426 
G01 X-81.0983 Y91.3763 
G00 Z2.5400 
G00 X-8.2192 Y12.7920 
G01 Z-0.1778 F254.00 
G01 X-5.9408 Y12.7920 F508.00 
G01 X-5.7601 Y12.7634 
G01 X-5.5862 Y12.7069 
G01 X-5.4232 Y12.6239 
G01 X-5.2752 Y12.5164 
G01 X-5.1459 Y12.3870 
G01 X-5.0384 Y12.2390 
G01 X-4.9553 Y12.0761 
G01 X-4.8988 Y11.9021 
G01 X-4.8702 Y11.7215 
G01 X-4.8702 Y11.5385 
G01 X-4.8988 Y11.3579 
G01 X-4.9553 Y11.1839 
G01 X-5.0384 Y11.0210 
G01 X-5.1459 Y10.8730 
G01 X-5.2752 Y10.7436 
G01 X-5.4232 Y10.6361 
G01 X-5.5862 Y10.5531 
G01 X-5.7601 Y10.4966 
G01 X-5.9408 Y10.4680 
G01 X-8.2192 Y10.4680 
G01 X-8.3999 Y10.4966 
G01 X-8.5738 Y10.5531 
G01 X-8.7368 Y10.6361 
G01 X-8.8848 Y10.7436 
G01 X-9.0141 Y10.8730 
G01 X-9.1216 Y11.0210 
G01 X-9.2047 Y11.1839 
G01 X-9.2612 Y11.3579 
G01 X-9.2898 Y11.5385 
G01 X-9.2898 Y11.7215 
G01 X-9.2612 Y11.9021 
G01 X-9.2047 Y12.0761 
G01 X-9.1216 Y12.2390 
G01 X-9.0141 Y12.3870 
G01 X-8.8848 Y12.5164 
G01 X-8.7368 Y12.6239 
G01 X-8.5738 Y12.7069 
G01 X-8.3999 Y12.7634 
G01 X-8.2192 Y12.7920 
G00 Z2.5400 
G00 X-8.2192 Y17.8720 
G01 Z-0.1778 F254.00 
G01 X-5.9408 Y17.8720 F508.00 
G01 X-5.7601 Y17.8434 
G01 X-5.5862 Y17.7869 
G01 X-5.4232 Y17.7039 
G01 X-5.2752 Y17.5964 
G01 X-5.1459 Y17.4670 
G01 X-5.0384 Y17.3190 
G01 X-4.9553 Y17.1561 
G01 X-4.8988 Y16.9821 
G01 X-4.8702 Y16.8015 
G01 X-4.8702 Y16.6185 
G01 X-4.8988 Y16.4379 
G01 X-4.9553 Y16.2639 
G01 X-5.0384 Y16.1010 
G01 X-5.1459 Y15.9530 
G01 X-5.2752 Y15.8236 
G01 X-5.4232 Y15.7161 
G01 X-5.5862 Y15.6331 
G01 X-5.7601 Y15.5766 
G01 X-5.9408 Y15.5480 
G01 X-8.2192 Y15.5480 
G01 X-8.3999 Y15.5766 
G01 X-8.5738 Y15.6331 
G01 X-8.7368 Y15.7161 
G01 X-8.8848 Y15.8236 
G01 X-9.0141 Y15.9530 
G01 X-9.1216 Y16.1010 
G01 X-9.2047 Y16.2639 
G01 X-9.2612 Y16.4379 
G01 X-9.2898 Y16.6185 
G01 X-9.2898 Y16.8015 
G01 X-9.2612 Y16.9821 
G01 X-9.2047 Y17.1561 
G01 X-9.1216 Y17.3190 
G01 X-9.0141 Y17.4670 
G01 X-8.8848 Y17.5964 
G01 X-8.7368 Y17.7039 
G01 X-8.5738 Y17.7869 
G01 X-8.3999 Y17.8434 
G01 X-8.2192 Y17.8720 
G00 Z2.5400 
G00 X-8.2192 Y7.7120 
G01 Z-0.1778 F254.00 
G01 X-5.9408 Y7.7120 F508.00 
G01 X-5.7601 Y7.6834 
G01 X-5.5862 Y7.6269 
G01 X-5.4232 Y7.5439 
G01 X-5.2752 Y7.4364 
G01 X-5.1459 Y7.3070 
G01 X-5.0384 Y7.1590 
G01 X-4.9553 Y6.9961 
G01 X-4.8988 Y6.8221 
G01 X-4.8702 Y6.6415 
G01 X-4.8702 Y6.4585 
G01 X-4.8988 Y6.2779 
G01 X-4.9553 Y6.1039 
G01 X-5.0384 Y5.9410 
G01 X-5.1459 Y5.7930 
G01 X-5.2752 Y5.6636 
G01 X-5.4232 Y5.5561 
G01 X-5.5862 Y5.4731 
G01 X-5.7601 Y5.4166 
G01 X-5.9408 Y5.3880 
G01 X-8.2192 Y5.3880 
G01 X-8.3999 Y5.4166 
G01 X-8.5738 Y5.4731 
G01 X-8.7368 Y5.5561 
G01 X-8.8848 Y5.6636 
G01 X-9.0141 Y5.7930 
G01 X-9.1216 Y5.9410 
G01 X-9.2047 Y6.1039 
G01 X-9.2612 Y6.2779 
G01 X-9.2898 Y6.4585 
G01 X-9.2898 Y6.6415 
G01 X-9.2612 Y6.8221 
G01 X-9.2047 Y6.9961 
G01 X-9.1216 Y7.1590 
G01 X-9.0141 Y7.3070 
G01 X-8.8848 Y7.4364 
G01 X-8.7368 Y7.5439 
G01 X-8.5738 Y7.6269 
G01 X-8.3999 Y7.6834 
G01 X-8.2192 Y7.7120 
G00 Z2.5400 
G00 X-7.9692 Y76.3720 
G01 Z-0.1778 F254.00 
G01 X-5.6908 Y76.3720 F508.00 
G01 X-5.5101 Y76.3434 
G01 X-5.3362 Y76.2869 
G01 X-5.1732 Y76.2039 
G01 X-5.0252 Y76.0964 
G01 X-4.8959 Y75.9670 
G01 X-4.7884 Y75.8190 
G01 X-4.7053 Y75.6561 
G01 X-4.6488 Y75.4821 
G01 X-4.6202 Y75.3015 
G01 X-4.6202 Y75.1185 
G01 X-4.6488 Y74.9379 
G01 X-4.7053 Y74.7639 
G01 X-4.7884 Y74.6010 
G01 X-4.8959 Y74.4530 
G01 X-5.0252 Y74.3236 
G01 X-5.1732 Y74.2161 
G01 X-5.3362 Y74.1331 
G01 X-5.5101 Y74.0766 
G01 X-5.6908 Y74.0480 
G01 X-7.9692 Y74.0480 
G01 X-8.1499 Y74.0766 
G01 X-8.3238 Y74.1331 
G01 X-8.4868 Y74.2161 
G01 X-8.6348 Y74.3236 
G01 X-8.7641 Y74.4530 
G01 X-8.8716 Y74.6010 
G01 X-8.9547 Y74.7639 
G01 X-9.0112 Y74.9379 
G01 X-9.0398 Y75.1185 
G01 X-9.0398 Y75.3015 
G01 X-9.0112 Y75.4821 
G01 X-8.9547 Y75.6561 
G01 X-8.8716 Y75.8190 
G01 X-8.7641 Y75.9670 
G01 X-8.6348 Y76.0964 
G01 X-8.4868 Y76.2039 
G01 X-8.3238 Y76.2869 
G01 X-8.1499 Y76.3434 
G01 X-7.9692 Y76.3720 
G00 Z2.5400 
G00 X-7.9692 Y81.4520 
G01 Z-0.1778 F254.00 
G01 X-5.6908 Y81.4520 F508.00 
G01 X-5.5101 Y81.4234 
G01 X-5.3362 Y81.3669 
G01 X-5.1732 Y81.2839 
G01 X-5.0252 Y81.1764 
G01 X-4.8959 Y81.0470 
G01 X-4.7884 Y80.8990 
G01 X-4.7053 Y80.7361 
G01 X-4.6488 Y80.5621 
G01 X-4.6202 Y80.3815 
G01 X-4.6202 Y80.1985 
G01 X-4.6488 Y80.0179 
G01 X-4.7053 Y79.8439 
G01 X-4.7884 Y79.6810 
G01 X-4.8959 Y79.5330 
G01 X-5.0252 Y79.4036 
G01 X-5.1732 Y79.2961 
G01 X-5.3362 Y79.2131 
G01 X-5.5101 Y79.1566 
G01 X-5.6908 Y79.1279 
G01 X-7.9692 Y79.1279 
G01 X-8.1499 Y79.1566 
G01 X-8.3238 Y79.2131 
G01 X-8.4868 Y79.2961 
G01 X-8.6348 Y79.4036 
G01 X-8.7641 Y79.5330 
G01 X-8.8716 Y79.6810 
G01 X-8.9547 Y79.8439 
G01 X-9.0112 Y80.0179 
G01 X-9.0398 Y80.1985 
G01 X-9.0398 Y80.3815 
G01 X-9.0112 Y80.5621 
G01 X-8.9547 Y80.7361 
G01 X-8.8716 Y80.8990 
G01 X-8.7641 Y81.0470 
G01 X-8.6348 Y81.1764 
G01 X-8.4868 Y81.2839 
G01 X-8.3238 Y81.3669 
G01 X-8.1499 Y81.4234 
G01 X-7.9692 Y81.4520 
G00 Z2.5400 
G00 X-7.9692 Y66.2120 
G01 Z-0.1778 F254.00 
G01 X-5.6908 Y66.2120 F508.00 
G01 X-5.5101 Y66.1834 
G01 X-5.3362 Y66.1269 
G01 X-5.1732 Y66.0439 
G01 X-5.0252 Y65.9364 
G01 X-4.8959 Y65.8070 
G01 X-4.7884 Y65.6590 
G01 X-4.7053 Y65.4961 
G01 X-4.6488 Y65.3221 
G01 X-4.6202 Y65.1415 
G01 X-4.6202 Y64.9585 
G01 X-4.6488 Y64.7779 
G01 X-4.7053 Y64.6039 
G01 X-4.7884 Y64.4410 
G01 X-4.8959 Y64.2930 
G01 X-5.0252 Y64.1636 
G01 X-5.1732 Y64.0561 
G01 X-5.3362 Y63.9731 
G01 X-5.5101 Y63.9166 
G01 X-5.6908 Y63.8880 
G01 X-7.9692 Y63.8880 
G01 X-8.1499 Y63.9166 
G01 X-8.3238 Y63.9731 
G01 X-8.4868 Y64.0561 
G01 X-8.6348 Y64.1636 
G01 X-8.7641 Y64.2930 
G01 X-8.8716 Y64.4410 
G01 X-8.9547 Y64.6039 
G01 X-9.0112 Y64.7779 
G01 X-9.0398 Y64.9585 
G01 X-9.0398 Y65.1415 
G01 X-9.0112 Y65.3221 
G01 X-8.9547 Y65.4961 
G01 X-8.8716 Y65.6590 
G01 X-8.7641 Y65.8070 
G01 X-8.6348 Y65.9364 
G01 X-8.4868 Y66.0439 
G01 X-8.3238 Y66.1269 
G01 X-8.1499 Y66.1834 
G01 X-7.9692 Y66.2120 
G00 Z2.5400 
G00 X-7.9692 Y86.5320 
G01 Z-0.1778 F254.00 
G01 X-5.6908 Y86.5320 F508.00 
G01 X-5.5101 Y86.5034 
G01 X-5.3362 Y86.4469 
G01 X-5.1732 Y86.3639 
G01 X-5.0252 Y86.2564 
G01 X-4.8959 Y86.1270 
G01 X-4.7884 Y85.9790 
G01 X-4.7053 Y85.8161 
G01 X-4.6488 Y85.6421 
G01 X-4.6202 Y85.4615 
G01 X-4.6202 Y85.2785 
G01 X-4.6488 Y85.0979 
G01 X-4.7053 Y84.9239 
G01 X-4.7884 Y84.7610 
G01 X-4.8959 Y84.6130 
G01 X-5.0252 Y84.4836 
G01 X-5.1732 Y84.3761 
G01 X-5.3362 Y84.2931 
G01 X-5.5101 Y84.2366 
G01 X-5.6908 Y84.2080 
G01 X-7.9692 Y84.2080 
G01 X-8.1499 Y84.2366 
G01 X-8.3238 Y84.2931 
G01 X-8.4868 Y84.3761 
G01 X-8.6348 Y84.4836 
G01 X-8.7641 Y84.6130 
G01 X-8.8716 Y84.7610 
G01 X-8.9547 Y84.9239 
G01 X-9.0112 Y85.0979 
G01 X-9.0398 Y85.2785 
G01 X-9.0398 Y85.4615 
G01 X-9.0112 Y85.6421 
G01 X-8.9547 Y85.8161 
G01 X-8.8716 Y85.9790 
G01 X-8.7641 Y86.1270 
G01 X-8.6348 Y86.2564 
G01 X-8.4868 Y86.3639 
G01 X-8.3238 Y86.4469 
G01 X-8.1499 Y86.5034 
G01 X-7.9692 Y86.5320 
G00 Z2.5400 
G00 X-7.9692 Y91.6120 
G01 Z-0.1778 F254.00 
G01 X-5.6908 Y91.6120 F508.00 
G01 X-5.5101 Y91.5834 
G01 X-5.3362 Y91.5269 
G01 X-5.1732 Y91.4439 
G01 X-5.0252 Y91.3364 
G01 X-4.8959 Y91.2070 
G01 X-4.7884 Y91.0590 
G01 X-4.7053 Y90.8961 
G01 X-4.6488 Y90.7221 
G01 X-4.6202 Y90.5415 
G01 X-4.6202 Y90.3585 
G01 X-4.6488 Y90.1779 
G01 X-4.7053 Y90.0039 
G01 X-4.7884 Y89.8410 
G01 X-4.8959 Y89.6930 
G01 X-5.0252 Y89.5636 
G01 X-5.1732 Y89.4561 
G01 X-5.3362 Y89.3731 
G01 X-5.5101 Y89.3166 
G01 X-5.6908 Y89.2880 
G01 X-7.9692 Y89.2880 
G01 X-8.1499 Y89.3166 
G01 X-8.3238 Y89.3731 
G01 X-8.4868 Y89.4561 
G01 X-8.6348 Y89.5636 
G01 X-8.7641 Y89.6930 
G01 X-8.8716 Y89.8410 
G01 X-8.9547 Y90.0039 
G01 X-9.0112 Y90.1779 
G01 X-9.0398 Y90.3585 
G01 X-9.0398 Y90.5415 
G01 X-9.0112 Y90.7221 
G01 X-8.9547 Y90.8961 
G01 X-8.8716 Y91.0590 
G01 X-8.7641 Y91.2070 
G01 X-8.6348 Y91.3364 
G01 X-8.4868 Y91.4439 
G01 X-8.3238 Y91.5269 
G01 X-8.1499 Y91.5834 
G01 X-7.9692 Y91.6120 
G00 Z2.5400 
G00 X-30.3467 Y41.5317 
G01 Z-0.1778 F254.00 
G01 X-30.3467 Y40.1283 F508.00 
G01 X-30.3641 Y40.0863 
G01 X-30.3963 Y40.0541 
G01 X-30.4383 Y40.0367 
G01 X-31.8417 Y40.0367 
G01 X-31.8837 Y40.0541 
G01 X-31.9159 Y40.0863 
G01 X-31.9333 Y40.1283 
G01 X-31.9333 Y41.5317 
G01 X-31.9159 Y41.5737 
G01 X-31.8837 Y41.6059 
G01 X-31.8417 Y41.6233 
G01 X-30.4383 Y41.6233 
G01 X-30.3963 Y41.6059 
G01 X-30.3641 Y41.5737 
G01 X-30.3467 Y41.5317 
G00 Z2.5400 
G00 X-34.4733 Y38.2119 
G01 Z-0.1778 F254.00 
G01 X-34.4733 Y38.3681 F508.00 
G01 X-34.4428 Y38.5214 
G01 X-34.3830 Y38.6658 
G01 X-34.2962 Y38.7957 
G01 X-34.1857 Y38.9062 
G01 X-34.0558 Y38.9930 
G01 X-33.9114 Y39.0528 
G01 X-33.7581 Y39.0833 
G01 X-33.6019 Y39.0833 
G01 X-33.4486 Y39.0528 
G01 X-33.3042 Y38.9930 
G01 X-33.1743 Y38.9062 
G01 X-33.0638 Y38.7957 
G01 X-32.9770 Y38.6658 
G01 X-32.9172 Y38.5214 
G01 X-32.8867 Y38.3681 
G01 X-32.8867 Y38.2119 
G01 X-32.9172 Y38.0586 
G01 X-32.9770 Y37.9142 
G01 X-33.0638 Y37.7843 
G01 X-33.1743 Y37.6738 
G01 X-33.3042 Y37.5870 
G01 X-33.4486 Y37.5272 
G01 X-33.6019 Y37.4967 
G01 X-33.7581 Y37.4967 
G01 X-33.9114 Y37.5272 
G01 X-34.0558 Y37.5870 
G01 X-34.1857 Y37.6738 
G01 X-34.2962 Y37.7843 
G01 X-34.3830 Y37.9142 
G01 X-34.4428 Y38.0586 
G01 X-34.4733 Y38.2119 
G00 Z2.5400 
G00 X-34.4733 Y33.1319 
G01 Z-0.1778 F254.00 
G01 X-34.4733 Y33.2881 F508.00 
G01 X-34.4428 Y33.4414 
G01 X-34.3830 Y33.5858 
G01 X-34.2962 Y33.7157 
G01 X-34.1857 Y33.8262 
G01 X-34.0558 Y33.9130 
G01 X-33.9114 Y33.9728 
G01 X-33.7581 Y34.0033 
G01 X-33.6019 Y34.0033 
G01 X-33.4486 Y33.9728 
G01 X-33.3042 Y33.9130 
G01 X-33.1743 Y33.8262 
G01 X-33.0638 Y33.7157 
G01 X-32.9770 Y33.5858 
G01 X-32.9172 Y33.4414 
G01 X-32.8867 Y33.2881 
G01 X-32.8867 Y33.1319 
G01 X-32.9172 Y32.9786 
G01 X-32.9770 Y32.8342 
G01 X-33.0638 Y32.7043 
G01 X-33.1743 Y32.5938 
G01 X-33.3042 Y32.5070 
G01 X-33.4486 Y32.4472 
G01 X-33.6019 Y32.4167 
G01 X-33.7581 Y32.4167 
G01 X-33.9114 Y32.4472 
G01 X-34.0558 Y32.5070 
G01 X-34.1857 Y32.5938 
G01 X-34.2962 Y32.7043 
G01 X-34.3830 Y32.8342 
G01 X-34.4428 Y32.9786 
G01 X-34.4733 Y33.1319 
G00 Z2.5400 
G00 X-34.4733 Y30.5919 
G01 Z-0.1778 F254.00 
G01 X-34.4733 Y30.7481 F508.00 
G01 X-34.4428 Y30.9014 
G01 X-34.3830 Y31.0458 
G01 X-34.2962 Y31.1757 
G01 X-34.1857 Y31.2862 
G01 X-34.0558 Y31.3730 
G01 X-33.9114 Y31.4328 
G01 X-33.7581 Y31.4633 
G01 X-33.6019 Y31.4633 
G01 X-33.4486 Y31.4328 
G01 X-33.3042 Y31.3730 
G01 X-33.1743 Y31.2862 
G01 X-33.0638 Y31.1757 
G01 X-32.9770 Y31.0458 
G01 X-32.9172 Y30.9014 
G01 X-32.8867 Y30.7481 
G01 X-32.8867 Y30.5919 
G01 X-32.9172 Y30.4386 
G01 X-32.9770 Y30.2942 
G01 X-33.0638 Y30.1643 
G01 X-33.1743 Y30.0538 
G01 X-33.3042 Y29.9670 
G01 X-33.4486 Y29.9072 
G01 X-33.6019 Y29.8767 
G01 X-33.7581 Y29.8767 
G01 X-33.9114 Y29.9072 
G01 X-34.0558 Y29.9670 
G01 X-34.1857 Y30.0538 
G01 X-34.2962 Y30.1643 
G01 X-34.3830 Y30.2942 
G01 X-34.4428 Y30.4386 
G01 X-34.4733 Y30.5919 
G00 Z2.5400 
G00 X-31.9333 Y30.5919 
G01 Z-0.1778 F254.00 
G01 X-31.9333 Y30.7481 F508.00 
G01 X-31.9028 Y30.9014 
G01 X-31.8430 Y31.0458 
G01 X-31.7562 Y31.1757 
G01 X-31.6457 Y31.2862 
G01 X-31.5158 Y31.3730 
G01 X-31.3714 Y31.4328 
G01 X-31.2181 Y31.4633 
G01 X-31.0619 Y31.4633 
G01 X-30.9086 Y31.4328 
G01 X-30.7642 Y31.3730 
G01 X-30.6343 Y31.2862 
G01 X-30.5238 Y31.1757 
G01 X-30.4370 Y31.0458 
G01 X-30.3772 Y30.9014 
G01 X-30.3467 Y30.7481 
G01 X-30.3467 Y30.5919 
G01 X-30.3772 Y30.4386 
G01 X-30.4370 Y30.2942 
G01 X-30.5238 Y30.1643 
G01 X-30.6343 Y30.0538 
G01 X-30.7642 Y29.9670 
G01 X-30.9086 Y29.9072 
G01 X-31.0619 Y29.8767 
G01 X-31.2181 Y29.8767 
G01 X-31.3714 Y29.9072 
G01 X-31.5158 Y29.9670 
G01 X-31.6457 Y30.0538 
G01 X-31.7562 Y30.1643 
G01 X-31.8430 Y30.2942 
G01 X-31.9028 Y30.4386 
G01 X-31.9333 Y30.5919 
G00 Z2.5400 
G00 X-31.9333 Y33.1319 
G01 Z-0.1778 F254.00 
G01 X-31.9333 Y33.2881 F508.00 
G01 X-31.9028 Y33.4414 
G01 X-31.8430 Y33.5858 
G01 X-31.7562 Y33.7157 
G01 X-31.6457 Y33.8262 
G01 X-31.5158 Y33.9130 
G01 X-31.3714 Y33.9728 
G01 X-31.2181 Y34.0033 
G01 X-31.0619 Y34.0033 
G01 X-30.9086 Y33.9728 
G01 X-30.7642 Y33.9130 
G01 X-30.6343 Y33.8262 
G01 X-30.5238 Y33.7157 
G01 X-30.4370 Y33.5858 
G01 X-30.3772 Y33.4414 
G01 X-30.3467 Y33.2881 
G01 X-30.3467 Y33.1319 
G01 X-30.3772 Y32.9786 
G01 X-30.4370 Y32.8342 
G01 X-30.5238 Y32.7043 
G01 X-30.6343 Y32.5938 
G01 X-30.7642 Y32.5070 
G01 X-30.9086 Y32.4472 
G01 X-31.0619 Y32.4167 
G01 X-31.2181 Y32.4167 
G01 X-31.3714 Y32.4472 
G01 X-31.5158 Y32.5070 
G01 X-31.6457 Y32.5938 
G01 X-31.7562 Y32.7043 
G01 X-31.8430 Y32.8342 
G01 X-31.9028 Y32.9786 
G01 X-31.9333 Y33.1319 
G00 Z2.5400 
G00 X-31.9333 Y35.6719 
G01 Z-0.1778 F254.00 
G01 X-31.9333 Y35.8281 F508.00 
G01 X-31.9028 Y35.9814 
G01 X-31.8430 Y36.1258 
G01 X-31.7562 Y36.2557 
G01 X-31.6457 Y36.3662 
G01 X-31.5158 Y36.4530 
G01 X-31.3714 Y36.5128 
G01 X-31.3393 Y36.5192 
G01 X-31.3393 Y36.6098 
G01 X-31.3213 Y36.6770 
G01 X-31.2865 Y36.7373 
G01 X-30.2393 Y37.7845 
G01 X-30.2393 Y71.2530 
G01 X-46.8027 Y87.8165 
G01 X-46.8275 Y87.7985 
G01 X-46.9754 Y87.7231 
G01 X-47.1332 Y87.6719 
G01 X-47.2970 Y87.6459 
G01 X-47.4630 Y87.6459 
G01 X-47.6268 Y87.6719 
G01 X-47.7846 Y87.7231 
G01 X-47.9325 Y87.7985 
G01 X-48.0667 Y87.8960 
G01 X-48.1840 Y88.0133 
G01 X-48.2815 Y88.1475 
G01 X-48.3569 Y88.2954 
G01 X-48.4081 Y88.4532 
G01 X-48.4341 Y88.6170 
G01 X-48.4341 Y88.7830 
G01 X-48.4081 Y88.9468 
G01 X-48.3569 Y89.1046 
G01 X-48.2815 Y89.2525 
G01 X-48.1840 Y89.3867 
G01 X-48.0667 Y89.5040 
G01 X-47.9325 Y89.6015 
G01 X-47.7846 Y89.6769 
G01 X-47.6268 Y89.7281 
G01 X-47.4630 Y89.7541 
G01 X-47.2970 Y89.7541 
G01 X-47.1332 Y89.7281 
G01 X-46.9754 Y89.6769 
G01 X-46.8275 Y89.6015 
G01 X-46.6933 Y89.5040 
G01 X-46.5760 Y89.3867 
G01 X-46.4785 Y89.2525 
G01 X-46.4031 Y89.1046 
G01 X-46.3519 Y88.9468 
G01 X-46.3259 Y88.7830 
G01 X-46.3259 Y88.6170 
G01 X-46.3519 Y88.4532 
G01 X-46.4031 Y88.2954 
G01 X-46.4473 Y88.2086 
G01 X-29.7635 Y71.5248 
G01 X-29.7287 Y71.4645 
G01 X-29.7107 Y71.3973 
G01 X-29.7107 Y37.6402 
G01 X-29.7287 Y37.5730 
G01 X-29.7635 Y37.5127 
G01 X-29.8127 Y37.4635 
G01 X-30.8059 Y36.4703 
G01 X-30.7642 Y36.4530 
G01 X-30.6343 Y36.3662 
G01 X-30.5238 Y36.2557 
G01 X-30.4370 Y36.1258 
G01 X-30.3772 Y35.9814 
G01 X-30.3467 Y35.8281 
G01 X-30.3467 Y35.6719 
G01 X-30.3772 Y35.5186 
G01 X-30.4370 Y35.3742 
G01 X-30.5238 Y35.2443 
G01 X-30.6343 Y35.1338 
G01 X-30.7642 Y35.0470 
G01 X-30.9086 Y34.9872 
G01 X-31.0619 Y34.9567 
G01 X-31.2181 Y34.9567 
G01 X-31.3714 Y34.9872 
G01 X-31.5158 Y35.0470 
G01 X-31.6457 Y35.1338 
G01 X-31.7562 Y35.2443 
G01 X-31.8430 Y35.3742 
G01 X-31.9028 Y35.5186 
G01 X-31.9333 Y35.6719 
G00 Z2.5400 
G00 X-31.9333 Y38.2119 
G01 Z-0.1778 F254.00 
G01 X-31.9333 Y38.3681 F508.00 
G01 X-31.9028 Y38.5214 
G01 X-31.8430 Y38.6658 
G01 X-31.7562 Y38.7957 
G01 X-31.6457 Y38.9062 
G01 X-31.5158 Y38.9930 
G01 X-31.3714 Y39.0528 
G01 X-31.2181 Y39.0833 
G01 X-31.0619 Y39.0833 
G01 X-30.9086 Y39.0528 
G01 X-30.7642 Y38.9930 
G01 X-30.6343 Y38.9062 
G01 X-30.5238 Y38.7957 
G01 X-30.4370 Y38.6658 
G01 X-30.3772 Y38.5214 
G01 X-30.3467 Y38.3681 
G01 X-30.3467 Y38.2119 
G01 X-30.3772 Y38.0586 
G01 X-30.4370 Y37.9142 
G01 X-30.5238 Y37.7843 
G01 X-30.6343 Y37.6738 
G01 X-30.7642 Y37.5870 
G01 X-30.9086 Y37.5272 
G01 X-30.9482 Y37.5193 
G01 X-30.9482 Y37.2277 
G01 X-30.9662 Y37.1605 
G01 X-31.0010 Y37.1002 
G01 X-32.0482 Y36.0530 
G01 X-32.0482 Y35.4470 
G01 X-31.5155 Y34.9143 
G01 X-30.7720 Y34.9143 
G01 X-29.6893 Y35.9970 
G01 X-29.6893 Y73.1780 
G01 X-46.8422 Y90.3310 
G01 X-46.9754 Y90.2631 
G01 X-47.1332 Y90.2119 
G01 X-47.2970 Y90.1859 
G01 X-47.4630 Y90.1859 
G01 X-47.6268 Y90.2119 
G01 X-47.7846 Y90.2631 
G01 X-47.9325 Y90.3385 
G01 X-48.0667 Y90.4360 
G01 X-48.1840 Y90.5533 
G01 X-48.2815 Y90.6875 
G01 X-48.3569 Y90.8354 
G01 X-48.4081 Y90.9932 
G01 X-48.4341 Y91.1570 
G01 X-48.4341 Y91.3230 
G01 X-48.4081 Y91.4868 
G01 X-48.3569 Y91.6446 
G01 X-48.2815 Y91.7925 
G01 X-48.1840 Y91.9267 
G01 X-48.0667 Y92.0440 
G01 X-47.9325 Y92.1415 
G01 X-47.7846 Y92.2169 
G01 X-47.6268 Y92.2681 
G01 X-47.4630 Y92.2941 
G01 X-47.2970 Y92.2941 
G01 X-47.1332 Y92.2681 
G01 X-46.9754 Y92.2169 
G01 X-46.8275 Y92.1415 
G01 X-46.6933 Y92.0440 
G01 X-46.5760 Y91.9267 
G01 X-46.4785 Y91.7925 
G01 X-46.4031 Y91.6446 
G01 X-46.3519 Y91.4868 
G01 X-46.3259 Y91.3230 
G01 X-46.3259 Y91.1570 
G01 X-46.3519 Y90.9932 
G01 X-46.4031 Y90.8354 
G01 X-46.4693 Y90.7055 
G01 X-29.2135 Y73.4498 
G01 X-29.1787 Y73.3895 
G01 X-29.1607 Y73.3223 
G01 X-29.1607 Y35.8527 
G01 X-29.1787 Y35.7855 
G01 X-29.2135 Y35.7252 
G01 X-29.2627 Y35.6760 
G01 X-30.5002 Y34.4385 
G01 X-30.5605 Y34.4037 
G01 X-30.6277 Y34.3857 
G01 X-31.6598 Y34.3857 
G01 X-31.7270 Y34.4037 
G01 X-31.7873 Y34.4385 
G01 X-31.8365 Y34.4877 
G01 X-32.5240 Y35.1752 
G01 X-32.5588 Y35.2355 
G01 X-32.5768 Y35.3027 
G01 X-32.5768 Y36.1973 
G01 X-32.5588 Y36.2645 
G01 X-32.5240 Y36.3248 
G01 X-32.4748 Y36.3740 
G01 X-31.4768 Y37.3720 
G01 X-31.4768 Y37.5708 
G01 X-31.5158 Y37.5870 
G01 X-31.6457 Y37.6738 
G01 X-31.7562 Y37.7843 
G01 X-31.8430 Y37.9142 
G01 X-31.9028 Y38.0586 
G01 X-31.9333 Y38.2119 
G00 Z2.5400 
G00 X-48.4341 Y63.2170 
G01 Z-0.1778 F254.00 
G01 X-48.4341 Y63.3830 F508.00 
G01 X-48.4081 Y63.5468 
G01 X-48.3569 Y63.7046 
G01 X-48.2815 Y63.8525 
G01 X-48.1840 Y63.9867 
G01 X-48.0667 Y64.1040 
G01 X-47.9325 Y64.2015 
G01 X-47.7846 Y64.2769 
G01 X-47.6268 Y64.3281 
G01 X-47.4630 Y64.3541 
G01 X-47.2970 Y64.3541 
G01 X-47.1332 Y64.3281 
G01 X-46.9754 Y64.2769 
G01 X-46.8275 Y64.2015 
G01 X-46.6933 Y64.1040 
G01 X-46.5760 Y63.9867 
G01 X-46.4785 Y63.8525 
G01 X-46.4031 Y63.7046 
G01 X-46.3519 Y63.5468 
G01 X-46.3259 Y63.3830 
G01 X-46.3259 Y63.2170 
G01 X-46.3519 Y63.0532 
G01 X-46.4031 Y62.8954 
G01 X-46.4785 Y62.7475 
G01 X-46.5760 Y62.6133 
G01 X-46.6933 Y62.4960 
G01 X-46.8275 Y62.3985 
G01 X-46.9754 Y62.3231 
G01 X-47.1332 Y62.2719 
G01 X-47.2970 Y62.2459 
G01 X-47.4630 Y62.2459 
G01 X-47.6268 Y62.2719 
G01 X-47.7846 Y62.3231 
G01 X-47.9325 Y62.3985 
G01 X-48.0667 Y62.4960 
G01 X-48.1840 Y62.6133 
G01 X-48.2815 Y62.7475 
G01 X-48.3569 Y62.8954 
G01 X-48.4081 Y63.0532 
G01 X-48.4341 Y63.2170 
G00 Z2.5400 
G00 X-48.4341 Y65.7570 
G01 Z-0.1778 F254.00 
G01 X-48.4341 Y65.9230 F508.00 
G01 X-48.4081 Y66.0868 
G01 X-48.3569 Y66.2446 
G01 X-48.2815 Y66.3925 
G01 X-48.1840 Y66.5267 
G01 X-48.0667 Y66.6440 
G01 X-47.9325 Y66.7415 
G01 X-47.7846 Y66.8169 
G01 X-47.6268 Y66.8681 
G01 X-47.4630 Y66.8941 
G01 X-47.2970 Y66.8941 
G01 X-47.1332 Y66.8681 
G01 X-46.9754 Y66.8169 
G01 X-46.8275 Y66.7415 
G01 X-46.6933 Y66.6440 
G01 X-46.5760 Y66.5267 
G01 X-46.4785 Y66.3925 
G01 X-46.4031 Y66.2446 
G01 X-46.3519 Y66.0868 
G01 X-46.3259 Y65.9230 
G01 X-46.3259 Y65.7570 
G01 X-46.3519 Y65.5932 
G01 X-46.4031 Y65.4354 
G01 X-46.4785 Y65.2875 
G01 X-46.5760 Y65.1533 
G01 X-46.6933 Y65.0360 
G01 X-46.8275 Y64.9385 
G01 X-46.9754 Y64.8631 
G01 X-47.1332 Y64.8119 
G01 X-47.2970 Y64.7859 
G01 X-47.4630 Y64.7859 
G01 X-47.6268 Y64.8119 
G01 X-47.7846 Y64.8631 
G01 X-47.9325 Y64.9385 
G01 X-48.0667 Y65.0360 
G01 X-48.1840 Y65.1533 
G01 X-48.2815 Y65.2875 
G01 X-48.3569 Y65.4354 
G01 X-48.4081 Y65.5932 
G01 X-48.4341 Y65.7570 
G00 Z2.5400 
G00 X-48.4341 Y68.2970 
G01 Z-0.1778 F254.00 
G01 X-48.4341 Y68.4630 F508.00 
G01 X-48.4081 Y68.6268 
G01 X-48.3569 Y68.7846 
G01 X-48.2815 Y68.9325 
G01 X-48.1840 Y69.0667 
G01 X-48.0667 Y69.1840 
G01 X-47.9325 Y69.2815 
G01 X-47.7846 Y69.3569 
G01 X-47.6268 Y69.4081 
G01 X-47.4630 Y69.4341 
G01 X-47.2970 Y69.4341 
G01 X-47.1332 Y69.4081 
G01 X-46.9754 Y69.3569 
G01 X-46.8275 Y69.2815 
G01 X-46.6933 Y69.1840 
G01 X-46.5760 Y69.0667 
G01 X-46.4785 Y68.9325 
G01 X-46.4031 Y68.7846 
G01 X-46.3519 Y68.6268 
G01 X-46.3259 Y68.4630 
G01 X-46.3259 Y68.2970 
G01 X-46.3519 Y68.1332 
G01 X-46.4031 Y67.9754 
G01 X-46.4785 Y67.8275 
G01 X-46.5760 Y67.6933 
G01 X-46.6933 Y67.5760 
G01 X-46.8275 Y67.4785 
G01 X-46.9754 Y67.4031 
G01 X-47.1332 Y67.3519 
G01 X-47.2970 Y67.3259 
G01 X-47.4630 Y67.3259 
G01 X-47.6268 Y67.3519 
G01 X-47.7846 Y67.4031 
G01 X-47.9325 Y67.4785 
G01 X-48.0667 Y67.5760 
G01 X-48.1840 Y67.6933 
G01 X-48.2815 Y67.8275 
G01 X-48.3569 Y67.9754 
G01 X-48.4081 Y68.1332 
G01 X-48.4341 Y68.2970 
G00 Z2.5400 
G00 X-48.4341 Y70.8370 
G01 Z-0.1778 F254.00 
G01 X-48.4341 Y71.0030 F508.00 
G01 X-48.4081 Y71.1668 
G01 X-48.3569 Y71.3246 
G01 X-48.2815 Y71.4725 
G01 X-48.1840 Y71.6067 
G01 X-48.0667 Y71.7240 
G01 X-48.0485 Y71.7372 
G01 X-61.3498 Y85.0385 
G01 X-61.3990 Y85.0877 
G01 X-61.4338 Y85.1480 
G01 X-61.4518 Y85.2152 
G01 X-61.4518 Y91.6030 
G01 X-62.2595 Y92.4107 
G01 X-72.9030 Y92.4107 
G01 X-79.0515 Y86.2622 
G01 X-78.9294 Y86.1807 
G01 X-78.8073 Y86.0586 
G01 X-78.7114 Y85.9151 
G01 X-78.6454 Y85.7556 
G01 X-78.6117 Y85.5863 
G01 X-78.6117 Y85.4137 
G01 X-78.6454 Y85.2444 
G01 X-78.7114 Y85.0849 
G01 X-78.8073 Y84.9414 
G01 X-78.9294 Y84.8193 
G01 X-79.0729 Y84.7234 
G01 X-79.2324 Y84.6574 
G01 X-79.4017 Y84.6237 
G01 X-81.0983 Y84.6237 
G01 X-81.2676 Y84.6574 
G01 X-81.4271 Y84.7234 
G01 X-81.5706 Y84.8193 
G01 X-81.6927 Y84.9414 
G01 X-81.7886 Y85.0849 
G01 X-81.8546 Y85.2444 
G01 X-81.8883 Y85.4137 
G01 X-81.8883 Y85.5863 
G01 X-81.8546 Y85.7556 
G01 X-81.7886 Y85.9151 
G01 X-81.6927 Y86.0586 
G01 X-81.5706 Y86.1807 
G01 X-81.4271 Y86.2766 
G01 X-81.2676 Y86.3426 
G01 X-81.0983 Y86.3763 
G01 X-79.6850 Y86.3763 
G01 X-73.1748 Y92.8865 
G01 X-73.1145 Y92.9213 
G01 X-73.0473 Y92.9393 
G01 X-62.1152 Y92.9393 
G01 X-62.0480 Y92.9213 
G01 X-61.9877 Y92.8865 
G01 X-61.9385 Y92.8373 
G01 X-60.9760 Y91.8748 
G01 X-60.9412 Y91.8145 
G01 X-60.9232 Y91.7473 
G01 X-60.9232 Y85.3595 
G01 X-47.5276 Y71.9639 
G01 X-47.4630 Y71.9741 
G01 X-47.2970 Y71.9741 
G01 X-47.1332 Y71.9481 
G01 X-46.9754 Y71.8969 
G01 X-46.8275 Y71.8215 
G01 X-46.6933 Y71.7240 
G01 X-46.5760 Y71.6067 
G01 X-46.4785 Y71.4725 
G01 X-46.4031 Y71.3246 
G01 X-46.3519 Y71.1668 
G01 X-46.3259 Y71.0030 
G01 X-46.3259 Y70.8370 
G01 X-46.3519 Y70.6732 
G01 X-46.4031 Y70.5154 
G01 X-46.4785 Y70.3675 
G01 X-46.5760 Y70.2333 
G01 X-46.6933 Y70.1160 
G01 X-46.8275 Y70.0185 
G01 X-46.9754 Y69.9431 
G01 X-47.1332 Y69.8919 
G01 X-47.2970 Y69.8659 
G01 X-47.4603 Y69.8659 
G01 X-48.5482 Y68.7780 
G01 X-48.5482 Y60.8652 
G01 X-48.4640 Y60.8166 
G01 X-48.3584 Y60.7110 
G01 X-48.2837 Y60.5815 
G01 X-48.2450 Y60.4372 
G01 X-48.2450 Y60.2878 
G01 X-48.2837 Y60.1435 
G01 X-48.3584 Y60.0140 
G01 X-48.4640 Y59.9084 
G01 X-48.5935 Y59.8337 
G01 X-48.7378 Y59.7950 
G01 X-48.8872 Y59.7950 
G01 X-49.0315 Y59.8337 
G01 X-49.1609 Y59.9084 
G01 X-49.2666 Y60.0140 
G01 X-49.3413 Y60.1435 
G01 X-49.3800 Y60.2878 
G01 X-49.3800 Y60.4372 
G01 X-49.3413 Y60.5815 
G01 X-49.2666 Y60.7110 
G01 X-49.1609 Y60.8166 
G01 X-49.0768 Y60.8652 
G01 X-49.0768 Y68.9223 
G01 X-49.0588 Y68.9895 
G01 X-49.0240 Y69.0498 
G01 X-48.9748 Y69.0990 
G01 X-48.0036 Y70.0701 
G01 X-48.0667 Y70.1160 
G01 X-48.1840 Y70.2333 
G01 X-48.2815 Y70.3675 
G01 X-48.3569 Y70.5154 
G01 X-48.4081 Y70.6732 
G01 X-48.4341 Y70.8370 
G00 Z2.5400 
G00 X-48.4341 Y73.3770 
G01 Z-0.1778 F254.00 
G01 X-48.4341 Y73.5430 F508.00 
G01 X-48.4081 Y73.7068 
G01 X-48.3569 Y73.8646 
G01 X-48.2815 Y74.0125 
G01 X-48.1840 Y74.1467 
G01 X-48.0667 Y74.2640 
G01 X-47.9325 Y74.3615 
G01 X-47.7846 Y74.4369 
G01 X-47.6268 Y74.4881 
G01 X-47.4630 Y74.5141 
G01 X-47.2970 Y74.5141 
G01 X-47.1332 Y74.4881 
G01 X-46.9754 Y74.4369 
G01 X-46.8275 Y74.3615 
G01 X-46.6933 Y74.2640 
G01 X-46.5760 Y74.1467 
G01 X-46.4785 Y74.0125 
G01 X-46.4031 Y73.8646 
G01 X-46.3519 Y73.7068 
G01 X-46.3259 Y73.5430 
G01 X-46.3259 Y73.3770 
G01 X-46.3519 Y73.2132 
G01 X-46.4031 Y73.0554 
G01 X-46.4785 Y72.9075 
G01 X-46.5760 Y72.7733 
G01 X-46.6933 Y72.6560 
G01 X-46.8275 Y72.5585 
G01 X-46.9754 Y72.4831 
G01 X-47.1332 Y72.4319 
G01 X-47.2970 Y72.4059 
G01 X-47.4630 Y72.4059 
G01 X-47.6268 Y72.4319 
G01 X-47.7846 Y72.4831 
G01 X-47.9325 Y72.5585 
G01 X-48.0667 Y72.6560 
G01 X-48.1840 Y72.7733 
G01 X-48.2815 Y72.9075 
G01 X-48.3569 Y73.0554 
G01 X-48.4081 Y73.2132 
G01 X-48.4341 Y73.3770 
G00 Z2.5400 
G00 X-48.4341 Y75.9170 
G01 Z-0.1778 F254.00 
G01 X-48.4341 Y76.0830 F508.00 
G01 X-48.4081 Y76.2468 
G01 X-48.3569 Y76.4046 
G01 X-48.2815 Y76.5525 
G01 X-48.1840 Y76.6867 
G01 X-48.0667 Y76.8040 
G01 X-47.9325 Y76.9015 
G01 X-47.7846 Y76.9769 
G01 X-47.6268 Y77.0281 
G01 X-47.4630 Y77.0541 
G01 X-47.2970 Y77.0541 
G01 X-47.1332 Y77.0281 
G01 X-46.9754 Y76.9769 
G01 X-46.8275 Y76.9015 
G01 X-46.6933 Y76.8040 
G01 X-46.5760 Y76.6867 
G01 X-46.4785 Y76.5525 
G01 X-46.4031 Y76.4046 
G01 X-46.3519 Y76.2468 
G01 X-46.3259 Y76.0830 
G01 X-46.3259 Y75.9170 
G01 X-46.3519 Y75.7532 
G01 X-46.4031 Y75.5954 
G01 X-46.4785 Y75.4475 
G01 X-46.5760 Y75.3133 
G01 X-46.6933 Y75.1960 
G01 X-46.8275 Y75.0985 
G01 X-46.9754 Y75.0231 
G01 X-47.1332 Y74.9719 
G01 X-47.2970 Y74.9459 
G01 X-47.4630 Y74.9459 
G01 X-47.6268 Y74.9719 
G01 X-47.7846 Y75.0231 
G01 X-47.9325 Y75.0985 
G01 X-48.0667 Y75.1960 
G01 X-48.1840 Y75.3133 
G01 X-48.2815 Y75.4475 
G01 X-48.3569 Y75.5954 
G01 X-48.4081 Y75.7532 
G01 X-48.4341 Y75.9170 
G00 Z2.5400 
G00 X-48.4341 Y78.4570 
G01 Z-0.1778 F254.00 
G01 X-48.4341 Y78.6230 F508.00 
G01 X-48.4081 Y78.7868 
G01 X-48.3569 Y78.9446 
G01 X-48.2815 Y79.0925 
G01 X-48.1840 Y79.2267 
G01 X-48.0667 Y79.3440 
G01 X-47.9325 Y79.4415 
G01 X-47.7846 Y79.5169 
G01 X-47.6268 Y79.5681 
G01 X-47.4630 Y79.5941 
G01 X-47.2970 Y79.5941 
G01 X-47.1332 Y79.5681 
G01 X-46.9754 Y79.5169 
G01 X-46.8275 Y79.4415 
G01 X-46.6933 Y79.3440 
G01 X-46.5760 Y79.2267 
G01 X-46.4785 Y79.0925 
G01 X-46.4031 Y78.9446 
G01 X-46.3519 Y78.7868 
G01 X-46.3259 Y78.6230 
G01 X-46.3259 Y78.4570 
G01 X-46.3519 Y78.2932 
G01 X-46.4031 Y78.1354 
G01 X-46.4785 Y77.9875 
G01 X-46.5760 Y77.8533 
G01 X-46.6933 Y77.7360 
G01 X-46.8275 Y77.6385 
G01 X-46.9754 Y77.5631 
G01 X-47.1332 Y77.5119 
G01 X-47.2970 Y77.4859 
G01 X-47.4630 Y77.4859 
G01 X-47.6268 Y77.5119 
G01 X-47.7846 Y77.5631 
G01 X-47.9325 Y77.6385 
G01 X-48.0667 Y77.7360 
G01 X-48.1840 Y77.8533 
G01 X-48.2815 Y77.9875 
G01 X-48.3569 Y78.1354 
G01 X-48.4081 Y78.2932 
G01 X-48.4341 Y78.4570 
G00 Z2.5400 
G00 X-48.4341 Y83.5370 
G01 Z-0.1778 F254.00 
G01 X-48.4341 Y83.7030 F508.00 
G01 X-48.4081 Y83.8668 
G01 X-48.3569 Y84.0246 
G01 X-48.2815 Y84.1725 
G01 X-48.1840 Y84.3067 
G01 X-48.0667 Y84.4240 
G01 X-47.9325 Y84.5215 
G01 X-47.7846 Y84.5969 
G01 X-47.6268 Y84.6481 
G01 X-47.4630 Y84.6741 
G01 X-47.2970 Y84.6741 
G01 X-47.1332 Y84.6481 
G01 X-46.9754 Y84.5969 
G01 X-46.8275 Y84.5215 
G01 X-46.6933 Y84.4240 
G01 X-46.5760 Y84.3067 
G01 X-46.4785 Y84.1725 
G01 X-46.4031 Y84.0246 
G01 X-46.3519 Y83.8668 
G01 X-46.3259 Y83.7030 
G01 X-46.3259 Y83.5370 
G01 X-46.3519 Y83.3732 
G01 X-46.4031 Y83.2154 
G01 X-46.4499 Y83.1236 
G01 X-45.7135 Y82.3873 
G01 X-45.6787 Y82.3270 
G01 X-45.6607 Y82.2598 
G01 X-45.6607 Y49.0595 
G01 X-33.4760 Y36.8748 
G01 X-33.4412 Y36.8145 
G01 X-33.4232 Y36.7473 
G01 X-33.4232 Y36.5023 
G01 X-33.3042 Y36.4530 
G01 X-33.1743 Y36.3662 
G01 X-33.0638 Y36.2557 
G01 X-32.9770 Y36.1258 
G01 X-32.9172 Y35.9814 
G01 X-32.8867 Y35.8281 
G01 X-32.8867 Y35.6719 
G01 X-32.9172 Y35.5186 
G01 X-32.9770 Y35.3742 
G01 X-33.0638 Y35.2443 
G01 X-33.1743 Y35.1338 
G01 X-33.3042 Y35.0470 
G01 X-33.4486 Y34.9872 
G01 X-33.6019 Y34.9567 
G01 X-33.7581 Y34.9567 
G01 X-33.9114 Y34.9872 
G01 X-34.0558 Y35.0470 
G01 X-34.1857 Y35.1338 
G01 X-34.2962 Y35.2443 
G01 X-34.3830 Y35.3742 
G01 X-34.4428 Y35.5186 
G01 X-34.4733 Y35.6719 
G01 X-34.4733 Y35.8281 
G01 X-34.4428 Y35.9814 
G01 X-34.3830 Y36.1258 
G01 X-34.2962 Y36.2557 
G01 X-34.1857 Y36.3662 
G01 X-34.0558 Y36.4530 
G01 X-33.9518 Y36.4961 
G01 X-33.9518 Y36.6030 
G01 X-46.0873 Y48.7385 
G01 X-46.1365 Y48.7877 
G01 X-46.1713 Y48.8480 
G01 X-46.1893 Y48.9152 
G01 X-46.1893 Y82.1155 
G01 X-46.8071 Y82.7333 
G01 X-46.8275 Y82.7185 
G01 X-46.9754 Y82.6431 
G01 X-47.1332 Y82.5919 
G01 X-47.2970 Y82.5659 
G01 X-47.4630 Y82.5659 
G01 X-47.6268 Y82.5919 
G01 X-47.7846 Y82.6431 
G01 X-47.9325 Y82.7185 
G01 X-48.0667 Y82.8160 
G01 X-48.1840 Y82.9333 
G01 X-48.2815 Y83.0675 
G01 X-48.3569 Y83.2154 
G01 X-48.4081 Y83.3732 
G01 X-48.4341 Y83.5370 
G00 Z2.5400 
G00 X-63.6741 Y91.1570 
G01 Z-0.1778 F254.00 
G01 X-63.6741 Y91.3230 F508.00 
G01 X-63.6481 Y91.4868 
G01 X-63.5969 Y91.6446 
G01 X-63.5215 Y91.7925 
G01 X-63.4240 Y91.9267 
G01 X-63.3067 Y92.0440 
G01 X-63.1725 Y92.1415 
G01 X-63.0246 Y92.2169 
G01 X-62.8668 Y92.2681 
G01 X-62.7030 Y92.2941 
G01 X-62.5370 Y92.2941 
G01 X-62.3732 Y92.2681 
G01 X-62.2154 Y92.2169 
G01 X-62.0675 Y92.1415 
G01 X-61.9333 Y92.0440 
G01 X-61.8160 Y91.9267 
G01 X-61.7185 Y91.7925 
G01 X-61.6431 Y91.6446 
G01 X-61.5919 Y91.4868 
G01 X-61.5659 Y91.3230 
G01 X-61.5659 Y91.1570 
G01 X-61.5919 Y90.9932 
G01 X-61.6431 Y90.8354 
G01 X-61.7185 Y90.6875 
G01 X-61.8160 Y90.5533 
G01 X-61.9333 Y90.4360 
G01 X-62.0675 Y90.3385 
G01 X-62.2154 Y90.2631 
G01 X-62.3732 Y90.2119 
G01 X-62.5370 Y90.1859 
G01 X-62.7030 Y90.1859 
G01 X-62.8668 Y90.2119 
G01 X-63.0246 Y90.2631 
G01 X-63.1725 Y90.3385 
G01 X-63.3067 Y90.4360 
G01 X-63.4240 Y90.5533 
G01 X-63.5215 Y90.6875 
G01 X-63.5969 Y90.8354 
G01 X-63.6481 Y90.9932 
G01 X-63.6741 Y91.1570 
G00 Z2.5400 
G00 X-63.6741 Y88.6170 
G01 Z-0.1778 F254.00 
G01 X-63.6741 Y88.7830 F508.00 
G01 X-63.6481 Y88.9468 
G01 X-63.5969 Y89.1046 
G01 X-63.5215 Y89.2525 
G01 X-63.4240 Y89.3867 
G01 X-63.3067 Y89.5040 
G01 X-63.1725 Y89.6015 
G01 X-63.0246 Y89.6769 
G01 X-62.8668 Y89.7281 
G01 X-62.7030 Y89.7541 
G01 X-62.5370 Y89.7541 
G01 X-62.3732 Y89.7281 
G01 X-62.2154 Y89.6769 
G01 X-62.0675 Y89.6015 
G01 X-61.9333 Y89.5040 
G01 X-61.8160 Y89.3867 
G01 X-61.7185 Y89.2525 
G01 X-61.6431 Y89.1046 
G01 X-61.5919 Y88.9468 
G01 X-61.5659 Y88.7830 
G01 X-61.5659 Y88.6170 
G01 X-61.5919 Y88.4532 
G01 X-61.6431 Y88.2954 
G01 X-61.7185 Y88.1475 
G01 X-61.8160 Y88.0133 
G01 X-61.9333 Y87.8960 
G01 X-62.0675 Y87.7985 
G01 X-62.2154 Y87.7231 
G01 X-62.3732 Y87.6719 
G01 X-62.5370 Y87.6459 
G01 X-62.7030 Y87.6459 
G01 X-62.8668 Y87.6719 
G01 X-63.0246 Y87.7231 
G01 X-63.1725 Y87.7985 
G01 X-63.3067 Y87.8960 
G01 X-63.4240 Y88.0133 
G01 X-63.5215 Y88.1475 
G01 X-63.5969 Y88.2954 
G01 X-63.6481 Y88.4532 
G01 X-63.6741 Y88.6170 
G00 Z2.5400 
G00 X-63.6741 Y86.0770 
G01 Z-0.1778 F254.00 
G01 X-63.6741 Y86.2430 F508.00 
G01 X-63.6481 Y86.4068 
G01 X-63.5969 Y86.5646 
G01 X-63.5215 Y86.7125 
G01 X-63.4240 Y86.8467 
G01 X-63.3067 Y86.9640 
G01 X-63.1725 Y87.0615 
G01 X-63.0246 Y87.1369 
G01 X-62.8668 Y87.1881 
G01 X-62.7030 Y87.2141 
G01 X-62.5370 Y87.2141 
G01 X-62.3732 Y87.1881 
G01 X-62.2154 Y87.1369 
G01 X-62.0675 Y87.0615 
G01 X-61.9333 Y86.9640 
G01 X-61.8160 Y86.8467 
G01 X-61.7185 Y86.7125 
G01 X-61.6431 Y86.5646 
G01 X-61.5919 Y86.4068 
G01 X-61.5659 Y86.2430 
G01 X-61.5659 Y86.0770 
G01 X-61.5919 Y85.9132 
G01 X-61.6431 Y85.7554 
G01 X-61.7185 Y85.6075 
G01 X-61.8160 Y85.4733 
G01 X-61.9333 Y85.3560 
G01 X-62.0675 Y85.2585 
G01 X-62.2154 Y85.1831 
G01 X-62.3732 Y85.1319 
G01 X-62.5370 Y85.1059 
G01 X-62.7030 Y85.1059 
G01 X-62.8668 Y85.1319 
G01 X-63.0246 Y85.1831 
G01 X-63.1725 Y85.2585 
G01 X-63.3067 Y85.3560 
G01 X-63.4240 Y85.4733 
G01 X-63.5215 Y85.6075 
G01 X-63.5969 Y85.7554 
G01 X-63.6481 Y85.9132 
G01 X-63.6741 Y86.0770 
G00 Z2.5400 
G00 X-63.6741 Y83.5370 
G01 Z-0.1778 F254.00 
G01 X-63.6741 Y83.7030 F508.00 
G01 X-63.6481 Y83.8668 
G01 X-63.5969 Y84.0246 
G01 X-63.5215 Y84.1725 
G01 X-63.4240 Y84.3067 
G01 X-63.3067 Y84.4240 
G01 X-63.1725 Y84.5215 
G01 X-63.0246 Y84.5969 
G01 X-62.8668 Y84.6481 
G01 X-62.7030 Y84.6741 
G01 X-62.5370 Y84.6741 
G01 X-62.3732 Y84.6481 
G01 X-62.2154 Y84.5969 
G01 X-62.0675 Y84.5215 
G01 X-61.9333 Y84.4240 
G01 X-61.8160 Y84.3067 
G01 X-61.7185 Y84.1725 
G01 X-61.6431 Y84.0246 
G01 X-61.5919 Y83.8668 
G01 X-61.5659 Y83.7030 
G01 X-61.5659 Y83.5370 
G01 X-61.5919 Y83.3732 
G01 X-61.6431 Y83.2154 
G01 X-61.7185 Y83.0675 
G01 X-61.8160 Y82.9333 
G01 X-61.9333 Y82.8160 
G01 X-62.0675 Y82.7185 
G01 X-62.2154 Y82.6431 
G01 X-62.3732 Y82.5919 
G01 X-62.5370 Y82.5659 
G01 X-62.7030 Y82.5659 
G01 X-62.8668 Y82.5919 
G01 X-63.0246 Y82.6431 
G01 X-63.1725 Y82.7185 
G01 X-63.3067 Y82.8160 
G01 X-63.4240 Y82.9333 
G01 X-63.5215 Y83.0675 
G01 X-63.5969 Y83.2154 
G01 X-63.6481 Y83.3732 
G01 X-63.6741 Y83.5370 
G00 Z2.5400 
G00 X-63.6741 Y80.9970 
G01 Z-0.1778 F254.00 
G01 X-63.6741 Y81.1630 F508.00 
G01 X-63.6481 Y81.3268 
G01 X-63.5969 Y81.4846 
G01 X-63.5215 Y81.6325 
G01 X-63.4240 Y81.7667 
G01 X-63.3067 Y81.8840 
G01 X-63.1725 Y81.9815 
G01 X-63.0246 Y82.0569 
G01 X-62.8668 Y82.1081 
G01 X-62.7030 Y82.1341 
G01 X-62.5370 Y82.1341 
G01 X-62.3732 Y82.1081 
G01 X-62.2154 Y82.0569 
G01 X-62.0675 Y81.9815 
G01 X-61.9333 Y81.8840 
G01 X-61.8160 Y81.7667 
G01 X-61.7185 Y81.6325 
G01 X-61.6431 Y81.4846 
G01 X-61.5919 Y81.3268 
G01 X-61.5659 Y81.1630 
G01 X-61.5659 Y80.9970 
G01 X-61.5919 Y80.8332 
G01 X-61.6431 Y80.6754 
G01 X-61.7185 Y80.5275 
G01 X-61.8160 Y80.3933 
G01 X-61.9333 Y80.2760 
G01 X-62.0675 Y80.1785 
G01 X-62.2154 Y80.1031 
G01 X-62.3732 Y80.0519 
G01 X-62.5370 Y80.0259 
G01 X-62.7030 Y80.0259 
G01 X-62.8668 Y80.0519 
G01 X-63.0246 Y80.1031 
G01 X-63.1725 Y80.1785 
G01 X-63.3067 Y80.2760 
G01 X-63.4240 Y80.3933 
G01 X-63.5215 Y80.5275 
G01 X-63.5969 Y80.6754 
G01 X-63.6481 Y80.8332 
G01 X-63.6741 Y80.9970 
G00 Z2.5400 
G00 X-63.6741 Y78.4570 
G01 Z-0.1778 F254.00 
G01 X-63.6741 Y78.6230 F508.00 
G01 X-63.6481 Y78.7868 
G01 X-63.5969 Y78.9446 
G01 X-63.5215 Y79.0925 
G01 X-63.4240 Y79.2267 
G01 X-63.3067 Y79.3440 
G01 X-63.1725 Y79.4415 
G01 X-63.0246 Y79.5169 
G01 X-62.8668 Y79.5681 
G01 X-62.7030 Y79.5941 
G01 X-62.5370 Y79.5941 
G01 X-62.3732 Y79.5681 
G01 X-62.2154 Y79.5169 
G01 X-62.0675 Y79.4415 
G01 X-61.9333 Y79.3440 
G01 X-61.8160 Y79.2267 
G01 X-61.7185 Y79.0925 
G01 X-61.6431 Y78.9446 
G01 X-61.5919 Y78.7868 
G01 X-61.5659 Y78.6230 
G01 X-61.5659 Y78.4570 
G01 X-61.5919 Y78.2932 
G01 X-61.6431 Y78.1354 
G01 X-61.7185 Y77.9875 
G01 X-61.8160 Y77.8533 
G01 X-61.9333 Y77.7360 
G01 X-62.0675 Y77.6385 
G01 X-62.2154 Y77.5631 
G01 X-62.3732 Y77.5119 
G01 X-62.5370 Y77.4859 
G01 X-62.7030 Y77.4859 
G01 X-62.8668 Y77.5119 
G01 X-63.0246 Y77.5631 
G01 X-63.1725 Y77.6385 
G01 X-63.3067 Y77.7360 
G01 X-63.4240 Y77.8533 
G01 X-63.5215 Y77.9875 
G01 X-63.5969 Y78.1354 
G01 X-63.6481 Y78.2932 
G01 X-63.6741 Y78.4570 
G00 Z2.5400 
G00 X-63.6741 Y73.3770 
G01 Z-0.1778 F254.00 
G01 X-63.6741 Y73.5430 F508.00 
G01 X-63.6481 Y73.7068 
G01 X-63.5969 Y73.8646 
G01 X-63.5215 Y74.0125 
G01 X-63.4240 Y74.1467 
G01 X-63.3067 Y74.2640 
G01 X-63.1725 Y74.3615 
G01 X-63.0246 Y74.4369 
G01 X-62.8668 Y74.4881 
G01 X-62.7030 Y74.5141 
G01 X-62.5370 Y74.5141 
G01 X-62.3732 Y74.4881 
G01 X-62.2154 Y74.4369 
G01 X-62.0675 Y74.3615 
G01 X-61.9333 Y74.2640 
G01 X-61.8160 Y74.1467 
G01 X-61.7185 Y74.0125 
G01 X-61.6431 Y73.8646 
G01 X-61.5919 Y73.7068 
G01 X-61.5659 Y73.5430 
G01 X-61.5659 Y73.3770 
G01 X-61.5919 Y73.2132 
G01 X-61.6431 Y73.0554 
G01 X-61.7185 Y72.9075 
G01 X-61.8160 Y72.7733 
G01 X-61.9333 Y72.6560 
G01 X-62.0675 Y72.5585 
G01 X-62.2154 Y72.4831 
G01 X-62.3732 Y72.4319 
G01 X-62.5370 Y72.4059 
G01 X-62.7030 Y72.4059 
G01 X-62.8668 Y72.4319 
G01 X-63.0246 Y72.4831 
G01 X-63.1725 Y72.5585 
G01 X-63.3067 Y72.6560 
G01 X-63.4240 Y72.7733 
G01 X-63.5215 Y72.9075 
G01 X-63.5969 Y73.0554 
G01 X-63.6481 Y73.2132 
G01 X-63.6741 Y73.3770 
G00 Z2.5400 
G00 X-63.6741 Y68.2970 
G01 Z-0.1778 F254.00 
G01 X-63.6741 Y68.4630 F508.00 
G01 X-63.6481 Y68.6268 
G01 X-63.5969 Y68.7846 
G01 X-63.5215 Y68.9325 
G01 X-63.4240 Y69.0667 
G01 X-63.3067 Y69.1840 
G01 X-63.1725 Y69.2815 
G01 X-63.0246 Y69.3569 
G01 X-62.8668 Y69.4081 
G01 X-62.7030 Y69.4341 
G01 X-62.5370 Y69.4341 
G01 X-62.3732 Y69.4081 
G01 X-62.2154 Y69.3569 
G01 X-62.0675 Y69.2815 
G01 X-61.9333 Y69.1840 
G01 X-61.8160 Y69.0667 
G01 X-61.7185 Y68.9325 
G01 X-61.6431 Y68.7846 
G01 X-61.5919 Y68.6268 
G01 X-61.5659 Y68.4630 
G01 X-61.5659 Y68.2970 
G01 X-61.5919 Y68.1332 
G01 X-61.6431 Y67.9754 
G01 X-61.7185 Y67.8275 
G01 X-61.8160 Y67.6933 
G01 X-61.9333 Y67.5760 
G01 X-62.0675 Y67.4785 
G01 X-62.2154 Y67.4031 
G01 X-62.3732 Y67.3519 
G01 X-62.5370 Y67.3259 
G01 X-62.7030 Y67.3259 
G01 X-62.8668 Y67.3519 
G01 X-63.0246 Y67.4031 
G01 X-63.1725 Y67.4785 
G01 X-63.3067 Y67.5760 
G01 X-63.4240 Y67.6933 
G01 X-63.5215 Y67.8275 
G01 X-63.5969 Y67.9754 
G01 X-63.6481 Y68.1332 
G01 X-63.6741 Y68.2970 
G00 Z2.5400 
G00 X-63.6741 Y65.7570 
G01 Z-0.1778 F254.00 
G01 X-63.6741 Y65.9230 F508.00 
G01 X-63.6481 Y66.0868 
G01 X-63.5969 Y66.2446 
G01 X-63.5215 Y66.3925 
G01 X-63.4240 Y66.5267 
G01 X-63.3067 Y66.6440 
G01 X-63.1725 Y66.7415 
G01 X-63.0246 Y66.8169 
G01 X-62.8668 Y66.8681 
G01 X-62.7030 Y66.8941 
G01 X-62.5370 Y66.8941 
G01 X-62.3732 Y66.8681 
G01 X-62.2154 Y66.8169 
G01 X-62.0675 Y66.7415 
G01 X-61.9333 Y66.6440 
G01 X-61.8160 Y66.5267 
G01 X-61.7185 Y66.3925 
G01 X-61.6431 Y66.2446 
G01 X-61.5919 Y66.0868 
G01 X-61.5659 Y65.9230 
G01 X-61.5659 Y65.7570 
G01 X-61.5919 Y65.5932 
G01 X-61.6431 Y65.4354 
G01 X-61.7185 Y65.2875 
G01 X-61.8160 Y65.1533 
G01 X-61.9333 Y65.0360 
G01 X-62.0675 Y64.9385 
G01 X-62.2154 Y64.8631 
G01 X-62.3732 Y64.8119 
G01 X-62.5370 Y64.7859 
G01 X-62.7030 Y64.7859 
G01 X-62.8668 Y64.8119 
G01 X-63.0246 Y64.8631 
G01 X-63.1725 Y64.9385 
G01 X-63.3067 Y65.0360 
G01 X-63.4240 Y65.1533 
G01 X-63.5215 Y65.2875 
G01 X-63.5969 Y65.4354 
G01 X-63.6481 Y65.5932 
G01 X-63.6741 Y65.7570 
G00 Z2.5400 
G00 X-63.6741 Y63.2170 
G01 Z-0.1778 F254.00 
G01 X-63.6741 Y63.3830 F508.00 
G01 X-63.6481 Y63.5468 
G01 X-63.5969 Y63.7046 
G01 X-63.5215 Y63.8525 
G01 X-63.4240 Y63.9867 
G01 X-63.3067 Y64.1040 
G01 X-63.1725 Y64.2015 
G01 X-63.0246 Y64.2769 
G01 X-62.8668 Y64.3281 
G01 X-62.7030 Y64.3541 
G01 X-62.5370 Y64.3541 
G01 X-62.3732 Y64.3281 
G01 X-62.2154 Y64.2769 
G01 X-62.0675 Y64.2015 
G01 X-61.9333 Y64.1040 
G01 X-61.8160 Y63.9867 
G01 X-61.7185 Y63.8525 
G01 X-61.6431 Y63.7046 
G01 X-61.5919 Y63.5468 
G01 X-61.5659 Y63.3830 
G01 X-61.5659 Y63.2170 
G01 X-61.5919 Y63.0532 
G01 X-61.6431 Y62.8954 
G01 X-61.7185 Y62.7475 
G01 X-61.8160 Y62.6133 
G01 X-61.9333 Y62.4960 
G01 X-62.0675 Y62.3985 
G01 X-62.2154 Y62.3231 
G01 X-62.3732 Y62.2719 
G01 X-62.5370 Y62.2459 
G01 X-62.7030 Y62.2459 
G01 X-62.8668 Y62.2719 
G01 X-63.0246 Y62.3231 
G01 X-63.1725 Y62.3985 
G01 X-63.3067 Y62.4960 
G01 X-63.4240 Y62.6133 
G01 X-63.5215 Y62.7475 
G01 X-63.5969 Y62.8954 
G01 X-63.6481 Y63.0532 
G01 X-63.6741 Y63.2170 
G00 Z2.5400 
G00 X-31.3408 Y7.1293 
G01 Z-0.1778 F254.00 
G01 X-31.3408 Y7.2807 F508.00 
G01 X-31.3113 Y7.4291 
G01 X-31.2534 Y7.5689 
G01 X-31.1693 Y7.6948 
G01 X-31.0623 Y7.8018 
G01 X-30.9364 Y7.8859 
G01 X-30.7966 Y7.9438 
G01 X-30.6482 Y7.9733 
G01 X-30.4968 Y7.9733 
G01 X-30.3484 Y7.9438 
G01 X-30.2086 Y7.8859 
G01 X-30.0827 Y7.8018 
G01 X-29.9757 Y7.6948 
G01 X-29.8916 Y7.5689 
G01 X-29.8337 Y7.4291 
G01 X-29.8042 Y7.2807 
G01 X-29.8042 Y7.1293 
G01 X-29.8337 Y6.9809 
G01 X-29.8916 Y6.8411 
G01 X-29.9757 Y6.7152 
G01 X-30.0827 Y6.6082 
G01 X-30.2086 Y6.5241 
G01 X-30.3484 Y6.4662 
G01 X-30.4968 Y6.4367 
G01 X-30.6482 Y6.4367 
G01 X-30.7966 Y6.4662 
G01 X-30.9364 Y6.5241 
G01 X-31.0623 Y6.6082 
G01 X-31.1693 Y6.7152 
G01 X-31.2534 Y6.8411 
G01 X-31.3113 Y6.9809 
G01 X-31.3408 Y7.1293 
G00 Z2.5400 
G00 X-31.3408 Y14.7493 
G01 Z-0.1778 F254.00 
G01 X-31.3408 Y14.9007 F508.00 
G01 X-31.3113 Y15.0491 
G01 X-31.2534 Y15.1889 
G01 X-31.1693 Y15.3148 
G01 X-31.0623 Y15.4218 
G01 X-30.9364 Y15.5059 
G01 X-30.9268 Y15.5098 
G01 X-30.9268 Y17.0780 
G01 X-61.3498 Y47.5010 
G01 X-61.3990 Y47.5502 
G01 X-61.4338 Y47.6105 
G01 X-61.4518 Y47.6777 
G01 X-61.4518 Y74.4155 
G01 X-62.1120 Y75.0758 
G01 X-62.2154 Y75.0231 
G01 X-62.3732 Y74.9719 
G01 X-62.5370 Y74.9459 
G01 X-62.7030 Y74.9459 
G01 X-62.8668 Y74.9719 
G01 X-63.0246 Y75.0231 
G01 X-63.1725 Y75.0985 
G01 X-63.3067 Y75.1960 
G01 X-63.4240 Y75.3133 
G01 X-63.5215 Y75.4475 
G01 X-63.5969 Y75.5954 
G01 X-63.6481 Y75.7532 
G01 X-63.6741 Y75.9170 
G01 X-63.6741 Y76.0830 
G01 X-63.6481 Y76.2468 
G01 X-63.5969 Y76.4046 
G01 X-63.5215 Y76.5525 
G01 X-63.4240 Y76.6867 
G01 X-63.3067 Y76.8040 
G01 X-63.1725 Y76.9015 
G01 X-63.0246 Y76.9769 
G01 X-62.8668 Y77.0281 
G01 X-62.7030 Y77.0541 
G01 X-62.5370 Y77.0541 
G01 X-62.3732 Y77.0281 
G01 X-62.2154 Y76.9769 
G01 X-62.0675 Y76.9015 
G01 X-61.9333 Y76.8040 
G01 X-61.8160 Y76.6867 
G01 X-61.7185 Y76.5525 
G01 X-61.6431 Y76.4046 
G01 X-61.5919 Y76.2468 
G01 X-61.5659 Y76.0830 
G01 X-61.5659 Y75.9170 
G01 X-61.5919 Y75.7532 
G01 X-61.6431 Y75.5954 
G01 X-61.7185 Y75.4475 
G01 X-61.7259 Y75.4372 
G01 X-60.9760 Y74.6873 
G01 X-60.9412 Y74.6270 
G01 X-60.9232 Y74.5598 
G01 X-60.9232 Y47.8220 
G01 X-30.4510 Y17.3498 
G01 X-30.4162 Y17.2895 
G01 X-30.3982 Y17.2223 
G01 X-30.3982 Y15.5737 
G01 X-30.3484 Y15.5638 
G01 X-30.2086 Y15.5059 
G01 X-30.0827 Y15.4218 
G01 X-29.9757 Y15.3148 
G01 X-29.8916 Y15.1889 
G01 X-29.8337 Y15.0491 
G01 X-29.8042 Y14.9007 
G01 X-29.8042 Y14.7493 
G01 X-29.8337 Y14.6009 
G01 X-29.8916 Y14.4611 
G01 X-29.9757 Y14.3352 
G01 X-30.0827 Y14.2282 
G01 X-30.2086 Y14.1441 
G01 X-30.3484 Y14.0862 
G01 X-30.4968 Y14.0567 
G01 X-30.6482 Y14.0567 
G01 X-30.7966 Y14.0862 
G01 X-30.9364 Y14.1441 
G01 X-31.0623 Y14.2282 
G01 X-31.1693 Y14.3352 
G01 X-31.2534 Y14.4611 
G01 X-31.3113 Y14.6009 
G01 X-31.3408 Y14.7493 
G00 Z2.5400 
G00 X-31.3408 Y12.2093 
G01 Z-0.1778 F254.00 
G01 X-31.3408 Y12.3607 F508.00 
G01 X-31.3113 Y12.5091 
G01 X-31.2534 Y12.6489 
G01 X-31.1693 Y12.7748 
G01 X-31.0623 Y12.8818 
G01 X-30.9364 Y12.9659 
G01 X-30.7966 Y13.0238 
G01 X-30.6482 Y13.0533 
G01 X-30.4968 Y13.0533 
G01 X-30.3484 Y13.0238 
G01 X-30.2788 Y12.9950 
G01 X-21.3373 Y21.9365 
G01 X-21.2770 Y21.9713 
G01 X-21.2098 Y21.9893 
G01 X-9.2727 Y21.9893 
G01 X-9.2612 Y22.0621 
G01 X-9.2047 Y22.2361 
G01 X-9.1216 Y22.3990 
G01 X-9.0141 Y22.5470 
G01 X-8.8848 Y22.6764 
G01 X-8.7368 Y22.7839 
G01 X-8.5738 Y22.8669 
G01 X-8.3999 Y22.9234 
G01 X-8.2192 Y22.9520 
G01 X-5.9408 Y22.9520 
G01 X-5.7601 Y22.9234 
G01 X-5.5862 Y22.8669 
G01 X-5.4232 Y22.7839 
G01 X-5.2752 Y22.6764 
G01 X-5.1459 Y22.5470 
G01 X-5.0384 Y22.3990 
G01 X-4.9553 Y22.2361 
G01 X-4.8988 Y22.0621 
G01 X-4.8702 Y21.8815 
G01 X-4.8702 Y21.6985 
G01 X-4.8988 Y21.5179 
G01 X-4.9553 Y21.3439 
G01 X-5.0384 Y21.1810 
G01 X-5.1459 Y21.0330 
G01 X-5.2752 Y20.9036 
G01 X-5.4232 Y20.7961 
G01 X-5.5862 Y20.7131 
G01 X-5.7601 Y20.6566 
G01 X-5.9408 Y20.6280 
G01 X-8.2192 Y20.6280 
G01 X-8.3999 Y20.6566 
G01 X-8.5738 Y20.7131 
G01 X-8.7368 Y20.7961 
G01 X-8.8848 Y20.9036 
G01 X-9.0141 Y21.0330 
G01 X-9.1216 Y21.1810 
G01 X-9.2047 Y21.3439 
G01 X-9.2426 Y21.4607 
G01 X-21.0655 Y21.4607 
G01 X-29.8874 Y12.6388 
G01 X-29.8337 Y12.5091 
G01 X-29.8042 Y12.3607 
G01 X-29.8042 Y12.2093 
G01 X-29.8337 Y12.0609 
G01 X-29.8916 Y11.9211 
G01 X-29.9757 Y11.7952 
G01 X-30.0827 Y11.6882 
G01 X-30.2086 Y11.6041 
G01 X-30.3484 Y11.5462 
G01 X-30.4968 Y11.5167 
G01 X-30.6482 Y11.5167 
G01 X-30.7966 Y11.5462 
G01 X-30.9364 Y11.6041 
G01 X-31.0623 Y11.6882 
G01 X-31.1693 Y11.7952 
G01 X-31.2534 Y11.9211 
G01 X-31.3113 Y12.0609 
G01 X-31.3408 Y12.2093 
G00 Z2.5400 
G00 X-31.3408 Y9.6693 
G01 Z-0.1778 F254.00 
G01 X-31.3408 Y9.8207 F508.00 
G01 X-31.3113 Y9.9691 
G01 X-31.2534 Y10.1089 
G01 X-31.1693 Y10.2348 
G01 X-31.0623 Y10.3418 
G01 X-30.9364 Y10.4259 
G01 X-30.7966 Y10.4838 
G01 X-30.6482 Y10.5133 
G01 X-30.4968 Y10.5133 
G01 X-30.3484 Y10.4838 
G01 X-30.2086 Y10.4259 
G01 X-30.0827 Y10.3418 
G01 X-29.9757 Y10.2348 
G01 X-29.8916 Y10.1089 
G01 X-29.8337 Y9.9691 
G01 X-29.8042 Y9.8207 
G01 X-29.8042 Y9.6693 
G01 X-29.8337 Y9.5209 
G01 X-29.8916 Y9.3811 
G01 X-29.9757 Y9.2552 
G01 X-30.0827 Y9.1482 
G01 X-30.2086 Y9.0641 
G01 X-30.3484 Y9.0062 
G01 X-30.4968 Y8.9767 
G01 X-30.6482 Y8.9767 
G01 X-30.7966 Y9.0062 
G01 X-30.9364 Y9.0641 
G01 X-31.0623 Y9.1482 
G01 X-31.1693 Y9.2552 
G01 X-31.2534 Y9.3811 
G01 X-31.3113 Y9.5209 
G01 X-31.3408 Y9.6693 
G00 Z2.5400 
G00 X-33.8808 Y9.6693 
G01 Z-0.1778 F254.00 
G01 X-33.8808 Y9.8207 F508.00 
G01 X-33.8513 Y9.9691 
G01 X-33.7934 Y10.1089 
G01 X-33.7093 Y10.2348 
G01 X-33.6023 Y10.3418 
G01 X-33.4764 Y10.4259 
G01 X-33.3366 Y10.4838 
G01 X-33.1882 Y10.5133 
G01 X-33.0368 Y10.5133 
G01 X-32.8884 Y10.4838 
G01 X-32.7486 Y10.4259 
G01 X-32.6227 Y10.3418 
G01 X-32.5157 Y10.2348 
G01 X-32.4316 Y10.1089 
G01 X-32.3737 Y9.9691 
G01 X-32.3442 Y9.8207 
G01 X-32.3442 Y9.6693 
G01 X-32.3737 Y9.5209 
G01 X-32.4316 Y9.3811 
G01 X-32.5157 Y9.2552 
G01 X-32.6227 Y9.1482 
G01 X-32.7486 Y9.0641 
G01 X-32.8884 Y9.0062 
G01 X-33.0368 Y8.9767 
G01 X-33.1882 Y8.9767 
G01 X-33.3366 Y9.0062 
G01 X-33.4764 Y9.0641 
G01 X-33.6023 Y9.1482 
G01 X-33.7093 Y9.2552 
G01 X-33.7934 Y9.3811 
G01 X-33.8513 Y9.5209 
G01 X-33.8808 Y9.6693 
G00 Z2.5400 
G00 X-33.8808 Y12.2093 
G01 Z-0.1778 F254.00 
G01 X-33.8808 Y12.3607 F508.00 
G01 X-33.8513 Y12.5091 
G01 X-33.7934 Y12.6489 
G01 X-33.7093 Y12.7748 
G01 X-33.6023 Y12.8818 
G01 X-33.4764 Y12.9659 
G01 X-33.3366 Y13.0238 
G01 X-33.1882 Y13.0533 
G01 X-33.0368 Y13.0533 
G01 X-32.8884 Y13.0238 
G01 X-32.7486 Y12.9659 
G01 X-32.6227 Y12.8818 
G01 X-32.5157 Y12.7748 
G01 X-32.4316 Y12.6489 
G01 X-32.3737 Y12.5091 
G01 X-32.3442 Y12.3607 
G01 X-32.3442 Y12.2093 
G01 X-32.3737 Y12.0609 
G01 X-32.4316 Y11.9211 
G01 X-32.5157 Y11.7952 
G01 X-32.6227 Y11.6882 
G01 X-32.7486 Y11.6041 
G01 X-32.8884 Y11.5462 
G01 X-33.0368 Y11.5167 
G01 X-33.1882 Y11.5167 
G01 X-33.3366 Y11.5462 
G01 X-33.4764 Y11.6041 
G01 X-33.6023 Y11.6882 
G01 X-33.7093 Y11.7952 
G01 X-33.7934 Y11.9211 
G01 X-33.8513 Y12.0609 
G01 X-33.8808 Y12.2093 
G00 Z2.5400 
G00 X-32.3442 Y7.8817 
G01 Z-0.1778 F254.00 
G01 X-32.3442 Y6.5283 F508.00 
G01 X-32.3616 Y6.4863 
G01 X-32.3938 Y6.4541 
G01 X-32.4358 Y6.4367 
G01 X-33.7892 Y6.4367 
G01 X-33.8312 Y6.4541 
G01 X-33.8634 Y6.4863 
G01 X-33.8808 Y6.5283 
G01 X-33.8808 Y7.8817 
G01 X-33.8634 Y7.9237 
G01 X-33.8312 Y7.9559 
G01 X-33.7892 Y7.9733 
G01 X-32.4358 Y7.9733 
G01 X-32.3938 Y7.9559 
G01 X-32.3616 Y7.9237 
G01 X-32.3442 Y7.8817 
G00 Z2.5400 
G00 X-32.3442 Y15.5017 
G01 Z-0.1778 F254.00 
G01 X-32.3442 Y14.4305 F508.00 
G01 X-31.9280 Y14.0143 
G01 X-30.2220 Y14.0143 
G01 X-17.2123 Y27.0240 
G01 X-17.1520 Y27.0588 
G01 X-17.0848 Y27.0768 
G01 X-9.2715 Y27.0768 
G01 X-9.2612 Y27.1421 
G01 X-9.2047 Y27.3161 
G01 X-9.1216 Y27.4790 
G01 X-9.0141 Y27.6270 
G01 X-8.8848 Y27.7564 
G01 X-8.7368 Y27.8639 
G01 X-8.5738 Y27.9469 
G01 X-8.3999 Y28.0034 
G01 X-8.2192 Y28.0320 
G01 X-5.9408 Y28.0320 
G01 X-5.7601 Y28.0034 
G01 X-5.5862 Y27.9469 
G01 X-5.4232 Y27.8639 
G01 X-5.2752 Y27.7564 
G01 X-5.1459 Y27.6270 
G01 X-5.0384 Y27.4790 
G01 X-4.9553 Y27.3161 
G01 X-4.8988 Y27.1421 
G01 X-4.8702 Y26.9615 
G01 X-4.8702 Y26.7785 
G01 X-4.8988 Y26.5979 
G01 X-4.9553 Y26.4239 
G01 X-5.0384 Y26.2610 
G01 X-5.1459 Y26.1130 
G01 X-5.2752 Y25.9836 
G01 X-5.4232 Y25.8761 
G01 X-5.5862 Y25.7931 
G01 X-5.7601 Y25.7366 
G01 X-5.9408 Y25.7080 
G01 X-8.2192 Y25.7080 
G01 X-8.3999 Y25.7366 
G01 X-8.5738 Y25.7931 
G01 X-8.7368 Y25.8761 
G01 X-8.8848 Y25.9836 
G01 X-9.0141 Y26.1130 
G01 X-9.1216 Y26.2610 
G01 X-9.2047 Y26.4239 
G01 X-9.2450 Y26.5482 
G01 X-16.9405 Y26.5482 
G01 X-29.9010 Y13.5877 
G01 X-29.9502 Y13.5385 
G01 X-30.0105 Y13.5037 
G01 X-30.0777 Y13.4857 
G01 X-32.0723 Y13.4857 
G01 X-32.1395 Y13.5037 
G01 X-32.1998 Y13.5385 
G01 X-32.7180 Y14.0567 
G01 X-33.4195 Y14.0567 
G01 X-39.3075 Y8.1687 
G01 X-39.3075 Y8.0378 
G01 X-39.3462 Y7.8935 
G01 X-39.4209 Y7.7640 
G01 X-39.5265 Y7.6584 
G01 X-39.6560 Y7.5837 
G01 X-39.8003 Y7.5450 
G01 X-39.9312 Y7.5450 
G01 X-43.4252 Y4.0510 
G01 X-43.4855 Y4.0162 
G01 X-43.5527 Y3.9982 
G01 X-44.5973 Y3.9982 
G01 X-44.6459 Y3.9140 
G01 X-44.7515 Y3.8084 
G01 X-44.8810 Y3.7337 
G01 X-45.0253 Y3.6950 
G01 X-45.1747 Y3.6950 
G01 X-45.3190 Y3.7337 
G01 X-45.4485 Y3.8084 
G01 X-45.5541 Y3.9140 
G01 X-45.6288 Y4.0434 
G01 X-45.6675 Y4.1878 
G01 X-45.6675 Y4.3372 
G01 X-45.6288 Y4.4815 
G01 X-45.5541 Y4.6109 
G01 X-45.4485 Y4.7166 
G01 X-45.3190 Y4.7913 
G01 X-45.1747 Y4.8300 
G01 X-45.0253 Y4.8300 
G01 X-44.8810 Y4.7913 
G01 X-44.7515 Y4.7166 
G01 X-44.6459 Y4.6109 
G01 X-44.5973 Y4.5268 
G01 X-43.6970 Y4.5268 
G01 X-40.3769 Y7.8469 
G01 X-40.4038 Y7.8935 
G01 X-40.4425 Y8.0378 
G01 X-40.4425 Y8.1872 
G01 X-40.4038 Y8.3315 
G01 X-40.3291 Y8.4610 
G01 X-40.2234 Y8.5666 
G01 X-40.0940 Y8.6413 
G01 X-39.9497 Y8.6800 
G01 X-39.8003 Y8.6800 
G01 X-39.6560 Y8.6413 
G01 X-39.6094 Y8.6144 
G01 X-33.8808 Y14.3430 
G01 X-33.8808 Y15.5017 
G01 X-33.8634 Y15.5437 
G01 X-33.8312 Y15.5759 
G01 X-33.7892 Y15.5933 
G01 X-32.4358 Y15.5933 
G01 X-32.3938 Y15.5759 
G01 X-32.3616 Y15.5437 
G01 X-32.3442 Y15.5017 
G00 Z2.5400 
G00 X-81.0983 Y72.1263 
G01 Z-0.1778 F254.00 
G01 X-79.4017 Y72.1263 F508.00 
G01 X-79.2324 Y72.0926 
G01 X-79.0729 Y72.0266 
G01 X-78.9294 Y71.9307 
G01 X-78.8073 Y71.8086 
G01 X-78.7114 Y71.6651 
G01 X-78.6454 Y71.5056 
G01 X-78.6117 Y71.3363 
G01 X-78.6117 Y71.1637 
G01 X-78.6454 Y70.9944 
G01 X-78.7114 Y70.8349 
G01 X-78.8073 Y70.6914 
G01 X-78.9294 Y70.5693 
G01 X-79.0729 Y70.4734 
G01 X-79.2324 Y70.4074 
G01 X-79.4017 Y70.3737 
G01 X-81.0983 Y70.3737 
G01 X-81.2676 Y70.4074 
G01 X-81.4271 Y70.4734 
G01 X-81.5706 Y70.5693 
G01 X-81.6927 Y70.6914 
G01 X-81.7886 Y70.8349 
G01 X-81.8546 Y70.9944 
G01 X-81.8883 Y71.1637 
G01 X-81.8883 Y71.3363 
G01 X-81.8546 Y71.5056 
G01 X-81.7886 Y71.6651 
G01 X-81.6927 Y71.8086 
G01 X-81.5706 Y71.9307 
G01 X-81.4271 Y72.0266 
G01 X-81.2676 Y72.0926 
G01 X-81.0983 Y72.1263 
G00 Z2.5400 
G00 X-81.0983 Y74.6263 
G01 Z-0.1778 F254.00 
G01 X-79.4017 Y74.6263 F508.00 
G01 X-79.2324 Y74.5926 
G01 X-79.0729 Y74.5266 
G01 X-78.9294 Y74.4307 
G01 X-78.8073 Y74.3086 
G01 X-78.7114 Y74.1651 
G01 X-78.6454 Y74.0056 
G01 X-78.6117 Y73.8363 
G01 X-78.6117 Y73.6637 
G01 X-78.6454 Y73.4944 
G01 X-78.7114 Y73.3349 
G01 X-78.8073 Y73.1914 
G01 X-78.9294 Y73.0693 
G01 X-79.0729 Y72.9734 
G01 X-79.2324 Y72.9074 
G01 X-79.4017 Y72.8737 
G01 X-81.0983 Y72.8737 
G01 X-81.2676 Y72.9074 
G01 X-81.4271 Y72.9734 
G01 X-81.5706 Y73.0693 
G01 X-81.6927 Y73.1914 
G01 X-81.7886 Y73.3349 
G01 X-81.8546 Y73.4944 
G01 X-81.8883 Y73.6637 
G01 X-81.8883 Y73.8363 
G01 X-81.8546 Y74.0056 
G01 X-81.7886 Y74.1651 
G01 X-81.6927 Y74.3086 
G01 X-81.5706 Y74.4307 
G01 X-81.4271 Y74.5266 
G01 X-81.2676 Y74.5926 
G01 X-81.0983 Y74.6263 
G00 Z2.5400 
G00 X-81.0983 Y57.8763 
G01 Z-0.1778 F254.00 
G01 X-79.4017 Y57.8763 F508.00 
G01 X-79.2324 Y57.8426 
G01 X-79.0729 Y57.7766 
G01 X-78.9294 Y57.6807 
G01 X-78.8073 Y57.5586 
G01 X-78.7114 Y57.4151 
G01 X-78.6454 Y57.2556 
G01 X-78.6117 Y57.0863 
G01 X-78.6117 Y56.9137 
G01 X-78.6454 Y56.7444 
G01 X-78.7114 Y56.5849 
G01 X-78.8073 Y56.4414 
G01 X-78.9294 Y56.3193 
G01 X-79.0729 Y56.2234 
G01 X-79.2324 Y56.1574 
G01 X-79.4017 Y56.1237 
G01 X-81.0983 Y56.1237 
G01 X-81.2676 Y56.1574 
G01 X-81.4271 Y56.2234 
G01 X-81.5706 Y56.3193 
G01 X-81.6927 Y56.4414 
G01 X-81.7886 Y56.5849 
G01 X-81.8546 Y56.7444 
G01 X-81.8883 Y56.9137 
G01 X-81.8883 Y57.0863 
G01 X-81.8546 Y57.2556 
G01 X-81.7886 Y57.4151 
G01 X-81.6927 Y57.5586 
G01 X-81.5706 Y57.6807 
G01 X-81.4271 Y57.7766 
G01 X-81.2676 Y57.8426 
G01 X-81.0983 Y57.8763 
G00 Z2.5400 
G00 X-81.0983 Y60.3763 
G01 Z-0.1778 F254.00 
G01 X-79.4017 Y60.3763 F508.00 
G01 X-79.2324 Y60.3426 
G01 X-79.0729 Y60.2766 
G01 X-78.9294 Y60.1807 
G01 X-78.8073 Y60.0586 
G01 X-78.7114 Y59.9151 
G01 X-78.6454 Y59.7556 
G01 X-78.6117 Y59.5863 
G01 X-78.6117 Y59.4137 
G01 X-78.6454 Y59.2444 
G01 X-78.7114 Y59.0849 
G01 X-78.8073 Y58.9414 
G01 X-78.9294 Y58.8193 
G01 X-79.0729 Y58.7234 
G01 X-79.2324 Y58.6574 
G01 X-79.4017 Y58.6237 
G01 X-81.0983 Y58.6237 
G01 X-81.2676 Y58.6574 
G01 X-81.4271 Y58.7234 
G01 X-81.5706 Y58.8193 
G01 X-81.6927 Y58.9414 
G01 X-81.7886 Y59.0849 
G01 X-81.8546 Y59.2444 
G01 X-81.8883 Y59.4137 
G01 X-81.8883 Y59.5863 
G01 X-81.8546 Y59.7556 
G01 X-81.7886 Y59.9151 
G01 X-81.6927 Y60.0586 
G01 X-81.5706 Y60.1807 
G01 X-81.4271 Y60.2766 
G01 X-81.2676 Y60.3426 
G01 X-81.0983 Y60.3763 
G00 Z2.5400 
G00 X-56.6545 Y4.7925 
G01 Z-0.1778 F254.00 
G01 X-56.6545 Y4.2518 F508.00 
G01 X-46.0277 Y4.2518 
G01 X-45.9605 Y4.2338 
G01 X-45.9002 Y4.1990 
G01 X-45.2655 Y3.5643 
G01 X-31.1845 Y3.5643 
G01 X-14.3740 Y20.3748 
G01 X-14.3248 Y20.4240 
G01 X-14.2645 Y20.4588 
G01 X-14.1973 Y20.4768 
G01 X-5.6095 Y20.4768 
G01 X-4.8018 Y21.2845 
G01 X-4.8018 Y29.3155 
G01 X-6.2742 Y30.7880 
G01 X-8.2192 Y30.7880 
G01 X-8.3999 Y30.8166 
G01 X-8.5738 Y30.8731 
G01 X-8.7368 Y30.9561 
G01 X-8.8848 Y31.0636 
G01 X-9.0141 Y31.1930 
G01 X-9.1216 Y31.3410 
G01 X-9.2047 Y31.5039 
G01 X-9.2612 Y31.6779 
G01 X-9.2898 Y31.8585 
G01 X-9.2898 Y32.0415 
G01 X-9.2612 Y32.2221 
G01 X-9.2047 Y32.3961 
G01 X-9.1216 Y32.5590 
G01 X-9.0141 Y32.7070 
G01 X-8.8848 Y32.8364 
G01 X-8.7368 Y32.9439 
G01 X-8.5738 Y33.0269 
G01 X-8.3999 Y33.0834 
G01 X-8.2192 Y33.1120 
G01 X-7.4143 Y33.1120 
G01 X-7.4143 Y62.0405 
G01 X-9.5123 Y64.1385 
G01 X-9.5615 Y64.1877 
G01 X-9.5963 Y64.2480 
G01 X-9.6143 Y64.3152 
G01 X-9.6143 Y67.6848 
G01 X-9.5963 Y67.7520 
G01 X-9.5615 Y67.8123 
G01 X-8.3215 Y69.0523 
G01 X-8.4868 Y69.1361 
G01 X-8.6348 Y69.2436 
G01 X-8.7641 Y69.3730 
G01 X-8.8716 Y69.5210 
G01 X-8.9547 Y69.6839 
G01 X-9.0112 Y69.8579 
G01 X-9.0398 Y70.0385 
G01 X-9.0398 Y70.2215 
G01 X-9.0112 Y70.4021 
G01 X-8.9547 Y70.5761 
G01 X-8.8716 Y70.7390 
G01 X-8.7641 Y70.8870 
G01 X-8.6348 Y71.0164 
G01 X-8.4868 Y71.1239 
G01 X-8.3238 Y71.2069 
G01 X-8.1499 Y71.2634 
G01 X-7.9692 Y71.2920 
G01 X-5.6908 Y71.2920 
G01 X-5.5101 Y71.2634 
G01 X-5.3362 Y71.2069 
G01 X-5.1732 Y71.1239 
G01 X-5.0252 Y71.0164 
G01 X-4.8959 Y70.8870 
G01 X-4.7884 Y70.7390 
G01 X-4.7053 Y70.5761 
G01 X-4.6488 Y70.4021 
G01 X-4.6202 Y70.2215 
G01 X-4.6202 Y70.0385 
G01 X-4.6488 Y69.8579 
G01 X-4.7053 Y69.6839 
G01 X-4.7884 Y69.5210 
G01 X-4.8959 Y69.3730 
G01 X-5.0252 Y69.2436 
G01 X-5.1732 Y69.1361 
G01 X-5.3362 Y69.0531 
G01 X-5.5101 Y68.9966 
G01 X-5.6908 Y68.9680 
G01 X-7.6583 Y68.9680 
G01 X-9.0857 Y67.5405 
G01 X-9.0857 Y64.4595 
G01 X-6.9385 Y62.3123 
G01 X-6.9037 Y62.2520 
G01 X-6.8857 Y62.1848 
G01 X-6.8857 Y33.1120 
G01 X-5.9408 Y33.1120 
G01 X-5.7601 Y33.0834 
G01 X-5.5862 Y33.0269 
G01 X-5.4232 Y32.9439 
G01 X-5.2752 Y32.8364 
G01 X-5.1459 Y32.7070 
G01 X-5.0384 Y32.5590 
G01 X-4.9553 Y32.3961 
G01 X-4.8988 Y32.2221 
G01 X-4.8702 Y32.0415 
G01 X-4.8702 Y31.8585 
G01 X-4.8988 Y31.6779 
G01 X-4.9553 Y31.5039 
G01 X-5.0384 Y31.3410 
G01 X-5.1459 Y31.1930 
G01 X-5.2752 Y31.0636 
G01 X-5.4232 Y30.9561 
G01 X-5.5862 Y30.8731 
G01 X-5.6055 Y30.8668 
G01 X-4.3260 Y29.5873 
G01 X-4.2912 Y29.5270 
G01 X-4.2732 Y29.4598 
G01 X-4.2732 Y21.1402 
G01 X-4.2912 Y21.0730 
G01 X-4.3260 Y21.0127 
G01 X-4.3752 Y20.9635 
G01 X-5.3377 Y20.0010 
G01 X-5.3980 Y19.9662 
G01 X-5.4652 Y19.9482 
G01 X-14.0530 Y19.9482 
G01 X-30.9127 Y3.0885 
G01 X-30.9730 Y3.0537 
G01 X-31.0402 Y3.0357 
G01 X-45.4098 Y3.0357 
G01 X-45.4770 Y3.0537 
G01 X-45.5373 Y3.0885 
G01 X-46.1720 Y3.7232 
G01 X-56.6545 Y3.7232 
G01 X-56.6545 Y3.2075 
G01 X-56.6862 Y3.0480 
G01 X-56.7485 Y2.8978 
G01 X-56.8388 Y2.7626 
G01 X-56.9538 Y2.6476 
G01 X-57.0890 Y2.5573 
G01 X-57.2392 Y2.4950 
G01 X-57.3987 Y2.4633 
G01 X-57.5613 Y2.4633 
G01 X-57.7208 Y2.4950 
G01 X-57.8710 Y2.5573 
G01 X-58.0062 Y2.6476 
G01 X-58.1212 Y2.7626 
G01 X-58.2115 Y2.8978 
G01 X-58.2738 Y3.0480 
G01 X-58.3055 Y3.2075 
G01 X-58.3055 Y4.7925 
G01 X-58.2738 Y4.9520 
G01 X-58.2115 Y5.1022 
G01 X-58.1212 Y5.2374 
G01 X-58.0062 Y5.3524 
G01 X-57.8710 Y5.4427 
G01 X-57.7208 Y5.5050 
G01 X-57.5613 Y5.5367 
G01 X-57.3987 Y5.5367 
G01 X-57.2392 Y5.5050 
G01 X-57.0890 Y5.4427 
G01 X-56.9538 Y5.3524 
G01 X-56.8388 Y5.2374 
G01 X-56.7485 Y5.1022 
G01 X-56.6862 Y4.9520 
G01 X-56.6545 Y4.7925 
G00 Z2.5400 
G00 X-59.1945 Y4.7925 
G01 Z-0.1778 F254.00 
G01 X-59.1945 Y3.2075 F508.00 
G01 X-59.2262 Y3.0480 
G01 X-59.2885 Y2.8978 
G01 X-59.3788 Y2.7626 
G01 X-59.4938 Y2.6476 
G01 X-59.6290 Y2.5573 
G01 X-59.7792 Y2.4950 
G01 X-59.9387 Y2.4633 
G01 X-60.1013 Y2.4633 
G01 X-60.2608 Y2.4950 
G01 X-60.4110 Y2.5573 
G01 X-60.5462 Y2.6476 
G01 X-60.6612 Y2.7626 
G01 X-60.7515 Y2.8978 
G01 X-60.8138 Y3.0480 
G01 X-60.8455 Y3.2075 
G01 X-60.8455 Y4.7925 
G01 X-60.8138 Y4.9520 
G01 X-60.7515 Y5.1022 
G01 X-60.6612 Y5.2374 
G01 X-60.5462 Y5.3524 
G01 X-60.4110 Y5.4427 
G01 X-60.2608 Y5.5050 
G01 X-60.1013 Y5.5367 
G01 X-59.9387 Y5.5367 
G01 X-59.7792 Y5.5050 
G01 X-59.6290 Y5.4427 
G01 X-59.4938 Y5.3524 
G01 X-59.3788 Y5.2374 
G01 X-59.2885 Y5.1022 
G01 X-59.2262 Y4.9520 
G01 X-59.1945 Y4.7925 
G00 Z2.5400 
G00 X-35.0518 Y62.1152 
G01 Z-0.1778 F254.00 
G01 X-35.0518 Y62.1848 F508.00 
G01 X-35.0338 Y62.2520 
G01 X-34.9990 Y62.3123 
G01 X-34.0893 Y63.2220 
G01 X-34.0893 Y72.4905 
G01 X-46.8472 Y85.2484 
G01 X-46.9754 Y85.1831 
G01 X-47.1332 Y85.1319 
G01 X-47.2970 Y85.1059 
G01 X-47.4630 Y85.1059 
G01 X-47.6268 Y85.1319 
G01 X-47.7846 Y85.1831 
G01 X-47.9325 Y85.2585 
G01 X-48.0667 Y85.3560 
G01 X-48.1840 Y85.4733 
G01 X-48.2815 Y85.6075 
G01 X-48.3569 Y85.7554 
G01 X-48.4081 Y85.9132 
G01 X-48.4341 Y86.0770 
G01 X-48.4341 Y86.2430 
G01 X-48.4081 Y86.4068 
G01 X-48.3569 Y86.5646 
G01 X-48.2815 Y86.7125 
G01 X-48.1840 Y86.8467 
G01 X-48.0667 Y86.9640 
G01 X-47.9325 Y87.0615 
G01 X-47.7846 Y87.1369 
G01 X-47.6268 Y87.1881 
G01 X-47.4630 Y87.2141 
G01 X-47.2970 Y87.2141 
G01 X-47.1332 Y87.1881 
G01 X-46.9754 Y87.1369 
G01 X-46.8275 Y87.0615 
G01 X-46.6933 Y86.9640 
G01 X-46.5760 Y86.8467 
G01 X-46.4785 Y86.7125 
G01 X-46.4031 Y86.5646 
G01 X-46.3519 Y86.4068 
G01 X-46.3259 Y86.2430 
G01 X-46.3259 Y86.0770 
G01 X-46.3519 Y85.9132 
G01 X-46.4031 Y85.7554 
G01 X-46.4718 Y85.6206 
G01 X-33.6135 Y72.7623 
G01 X-33.5787 Y72.7020 
G01 X-33.5607 Y72.6348 
G01 X-33.5607 Y63.0777 
G01 X-33.5787 Y63.0105 
G01 X-33.6135 Y62.9502 
G01 X-33.6627 Y62.9010 
G01 X-34.5232 Y62.0405 
G01 X-34.5232 Y45.6027 
G01 X-34.4390 Y45.5541 
G01 X-34.3334 Y45.4485 
G01 X-34.2587 Y45.3190 
G01 X-34.2200 Y45.1747 
G01 X-34.2200 Y45.0253 
G01 X-34.2587 Y44.8810 
G01 X-34.3334 Y44.7515 
G01 X-34.4390 Y44.6459 
G01 X-34.5684 Y44.5712 
G01 X-34.7128 Y44.5325 
G01 X-34.8622 Y44.5325 
G01 X-35.0065 Y44.5712 
G01 X-35.1360 Y44.6459 
G01 X-35.2416 Y44.7515 
G01 X-35.3163 Y44.8810 
G01 X-35.3550 Y45.0253 
G01 X-35.3550 Y45.1747 
G01 X-35.3163 Y45.3190 
G01 X-35.2416 Y45.4485 
G01 X-35.1360 Y45.5541 
G01 X-35.0518 Y45.6027 
G01 X-35.0518 Y62.1152 
G00 Z2.5400 
G00 X-44.2439 Y72.4702 
G01 Z-0.1778 F254.00 
G01 X-44.3378 Y72.4450 F508.00 
G01 X-44.4872 Y72.4450 
G01 X-44.6315 Y72.4837 
G01 X-44.7610 Y72.5584 
G01 X-44.8666 Y72.6640 
G01 X-44.9413 Y72.7935 
G01 X-44.9800 Y72.9378 
G01 X-44.9800 Y73.0872 
G01 X-44.9413 Y73.2315 
G01 X-44.8666 Y73.3610 
G01 X-44.7610 Y73.4666 
G01 X-44.6315 Y73.5413 
G01 X-44.4872 Y73.5800 
G01 X-44.3378 Y73.5800 
G01 X-44.1934 Y73.5413 
G01 X-44.0640 Y73.4666 
G01 X-43.9584 Y73.3610 
G01 X-43.8837 Y73.2315 
G01 X-43.8450 Y73.0872 
G01 X-43.8450 Y72.9378 
G01 X-43.8702 Y72.8439 
G01 X-34.9561 Y63.9298 
G01 X-34.8622 Y63.9550 
G01 X-34.7128 Y63.9550 
G01 X-34.5684 Y63.9163 
G01 X-34.4390 Y63.8416 
G01 X-34.3334 Y63.7360 
G01 X-34.2587 Y63.6065 
G01 X-34.2200 Y63.4622 
G01 X-34.2200 Y63.3128 
G01 X-34.2587 Y63.1684 
G01 X-34.3334 Y63.0390 
G01 X-34.4390 Y62.9334 
G01 X-34.5684 Y62.8587 
G01 X-34.7128 Y62.8200 
G01 X-34.8622 Y62.8200 
G01 X-35.0065 Y62.8587 
G01 X-35.1360 Y62.9334 
G01 X-35.2416 Y63.0390 
G01 X-35.3163 Y63.1684 
G01 X-35.3550 Y63.3128 
G01 X-35.3550 Y63.4622 
G01 X-35.3298 Y63.5561 
G01 X-44.2439 Y72.4702 
G00 Z2.5400 
G00 X-31.4678 Y12.1968 
G01 Z-0.1778 F254.00 
G01 X-31.4678 Y12.3732 F508.00 
G01 X-31.4334 Y12.5462 
G01 X-31.3659 Y12.7091 
G01 X-31.2679 Y12.8557 
G01 X-31.1432 Y12.9804 
G01 X-30.9966 Y13.0784 
G01 X-30.8337 Y13.1459 
G01 X-30.6607 Y13.1803 
G01 X-30.4843 Y13.1803 
G01 X-30.3113 Y13.1459 
G01 X-30.3086 Y13.1448 
G01 X-30.0947 Y13.3587 
G01 X-32.0890 Y13.3587 
G01 X-32.1885 Y13.3854 
G01 X-32.2778 Y13.4369 
G01 X-32.7706 Y13.9297 
G01 X-33.3669 Y13.9297 
G01 X-39.1805 Y8.1161 
G01 X-39.1805 Y8.0441 
G01 X-39.2072 Y7.9099 
G01 X-39.2595 Y7.7835 
G01 X-39.3355 Y7.6698 
G01 X-39.4323 Y7.5730 
G01 X-39.5460 Y7.4970 
G01 X-39.6724 Y7.4447 
G01 X-39.8066 Y7.4180 
G01 X-39.8786 Y7.4180 
G01 X-43.3472 Y3.9494 
G01 X-43.4365 Y3.8979 
G01 X-43.5360 Y3.8712 
G01 X-44.5262 Y3.8712 
G01 X-44.5605 Y3.8198 
G01 X-44.6573 Y3.7230 
G01 X-44.7048 Y3.6913 
G01 X-31.2371 Y3.6913 
G01 X-14.4756 Y20.4528 
G01 X-14.4028 Y20.5256 
G01 X-14.3135 Y20.5771 
G01 X-14.2140 Y20.6038 
G01 X-8.6391 Y20.6038 
G01 X-8.8034 Y20.6875 
G01 X-8.9675 Y20.8068 
G01 X-9.1110 Y20.9502 
G01 X-9.2302 Y21.1144 
G01 X-9.3224 Y21.2952 
G01 X-9.3349 Y21.3337 
G01 X-21.0129 Y21.3337 
G01 X-29.7376 Y12.6090 
G01 X-29.7116 Y12.5462 
G01 X-29.6772 Y12.3732 
G01 X-29.6772 Y12.1968 
G01 X-29.7116 Y12.0238 
G01 X-29.7791 Y11.8609 
G01 X-29.8771 Y11.7143 
G01 X-30.0018 Y11.5896 
G01 X-30.1484 Y11.4916 
G01 X-30.3113 Y11.4241 
G01 X-30.4843 Y11.3897 
G01 X-30.6607 Y11.3897 
G01 X-30.8337 Y11.4241 
G01 X-30.9966 Y11.4916 
G01 X-31.1432 Y11.5896 
G01 X-31.2679 Y11.7143 
G01 X-31.3659 Y11.8609 
G01 X-31.4334 Y12.0238 
G01 X-31.4678 Y12.1968 
G00 Z2.5400 
G00 X-31.4678 Y7.1168 
G01 Z-0.1778 F254.00 
G01 X-31.4678 Y7.2932 F508.00 
G01 X-31.4334 Y7.4662 
G01 X-31.3659 Y7.6291 
G01 X-31.2679 Y7.7757 
G01 X-31.1432 Y7.9004 
G01 X-30.9966 Y7.9984 
G01 X-30.8337 Y8.0659 
G01 X-30.6607 Y8.1003 
G01 X-30.4843 Y8.1003 
G01 X-30.3113 Y8.0659 
G01 X-30.1484 Y7.9984 
G01 X-30.0018 Y7.9004 
G01 X-29.8771 Y7.7757 
G01 X-29.7791 Y7.6291 
G01 X-29.7116 Y7.4662 
G01 X-29.6772 Y7.2932 
G01 X-29.6772 Y7.1168 
G01 X-29.7116 Y6.9438 
G01 X-29.7791 Y6.7809 
G01 X-29.8771 Y6.6343 
G01 X-30.0018 Y6.5096 
G01 X-30.1484 Y6.4116 
G01 X-30.3113 Y6.3441 
G01 X-30.4843 Y6.3097 
G01 X-30.6607 Y6.3097 
G01 X-30.8337 Y6.3441 
G01 X-30.9966 Y6.4116 
G01 X-31.1432 Y6.5096 
G01 X-31.2679 Y6.6343 
G01 X-31.3659 Y6.7809 
G01 X-31.4334 Y6.9438 
G01 X-31.4678 Y7.1168 
G00 Z2.5400 
G00 X-31.4678 Y9.6568 
G01 Z-0.1778 F254.00 
G01 X-31.4678 Y9.8332 F508.00 
G01 X-31.4334 Y10.0061 
G01 X-31.3659 Y10.1691 
G01 X-31.2679 Y10.3157 
G01 X-31.1432 Y10.4404 
G01 X-30.9966 Y10.5384 
G01 X-30.8337 Y10.6059 
G01 X-30.6607 Y10.6403 
G01 X-30.4843 Y10.6403 
G01 X-30.3113 Y10.6059 
G01 X-30.1484 Y10.5384 
G01 X-30.0018 Y10.4404 
G01 X-29.8771 Y10.3157 
G01 X-29.7791 Y10.1691 
G01 X-29.7116 Y10.0061 
G01 X-29.6772 Y9.8332 
G01 X-29.6772 Y9.6568 
G01 X-29.7116 Y9.4838 
G01 X-29.7791 Y9.3209 
G01 X-29.8771 Y9.1743 
G01 X-30.0018 Y9.0496 
G01 X-30.1484 Y8.9516 
G01 X-30.3113 Y8.8841 
G01 X-30.4843 Y8.8497 
G01 X-30.6607 Y8.8497 
G01 X-30.8337 Y8.8841 
G01 X-30.9966 Y8.9516 
G01 X-31.1432 Y9.0496 
G01 X-31.2679 Y9.1743 
G01 X-31.3659 Y9.3209 
G01 X-31.4334 Y9.4838 
G01 X-31.4678 Y9.6568 
G00 Z2.5400 
G00 X-34.0078 Y9.6568 
G01 Z-0.1778 F254.00 
G01 X-34.0078 Y9.8332 F508.00 
G01 X-33.9734 Y10.0061 
G01 X-33.9059 Y10.1691 
G01 X-33.8079 Y10.3157 
G01 X-33.6832 Y10.4404 
G01 X-33.5366 Y10.5384 
G01 X-33.3737 Y10.6059 
G01 X-33.2007 Y10.6403 
G01 X-33.0243 Y10.6403 
G01 X-32.8513 Y10.6059 
G01 X-32.6884 Y10.5384 
G01 X-32.5418 Y10.4404 
G01 X-32.4171 Y10.3157 
G01 X-32.3191 Y10.1691 
G01 X-32.2516 Y10.0061 
G01 X-32.2172 Y9.8332 
G01 X-32.2172 Y9.6568 
G01 X-32.2516 Y9.4838 
G01 X-32.3191 Y9.3209 
G01 X-32.4171 Y9.1743 
G01 X-32.5418 Y9.0496 
G01 X-32.6884 Y8.9516 
G01 X-32.8513 Y8.8841 
G01 X-33.0243 Y8.8497 
G01 X-33.2007 Y8.8497 
G01 X-33.3737 Y8.8841 
G01 X-33.5366 Y8.9516 
G01 X-33.6832 Y9.0496 
G01 X-33.8079 Y9.1743 
G01 X-33.9059 Y9.3209 
G01 X-33.9734 Y9.4838 
G01 X-34.0078 Y9.6568 
G00 Z2.5400 
G00 X-34.0078 Y12.1968 
G01 Z-0.1778 F254.00 
G01 X-34.0078 Y12.3732 F508.00 
G01 X-33.9734 Y12.5462 
G01 X-33.9059 Y12.7091 
G01 X-33.8079 Y12.8557 
G01 X-33.6832 Y12.9804 
G01 X-33.5366 Y13.0784 
G01 X-33.3737 Y13.1459 
G01 X-33.2007 Y13.1803 
G01 X-33.0243 Y13.1803 
G01 X-32.8513 Y13.1459 
G01 X-32.6884 Y13.0784 
G01 X-32.5418 Y12.9804 
G01 X-32.4171 Y12.8557 
G01 X-32.3191 Y12.7091 
G01 X-32.2516 Y12.5462 
G01 X-32.2172 Y12.3732 
G01 X-32.2172 Y12.1968 
G01 X-32.2516 Y12.0238 
G01 X-32.3191 Y11.8609 
G01 X-32.4171 Y11.7143 
G01 X-32.5418 Y11.5896 
G01 X-32.6884 Y11.4916 
G01 X-32.8513 Y11.4241 
G01 X-33.0243 Y11.3897 
G01 X-33.2007 Y11.3897 
G01 X-33.3737 Y11.4241 
G01 X-33.5366 Y11.4916 
G01 X-33.6832 Y11.5896 
G01 X-33.8079 Y11.7143 
G01 X-33.9059 Y11.8609 
G01 X-33.9734 Y12.0238 
G01 X-34.0078 Y12.1968 
G00 Z2.5400 
G00 X-32.2172 Y7.9070 
G01 Z-0.1778 F254.00 
G01 X-32.2172 Y6.5030 F508.00 
G01 X-32.2539 Y6.4143 
G01 X-32.3218 Y6.3464 
G01 X-32.4105 Y6.3097 
G01 X-33.8145 Y6.3097 
G01 X-33.9032 Y6.3464 
G01 X-33.9711 Y6.4143 
G01 X-34.0078 Y6.5030 
G01 X-34.0078 Y7.9070 
G01 X-33.9711 Y7.9957 
G01 X-33.9032 Y8.0636 
G01 X-33.8145 Y8.1003 
G01 X-32.4105 Y8.1003 
G01 X-32.3218 Y8.0636 
G01 X-32.2539 Y7.9957 
G01 X-32.2172 Y7.9070 
G00 Z2.5400 
G00 X-9.3224 Y22.2848 
G01 Z-0.1778 F254.00 
G01 X-9.2302 Y22.4656 F508.00 
G01 X-9.1110 Y22.6298 
G01 X-8.9675 Y22.7732 
G01 X-8.8034 Y22.8925 
G01 X-8.6226 Y22.9846 
G01 X-8.4296 Y23.0473 
G01 X-8.2292 Y23.0790 
G01 X-5.9308 Y23.0790 
G01 X-5.7304 Y23.0473 
G01 X-5.5374 Y22.9846 
G01 X-5.3566 Y22.8925 
G01 X-5.1925 Y22.7732 
G01 X-5.0490 Y22.6298 
G01 X-4.9298 Y22.4656 
G01 X-4.9288 Y26.1963 
G01 X-5.0490 Y26.0302 
G01 X-5.1925 Y25.8868 
G01 X-5.3566 Y25.7675 
G01 X-5.5374 Y25.6754 
G01 X-5.7304 Y25.6127 
G01 X-5.9308 Y25.5810 
G01 X-8.2292 Y25.5810 
G01 X-8.4296 Y25.6127 
G01 X-8.6226 Y25.6754 
G01 X-8.8034 Y25.7675 
G01 X-8.9675 Y25.8868 
G01 X-9.1110 Y26.0302 
G01 X-9.2302 Y26.1944 
G01 X-9.3224 Y26.3752 
G01 X-9.3373 Y26.4212 
G01 X-16.8879 Y26.4212 
G01 X-21.1928 Y22.1163 
G01 X-9.3771 Y22.1163 
G01 X-9.3224 Y22.2848 
G00 Z2.5400 
G00 X-79.3892 Y70.2467 
G01 Z-0.1778 F254.00 
G01 X-81.1058 Y70.2467 F508.00 
G01 X-80.2313 Y69.3721 
G01 X-79.3486 Y70.2548 
G01 X-79.3892 Y70.2467 
G00 Z2.5400 
G00 X-79.3892 Y86.9967 
G01 Z-0.1778 F254.00 
G01 X-81.1108 Y86.9967 F508.00 
G01 X-81.3047 Y87.0353 
G01 X-81.4872 Y87.1109 
G01 X-81.6516 Y87.2207 
G01 X-81.7913 Y87.3604 
G01 X-81.8337 Y87.4239 
G01 X-81.8337 Y86.0761 
G01 X-81.7913 Y86.1396 
G01 X-81.6516 Y86.2793 
G01 X-81.4872 Y86.3891 
G01 X-81.3047 Y86.4647 
G01 X-81.1108 Y86.5033 
G01 X-79.7376 Y86.5033 
G01 X-79.2082 Y87.0327 
G01 X-79.3892 Y86.9967 
G00 Z2.5400 
G00 X-78.7087 Y88.6396 
G01 Z-0.1778 F254.00 
G01 X-78.5989 Y88.4752 F508.00 
G01 X-78.5233 Y88.2927 
G01 X-78.4847 Y88.0988 
G01 X-78.4847 Y87.9012 
G01 X-78.5207 Y87.7202 
G01 X-73.4072 Y92.8337 
G01 X-74.7754 Y92.8337 
G01 X-78.8391 Y88.7700 
G01 X-78.7087 Y88.6396 
G00 Z2.5400 
G00 X-79.1953 Y89.5353 
G01 Z-0.1778 F254.00 
G01 X-79.3892 Y89.4967 F508.00 
G01 X-80.7249 Y89.4967 
G01 X-81.2450 Y88.9766 
G01 X-81.1108 Y89.0033 
G01 X-79.7126 Y89.0033 
G01 X-79.1702 Y89.5457 
G01 X-79.1953 Y89.5353 
G00 Z2.5400 
G00 X-78.5205 Y90.2212 
G01 Z-0.1778 F254.00 
G01 X-78.5233 Y90.2073 F508.00 
G01 X-78.5337 Y90.1822 
G01 X-78.4947 Y90.2212 
G01 X-78.5205 Y90.2212 
G00 Z2.5400 
G00 X-46.3698 Y80.4610 
G01 Z-0.1778 F254.00 
G01 X-46.4791 Y80.3106 F508.00 
G01 X-46.6106 Y80.1791 
G01 X-46.7610 Y80.0698 
G01 X-46.9266 Y79.9854 
G01 X-47.1034 Y79.9280 
G01 X-47.2870 Y79.8989 
G01 X-47.4730 Y79.8989 
G01 X-47.6566 Y79.9280 
G01 X-47.8334 Y79.9854 
G01 X-47.9990 Y80.0698 
G01 X-48.1494 Y80.1791 
G01 X-48.2809 Y80.3106 
G01 X-48.3902 Y80.4610 
G01 X-48.4746 Y80.6266 
G01 X-48.5094 Y80.7337 
G01 X-49.8265 Y80.7337 
G01 X-49.9260 Y80.7604 
G01 X-50.0153 Y80.8119 
G01 X-60.7962 Y91.5928 
G01 X-60.7962 Y85.4121 
G01 X-48.5149 Y73.1308 
G01 X-48.5320 Y73.1834 
G01 X-48.5611 Y73.3670 
G01 X-48.5611 Y73.5530 
G01 X-48.5320 Y73.7366 
G01 X-48.4746 Y73.9134 
G01 X-48.3902 Y74.0790 
G01 X-48.2809 Y74.2294 
G01 X-48.1494 Y74.3609 
G01 X-47.9990 Y74.4702 
G01 X-47.8334 Y74.5546 
G01 X-47.6566 Y74.6120 
G01 X-47.4730 Y74.6411 
G01 X-47.2870 Y74.6411 
G01 X-47.1034 Y74.6120 
G01 X-46.9266 Y74.5546 
G01 X-46.7610 Y74.4702 
G01 X-46.6106 Y74.3609 
G01 X-46.4791 Y74.2294 
G01 X-46.3698 Y74.0790 
G01 X-46.3163 Y73.9740 
G01 X-46.3163 Y75.4860 
G01 X-46.3698 Y75.3810 
G01 X-46.4791 Y75.2306 
G01 X-46.6106 Y75.0991 
G01 X-46.7610 Y74.9898 
G01 X-46.9266 Y74.9054 
G01 X-47.1034 Y74.8480 
G01 X-47.2870 Y74.8189 
G01 X-47.4730 Y74.8189 
G01 X-47.6566 Y74.8480 
G01 X-47.8334 Y74.9054 
G01 X-47.9990 Y74.9898 
G01 X-48.1494 Y75.0991 
G01 X-48.2809 Y75.2306 
G01 X-48.3902 Y75.3810 
G01 X-48.4746 Y75.5466 
G01 X-48.5320 Y75.7234 
G01 X-48.5611 Y75.9070 
G01 X-48.5611 Y76.0930 
G01 X-48.5320 Y76.2766 
G01 X-48.4746 Y76.4534 
G01 X-48.3902 Y76.6190 
G01 X-48.2809 Y76.7694 
G01 X-48.1494 Y76.9009 
G01 X-47.9990 Y77.0102 
G01 X-47.8334 Y77.0946 
G01 X-47.6566 Y77.1520 
G01 X-47.4730 Y77.1811 
G01 X-47.2870 Y77.1811 
G01 X-47.1034 Y77.1520 
G01 X-46.9266 Y77.0946 
G01 X-46.7610 Y77.0102 
G01 X-46.6106 Y76.9009 
G01 X-46.4791 Y76.7694 
G01 X-46.3698 Y76.6190 
G01 X-46.3163 Y76.5140 
G01 X-46.3163 Y78.0260 
G01 X-46.3698 Y77.9210 
G01 X-46.4791 Y77.7706 
G01 X-46.6106 Y77.6391 
G01 X-46.7610 Y77.5298 
G01 X-46.9266 Y77.4454 
G01 X-47.1034 Y77.3880 
G01 X-47.2870 Y77.3589 
G01 X-47.4730 Y77.3589 
G01 X-47.6566 Y77.3880 
G01 X-47.8334 Y77.4454 
G01 X-47.9990 Y77.5298 
G01 X-48.1494 Y77.6391 
G01 X-48.2809 Y77.7706 
G01 X-48.3902 Y77.9210 
G01 X-48.4746 Y78.0866 
G01 X-48.5320 Y78.2634 
G01 X-48.5611 Y78.4470 
G01 X-48.5611 Y78.6330 
G01 X-48.5320 Y78.8166 
G01 X-48.4746 Y78.9934 
G01 X-48.3902 Y79.1590 
G01 X-48.2809 Y79.3094 
G01 X-48.1494 Y79.4409 
G01 X-47.9990 Y79.5502 
G01 X-47.8334 Y79.6346 
G01 X-47.6566 Y79.6920 
G01 X-47.4730 Y79.7211 
G01 X-47.2870 Y79.7211 
G01 X-47.1034 Y79.6920 
G01 X-46.9266 Y79.6346 
G01 X-46.7610 Y79.5502 
G01 X-46.6106 Y79.4409 
G01 X-46.4791 Y79.3094 
G01 X-46.3698 Y79.1590 
G01 X-46.3163 Y79.0540 
G01 X-46.3163 Y80.5660 
G01 X-46.3698 Y80.4610 
G00 Z2.5400 
G00 X-46.3698 Y72.8410 
G01 Z-0.1778 F254.00 
G01 X-46.4791 Y72.6906 F508.00 
G01 X-46.6106 Y72.5591 
G01 X-46.7610 Y72.4498 
G01 X-46.9266 Y72.3654 
G01 X-47.1034 Y72.3080 
G01 X-47.2870 Y72.2789 
G01 X-47.4730 Y72.2789 
G01 X-47.6566 Y72.3080 
G01 X-47.7092 Y72.3251 
G01 X-47.4835 Y72.0994 
G01 X-47.4730 Y72.1011 
G01 X-47.2870 Y72.1011 
G01 X-47.1034 Y72.0720 
G01 X-46.9266 Y72.0146 
G01 X-46.7610 Y71.9302 
G01 X-46.6106 Y71.8209 
G01 X-46.4791 Y71.6894 
G01 X-46.3698 Y71.5390 
G01 X-46.3163 Y71.4340 
G01 X-46.3163 Y72.9460 
G01 X-46.3698 Y72.8410 
G00 Z2.5400 
G00 X-46.3698 Y70.3010 
G01 Z-0.1778 F254.00 
G01 X-46.4791 Y70.1506 F508.00 
G01 X-46.6106 Y70.0191 
G01 X-46.7610 Y69.9098 
G01 X-46.9266 Y69.8254 
G01 X-47.1034 Y69.7680 
G01 X-47.2870 Y69.7389 
G01 X-47.4077 Y69.7389 
G01 X-47.6067 Y69.5399 
G01 X-47.4730 Y69.5611 
G01 X-47.2870 Y69.5611 
G01 X-47.1034 Y69.5320 
G01 X-46.9266 Y69.4746 
G01 X-46.7610 Y69.3902 
G01 X-46.6106 Y69.2809 
G01 X-46.4791 Y69.1494 
G01 X-46.3698 Y68.9990 
G01 X-46.3163 Y68.8940 
G01 X-46.3163 Y70.4060 
G01 X-46.3698 Y70.3010 
G00 Z2.5400 
G00 X-46.3698 Y67.7610 
G01 Z-0.1778 F254.00 
G01 X-46.4791 Y67.6106 F508.00 
G01 X-46.6106 Y67.4791 
G01 X-46.7610 Y67.3698 
G01 X-46.9266 Y67.2854 
G01 X-47.1034 Y67.2280 
G01 X-47.2870 Y67.1989 
G01 X-47.4730 Y67.1989 
G01 X-47.6566 Y67.2280 
G01 X-47.8334 Y67.2854 
G01 X-47.9990 Y67.3698 
G01 X-48.1494 Y67.4791 
G01 X-48.2809 Y67.6106 
G01 X-48.3902 Y67.7610 
G01 X-48.4212 Y67.8219 
G01 X-48.4212 Y66.3981 
G01 X-48.3902 Y66.4590 
G01 X-48.2809 Y66.6094 
G01 X-48.1494 Y66.7409 
G01 X-47.9990 Y66.8502 
G01 X-47.8334 Y66.9346 
G01 X-47.6566 Y66.9920 
G01 X-47.4730 Y67.0211 
G01 X-47.2870 Y67.0211 
G01 X-47.1034 Y66.9920 
G01 X-46.9266 Y66.9346 
G01 X-46.7610 Y66.8502 
G01 X-46.6106 Y66.7409 
G01 X-46.4791 Y66.6094 
G01 X-46.3698 Y66.4590 
G01 X-46.3163 Y66.3540 
G01 X-46.3163 Y67.8660 
G01 X-46.3698 Y67.7610 
G00 Z2.5400 
G00 X-46.3698 Y65.2210 
G01 Z-0.1778 F254.00 
G01 X-46.4791 Y65.0706 F508.00 
G01 X-46.6106 Y64.9391 
G01 X-46.7610 Y64.8298 
G01 X-46.9266 Y64.7454 
G01 X-47.1034 Y64.6880 
G01 X-47.2870 Y64.6589 
G01 X-47.4730 Y64.6589 
G01 X-47.6566 Y64.6880 
G01 X-47.8334 Y64.7454 
G01 X-47.9990 Y64.8298 
G01 X-48.1494 Y64.9391 
G01 X-48.2809 Y65.0706 
G01 X-48.3902 Y65.2210 
G01 X-48.4212 Y65.2819 
G01 X-48.4212 Y63.8581 
G01 X-48.3902 Y63.9190 
G01 X-48.2809 Y64.0694 
G01 X-48.1494 Y64.2009 
G01 X-47.9990 Y64.3102 
G01 X-47.8334 Y64.3946 
G01 X-47.6566 Y64.4520 
G01 X-47.4730 Y64.4811 
G01 X-47.2870 Y64.4811 
G01 X-47.1034 Y64.4520 
G01 X-46.9266 Y64.3946 
G01 X-46.7610 Y64.3102 
G01 X-46.6106 Y64.2009 
G01 X-46.4791 Y64.0694 
G01 X-46.3698 Y63.9190 
G01 X-46.3163 Y63.8140 
G01 X-46.3163 Y65.3260 
G01 X-46.3698 Y65.2210 
G00 Z2.5400 
G00 X-30.6004 Y36.4963 
G01 Z-0.1778 F254.00 
G01 X-30.5533 Y36.4648 F508.00 
G01 X-30.4252 Y36.3367 
G01 X-30.3244 Y36.1859 
G01 X-30.2551 Y36.0184 
G01 X-30.2197 Y35.8406 
G01 X-30.2197 Y35.6594 
G01 X-30.2230 Y35.6429 
G01 X-29.8163 Y36.0496 
G01 X-29.8163 Y37.2803 
G01 X-30.6004 Y36.4963 
G00 Z2.5400 
G00 X-30.7465 Y37.4569 
G01 Z-0.1778 F254.00 
G01 X-30.8212 Y37.4259 F508.00 
G01 X-30.8212 Y37.3822 
G01 X-30.7465 Y37.4569 
G00 Z2.5400 
G00 X-42.3712 Y50.0746 
G01 Z-0.1778 F254.00 
G01 X-33.9931 Y41.6964 F508.00 
G01 X-33.9484 Y41.7149 
G01 X-33.7706 Y41.7503 
G01 X-33.5894 Y41.7503 
G01 X-33.4116 Y41.7149 
G01 X-33.2441 Y41.6456 
G01 X-33.0933 Y41.5448 
G01 X-32.9652 Y41.4167 
G01 X-32.8644 Y41.2659 
G01 X-32.7951 Y41.0984 
G01 X-32.7597 Y40.9206 
G01 X-32.7597 Y40.7394 
G01 X-32.7951 Y40.5616 
G01 X-32.8644 Y40.3941 
G01 X-32.9652 Y40.2433 
G01 X-33.0933 Y40.1152 
G01 X-33.2441 Y40.0144 
G01 X-33.4116 Y39.9451 
G01 X-33.5894 Y39.9097 
G01 X-33.7706 Y39.9097 
G01 X-33.9484 Y39.9451 
G01 X-34.1159 Y40.0144 
G01 X-34.2667 Y40.1152 
G01 X-34.3948 Y40.2433 
G01 X-34.4956 Y40.3941 
G01 X-34.5649 Y40.5616 
G01 X-34.6003 Y40.7394 
G01 X-34.6003 Y40.9206 
G01 X-34.5649 Y41.0984 
G01 X-34.5464 Y41.1431 
G01 X-43.0756 Y49.6722 
G01 X-43.1271 Y49.7615 
G01 X-43.1538 Y49.8610 
G01 X-43.1538 Y62.1262 
G01 X-43.2052 Y62.1605 
G01 X-43.3020 Y62.2573 
G01 X-43.3780 Y62.3710 
G01 X-43.4303 Y62.4974 
G01 X-43.4570 Y62.6316 
G01 X-43.4570 Y62.7684 
G01 X-43.4303 Y62.9026 
G01 X-43.3780 Y63.0290 
G01 X-43.3020 Y63.1427 
G01 X-43.2052 Y63.2395 
G01 X-43.0915 Y63.3155 
G01 X-42.9651 Y63.3678 
G01 X-42.9126 Y63.3782 
G01 X-40.6949 Y65.5959 
G01 X-40.7070 Y65.6566 
G01 X-40.7070 Y65.7934 
G01 X-40.6803 Y65.9276 
G01 X-40.6280 Y66.0540 
G01 X-40.5520 Y66.1677 
G01 X-40.4552 Y66.2644 
G01 X-40.3415 Y66.3405 
G01 X-40.2151 Y66.3928 
G01 X-40.0809 Y66.4195 
G01 X-39.9441 Y66.4195 
G01 X-39.8099 Y66.3928 
G01 X-39.6835 Y66.3405 
G01 X-39.5698 Y66.2644 
G01 X-39.4730 Y66.1677 
G01 X-39.3970 Y66.0540 
G01 X-39.3447 Y65.9276 
G01 X-39.3180 Y65.7934 
G01 X-39.3180 Y65.6566 
G01 X-39.3447 Y65.5224 
G01 X-39.3970 Y65.3960 
G01 X-39.4730 Y65.2823 
G01 X-39.5698 Y65.1855 
G01 X-39.6835 Y65.1095 
G01 X-39.8099 Y65.0572 
G01 X-39.9441 Y65.0305 
G01 X-40.0809 Y65.0305 
G01 X-40.1416 Y65.0426 
G01 X-42.1503 Y63.0338 
G01 X-42.1470 Y63.0290 
G01 X-42.0947 Y62.9026 
G01 X-42.0680 Y62.7684 
G01 X-42.0680 Y62.6316 
G01 X-42.0947 Y62.4974 
G01 X-42.1470 Y62.3710 
G01 X-42.2230 Y62.2573 
G01 X-42.3198 Y62.1605 
G01 X-42.3712 Y62.1262 
G01 X-42.3712 Y50.0746 
G00 Z2.5400 
G00 X-8.2292 Y12.9190 
G01 Z-0.1778 F254.00 
G01 X-5.9308 Y12.9190 F508.00 
G01 X-5.7304 Y12.8873 
G01 X-5.5374 Y12.8246 
G01 X-5.3566 Y12.7325 
G01 X-5.1925 Y12.6132 
G01 X-5.0490 Y12.4698 
G01 X-4.9298 Y12.3056 
G01 X-4.8376 Y12.1248 
G01 X-4.7749 Y11.9319 
G01 X-4.7432 Y11.7315 
G01 X-4.7432 Y11.5285 
G01 X-4.7749 Y11.3281 
G01 X-4.8376 Y11.1352 
G01 X-4.9298 Y10.9544 
G01 X-5.0490 Y10.7902 
G01 X-5.1925 Y10.6468 
G01 X-5.3566 Y10.5275 
G01 X-5.5374 Y10.4354 
G01 X-5.7304 Y10.3727 
G01 X-5.9308 Y10.3410 
G01 X-8.2292 Y10.3410 
G01 X-8.4296 Y10.3727 
G01 X-8.6226 Y10.4354 
G01 X-8.8034 Y10.5275 
G01 X-8.9675 Y10.6468 
G01 X-9.1110 Y10.7902 
G01 X-9.2302 Y10.9544 
G01 X-9.3224 Y11.1352 
G01 X-9.3851 Y11.3281 
G01 X-9.4168 Y11.5285 
G01 X-9.4168 Y11.7315 
G01 X-9.3851 Y11.9319 
G01 X-9.3224 Y12.1248 
G01 X-9.2302 Y12.3056 
G01 X-9.1110 Y12.4698 
G01 X-8.9675 Y12.6132 
G01 X-8.8034 Y12.7325 
G01 X-8.6226 Y12.8246 
G01 X-8.4296 Y12.8873 
G01 X-8.2292 Y12.9190 
G00 Z2.5400 
G00 X-8.2292 Y17.9990 
G01 Z-0.1778 F254.00 
G01 X-5.9308 Y17.9990 F508.00 
G01 X-5.7304 Y17.9673 
G01 X-5.5374 Y17.9046 
G01 X-5.3566 Y17.8125 
G01 X-5.1925 Y17.6932 
G01 X-5.0490 Y17.5498 
G01 X-4.9298 Y17.3856 
G01 X-4.8376 Y17.2048 
G01 X-4.7749 Y17.0119 
G01 X-4.7432 Y16.8115 
G01 X-4.7432 Y16.6085 
G01 X-4.7749 Y16.4081 
G01 X-4.8376 Y16.2152 
G01 X-4.9298 Y16.0344 
G01 X-5.0490 Y15.8702 
G01 X-5.1925 Y15.7268 
G01 X-5.3566 Y15.6075 
G01 X-5.5374 Y15.5154 
G01 X-5.7304 Y15.4527 
G01 X-5.9308 Y15.4210 
G01 X-8.2292 Y15.4210 
G01 X-8.4296 Y15.4527 
G01 X-8.6226 Y15.5154 
G01 X-8.8034 Y15.6075 
G01 X-8.9675 Y15.7268 
G01 X-9.1110 Y15.8702 
G01 X-9.2302 Y16.0344 
G01 X-9.3224 Y16.2152 
G01 X-9.3851 Y16.4081 
G01 X-9.4168 Y16.6085 
G01 X-9.4168 Y16.8115 
G01 X-9.3851 Y17.0119 
G01 X-9.3224 Y17.2048 
G01 X-9.2302 Y17.3856 
G01 X-9.1110 Y17.5498 
G01 X-8.9675 Y17.6932 
G01 X-8.8034 Y17.8125 
G01 X-8.6226 Y17.9046 
G01 X-8.4296 Y17.9673 
G01 X-8.2292 Y17.9990 
G00 Z2.5400 
G00 X-8.2292 Y7.8390 
G01 Z-0.1778 F254.00 
G01 X-5.9308 Y7.8390 F508.00 
G01 X-5.7304 Y7.8073 
G01 X-5.5374 Y7.7446 
G01 X-5.3566 Y7.6525 
G01 X-5.1925 Y7.5332 
G01 X-5.0490 Y7.3898 
G01 X-4.9298 Y7.2256 
G01 X-4.8376 Y7.0448 
G01 X-4.7749 Y6.8519 
G01 X-4.7432 Y6.6515 
G01 X-4.7432 Y6.4485 
G01 X-4.7749 Y6.2481 
G01 X-4.8376 Y6.0552 
G01 X-4.9298 Y5.8744 
G01 X-5.0490 Y5.7102 
G01 X-5.1925 Y5.5668 
G01 X-5.3566 Y5.4475 
G01 X-5.5374 Y5.3554 
G01 X-5.7304 Y5.2927 
G01 X-5.9308 Y5.2610 
G01 X-8.2292 Y5.2610 
G01 X-8.4296 Y5.2927 
G01 X-8.6226 Y5.3554 
G01 X-8.8034 Y5.4475 
G01 X-8.9675 Y5.5668 
G01 X-9.1110 Y5.7102 
G01 X-9.2302 Y5.8744 
G01 X-9.3224 Y6.0552 
G01 X-9.3851 Y6.2481 
G01 X-9.4168 Y6.4485 
G01 X-9.4168 Y6.6515 
G01 X-9.3851 Y6.8519 
G01 X-9.3224 Y7.0448 
G01 X-9.2302 Y7.2256 
G01 X-9.1110 Y7.3898 
G01 X-8.9675 Y7.5332 
G01 X-8.8034 Y7.6525 
G01 X-8.6226 Y7.7446 
G01 X-8.4296 Y7.8073 
G01 X-8.2292 Y7.8390 
G00 Z2.5400 
G00 X-7.9792 Y76.4990 
G01 Z-0.1778 F254.00 
G01 X-5.6808 Y76.4990 F508.00 
G01 X-5.4804 Y76.4673 
G01 X-5.2874 Y76.4046 
G01 X-5.1066 Y76.3125 
G01 X-4.9425 Y76.1932 
G01 X-4.7990 Y76.0498 
G01 X-4.6798 Y75.8856 
G01 X-4.5876 Y75.7048 
G01 X-4.5249 Y75.5119 
G01 X-4.4932 Y75.3115 
G01 X-4.4932 Y75.1085 
G01 X-4.5249 Y74.9081 
G01 X-4.5876 Y74.7152 
G01 X-4.6798 Y74.5344 
G01 X-4.7990 Y74.3702 
G01 X-4.9425 Y74.2268 
G01 X-5.1066 Y74.1075 
G01 X-5.2874 Y74.0154 
G01 X-5.4804 Y73.9527 
G01 X-5.6808 Y73.9210 
G01 X-7.9792 Y73.9210 
G01 X-8.1796 Y73.9527 
G01 X-8.3726 Y74.0154 
G01 X-8.5534 Y74.1075 
G01 X-8.7175 Y74.2268 
G01 X-8.8610 Y74.3702 
G01 X-8.9802 Y74.5344 
G01 X-9.0724 Y74.7152 
G01 X-9.1351 Y74.9081 
G01 X-9.1668 Y75.1085 
G01 X-9.1668 Y75.3115 
G01 X-9.1351 Y75.5119 
G01 X-9.0724 Y75.7048 
G01 X-8.9802 Y75.8856 
G01 X-8.8610 Y76.0498 
G01 X-8.7175 Y76.1932 
G01 X-8.5534 Y76.3125 
G01 X-8.3726 Y76.4046 
G01 X-8.1796 Y76.4673 
G01 X-7.9792 Y76.4990 
G00 Z2.5400 
G00 X-7.9792 Y81.5790 
G01 Z-0.1778 F254.00 
G01 X-5.6808 Y81.5790 F508.00 
G01 X-5.4804 Y81.5473 
G01 X-5.2874 Y81.4846 
G01 X-5.1066 Y81.3925 
G01 X-4.9425 Y81.2732 
G01 X-4.7990 Y81.1298 
G01 X-4.6798 Y80.9656 
G01 X-4.5876 Y80.7848 
G01 X-4.5249 Y80.5919 
G01 X-4.4932 Y80.3915 
G01 X-4.4932 Y80.1885 
G01 X-4.5249 Y79.9881 
G01 X-4.5876 Y79.7952 
G01 X-4.6798 Y79.6144 
G01 X-4.7990 Y79.4502 
G01 X-4.9425 Y79.3068 
G01 X-5.1066 Y79.1875 
G01 X-5.2874 Y79.0954 
G01 X-5.4804 Y79.0327 
G01 X-5.6808 Y79.0010 
G01 X-7.9792 Y79.0010 
G01 X-8.1796 Y79.0327 
G01 X-8.3726 Y79.0954 
G01 X-8.5534 Y79.1875 
G01 X-8.7175 Y79.3068 
G01 X-8.8610 Y79.4502 
G01 X-8.9802 Y79.6144 
G01 X-9.0724 Y79.7952 
G01 X-9.1351 Y79.9881 
G01 X-9.1668 Y80.1885 
G01 X-9.1668 Y80.3915 
G01 X-9.1351 Y80.5919 
G01 X-9.0724 Y80.7848 
G01 X-8.9802 Y80.9656 
G01 X-8.8610 Y81.1298 
G01 X-8.7175 Y81.2732 
G01 X-8.5534 Y81.3925 
G01 X-8.3726 Y81.4846 
G01 X-8.1796 Y81.5473 
G01 X-7.9792 Y81.5790 
G00 Z2.5400 
G00 X-7.9792 Y86.6590 
G01 Z-0.1778 F254.00 
G01 X-5.6808 Y86.6590 F508.00 
G01 X-5.4804 Y86.6273 
G01 X-5.2874 Y86.5646 
G01 X-5.1066 Y86.4725 
G01 X-4.9425 Y86.3532 
G01 X-4.7990 Y86.2098 
G01 X-4.6798 Y86.0456 
G01 X-4.5876 Y85.8648 
G01 X-4.5249 Y85.6719 
G01 X-4.4932 Y85.4715 
G01 X-4.4932 Y85.2685 
G01 X-4.5249 Y85.0681 
G01 X-4.5876 Y84.8752 
G01 X-4.6798 Y84.6944 
G01 X-4.7990 Y84.5302 
G01 X-4.9425 Y84.3868 
G01 X-5.1066 Y84.2675 
G01 X-5.2874 Y84.1754 
G01 X-5.4804 Y84.1127 
G01 X-5.6808 Y84.0810 
G01 X-7.9792 Y84.0810 
G01 X-8.1796 Y84.1127 
G01 X-8.3726 Y84.1754 
G01 X-8.5534 Y84.2675 
G01 X-8.7175 Y84.3868 
G01 X-8.8610 Y84.5302 
G01 X-8.9802 Y84.6944 
G01 X-9.0724 Y84.8752 
G01 X-9.1351 Y85.0681 
G01 X-9.1668 Y85.2685 
G01 X-9.1668 Y85.4715 
G01 X-9.1351 Y85.6719 
G01 X-9.0724 Y85.8648 
G01 X-8.9802 Y86.0456 
G01 X-8.8610 Y86.2098 
G01 X-8.7175 Y86.3532 
G01 X-8.5534 Y86.4725 
G01 X-8.3726 Y86.5646 
G01 X-8.1796 Y86.6273 
G01 X-7.9792 Y86.6590 
G00 Z2.5400 
G00 X-7.9792 Y91.7390 
G01 Z-0.1778 F254.00 
G01 X-5.6808 Y91.7390 F508.00 
G01 X-5.4804 Y91.7073 
G01 X-5.2874 Y91.6446 
G01 X-5.1066 Y91.5525 
G01 X-4.9425 Y91.4332 
G01 X-4.7990 Y91.2898 
G01 X-4.6798 Y91.1256 
G01 X-4.5876 Y90.9448 
G01 X-4.5249 Y90.7519 
G01 X-4.4932 Y90.5515 
G01 X-4.4932 Y90.3485 
G01 X-4.5249 Y90.1481 
G01 X-4.5876 Y89.9552 
G01 X-4.6798 Y89.7744 
G01 X-4.7990 Y89.6102 
G01 X-4.9425 Y89.4668 
G01 X-5.1066 Y89.3475 
G01 X-5.2874 Y89.2554 
G01 X-5.4804 Y89.1927 
G01 X-5.6808 Y89.1609 
G01 X-7.9792 Y89.1609 
G01 X-8.1796 Y89.1927 
G01 X-8.3726 Y89.2554 
G01 X-8.5534 Y89.3475 
G01 X-8.7175 Y89.4668 
G01 X-8.8610 Y89.6102 
G01 X-8.9802 Y89.7744 
G01 X-9.0724 Y89.9552 
G01 X-9.1351 Y90.1481 
G01 X-9.1668 Y90.3485 
G01 X-9.1668 Y90.5515 
G01 X-9.1351 Y90.7519 
G01 X-9.0724 Y90.9448 
G01 X-8.9802 Y91.1256 
G01 X-8.8610 Y91.2898 
G01 X-8.7175 Y91.4332 
G01 X-8.5534 Y91.5525 
G01 X-8.3726 Y91.6446 
G01 X-8.1796 Y91.7073 
G01 X-7.9792 Y91.7390 
G00 Z2.5400 
G00 X-34.6003 Y33.1194 
G01 Z-0.1778 F254.00 
G01 X-34.6003 Y33.3006 F508.00 
G01 X-34.5649 Y33.4784 
G01 X-34.4956 Y33.6459 
G01 X-34.3948 Y33.7967 
G01 X-34.2667 Y33.9248 
G01 X-34.1159 Y34.0256 
G01 X-33.9484 Y34.0949 
G01 X-33.7706 Y34.1303 
G01 X-33.5894 Y34.1303 
G01 X-33.4116 Y34.0949 
G01 X-33.2441 Y34.0256 
G01 X-33.0933 Y33.9248 
G01 X-32.9652 Y33.7967 
G01 X-32.8644 Y33.6459 
G01 X-32.7951 Y33.4784 
G01 X-32.7597 Y33.3006 
G01 X-32.7597 Y33.1194 
G01 X-32.7951 Y32.9416 
G01 X-32.8644 Y32.7741 
G01 X-32.9652 Y32.6233 
G01 X-33.0933 Y32.4952 
G01 X-33.2441 Y32.3944 
G01 X-33.4116 Y32.3251 
G01 X-33.5894 Y32.2897 
G01 X-33.7706 Y32.2897 
G01 X-33.9484 Y32.3251 
G01 X-34.1159 Y32.3944 
G01 X-34.2667 Y32.4952 
G01 X-34.3948 Y32.6233 
G01 X-34.4956 Y32.7741 
G01 X-34.5649 Y32.9416 
G01 X-34.6003 Y33.1194 
G00 Z2.5400 
G00 X-34.6003 Y30.5794 
G01 Z-0.1778 F254.00 
G01 X-34.6003 Y30.7606 F508.00 
G01 X-34.5649 Y30.9384 
G01 X-34.4956 Y31.1059 
G01 X-34.3948 Y31.2567 
G01 X-34.2667 Y31.3848 
G01 X-34.1159 Y31.4856 
G01 X-33.9484 Y31.5549 
G01 X-33.7706 Y31.5903 
G01 X-33.5894 Y31.5903 
G01 X-33.4116 Y31.5549 
G01 X-33.2441 Y31.4856 
G01 X-33.0933 Y31.3848 
G01 X-32.9652 Y31.2567 
G01 X-32.8644 Y31.1059 
G01 X-32.7951 Y30.9384 
G01 X-32.7597 Y30.7606 
G01 X-32.7597 Y30.5794 
G01 X-32.7951 Y30.4016 
G01 X-32.8644 Y30.2341 
G01 X-32.9652 Y30.0833 
G01 X-33.0933 Y29.9552 
G01 X-33.2441 Y29.8544 
G01 X-33.4116 Y29.7851 
G01 X-33.5894 Y29.7497 
G01 X-33.7706 Y29.7497 
G01 X-33.9484 Y29.7851 
G01 X-34.1159 Y29.8544 
G01 X-34.2667 Y29.9552 
G01 X-34.3948 Y30.0833 
G01 X-34.4956 Y30.2341 
G01 X-34.5649 Y30.4016 
G01 X-34.6003 Y30.5794 
G00 Z2.5400 
G00 X-32.0603 Y30.5794 
G01 Z-0.1778 F254.00 
G01 X-32.0603 Y30.7606 F508.00 
G01 X-32.0249 Y30.9384 
G01 X-31.9556 Y31.1059 
G01 X-31.8548 Y31.2567 
G01 X-31.7267 Y31.3848 
G01 X-31.5759 Y31.4856 
G01 X-31.4084 Y31.5549 
G01 X-31.2306 Y31.5903 
G01 X-31.0494 Y31.5903 
G01 X-30.8716 Y31.5549 
G01 X-30.7041 Y31.4856 
G01 X-30.5533 Y31.3848 
G01 X-30.4252 Y31.2567 
G01 X-30.3244 Y31.1059 
G01 X-30.2551 Y30.9384 
G01 X-30.2197 Y30.7606 
G01 X-30.2197 Y30.5794 
G01 X-30.2551 Y30.4016 
G01 X-30.3244 Y30.2341 
G01 X-30.4252 Y30.0833 
G01 X-30.5533 Y29.9552 
G01 X-30.7041 Y29.8544 
G01 X-30.8716 Y29.7851 
G01 X-31.0494 Y29.7497 
G01 X-31.2306 Y29.7497 
G01 X-31.4084 Y29.7851 
G01 X-31.5759 Y29.8544 
G01 X-31.7267 Y29.9552 
G01 X-31.8548 Y30.0833 
G01 X-31.9556 Y30.2341 
G01 X-32.0249 Y30.4016 
G01 X-32.0603 Y30.5794 
G00 Z2.5400 
G00 X-32.0603 Y33.1194 
G01 Z-0.1778 F254.00 
G01 X-32.0603 Y33.3006 F508.00 
G01 X-32.0249 Y33.4784 
G01 X-31.9556 Y33.6459 
G01 X-31.8548 Y33.7967 
G01 X-31.7267 Y33.9248 
G01 X-31.5759 Y34.0256 
G01 X-31.4084 Y34.0949 
G01 X-31.2306 Y34.1303 
G01 X-31.0494 Y34.1303 
G01 X-30.8716 Y34.0949 
G01 X-30.7041 Y34.0256 
G01 X-30.5533 Y33.9248 
G01 X-30.4252 Y33.7967 
G01 X-30.3244 Y33.6459 
G01 X-30.2551 Y33.4784 
G01 X-30.2197 Y33.3006 
G01 X-30.2197 Y33.1194 
G01 X-30.2551 Y32.9416 
G01 X-30.3244 Y32.7741 
G01 X-30.4252 Y32.6233 
G01 X-30.5533 Y32.4952 
G01 X-30.7041 Y32.3944 
G01 X-30.8716 Y32.3251 
G01 X-31.0494 Y32.2897 
G01 X-31.2306 Y32.2897 
G01 X-31.4084 Y32.3251 
G01 X-31.5759 Y32.3944 
G01 X-31.7267 Y32.4952 
G01 X-31.8548 Y32.6233 
G01 X-31.9556 Y32.7741 
G01 X-32.0249 Y32.9416 
G01 X-32.0603 Y33.1194 
G00 Z2.5400 
G00 X-31.6038 Y37.4246 
G01 Z-0.1778 F254.00 
G01 X-31.6038 Y37.4931 F508.00 
G01 X-31.7267 Y37.5752 
G01 X-31.8548 Y37.7033 
G01 X-31.9556 Y37.8541 
G01 X-32.0249 Y38.0216 
G01 X-32.0603 Y38.1994 
G01 X-32.0603 Y38.3806 
G01 X-32.0249 Y38.5584 
G01 X-31.9556 Y38.7259 
G01 X-31.8548 Y38.8767 
G01 X-31.7267 Y39.0048 
G01 X-31.5759 Y39.1056 
G01 X-31.4084 Y39.1749 
G01 X-31.2306 Y39.2103 
G01 X-31.0494 Y39.2103 
G01 X-30.8716 Y39.1749 
G01 X-30.7041 Y39.1056 
G01 X-30.5533 Y39.0048 
G01 X-30.4252 Y38.8767 
G01 X-30.3663 Y38.7886 
G01 X-30.3663 Y39.9290 
G01 X-30.4130 Y39.9097 
G01 X-31.8670 Y39.9097 
G01 X-31.9557 Y39.9464 
G01 X-32.0236 Y40.0143 
G01 X-32.0603 Y40.1030 
G01 X-32.0603 Y41.5570 
G01 X-32.0236 Y41.6457 
G01 X-31.9557 Y41.7136 
G01 X-31.8670 Y41.7503 
G01 X-30.4130 Y41.7503 
G01 X-30.3663 Y41.7309 
G01 X-30.3663 Y71.2004 
G01 X-46.8237 Y87.6579 
G01 X-46.9266 Y87.6054 
G01 X-47.1034 Y87.5480 
G01 X-47.2870 Y87.5189 
G01 X-47.4730 Y87.5189 
G01 X-47.6566 Y87.5480 
G01 X-47.8334 Y87.6054 
G01 X-47.9990 Y87.6898 
G01 X-48.1494 Y87.7991 
G01 X-48.2809 Y87.9306 
G01 X-48.3902 Y88.0810 
G01 X-48.4746 Y88.2466 
G01 X-48.5320 Y88.4234 
G01 X-48.5611 Y88.6070 
G01 X-48.5611 Y88.7930 
G01 X-48.5320 Y88.9766 
G01 X-48.4746 Y89.1534 
G01 X-48.3902 Y89.3190 
G01 X-48.2809 Y89.4694 
G01 X-48.1494 Y89.6009 
G01 X-47.9990 Y89.7102 
G01 X-47.8334 Y89.7946 
G01 X-47.6566 Y89.8520 
G01 X-47.4730 Y89.8811 
G01 X-47.2870 Y89.8811 
G01 X-47.1034 Y89.8520 
G01 X-46.9266 Y89.7946 
G01 X-46.7610 Y89.7102 
G01 X-46.6106 Y89.6009 
G01 X-46.4791 Y89.4694 
G01 X-46.3698 Y89.3190 
G01 X-46.2854 Y89.1534 
G01 X-46.2280 Y88.9766 
G01 X-46.1989 Y88.7930 
G01 X-46.1989 Y88.6070 
G01 X-46.2280 Y88.4234 
G01 X-46.2854 Y88.2466 
G01 X-46.2923 Y88.2332 
G01 X-29.8163 Y71.7572 
G01 X-29.8163 Y73.1254 
G01 X-46.8668 Y90.1759 
G01 X-46.9266 Y90.1454 
G01 X-47.1034 Y90.0880 
G01 X-47.2870 Y90.0589 
G01 X-47.4730 Y90.0589 
G01 X-47.6566 Y90.0880 
G01 X-47.8334 Y90.1454 
G01 X-47.9990 Y90.2298 
G01 X-48.1494 Y90.3391 
G01 X-48.2809 Y90.4706 
G01 X-48.3902 Y90.6210 
G01 X-48.4746 Y90.7866 
G01 X-48.5320 Y90.9634 
G01 X-48.5611 Y91.1470 
G01 X-48.5611 Y91.3330 
G01 X-48.5320 Y91.5166 
G01 X-48.4746 Y91.6934 
G01 X-48.3902 Y91.8590 
G01 X-48.2809 Y92.0094 
G01 X-48.1494 Y92.1409 
G01 X-47.9990 Y92.2502 
G01 X-47.8334 Y92.3346 
G01 X-47.6566 Y92.3920 
G01 X-47.4730 Y92.4211 
G01 X-47.2870 Y92.4211 
G01 X-47.1034 Y92.3920 
G01 X-46.9266 Y92.3346 
G01 X-46.7610 Y92.2502 
G01 X-46.6106 Y92.1409 
G01 X-46.4791 Y92.0094 
G01 X-46.3698 Y91.8590 
G01 X-46.2854 Y91.6934 
G01 X-46.2280 Y91.5166 
G01 X-46.1989 Y91.3330 
G01 X-46.1989 Y91.1470 
G01 X-46.2280 Y90.9634 
G01 X-46.2854 Y90.7866 
G01 X-46.3142 Y90.7301 
G01 X-29.1119 Y73.5278 
G01 X-29.0604 Y73.4385 
G01 X-29.0337 Y73.3390 
G01 X-29.0337 Y35.8360 
G01 X-29.0604 Y35.7365 
G01 X-29.1119 Y35.6472 
G01 X-29.1847 Y35.5744 
G01 X-30.4222 Y34.3369 
G01 X-30.5115 Y34.2854 
G01 X-30.6110 Y34.2587 
G01 X-31.6765 Y34.2587 
G01 X-31.7760 Y34.2854 
G01 X-31.8653 Y34.3369 
G01 X-31.9381 Y34.4097 
G01 X-32.6256 Y35.0972 
G01 X-32.6771 Y35.1865 
G01 X-32.7038 Y35.2860 
G01 X-32.7038 Y36.2140 
G01 X-32.6771 Y36.3135 
G01 X-32.6256 Y36.4028 
G01 X-32.5528 Y36.4756 
G01 X-31.6038 Y37.4246 
G00 Z2.5400 
G00 X-48.4746 Y81.5334 
G01 Z-0.1778 F254.00 
G01 X-48.3902 Y81.6990 F508.00 
G01 X-48.2809 Y81.8494 
G01 X-48.1494 Y81.9809 
G01 X-47.9990 Y82.0902 
G01 X-47.8334 Y82.1746 
G01 X-47.6566 Y82.2320 
G01 X-47.4730 Y82.2611 
G01 X-47.2870 Y82.2611 
G01 X-47.1034 Y82.2320 
G01 X-46.9266 Y82.1746 
G01 X-46.7610 Y82.0902 
G01 X-46.6106 Y81.9809 
G01 X-46.4791 Y81.8494 
G01 X-46.3698 Y81.6990 
G01 X-46.3163 Y81.5940 
G01 X-46.3163 Y82.0629 
G01 X-46.8287 Y82.5753 
G01 X-46.9266 Y82.5254 
G01 X-47.1034 Y82.4680 
G01 X-47.2870 Y82.4389 
G01 X-47.4730 Y82.4389 
G01 X-47.6566 Y82.4680 
G01 X-47.8334 Y82.5254 
G01 X-47.9990 Y82.6098 
G01 X-48.1494 Y82.7191 
G01 X-48.2809 Y82.8506 
G01 X-48.3902 Y83.0010 
G01 X-48.4746 Y83.1666 
G01 X-48.5320 Y83.3434 
G01 X-48.5611 Y83.5270 
G01 X-48.5611 Y83.7130 
G01 X-48.5320 Y83.8966 
G01 X-48.4746 Y84.0734 
G01 X-48.3902 Y84.2390 
G01 X-48.2809 Y84.3894 
G01 X-48.1494 Y84.5209 
G01 X-47.9990 Y84.6302 
G01 X-47.8334 Y84.7146 
G01 X-47.6566 Y84.7720 
G01 X-47.4730 Y84.8011 
G01 X-47.2870 Y84.8011 
G01 X-47.1034 Y84.7720 
G01 X-46.9266 Y84.7146 
G01 X-46.7610 Y84.6302 
G01 X-46.6106 Y84.5209 
G01 X-46.4791 Y84.3894 
G01 X-46.3698 Y84.2390 
G01 X-46.2854 Y84.0734 
G01 X-46.2280 Y83.8966 
G01 X-46.1989 Y83.7130 
G01 X-46.1989 Y83.5270 
G01 X-46.2280 Y83.3434 
G01 X-46.2854 Y83.1666 
G01 X-46.2948 Y83.1482 
G01 X-45.6119 Y82.4653 
G01 X-45.5604 Y82.3760 
G01 X-45.5337 Y82.2765 
G01 X-45.5337 Y49.1121 
G01 X-34.5952 Y38.1735 
G01 X-34.6003 Y38.1994 
G01 X-34.6003 Y38.3806 
G01 X-34.5649 Y38.5584 
G01 X-34.4956 Y38.7259 
G01 X-34.3948 Y38.8767 
G01 X-34.2667 Y39.0048 
G01 X-34.1159 Y39.1056 
G01 X-33.9484 Y39.1749 
G01 X-33.7706 Y39.2103 
G01 X-33.5894 Y39.2103 
G01 X-33.4116 Y39.1749 
G01 X-33.2441 Y39.1056 
G01 X-33.0933 Y39.0048 
G01 X-32.9652 Y38.8767 
G01 X-32.8644 Y38.7259 
G01 X-32.7951 Y38.5584 
G01 X-32.7597 Y38.3806 
G01 X-32.7597 Y38.1994 
G01 X-32.7951 Y38.0216 
G01 X-32.8644 Y37.8541 
G01 X-32.9652 Y37.7033 
G01 X-33.0933 Y37.5752 
G01 X-33.2441 Y37.4744 
G01 X-33.4116 Y37.4051 
G01 X-33.5894 Y37.3697 
