(.../pcb-gcode-3.6.0.4/pcb-gcode.ulp)
(Copyright 2005 - 2012 by John Johnson)
(See readme.txt for licensing terms.)
(This file generated from the board:)
(.../eagle/SulaMatikV1/SulaMatikV1.brd)
(Current profile is .../pcb-gcode-3.6.0.4/profiles/emc.pp  )
(This file generated 8/27/2014 5:19:14 PM)
(Settings from pcb-machine.h)
(  Tool Size)
(0.1000 )
(Z Axis Settings)
(  High     Up        Down     Drill)
(19.5000 	2.0000 	-0.0250 	-1.5000 )
(spindle on time = 1.0000)
(milling depth = -0.0500)
(text depth = -0.0500)
(tool change at 15.0000 15.0000 19.0000 )
(feed rate xy = F508.00 )
(feed rate z  = F254.00 )
(Settings from pcb-defaults.h)
(isolate min = 0.0500)
(isolate max = 1.0000)
(isolate step = 0.1000)
(Generated top outlines, top drill, bottom outlines, bottom drill, )
(Unit of measure: mm)
( Tool|       Size       |  Min Sub |  Max Sub |   Count )
( T01  0.508mm 0.0200in 0.0000in 0.0000in )
( T02  0.700mm 0.0276in 0.0000in 0.0000in )
( T03  0.813mm 0.0320in 0.0000in 0.0000in )
( T04  1.016mm 0.0400in 0.0000in 0.0000in )
( T05  1.118mm 0.0440in 0.0000in 0.0000in )
( T06  1.676mm 0.0660in 0.0000in 0.0000in )
( T07  2.000mm 0.0787in 0.0000in 0.0000in )
(Metric Mode)
G21
(Absolute Coordinates)
G90
M05
G00 Z19.0000 
G00 X15.0000 Y15.0000 
M06 T01  ; 0.5080 
G01 Z0.0000 F254.00 
M06 T01  ; 0.5080 
G00 Z2.0000 
M03
G04 P1.000000
G00 Z2.000000
G00 X33.0000 Y19.0000 
G01 Z-1.5000 F254.00 
G01 Z2.000000
(R2.0000  P1.000000)
(G00 Z2.000000)
G00 X35.0000 Y43.7500 
G01 Z-1.500000
G01 Z2.000000
(G00 Z2.000000)
G00 X35.0000 Y5.5000 
G01 Z-1.500000
G01 Z2.000000
(G00 Z2.000000)
G00 X36.2500 Y5.0000 
G01 Z-1.500000
G01 Z2.000000
(G00 Z2.000000)
G00 X38.2500 Y36.0000 
G01 Z-1.500000
G01 Z2.000000
(G00 Z2.000000)
G00 X41.0000 Y42.7500 
G01 Z-1.500000
G01 Z2.000000
(G00 Z2.000000)
G00 X42.7500 Y36.0000 
G01 Z-1.500000
G01 Z2.000000
(G00 Z2.000000)
G00 X44.2500 Y35.0000 
G01 Z-1.500000
G01 Z2.000000
(G00 Z2.000000)
G00 X45.7500 Y6.5000 
G01 Z-1.500000
G01 Z2.000000
(G00 Z2.000000)
G00 X45.7500 Y18.0000 
G01 Z-1.500000
G01 Z2.000000
(G00 Z2.000000)
G00 X49.2500 Y30.0000 
G01 Z-1.500000
G01 Z2.000000
(G00 Z2.000000)
G00 X50.2500 Y27.0000 
G01 Z-1.500000
G01 Z2.000000
(G00 Z2.000000)
G00 X50.2500 Y29.0000 
G01 Z-1.500000
G01 Z2.000000
(G00 Z2.000000)
G00 X52.5000 Y18.7500 
G01 Z-1.500000
G01 Z2.000000
(G00 Z2.000000)
G00 X53.2500 Y21.7500 
G01 Z-1.500000
G01 Z2.000000
(G00 Z2.000000)
G00 X56.0000 Y26.0000 
G01 Z-1.500000
G01 Z2.000000
(G00 Z2.000000)
G00 X13.0000 Y20.2500 
G01 Z-1.500000
G01 Z2.000000
(G00 Z2.000000)
G00 X16.7500 Y28.5000 
G01 Z-1.500000
G01 Z2.000000
(G00 Z2.000000)
G00 X18.5000 Y17.5000 
G01 Z-1.500000
G01 Z2.000000
(G00 Z2.000000)
G00 X29.5000 Y5.5000 
G01 Z-1.500000
G01 Z2.000000
(G00 Z2.000000)
G00 X30.2500 Y27.7500 
G01 Z-1.500000
G01 Z2.000000
M05
G00 Z19.0000 
M06 T02  ; 0.7000 
G01 Z0.0000 F254.00 
M06 T02  ; 0.7000 
G00 Z2.0000 
M03
G04 P1.000000
G00 Z2.000000
G00 X46.5600 Y48.2600 
G01 Z-1.5000 F254.00 
G01 Z2.000000
(R2.0000  P1.000000)
(G00 Z2.000000)
G00 X49.9600 Y48.2600 
G01 Z-1.500000
G01 Z2.000000
M05
G00 Z19.0000 
M06 T03  ; 0.8128 
G01 Z0.0000 F254.00 
M06 T03  ; 0.8128 
G00 Z2.0000 
M03
G04 P1.000000
G00 Z2.000000
G00 X39.3700 Y48.2600 
G01 Z-1.5000 F254.00 
G01 Z2.000000
(R2.0000  P1.000000)
(G00 Z2.000000)
G00 X41.9100 Y48.2600 
G01 Z-1.500000
G01 Z2.000000
(G00 Z2.000000)
G00 X50.8000 Y2.5400 
G01 Z-1.500000
G01 Z2.000000
(G00 Z2.000000)
G00 X53.3400 Y2.5400 
G01 Z-1.500000
G01 Z2.000000
(G00 Z2.000000)
G00 X55.8800 Y2.5400 
G01 Z-1.500000
G01 Z2.000000
(G00 Z2.000000)
G00 X58.4200 Y2.5400 
G01 Z-1.500000
G01 Z2.000000
(G00 Z2.000000)
G00 X60.9600 Y2.5400 
G01 Z-1.500000
G01 Z2.000000
(G00 Z2.000000)
G00 X11.4300 Y2.5400 
G01 Z-1.500000
G01 Z2.000000
(G00 Z2.000000)
G00 X13.9700 Y2.5400 
G01 Z-1.500000
G01 Z2.000000
(G00 Z2.000000)
G00 X16.5100 Y2.5400 
G01 Z-1.500000
G01 Z2.000000
(G00 Z2.000000)
G00 X19.0500 Y2.5400 
G01 Z-1.500000
G01 Z2.000000
(G00 Z2.000000)
G00 X21.5900 Y2.5400 
G01 Z-1.500000
G01 Z2.000000
(G00 Z2.000000)
G00 X24.1300 Y2.5400 
G01 Z-1.500000
G01 Z2.000000
(G00 Z2.000000)
G00 X26.6700 Y2.5400 
G01 Z-1.500000
G01 Z2.000000
(G00 Z2.000000)
G00 X29.2100 Y2.5400 
G01 Z-1.500000
G01 Z2.000000
M05
G00 Z19.0000 
M06 T04  ; 1.0160 
G01 Z0.0000 F254.00 
M06 T04  ; 1.0160 
G00 Z2.0000 
M03
G04 P1.000000
G00 Z2.000000
G00 X32.3088 Y33.2994 
G01 Z-1.5000 F254.00 
G01 Z2.000000
(R2.0000  P1.000000)
(G00 Z2.000000)
G00 X32.3088 Y37.8206 
G01 Z-1.500000
G01 Z2.000000
(G00 Z2.000000)
G00 X38.8112 Y33.2994 
G01 Z-1.500000
G01 Z2.000000
(G00 Z2.000000)
G00 X38.8112 Y37.8206 
G01 Z-1.500000
G01 Z2.000000
(G00 Z2.000000)
G00 X46.9900 Y31.7500 
G01 Z-1.500000
G01 Z2.000000
(G00 Z2.000000)
G00 X46.9900 Y34.2900 
G01 Z-1.500000
G01 Z2.000000
(G00 Z2.000000)
G00 X46.9900 Y36.8300 
G01 Z-1.500000
G01 Z2.000000
(G00 Z2.000000)
G00 X46.9900 Y8.8900 
G01 Z-1.500000
G01 Z2.000000
(G00 Z2.000000)
G00 X46.9900 Y11.4300 
G01 Z-1.500000
G01 Z2.000000
(G00 Z2.000000)
G00 X46.9900 Y13.9700 
G01 Z-1.500000
G01 Z2.000000
(G00 Z2.000000)
G00 X46.9900 Y16.5100 
G01 Z-1.500000
G01 Z2.000000
(G00 Z2.000000)
G00 X46.9900 Y19.0500 
G01 Z-1.500000
G01 Z2.000000
(G00 Z2.000000)
G00 X46.9900 Y21.5900 
G01 Z-1.500000
G01 Z2.000000
(G00 Z2.000000)
G00 X46.9900 Y24.1300 
G01 Z-1.500000
G01 Z2.000000
(G00 Z2.000000)
G00 X46.9900 Y26.6700 
G01 Z-1.500000
G01 Z2.000000
(G00 Z2.000000)
G00 X46.9900 Y29.2100 
G01 Z-1.500000
G01 Z2.000000
(G00 Z2.000000)
G00 X53.3400 Y45.7200 
G01 Z-1.500000
G01 Z2.000000
(G00 Z2.000000)
G00 X55.8800 Y50.8000 
G01 Z-1.500000
G01 Z2.000000
(G00 Z2.000000)
G00 X58.4200 Y45.7200 
G01 Z-1.500000
G01 Z2.000000
(G00 Z2.000000)
G00 X59.6900 Y25.4000 
G01 Z-1.500000
G01 Z2.000000
(G00 Z2.000000)
G00 X59.6900 Y27.9400 
G01 Z-1.500000
G01 Z2.000000
(G00 Z2.000000)
G00 X62.2300 Y31.7500 
G01 Z-1.500000
G01 Z2.000000
(G00 Z2.000000)
G00 X62.2300 Y34.2900 
G01 Z-1.500000
G01 Z2.000000
(G00 Z2.000000)
G00 X62.2300 Y36.8300 
G01 Z-1.500000
G01 Z2.000000
(G00 Z2.000000)
G00 X62.2300 Y8.8900 
G01 Z-1.500000
G01 Z2.000000
(G00 Z2.000000)
G00 X62.2300 Y11.4300 
G01 Z-1.500000
G01 Z2.000000
(G00 Z2.000000)
G00 X62.2300 Y13.9700 
G01 Z-1.500000
G01 Z2.000000
(G00 Z2.000000)
G00 X62.2300 Y16.5100 
G01 Z-1.500000
G01 Z2.000000
(G00 Z2.000000)
G00 X62.2300 Y19.0500 
G01 Z-1.500000
G01 Z2.000000
(G00 Z2.000000)
G00 X62.2300 Y21.5900 
G01 Z-1.500000
G01 Z2.000000
(G00 Z2.000000)
G00 X62.2300 Y24.1300 
G01 Z-1.500000
G01 Z2.000000
(G00 Z2.000000)
G00 X62.2300 Y26.6700 
G01 Z-1.500000
G01 Z2.000000
(G00 Z2.000000)
G00 X62.2300 Y29.2100 
G01 Z-1.500000
G01 Z2.000000
(G00 Z2.000000)
G00 X8.3312 Y33.2994 
G01 Z-1.500000
G01 Z2.000000
(G00 Z2.000000)
G00 X8.3312 Y37.8206 
G01 Z-1.500000
G01 Z2.000000
(G00 Z2.000000)
G00 X11.9888 Y33.2994 
G01 Z-1.500000
G01 Z2.000000
(G00 Z2.000000)
G00 X11.9888 Y37.8206 
G01 Z-1.500000
G01 Z2.000000
(G00 Z2.000000)
G00 X1.8288 Y33.2994 
G01 Z-1.500000
G01 Z2.000000
(G00 Z2.000000)
G00 X1.8288 Y37.8206 
G01 Z-1.500000
G01 Z2.000000
(G00 Z2.000000)
G00 X18.4912 Y33.2994 
G01 Z-1.500000
G01 Z2.000000
(G00 Z2.000000)
G00 X18.4912 Y37.8206 
G01 Z-1.500000
G01 Z2.000000
(G00 Z2.000000)
G00 X22.1488 Y33.2994 
G01 Z-1.500000
G01 Z2.000000
(G00 Z2.000000)
G00 X22.1488 Y37.8206 
G01 Z-1.500000
G01 Z2.000000
(G00 Z2.000000)
G00 X28.6512 Y33.2994 
G01 Z-1.500000
G01 Z2.000000
(G00 Z2.000000)
G00 X28.6512 Y37.8206 
G01 Z-1.500000
G01 Z2.000000
M05
G00 Z19.0000 
M06 T05  ; 1.1176 
G01 Z0.0000 F254.00 
M06 T05  ; 1.1176 
G00 Z2.0000 
M03
G04 P1.000000
G00 Z2.000000
G00 X5.0800 Y21.5900 
G01 Z-1.5000 F254.00 
G01 Z2.000000
(R2.0000  P1.000000)
(G00 Z2.000000)
G00 X5.0800 Y25.4000 
G01 Z-1.500000
G01 Z2.000000
(G00 Z2.000000)
G00 X5.0800 Y29.2100 
G01 Z-1.500000
G01 Z2.000000
M05
G00 Z19.0000 
M06 T06  ; 1.6764 
G01 Z0.0000 F254.00 
M06 T06  ; 1.6764 
G00 Z2.0000 
M03
G04 P1.000000
G00 Z2.000000
G00 X7.0612 Y48.2600 
G01 Z-1.5000 F254.00 
G01 Z2.000000
(R2.0000  P1.000000)
(G00 Z2.000000)
G00 X10.7188 Y48.2600 
G01 Z-1.500000
G01 Z2.000000
(G00 Z2.000000)
G00 X14.6812 Y48.2600 
G01 Z-1.500000
G01 Z2.000000
(G00 Z2.000000)
G00 X18.3388 Y48.2600 
G01 Z-1.500000
G01 Z2.000000
(G00 Z2.000000)
G00 X22.3012 Y48.2600 
G01 Z-1.500000
G01 Z2.000000
(G00 Z2.000000)
G00 X25.9588 Y48.2600 
G01 Z-1.500000
G01 Z2.000000
(G00 Z2.000000)
G00 X29.9212 Y48.2600 
G01 Z-1.500000
G01 Z2.000000
(G00 Z2.000000)
G00 X3.0988 Y48.2600 
G01 Z-1.500000
G01 Z2.000000
M05
G00 Z19.0000 
M06 T07  ; 2.0000 
G01 Z0.0000 F254.00 
M06 T07  ; 2.0000 
G00 Z2.0000 
M03
G04 P1.000000
G00 Z2.000000
G00 X63.5000 Y50.8000 
G01 Z-1.5000 F254.00 
G01 Z2.000000
(R2.0000  P1.000000)
(G00 Z2.000000)
G00 X2.5400 Y2.5400 
G01 Z-1.500000
G01 Z2.000000
T01 
G00 Z19.5000 
M05
M02
