(.../pcb-gcode-3.6.0.4/pcb-gcode.ulp)
(Copyright 2005 - 2012 by John Johnson)
(See readme.txt for licensing terms.)
(This file generated from the board:)
(.../eagle/SulaMatikV1/SulaMatikV1.brd)
(Current profile is .../pcb-gcode-3.6.0.4/profiles/emc.pp  )
(This file generated 8/27/2014 9:27:36 AM)
(Settings from pcb-machine.h)
(  Tool Size)
(0.1000 )
(Z Axis Settings)
(  High     Up        Down     Drill)
(19.5000 	2.0000 	-0.0250 	-1.5000 )
(spindle on time = 1.0000)
(milling depth = -0.0500)
(text depth = -0.0500)
(tool change at 15.0000 15.0000 19.0000 )
(feed rate xy = F508.00 )
(feed rate z  = F254.00 )
(Settings from pcb-defaults.h)
(isolate min = 0.0500)
(isolate max = 1.0000)
(isolate step = 0.1000)
(Generated top outlines, top drill, bottom outlines, bottom drill, )
(Unit of measure: mm)
(Metric Mode)
G21
(Absolute Coordinates)
G90
G00 X0.0000 Y0.0000 
M03
G04 P1.000000
G00 Z2.0000 
G00 X-16.2365 Y51.2914 
G01 Z-0.0250 F254.00 
G01 X-16.0483 Y51.1032 F508.00 
G01 X-15.1640 Y51.1032 
G01 X-15.1640 Y51.4796 
G01 X-16.0483 Y51.4796 
G01 X-16.2365 Y51.2914 
G00 Z2.0000 
G00 X-11.5589 Y51.2914 
G01 Z-0.0250 F254.00 
G01 X-11.3707 Y51.1032 F508.00 
G01 X-10.4864 Y51.1032 
G01 X-10.4864 Y51.4796 
G01 X-11.3707 Y51.4796 
G01 X-11.5589 Y51.2914 
G00 Z2.0000 
G00 X-12.1036 Y28.7500 
G01 Z-0.0250 F254.00 
G01 X-25.8795 Y28.7500 F508.00 
G01 X-25.9610 Y28.6281 
G01 X-26.0881 Y28.5010 
G01 X-26.2376 Y28.4011 
G01 X-26.4037 Y28.3323 
G01 X-26.5801 Y28.2972 
G01 X-26.7599 Y28.2972 
G01 X-26.9363 Y28.3323 
G01 X-27.1024 Y28.4011 
G01 X-27.2519 Y28.5010 
G01 X-27.3790 Y28.6281 
G01 X-27.4789 Y28.7776 
G01 X-27.5477 Y28.9437 
G01 X-27.5828 Y29.1201 
G01 X-27.5828 Y29.2999 
G01 X-27.5477 Y29.4763 
G01 X-27.4789 Y29.6424 
G01 X-27.3790 Y29.7919 
G01 X-27.2519 Y29.9190 
G01 X-27.1024 Y30.0189 
G01 X-26.9363 Y30.0877 
G01 X-26.7599 Y30.1228 
G01 X-26.5801 Y30.1228 
G01 X-26.4037 Y30.0877 
G01 X-26.2376 Y30.0189 
G01 X-26.0881 Y29.9190 
G01 X-25.9610 Y29.7919 
G01 X-25.8611 Y29.6424 
G01 X-25.7923 Y29.4763 
G01 X-25.7572 Y29.2999 
G01 X-25.7572 Y29.2500 
G01 X-11.9503 Y29.2500 
G01 X-11.8584 Y29.2119 
G01 X-11.7881 Y29.1416 
G01 X-10.7153 Y28.0689 
G01 X-10.6773 Y28.0846 
G01 X-10.5599 Y28.1080 
G01 X-10.4401 Y28.1080 
G01 X-10.3227 Y28.0846 
G01 X-10.2120 Y28.0388 
G01 X-10.1124 Y27.9723 
G01 X-10.0277 Y27.8876 
G01 X-9.9612 Y27.7880 
G01 X-9.9154 Y27.6773 
G01 X-9.8920 Y27.5599 
G01 X-9.8920 Y27.4401 
G01 X-9.9154 Y27.3227 
G01 X-9.9612 Y27.2120 
G01 X-10.0277 Y27.1124 
G01 X-10.1124 Y27.0277 
G01 X-10.2120 Y26.9612 
G01 X-10.3227 Y26.9154 
G01 X-10.4401 Y26.8920 
G01 X-10.5599 Y26.8920 
G01 X-10.6773 Y26.9154 
G01 X-10.7880 Y26.9612 
G01 X-10.8876 Y27.0277 
G01 X-10.9723 Y27.1124 
G01 X-11.0388 Y27.2120 
G01 X-11.0846 Y27.3227 
G01 X-11.1080 Y27.4401 
G01 X-11.1080 Y27.5599 
G01 X-11.0846 Y27.6773 
G01 X-11.0689 Y27.7153 
G01 X-12.1036 Y28.7500 
G00 Z2.0000 
G00 X-25.7890 Y31.5000 
G01 Z-0.0250 F254.00 
G01 X-25.7923 Y31.4837 F508.00 
G01 X-25.8611 Y31.3176 
G01 X-25.9610 Y31.1681 
G01 X-26.0881 Y31.0410 
G01 X-26.2376 Y30.9411 
G01 X-26.4037 Y30.8723 
G01 X-26.5801 Y30.8372 
G01 X-26.7599 Y30.8372 
G01 X-26.9363 Y30.8723 
G01 X-27.1024 Y30.9411 
G01 X-27.2519 Y31.0410 
G01 X-27.3790 Y31.1681 
G01 X-27.4789 Y31.3176 
G01 X-27.5477 Y31.4837 
G01 X-27.5828 Y31.6601 
G01 X-27.5828 Y31.8399 
G01 X-27.5477 Y32.0163 
G01 X-27.4789 Y32.1824 
G01 X-27.3790 Y32.3319 
G01 X-27.2519 Y32.4590 
G01 X-27.1024 Y32.5589 
G01 X-26.9363 Y32.6277 
G01 X-26.7599 Y32.6628 
G01 X-26.5801 Y32.6628 
G01 X-26.4037 Y32.6277 
G01 X-26.2376 Y32.5589 
G01 X-26.0881 Y32.4590 
G01 X-25.9610 Y32.3319 
G01 X-25.8611 Y32.1824 
G01 X-25.7923 Y32.0163 
G01 X-25.7890 Y32.0000 
G01 X-15.5961 Y32.0000 
G01 X-15.5380 Y32.0388 
G01 X-15.4273 Y32.0846 
G01 X-15.3099 Y32.1080 
G01 X-15.1901 Y32.1080 
G01 X-15.0727 Y32.0846 
G01 X-14.9620 Y32.0388 
G01 X-14.8624 Y31.9723 
G01 X-14.7777 Y31.8876 
G01 X-14.7112 Y31.7880 
G01 X-14.6654 Y31.6773 
G01 X-14.6420 Y31.5599 
G01 X-14.6420 Y31.4401 
G01 X-14.6654 Y31.3227 
G01 X-14.7112 Y31.2120 
G01 X-14.7777 Y31.1124 
G01 X-14.8624 Y31.0277 
G01 X-14.9620 Y30.9612 
G01 X-15.0727 Y30.9154 
G01 X-15.1901 Y30.8920 
G01 X-15.3099 Y30.8920 
G01 X-15.4273 Y30.9154 
G01 X-15.5380 Y30.9612 
G01 X-15.6376 Y31.0277 
G01 X-15.7223 Y31.1124 
G01 X-15.7888 Y31.2120 
G01 X-15.8346 Y31.3227 
G01 X-15.8580 Y31.4401 
G01 X-15.8580 Y31.5000 
G01 X-25.7890 Y31.5000 
G00 Z2.0000 
G00 X-29.4619 Y39.3916 
G01 Z-0.0250 F254.00 
G01 X-29.3916 Y39.4619 F508.00 
G01 X-29.2997 Y39.5000 
G01 X-27.5748 Y39.5000 
G01 X-27.5477 Y39.6363 
G01 X-27.4789 Y39.8024 
G01 X-27.3790 Y39.9519 
G01 X-27.2519 Y40.0790 
G01 X-27.1024 Y40.1789 
G01 X-26.9363 Y40.2477 
G01 X-26.7599 Y40.2828 
G01 X-26.5801 Y40.2828 
G01 X-26.4037 Y40.2477 
G01 X-26.2376 Y40.1789 
G01 X-26.0881 Y40.0790 
G01 X-25.9610 Y39.9519 
G01 X-25.8611 Y39.8024 
G01 X-25.8394 Y39.7500 
G01 X-21.1036 Y39.7500 
G01 X-17.9501 Y42.9034 
G01 X-17.9581 Y42.9144 
G01 X-18.0324 Y43.0603 
G01 X-18.0830 Y43.2159 
G01 X-18.1086 Y43.3776 
G01 X-18.1086 Y43.5412 
G01 X-18.0830 Y43.7029 
G01 X-18.0324 Y43.8585 
G01 X-17.9581 Y44.0044 
G01 X-17.8619 Y44.1368 
G01 X-17.7462 Y44.2525 
G01 X-17.6138 Y44.3487 
G01 X-17.4679 Y44.4230 
G01 X-17.3123 Y44.4736 
G01 X-17.1506 Y44.4992 
G01 X-16.9870 Y44.4992 
G01 X-16.8253 Y44.4736 
G01 X-16.6697 Y44.4230 
G01 X-16.5238 Y44.3487 
G01 X-16.3914 Y44.2525 
G01 X-16.2757 Y44.1368 
G01 X-16.1795 Y44.0044 
G01 X-16.1052 Y43.8585 
G01 X-16.0546 Y43.7029 
G01 X-16.0290 Y43.5412 
G01 X-16.0290 Y43.3776 
G01 X-16.0546 Y43.2159 
G01 X-16.1052 Y43.0603 
G01 X-16.1795 Y42.9144 
G01 X-16.2757 Y42.7820 
G01 X-16.3914 Y42.6663 
G01 X-16.5238 Y42.5701 
G01 X-16.6697 Y42.4958 
G01 X-16.8253 Y42.4452 
G01 X-16.9870 Y42.4196 
G01 X-17.1506 Y42.4196 
G01 X-17.3123 Y42.4452 
G01 X-17.4679 Y42.4958 
G01 X-17.5890 Y42.5575 
G01 X-20.7881 Y39.3584 
G01 X-20.8584 Y39.2881 
G01 X-20.9503 Y39.2500 
G01 X-25.7632 Y39.2500 
G01 X-25.7923 Y39.1037 
G01 X-25.8611 Y38.9376 
G01 X-25.9610 Y38.7881 
G01 X-26.0881 Y38.6610 
G01 X-26.2376 Y38.5611 
G01 X-26.4037 Y38.4923 
G01 X-26.5801 Y38.4572 
G01 X-26.7599 Y38.4572 
G01 X-26.9363 Y38.4923 
G01 X-27.1024 Y38.5611 
G01 X-27.2519 Y38.6610 
G01 X-27.3790 Y38.7881 
G01 X-27.4789 Y38.9376 
G01 X-27.5047 Y39.0000 
G01 X-29.1464 Y39.0000 
G01 X-33.9311 Y34.2153 
G01 X-33.9154 Y34.1773 
G01 X-33.8920 Y34.0599 
G01 X-33.8920 Y33.9401 
G01 X-33.9154 Y33.8227 
G01 X-33.9612 Y33.7120 
G01 X-34.0277 Y33.6124 
G01 X-34.1124 Y33.5277 
G01 X-34.2120 Y33.4612 
G01 X-34.3227 Y33.4154 
G01 X-34.4401 Y33.3920 
G01 X-34.5599 Y33.3920 
G01 X-34.6773 Y33.4154 
G01 X-34.7880 Y33.4612 
G01 X-34.8876 Y33.5277 
G01 X-34.9723 Y33.6124 
G01 X-35.0388 Y33.7120 
G01 X-35.0846 Y33.8227 
G01 X-35.1080 Y33.9401 
G01 X-35.1080 Y34.0599 
G01 X-35.0846 Y34.1773 
G01 X-35.0388 Y34.2880 
G01 X-34.9723 Y34.3876 
G01 X-34.8876 Y34.4723 
G01 X-34.7880 Y34.5388 
G01 X-34.6773 Y34.5846 
G01 X-34.5599 Y34.6080 
G01 X-34.4401 Y34.6080 
G01 X-34.3227 Y34.5846 
G01 X-34.2847 Y34.5689 
G01 X-29.4619 Y39.3916 
G00 Z2.0000 
G00 X-3.3512 Y4.2889 
G01 Z-0.0250 F254.00 
G01 X-3.3512 Y5.8711 F508.00 
G01 X-3.3200 Y6.0278 
G01 X-3.2589 Y6.1754 
G01 X-3.1701 Y6.3083 
G01 X-3.0571 Y6.4213 
G01 X-2.9242 Y6.5101 
G01 X-2.7766 Y6.5712 
G01 X-2.6199 Y6.6024 
G01 X-2.4601 Y6.6024 
G01 X-2.3034 Y6.5712 
G01 X-2.1558 Y6.5101 
G01 X-2.0229 Y6.4213 
G01 X-1.9099 Y6.3083 
G01 X-1.8211 Y6.1754 
G01 X-1.7600 Y6.0278 
G01 X-1.7288 Y5.8711 
G01 X-1.7288 Y4.2889 
G01 X-1.7600 Y4.1322 
G01 X-1.8211 Y3.9846 
G01 X-1.9099 Y3.8517 
G01 X-2.0229 Y3.7387 
G01 X-2.1558 Y3.6499 
G01 X-2.3034 Y3.5888 
G01 X-2.4601 Y3.5576 
G01 X-2.6199 Y3.5576 
G01 X-2.7766 Y3.5888 
G01 X-2.9242 Y3.6499 
G01 X-3.0571 Y3.7387 
G01 X-3.1701 Y3.8517 
G01 X-3.2589 Y3.9846 
G01 X-3.3200 Y4.1322 
G01 X-3.3512 Y4.2889 
G00 Z2.0000 
G00 X-5.8912 Y5.8711 
G01 Z-0.0250 F254.00 
G01 X-5.8600 Y6.0278 F508.00 
G01 X-5.7989 Y6.1754 
G01 X-5.7101 Y6.3083 
G01 X-5.5971 Y6.4213 
G01 X-5.4642 Y6.5101 
G01 X-5.3166 Y6.5712 
G01 X-5.1599 Y6.6024 
G01 X-5.0001 Y6.6024 
G01 X-4.8434 Y6.5712 
G01 X-4.6958 Y6.5101 
G01 X-4.5629 Y6.4213 
G01 X-4.4499 Y6.3083 
G01 X-4.3611 Y6.1754 
G01 X-4.3000 Y6.0278 
G01 X-4.2688 Y5.8711 
G01 X-4.2688 Y4.2889 
G01 X-4.3000 Y4.1322 
G01 X-4.3611 Y3.9846 
G01 X-4.4499 Y3.8517 
G01 X-4.5629 Y3.7387 
G01 X-4.6958 Y3.6499 
G01 X-4.8434 Y3.5888 
G01 X-5.0001 Y3.5576 
G01 X-5.1599 Y3.5576 
G01 X-5.3166 Y3.5888 
G01 X-5.4642 Y3.6499 
G01 X-5.5971 Y3.7387 
G01 X-5.7101 Y3.8517 
G01 X-5.7989 Y3.9846 
G01 X-5.8320 Y4.0645 
G01 X-6.8584 Y3.0381 
G01 X-6.9503 Y3.0000 
G01 X-22.7997 Y3.0000 
G01 X-22.8916 Y3.0381 
G01 X-22.9619 Y3.1084 
G01 X-24.2118 Y4.3583 
G01 X-24.3266 Y4.3107 
G01 X-24.4812 Y4.2800 
G01 X-24.6388 Y4.2800 
G01 X-24.7934 Y4.3107 
G01 X-24.9389 Y4.3711 
G01 X-25.0700 Y4.4586 
G01 X-25.1814 Y4.5700 
G01 X-25.2689 Y4.7011 
G01 X-25.3293 Y4.8466 
G01 X-25.3598 Y5.0000 
G01 X-29.6815 Y5.0000 
G01 X-29.6815 Y3.7159 
G01 X-29.7149 Y3.5049 
G01 X-29.7809 Y3.3017 
G01 X-29.8779 Y3.1113 
G01 X-30.0035 Y2.9385 
G01 X-30.1546 Y2.7874 
G01 X-30.3274 Y2.6618 
G01 X-30.5178 Y2.5648 
G01 X-30.7210 Y2.4988 
G01 X-30.9320 Y2.4654 
G01 X-31.1456 Y2.4654 
G01 X-31.3566 Y2.4988 
G01 X-31.5598 Y2.5648 
G01 X-31.7502 Y2.6618 
G01 X-31.9230 Y2.7874 
G01 X-32.0741 Y2.9385 
G01 X-32.1997 Y3.1113 
G01 X-32.2967 Y3.3017 
G01 X-32.3627 Y3.5049 
G01 X-32.3961 Y3.7159 
G01 X-32.3961 Y6.0425 
G01 X-34.1036 Y7.7500 
G01 X-37.6464 Y7.7500 
G01 X-39.7272 Y5.6692 
G01 X-39.7272 Y4.1773 
G01 X-39.7623 Y4.0009 
G01 X-39.8311 Y3.8348 
G01 X-39.9310 Y3.6853 
G01 X-40.0581 Y3.5582 
G01 X-40.2076 Y3.4583 
G01 X-40.3737 Y3.3895 
G01 X-40.5501 Y3.3544 
G01 X-40.7299 Y3.3544 
G01 X-40.9063 Y3.3895 
G01 X-41.0724 Y3.4583 
G01 X-41.2219 Y3.5582 
G01 X-41.3490 Y3.6853 
G01 X-41.4489 Y3.8348 
G01 X-41.5177 Y4.0009 
G01 X-41.5528 Y4.1773 
G01 X-41.5528 Y5.9827 
G01 X-41.5177 Y6.1591 
G01 X-41.4489 Y6.3252 
G01 X-41.3490 Y6.4747 
G01 X-41.2219 Y6.6018 
G01 X-41.0724 Y6.7017 
G01 X-40.9063 Y6.7705 
G01 X-40.7299 Y6.8056 
G01 X-40.5501 Y6.8056 
G01 X-40.3737 Y6.7705 
G01 X-40.2076 Y6.7017 
G01 X-40.0581 Y6.6018 
G01 X-39.9310 Y6.4747 
G01 X-39.8311 Y6.3252 
G01 X-39.8157 Y6.2879 
G01 X-37.9619 Y8.1416 
G01 X-37.8916 Y8.2119 
G01 X-37.7997 Y8.2500 
G01 X-33.9503 Y8.2500 
G01 X-33.8584 Y8.2119 
G01 X-32.3477 Y6.7012 
G01 X-32.2967 Y6.8583 
G01 X-32.1997 Y7.0487 
G01 X-32.0741 Y7.2215 
G01 X-31.9230 Y7.3726 
G01 X-31.7502 Y7.4982 
G01 X-31.5598 Y7.5952 
G01 X-31.3566 Y7.6612 
G01 X-31.1456 Y7.6946 
G01 X-30.9320 Y7.6946 
G01 X-30.7210 Y7.6612 
G01 X-30.5178 Y7.5952 
G01 X-30.3274 Y7.4982 
G01 X-30.1546 Y7.3726 
G01 X-30.0035 Y7.2215 
G01 X-29.8779 Y7.0487 
G01 X-29.7809 Y6.8583 
G01 X-29.7149 Y6.6551 
G01 X-29.6815 Y6.4441 
G01 X-29.6815 Y5.5000 
G01 X-25.2415 Y5.5000 
G01 X-25.1814 Y5.5900 
G01 X-25.0700 Y5.7014 
G01 X-24.9389 Y5.7889 
G01 X-24.7934 Y5.8493 
G01 X-24.6388 Y5.8800 
G01 X-24.4812 Y5.8800 
G01 X-24.3266 Y5.8493 
G01 X-24.1811 Y5.7889 
G01 X-24.0500 Y5.7014 
G01 X-23.9386 Y5.5900 
G01 X-23.8511 Y5.4589 
G01 X-23.7907 Y5.3134 
G01 X-23.7600 Y5.1588 
G01 X-23.7600 Y5.0012 
G01 X-23.7907 Y4.8466 
G01 X-23.8500 Y4.7036 
G01 X-22.6464 Y3.5000 
G01 X-7.1036 Y3.5000 
G01 X-5.8912 Y4.7124 
G01 X-5.8912 Y5.8711 
G00 Z2.0000 
G00 X-8.4312 Y4.2889 
G01 Z-0.0250 F254.00 
G01 X-8.4312 Y5.5776 F508.00 
G01 X-15.8536 Y13.0000 
G01 X-24.5497 Y13.0000 
G01 X-24.6416 Y13.0381 
G01 X-30.2847 Y18.6811 
G01 X-30.3227 Y18.6654 
G01 X-30.4401 Y18.6420 
G01 X-30.5599 Y18.6420 
G01 X-30.6773 Y18.6654 
G01 X-30.7880 Y18.7112 
G01 X-30.8876 Y18.7777 
G01 X-30.9723 Y18.8624 
G01 X-31.0388 Y18.9620 
G01 X-31.0846 Y19.0726 
G01 X-31.1080 Y19.1901 
G01 X-31.1080 Y19.3099 
G01 X-31.0846 Y19.4273 
G01 X-31.0388 Y19.5380 
G01 X-30.9723 Y19.6376 
G01 X-30.8876 Y19.7223 
G01 X-30.7880 Y19.7888 
G01 X-30.6773 Y19.8346 
G01 X-30.5599 Y19.8580 
G01 X-30.4401 Y19.8580 
G01 X-30.3227 Y19.8346 
G01 X-30.2120 Y19.7888 
G01 X-30.1124 Y19.7223 
G01 X-30.0277 Y19.6376 
G01 X-29.9612 Y19.5380 
G01 X-29.9154 Y19.4273 
G01 X-29.8920 Y19.3099 
G01 X-29.8920 Y19.1901 
G01 X-29.9154 Y19.0726 
G01 X-29.9311 Y19.0347 
G01 X-24.3964 Y13.5000 
G01 X-15.7003 Y13.5000 
G01 X-15.6084 Y13.4619 
G01 X-15.5381 Y13.3916 
G01 X-8.3321 Y6.1856 
G01 X-8.2501 Y6.3083 
G01 X-8.1371 Y6.4213 
G01 X-8.0042 Y6.5101 
G01 X-7.8566 Y6.5712 
G01 X-7.6999 Y6.6024 
G01 X-7.5401 Y6.6024 
G01 X-7.3834 Y6.5712 
G01 X-7.2358 Y6.5101 
G01 X-7.1029 Y6.4213 
G01 X-6.9899 Y6.3083 
G01 X-6.9011 Y6.1754 
G01 X-6.8400 Y6.0278 
G01 X-6.8088 Y5.8711 
G01 X-6.8088 Y4.2889 
G01 X-6.8400 Y4.1322 
G01 X-6.9011 Y3.9846 
G01 X-6.9899 Y3.8517 
G01 X-7.1029 Y3.7387 
G01 X-7.2358 Y3.6499 
G01 X-7.3834 Y3.5888 
G01 X-7.5401 Y3.5576 
G01 X-7.6999 Y3.5576 
G01 X-7.8566 Y3.5888 
G01 X-8.0042 Y3.6499 
G01 X-8.1371 Y3.7387 
G01 X-8.2501 Y3.8517 
G01 X-8.3389 Y3.9846 
G01 X-8.4000 Y4.1322 
G01 X-8.4312 Y4.2889 
G00 Z2.0000 
G00 X-10.9712 Y4.2889 
G01 Z-0.0250 F254.00 
G01 X-10.9712 Y5.6176 F508.00 
G01 X-17.6036 Y12.2500 
G01 X-25.7997 Y12.2500 
G01 X-25.8916 Y12.2881 
G01 X-32.2847 Y18.6811 
G01 X-32.3227 Y18.6654 
G01 X-32.4401 Y18.6420 
G01 X-32.5599 Y18.6420 
G01 X-32.6773 Y18.6654 
G01 X-32.7880 Y18.7112 
G01 X-32.8876 Y18.7777 
G01 X-32.9723 Y18.8624 
G01 X-33.0388 Y18.9620 
G01 X-33.0846 Y19.0726 
G01 X-33.1080 Y19.1901 
G01 X-33.1080 Y19.3099 
G01 X-33.0846 Y19.4273 
G01 X-33.0388 Y19.5380 
G01 X-32.9723 Y19.6376 
G01 X-32.8876 Y19.7223 
G01 X-32.7880 Y19.7888 
G01 X-32.6773 Y19.8346 
G01 X-32.5599 Y19.8580 
G01 X-32.4401 Y19.8580 
G01 X-32.3227 Y19.8346 
G01 X-32.2120 Y19.7888 
G01 X-32.1124 Y19.7223 
G01 X-32.0277 Y19.6376 
G01 X-31.9612 Y19.5380 
G01 X-31.9154 Y19.4273 
G01 X-31.8920 Y19.3099 
G01 X-31.8920 Y19.1901 
G01 X-31.9154 Y19.0726 
G01 X-31.9311 Y19.0347 
G01 X-25.6464 Y12.7500 
G01 X-17.4503 Y12.7500 
G01 X-17.3584 Y12.7119 
G01 X-17.2881 Y12.6416 
G01 X-10.8560 Y6.2096 
G01 X-10.7901 Y6.3083 
G01 X-10.6771 Y6.4213 
G01 X-10.5442 Y6.5101 
G01 X-10.3966 Y6.5712 
G01 X-10.2399 Y6.6024 
G01 X-10.0801 Y6.6024 
G01 X-9.9234 Y6.5712 
G01 X-9.7758 Y6.5101 
G01 X-9.6429 Y6.4213 
G01 X-9.5299 Y6.3083 
G01 X-9.4411 Y6.1754 
G01 X-9.3800 Y6.0278 
G01 X-9.3488 Y5.8711 
G01 X-9.3488 Y4.2889 
G01 X-9.3800 Y4.1322 
G01 X-9.4411 Y3.9846 
G01 X-9.5299 Y3.8517 
G01 X-9.6429 Y3.7387 
G01 X-9.7758 Y3.6499 
G01 X-9.9234 Y3.5888 
G01 X-10.0801 Y3.5576 
G01 X-10.2399 Y3.5576 
G01 X-10.3966 Y3.5888 
G01 X-10.5442 Y3.6499 
G01 X-10.6771 Y3.7387 
G01 X-10.7901 Y3.8517 
G01 X-10.8789 Y3.9846 
G01 X-10.9400 Y4.1322 
G01 X-10.9712 Y4.2889 
G00 Z2.0000 
G00 X-13.5112 Y4.2889 
G01 Z-0.0250 F254.00 
G01 X-13.5112 Y5.8711 F508.00 
G01 X-13.4800 Y6.0278 
G01 X-13.4189 Y6.1754 
G01 X-13.3301 Y6.3083 
G01 X-13.2171 Y6.4213 
G01 X-13.0842 Y6.5101 
G01 X-12.9366 Y6.5712 
G01 X-12.7799 Y6.6024 
G01 X-12.6201 Y6.6024 
G01 X-12.4634 Y6.5712 
G01 X-12.3158 Y6.5101 
G01 X-12.1829 Y6.4213 
G01 X-12.0699 Y6.3083 
G01 X-11.9811 Y6.1754 
G01 X-11.9200 Y6.0278 
G01 X-11.8888 Y5.8711 
G01 X-11.8888 Y4.2889 
G01 X-11.9200 Y4.1322 
G01 X-11.9811 Y3.9846 
G01 X-12.0699 Y3.8517 
G01 X-12.1829 Y3.7387 
G01 X-12.3158 Y3.6499 
G01 X-12.4634 Y3.5888 
G01 X-12.6201 Y3.5576 
G01 X-12.7799 Y3.5576 
G01 X-12.9366 Y3.5888 
G01 X-13.0842 Y3.6499 
G01 X-13.2171 Y3.7387 
G01 X-13.3301 Y3.8517 
G01 X-13.4189 Y3.9846 
G01 X-13.4800 Y4.1322 
G01 X-13.5112 Y4.2889 
G00 Z2.0000 
G00 X-16.0512 Y4.2889 
G01 Z-0.0250 F254.00 
G01 X-16.0512 Y5.8711 F508.00 
G01 X-16.0200 Y6.0278 
G01 X-15.9589 Y6.1754 
G01 X-15.8701 Y6.3083 
G01 X-15.7571 Y6.4213 
G01 X-15.6242 Y6.5101 
G01 X-15.4766 Y6.5712 
G01 X-15.3199 Y6.6024 
G01 X-15.1601 Y6.6024 
G01 X-15.0034 Y6.5712 
G01 X-14.8558 Y6.5101 
G01 X-14.7229 Y6.4213 
G01 X-14.6099 Y6.3083 
G01 X-14.5211 Y6.1754 
G01 X-14.4600 Y6.0278 
G01 X-14.4288 Y5.8711 
G01 X-14.4288 Y4.2889 
G01 X-14.4600 Y4.1322 
G01 X-14.5211 Y3.9846 
G01 X-14.6099 Y3.8517 
G01 X-14.7229 Y3.7387 
G01 X-14.8558 Y3.6499 
G01 X-15.0034 Y3.5888 
G01 X-15.1601 Y3.5576 
G01 X-15.3199 Y3.5576 
G01 X-15.4766 Y3.5888 
G01 X-15.6242 Y3.6499 
G01 X-15.7571 Y3.7387 
G01 X-15.8701 Y3.8517 
G01 X-15.9589 Y3.9846 
G01 X-16.0200 Y4.1322 
G01 X-16.0512 Y4.2889 
G00 Z2.0000 
G00 X-18.5912 Y4.2889 
G01 Z-0.0250 F254.00 
G01 X-18.5912 Y5.8711 F508.00 
G01 X-18.5600 Y6.0278 
G01 X-18.4989 Y6.1754 
G01 X-18.4101 Y6.3083 
G01 X-18.2971 Y6.4213 
G01 X-18.1642 Y6.5101 
G01 X-18.0166 Y6.5712 
G01 X-17.8599 Y6.6024 
G01 X-17.7001 Y6.6024 
G01 X-17.5434 Y6.5712 
G01 X-17.3957 Y6.5101 
G01 X-17.2629 Y6.4213 
G01 X-17.1499 Y6.3083 
G01 X-17.0611 Y6.1754 
G01 X-17.0000 Y6.0278 
G01 X-16.9688 Y5.8711 
G01 X-16.9688 Y4.2889 
G01 X-17.0000 Y4.1322 
G01 X-17.0611 Y3.9846 
G01 X-17.1499 Y3.8517 
G01 X-17.2629 Y3.7387 
G01 X-17.3957 Y3.6499 
G01 X-17.5434 Y3.5888 
G01 X-17.7001 Y3.5576 
G01 X-17.8599 Y3.5576 
G01 X-18.0166 Y3.5888 
G01 X-18.1642 Y3.6499 
G01 X-18.2971 Y3.7387 
G01 X-18.4101 Y3.8517 
G01 X-18.4989 Y3.9846 
G01 X-18.5600 Y4.1322 
G01 X-18.5912 Y4.2889 
G00 Z2.0000 
G00 X-24.6110 Y43.3776 
G01 Z-0.0250 F254.00 
G01 X-24.6110 Y43.5412 F508.00 
G01 X-24.5854 Y43.7029 
G01 X-24.5348 Y43.8585 
G01 X-24.4605 Y44.0044 
G01 X-24.3643 Y44.1368 
G01 X-24.2486 Y44.2525 
G01 X-24.1162 Y44.3487 
G01 X-23.9703 Y44.4230 
G01 X-23.8147 Y44.4736 
G01 X-23.6530 Y44.4992 
G01 X-23.4894 Y44.4992 
G01 X-23.3277 Y44.4736 
G01 X-23.1721 Y44.4230 
G01 X-23.0262 Y44.3487 
G01 X-22.8938 Y44.2525 
G01 X-22.7781 Y44.1368 
G01 X-22.6819 Y44.0044 
G01 X-22.6076 Y43.8585 
G01 X-22.5570 Y43.7029 
G01 X-22.5314 Y43.5412 
G01 X-22.5314 Y43.3776 
G01 X-22.5570 Y43.2159 
G01 X-22.6076 Y43.0603 
G01 X-22.6819 Y42.9144 
G01 X-22.7781 Y42.7820 
G01 X-22.8938 Y42.6663 
G01 X-23.0262 Y42.5701 
G01 X-23.1721 Y42.4958 
G01 X-23.3277 Y42.4452 
G01 X-23.4894 Y42.4196 
G01 X-23.6530 Y42.4196 
G01 X-23.8147 Y42.4452 
G01 X-23.9703 Y42.4958 
G01 X-24.1162 Y42.5701 
G01 X-24.2486 Y42.6663 
G01 X-24.3643 Y42.7820 
G01 X-24.4605 Y42.9144 
G01 X-24.5348 Y43.0603 
G01 X-24.5854 Y43.2159 
G01 X-24.6110 Y43.3776 
G00 Z2.0000 
G00 X-24.6110 Y47.8988 
G01 Z-0.0250 F254.00 
G01 X-24.6110 Y48.0624 F508.00 
G01 X-24.5854 Y48.2241 
G01 X-24.5348 Y48.3797 
G01 X-24.4605 Y48.5256 
G01 X-24.3643 Y48.6580 
G01 X-24.2486 Y48.7737 
G01 X-24.1162 Y48.8699 
G01 X-23.9703 Y48.9442 
G01 X-23.8147 Y48.9948 
G01 X-23.6530 Y49.0204 
G01 X-23.4894 Y49.0204 
G01 X-23.3277 Y48.9948 
G01 X-23.1721 Y48.9442 
G01 X-23.0262 Y48.8699 
G01 X-22.8938 Y48.7737 
G01 X-22.7781 Y48.6580 
G01 X-22.6819 Y48.5256 
G01 X-22.6076 Y48.3797 
G01 X-22.5570 Y48.2241 
G01 X-22.5314 Y48.0624 
G01 X-22.5314 Y47.8988 
G01 X-22.5570 Y47.7371 
G01 X-22.6076 Y47.5815 
G01 X-22.6819 Y47.4356 
G01 X-22.7781 Y47.3032 
G01 X-22.8938 Y47.1875 
G01 X-23.0262 Y47.0913 
G01 X-23.1721 Y47.0170 
G01 X-23.3277 Y46.9664 
G01 X-23.4894 Y46.9408 
G01 X-23.6530 Y46.9408 
G01 X-23.8147 Y46.9664 
G01 X-23.9703 Y47.0170 
G01 X-24.1162 Y47.0913 
G01 X-24.2486 Y47.1875 
G01 X-24.3643 Y47.3032 
G01 X-24.4605 Y47.4356 
G01 X-24.5348 Y47.5815 
G01 X-24.5854 Y47.7371 
G01 X-24.6110 Y47.8988 
G00 Z2.0000 
G00 X-20.7788 Y16.0311 
G01 Z-0.0250 F254.00 
G01 X-20.7788 Y14.4489 F508.00 
G01 X-20.8100 Y14.2922 
G01 X-20.8711 Y14.1446 
G01 X-20.9599 Y14.0117 
G01 X-21.0729 Y13.8987 
G01 X-21.2058 Y13.8099 
G01 X-21.3534 Y13.7488 
G01 X-21.5101 Y13.7176 
G01 X-21.6699 Y13.7176 
G01 X-21.8266 Y13.7488 
G01 X-21.9742 Y13.8099 
G01 X-22.1071 Y13.8987 
G01 X-22.2201 Y14.0117 
G01 X-22.3089 Y14.1446 
G01 X-22.3700 Y14.2922 
G01 X-22.4012 Y14.4489 
G01 X-22.4012 Y16.0311 
G01 X-22.3700 Y16.1878 
G01 X-22.3089 Y16.3354 
G01 X-22.2201 Y16.4683 
G01 X-22.1071 Y16.5813 
G01 X-21.9742 Y16.6701 
G01 X-21.8266 Y16.7312 
G01 X-21.6699 Y16.7624 
G01 X-21.5101 Y16.7624 
G01 X-21.3534 Y16.7312 
G01 X-21.2058 Y16.6701 
G01 X-21.0729 Y16.5813 
G01 X-20.9599 Y16.4683 
G01 X-20.8711 Y16.3354 
G01 X-20.8100 Y16.1878 
G01 X-20.7788 Y16.0311 
G00 Z2.0000 
G00 X-18.2388 Y16.0311 
G01 Z-0.0250 F254.00 
G01 X-18.2388 Y14.4489 F508.00 
G01 X-18.2700 Y14.2922 
G01 X-18.3311 Y14.1446 
G01 X-18.4199 Y14.0117 
G01 X-18.5329 Y13.8987 
G01 X-18.6657 Y13.8099 
G01 X-18.8134 Y13.7488 
G01 X-18.9701 Y13.7176 
G01 X-19.1299 Y13.7176 
G01 X-19.2866 Y13.7488 
G01 X-19.4342 Y13.8099 
G01 X-19.5671 Y13.8987 
G01 X-19.6801 Y14.0117 
G01 X-19.7689 Y14.1446 
G01 X-19.8300 Y14.2922 
G01 X-19.8612 Y14.4489 
G01 X-19.8612 Y16.0311 
G01 X-19.8300 Y16.1878 
G01 X-19.7689 Y16.3354 
G01 X-19.6801 Y16.4683 
G01 X-19.5671 Y16.5813 
G01 X-19.4342 Y16.6701 
G01 X-19.2866 Y16.7312 
G01 X-19.1299 Y16.7624 
G01 X-18.9701 Y16.7624 
G01 X-18.8134 Y16.7312 
G01 X-18.6657 Y16.6701 
G01 X-18.5329 Y16.5813 
G01 X-18.4199 Y16.4683 
G01 X-18.3311 Y16.3354 
G01 X-18.2700 Y16.1878 
G01 X-18.2388 Y16.0311 
G00 Z2.0000 
G00 X-15.6988 Y16.0311 
G01 Z-0.0250 F254.00 
G01 X-15.6988 Y14.5524 F508.00 
G01 X-11.6464 Y10.5000 
G01 X-7.1612 Y10.5000 
G01 X-7.1612 Y10.9511 
G01 X-7.1300 Y11.1078 
G01 X-7.0689 Y11.2554 
G01 X-6.9801 Y11.3883 
G01 X-6.8671 Y11.5013 
G01 X-6.7342 Y11.5901 
G01 X-6.5866 Y11.6512 
G01 X-6.4299 Y11.6824 
G01 X-6.2701 Y11.6824 
G01 X-6.1134 Y11.6512 
G01 X-5.9657 Y11.5901 
G01 X-5.8329 Y11.5013 
G01 X-5.7199 Y11.3883 
G01 X-5.6311 Y11.2554 
G01 X-5.5700 Y11.1078 
G01 X-5.5388 Y10.9511 
G01 X-5.5388 Y9.3689 
G01 X-5.5700 Y9.2122 
G01 X-5.6311 Y9.0646 
G01 X-5.7199 Y8.9317 
G01 X-5.8329 Y8.8187 
G01 X-5.9657 Y8.7299 
G01 X-6.1134 Y8.6688 
G01 X-6.2701 Y8.6376 
G01 X-6.4299 Y8.6376 
G01 X-6.5866 Y8.6688 
G01 X-6.7342 Y8.7299 
G01 X-6.8671 Y8.8187 
G01 X-6.9801 Y8.9317 
G01 X-7.0689 Y9.0646 
G01 X-7.1300 Y9.2122 
G01 X-7.1612 Y9.3689 
G01 X-7.1612 Y10.0000 
G01 X-11.7997 Y10.0000 
G01 X-11.8916 Y10.0381 
G01 X-11.9619 Y10.1084 
G01 X-15.8740 Y14.0205 
G01 X-15.8799 Y14.0117 
G01 X-15.9929 Y13.8987 
G01 X-16.1258 Y13.8099 
G01 X-16.2734 Y13.7488 
G01 X-16.4301 Y13.7176 
G01 X-16.5899 Y13.7176 
G01 X-16.7466 Y13.7488 
G01 X-16.8942 Y13.8099 
G01 X-17.0271 Y13.8987 
G01 X-17.1401 Y14.0117 
G01 X-17.2289 Y14.1446 
G01 X-17.2900 Y14.2922 
G01 X-17.3212 Y14.4489 
G01 X-17.3212 Y16.0311 
G01 X-17.2900 Y16.1878 
G01 X-17.2289 Y16.3354 
G01 X-17.1401 Y16.4683 
G01 X-17.0271 Y16.5813 
G01 X-16.8942 Y16.6701 
G01 X-16.7466 Y16.7312 
G01 X-16.5899 Y16.7624 
G01 X-16.4301 Y16.7624 
G01 X-16.2734 Y16.7312 
G01 X-16.1258 Y16.6701 
G01 X-15.9929 Y16.5813 
G01 X-15.8799 Y16.4683 
G01 X-15.7911 Y16.3354 
G01 X-15.7300 Y16.1878 
G01 X-15.6988 Y16.0311 
G00 Z2.0000 
G00 X-13.1588 Y16.0311 
G01 Z-0.0250 F254.00 
G01 X-13.1588 Y14.4489 F508.00 
G01 X-13.1900 Y14.2922 
G01 X-13.2511 Y14.1446 
G01 X-13.3399 Y14.0117 
G01 X-13.4529 Y13.8987 
G01 X-13.5858 Y13.8099 
G01 X-13.7334 Y13.7488 
G01 X-13.8901 Y13.7176 
G01 X-14.0499 Y13.7176 
G01 X-14.2066 Y13.7488 
G01 X-14.3542 Y13.8099 
G01 X-14.4871 Y13.8987 
G01 X-14.6001 Y14.0117 
G01 X-14.6889 Y14.1446 
G01 X-14.7500 Y14.2922 
G01 X-14.7812 Y14.4489 
G01 X-14.7812 Y15.6776 
G01 X-19.1036 Y20.0000 
G01 X-38.0497 Y20.0000 
G01 X-38.1416 Y20.0381 
G01 X-41.4459 Y23.3423 
G01 X-41.4776 Y23.3211 
G01 X-41.6437 Y23.2523 
G01 X-41.8201 Y23.2172 
G01 X-41.9999 Y23.2172 
G01 X-42.1763 Y23.2523 
G01 X-42.3424 Y23.3211 
G01 X-42.4919 Y23.4210 
G01 X-42.6190 Y23.5481 
G01 X-42.7189 Y23.6976 
G01 X-42.7877 Y23.8637 
G01 X-42.8228 Y24.0401 
G01 X-42.8228 Y24.2199 
G01 X-42.7877 Y24.3963 
G01 X-42.7189 Y24.5624 
G01 X-42.6190 Y24.7119 
G01 X-42.4919 Y24.8390 
G01 X-42.3424 Y24.9389 
G01 X-42.1763 Y25.0077 
G01 X-41.9999 Y25.0428 
G01 X-41.8201 Y25.0428 
G01 X-41.6437 Y25.0077 
G01 X-41.4776 Y24.9389 
G01 X-41.3281 Y24.8390 
G01 X-41.2010 Y24.7119 
G01 X-41.1011 Y24.5624 
G01 X-41.0323 Y24.3963 
G01 X-40.9972 Y24.2199 
G01 X-40.9972 Y24.0401 
G01 X-41.0323 Y23.8637 
G01 X-41.0990 Y23.7026 
G01 X-37.8964 Y20.5000 
G01 X-18.9503 Y20.5000 
G01 X-18.8584 Y20.4619 
G01 X-18.7881 Y20.3916 
G01 X-14.7015 Y16.3050 
G01 X-14.6889 Y16.3354 
G01 X-14.6001 Y16.4683 
G01 X-14.4871 Y16.5813 
G01 X-14.3542 Y16.6701 
G01 X-14.2066 Y16.7312 
G01 X-14.0499 Y16.7624 
G01 X-13.8901 Y16.7624 
G01 X-13.7334 Y16.7312 
G01 X-13.5858 Y16.6701 
G01 X-13.4529 Y16.5813 
G01 X-13.3399 Y16.4683 
G01 X-13.2511 Y16.3354 
G01 X-13.1900 Y16.1878 
G01 X-13.1588 Y16.0311 
G00 Z2.0000 
G00 X-10.6188 Y16.0311 
G01 Z-0.0250 F254.00 
G01 X-10.6188 Y14.4489 F508.00 
G01 X-10.6500 Y14.2922 
G01 X-10.7111 Y14.1446 
G01 X-10.7999 Y14.0117 
G01 X-10.9129 Y13.8987 
G01 X-11.0457 Y13.8099 
G01 X-11.1934 Y13.7488 
G01 X-11.3501 Y13.7176 
G01 X-11.5099 Y13.7176 
G01 X-11.6666 Y13.7488 
G01 X-11.8142 Y13.8099 
G01 X-11.9471 Y13.8987 
G01 X-12.0601 Y14.0117 
G01 X-12.1489 Y14.1446 
G01 X-12.2100 Y14.2922 
G01 X-12.2412 Y14.4489 
G01 X-12.2412 Y15.6376 
G01 X-17.8536 Y21.2500 
G01 X-25.8228 Y21.2500 
G01 X-25.8611 Y21.1576 
G01 X-25.9610 Y21.0081 
G01 X-26.0881 Y20.8810 
G01 X-26.2376 Y20.7811 
G01 X-26.4037 Y20.7123 
G01 X-26.5801 Y20.6772 
G01 X-26.7599 Y20.6772 
G01 X-26.9363 Y20.7123 
G01 X-27.1024 Y20.7811 
G01 X-27.2519 Y20.8810 
G01 X-27.3790 Y21.0081 
G01 X-27.4789 Y21.1576 
G01 X-27.5477 Y21.3237 
G01 X-27.5828 Y21.5001 
G01 X-27.5828 Y21.6799 
G01 X-27.5477 Y21.8563 
G01 X-27.4789 Y22.0224 
G01 X-27.3790 Y22.1719 
G01 X-27.2519 Y22.2990 
G01 X-27.1024 Y22.3989 
G01 X-26.9363 Y22.4677 
G01 X-26.7599 Y22.5028 
G01 X-26.5801 Y22.5028 
G01 X-26.4037 Y22.4677 
G01 X-26.2376 Y22.3989 
G01 X-26.0881 Y22.2990 
G01 X-25.9610 Y22.1719 
G01 X-25.8611 Y22.0224 
G01 X-25.7923 Y21.8563 
G01 X-25.7711 Y21.7500 
G01 X-17.7003 Y21.7500 
G01 X-17.6084 Y21.7119 
G01 X-17.5381 Y21.6416 
G01 X-12.1732 Y16.2767 
G01 X-12.1489 Y16.3354 
G01 X-12.0601 Y16.4683 
G01 X-11.9471 Y16.5813 
G01 X-11.8142 Y16.6701 
G01 X-11.6666 Y16.7312 
G01 X-11.5099 Y16.7624 
G01 X-11.3501 Y16.7624 
G01 X-11.1934 Y16.7312 
G01 X-11.0457 Y16.6701 
G01 X-10.9129 Y16.5813 
G01 X-10.7999 Y16.4683 
G01 X-10.7111 Y16.3354 
G01 X-10.6500 Y16.1878 
G01 X-10.6188 Y16.0311 
G00 Z2.0000 
G00 X-8.0788 Y16.0311 
G01 Z-0.0250 F254.00 
G01 X-8.0788 Y14.4489 F508.00 
G01 X-8.1100 Y14.2922 
G01 X-8.1711 Y14.1446 
G01 X-8.2599 Y14.0117 
G01 X-8.3729 Y13.8987 
G01 X-8.5058 Y13.8099 
G01 X-8.6534 Y13.7488 
G01 X-8.8101 Y13.7176 
G01 X-8.9699 Y13.7176 
G01 X-9.1266 Y13.7488 
G01 X-9.2742 Y13.8099 
G01 X-9.4071 Y13.8987 
G01 X-9.5201 Y14.0117 
G01 X-9.6089 Y14.1446 
G01 X-9.6700 Y14.2922 
G01 X-9.7012 Y14.4489 
G01 X-9.7012 Y15.5976 
G01 X-17.8536 Y23.7500 
G01 X-25.8394 Y23.7500 
G01 X-25.8611 Y23.6976 
G01 X-25.9610 Y23.5481 
G01 X-26.0881 Y23.4210 
G01 X-26.2376 Y23.3211 
G01 X-26.4037 Y23.2523 
G01 X-26.5801 Y23.2172 
G01 X-26.7599 Y23.2172 
G01 X-26.9363 Y23.2523 
G01 X-27.1024 Y23.3211 
G01 X-27.2519 Y23.4210 
G01 X-27.3790 Y23.5481 
G01 X-27.4789 Y23.6976 
G01 X-27.5477 Y23.8637 
G01 X-27.5828 Y24.0401 
G01 X-27.5828 Y24.2199 
G01 X-27.5477 Y24.3963 
G01 X-27.4789 Y24.5624 
G01 X-27.3790 Y24.7119 
G01 X-27.2519 Y24.8390 
G01 X-27.1024 Y24.9389 
G01 X-26.9363 Y25.0077 
G01 X-26.7599 Y25.0428 
G01 X-26.5801 Y25.0428 
G01 X-26.4037 Y25.0077 
G01 X-26.2376 Y24.9389 
G01 X-26.0881 Y24.8390 
G01 X-25.9610 Y24.7119 
G01 X-25.8611 Y24.5624 
G01 X-25.7923 Y24.3963 
G01 X-25.7632 Y24.2500 
G01 X-17.7003 Y24.2500 
G01 X-17.6084 Y24.2119 
G01 X-17.5381 Y24.1416 
G01 X-9.6449 Y16.2485 
G01 X-9.6089 Y16.3354 
G01 X-9.5201 Y16.4683 
G01 X-9.4071 Y16.5813 
G01 X-9.2742 Y16.6701 
G01 X-9.1266 Y16.7312 
G01 X-8.9699 Y16.7624 
G01 X-8.8101 Y16.7624 
G01 X-8.6534 Y16.7312 
G01 X-8.5058 Y16.6701 
G01 X-8.3729 Y16.5813 
G01 X-8.2599 Y16.4683 
G01 X-8.1711 Y16.3354 
G01 X-8.1100 Y16.1878 
G01 X-8.0788 Y16.0311 
G00 Z2.0000 
G00 X-5.5388 Y16.0311 
G01 Z-0.0250 F254.00 
G01 X-5.5388 Y14.6424 F508.00 
G01 X-4.3964 Y13.5000 
G01 X-3.6036 Y13.5000 
G01 X-2.7500 Y14.3536 
G01 X-2.7500 Y26.2500 
G01 X-25.8560 Y26.2500 
G01 X-25.8611 Y26.2376 
G01 X-25.9610 Y26.0881 
G01 X-26.0881 Y25.9610 
G01 X-26.2376 Y25.8611 
G01 X-26.4037 Y25.7923 
G01 X-26.5801 Y25.7572 
G01 X-26.7599 Y25.7572 
G01 X-26.9363 Y25.7923 
G01 X-27.1024 Y25.8611 
G01 X-27.2519 Y25.9610 
G01 X-27.3790 Y26.0881 
G01 X-27.4789 Y26.2376 
G01 X-27.5477 Y26.4037 
G01 X-27.5828 Y26.5801 
G01 X-27.5828 Y26.7599 
G01 X-27.5477 Y26.9363 
G01 X-27.4789 Y27.1024 
G01 X-27.3790 Y27.2519 
G01 X-27.2519 Y27.3790 
G01 X-27.1024 Y27.4789 
G01 X-26.9363 Y27.5477 
G01 X-26.7599 Y27.5828 
G01 X-26.5801 Y27.5828 
G01 X-26.4037 Y27.5477 
G01 X-26.2376 Y27.4789 
G01 X-26.0881 Y27.3790 
G01 X-25.9610 Y27.2519 
G01 X-25.8611 Y27.1024 
G01 X-25.7923 Y26.9363 
G01 X-25.7572 Y26.7599 
G01 X-25.7572 Y26.7500 
G01 X-2.4503 Y26.7500 
G01 X-2.3584 Y26.7119 
G01 X-2.2881 Y26.6416 
G01 X-2.2500 Y26.5497 
G01 X-2.2500 Y14.2003 
G01 X-2.2881 Y14.1084 
G01 X-2.3584 Y14.0381 
G01 X-3.3584 Y13.0381 
G01 X-3.4503 Y13.0000 
G01 X-4.5497 Y13.0000 
G01 X-4.6416 Y13.0381 
G01 X-4.7119 Y13.1084 
G01 X-5.6780 Y14.0744 
G01 X-5.7199 Y14.0117 
G01 X-5.8329 Y13.8987 
G01 X-5.9657 Y13.8099 
G01 X-6.1134 Y13.7488 
G01 X-6.2701 Y13.7176 
G01 X-6.4299 Y13.7176 
G01 X-6.5866 Y13.7488 
G01 X-6.7342 Y13.8099 
G01 X-6.8671 Y13.8987 
G01 X-6.9801 Y14.0117 
G01 X-7.0689 Y14.1446 
G01 X-7.1300 Y14.2922 
G01 X-7.1612 Y14.4489 
G01 X-7.1612 Y16.0311 
G01 X-7.1300 Y16.1878 
G01 X-7.0689 Y16.3354 
G01 X-6.9801 Y16.4683 
G01 X-6.8671 Y16.5813 
G01 X-6.7342 Y16.6701 
G01 X-6.5866 Y16.7312 
G01 X-6.4299 Y16.7624 
G01 X-6.2701 Y16.7624 
G01 X-6.1134 Y16.7312 
G01 X-5.9657 Y16.6701 
G01 X-5.8329 Y16.5813 
G01 X-5.7199 Y16.4683 
G01 X-5.6311 Y16.3354 
G01 X-5.5700 Y16.1878 
G01 X-5.5388 Y16.0311 
G00 Z2.0000 
G00 X-2.9988 Y16.0311 
G01 Z-0.0250 F254.00 
G01 X-2.9988 Y14.4489 F508.00 
G01 X-3.0300 Y14.2922 
G01 X-3.0911 Y14.1446 
G01 X-3.1799 Y14.0117 
G01 X-3.2929 Y13.8987 
G01 X-3.4258 Y13.8099 
G01 X-3.5734 Y13.7488 
G01 X-3.7301 Y13.7176 
G01 X-3.8899 Y13.7176 
G01 X-4.0466 Y13.7488 
G01 X-4.1942 Y13.8099 
G01 X-4.3271 Y13.8987 
G01 X-4.4401 Y14.0117 
G01 X-4.5289 Y14.1446 
G01 X-4.5900 Y14.2922 
G01 X-4.6212 Y14.4489 
G01 X-4.6212 Y16.0311 
G01 X-4.5900 Y16.1878 
G01 X-4.5289 Y16.3354 
G01 X-4.4401 Y16.4683 
G01 X-4.3271 Y16.5813 
G01 X-4.1942 Y16.6701 
G01 X-4.0466 Y16.7312 
G01 X-3.8899 Y16.7624 
G01 X-3.7301 Y16.7624 
G01 X-3.5734 Y16.7312 
G01 X-3.4258 Y16.6701 
G01 X-3.2929 Y16.5813 
G01 X-3.1799 Y16.4683 
G01 X-3.0911 Y16.3354 
G01 X-3.0300 Y16.1878 
G01 X-2.9988 Y16.0311 
G00 Z2.0000 
G00 X-44.8173 Y6.7072 
G01 Z-0.0250 F254.00 
G01 X-46.6227 Y6.7072 F508.00 
G01 X-46.7991 Y6.7423 
G01 X-46.9652 Y6.8111 
G01 X-47.1147 Y6.9110 
G01 X-47.2418 Y7.0381 
G01 X-47.3417 Y7.1876 
G01 X-47.4105 Y7.3537 
G01 X-47.4456 Y7.5301 
G01 X-47.4456 Y7.7099 
G01 X-47.4105 Y7.8863 
G01 X-47.3417 Y8.0524 
G01 X-47.2418 Y8.2019 
G01 X-47.1147 Y8.3290 
G01 X-46.9652 Y8.4289 
G01 X-46.7991 Y8.4977 
G01 X-46.6227 Y8.5328 
G01 X-44.8173 Y8.5328 
G01 X-44.6409 Y8.4977 
G01 X-44.4748 Y8.4289 
G01 X-44.3253 Y8.3290 
G01 X-44.1982 Y8.2019 
G01 X-44.0983 Y8.0524 
G01 X-44.0295 Y7.8863 
G01 X-43.9944 Y7.7099 
G01 X-43.9944 Y7.5301 
G01 X-44.0295 Y7.3537 
G01 X-44.0983 Y7.1876 
G01 X-44.1982 Y7.0381 
G01 X-44.3253 Y6.9110 
G01 X-44.4748 Y6.8111 
G01 X-44.6409 Y6.7423 
G01 X-44.8173 Y6.7072 
G00 Z2.0000 
G00 X-44.8173 Y1.6272 
G01 Z-0.0250 F254.00 
G01 X-46.6227 Y1.6272 F508.00 
G01 X-46.7991 Y1.6623 
G01 X-46.9652 Y1.7311 
G01 X-47.1147 Y1.8310 
G01 X-47.2418 Y1.9581 
G01 X-47.3417 Y2.1076 
G01 X-47.4105 Y2.2737 
G01 X-47.4456 Y2.4501 
G01 X-47.4456 Y2.6299 
G01 X-47.4105 Y2.8063 
G01 X-47.3417 Y2.9724 
G01 X-47.2418 Y3.1219 
G01 X-47.1147 Y3.2490 
G01 X-46.9652 Y3.3489 
G01 X-46.7991 Y3.4177 
G01 X-46.6227 Y3.4528 
G01 X-44.8173 Y3.4528 
G01 X-44.6409 Y3.4177 
G01 X-44.4748 Y3.3489 
G01 X-44.3253 Y3.2490 
G01 X-44.1982 Y3.1219 
G01 X-44.0983 Y2.9724 
G01 X-44.0295 Y2.8063 
G01 X-43.9944 Y2.6299 
G01 X-43.9944 Y2.4501 
G01 X-44.0295 Y2.2737 
G01 X-44.0983 Y2.1076 
G01 X-44.1982 Y1.9581 
G01 X-44.3253 Y1.8310 
G01 X-44.4748 Y1.7311 
G01 X-44.6409 Y1.6623 
G01 X-44.8173 Y1.6272 
G00 Z2.0000 
G00 X-47.0841 Y18.5785 
G01 Z-0.0250 F254.00 
G01 X-44.3559 Y18.5785 F508.00 
G01 X-44.1449 Y18.5451 
G01 X-43.9417 Y18.4791 
G01 X-43.7513 Y18.3821 
G01 X-43.5785 Y18.2565 
G01 X-43.4274 Y18.1054 
G01 X-43.3018 Y17.9326 
G01 X-43.2048 Y17.7422 
G01 X-43.1388 Y17.5390 
G01 X-43.1054 Y17.3280 
G01 X-43.1054 Y17.1144 
G01 X-43.1388 Y16.9034 
G01 X-43.2048 Y16.7002 
G01 X-43.3018 Y16.5098 
G01 X-43.4274 Y16.3370 
G01 X-43.5785 Y16.1859 
G01 X-43.7513 Y16.0603 
G01 X-43.9417 Y15.9633 
G01 X-44.1449 Y15.8973 
G01 X-44.3559 Y15.8639 
G01 X-47.0841 Y15.8639 
G01 X-47.2951 Y15.8973 
G01 X-47.4983 Y15.9633 
G01 X-47.6887 Y16.0603 
G01 X-47.8615 Y16.1859 
G01 X-48.0126 Y16.3370 
G01 X-48.1382 Y16.5098 
G01 X-48.2352 Y16.7002 
G01 X-48.3012 Y16.9034 
G01 X-48.3346 Y17.1144 
G01 X-48.3346 Y17.3280 
G01 X-48.3012 Y17.5390 
G01 X-48.2352 Y17.7422 
G01 X-48.1382 Y17.9326 
G01 X-48.0126 Y18.1054 
G01 X-47.8615 Y18.2565 
G01 X-47.6887 Y18.3821 
G01 X-47.4983 Y18.4791 
G01 X-47.2951 Y18.5451 
G01 X-47.0841 Y18.5785 
G00 Z2.0000 
G00 X-21.9600 Y5.0012 
G01 Z-0.0250 F254.00 
G01 X-21.9600 Y5.1588 F508.00 
G01 X-21.9293 Y5.3134 
G01 X-21.8689 Y5.4589 
G01 X-21.7814 Y5.5900 
G01 X-21.6700 Y5.7014 
G01 X-21.5389 Y5.7889 
G01 X-21.3934 Y5.8493 
G01 X-21.2388 Y5.8800 
G01 X-21.0812 Y5.8800 
G01 X-20.9266 Y5.8493 
G01 X-20.7811 Y5.7889 
G01 X-20.6500 Y5.7014 
G01 X-20.5386 Y5.5900 
G01 X-20.4511 Y5.4589 
G01 X-20.3907 Y5.3134 
G01 X-20.3600 Y5.1588 
G01 X-20.3600 Y5.0012 
G01 X-20.3907 Y4.8466 
G01 X-20.4511 Y4.7011 
G01 X-20.5386 Y4.5700 
G01 X-20.6500 Y4.4586 
G01 X-20.7811 Y4.3711 
G01 X-20.9266 Y4.3107 
G01 X-21.0812 Y4.2800 
G01 X-21.2388 Y4.2800 
G01 X-21.3934 Y4.3107 
G01 X-21.5389 Y4.3711 
G01 X-21.6700 Y4.4586 
G01 X-21.7814 Y4.5700 
G01 X-21.8689 Y4.7011 
G01 X-21.9293 Y4.8466 
G01 X-21.9600 Y5.0012 
G00 Z2.0000 
G00 X-2.9988 Y10.9511 
G01 Z-0.0250 F254.00 
G01 X-2.9988 Y10.5000 F508.00 
G01 X-2.0000 Y10.5000 
G01 X-2.0000 Y26.6464 
G01 X-5.6036 Y30.2500 
G01 X-38.0497 Y30.2500 
G01 X-38.1416 Y30.2881 
G01 X-38.2119 Y30.3584 
G01 X-41.3919 Y33.5384 
G01 X-41.4776 Y33.4811 
G01 X-41.6437 Y33.4123 
G01 X-41.8201 Y33.3772 
G01 X-41.9999 Y33.3772 
G01 X-42.1763 Y33.4123 
G01 X-42.3424 Y33.4811 
G01 X-42.4919 Y33.5810 
G01 X-42.6190 Y33.7081 
G01 X-42.7189 Y33.8576 
G01 X-42.7877 Y34.0237 
G01 X-42.8228 Y34.2001 
G01 X-42.8228 Y34.3799 
G01 X-42.7877 Y34.5563 
G01 X-42.7189 Y34.7224 
G01 X-42.6190 Y34.8719 
G01 X-42.4919 Y34.9990 
G01 X-42.3424 Y35.0989 
G01 X-42.1763 Y35.1677 
G01 X-41.9999 Y35.2028 
G01 X-41.8201 Y35.2028 
G01 X-41.6437 Y35.1677 
G01 X-41.4776 Y35.0989 
G01 X-41.3281 Y34.9990 
G01 X-41.2010 Y34.8719 
G01 X-41.1011 Y34.7224 
G01 X-41.0323 Y34.5563 
G01 X-40.9972 Y34.3799 
G01 X-40.9972 Y34.2001 
G01 X-41.0323 Y34.0237 
G01 X-41.0727 Y33.9262 
G01 X-37.8964 Y30.7500 
G01 X-5.4503 Y30.7500 
G01 X-5.3584 Y30.7119 
G01 X-1.6084 Y26.9619 
G01 X-1.5381 Y26.8916 
G01 X-1.5000 Y26.7997 
G01 X-1.5000 Y10.2003 
G01 X-1.5381 Y10.1084 
G01 X-1.6084 Y10.0381 
G01 X-1.7003 Y10.0000 
G01 X-2.9988 Y10.0000 
G01 X-2.9988 Y9.3689 
G01 X-3.0300 Y9.2122 
G01 X-3.0911 Y9.0646 
G01 X-3.1799 Y8.9317 
G01 X-3.2929 Y8.8187 
G01 X-3.4258 Y8.7299 
G01 X-3.5734 Y8.6688 
G01 X-3.7301 Y8.6376 
G01 X-3.8899 Y8.6376 
G01 X-4.0466 Y8.6688 
G01 X-4.1942 Y8.7299 
G01 X-4.3271 Y8.8187 
G01 X-4.4401 Y8.9317 
G01 X-4.5289 Y9.0646 
G01 X-4.5900 Y9.2122 
G01 X-4.6212 Y9.3689 
G01 X-4.6212 Y10.9511 
G01 X-4.5900 Y11.1078 
G01 X-4.5289 Y11.2554 
G01 X-4.4401 Y11.3883 
G01 X-4.3271 Y11.5013 
G01 X-4.1942 Y11.5901 
G01 X-4.0466 Y11.6512 
G01 X-3.8899 Y11.6824 
G01 X-3.7301 Y11.6824 
G01 X-3.5734 Y11.6512 
G01 X-3.4258 Y11.5901 
G01 X-3.2929 Y11.5013 
G01 X-3.1799 Y11.3883 
G01 X-3.0911 Y11.2554 
G01 X-3.0300 Y11.1078 
G01 X-2.9988 Y10.9511 
G00 Z2.0000 
G00 X-44.5441 Y59.2185 
G01 Z-0.0250 F254.00 
G01 X-41.8159 Y59.2185 F508.00 
G01 X-41.6049 Y59.1851 
G01 X-41.4017 Y59.1191 
G01 X-41.2113 Y59.0221 
G01 X-41.0385 Y58.8965 
G01 X-40.8874 Y58.7454 
G01 X-40.7618 Y58.5726 
G01 X-40.6648 Y58.3822 
G01 X-40.5988 Y58.1790 
G01 X-40.5654 Y57.9680 
G01 X-40.5654 Y57.7544 
G01 X-40.5988 Y57.5434 
G01 X-40.6648 Y57.3402 
G01 X-40.7618 Y57.1498 
G01 X-40.8874 Y56.9770 
G01 X-41.0385 Y56.8259 
G01 X-41.2113 Y56.7003 
G01 X-41.4017 Y56.6033 
G01 X-41.6049 Y56.5373 
G01 X-41.8159 Y56.5039 
G01 X-44.5441 Y56.5039 
G01 X-44.7551 Y56.5373 
G01 X-44.9583 Y56.6033 
G01 X-45.1487 Y56.7003 
G01 X-45.3215 Y56.8259 
G01 X-45.4726 Y56.9770 
G01 X-45.5982 Y57.1498 
G01 X-45.6952 Y57.3402 
G01 X-45.7612 Y57.5434 
G01 X-45.7946 Y57.7544 
G01 X-45.7946 Y57.9680 
G01 X-45.7612 Y58.1790 
G01 X-45.6952 Y58.3822 
G01 X-45.5982 Y58.5726 
G01 X-45.4726 Y58.7454 
G01 X-45.3215 Y58.8965 
G01 X-45.1487 Y59.0221 
G01 X-44.9583 Y59.1191 
G01 X-44.7551 Y59.1851 
G01 X-44.5441 Y59.2185 
G00 Z2.0000 
G00 X-44.5441 Y55.2561 
G01 Z-0.0250 F254.00 
G01 X-41.8159 Y55.2561 F508.00 
G01 X-41.6049 Y55.2227 
G01 X-41.4017 Y55.1567 
G01 X-41.2113 Y55.0597 
G01 X-41.0385 Y54.9341 
G01 X-40.8874 Y54.7830 
G01 X-40.7618 Y54.6102 
G01 X-40.6648 Y54.4198 
G01 X-40.5988 Y54.2166 
G01 X-40.5654 Y54.0056 
G01 X-40.5654 Y53.7920 
G01 X-40.5988 Y53.5810 
G01 X-40.6648 Y53.3778 
G01 X-40.7618 Y53.1874 
G01 X-40.8874 Y53.0146 
G01 X-41.0385 Y52.8635 
G01 X-41.2113 Y52.7379 
G01 X-41.4017 Y52.6409 
G01 X-41.5041 Y52.6077 
G01 X-37.3964 Y48.5000 
G01 X-25.7003 Y48.5000 
G01 X-25.6084 Y48.4619 
G01 X-23.8964 Y46.7500 
G01 X-16.3535 Y46.7500 
G01 X-16.6371 Y47.0336 
G01 X-16.6697 Y47.0170 
G01 X-16.8253 Y46.9664 
G01 X-16.9870 Y46.9408 
G01 X-17.1506 Y46.9408 
G01 X-17.3123 Y46.9664 
G01 X-17.4679 Y47.0170 
G01 X-17.6138 Y47.0913 
G01 X-17.7462 Y47.1875 
G01 X-17.8619 Y47.3032 
G01 X-17.9581 Y47.4356 
G01 X-18.0324 Y47.5815 
G01 X-18.0830 Y47.7371 
G01 X-18.1086 Y47.8988 
G01 X-18.1086 Y48.0624 
G01 X-18.0830 Y48.2241 
G01 X-18.0324 Y48.3797 
G01 X-17.9581 Y48.5256 
G01 X-17.8619 Y48.6580 
G01 X-17.7462 Y48.7737 
G01 X-17.6138 Y48.8699 
G01 X-17.4679 Y48.9442 
G01 X-17.3123 Y48.9948 
G01 X-17.1506 Y49.0204 
G01 X-16.9870 Y49.0204 
G01 X-16.8253 Y48.9948 
G01 X-16.6697 Y48.9442 
G01 X-16.5238 Y48.8699 
G01 X-16.3914 Y48.7737 
G01 X-16.2757 Y48.6580 
G01 X-16.1795 Y48.5256 
G01 X-16.1052 Y48.3797 
G01 X-16.0546 Y48.2241 
G01 X-16.0290 Y48.0624 
G01 X-16.0290 Y47.8988 
G01 X-16.0546 Y47.7371 
G01 X-16.1052 Y47.5815 
G01 X-16.1795 Y47.4356 
G01 X-16.2437 Y47.3472 
G01 X-15.6464 Y46.7500 
G01 X-8.3536 Y46.7500 
G01 X-7.7433 Y47.3602 
G01 X-7.7981 Y47.4356 
G01 X-7.8724 Y47.5815 
G01 X-7.9230 Y47.7371 
G01 X-7.9486 Y47.8988 
G01 X-7.9486 Y48.0624 
G01 X-7.9230 Y48.2241 
G01 X-7.8724 Y48.3797 
G01 X-7.7981 Y48.5256 
G01 X-7.7019 Y48.6580 
G01 X-7.5862 Y48.7737 
G01 X-7.4538 Y48.8699 
G01 X-7.3079 Y48.9442 
G01 X-7.1523 Y48.9948 
G01 X-6.9906 Y49.0204 
G01 X-6.8270 Y49.0204 
G01 X-6.6653 Y48.9948 
G01 X-6.5097 Y48.9442 
G01 X-6.3638 Y48.8699 
G01 X-6.2314 Y48.7737 
G01 X-6.1157 Y48.6580 
G01 X-6.0195 Y48.5256 
G01 X-5.9452 Y48.3797 
G01 X-5.8946 Y48.2241 
G01 X-5.8690 Y48.0624 
G01 X-5.8690 Y47.8988 
G01 X-5.8946 Y47.7371 
G01 X-5.9452 Y47.5815 
G01 X-6.0195 Y47.4356 
G01 X-6.1157 Y47.3032 
G01 X-6.2314 Y47.1875 
G01 X-6.3638 Y47.0913 
G01 X-6.5097 Y47.0170 
G01 X-6.6653 Y46.9664 
G01 X-6.8270 Y46.9408 
G01 X-6.9906 Y46.9408 
G01 X-7.1523 Y46.9664 
G01 X-7.3079 Y47.0170 
G01 X-7.3553 Y47.0411 
G01 X-8.0381 Y46.3584 
G01 X-8.1084 Y46.2881 
G01 X-8.2003 Y46.2500 
G01 X-24.0497 Y46.2500 
G01 X-24.1416 Y46.2881 
G01 X-24.2119 Y46.3584 
G01 X-25.8536 Y48.0000 
G01 X-37.5497 Y48.0000 
G01 X-37.6416 Y48.0381 
G01 X-37.7119 Y48.1084 
G01 X-42.1451 Y52.5415 
G01 X-44.5441 Y52.5415 
G01 X-44.7551 Y52.5749 
G01 X-44.9583 Y52.6409 
G01 X-45.1487 Y52.7379 
G01 X-45.3215 Y52.8635 
G01 X-45.4726 Y53.0146 
G01 X-45.5982 Y53.1874 
G01 X-45.6952 Y53.3778 
G01 X-45.7612 Y53.5810 
G01 X-45.7946 Y53.7920 
G01 X-45.7946 Y54.0056 
G01 X-45.7612 Y54.2166 
G01 X-45.6952 Y54.4198 
G01 X-45.5982 Y54.6102 
G01 X-45.4726 Y54.7830 
G01 X-45.3215 Y54.9341 
G01 X-45.1487 Y55.0597 
G01 X-44.9583 Y55.1567 
G01 X-44.7551 Y55.2227 
G01 X-44.5441 Y55.2561 
G00 Z2.0000 
G00 X-14.4415 Y59.7841 
G01 Z-0.0250 F254.00 
G01 X-14.4415 Y57.2951 F508.00 
G01 X-13.6464 Y56.5000 
G01 X-9.8536 Y56.5000 
G01 X-8.5836 Y57.7700 
G01 X-8.5836 Y59.3785 
G01 X-8.5466 Y59.5647 
G01 X-8.4739 Y59.7400 
G01 X-8.3685 Y59.8979 
G01 X-8.2343 Y60.0321 
G01 X-8.0764 Y60.1375 
G01 X-7.9011 Y60.2102 
G01 X-7.7149 Y60.2472 
G01 X-7.5251 Y60.2472 
G01 X-7.3389 Y60.2102 
G01 X-7.1636 Y60.1375 
G01 X-7.0057 Y60.0321 
G01 X-6.8715 Y59.8979 
G01 X-6.7661 Y59.7400 
G01 X-6.6934 Y59.5647 
G01 X-6.6564 Y59.3785 
G01 X-6.6564 Y57.4615 
G01 X-6.6934 Y57.2753 
G01 X-6.7661 Y57.1000 
G01 X-6.8715 Y56.9421 
G01 X-7.0057 Y56.8079 
G01 X-7.1636 Y56.7025 
G01 X-7.3389 Y56.6298 
G01 X-7.5251 Y56.5928 
G01 X-7.7149 Y56.5928 
G01 X-7.9011 Y56.6298 
G01 X-8.0764 Y56.7025 
G01 X-8.2343 Y56.8079 
G01 X-8.3685 Y56.9421 
G01 X-8.4739 Y57.1000 
G01 X-8.4952 Y57.1513 
G01 X-9.5381 Y56.1084 
G01 X-9.6084 Y56.0381 
G01 X-9.7003 Y56.0000 
G01 X-13.7997 Y56.0000 
G01 X-13.8916 Y56.0381 
G01 X-14.5297 Y56.6762 
G01 X-14.5409 Y56.6417 
G01 X-14.6379 Y56.4513 
G01 X-14.7635 Y56.2785 
G01 X-14.9146 Y56.1274 
G01 X-15.0874 Y56.0018 
G01 X-15.2778 Y55.9048 
G01 X-15.4810 Y55.8388 
G01 X-15.6920 Y55.8054 
G01 X-15.9056 Y55.8054 
G01 X-16.1166 Y55.8388 
G01 X-16.3198 Y55.9048 
G01 X-16.5102 Y56.0018 
G01 X-16.6830 Y56.1274 
G01 X-16.8341 Y56.2785 
G01 X-16.9597 Y56.4513 
G01 X-17.0567 Y56.6417 
G01 X-17.1227 Y56.8449 
G01 X-17.1561 Y57.0559 
G01 X-17.1561 Y59.7841 
G01 X-17.1227 Y59.9951 
G01 X-17.0567 Y60.1983 
G01 X-16.9597 Y60.3887 
G01 X-16.8341 Y60.5615 
G01 X-16.6830 Y60.7126 
G01 X-16.5102 Y60.8382 
G01 X-16.3198 Y60.9352 
G01 X-16.1166 Y61.0012 
G01 X-15.9056 Y61.0346 
G01 X-15.6920 Y61.0346 
G01 X-15.4810 Y61.0012 
G01 X-15.2778 Y60.9352 
G01 X-15.0874 Y60.8382 
G01 X-14.9146 Y60.7126 
G01 X-14.7635 Y60.5615 
G01 X-14.6379 Y60.3887 
G01 X-14.5409 Y60.1983 
G01 X-14.4749 Y59.9951 
G01 X-14.4415 Y59.7841 
G00 Z2.0000 
G00 X-18.4039 Y59.7841 
G01 Z-0.0250 F254.00 
G01 X-18.4039 Y57.0559 F508.00 
G01 X-18.4373 Y56.8449 
G01 X-18.5033 Y56.6417 
G01 X-18.6003 Y56.4513 
G01 X-18.7259 Y56.2785 
G01 X-18.8770 Y56.1274 
G01 X-19.0498 Y56.0018 
G01 X-19.2402 Y55.9048 
G01 X-19.4434 Y55.8388 
G01 X-19.6544 Y55.8054 
G01 X-19.8680 Y55.8054 
G01 X-20.0790 Y55.8388 
G01 X-20.2822 Y55.9048 
G01 X-20.4726 Y56.0018 
G01 X-20.6454 Y56.1274 
G01 X-20.7965 Y56.2785 
G01 X-20.9221 Y56.4513 
G01 X-21.0191 Y56.6417 
G01 X-21.0851 Y56.8449 
G01 X-21.1185 Y57.0559 
G01 X-21.1185 Y59.7841 
G01 X-21.0851 Y59.9951 
G01 X-21.0191 Y60.1983 
G01 X-20.9221 Y60.3887 
G01 X-20.7965 Y60.5615 
G01 X-20.6454 Y60.7126 
G01 X-20.4726 Y60.8382 
G01 X-20.2822 Y60.9352 
G01 X-20.0790 Y61.0012 
G01 X-19.8680 Y61.0346 
G01 X-19.6544 Y61.0346 
G01 X-19.4434 Y61.0012 
G01 X-19.2402 Y60.9352 
G01 X-19.0498 Y60.8382 
G01 X-18.8770 Y60.7126 
G01 X-18.7259 Y60.5615 
G01 X-18.6003 Y60.3887 
G01 X-18.5033 Y60.1983 
G01 X-18.4373 Y59.9951 
G01 X-18.4039 Y59.7841 
G00 Z2.0000 
G00 X-10.4664 Y59.3785 
G01 Z-0.0250 F254.00 
G01 X-10.4664 Y57.4615 F508.00 
G01 X-10.5034 Y57.2753 
G01 X-10.5761 Y57.1000 
G01 X-10.6815 Y56.9421 
G01 X-10.8157 Y56.8079 
G01 X-10.9736 Y56.7025 
G01 X-11.1489 Y56.6298 
G01 X-11.3351 Y56.5928 
G01 X-11.5249 Y56.5928 
G01 X-11.7111 Y56.6298 
G01 X-11.8864 Y56.7025 
G01 X-12.0443 Y56.8079 
G01 X-12.1785 Y56.9421 
G01 X-12.2839 Y57.1000 
G01 X-12.3566 Y57.2753 
G01 X-12.3936 Y57.4615 
G01 X-12.3936 Y59.3785 
G01 X-12.3566 Y59.5647 
G01 X-12.2839 Y59.7400 
G01 X-12.1785 Y59.8979 
G01 X-12.0443 Y60.0321 
G01 X-11.8864 Y60.1375 
G01 X-11.7111 Y60.2102 
G01 X-11.5249 Y60.2472 
G01 X-11.3351 Y60.2472 
G01 X-11.1489 Y60.2102 
G01 X-10.9736 Y60.1375 
G01 X-10.8157 Y60.0321 
G01 X-10.6815 Y59.8979 
G01 X-10.5761 Y59.7400 
G01 X-10.5034 Y59.5647 
G01 X-10.4664 Y59.3785 
G00 Z2.0000 
G00 X-2.8464 Y59.3785 
G01 Z-0.0250 F254.00 
G01 X-2.8464 Y57.4615 F508.00 
G01 X-2.8834 Y57.2753 
G01 X-2.9561 Y57.1000 
G01 X-3.0615 Y56.9421 
G01 X-3.1957 Y56.8079 
G01 X-3.3536 Y56.7025 
G01 X-3.5289 Y56.6298 
G01 X-3.7151 Y56.5928 
G01 X-3.9049 Y56.5928 
G01 X-4.0911 Y56.6298 
G01 X-4.2664 Y56.7025 
G01 X-4.4243 Y56.8079 
G01 X-4.5585 Y56.9421 
G01 X-4.6639 Y57.1000 
G01 X-4.7366 Y57.2753 
G01 X-4.7736 Y57.4615 
G01 X-4.7736 Y59.3785 
G01 X-4.7366 Y59.5647 
G01 X-4.6639 Y59.7400 
G01 X-4.5585 Y59.8979 
G01 X-4.4243 Y60.0321 
G01 X-4.2664 Y60.1375 
G01 X-4.0911 Y60.2102 
G01 X-3.9049 Y60.2472 
G01 X-3.7151 Y60.2472 
G01 X-3.5289 Y60.2102 
G01 X-3.3536 Y60.1375 
G01 X-3.1957 Y60.0321 
G01 X-3.0615 Y59.8979 
G01 X-2.9561 Y59.7400 
G01 X-2.8834 Y59.5647 
G01 X-2.8464 Y59.3785 
G00 Z2.0000 
G00 X-14.4510 Y43.3776 
G01 Z-0.0250 F254.00 
G01 X-14.4510 Y43.5412 F508.00 
G01 X-14.4254 Y43.7029 
G01 X-14.3748 Y43.8585 
G01 X-14.3005 Y44.0044 
G01 X-14.2043 Y44.1368 
G01 X-14.0886 Y44.2525 
G01 X-13.9562 Y44.3487 
G01 X-13.8103 Y44.4230 
G01 X-13.6547 Y44.4736 
G01 X-13.4930 Y44.4992 
G01 X-13.3294 Y44.4992 
G01 X-13.1677 Y44.4736 
G01 X-13.0121 Y44.4230 
G01 X-12.8662 Y44.3487 
G01 X-12.7338 Y44.2525 
G01 X-12.6181 Y44.1368 
G01 X-12.5219 Y44.0044 
G01 X-12.4476 Y43.8585 
G01 X-12.3970 Y43.7029 
G01 X-12.3714 Y43.5412 
G01 X-12.3714 Y43.3776 
G01 X-12.3970 Y43.2159 
G01 X-12.4476 Y43.0603 
G01 X-12.5219 Y42.9144 
G01 X-12.6181 Y42.7820 
G01 X-12.7338 Y42.6663 
G01 X-12.8662 Y42.5701 
G01 X-13.0121 Y42.4958 
G01 X-13.1677 Y42.4452 
G01 X-13.3294 Y42.4196 
G01 X-13.4930 Y42.4196 
G01 X-13.6547 Y42.4452 
G01 X-13.8103 Y42.4958 
G01 X-13.9562 Y42.5701 
G01 X-14.0886 Y42.6663 
G01 X-14.2043 Y42.7820 
G01 X-14.3005 Y42.9144 
G01 X-14.3748 Y43.0603 
G01 X-14.4254 Y43.2159 
G01 X-14.4510 Y43.3776 
G00 Z2.0000 
G00 X-7.9486 Y43.3776 
G01 Z-0.0250 F254.00 
G01 X-7.9486 Y43.5412 F508.00 
G01 X-7.9230 Y43.7029 
G01 X-7.8724 Y43.8585 
G01 X-7.8183 Y43.9648 
G01 X-9.3536 Y45.5000 
G01 X-34.1955 Y45.5000 
G01 X-34.2112 Y45.4620 
G01 X-34.2777 Y45.3624 
G01 X-34.3624 Y45.2777 
G01 X-34.4620 Y45.2112 
G01 X-34.5727 Y45.1654 
G01 X-34.6901 Y45.1420 
G01 X-34.8099 Y45.1420 
G01 X-34.9273 Y45.1654 
G01 X-35.0380 Y45.2112 
G01 X-35.1376 Y45.2777 
G01 X-35.2223 Y45.3624 
G01 X-35.2888 Y45.4620 
G01 X-35.3346 Y45.5727 
G01 X-35.3580 Y45.6901 
G01 X-35.3580 Y45.8099 
G01 X-35.3346 Y45.9273 
G01 X-35.2888 Y46.0380 
G01 X-35.2223 Y46.1376 
G01 X-35.1376 Y46.2223 
G01 X-35.0380 Y46.2888 
G01 X-34.9273 Y46.3346 
G01 X-34.8099 Y46.3580 
G01 X-34.6901 Y46.3580 
G01 X-34.5727 Y46.3346 
G01 X-34.4620 Y46.2888 
G01 X-34.3624 Y46.2223 
G01 X-34.2777 Y46.1376 
G01 X-34.2112 Y46.0380 
G01 X-34.1955 Y46.0000 
G01 X-9.2003 Y46.0000 
G01 X-9.1084 Y45.9619 
G01 X-9.0381 Y45.8916 
G01 X-7.4777 Y44.3313 
G01 X-7.4538 Y44.3487 
G01 X-7.3079 Y44.4230 
G01 X-7.1523 Y44.4736 
G01 X-6.9906 Y44.4992 
G01 X-6.8270 Y44.4992 
G01 X-6.6653 Y44.4736 
G01 X-6.5097 Y44.4230 
G01 X-6.3638 Y44.3487 
G01 X-6.2314 Y44.2525 
G01 X-6.1157 Y44.1368 
G01 X-6.0195 Y44.0044 
G01 X-5.9452 Y43.8585 
G01 X-5.8946 Y43.7029 
G01 X-5.8690 Y43.5412 
G01 X-5.8690 Y43.3776 
G01 X-5.8946 Y43.2159 
G01 X-5.9452 Y43.0603 
G01 X-6.0195 Y42.9144 
G01 X-6.1157 Y42.7820 
G01 X-6.2314 Y42.6663 
G01 X-6.3638 Y42.5701 
G01 X-6.5097 Y42.4958 
G01 X-6.6653 Y42.4452 
G01 X-6.8270 Y42.4196 
G01 X-6.9906 Y42.4196 
G01 X-7.1523 Y42.4452 
G01 X-7.3079 Y42.4958 
G01 X-7.4538 Y42.5701 
G01 X-7.5862 Y42.6663 
G01 X-7.7019 Y42.7820 
G01 X-7.7981 Y42.9144 
G01 X-7.8724 Y43.0603 
G01 X-7.9230 Y43.2159 
G01 X-7.9486 Y43.3776 
G00 Z2.0000 
G00 X-14.4510 Y47.8988 
G01 Z-0.0250 F254.00 
G01 X-14.4510 Y48.0624 F508.00 
G01 X-14.4254 Y48.2241 
G01 X-14.3748 Y48.3797 
G01 X-14.3005 Y48.5256 
G01 X-14.2043 Y48.6580 
G01 X-14.0886 Y48.7737 
G01 X-13.9562 Y48.8699 
G01 X-13.8103 Y48.9442 
G01 X-13.6547 Y48.9948 
G01 X-13.4930 Y49.0204 
G01 X-13.3294 Y49.0204 
G01 X-13.1677 Y48.9948 
G01 X-13.0121 Y48.9442 
G01 X-12.8662 Y48.8699 
G01 X-12.7338 Y48.7737 
G01 X-12.6181 Y48.6580 
G01 X-12.5219 Y48.5256 
G01 X-12.4476 Y48.3797 
G01 X-12.3970 Y48.2241 
G01 X-12.3714 Y48.0624 
G01 X-12.3714 Y47.8988 
G01 X-12.3970 Y47.7371 
G01 X-12.4476 Y47.5815 
G01 X-12.5219 Y47.4356 
G01 X-12.6181 Y47.3032 
G01 X-12.7338 Y47.1875 
G01 X-12.8662 Y47.0913 
G01 X-13.0121 Y47.0170 
G01 X-13.1677 Y46.9664 
G01 X-13.3294 Y46.9408 
G01 X-13.4930 Y46.9408 
G01 X-13.6547 Y46.9664 
G01 X-13.8103 Y47.0170 
G01 X-13.9562 Y47.0913 
G01 X-14.0886 Y47.1875 
G01 X-14.2043 Y47.3032 
G01 X-14.3005 Y47.4356 
G01 X-14.3748 Y47.5815 
G01 X-14.4254 Y47.7371 
G01 X-14.4510 Y47.8988 
G00 Z2.0000 
G00 X-36.3585 Y3.7159 
G01 Z-0.0250 F254.00 
G01 X-36.3585 Y6.4441 F508.00 
G01 X-36.3251 Y6.6551 
G01 X-36.2591 Y6.8583 
G01 X-36.1621 Y7.0487 
G01 X-36.0365 Y7.2215 
G01 X-35.8854 Y7.3726 
G01 X-35.7126 Y7.4982 
G01 X-35.5222 Y7.5952 
G01 X-35.3190 Y7.6612 
G01 X-35.1080 Y7.6946 
G01 X-34.8944 Y7.6946 
G01 X-34.6834 Y7.6612 
G01 X-34.4802 Y7.5952 
G01 X-34.2898 Y7.4982 
G01 X-34.1170 Y7.3726 
G01 X-33.9659 Y7.2215 
G01 X-33.8403 Y7.0487 
G01 X-33.7433 Y6.8583 
G01 X-33.6773 Y6.6551 
G01 X-33.6439 Y6.4441 
G01 X-33.6439 Y3.7159 
G01 X-33.6773 Y3.5049 
G01 X-33.7433 Y3.3017 
G01 X-33.8403 Y3.1113 
G01 X-33.9659 Y2.9385 
G01 X-34.1170 Y2.7874 
G01 X-34.2898 Y2.6618 
G01 X-34.4802 Y2.5648 
G01 X-34.6834 Y2.4988 
G01 X-34.8944 Y2.4654 
G01 X-35.1080 Y2.4654 
G01 X-35.3190 Y2.4988 
G01 X-35.5222 Y2.5648 
G01 X-35.7126 Y2.6618 
G01 X-35.8854 Y2.7874 
G01 X-36.0365 Y2.9385 
G01 X-36.1621 Y3.1113 
G01 X-36.2591 Y3.3017 
G01 X-36.3251 Y3.5049 
G01 X-36.3585 Y3.7159 
G00 Z2.0000 
G00 X-40.2828 Y40.5501 
G01 Z-0.0250 F254.00 
G01 X-40.2828 Y40.7299 F508.00 
G01 X-40.2477 Y40.9063 
G01 X-40.1789 Y41.0724 
G01 X-40.0790 Y41.2219 
G01 X-39.9519 Y41.3490 
G01 X-39.8024 Y41.4489 
G01 X-39.6363 Y41.5177 
G01 X-39.4599 Y41.5528 
G01 X-39.2801 Y41.5528 
G01 X-39.1037 Y41.5177 
G01 X-38.9376 Y41.4489 
G01 X-38.7881 Y41.3490 
G01 X-38.6610 Y41.2219 
G01 X-38.5611 Y41.0724 
G01 X-38.4923 Y40.9063 
G01 X-38.4572 Y40.7299 
G01 X-38.4572 Y40.5501 
G01 X-38.4923 Y40.3737 
G01 X-38.5611 Y40.2076 
G01 X-38.6610 Y40.0581 
G01 X-38.7881 Y39.9310 
G01 X-38.9376 Y39.8311 
G01 X-39.1037 Y39.7623 
G01 X-39.2801 Y39.7272 
G01 X-39.4599 Y39.7272 
G01 X-39.6363 Y39.7623 
G01 X-39.8024 Y39.8311 
G01 X-39.9519 Y39.9310 
G01 X-40.0790 Y40.0581 
G01 X-40.1789 Y40.2076 
G01 X-40.2477 Y40.3737 
G01 X-40.2828 Y40.5501 
G00 Z2.0000 
G00 X-40.2828 Y38.0101 
G01 Z-0.0250 F254.00 
G01 X-40.2828 Y38.1899 F508.00 
G01 X-40.2477 Y38.3663 
G01 X-40.1789 Y38.5324 
G01 X-40.0790 Y38.6819 
G01 X-39.9519 Y38.8090 
G01 X-39.8024 Y38.9089 
G01 X-39.6363 Y38.9777 
G01 X-39.4599 Y39.0128 
G01 X-39.2801 Y39.0128 
G01 X-39.1037 Y38.9777 
G01 X-38.9376 Y38.9089 
G01 X-38.7881 Y38.8090 
G01 X-38.6610 Y38.6819 
G01 X-38.5611 Y38.5324 
G01 X-38.4923 Y38.3663 
G01 X-38.4572 Y38.1899 
G01 X-38.4572 Y38.0101 
G01 X-38.4923 Y37.8337 
G01 X-38.5611 Y37.6676 
G01 X-38.6610 Y37.5181 
G01 X-38.7881 Y37.3910 
G01 X-38.9376 Y37.2911 
G01 X-39.1037 Y37.2223 
G01 X-39.2801 Y37.1872 
G01 X-39.4599 Y37.1872 
G01 X-39.6363 Y37.2223 
G01 X-39.8024 Y37.2911 
G01 X-39.9519 Y37.3910 
G01 X-40.0790 Y37.5181 
G01 X-40.1789 Y37.6676 
G01 X-40.2477 Y37.8337 
G01 X-40.2828 Y38.0101 
G00 Z2.0000 
G00 X-27.5828 Y49.4401 
G01 Z-0.0250 F254.00 
G01 X-27.5828 Y49.6199 F508.00 
G01 X-27.5477 Y49.7963 
G01 X-27.4789 Y49.9624 
G01 X-27.3790 Y50.1119 
G01 X-27.2519 Y50.2390 
G01 X-27.1024 Y50.3389 
G01 X-26.9363 Y50.4077 
G01 X-26.7599 Y50.4428 
G01 X-26.5801 Y50.4428 
G01 X-26.4037 Y50.4077 
G01 X-26.2376 Y50.3389 
G01 X-26.0881 Y50.2390 
G01 X-25.9610 Y50.1119 
G01 X-25.8611 Y49.9624 
G01 X-25.7923 Y49.7963 
G01 X-25.7572 Y49.6199 
G01 X-25.7572 Y49.4401 
G01 X-25.7923 Y49.2637 
G01 X-25.8611 Y49.0976 
G01 X-25.9610 Y48.9481 
G01 X-26.0881 Y48.8210 
G01 X-26.2376 Y48.7211 
G01 X-26.4037 Y48.6523 
G01 X-26.5801 Y48.6172 
G01 X-26.7599 Y48.6172 
G01 X-26.9363 Y48.6523 
G01 X-27.1024 Y48.7211 
G01 X-27.2519 Y48.8210 
G01 X-27.3790 Y48.9481 
G01 X-27.4789 Y49.0976 
G01 X-27.5477 Y49.2637 
G01 X-27.5828 Y49.4401 
G00 Z2.0000 
G00 X-27.5828 Y46.9001 
G01 Z-0.0250 F254.00 
G01 X-27.5828 Y47.0799 F508.00 
G01 X-27.5477 Y47.2563 
G01 X-27.4789 Y47.4224 
G01 X-27.3790 Y47.5719 
G01 X-27.2519 Y47.6990 
G01 X-27.1024 Y47.7989 
G01 X-26.9363 Y47.8677 
G01 X-26.7599 Y47.9028 
G01 X-26.5801 Y47.9028 
G01 X-26.4037 Y47.8677 
G01 X-26.2376 Y47.7989 
G01 X-26.0881 Y47.6990 
G01 X-25.9610 Y47.5719 
G01 X-25.8611 Y47.4224 
G01 X-25.7923 Y47.2563 
G01 X-25.7572 Y47.0799 
G01 X-25.7572 Y46.9001 
G01 X-25.7923 Y46.7237 
G01 X-25.8611 Y46.5576 
G01 X-25.9610 Y46.4081 
G01 X-26.0881 Y46.2810 
G01 X-26.2376 Y46.1811 
G01 X-26.4037 Y46.1123 
G01 X-26.5801 Y46.0772 
G01 X-26.7599 Y46.0772 
G01 X-26.9363 Y46.1123 
G01 X-27.1024 Y46.1811 
G01 X-27.2519 Y46.2810 
G01 X-27.3790 Y46.4081 
G01 X-27.4789 Y46.5576 
G01 X-27.5477 Y46.7237 
G01 X-27.5828 Y46.9001 
G00 Z2.0000 
G00 X-27.4789 Y44.8824 
G01 Z-0.0250 F254.00 
G01 X-27.3790 Y45.0319 F508.00 
G01 X-27.2519 Y45.1590 
G01 X-27.1024 Y45.2589 
G01 X-26.9363 Y45.3277 
G01 X-26.7599 Y45.3628 
G01 X-26.5801 Y45.3628 
G01 X-26.4037 Y45.3277 
G01 X-26.2376 Y45.2589 
G01 X-26.0881 Y45.1590 
G01 X-25.9610 Y45.0319 
G01 X-25.8611 Y44.8824 
G01 X-25.7923 Y44.7163 
G01 X-25.7572 Y44.5399 
G01 X-25.7572 Y44.3601 
G01 X-25.7923 Y44.1837 
G01 X-25.8611 Y44.0176 
G01 X-25.9610 Y43.8681 
G01 X-26.0881 Y43.7410 
G01 X-26.2376 Y43.6411 
G01 X-26.4037 Y43.5723 
G01 X-26.5801 Y43.5372 
G01 X-26.7599 Y43.5372 
G01 X-26.9363 Y43.5723 
G01 X-27.1024 Y43.6411 
G01 X-27.2519 Y43.7410 
G01 X-27.3790 Y43.8681 
G01 X-27.4789 Y44.0176 
G01 X-27.5477 Y44.1837 
G01 X-27.5609 Y44.2500 
G01 X-41.0191 Y44.2500 
G01 X-41.0323 Y44.1837 
G01 X-41.1011 Y44.0176 
G01 X-41.2010 Y43.8681 
G01 X-41.3281 Y43.7410 
G01 X-41.4776 Y43.6411 
G01 X-41.6437 Y43.5723 
G01 X-41.8201 Y43.5372 
G01 X-41.9999 Y43.5372 
G01 X-42.1763 Y43.5723 
G01 X-42.3424 Y43.6411 
G01 X-42.4919 Y43.7410 
G01 X-42.6190 Y43.8681 
G01 X-42.7189 Y44.0176 
G01 X-42.7877 Y44.1837 
G01 X-42.8228 Y44.3601 
G01 X-42.8228 Y44.5399 
G01 X-42.7877 Y44.7163 
G01 X-42.7189 Y44.8824 
G01 X-42.6190 Y45.0319 
G01 X-42.4919 Y45.1590 
G01 X-42.3424 Y45.2589 
G01 X-42.1763 Y45.3277 
G01 X-41.9999 Y45.3628 
G01 X-41.8201 Y45.3628 
G01 X-41.6437 Y45.3277 
G01 X-41.4776 Y45.2589 
G01 X-41.3281 Y45.1590 
G01 X-41.2010 Y45.0319 
G01 X-41.1011 Y44.8824 
G01 X-41.0463 Y44.7500 
G01 X-27.5337 Y44.7500 
G01 X-27.4789 Y44.8824 
G00 Z2.0000 
G00 X-27.5828 Y41.8201 
G01 Z-0.0250 F254.00 
G01 X-27.5828 Y41.9999 F508.00 
G01 X-27.5477 Y42.1763 
G01 X-27.4789 Y42.3424 
G01 X-27.3790 Y42.4919 
G01 X-27.2519 Y42.6190 
G01 X-27.1024 Y42.7189 
G01 X-26.9363 Y42.7877 
G01 X-26.7599 Y42.8228 
G01 X-26.5801 Y42.8228 
G01 X-26.4037 Y42.7877 
G01 X-26.2376 Y42.7189 
G01 X-26.0881 Y42.6190 
G01 X-25.9610 Y42.4919 
G01 X-25.8611 Y42.3424 
G01 X-25.7923 Y42.1763 
G01 X-25.7572 Y41.9999 
G01 X-25.7572 Y41.8201 
G01 X-25.7923 Y41.6437 
G01 X-25.8611 Y41.4776 
G01 X-25.9610 Y41.3281 
G01 X-26.0881 Y41.2010 
G01 X-26.2376 Y41.1011 
G01 X-26.4037 Y41.0323 
G01 X-26.5801 Y40.9972 
G01 X-26.7599 Y40.9972 
G01 X-26.9363 Y41.0323 
G01 X-27.1024 Y41.1011 
G01 X-27.2519 Y41.2010 
G01 X-27.3790 Y41.3281 
G01 X-27.4789 Y41.4776 
G01 X-27.5477 Y41.6437 
G01 X-27.5828 Y41.8201 
G00 Z2.0000 
G00 X-27.5828 Y36.7401 
G01 Z-0.0250 F254.00 
G01 X-27.5828 Y36.9199 F508.00 
G01 X-27.5477 Y37.0963 
G01 X-27.4789 Y37.2624 
G01 X-27.3790 Y37.4119 
G01 X-27.2519 Y37.5390 
G01 X-27.1024 Y37.6389 
G01 X-26.9363 Y37.7077 
G01 X-26.7599 Y37.7428 
G01 X-26.5801 Y37.7428 
G01 X-26.4037 Y37.7077 
G01 X-26.2376 Y37.6389 
G01 X-26.0881 Y37.5390 
G01 X-25.9610 Y37.4119 
G01 X-25.8611 Y37.2624 
G01 X-25.7923 Y37.0963 
G01 X-25.7572 Y36.9199 
G01 X-25.7572 Y36.7401 
G01 X-25.7923 Y36.5637 
G01 X-25.8611 Y36.3976 
G01 X-25.9610 Y36.2481 
G01 X-26.0881 Y36.1210 
G01 X-26.2376 Y36.0211 
G01 X-26.4037 Y35.9523 
G01 X-26.5801 Y35.9172 
G01 X-26.7599 Y35.9172 
G01 X-26.9363 Y35.9523 
G01 X-27.1024 Y36.0211 
G01 X-27.2519 Y36.1210 
G01 X-27.3790 Y36.2481 
G01 X-27.4789 Y36.3976 
G01 X-27.5477 Y36.5637 
G01 X-27.5828 Y36.7401 
G00 Z2.0000 
G00 X-27.5828 Y34.2001 
G01 Z-0.0250 F254.00 
G01 X-27.5828 Y34.3799 F508.00 
G01 X-27.5477 Y34.5563 
G01 X-27.4789 Y34.7224 
G01 X-27.3790 Y34.8719 
G01 X-27.2519 Y34.9990 
G01 X-27.1024 Y35.0989 
G01 X-26.9363 Y35.1677 
G01 X-26.7599 Y35.2028 
G01 X-26.5801 Y35.2028 
G01 X-26.4037 Y35.1677 
G01 X-26.2376 Y35.0989 
G01 X-26.0881 Y34.9990 
G01 X-25.9610 Y34.8719 
G01 X-25.8611 Y34.7224 
G01 X-25.7923 Y34.5563 
G01 X-25.7572 Y34.3799 
G01 X-25.7572 Y34.2001 
G01 X-25.7923 Y34.0237 
G01 X-25.8611 Y33.8576 
G01 X-25.9610 Y33.7081 
G01 X-26.0881 Y33.5810 
G01 X-26.2376 Y33.4811 
G01 X-26.4037 Y33.4123 
G01 X-26.5801 Y33.3772 
G01 X-26.7599 Y33.3772 
G01 X-26.9363 Y33.4123 
G01 X-27.1024 Y33.4811 
G01 X-27.2519 Y33.5810 
G01 X-27.3790 Y33.7081 
G01 X-27.4789 Y33.8576 
G01 X-27.5477 Y34.0237 
G01 X-27.5828 Y34.2001 
G00 Z2.0000 
G00 X-42.8228 Y21.5001 
G01 Z-0.0250 F254.00 
G01 X-42.8228 Y21.6799 F508.00 
G01 X-42.7877 Y21.8563 
G01 X-42.7189 Y22.0224 
G01 X-42.6190 Y22.1719 
G01 X-42.4919 Y22.2990 
G01 X-42.3424 Y22.3989 
G01 X-42.1763 Y22.4677 
G01 X-41.9999 Y22.5028 
G01 X-41.8201 Y22.5028 
G01 X-41.6437 Y22.4677 
G01 X-41.4776 Y22.3989 
G01 X-41.3281 Y22.2990 
G01 X-41.2010 Y22.1719 
G01 X-41.1011 Y22.0224 
G01 X-41.0323 Y21.8563 
G01 X-40.9972 Y21.6799 
G01 X-40.9972 Y21.5001 
G01 X-41.0323 Y21.3237 
G01 X-41.1011 Y21.1576 
G01 X-41.2010 Y21.0081 
G01 X-41.3281 Y20.8810 
G01 X-41.4776 Y20.7811 
G01 X-41.6437 Y20.7123 
G01 X-41.8201 Y20.6772 
G01 X-41.9999 Y20.6772 
G01 X-42.1763 Y20.7123 
G01 X-42.3424 Y20.7811 
G01 X-42.4919 Y20.8810 
G01 X-42.6190 Y21.0081 
G01 X-42.7189 Y21.1576 
G01 X-42.7877 Y21.3237 
G01 X-42.8228 Y21.5001 
G00 Z2.0000 
G00 X-42.8228 Y26.5801 
G01 Z-0.0250 F254.00 
G01 X-42.8228 Y26.7599 F508.00 
G01 X-42.7877 Y26.9363 
G01 X-42.7189 Y27.1024 
G01 X-42.6190 Y27.2519 
G01 X-42.4919 Y27.3790 
G01 X-42.3424 Y27.4789 
G01 X-42.1763 Y27.5477 
G01 X-41.9999 Y27.5828 
G01 X-41.8201 Y27.5828 
G01 X-41.6437 Y27.5477 
G01 X-41.4776 Y27.4789 
G01 X-41.3281 Y27.3790 
G01 X-41.2010 Y27.2519 
G01 X-41.1011 Y27.1024 
G01 X-41.0323 Y26.9363 
G01 X-40.9972 Y26.7599 
G01 X-40.9972 Y26.5801 
G01 X-41.0323 Y26.4037 
G01 X-41.1011 Y26.2376 
G01 X-41.2010 Y26.0881 
G01 X-41.3281 Y25.9610 
G01 X-41.4776 Y25.8611 
G01 X-41.6437 Y25.7923 
G01 X-41.8201 Y25.7572 
G01 X-41.9999 Y25.7572 
G01 X-42.1763 Y25.7923 
G01 X-42.3424 Y25.8611 
G01 X-42.4919 Y25.9610 
G01 X-42.6190 Y26.0881 
G01 X-42.7189 Y26.2376 
G01 X-42.7877 Y26.4037 
G01 X-42.8228 Y26.5801 
G00 Z2.0000 
G00 X-42.8228 Y31.6601 
G01 Z-0.0250 F254.00 
G01 X-42.8228 Y31.8399 F508.00 
G01 X-42.7877 Y32.0163 
G01 X-42.7189 Y32.1824 
G01 X-42.6190 Y32.3319 
G01 X-42.4919 Y32.4590 
G01 X-42.3424 Y32.5589 
G01 X-42.1763 Y32.6277 
G01 X-41.9999 Y32.6628 
G01 X-41.8201 Y32.6628 
G01 X-41.6437 Y32.6277 
G01 X-41.4776 Y32.5589 
G01 X-41.3281 Y32.4590 
G01 X-41.2010 Y32.3319 
G01 X-41.1011 Y32.1824 
G01 X-41.0323 Y32.0163 
G01 X-40.9972 Y31.8399 
G01 X-40.9972 Y31.6601 
G01 X-41.0323 Y31.4837 
G01 X-41.1011 Y31.3176 
G01 X-41.2010 Y31.1681 
G01 X-41.3281 Y31.0410 
G01 X-41.4776 Y30.9411 
G01 X-41.6437 Y30.8723 
G01 X-41.8201 Y30.8372 
G01 X-41.9999 Y30.8372 
G01 X-42.1763 Y30.8723 
G01 X-42.3424 Y30.9411 
G01 X-42.4101 Y30.9863 
G01 X-43.0000 Y30.3964 
G01 X-43.0000 Y18.6036 
G01 X-42.6084 Y18.2119 
G01 X-42.5381 Y18.1416 
G01 X-42.5000 Y18.0497 
G01 X-42.5000 Y13.4503 
G01 X-42.5381 Y13.3584 
G01 X-42.6084 Y13.2881 
G01 X-42.7003 Y13.2500 
G01 X-43.1054 Y13.2500 
G01 X-43.1054 Y13.1520 
G01 X-43.1388 Y12.9410 
G01 X-43.2048 Y12.7378 
G01 X-43.3018 Y12.5474 
G01 X-43.4274 Y12.3746 
G01 X-43.5785 Y12.2235 
G01 X-43.7513 Y12.0979 
G01 X-43.9417 Y12.0009 
G01 X-44.1449 Y11.9349 
G01 X-44.3559 Y11.9015 
G01 X-47.0841 Y11.9015 
G01 X-47.2951 Y11.9349 
G01 X-47.4983 Y12.0009 
G01 X-47.6887 Y12.0979 
G01 X-47.8615 Y12.2235 
G01 X-48.0126 Y12.3746 
G01 X-48.1382 Y12.5474 
G01 X-48.2352 Y12.7378 
G01 X-48.3012 Y12.9410 
G01 X-48.3346 Y13.1520 
G01 X-48.3346 Y13.3656 
G01 X-48.3012 Y13.5766 
G01 X-48.2352 Y13.7798 
G01 X-48.1382 Y13.9702 
G01 X-48.0126 Y14.1430 
G01 X-47.8615 Y14.2941 
G01 X-47.6887 Y14.4197 
G01 X-47.4983 Y14.5167 
G01 X-47.2951 Y14.5827 
G01 X-47.0841 Y14.6161 
G01 X-44.3559 Y14.6161 
G01 X-44.1449 Y14.5827 
G01 X-43.9417 Y14.5167 
G01 X-43.7513 Y14.4197 
G01 X-43.5785 Y14.2941 
G01 X-43.4274 Y14.1430 
G01 X-43.3018 Y13.9702 
G01 X-43.2048 Y13.7798 
G01 X-43.1952 Y13.7500 
G01 X-43.0000 Y13.7500 
G01 X-43.0000 Y17.8964 
G01 X-43.4619 Y18.3584 
G01 X-43.5000 Y18.4503 
G01 X-43.5000 Y30.5497 
G01 X-43.4619 Y30.6416 
G01 X-43.3916 Y30.7119 
G01 X-42.7385 Y31.3650 
G01 X-42.7877 Y31.4837 
G01 X-42.8228 Y31.6601 
G00 Z2.0000 
G00 X-42.8228 Y36.7401 
G01 Z-0.0250 F254.00 
G01 X-42.8228 Y36.9199 F508.00 
G01 X-42.7877 Y37.0963 
G01 X-42.7189 Y37.2624 
G01 X-42.6190 Y37.4119 
G01 X-42.4919 Y37.5390 
G01 X-42.3424 Y37.6389 
G01 X-42.1763 Y37.7077 
G01 X-41.9999 Y37.7428 
G01 X-41.8201 Y37.7428 
G01 X-41.6437 Y37.7077 
G01 X-41.4776 Y37.6389 
G01 X-41.3281 Y37.5390 
G01 X-41.2010 Y37.4119 
G01 X-41.1011 Y37.2624 
G01 X-41.0323 Y37.0963 
G01 X-40.9972 Y36.9199 
G01 X-40.9972 Y36.7401 
G01 X-41.0323 Y36.5637 
G01 X-41.0844 Y36.4379 
G01 X-37.8964 Y33.2500 
G01 X-15.8045 Y33.2500 
G01 X-15.7888 Y33.2880 
G01 X-15.7223 Y33.3876 
G01 X-15.6376 Y33.4723 
G01 X-15.5380 Y33.5388 
G01 X-15.4273 Y33.5846 
G01 X-15.3099 Y33.6080 
G01 X-15.1901 Y33.6080 
G01 X-15.0727 Y33.5846 
G01 X-14.9620 Y33.5388 
G01 X-14.8624 Y33.4723 
G01 X-14.7777 Y33.3876 
G01 X-14.7112 Y33.2880 
G01 X-14.6654 Y33.1773 
G01 X-14.6420 Y33.0599 
G01 X-14.6420 Y32.9401 
G01 X-14.6654 Y32.8227 
G01 X-14.7112 Y32.7120 
G01 X-14.7777 Y32.6124 
G01 X-14.8624 Y32.5277 
G01 X-14.9620 Y32.4612 
G01 X-15.0727 Y32.4154 
G01 X-15.1901 Y32.3920 
G01 X-15.3099 Y32.3920 
G01 X-15.4273 Y32.4154 
G01 X-15.5380 Y32.4612 
G01 X-15.6376 Y32.5277 
G01 X-15.7223 Y32.6124 
G01 X-15.7888 Y32.7120 
G01 X-15.8045 Y32.7500 
G01 X-38.0497 Y32.7500 
G01 X-38.1416 Y32.7881 
G01 X-41.4159 Y36.0623 
G01 X-41.4776 Y36.0211 
G01 X-41.6437 Y35.9523 
G01 X-41.8201 Y35.9172 
G01 X-41.9999 Y35.9172 
G01 X-42.1763 Y35.9523 
G01 X-42.3424 Y36.0211 
G01 X-42.4919 Y36.1210 
G01 X-42.6190 Y36.2481 
G01 X-42.7189 Y36.3976 
G01 X-42.7877 Y36.5637 
G01 X-42.8228 Y36.7401 
G00 Z2.0000 
G00 X-42.8228 Y39.2801 
G01 Z-0.0250 F254.00 
G01 X-42.8228 Y39.4599 F508.00 
G01 X-42.7877 Y39.6363 
G01 X-42.7189 Y39.8024 
G01 X-42.6190 Y39.9519 
G01 X-42.4919 Y40.0790 
G01 X-42.3424 Y40.1789 
G01 X-42.1763 Y40.2477 
G01 X-41.9999 Y40.2828 
G01 X-41.8201 Y40.2828 
G01 X-41.6437 Y40.2477 
G01 X-41.4776 Y40.1789 
G01 X-41.3281 Y40.0790 
G01 X-41.2010 Y39.9519 
G01 X-41.1011 Y39.8024 
G01 X-41.0323 Y39.6363 
G01 X-40.9972 Y39.4599 
G01 X-40.9972 Y39.2801 
G01 X-41.0323 Y39.1037 
G01 X-41.1011 Y38.9376 
G01 X-41.2010 Y38.7881 
G01 X-41.3281 Y38.6610 
G01 X-41.4776 Y38.5611 
G01 X-41.6437 Y38.4923 
G01 X-41.8201 Y38.4572 
G01 X-41.9999 Y38.4572 
G01 X-42.1763 Y38.4923 
G01 X-42.3424 Y38.5611 
G01 X-42.4919 Y38.6610 
G01 X-42.6190 Y38.7881 
G01 X-42.7189 Y38.9376 
G01 X-42.7877 Y39.1037 
G01 X-42.8228 Y39.2801 
G00 Z2.0000 
G00 X-42.8228 Y41.8201 
G01 Z-0.0250 F254.00 
G01 X-42.8228 Y41.9999 F508.00 
G01 X-42.7877 Y42.1763 
G01 X-42.7189 Y42.3424 
G01 X-42.6190 Y42.4919 
G01 X-42.4919 Y42.6190 
G01 X-42.3424 Y42.7189 
G01 X-42.1763 Y42.7877 
G01 X-41.9999 Y42.8228 
G01 X-41.8201 Y42.8228 
G01 X-41.6437 Y42.7877 
G01 X-41.4776 Y42.7189 
G01 X-41.3281 Y42.6190 
G01 X-41.2010 Y42.4919 
G01 X-41.1011 Y42.3424 
G01 X-41.0323 Y42.1763 
G01 X-40.9972 Y41.9999 
G01 X-40.9972 Y41.8201 
G01 X-41.0323 Y41.6437 
G01 X-41.1011 Y41.4776 
G01 X-41.2010 Y41.3281 
G01 X-41.3281 Y41.2010 
G01 X-41.4776 Y41.1011 
G01 X-41.6437 Y41.0323 
G01 X-41.8201 Y40.9972 
G01 X-41.9999 Y40.9972 
G01 X-42.1763 Y41.0323 
G01 X-42.3424 Y41.1011 
G01 X-42.4919 Y41.2010 
G01 X-42.6190 Y41.3281 
G01 X-42.7189 Y41.4776 
G01 X-42.7877 Y41.6437 
G01 X-42.8228 Y41.8201 
G00 Z2.0000 
G00 X-42.8228 Y46.9001 
G01 Z-0.0250 F254.00 
G01 X-42.8228 Y47.0799 F508.00 
G01 X-42.7877 Y47.2563 
G01 X-42.7189 Y47.4224 
G01 X-42.6190 Y47.5719 
G01 X-42.4919 Y47.6990 
G01 X-42.3424 Y47.7989 
G01 X-42.1763 Y47.8677 
G01 X-41.9999 Y47.9028 
G01 X-41.8201 Y47.9028 
G01 X-41.6437 Y47.8677 
G01 X-41.4776 Y47.7989 
G01 X-41.3281 Y47.6990 
G01 X-41.2010 Y47.5719 
G01 X-41.1011 Y47.4224 
G01 X-41.0323 Y47.2563 
G01 X-40.9972 Y47.0799 
G01 X-40.9972 Y46.9001 
G01 X-41.0323 Y46.7237 
G01 X-41.1011 Y46.5576 
G01 X-41.2010 Y46.4081 
G01 X-41.3281 Y46.2810 
G01 X-41.4776 Y46.1811 
G01 X-41.6437 Y46.1123 
G01 X-41.8201 Y46.0772 
G01 X-41.9999 Y46.0772 
G01 X-42.1763 Y46.1123 
G01 X-42.2526 Y46.1439 
G01 X-43.6811 Y44.7153 
G01 X-43.6654 Y44.6773 
G01 X-43.6420 Y44.5599 
G01 X-43.6420 Y44.4401 
G01 X-43.6654 Y44.3227 
G01 X-43.7112 Y44.2120 
G01 X-43.7777 Y44.1124 
G01 X-43.8624 Y44.0277 
G01 X-43.9620 Y43.9612 
G01 X-44.0727 Y43.9154 
G01 X-44.1901 Y43.8920 
G01 X-44.3099 Y43.8920 
G01 X-44.4273 Y43.9154 
G01 X-44.5380 Y43.9612 
G01 X-44.6376 Y44.0277 
G01 X-44.7223 Y44.1124 
G01 X-44.7888 Y44.2120 
G01 X-44.8346 Y44.3227 
G01 X-44.8580 Y44.4401 
G01 X-44.8580 Y44.5599 
G01 X-44.8346 Y44.6773 
G01 X-44.7888 Y44.7880 
G01 X-44.7223 Y44.8876 
G01 X-44.6376 Y44.9723 
G01 X-44.5380 Y45.0388 
G01 X-44.4273 Y45.0846 
G01 X-44.3099 Y45.1080 
G01 X-44.1901 Y45.1080 
G01 X-44.0727 Y45.0846 
G01 X-44.0347 Y45.0689 
G01 X-42.6496 Y46.4539 
G01 X-42.7189 Y46.5576 
G01 X-42.7877 Y46.7237 
G01 X-42.8228 Y46.9001 
G00 Z2.0000 
G00 X-42.8228 Y49.4401 
G01 Z-0.0250 F254.00 
G01 X-42.8228 Y49.6199 F508.00 
G01 X-42.7877 Y49.7963 
G01 X-42.7189 Y49.9624 
G01 X-42.6190 Y50.1119 
G01 X-42.4919 Y50.2390 
G01 X-42.3424 Y50.3389 
G01 X-42.1763 Y50.4077 
G01 X-41.9999 Y50.4428 
G01 X-41.8201 Y50.4428 
G01 X-41.6437 Y50.4077 
G01 X-41.4776 Y50.3389 
G01 X-41.3281 Y50.2390 
G01 X-41.2010 Y50.1119 
G01 X-41.1011 Y49.9624 
G01 X-41.0323 Y49.7963 
G01 X-40.9972 Y49.6199 
G01 X-40.9972 Y49.4401 
G01 X-41.0323 Y49.2637 
G01 X-41.1011 Y49.0976 
G01 X-41.2010 Y48.9481 
G01 X-41.3281 Y48.8210 
G01 X-41.4776 Y48.7211 
G01 X-41.6437 Y48.6523 
G01 X-41.8201 Y48.6172 
G01 X-41.9999 Y48.6172 
G01 X-42.1763 Y48.6523 
G01 X-42.3424 Y48.7211 
G01 X-42.4919 Y48.8210 
G01 X-42.6190 Y48.9481 
G01 X-42.7189 Y49.0976 
G01 X-42.7877 Y49.2637 
G01 X-42.8228 Y49.4401 
G00 Z2.0000 
G00 X-6.1852 Y53.2805 
G01 Z-0.0250 F254.00 
G01 X-6.1852 Y52.0579 F508.00 
G01 X-5.2959 Y52.6508 
G01 X-5.2172 Y52.6663 
G01 X-5.1386 Y52.6506 
G01 X-5.0719 Y52.6060 
G01 X-5.0274 Y52.5393 
G01 X-5.0119 Y52.4606 
G01 X-5.0276 Y52.3819 
G01 X-5.0722 Y52.3153 
G01 X-6.0234 Y51.6812 
G01 X-5.0722 Y51.0471 
G01 X-5.0276 Y50.9805 
G01 X-5.0119 Y50.9018 
G01 X-5.0274 Y50.8231 
G01 X-5.0719 Y50.7564 
G01 X-5.1386 Y50.7118 
G01 X-5.2172 Y50.6960 
G01 X-5.2959 Y50.7116 
G01 X-6.1852 Y51.3045 
G01 X-6.1852 Y50.8615 
G01 X-6.2159 Y50.7874 
G01 X-6.2726 Y50.7307 
G01 X-6.3467 Y50.7000 
G01 X-6.4269 Y50.7000 
G01 X-6.5010 Y50.7307 
G01 X-6.5577 Y50.7874 
G01 X-6.5884 Y50.8615 
G01 X-6.5884 Y51.6612 
G01 X-6.5924 Y51.6810 
G01 X-6.5884 Y51.7012 
G01 X-6.5884 Y53.2805 
G01 X-6.5577 Y53.3546 
G01 X-6.5010 Y53.4113 
G01 X-6.4269 Y53.4420 
G01 X-6.3467 Y53.4420 
G01 X-6.2726 Y53.4113 
G01 X-6.2159 Y53.3546 
G01 X-6.1852 Y53.2805 
G00 Z2.0000 
G00 X-7.7578 Y53.2003 
G01 Z-0.0250 F254.00 
G01 X-7.7578 Y53.6703 F508.00 
G01 X-7.7271 Y53.7444 
G01 X-7.6704 Y53.8011 
G01 X-7.5963 Y53.8318 
G01 X-7.5161 Y53.8318 
G01 X-7.4420 Y53.8011 
G01 X-7.3853 Y53.7444 
G01 X-7.3546 Y53.6703 
G01 X-7.3546 Y53.2003 
G01 X-7.3853 Y53.1262 
G01 X-7.4420 Y53.0695 
G01 X-7.5161 Y53.0388 
G01 X-7.5963 Y53.0388 
G01 X-7.6704 Y53.0695 
G01 X-7.7271 Y53.1262 
G01 X-7.7578 Y53.2003 
G00 Z2.0000 
G00 X-7.9861 Y52.2592 
G01 Z-0.0250 F254.00 
G01 X-8.0602 Y52.2899 F508.00 
G01 X-8.1169 Y52.3466 
G01 X-8.1476 Y52.4207 
G01 X-8.1476 Y52.5009 
G01 X-8.1169 Y52.5750 
G01 X-8.0602 Y52.6317 
G01 X-7.9861 Y52.6624 
G01 X-7.5161 Y52.6624 
G01 X-7.4420 Y52.6317 
G01 X-7.3853 Y52.5750 
G01 X-7.3546 Y52.5009 
G01 X-7.3546 Y51.1032 
G01 X-7.1263 Y51.1032 
G01 X-7.0522 Y51.0725 
G01 X-6.9955 Y51.0158 
G01 X-6.9648 Y50.9417 
G01 X-6.9648 Y50.8615 
G01 X-6.9955 Y50.7874 
G01 X-7.0522 Y50.7307 
G01 X-7.1263 Y50.7000 
G01 X-7.9861 Y50.7000 
G01 X-8.0602 Y50.7307 
G01 X-8.1169 Y50.7874 
G01 X-8.1476 Y50.8615 
G01 X-8.1476 Y50.9417 
G01 X-8.1169 Y51.0158 
G01 X-8.0602 Y51.0725 
G01 X-7.9861 Y51.1032 
G01 X-7.7578 Y51.1032 
G01 X-7.7578 Y52.2592 
G01 X-7.9861 Y52.2592 
G00 Z2.0000 
G00 X-9.3170 Y52.8907 
G01 Z-0.0250 F254.00 
G01 X-9.2863 Y52.9648 F508.00 
G01 X-9.2296 Y53.0215 
G01 X-9.1555 Y53.0522 
G01 X-9.0753 Y53.0522 
G01 X-9.0012 Y53.0215 
G01 X-8.9445 Y52.9648 
G01 X-8.9138 Y52.8907 
G01 X-8.9138 Y52.6624 
G01 X-8.6855 Y52.6624 
G01 X-8.6114 Y52.6317 
G01 X-8.5547 Y52.5750 
G01 X-8.5240 Y52.5009 
G01 X-8.5240 Y52.4207 
G01 X-8.5547 Y52.3466 
G01 X-8.6114 Y52.2899 
G01 X-8.6855 Y52.2592 
G01 X-8.9138 Y52.2592 
G01 X-8.9138 Y51.3749 
G01 X-8.5547 Y51.0158 
G01 X-8.5240 Y50.9417 
G01 X-8.5240 Y50.8615 
G01 X-8.5547 Y50.7874 
G01 X-8.6114 Y50.7307 
G01 X-8.6855 Y50.7000 
G01 X-8.7657 Y50.7000 
G01 X-8.8398 Y50.7307 
G01 X-9.2296 Y51.1205 
G01 X-9.2829 Y51.1738 
G01 X-9.2863 Y51.1772 
G01 X-9.3170 Y51.2513 
G01 X-9.3170 Y52.2592 
G01 X-9.5453 Y52.2592 
G01 X-9.6194 Y52.2899 
G01 X-9.6761 Y52.3466 
G01 X-9.7068 Y52.4207 
G01 X-9.7068 Y52.5009 
G01 X-9.6761 Y52.5750 
G01 X-9.6194 Y52.6317 
G01 X-9.5453 Y52.6624 
G01 X-9.3170 Y52.6624 
G01 X-9.3170 Y52.8907 
G00 Z2.0000 
G00 X-11.4943 Y52.2592 
G01 Z-0.0250 F254.00 
G01 X-11.5684 Y52.2899 F508.00 
G01 X-11.6251 Y52.3466 
G01 X-11.6558 Y52.4207 
G01 X-11.6558 Y52.5009 
G01 X-11.6251 Y52.5750 
G01 X-11.5684 Y52.6317 
G01 X-11.4943 Y52.6624 
G01 X-10.6345 Y52.6624 
G01 X-10.5604 Y52.6317 
G01 X-10.1706 Y52.2419 
G01 X-10.1139 Y52.1852 
G01 X-10.0832 Y52.1111 
G01 X-10.0832 Y50.8615 
G01 X-10.1139 Y50.7874 
G01 X-10.1706 Y50.7307 
G01 X-10.2447 Y50.7000 
G01 X-11.4943 Y50.7000 
G01 X-11.5684 Y50.7307 
G01 X-12.0149 Y51.1772 
G01 X-12.0456 Y51.2513 
G01 X-12.0456 Y51.3315 
G01 X-12.0149 Y51.4056 
G01 X-11.9582 Y51.4623 
G01 X-11.6251 Y51.7954 
G01 X-11.5684 Y51.8521 
G01 X-11.4943 Y51.8828 
G01 X-10.4864 Y51.8828 
G01 X-10.4864 Y51.9875 
G01 X-10.7581 Y52.2592 
G01 X-11.4943 Y52.2592 
G00 Z2.0000 
G00 X-13.9812 Y50.8615 
G01 Z-0.0250 F254.00 
G01 X-14.0119 Y50.7874 F508.00 
G01 X-14.0686 Y50.7307 
G01 X-14.1427 Y50.7000 
G01 X-14.2229 Y50.7000 
G01 X-14.2970 Y50.7307 
G01 X-14.3537 Y50.7874 
G01 X-14.3844 Y50.8615 
G01 X-14.3844 Y52.5009 
G01 X-14.3537 Y52.5750 
G01 X-14.2970 Y52.6317 
G01 X-14.2229 Y52.6624 
G01 X-13.7529 Y52.6624 
G01 X-13.6788 Y52.6317 
G01 X-13.4032 Y52.3561 
G01 X-13.1843 Y52.5750 
G01 X-13.1276 Y52.6317 
G01 X-13.0535 Y52.6624 
G01 X-12.9733 Y52.6624 
G01 X-12.8992 Y52.6317 
G01 X-12.5094 Y52.2419 
G01 X-12.4527 Y52.1852 
G01 X-12.4220 Y52.1111 
G01 X-12.4220 Y50.8615 
G01 X-12.4527 Y50.7874 
G01 X-12.5094 Y50.7307 
G01 X-12.5835 Y50.7000 
G01 X-12.6637 Y50.7000 
G01 X-12.7378 Y50.7307 
G01 X-12.7945 Y50.7874 
G01 X-12.8252 Y50.8615 
G01 X-12.8252 Y51.9875 
G01 X-13.0134 Y52.1757 
G01 X-13.2016 Y51.9875 
G01 X-13.2016 Y50.8615 
G01 X-13.2323 Y50.7874 
G01 X-13.2890 Y50.7307 
G01 X-13.3631 Y50.7000 
G01 X-13.4433 Y50.7000 
G01 X-13.5174 Y50.7307 
G01 X-13.5741 Y50.7874 
G01 X-13.6048 Y50.8615 
G01 X-13.6048 Y51.9875 
G01 X-13.8765 Y52.2592 
G01 X-13.9812 Y52.2592 
G01 X-13.9812 Y50.8615 
G00 Z2.0000 
G00 X-16.1719 Y52.2592 
G01 Z-0.0250 F254.00 
G01 X-16.2460 Y52.2899 F508.00 
G01 X-16.3027 Y52.3466 
G01 X-16.3334 Y52.4207 
G01 X-16.3334 Y52.5009 
G01 X-16.3027 Y52.5750 
G01 X-16.2460 Y52.6317 
G01 X-16.1719 Y52.6624 
G01 X-15.3121 Y52.6624 
G01 X-15.2380 Y52.6317 
G01 X-14.8482 Y52.2419 
G01 X-14.7915 Y52.1852 
G01 X-14.7608 Y52.1111 
G01 X-14.7608 Y50.8615 
G01 X-14.7915 Y50.7874 
G01 X-14.8482 Y50.7307 
G01 X-14.9223 Y50.7000 
G01 X-16.1719 Y50.7000 
G01 X-16.2460 Y50.7307 
G01 X-16.6916 Y51.1763 
G01 X-16.7232 Y51.2513 
G01 X-16.7232 Y51.3315 
G01 X-16.6925 Y51.4056 
G01 X-16.6358 Y51.4623 
G01 X-16.3027 Y51.7954 
G01 X-16.2460 Y51.8521 
G01 X-16.1719 Y51.8828 
G01 X-15.1640 Y51.8828 
G01 X-15.1640 Y51.9875 
G01 X-15.4357 Y52.2592 
G01 X-16.1719 Y52.2592 
G00 Z2.0000 
G00 X-18.1209 Y53.0388 
G01 Z-0.0250 F254.00 
G01 X-18.1950 Y53.0695 F508.00 
G01 X-18.2517 Y53.1262 
G01 X-18.2824 Y53.2003 
G01 X-18.2824 Y53.2805 
G01 X-18.2517 Y53.3546 
G01 X-18.1950 Y53.4113 
G01 X-18.1209 Y53.4420 
G01 X-17.6509 Y53.4420 
G01 X-17.5768 Y53.4113 
G01 X-17.5201 Y53.3546 
G01 X-17.4894 Y53.2805 
G01 X-17.4894 Y51.1032 
G01 X-17.2611 Y51.1032 
G01 X-17.1870 Y51.0725 
G01 X-17.1303 Y51.0158 
G01 X-17.0996 Y50.9417 
G01 X-17.0996 Y50.8615 
G01 X-17.1303 Y50.7874 
G01 X-17.1870 Y50.7307 
G01 X-17.2611 Y50.7000 
G01 X-18.1209 Y50.7000 
G01 X-18.1950 Y50.7307 
G01 X-18.2517 Y50.7874 
G01 X-18.2824 Y50.8615 
G01 X-18.2824 Y50.9417 
G01 X-18.2517 Y51.0158 
G01 X-18.1950 Y51.0725 
G01 X-18.1209 Y51.1032 
G01 X-17.8926 Y51.1032 
G01 X-17.8926 Y53.0388 
G01 X-18.1209 Y53.0388 
G00 Z2.0000 
G00 X-21.0283 Y52.9648 
G01 Z-0.0250 F254.00 
G01 X-20.9976 Y52.8907 F508.00 
G01 X-20.9976 Y52.8105 
G01 X-21.0283 Y52.7364 
G01 X-21.0850 Y52.6797 
G01 X-21.1591 Y52.6490 
G01 X-21.2393 Y52.6490 
G01 X-21.3134 Y52.6797 
G01 X-21.6725 Y53.0388 
G01 X-22.2851 Y53.0388 
G01 X-22.5568 Y52.7671 
G01 X-22.5568 Y52.5443 
G01 X-22.2851 Y52.2726 
G01 X-21.5489 Y52.2726 
G01 X-21.4748 Y52.2419 
G01 X-21.0850 Y51.8521 
G01 X-21.0283 Y51.7954 
G01 X-20.9976 Y51.7213 
G01 X-20.9976 Y51.2513 
G01 X-21.0283 Y51.1772 
G01 X-21.0317 Y51.1738 
G01 X-21.0850 Y51.1205 
G01 X-21.4181 Y50.7874 
G01 X-21.4748 Y50.7307 
G01 X-21.5489 Y50.7000 
G01 X-22.4087 Y50.7000 
G01 X-22.4828 Y50.7307 
G01 X-22.9293 Y51.1772 
G01 X-22.9600 Y51.2513 
G01 X-22.9600 Y51.3315 
G01 X-22.9293 Y51.4056 
G01 X-22.8726 Y51.4623 
G01 X-22.7985 Y51.4930 
G01 X-22.7183 Y51.4930 
G01 X-22.6442 Y51.4623 
G01 X-22.2851 Y51.1032 
G01 X-21.6725 Y51.1032 
G01 X-21.4008 Y51.3749 
G01 X-21.4008 Y51.5977 
G01 X-21.6725 Y51.8694 
G01 X-22.4087 Y51.8694 
G01 X-22.4828 Y51.9001 
G01 X-22.5395 Y51.9568 
G01 X-22.8726 Y52.2899 
G01 X-22.9293 Y52.3466 
G01 X-22.9591 Y52.4186 
G01 X-22.9600 Y52.8907 
G01 X-22.9293 Y52.9648 
G01 X-22.8726 Y53.0215 
G01 X-22.5395 Y53.3546 
G01 X-22.4862 Y53.4079 
G01 X-22.4828 Y53.4113 
G01 X-22.4087 Y53.4420 
G01 X-21.5489 Y53.4420 
G01 X-21.4748 Y53.4113 
G01 X-21.4181 Y53.3546 
G01 X-21.0283 Y52.9648 
G00 Z2.0000 
G00 X-20.6212 Y52.5009 
G01 Z-0.0250 F254.00 
G01 X-20.5905 Y52.5750 F508.00 
G01 X-20.5338 Y52.6317 
G01 X-20.4597 Y52.6624 
G01 X-20.3795 Y52.6624 
G01 X-20.3054 Y52.6317 
G01 X-20.2487 Y52.5750 
G01 X-20.2180 Y52.5009 
G01 X-20.2180 Y51.3749 
G01 X-19.9463 Y51.1032 
G01 X-19.0620 Y51.1032 
G01 X-19.0620 Y52.5009 
G01 X-19.0313 Y52.5750 
G01 X-18.9746 Y52.6317 
G01 X-18.9005 Y52.6624 
G01 X-18.8203 Y52.6624 
G01 X-18.7462 Y52.6317 
G01 X-18.6895 Y52.5750 
G01 X-18.6588 Y52.5009 
G01 X-18.6588 Y50.8615 
G01 X-18.6895 Y50.7874 
G01 X-18.7462 Y50.7307 
G01 X-18.8203 Y50.7000 
G01 X-20.0699 Y50.7000 
G01 X-20.1440 Y50.7307 
G01 X-20.2007 Y50.7874 
G01 X-20.5905 Y51.1772 
G01 X-20.6212 Y51.2513 
G01 X-20.6212 Y51.3315 
G01 X-20.6212 Y52.5009 
G00 Z2.0000 
G00 X-41.0211 Y29.0000 
G01 Z-0.0250 F254.00 
G01 X-41.0323 Y28.9437 F508.00 
G01 X-41.1011 Y28.7776 
G01 X-41.2010 Y28.6281 
G01 X-41.3281 Y28.5010 
G01 X-41.4776 Y28.4011 
G01 X-41.6437 Y28.3323 
G01 X-41.8201 Y28.2972 
G01 X-41.9999 Y28.2972 
G01 X-42.1763 Y28.3323 
G01 X-42.3424 Y28.4011 
G01 X-42.4919 Y28.5010 
G01 X-42.6190 Y28.6281 
G01 X-42.7189 Y28.7776 
G01 X-42.7877 Y28.9437 
G01 X-42.8228 Y29.1201 
G01 X-42.8228 Y29.2999 
G01 X-42.7877 Y29.4763 
G01 X-42.7189 Y29.6424 
G01 X-42.6190 Y29.7919 
G01 X-42.4919 Y29.9190 
G01 X-42.3424 Y30.0189 
G01 X-42.1763 Y30.0877 
G01 X-41.9999 Y30.1228 
G01 X-41.8201 Y30.1228 
G01 X-41.6437 Y30.0877 
G01 X-41.4776 Y30.0189 
G01 X-41.3281 Y29.9190 
G01 X-41.2010 Y29.7919 
G01 X-41.1011 Y29.6424 
G01 X-41.0421 Y29.5000 
G01 X-37.6080 Y29.5000 
G01 X-37.6080 Y29.5599 
G01 X-37.5846 Y29.6773 
G01 X-37.5388 Y29.7880 
G01 X-37.4723 Y29.8876 
G01 X-37.3876 Y29.9723 
G01 X-37.2880 Y30.0388 
G01 X-37.1773 Y30.0846 
G01 X-37.0599 Y30.1080 
G01 X-36.9401 Y30.1080 
G01 X-36.8227 Y30.0846 
G01 X-36.7120 Y30.0388 
G01 X-36.6124 Y29.9723 
G01 X-36.5277 Y29.8876 
G01 X-36.4612 Y29.7880 
G01 X-36.4154 Y29.6773 
G01 X-36.3920 Y29.5599 
G01 X-36.3920 Y29.4401 
G01 X-36.4154 Y29.3227 
G01 X-36.4612 Y29.2120 
G01 X-36.5277 Y29.1124 
G01 X-36.6124 Y29.0277 
G01 X-36.7120 Y28.9612 
G01 X-36.8227 Y28.9154 
G01 X-36.9401 Y28.8920 
G01 X-37.0599 Y28.8920 
G01 X-37.1773 Y28.9154 
G01 X-37.2880 Y28.9612 
G01 X-37.3461 Y29.0000 
G01 X-41.0211 Y29.0000 
G00 Z2.0000 
G00 X-11.4619 Y40.6416 
G01 Z-0.0250 F254.00 
G01 X-11.3916 Y40.7119 F508.00 
G01 X-11.2997 Y40.7500 
G01 X-9.0545 Y40.7500 
G01 X-9.0388 Y40.7880 
G01 X-8.9723 Y40.8876 
G01 X-8.8876 Y40.9723 
G01 X-8.7880 Y41.0388 
G01 X-8.6773 Y41.0846 
G01 X-8.5599 Y41.1080 
G01 X-8.4401 Y41.1080 
G01 X-8.3227 Y41.0846 
G01 X-8.2120 Y41.0388 
G01 X-8.1124 Y40.9723 
G01 X-8.0277 Y40.8876 
G01 X-7.9612 Y40.7880 
G01 X-7.9154 Y40.6773 
G01 X-7.8920 Y40.5599 
G01 X-7.8920 Y40.4401 
G01 X-7.9154 Y40.3227 
G01 X-7.9612 Y40.2120 
G01 X-8.0277 Y40.1124 
G01 X-8.1124 Y40.0277 
G01 X-8.2120 Y39.9612 
G01 X-8.3227 Y39.9154 
G01 X-8.4401 Y39.8920 
G01 X-8.5599 Y39.8920 
G01 X-8.6773 Y39.9154 
G01 X-8.7880 Y39.9612 
G01 X-8.8876 Y40.0277 
G01 X-8.9723 Y40.1124 
G01 X-9.0388 Y40.2120 
G01 X-9.0545 Y40.2500 
G01 X-11.1464 Y40.2500 
G01 X-11.6811 Y39.7153 
G01 X-11.6654 Y39.6773 
G01 X-11.6420 Y39.5599 
G01 X-11.6420 Y39.4401 
G01 X-11.6654 Y39.3227 
G01 X-11.7112 Y39.2120 
G01 X-11.7777 Y39.1124 
G01 X-11.8624 Y39.0277 
G01 X-11.9620 Y38.9612 
G01 X-12.0727 Y38.9154 
G01 X-12.1901 Y38.8920 
G01 X-12.3099 Y38.8920 
G01 X-12.4273 Y38.9154 
G01 X-12.5380 Y38.9612 
G01 X-12.6376 Y39.0277 
G01 X-12.7223 Y39.1124 
G01 X-12.7888 Y39.2120 
G01 X-12.8346 Y39.3227 
G01 X-12.8580 Y39.4401 
G01 X-12.8580 Y39.5599 
G01 X-12.8346 Y39.6773 
G01 X-12.7888 Y39.7880 
G01 X-12.7223 Y39.8876 
G01 X-12.6376 Y39.9723 
G01 X-12.5380 Y40.0388 
G01 X-12.4273 Y40.0846 
G01 X-12.3099 Y40.1080 
G01 X-12.1901 Y40.1080 
G01 X-12.0727 Y40.0846 
G01 X-12.0347 Y40.0689 
G01 X-11.4619 Y40.6416 
G00 Z2.0000 
G00 X-35.0280 Y24.5683 
G01 Z-0.0250 F254.00 
G01 X-35.0280 Y26.2317 F508.00 
G01 X-33.8517 Y27.4080 
G01 X-32.1883 Y27.4080 
G01 X-31.0120 Y26.2317 
G01 X-31.0120 Y24.5683 
G01 X-32.1883 Y23.3920 
G01 X-33.8517 Y23.3920 
G01 X-35.0280 Y24.5683 
G00 Z2.0000 
G00 X-16.6600 Y46.9150 
G01 Z-0.0250 F254.00 
G01 X-16.8019 Y46.8689 F508.00 
G01 X-16.9210 Y46.8500 
G01 X-16.5950 Y46.8500 
G01 X-16.6600 Y46.9150 
G00 Z2.0000 
G00 X-23.8381 Y46.8689 
G01 Z-0.0250 F254.00 
G01 X-23.8911 Y46.8861 F508.00 
G01 X-23.8550 Y46.8500 
G01 X-23.7190 Y46.8500 
G01 X-23.8381 Y46.8689 
G00 Z2.0000 
G00 X-25.7725 Y21.1103 
G01 Z-0.0250 F254.00 
G01 X-25.8833 Y20.9444 F508.00 
G01 X-26.0244 Y20.8033 
G01 X-26.1903 Y20.6925 
G01 X-26.3746 Y20.6161 
G01 X-26.4556 Y20.6000 
G01 X-18.9539 Y20.6000 
G01 X-18.8649 Y20.5761 
G01 X-18.7851 Y20.5301 
G01 X-18.7199 Y20.4649 
G01 X-14.7216 Y16.4665 
G01 X-14.6778 Y16.5321 
G01 X-14.5509 Y16.6590 
G01 X-14.4016 Y16.7587 
G01 X-14.2358 Y16.8274 
G01 X-14.0597 Y16.8624 
G01 X-13.8803 Y16.8624 
G01 X-13.7042 Y16.8274 
G01 X-13.5384 Y16.7587 
G01 X-13.4337 Y16.6888 
G01 X-17.8950 Y21.1500 
G01 X-25.7560 Y21.1500 
G01 X-25.7725 Y21.1103 
G00 Z2.0000 
G00 X-25.6050 Y12.8500 
G01 Z-0.0250 F254.00 
G01 X-17.4539 Y12.8500 F508.00 
G01 X-17.3649 Y12.8261 
G01 X-17.2851 Y12.7801 
G01 X-17.2199 Y12.7149 
G01 X-10.8715 Y6.3665 
G01 X-10.8678 Y6.3721 
G01 X-10.7409 Y6.4990 
G01 X-10.5916 Y6.5987 
G01 X-10.4258 Y6.6674 
G01 X-10.2497 Y6.7024 
G01 X-10.0703 Y6.7024 
G01 X-9.8942 Y6.6674 
G01 X-9.7284 Y6.5987 
G01 X-9.5791 Y6.4990 
G01 X-9.4522 Y6.3721 
G01 X-9.3525 Y6.2228 
G01 X-9.2838 Y6.0570 
G01 X-9.2488 Y5.8809 
G01 X-9.2488 Y4.2791 
G01 X-9.2838 Y4.1030 
G01 X-9.3525 Y3.9372 
G01 X-9.4522 Y3.7879 
G01 X-9.5791 Y3.6610 
G01 X-9.6705 Y3.6000 
G01 X-8.1095 Y3.6000 
G01 X-8.2009 Y3.6610 
G01 X-8.3278 Y3.7879 
G01 X-8.4275 Y3.9372 
G01 X-8.4962 Y4.1030 
G01 X-8.5312 Y4.2791 
G01 X-8.5312 Y5.5362 
G01 X-15.8950 Y12.9000 
G01 X-24.5461 Y12.9000 
G01 X-24.6351 Y12.9239 
G01 X-24.7149 Y12.9699 
G01 X-30.3108 Y18.5658 
G01 X-30.4303 Y18.5420 
G01 X-30.5697 Y18.5420 
G01 X-30.7065 Y18.5692 
G01 X-30.8354 Y18.6226 
G01 X-30.9513 Y18.7001 
G01 X-31.0499 Y18.7987 
G01 X-31.1274 Y18.9146 
G01 X-31.1808 Y19.0435 
G01 X-31.2080 Y19.1803 
G01 X-31.2080 Y19.3197 
G01 X-31.1808 Y19.4565 
G01 X-31.1274 Y19.5854 
G01 X-31.0499 Y19.7013 
G01 X-30.9513 Y19.7999 
G01 X-30.8354 Y19.8774 
G01 X-30.7808 Y19.9000 
G01 X-32.2192 Y19.9000 
G01 X-32.1646 Y19.8774 
G01 X-32.0487 Y19.7999 
G01 X-31.9501 Y19.7013 
G01 X-31.8726 Y19.5854 
G01 X-31.8192 Y19.4565 
G01 X-31.7920 Y19.3197 
G01 X-31.7920 Y19.1803 
G01 X-31.8158 Y19.0608 
G01 X-25.6050 Y12.8500 
G00 Z2.0000 
G00 X-43.2021 Y17.9572 
G01 Z-0.0250 F254.00 
G01 X-43.1122 Y17.7806 F508.00 
G01 X-43.1000 Y17.7431 
G01 X-43.1000 Y17.8550 
G01 X-43.2021 Y17.9572 
G00 Z2.0000 
G00 X-11.4175 Y51.2914 
G01 Z-0.0250 F254.00 
G01 X-11.3293 Y51.2032 F508.00 
G01 X-10.5864 Y51.2032 
G01 X-10.5864 Y51.3796 
G01 X-11.3293 Y51.3796 
G01 X-11.4175 Y51.2914 
G00 Z2.0000 
G00 X-16.0951 Y51.2914 
G01 Z-0.0250 F254.00 
G01 X-16.0069 Y51.2032 F508.00 
G01 X-15.2640 Y51.2032 
G01 X-15.2640 Y51.3796 
G01 X-16.0069 Y51.3796 
G01 X-16.0951 Y51.2914 
G00 Z2.0000 
G00 X-25.7187 Y31.4000 
G01 Z-0.0250 F254.00 
G01 X-25.7725 Y31.2703 F508.00 
G01 X-25.8833 Y31.1044 
G01 X-26.0244 Y30.9633 
G01 X-26.1903 Y30.8525 
G01 X-26.1962 Y30.8500 
G01 X-15.5308 Y30.8500 
G01 X-15.5854 Y30.8726 
G01 X-15.7013 Y30.9501 
G01 X-15.7999 Y31.0487 
G01 X-15.8774 Y31.1646 
G01 X-15.9308 Y31.2935 
G01 X-15.9520 Y31.4000 
G01 X-25.7187 Y31.4000 
G00 Z2.0000 
G00 X-12.1450 Y28.6500 
G01 Z-0.0250 F254.00 
G01 X-25.8261 Y28.6500 F508.00 
G01 X-25.8833 Y28.5644 
G01 X-26.0244 Y28.4233 
G01 X-26.1903 Y28.3125 
G01 X-26.3746 Y28.2361 
G01 X-26.5702 Y28.1972 
G01 X-26.7698 Y28.1972 
G01 X-26.9654 Y28.2361 
G01 X-27.1497 Y28.3125 
G01 X-27.3156 Y28.4233 
G01 X-27.4567 Y28.5644 
G01 X-27.5675 Y28.7303 
G01 X-27.6439 Y28.9146 
G01 X-27.6828 Y29.1102 
G01 X-27.6828 Y29.3098 
G01 X-27.6439 Y29.5054 
G01 X-27.5675 Y29.6897 
G01 X-27.4567 Y29.8556 
G01 X-27.3156 Y29.9967 
G01 X-27.1497 Y30.1075 
G01 X-27.0472 Y30.1500 
G01 X-36.7192 Y30.1500 
G01 X-36.6646 Y30.1274 
G01 X-36.5487 Y30.0499 
G01 X-36.4501 Y29.9513 
G01 X-36.3726 Y29.8354 
G01 X-36.3192 Y29.7065 
G01 X-36.2920 Y29.5697 
G01 X-36.2920 Y29.4303 
G01 X-36.3192 Y29.2935 
G01 X-36.3726 Y29.1646 
G01 X-36.4501 Y29.0487 
G01 X-36.5487 Y28.9501 
G01 X-36.6646 Y28.8726 
G01 X-36.7935 Y28.8192 
G01 X-36.9303 Y28.7920 
G01 X-37.0697 Y28.7920 
G01 X-37.2065 Y28.8192 
G01 X-37.3354 Y28.8726 
G01 X-37.3764 Y28.9000 
G01 X-40.9422 Y28.9000 
G01 X-41.0125 Y28.7303 
G01 X-41.1233 Y28.5644 
G01 X-41.2644 Y28.4233 
G01 X-41.4303 Y28.3125 
G01 X-41.6146 Y28.2361 
G01 X-41.8102 Y28.1972 
G01 X-42.0098 Y28.1972 
G01 X-42.2054 Y28.2361 
G01 X-42.3897 Y28.3125 
G01 X-42.5556 Y28.4233 
G01 X-42.6967 Y28.5644 
G01 X-42.8075 Y28.7303 
G01 X-42.8839 Y28.9146 
G01 X-42.9000 Y28.9957 
G01 X-42.9000 Y26.8843 
G01 X-42.8839 Y26.9654 
G01 X-42.8075 Y27.1497 
G01 X-42.6967 Y27.3156 
G01 X-42.5556 Y27.4567 
G01 X-42.3897 Y27.5675 
G01 X-42.2054 Y27.6439 
G01 X-42.0098 Y27.6828 
G01 X-41.8102 Y27.6828 
G01 X-41.6146 Y27.6439 
G01 X-41.4303 Y27.5675 
G01 X-41.2644 Y27.4567 
G01 X-41.1233 Y27.3156 
G01 X-41.0125 Y27.1497 
G01 X-40.9361 Y26.9654 
G01 X-40.8972 Y26.7698 
G01 X-40.8972 Y26.5702 
G01 X-40.9361 Y26.3746 
G01 X-41.0125 Y26.1903 
G01 X-41.1233 Y26.0244 
G01 X-41.2644 Y25.8833 
G01 X-41.4303 Y25.7725 
G01 X-41.6146 Y25.6961 
G01 X-41.8102 Y25.6572 
G01 X-42.0098 Y25.6572 
G01 X-42.2054 Y25.6961 
G01 X-42.3897 Y25.7725 
G01 X-42.5556 Y25.8833 
G01 X-42.6967 Y26.0244 
G01 X-42.8075 Y26.1903 
G01 X-42.8839 Y26.3746 
G01 X-42.9000 Y26.4557 
G01 X-42.9000 Y24.3443 
G01 X-42.8839 Y24.4254 
G01 X-42.8075 Y24.6097 
G01 X-42.6967 Y24.7756 
G01 X-42.5556 Y24.9167 
G01 X-42.3897 Y25.0275 
G01 X-42.2054 Y25.1039 
G01 X-42.0098 Y25.1428 
G01 X-41.8102 Y25.1428 
G01 X-41.6146 Y25.1039 
G01 X-41.4303 Y25.0275 
G01 X-41.2644 Y24.9167 
G01 X-41.1233 Y24.7756 
G01 X-41.0125 Y24.6097 
G01 X-40.9361 Y24.4254 
G01 X-40.8972 Y24.2298 
G01 X-40.8972 Y24.0302 
G01 X-40.9361 Y23.8346 
G01 X-40.9811 Y23.7261 
G01 X-37.8550 Y20.6000 
G01 X-26.8844 Y20.6000 
G01 X-26.9654 Y20.6161 
G01 X-27.1497 Y20.6925 
G01 X-27.3156 Y20.8033 
G01 X-27.4567 Y20.9444 
G01 X-27.5675 Y21.1103 
G01 X-27.6439 Y21.2946 
G01 X-27.6828 Y21.4902 
G01 X-27.6828 Y21.6898 
G01 X-27.6439 Y21.8854 
G01 X-27.5675 Y22.0697 
G01 X-27.4567 Y22.2356 
G01 X-27.3156 Y22.3767 
G01 X-27.1497 Y22.4875 
G01 X-26.9654 Y22.5639 
G01 X-26.7698 Y22.6028 
G01 X-26.5702 Y22.6028 
G01 X-26.3746 Y22.5639 
G01 X-26.1903 Y22.4875 
G01 X-26.0244 Y22.3767 
G01 X-25.8833 Y22.2356 
G01 X-25.7725 Y22.0697 
G01 X-25.6961 Y21.8854 
G01 X-25.6891 Y21.8500 
G01 X-17.7039 Y21.8500 
G01 X-17.6149 Y21.8261 
G01 X-17.5351 Y21.7801 
G01 X-17.4699 Y21.7149 
G01 X-12.1976 Y16.4426 
G01 X-12.1378 Y16.5321 
G01 X-12.0109 Y16.6590 
G01 X-11.8616 Y16.7587 
G01 X-11.6958 Y16.8274 
G01 X-11.5197 Y16.8624 
G01 X-11.3403 Y16.8624 
G01 X-11.1642 Y16.8274 
G01 X-11.0074 Y16.7624 
G01 X-17.8950 Y23.6500 
G01 X-25.7726 Y23.6500 
G01 X-25.8833 Y23.4844 
G01 X-26.0244 Y23.3433 
G01 X-26.1903 Y23.2325 
G01 X-26.3746 Y23.1561 
G01 X-26.5702 Y23.1172 
G01 X-26.7698 Y23.1172 
G01 X-26.9654 Y23.1561 
G01 X-27.1497 Y23.2325 
G01 X-27.3156 Y23.3433 
G01 X-27.4567 Y23.4844 
G01 X-27.5675 Y23.6503 
G01 X-27.6439 Y23.8346 
G01 X-27.6828 Y24.0302 
G01 X-27.6828 Y24.2298 
G01 X-27.6439 Y24.4254 
G01 X-27.5675 Y24.6097 
G01 X-27.4567 Y24.7756 
G01 X-27.3156 Y24.9167 
G01 X-27.1497 Y25.0275 
G01 X-26.9654 Y25.1039 
G01 X-26.7698 Y25.1428 
G01 X-26.5702 Y25.1428 
G01 X-26.3746 Y25.1039 
G01 X-26.1903 Y25.0275 
G01 X-26.0244 Y24.9167 
G01 X-25.8833 Y24.7756 
G01 X-25.7725 Y24.6097 
G01 X-25.6961 Y24.4254 
G01 X-25.6811 Y24.3500 
G01 X-17.7039 Y24.3500 
G01 X-17.6149 Y24.3261 
G01 X-17.5351 Y24.2801 
G01 X-17.4699 Y24.2149 
G01 X-9.6736 Y16.4186 
G01 X-9.5978 Y16.5321 
G01 X-9.4709 Y16.6590 
G01 X-9.3216 Y16.7587 
G01 X-9.1558 Y16.8274 
G01 X-8.9797 Y16.8624 
G01 X-8.8003 Y16.8624 
G01 X-8.6242 Y16.8274 
G01 X-8.4584 Y16.7587 
G01 X-8.3091 Y16.6590 
G01 X-8.1822 Y16.5321 
G01 X-8.0825 Y16.3828 
G01 X-8.0138 Y16.2170 
G01 X-7.9788 Y16.0409 
G01 X-7.9788 Y14.4391 
G01 X-8.0138 Y14.2630 
G01 X-8.0825 Y14.0972 
G01 X-8.1822 Y13.9479 
G01 X-8.3091 Y13.8210 
G01 X-8.4584 Y13.7213 
G01 X-8.6242 Y13.6526 
G01 X-8.8003 Y13.6176 
G01 X-8.9797 Y13.6176 
G01 X-9.1558 Y13.6526 
G01 X-9.3216 Y13.7213 
G01 X-9.4709 Y13.8210 
G01 X-9.5978 Y13.9479 
G01 X-9.6975 Y14.0972 
G01 X-9.7662 Y14.2630 
G01 X-9.8012 Y14.4391 
G01 X-9.8012 Y15.5562 
G01 X-10.6188 Y16.3738 
G01 X-10.5538 Y16.2170 
G01 X-10.5188 Y16.0409 
G01 X-10.5188 Y14.4391 
G01 X-10.5538 Y14.2630 
G01 X-10.6225 Y14.0972 
G01 X-10.7222 Y13.9479 
G01 X-10.8491 Y13.8210 
G01 X-10.9984 Y13.7213 
G01 X-11.1642 Y13.6526 
G01 X-11.3403 Y13.6176 
G01 X-11.5197 Y13.6176 
G01 X-11.6958 Y13.6526 
G01 X-11.8616 Y13.7213 
G01 X-12.0109 Y13.8210 
G01 X-12.1378 Y13.9479 
G01 X-12.2375 Y14.0972 
G01 X-12.3062 Y14.2630 
G01 X-12.3412 Y14.4391 
G01 X-12.3412 Y15.5962 
G01 X-13.2324 Y16.4874 
G01 X-13.1625 Y16.3828 
G01 X-13.0938 Y16.2170 
G01 X-13.0588 Y16.0409 
G01 X-13.0588 Y14.4391 
G01 X-13.0938 Y14.2630 
G01 X-13.1625 Y14.0972 
G01 X-13.2622 Y13.9479 
G01 X-13.3891 Y13.8210 
G01 X-13.5384 Y13.7213 
G01 X-13.7042 Y13.6526 
G01 X-13.8803 Y13.6176 
G01 X-14.0597 Y13.6176 
G01 X-14.2358 Y13.6526 
G01 X-14.4016 Y13.7213 
G01 X-14.5509 Y13.8210 
G01 X-14.6778 Y13.9479 
G01 X-14.7775 Y14.0972 
G01 X-14.8462 Y14.2630 
G01 X-14.8812 Y14.4391 
G01 X-14.8812 Y15.6362 
G01 X-19.1450 Y19.9000 
G01 X-30.2192 Y19.9000 
G01 X-30.1646 Y19.8774 
G01 X-30.0487 Y19.7999 
G01 X-29.9501 Y19.7013 
G01 X-29.8726 Y19.5854 
G01 X-29.8192 Y19.4565 
G01 X-29.7920 Y19.3197 
G01 X-29.7920 Y19.1803 
G01 X-29.8158 Y19.0608 
G01 X-24.3550 Y13.6000 
G01 X-15.7039 Y13.6000 
G01 X-15.6149 Y13.5761 
G01 X-15.5351 Y13.5301 
G01 X-15.4699 Y13.4649 
G01 X-8.3475 Y6.3425 
G01 X-8.3278 Y6.3721 
G01 X-8.2009 Y6.4990 
G01 X-8.0516 Y6.5987 
G01 X-7.8858 Y6.6674 
G01 X-7.7097 Y6.7024 
G01 X-7.5303 Y6.7024 
G01 X-7.3542 Y6.6674 
G01 X-7.1884 Y6.5987 
G01 X-7.0391 Y6.4990 
G01 X-6.9122 Y6.3721 
G01 X-6.8125 Y6.2228 
G01 X-6.7438 Y6.0570 
G01 X-6.7088 Y5.8809 
G01 X-6.7088 Y4.2791 
G01 X-6.7438 Y4.1030 
G01 X-6.8125 Y3.9372 
G01 X-6.8220 Y3.9230 
G01 X-5.9912 Y4.7538 
G01 X-5.9912 Y5.8809 
G01 X-5.9562 Y6.0570 
G01 X-5.8875 Y6.2228 
G01 X-5.7878 Y6.3721 
G01 X-5.6609 Y6.4990 
G01 X-5.5116 Y6.5987 
G01 X-5.3458 Y6.6674 
G01 X-5.1697 Y6.7024 
G01 X-4.9903 Y6.7024 
G01 X-4.8142 Y6.6674 
G01 X-4.6484 Y6.5987 
G01 X-4.4991 Y6.4990 
G01 X-4.3722 Y6.3721 
G01 X-4.2725 Y6.2228 
G01 X-4.2038 Y6.0570 
G01 X-4.1688 Y5.8809 
G01 X-4.1688 Y4.2791 
G01 X-4.2038 Y4.1030 
G01 X-4.2725 Y3.9372 
G01 X-4.3722 Y3.7879 
G01 X-4.4991 Y3.6610 
G01 X-4.6484 Y3.5613 
G01 X-4.8142 Y3.4926 
G01 X-4.9903 Y3.4576 
G01 X-5.1697 Y3.4576 
G01 X-5.3458 Y3.4926 
G01 X-5.5116 Y3.5613 
G01 X-5.6609 Y3.6610 
G01 X-5.7878 Y3.7879 
G01 X-5.8596 Y3.8954 
G01 X-6.7851 Y2.9699 
G01 X-6.8649 Y2.9239 
G01 X-6.9539 Y2.9000 
G01 X-22.7961 Y2.9000 
G01 X-22.8851 Y2.9239 
G01 X-22.9649 Y2.9699 
G01 X-23.0301 Y3.0351 
G01 X-24.2353 Y4.2403 
G01 X-24.2975 Y4.2146 
G01 X-24.4714 Y4.1800 
G01 X-24.6486 Y4.1800 
G01 X-24.8225 Y4.2146 
G01 X-24.9863 Y4.2824 
G01 X-25.1337 Y4.3809 
G01 X-25.2591 Y4.5063 
G01 X-25.3576 Y4.6537 
G01 X-25.4254 Y4.8175 
G01 X-25.4418 Y4.9000 
G01 X-29.5815 Y4.9000 
G01 X-29.5815 Y3.7080 
G01 X-29.6174 Y3.4814 
G01 X-29.6883 Y3.2633 
G01 X-29.7924 Y3.0589 
G01 X-29.9272 Y2.8733 
G01 X-30.0894 Y2.7111 
G01 X-30.2750 Y2.5763 
G01 X-30.4794 Y2.4722 
G01 X-30.6975 Y2.4013 
G01 X-30.9241 Y2.3654 
G01 X-31.1535 Y2.3654 
G01 X-31.3801 Y2.4013 
G01 X-31.5982 Y2.4722 
G01 X-31.8026 Y2.5763 
G01 X-31.9882 Y2.7111 
G01 X-32.1504 Y2.8733 
G01 X-32.2852 Y3.0589 
G01 X-32.3893 Y3.2633 
G01 X-32.4602 Y3.4814 
G01 X-32.4961 Y3.7080 
G01 X-32.4961 Y6.0011 
G01 X-34.1450 Y7.6500 
G01 X-34.3675 Y7.6500 
G01 X-34.2374 Y7.5837 
G01 X-34.0518 Y7.4489 
G01 X-33.8896 Y7.2867 
G01 X-33.7548 Y7.1011 
G01 X-33.6507 Y6.8967 
G01 X-33.5798 Y6.6786 
G01 X-33.5439 Y6.4520 
G01 X-33.5439 Y3.7080 
G01 X-33.5798 Y3.4814 
G01 X-33.6507 Y3.2633 
G01 X-33.7548 Y3.0589 
G01 X-33.8896 Y2.8733 
G01 X-34.0518 Y2.7111 
G01 X-34.2374 Y2.5763 
G01 X-34.4418 Y2.4722 
G01 X-34.6599 Y2.4013 
G01 X-34.8865 Y2.3654 
G01 X-35.1159 Y2.3654 
G01 X-35.3424 Y2.4013 
G01 X-35.5606 Y2.4722 
G01 X-35.7650 Y2.5763 
G01 X-35.9506 Y2.7111 
G01 X-36.1128 Y2.8733 
G01 X-36.2476 Y3.0589 
G01 X-36.3517 Y3.2633 
G01 X-36.4226 Y3.4814 
G01 X-36.4585 Y3.7080 
G01 X-36.4585 Y6.4520 
G01 X-36.4226 Y6.6786 
G01 X-36.3517 Y6.8967 
G01 X-36.2476 Y7.1011 
G01 X-36.1128 Y7.2867 
G01 X-35.9506 Y7.4489 
G01 X-35.7650 Y7.5837 
G01 X-35.6349 Y7.6500 
G01 X-37.6050 Y7.6500 
G01 X-39.6272 Y5.6278 
G01 X-39.6272 Y4.1674 
G01 X-39.6661 Y3.9718 
G01 X-39.7425 Y3.7875 
G01 X-39.8533 Y3.6216 
G01 X-39.9944 Y3.4805 
G01 X-40.1603 Y3.3697 
G01 X-40.3446 Y3.2933 
G01 X-40.5402 Y3.2544 
G01 X-40.7398 Y3.2544 
G01 X-40.9354 Y3.2933 
G01 X-41.1197 Y3.3697 
G01 X-41.2856 Y3.4805 
G01 X-41.4267 Y3.6216 
G01 X-41.5375 Y3.7875 
G01 X-41.6139 Y3.9718 
G01 X-41.6528 Y4.1674 
G01 X-41.6528 Y5.9926 
G01 X-41.6139 Y6.1882 
G01 X-41.5375 Y6.3725 
G01 X-41.4267 Y6.5384 
G01 X-41.2856 Y6.6795 
G01 X-41.1197 Y6.7903 
G01 X-40.9354 Y6.8667 
G01 X-40.7398 Y6.9056 
G01 X-40.5402 Y6.9056 
G01 X-40.3446 Y6.8667 
G01 X-40.1603 Y6.7903 
G01 X-39.9944 Y6.6795 
G01 X-39.8533 Y6.5384 
G01 X-39.7945 Y6.4504 
G01 X-38.0301 Y8.2149 
G01 X-37.9649 Y8.2801 
G01 X-37.8851 Y8.3261 
G01 X-37.7961 Y8.3500 
G01 X-33.9539 Y8.3500 
G01 X-33.8649 Y8.3261 
G01 X-33.7851 Y8.2801 
G01 X-32.3924 Y6.8873 
G01 X-32.3893 Y6.8967 
G01 X-32.2852 Y7.1011 
G01 X-32.1504 Y7.2867 
G01 X-31.9882 Y7.4489 
G01 X-31.8026 Y7.5837 
G01 X-31.5982 Y7.6878 
G01 X-31.3801 Y7.7587 
G01 X-31.1535 Y7.7946 
G01 X-30.9241 Y7.7946 
G01 X-30.6975 Y7.7587 
G01 X-30.4794 Y7.6878 
G01 X-30.2750 Y7.5837 
G01 X-30.0894 Y7.4489 
G01 X-29.9272 Y7.2867 
G01 X-29.7924 Y7.1011 
G01 X-29.6883 Y6.8967 
G01 X-29.6174 Y6.6786 
G01 X-29.5815 Y6.4520 
G01 X-29.5815 Y5.6000 
G01 X-25.2950 Y5.6000 
G01 X-25.2591 Y5.6537 
G01 X-25.1337 Y5.7791 
G01 X-24.9863 Y5.8776 
G01 X-24.8225 Y5.9454 
G01 X-24.6486 Y5.9800 
G01 X-24.4714 Y5.9800 
G01 X-24.2975 Y5.9454 
G01 X-24.1337 Y5.8776 
G01 X-23.9863 Y5.7791 
G01 X-23.8609 Y5.6537 
G01 X-23.7624 Y5.5063 
G01 X-23.6946 Y5.3425 
G01 X-23.6600 Y5.1686 
G01 X-23.6600 Y4.9914 
G01 X-23.6946 Y4.8175 
G01 X-23.7321 Y4.7270 
G01 X-22.6050 Y3.6000 
G01 X-18.2695 Y3.6000 
G01 X-18.3609 Y3.6610 
G01 X-18.4878 Y3.7879 
G01 X-18.5875 Y3.9372 
G01 X-18.6562 Y4.1030 
G01 X-18.6912 Y4.2791 
G01 X-18.6912 Y5.8809 
G01 X-18.6562 Y6.0570 
G01 X-18.5875 Y6.2228 
G01 X-18.4878 Y6.3721 
G01 X-18.3609 Y6.4990 
G01 X-18.2116 Y6.5987 
G01 X-18.0458 Y6.6674 
G01 X-17.8697 Y6.7024 
G01 X-17.6903 Y6.7024 
G01 X-17.5142 Y6.6674 
G01 X-17.3484 Y6.5987 
G01 X-17.1991 Y6.4990 
G01 X-17.0722 Y6.3721 
G01 X-16.9725 Y6.2228 
G01 X-16.9038 Y6.0570 
G01 X-16.8688 Y5.8809 
G01 X-16.8688 Y4.2791 
G01 X-16.9038 Y4.1030 
G01 X-16.9725 Y3.9372 
G01 X-17.0722 Y3.7879 
G01 X-17.1991 Y3.6610 
G01 X-17.2905 Y3.6000 
G01 X-15.7295 Y3.6000 
G01 X-15.8209 Y3.6610 
G01 X-15.9478 Y3.7879 
G01 X-16.0475 Y3.9372 
G01 X-16.1162 Y4.1030 
G01 X-16.1512 Y4.2791 
G01 X-16.1512 Y5.8809 
G01 X-16.1162 Y6.0570 
G01 X-16.0475 Y6.2228 
G01 X-15.9478 Y6.3721 
G01 X-15.8209 Y6.4990 
G01 X-15.6716 Y6.5987 
G01 X-15.5058 Y6.6674 
G01 X-15.3297 Y6.7024 
G01 X-15.1503 Y6.7024 
G01 X-14.9742 Y6.6674 
G01 X-14.8084 Y6.5987 
G01 X-14.6591 Y6.4990 
G01 X-14.5322 Y6.3721 
G01 X-14.4325 Y6.2228 
G01 X-14.3638 Y6.0570 
G01 X-14.3288 Y5.8809 
G01 X-14.3288 Y4.2791 
G01 X-14.3638 Y4.1030 
G01 X-14.4325 Y3.9372 
G01 X-14.5322 Y3.7879 
G01 X-14.6591 Y3.6610 
G01 X-14.7505 Y3.6000 
G01 X-13.1895 Y3.6000 
G01 X-13.2809 Y3.6610 
G01 X-13.4078 Y3.7879 
G01 X-13.5075 Y3.9372 
G01 X-13.5762 Y4.1030 
G01 X-13.6112 Y4.2791 
G01 X-13.6112 Y5.8809 
G01 X-13.5762 Y6.0570 
G01 X-13.5075 Y6.2228 
G01 X-13.4078 Y6.3721 
G01 X-13.2809 Y6.4990 
G01 X-13.1316 Y6.5987 
G01 X-12.9658 Y6.6674 
G01 X-12.7897 Y6.7024 
G01 X-12.6103 Y6.7024 
G01 X-12.4342 Y6.6674 
G01 X-12.2684 Y6.5987 
G01 X-12.1191 Y6.4990 
G01 X-11.9922 Y6.3721 
G01 X-11.8925 Y6.2228 
G01 X-11.8238 Y6.0570 
G01 X-11.7888 Y5.8809 
G01 X-11.7888 Y4.2791 
G01 X-11.8238 Y4.1030 
G01 X-11.8925 Y3.9372 
G01 X-11.9922 Y3.7879 
G01 X-12.1191 Y3.6610 
G01 X-12.2105 Y3.6000 
G01 X-10.6495 Y3.6000 
G01 X-10.7409 Y3.6610 
G01 X-10.8678 Y3.7879 
G01 X-10.9675 Y3.9372 
G01 X-11.0362 Y4.1030 
G01 X-11.0712 Y4.2791 
G01 X-11.0712 Y5.5762 
G01 X-17.6450 Y12.1500 
G01 X-25.7961 Y12.1500 
G01 X-25.8851 Y12.1739 
G01 X-25.9649 Y12.2199 
G01 X-32.3107 Y18.5658 
G01 X-32.4303 Y18.5420 
G01 X-32.5697 Y18.5420 
G01 X-32.7065 Y18.5692 
G01 X-32.8354 Y18.6226 
G01 X-32.9513 Y18.7001 
G01 X-33.0499 Y18.7987 
G01 X-33.1274 Y18.9146 
G01 X-33.1808 Y19.0435 
G01 X-33.2080 Y19.1803 
G01 X-33.2080 Y19.3197 
G01 X-33.1808 Y19.4565 
G01 X-33.1274 Y19.5854 
G01 X-33.0499 Y19.7013 
G01 X-32.9513 Y19.7999 
G01 X-32.8354 Y19.8774 
G01 X-32.7808 Y19.9000 
G01 X-38.0461 Y19.9000 
G01 X-38.1351 Y19.9239 
G01 X-38.2149 Y19.9699 
G01 X-41.4636 Y23.2187 
G01 X-41.6146 Y23.1561 
G01 X-41.8102 Y23.1172 
G01 X-42.0098 Y23.1172 
G01 X-42.2054 Y23.1561 
G01 X-42.3897 Y23.2325 
G01 X-42.5556 Y23.3433 
G01 X-42.6967 Y23.4844 
G01 X-42.8075 Y23.6503 
G01 X-42.8839 Y23.8346 
G01 X-42.9000 Y23.9156 
G01 X-42.9000 Y21.8043 
G01 X-42.8839 Y21.8854 
G01 X-42.8075 Y22.0697 
G01 X-42.6967 Y22.2356 
G01 X-42.5556 Y22.3767 
G01 X-42.3897 Y22.4875 
G01 X-42.2054 Y22.5639 
G01 X-42.0098 Y22.6028 
G01 X-41.8102 Y22.6028 
G01 X-41.6146 Y22.5639 
G01 X-41.4303 Y22.4875 
G01 X-41.2644 Y22.3767 
G01 X-41.1233 Y22.2356 
G01 X-41.0125 Y22.0697 
G01 X-40.9361 Y21.8854 
G01 X-40.8972 Y21.6898 
G01 X-40.8972 Y21.4902 
G01 X-40.9361 Y21.2946 
G01 X-41.0125 Y21.1103 
G01 X-41.1233 Y20.9444 
G01 X-41.2644 Y20.8033 
G01 X-41.4303 Y20.6925 
G01 X-41.6146 Y20.6161 
G01 X-41.8102 Y20.5772 
G01 X-42.0098 Y20.5772 
G01 X-42.2054 Y20.6161 
G01 X-42.3897 Y20.6925 
G01 X-42.5556 Y20.8033 
G01 X-42.6967 Y20.9444 
G01 X-42.8075 Y21.1103 
G01 X-42.8839 Y21.2946 
G01 X-42.9000 Y21.3757 
G01 X-42.9000 Y18.6450 
G01 X-42.5351 Y18.2801 
G01 X-42.4699 Y18.2149 
G01 X-42.4239 Y18.1351 
G01 X-42.4000 Y18.0461 
G01 X-42.4000 Y13.4539 
G01 X-42.4239 Y13.3649 
G01 X-42.4699 Y13.2851 
G01 X-42.5351 Y13.2199 
G01 X-42.6149 Y13.1739 
G01 X-42.7039 Y13.1500 
G01 X-43.0054 Y13.1500 
G01 X-43.0054 Y13.1441 
G01 X-43.0413 Y12.9175 
G01 X-43.1122 Y12.6994 
G01 X-43.2163 Y12.4950 
G01 X-43.3511 Y12.3094 
G01 X-43.5133 Y12.1472 
G01 X-43.6989 Y12.0124 
G01 X-43.9033 Y11.9083 
G01 X-44.1214 Y11.8374 
G01 X-44.3480 Y11.8015 
G01 X-47.0920 Y11.8015 
G01 X-47.3186 Y11.8374 
G01 X-47.5367 Y11.9083 
G01 X-47.7411 Y12.0124 
G01 X-47.9267 Y12.1472 
G01 X-48.0889 Y12.3094 
G01 X-48.2237 Y12.4950 
G01 X-48.3278 Y12.6994 
G01 X-48.3987 Y12.9175 
G01 X-48.4346 Y13.1441 
G01 X-48.4346 Y13.3735 
G01 X-48.3987 Y13.6001 
G01 X-48.3278 Y13.8182 
G01 X-48.2237 Y14.0226 
G01 X-48.0889 Y14.2082 
G01 X-47.9267 Y14.3704 
G01 X-47.7411 Y14.5052 
G01 X-47.5367 Y14.6093 
G01 X-47.3186 Y14.6802 
G01 X-47.0920 Y14.7161 
G01 X-44.3480 Y14.7161 
G01 X-44.1214 Y14.6802 
G01 X-43.9033 Y14.6093 
G01 X-43.6989 Y14.5052 
G01 X-43.5133 Y14.3704 
G01 X-43.3511 Y14.2082 
G01 X-43.2163 Y14.0226 
G01 X-43.1284 Y13.8500 
G01 X-43.1000 Y13.8500 
G01 X-43.1000 Y16.6992 
G01 X-43.1122 Y16.6618 
G01 X-43.2163 Y16.4574 
G01 X-43.3511 Y16.2718 
G01 X-43.5133 Y16.1096 
G01 X-43.6989 Y15.9748 
G01 X-43.9033 Y15.8707 
G01 X-44.1214 Y15.7998 
G01 X-44.3480 Y15.7639 
G01 X-47.0920 Y15.7639 
G01 X-47.3186 Y15.7998 
G01 X-47.5367 Y15.8707 
G01 X-47.7411 Y15.9748 
G01 X-47.9267 Y16.1096 
G01 X-48.0889 Y16.2718 
G01 X-48.2237 Y16.4574 
G01 X-48.3278 Y16.6618 
G01 X-48.3987 Y16.8799 
G01 X-48.4346 Y17.1065 
G01 X-48.4346 Y17.3359 
G01 X-48.3987 Y17.5625 
G01 X-48.3278 Y17.7806 
G01 X-48.2237 Y17.9850 
G01 X-48.0889 Y18.1706 
G01 X-47.9267 Y18.3328 
G01 X-47.7411 Y18.4676 
G01 X-47.5367 Y18.5717 
G01 X-47.3186 Y18.6426 
G01 X-47.0920 Y18.6785 
G01 X-44.3480 Y18.6785 
G01 X-44.1214 Y18.6426 
G01 X-43.9033 Y18.5717 
G01 X-43.6989 Y18.4676 
G01 X-43.5806 Y18.3817 
G01 X-43.6000 Y18.4539 
G01 X-43.6000 Y30.5461 
G01 X-43.5761 Y30.6351 
G01 X-43.5301 Y30.7149 
G01 X-43.4649 Y30.7801 
G01 X-42.8565 Y31.3885 
G01 X-42.8839 Y31.4546 
G01 X-42.9228 Y31.6502 
G01 X-42.9228 Y31.8498 
G01 X-42.8839 Y32.0454 
G01 X-42.8075 Y32.2297 
G01 X-42.6967 Y32.3956 
G01 X-42.5556 Y32.5367 
G01 X-42.3897 Y32.6475 
G01 X-42.2054 Y32.7239 
G01 X-42.0098 Y32.7628 
G01 X-41.8102 Y32.7628 
G01 X-41.6146 Y32.7239 
G01 X-41.4303 Y32.6475 
G01 X-41.2644 Y32.5367 
G01 X-41.1233 Y32.3956 
G01 X-41.0125 Y32.2297 
G01 X-40.9361 Y32.0454 
G01 X-40.8972 Y31.8498 
G01 X-40.8972 Y31.6502 
G01 X-40.9361 Y31.4546 
G01 X-41.0125 Y31.2703 
G01 X-41.1233 Y31.1044 
G01 X-41.2644 Y30.9633 
G01 X-41.4303 Y30.8525 
G01 X-41.6146 Y30.7761 
G01 X-41.8102 Y30.7372 
G01 X-42.0098 Y30.7372 
G01 X-42.2054 Y30.7761 
G01 X-42.3897 Y30.8525 
G01 X-42.3974 Y30.8576 
G01 X-42.9000 Y30.3550 
G01 X-42.9000 Y29.4243 
G01 X-42.8839 Y29.5054 
G01 X-42.8075 Y29.6897 
G01 X-42.6967 Y29.8556 
G01 X-42.5556 Y29.9967 
G01 X-42.3897 Y30.1075 
G01 X-42.2054 Y30.1839 
G01 X-42.0098 Y30.2228 
G01 X-41.8102 Y30.2228 
G01 X-41.6146 Y30.1839 
G01 X-41.4303 Y30.1075 
G01 X-41.2644 Y29.9967 
G01 X-41.1233 Y29.8556 
G01 X-41.0125 Y29.6897 
G01 X-40.9753 Y29.6000 
G01 X-37.7020 Y29.6000 
G01 X-37.6808 Y29.7065 
G01 X-37.6274 Y29.8354 
G01 X-37.5499 Y29.9513 
G01 X-37.4513 Y30.0499 
G01 X-37.3354 Y30.1274 
G01 X-37.2808 Y30.1500 
G01 X-38.0461 Y30.1500 
G01 X-38.1351 Y30.1739 
G01 X-38.2149 Y30.2199 
G01 X-38.2801 Y30.2851 
G01 X-41.4046 Y33.4096 
G01 X-41.4303 Y33.3925 
G01 X-41.6146 Y33.3161 
