(.../pcb-gcode-3.6.0.4/pcb-gcode.ulp)
(Copyright 2005 - 2012 by John Johnson)
(See readme.txt for licensing terms.)
(This file generated from the board:)
(.../eagle/SulaMatikV1/SulaMatikV1.brd)
(Current profile is .../pcb-gcode-3.6.0.4/profiles/emc.pp  )
(This file generated 9/6/2014 9:34:43 AM)
(Settings from pcb-machine.h)
(  Tool Size)
(0.1000 )
(Z Axis Settings)
(  High     Up        Down     Drill)
(19.5000 	2.0000 	-0.0250 	-1.5000 )
(spindle on time = 1.0000)
(milling depth = -0.0500)
(text depth = -0.0500)
(tool change at 15.0000 15.0000 19.0000 )
(feed rate xy = F508.00 )
(feed rate z  = F254.00 )
(Settings from pcb-defaults.h)
(isolate min = 0.0500)
(isolate max = 1.0000)
(isolate step = 0.1000)
(Generated top outlines, top drill, bottom outlines, bottom drill, )
(Unit of measure: mm)
( Tool|       Size       |  Min Sub |  Max Sub |   Count )
( T01 | 0.508mm 0.0200in | 0.0000in | 0.0000in |       0 )
( T02 | 0.700mm 0.0276in | 0.0000in | 0.0000in |       0 )
( T03 | 0.813mm 0.0320in | 0.0000in | 0.0000in |       0 )
( T04 | 1.016mm 0.0400in | 0.0000in | 0.0000in |       0 )
( T05 | 1.118mm 0.0440in | 0.0000in | 0.0000in |       0 )
( T06 | 2.000mm 0.0787in | 0.0000in | 0.0000in |       0 )
(Metric Mode)
G21
(Absolute Coordinates)
G90
M05
G00 Z19.0000 
G00 X15.0000 Y15.0000 
M06 T01 (0.5080 )
G01 Z0.0000 F254.00 
M06 T01 (0.5080 )
G00 Z2.0000 
M03
G04 P1.000000
G82 X-31.7900 Y41.2900 Z-1.5000 F254.00 R2.0000 P1.000000
G82 X-33.2900 Y48.2900 
G82 X-38.7900 Y43.5400 
G82 X-46.2900 Y13.0400 
G82 X-51.5400 Y48.2900 
G82 X-53.7900 Y14.5400 
G82 X-54.2900 Y22.5400 
G82 X-55.7900 Y44.5400 
G82 X-58.0400 Y36.5400 
G82 X-58.7900 Y46.0400 
G82 X-59.0400 Y8.0400 
G82 X-61.2900 Y16.5400 
G82 X-62.0400 Y27.7900 
G82 X-63.0400 Y32.0400 
G82 X-66.0400 Y32.7900 
G82 X-67.0400 Y27.5400 
G82 X-8.7900 Y44.2900 
G82 X-8.7900 Y22.0400 
G82 X-10.2900 Y15.0400 
G82 X-13.5400 Y16.7900 
G82 X-13.5400 Y20.2900 
G82 X-16.7900 Y34.7900 
G82 X-20.2900 Y40.5400 
G82 X-20.5400 Y27.7900 
G82 X-21.7900 Y28.2900 
G82 X-23.5400 Y26.2900 
G82 X-23.7900 Y21.2900 
G82 X-25.2900 Y36.5400 
G82 X-29.7900 Y29.0400 
M05
G00 Z19.0000 
M06 T02 (0.7000 )
G01 Z0.0000 F254.00 
M06 T02 (0.7000 )
G00 Z2.0000 
M03
G04 P1.000000
G82 X-49.1000 Y20.3200 Z-1.5000 F254.00 R2.0000 P1.000000
G82 X-52.5000 Y20.3200 
M05
G00 Z19.0000 
M06 T03 (0.8128 )
G01 Z0.0000 F254.00 
M06 T03 (0.8128 )
G00 Z2.0000 
M03
G04 P1.000000
G82 X-31.7500 Y7.6200 Z-1.5000 F254.00 R2.0000 P1.000000
G82 X-49.5300 Y10.1600 
G82 X-52.0700 Y10.1600 
G82 X-13.9700 Y7.6200 
G82 X-16.5100 Y7.6200 
G82 X-19.0500 Y7.6200 
G82 X-21.5900 Y7.6200 
G82 X-24.1300 Y7.6200 
G82 X-26.6700 Y7.6200 
G82 X-29.2100 Y7.6200 
M05
G00 Z19.0000 
M06 T04 (1.0160 )
G01 Z0.0000 F254.00 
M06 T04 (1.0160 )
G00 Z2.0000 
M03
G04 P1.000000
G82 X-34.8488 Y53.6194 Z-1.5000 F254.00 R2.0000 P1.000000
G82 X-34.8488 Y58.1406 
G82 X-41.3512 Y53.6194 
G82 X-41.3512 Y58.1406 
G82 X-4.3688 Y53.6194 
G82 X-4.3688 Y58.1406 
G82 X-44.4500 Y5.0800 
G82 X-46.9900 Y5.0800 
G82 X-49.5300 Y31.7500 
G82 X-49.5300 Y34.2900 
G82 X-49.5300 Y36.8300 
G82 X-49.5300 Y39.3700 
G82 X-49.5300 Y41.9100 
G82 X-49.5300 Y44.4500 
G82 X-49.5300 Y46.9900 
G82 X-49.5300 Y49.5300 
G82 X-49.5300 Y5.0800 
G82 X-49.5300 Y52.0700 
G82 X-49.5300 Y54.6100 
G82 X-49.5300 Y57.1500 
G82 X-49.5300 Y29.2100 
G82 X-52.0700 Y5.0800 
G82 X-54.6100 Y25.4000 
G82 X-55.8800 Y12.7000 
G82 X-57.1500 Y25.4000 
G82 X-58.4200 Y17.7800 
G82 X-59.6900 Y25.4000 
G82 X-60.9600 Y12.7000 
G82 X-62.2300 Y45.7200 
G82 X-62.2300 Y48.2600 
G82 X-62.2300 Y25.4000 
G82 X-64.7700 Y31.7500 
G82 X-64.7700 Y34.2900 
G82 X-64.7700 Y36.8300 
G82 X-64.7700 Y39.3700 
G82 X-64.7700 Y41.9100 
G82 X-64.7700 Y44.4500 
G82 X-64.7700 Y46.9900 
G82 X-64.7700 Y49.5300 
G82 X-64.7700 Y52.0700 
G82 X-64.7700 Y54.6100 
G82 X-64.7700 Y57.1500 
G82 X-64.7700 Y29.2100 
G82 X-66.0400 Y8.8900 
G82 X-66.0400 Y11.4300 
G82 X-66.0400 Y13.9700 
G82 X-66.0400 Y16.5100 
G82 X-66.0400 Y19.0500 
G82 X-66.0400 Y21.5900 
G82 X-10.8712 Y53.6194 
G82 X-10.8712 Y58.1406 
G82 X-14.5288 Y53.6194 
G82 X-14.5288 Y58.1406 
G82 X-21.0312 Y53.6194 
G82 X-21.0312 Y58.1406 
G82 X-24.6888 Y53.6194 
G82 X-24.6888 Y58.1406 
G82 X-31.1912 Y53.6194 
G82 X-31.1912 Y58.1406 
M05
G00 Z19.0000 
M06 T05 (1.1176 )
G01 Z0.0000 F254.00 
M06 T05 (1.1176 )
G00 Z2.0000 
M03
G04 P1.000000
G82 X-57.1500 Y5.0800 Z-1.5000 F254.00 R2.0000 P1.000000
G82 X-60.9600 Y5.0800 
G82 X-64.7700 Y5.0800 
M05
G00 Z19.0000 
M06 T06 (2.0000 )
G01 Z0.0000 F254.00 
M06 T06 (2.0000 )
G00 Z2.0000 
M03
G04 P1.000000
G82 X-5.0800 Y5.0800 Z-1.5000 F254.00 R2.0000 P1.000000
G82 X-66.0400 Y60.9600 
T01 
G00 Z19.5000 
M05
M02
