(.../pcb-gcode-3.6.0.4/pcb-gcode.ulp)
(Copyright 2005 - 2012 by John Johnson)
(See readme.txt for licensing terms.)
(This file generated from the board:)
(.../eagle/SulaMatikV1/SulaMatikV1.brd)
(Current profile is .../pcb-gcode-3.6.0.4/profiles/emc.pp  )
(This file generated 8/27/2014 9:27:52 AM)
(Settings from pcb-machine.h)
(  Tool Size)
(0.1000 )
(Z Axis Settings)
(  High     Up        Down     Drill)
(19.5000 	2.0000 	-0.0250 	-1.5000 )
(spindle on time = 1.0000)
(milling depth = -0.0500)
(text depth = -0.0500)
(tool change at 15.0000 15.0000 19.0000 )
(feed rate xy = F508.00 )
(feed rate z  = F254.00 )
(Settings from pcb-defaults.h)
(isolate min = 0.0500)
(isolate max = 1.0000)
(isolate step = 0.1000)
(Generated top outlines, top drill, bottom outlines, bottom drill, )
(Unit of measure: mm)
( Tool|       Size       |  Min Sub |  Max Sub |   Count )
( T01  0.508mm 0.0200in 0.0000in 0.0000in )
( T02  0.700mm 0.0276in 0.0000in 0.0000in )
( T03  0.813mm 0.0320in 0.0000in 0.0000in )
( T04  1.016mm 0.0400in 0.0000in 0.0000in )
( T05  1.118mm 0.0440in 0.0000in 0.0000in )
( T06  1.676mm 0.0660in 0.0000in 0.0000in )
( T07  2.800mm 0.1102in 0.0000in 0.0000in )
(Metric Mode)
G21
(Absolute Coordinates)
G90
M05
G00 Z19.0000 
G00 X15.0000 Y15.0000 
M06 T01  ; 0.5080 
G01 Z0.0000 F254.00 
M06 T01  ; 0.5080 
G00 Z2.0000 
M03
G04 P1.000000
G00 Z2.000000
G00 X32.5000 Y19.2500 
G01 Z-1.5000 F254.00 
G01 Z2.000000
(R2.0000  P1.000000)
(G00 Z2.000000)
G00 X34.5000 Y34.0000 
G01 Z-1.500000
G01 Z2.000000
(G00 Z2.000000)
G00 X34.7500 Y45.7500 
G01 Z-1.500000
G01 Z2.000000
(G00 Z2.000000)
G00 X37.0000 Y29.5000 
G01 Z-1.500000
G01 Z2.000000
(G00 Z2.000000)
G00 X44.2500 Y44.5000 
G01 Z-1.500000
G01 Z2.000000
(G00 Z2.000000)
G00 X8.5000 Y40.5000 
G01 Z-1.500000
G01 Z2.000000
(G00 Z2.000000)
G00 X10.5000 Y27.5000 
G01 Z-1.500000
G01 Z2.000000
(G00 Z2.000000)
G00 X12.2500 Y39.5000 
G01 Z-1.500000
G01 Z2.000000
(G00 Z2.000000)
G00 X15.2500 Y31.5000 
G01 Z-1.500000
G01 Z2.000000
(G00 Z2.000000)
G00 X15.2500 Y33.0000 
G01 Z-1.500000
G01 Z2.000000
(G00 Z2.000000)
G00 X30.5000 Y19.2500 
G01 Z-1.500000
G01 Z2.000000
M05
G00 Z19.0000 
M06 T02  ; 0.7000 
G01 Z0.0000 F254.00 
M06 T02  ; 0.7000 
G00 Z2.0000 
M03
G04 P1.000000
G00 Z2.000000
G00 X21.1600 Y5.0800 
G01 Z-1.5000 F254.00 
G01 Z2.000000
(R2.0000  P1.000000)
(G00 Z2.000000)
G00 X24.5600 Y5.0800 
G01 Z-1.500000
G01 Z2.000000
M05
G00 Z19.0000 
M06 T03  ; 0.8128 
G01 Z0.0000 F254.00 
M06 T03  ; 0.8128 
G00 Z2.0000 
M03
G04 P1.000000
G00 Z2.000000
G00 X3.8100 Y10.1600 
G01 Z-1.5000 F254.00 
G01 Z2.000000
(R2.0000  P1.000000)
(G00 Z2.000000)
G00 X3.8100 Y15.2400 
G01 Z-1.500000
G01 Z2.000000
(G00 Z2.000000)
G00 X5.0800 Y5.0800 
G01 Z-1.500000
G01 Z2.000000
(G00 Z2.000000)
G00 X6.3500 Y10.1600 
G01 Z-1.500000
G01 Z2.000000
(G00 Z2.000000)
G00 X6.3500 Y15.2400 
G01 Z-1.500000
G01 Z2.000000
(G00 Z2.000000)
G00 X7.6200 Y5.0800 
G01 Z-1.500000
G01 Z2.000000
(G00 Z2.000000)
G00 X8.8900 Y15.2400 
G01 Z-1.500000
G01 Z2.000000
(G00 Z2.000000)
G00 X10.1600 Y5.0800 
G01 Z-1.500000
G01 Z2.000000
(G00 Z2.000000)
G00 X11.4300 Y15.2400 
G01 Z-1.500000
G01 Z2.000000
(G00 Z2.000000)
G00 X12.7000 Y5.0800 
G01 Z-1.500000
G01 Z2.000000
(G00 Z2.000000)
G00 X13.9700 Y15.2400 
G01 Z-1.500000
G01 Z2.000000
(G00 Z2.000000)
G00 X15.2400 Y5.0800 
G01 Z-1.500000
G01 Z2.000000
(G00 Z2.000000)
G00 X16.5100 Y15.2400 
G01 Z-1.500000
G01 Z2.000000
(G00 Z2.000000)
G00 X17.7800 Y5.0800 
G01 Z-1.500000
G01 Z2.000000
(G00 Z2.000000)
G00 X19.0500 Y15.2400 
G01 Z-1.500000
G01 Z2.000000
(G00 Z2.000000)
G00 X21.5900 Y15.2400 
G01 Z-1.500000
G01 Z2.000000
(G00 Z2.000000)
G00 X2.5400 Y5.0800 
G01 Z-1.500000
G01 Z2.000000
M05
G00 Z19.0000 
M06 T04  ; 1.0160 
G01 Z0.0000 F254.00 
M06 T04  ; 1.0160 
G00 Z2.0000 
M03
G04 P1.000000
G00 Z2.000000
G00 X39.3700 Y38.1000 
G01 Z-1.5000 F254.00 
G01 Z2.000000
(R2.0000  P1.000000)
(G00 Z2.000000)
G00 X39.3700 Y40.6400 
G01 Z-1.500000
G01 Z2.000000
(G00 Z2.000000)
G00 X40.6400 Y5.0800 
G01 Z-1.500000
G01 Z2.000000
(G00 Z2.000000)
G00 X41.9100 Y31.7500 
G01 Z-1.500000
G01 Z2.000000
(G00 Z2.000000)
G00 X41.9100 Y34.2900 
G01 Z-1.500000
G01 Z2.000000
(G00 Z2.000000)
G00 X41.9100 Y36.8300 
G01 Z-1.500000
G01 Z2.000000
(G00 Z2.000000)
G00 X41.9100 Y39.3700 
G01 Z-1.500000
G01 Z2.000000
(G00 Z2.000000)
G00 X41.9100 Y41.9100 
G01 Z-1.500000
G01 Z2.000000
(G00 Z2.000000)
G00 X41.9100 Y44.4500 
G01 Z-1.500000
G01 Z2.000000
(G00 Z2.000000)
G00 X41.9100 Y46.9900 
G01 Z-1.500000
G01 Z2.000000
(G00 Z2.000000)
G00 X41.9100 Y49.5300 
G01 Z-1.500000
G01 Z2.000000
(G00 Z2.000000)
G00 X41.9100 Y21.5900 
G01 Z-1.500000
G01 Z2.000000
(G00 Z2.000000)
G00 X41.9100 Y24.1300 
G01 Z-1.500000
G01 Z2.000000
(G00 Z2.000000)
G00 X41.9100 Y26.6700 
G01 Z-1.500000
G01 Z2.000000
(G00 Z2.000000)
G00 X41.9100 Y29.2100 
G01 Z-1.500000
G01 Z2.000000
(G00 Z2.000000)
G00 X45.7200 Y7.6200 
G01 Z-1.500000
G01 Z2.000000
(G00 Z2.000000)
G00 X45.7200 Y2.5400 
G01 Z-1.500000
G01 Z2.000000
(G00 Z2.000000)
G00 X6.9088 Y43.4594 
G01 Z-1.500000
G01 Z2.000000
(G00 Z2.000000)
G00 X6.9088 Y47.9806 
G01 Z-1.500000
G01 Z2.000000
(G00 Z2.000000)
G00 X13.4112 Y43.4594 
G01 Z-1.500000
G01 Z2.000000
(G00 Z2.000000)
G00 X13.4112 Y47.9806 
G01 Z-1.500000
G01 Z2.000000
(G00 Z2.000000)
G00 X17.0688 Y43.4594 
G01 Z-1.500000
G01 Z2.000000
(G00 Z2.000000)
G00 X17.0688 Y47.9806 
G01 Z-1.500000
G01 Z2.000000
(G00 Z2.000000)
G00 X23.5712 Y43.4594 
G01 Z-1.500000
G01 Z2.000000
(G00 Z2.000000)
G00 X23.5712 Y47.9806 
G01 Z-1.500000
G01 Z2.000000
(G00 Z2.000000)
G00 X26.6700 Y31.7500 
G01 Z-1.500000
G01 Z2.000000
(G00 Z2.000000)
G00 X26.6700 Y34.2900 
G01 Z-1.500000
G01 Z2.000000
(G00 Z2.000000)
G00 X26.6700 Y36.8300 
G01 Z-1.500000
G01 Z2.000000
(G00 Z2.000000)
G00 X26.6700 Y39.3700 
G01 Z-1.500000
G01 Z2.000000
(G00 Z2.000000)
G00 X26.6700 Y41.9100 
G01 Z-1.500000
G01 Z2.000000
(G00 Z2.000000)
G00 X26.6700 Y44.4500 
G01 Z-1.500000
G01 Z2.000000
(G00 Z2.000000)
G00 X26.6700 Y46.9900 
G01 Z-1.500000
G01 Z2.000000
(G00 Z2.000000)
G00 X26.6700 Y49.5300 
G01 Z-1.500000
G01 Z2.000000
(G00 Z2.000000)
G00 X26.6700 Y21.5900 
G01 Z-1.500000
G01 Z2.000000
(G00 Z2.000000)
G00 X26.6700 Y24.1300 
G01 Z-1.500000
G01 Z2.000000
(G00 Z2.000000)
G00 X26.6700 Y26.6700 
G01 Z-1.500000
G01 Z2.000000
(G00 Z2.000000)
G00 X26.6700 Y29.2100 
G01 Z-1.500000
G01 Z2.000000
M05
G00 Z19.0000 
M06 T05  ; 1.1176 
G01 Z0.0000 F254.00 
M06 T05  ; 1.1176 
G00 Z2.0000 
M03
G04 P1.000000
G00 Z2.000000
G00 X3.8100 Y58.4200 
G01 Z-1.5000 F254.00 
G01 Z2.000000
(R2.0000  P1.000000)
(G00 Z2.000000)
G00 X7.6200 Y58.4200 
G01 Z-1.500000
G01 Z2.000000
(G00 Z2.000000)
G00 X11.4300 Y58.4200 
G01 Z-1.500000
G01 Z2.000000
M05
G00 Z19.0000 
M06 T06  ; 1.6764 
G01 Z0.0000 F254.00 
M06 T06  ; 1.6764 
G00 Z2.0000 
M03
G04 P1.000000
G00 Z2.000000
G00 X35.0012 Y5.0800 
G01 Z-1.5000 F254.00 
G01 Z2.000000
(R2.0000  P1.000000)
(G00 Z2.000000)
G00 X43.1800 Y53.8988 
G01 Z-1.500000
G01 Z2.000000
(G00 Z2.000000)
G00 X43.1800 Y57.8612 
G01 Z-1.500000
G01 Z2.000000
(G00 Z2.000000)
G00 X45.7200 Y13.2588 
G01 Z-1.500000
G01 Z2.000000
(G00 Z2.000000)
G00 X45.7200 Y17.2212 
G01 Z-1.500000
G01 Z2.000000
(G00 Z2.000000)
G00 X15.7988 Y58.4200 
G01 Z-1.500000
G01 Z2.000000
(G00 Z2.000000)
G00 X19.7612 Y58.4200 
G01 Z-1.500000
G01 Z2.000000
(G00 Z2.000000)
G00 X31.0388 Y5.0800 
G01 Z-1.500000
G01 Z2.000000
M05
G00 Z19.0000 
M06 T07  ; 2.8000 
G01 Z0.0000 F254.00 
M06 T07  ; 2.8000 
G00 Z2.0000 
M03
G04 P1.000000
G00 Z2.000000
G00 X33.0200 Y25.4000 
G01 Z-1.5000 F254.00 
G01 Z2.000000
(R2.0000  P1.000000)
T01 
G00 Z19.5000 
M05
M02
