(.../pcb-gcode-3.6.0.4/pcb-gcode.ulp)
(Copyright 2005 - 2012 by John Johnson)
(See readme.txt for licensing terms.)
(This file generated from the board:)
(.../eagle/SulaMatikV1/SulaMatikV1.brd)
(Current profile is .../pcb-gcode-3.6.0.4/profiles/emc.pp  )
(This file generated 8/27/2014 5:18:19 PM)
(Settings from pcb-machine.h)
(  Tool Size)
(0.1000 )
(Z Axis Settings)
(  High     Up        Down     Drill)
(19.5000 	2.0000 	-0.0250 	-1.5000 )
(spindle on time = 1.0000)
(milling depth = -0.0500)
(text depth = -0.0500)
(tool change at 15.0000 15.0000 19.0000 )
(feed rate xy = F508.00 )
(feed rate z  = F254.00 )
(Settings from pcb-defaults.h)
(isolate min = 0.0500)
(isolate max = 1.0000)
(isolate step = 0.1000)
(Generated top outlines, top drill, bottom outlines, bottom drill, )
(Unit of measure: mm)
(Metric Mode)
G21
(Absolute Coordinates)
G90
G00 X0.0000 Y0.0000 
M03
G04 P1.000000
G00 Z2.0000 
G00 X4.1400 Y2.4141 
G01 Z-0.0250 F254.00 
G01 X4.1400 Y2.6659 F508.00 
G01 X4.1006 Y2.9147 
G01 X4.0228 Y3.1542 
G01 X3.9084 Y3.3786 
G01 X3.7604 Y3.5823 
G01 X3.5823 Y3.7604 
G01 X3.3786 Y3.9084 
G01 X3.1542 Y4.0228 
G01 X2.9147 Y4.1006 
G01 X2.6659 Y4.1400 
G01 X2.4141 Y4.1400 
G01 X2.1653 Y4.1006 
G01 X1.9258 Y4.0228 
G01 X1.7014 Y3.9084 
G01 X1.4977 Y3.7604 
G01 X1.3196 Y3.5823 
G01 X1.1716 Y3.3786 
G01 X1.0572 Y3.1542 
G01 X0.9794 Y2.9147 
G01 X0.9400 Y2.6659 
G01 X0.9400 Y2.4141 
G01 X0.9794 Y2.1653 
G01 X1.0572 Y1.9258 
G01 X1.1716 Y1.7014 
G01 X1.3196 Y1.4977 
G01 X1.4977 Y1.3196 
G01 X1.7014 Y1.1716 
G01 X1.9258 Y1.0572 
G01 X2.1653 Y0.9794 
G01 X2.4141 Y0.9400 
G01 X2.6659 Y0.9400 
G01 X2.9147 Y0.9794 
G01 X3.1542 Y1.0572 
G01 X3.3786 Y1.1716 
G01 X3.5823 Y1.3196 
G01 X3.7604 Y1.4977 
G01 X3.9084 Y1.7014 
G01 X4.0228 Y1.9258 
G01 X4.1006 Y2.1653 
G01 X4.1400 Y2.4141 
G00 Z2.0000 
G00 X35.0000 Y46.3600 
G01 Z-0.0250 F254.00 
G01 X35.1299 Y46.3600 F508.00 
G01 X35.1666 Y46.3752 
G01 X35.1948 Y46.4034 
G01 X35.2100 Y46.4401 
G01 X35.2100 Y47.8799 
G01 X35.1948 Y47.9166 
G01 X35.1666 Y47.9448 
G01 X35.1299 Y47.9600 
G01 X34.0901 Y47.9600 
G01 X34.0534 Y47.9448 
G01 X34.0252 Y47.9166 
G01 X34.0100 Y47.8799 
G01 X34.0100 Y46.4401 
G01 X34.0252 Y46.4034 
G01 X34.0534 Y46.3752 
G01 X34.0901 Y46.3600 
G01 X34.5000 Y46.3600 
G01 X34.5000 Y44.0961 
G01 X34.4612 Y44.0380 
G01 X34.4154 Y43.9273 
G01 X34.3920 Y43.8099 
G01 X34.3920 Y43.6901 
G01 X34.4154 Y43.5727 
G01 X34.4612 Y43.4620 
G01 X34.5277 Y43.3624 
G01 X34.6124 Y43.2777 
G01 X34.7120 Y43.2112 
G01 X34.8227 Y43.1654 
G01 X34.9401 Y43.1420 
G01 X35.0599 Y43.1420 
G01 X35.1773 Y43.1654 
G01 X35.2880 Y43.2112 
G01 X35.3876 Y43.2777 
G01 X35.4723 Y43.3624 
G01 X35.5388 Y43.4620 
G01 X35.5846 Y43.5727 
G01 X35.6080 Y43.6901 
G01 X35.6080 Y43.8099 
G01 X35.5846 Y43.9273 
G01 X35.5388 Y44.0380 
G01 X35.4723 Y44.1376 
G01 X35.3876 Y44.2223 
G01 X35.2880 Y44.2888 
G01 X35.1773 Y44.3346 
G01 X35.0599 Y44.3580 
G01 X35.0000 Y44.3580 
G01 X35.0000 Y46.3600 
G00 Z2.0000 
G00 X40.0000 Y33.8964 
G01 Z-0.0250 F254.00 
G01 X40.0000 Y23.0000 F508.00 
G01 X39.5000 Y23.0000 
G01 X39.5000 Y23.4799 
G01 X39.4848 Y23.5166 
G01 X39.4566 Y23.5448 
G01 X39.4199 Y23.5600 
G01 X38.5801 Y23.5600 
G01 X38.5434 Y23.5448 
G01 X38.5152 Y23.5166 
G01 X38.5000 Y23.4799 
G01 X38.5000 Y22.2401 
G01 X38.5152 Y22.2034 
G01 X38.5434 Y22.1752 
G01 X38.5801 Y22.1600 
G01 X39.4199 Y22.1600 
G01 X39.4566 Y22.1752 
G01 X39.4848 Y22.2034 
G01 X39.5000 Y22.2401 
G01 X39.5000 Y22.5000 
G01 X45.5000 Y22.5000 
G01 X45.5000 Y18.5545 
G01 X45.4620 Y18.5388 
G01 X45.3624 Y18.4723 
G01 X45.2777 Y18.3876 
G01 X45.2112 Y18.2880 
G01 X45.1654 Y18.1773 
G01 X45.1420 Y18.0599 
G01 X45.1420 Y17.9401 
G01 X45.1654 Y17.8226 
G01 X45.2112 Y17.7120 
G01 X45.2777 Y17.6124 
G01 X45.3624 Y17.5277 
G01 X45.4620 Y17.4612 
G01 X45.5727 Y17.4154 
G01 X45.6901 Y17.3920 
G01 X45.8099 Y17.3920 
G01 X45.9273 Y17.4154 
G01 X46.0380 Y17.4612 
G01 X46.1376 Y17.5277 
G01 X46.2223 Y17.6124 
G01 X46.2888 Y17.7120 
G01 X46.3346 Y17.8226 
G01 X46.3580 Y17.9401 
G01 X46.3580 Y18.0599 
G01 X46.3346 Y18.1773 
G01 X46.2888 Y18.2880 
G01 X46.2223 Y18.3876 
G01 X46.1376 Y18.4723 
G01 X46.0380 Y18.5388 
G01 X46.0000 Y18.5545 
G01 X46.0000 Y22.7997 
G01 X45.9619 Y22.8916 
G01 X45.8916 Y22.9619 
G01 X45.7997 Y23.0000 
G01 X40.5000 Y23.0000 
G01 X40.5000 Y34.0497 
G01 X40.4619 Y34.1416 
G01 X40.3916 Y34.2119 
G01 X38.8189 Y35.7847 
G01 X38.8346 Y35.8227 
G01 X38.8580 Y35.9401 
G01 X38.8580 Y36.0599 
G01 X38.8346 Y36.1773 
G01 X38.7888 Y36.2880 
G01 X38.7223 Y36.3876 
G01 X38.6376 Y36.4723 
G01 X38.5380 Y36.5388 
G01 X38.4273 Y36.5846 
G01 X38.3099 Y36.6080 
G01 X38.1901 Y36.6080 
G01 X38.0727 Y36.5846 
G01 X37.9620 Y36.5388 
G01 X37.8624 Y36.4723 
G01 X37.7777 Y36.3876 
G01 X37.7112 Y36.2880 
G01 X37.6654 Y36.1773 
G01 X37.6420 Y36.0599 
G01 X37.6420 Y35.9401 
G01 X37.6654 Y35.8227 
G01 X37.7112 Y35.7120 
G01 X37.7777 Y35.6124 
G01 X37.8624 Y35.5277 
G01 X37.9620 Y35.4612 
G01 X38.0727 Y35.4154 
G01 X38.1901 Y35.3920 
G01 X38.3099 Y35.3920 
G01 X38.4273 Y35.4154 
G01 X38.4653 Y35.4311 
G01 X40.0000 Y33.8964 
G00 Z2.0000 
G00 X63.1428 Y36.7401 
G01 Z-0.0250 F254.00 
G01 X63.1428 Y36.9199 F508.00 
G01 X63.1077 Y37.0963 
G01 X63.0389 Y37.2624 
G01 X62.9390 Y37.4119 
G01 X62.8119 Y37.5390 
G01 X62.6624 Y37.6389 
G01 X62.4963 Y37.7077 
G01 X62.3199 Y37.7428 
G01 X62.1401 Y37.7428 
G01 X61.9637 Y37.7077 
G01 X61.7976 Y37.6389 
G01 X61.6481 Y37.5390 
G01 X61.5210 Y37.4119 
G01 X61.4211 Y37.2624 
G01 X61.3523 Y37.0963 
G01 X61.3172 Y36.9199 
G01 X61.3172 Y36.7401 
G01 X61.3523 Y36.5637 
G01 X61.4211 Y36.3976 
G01 X61.5210 Y36.2481 
G01 X61.6481 Y36.1210 
G01 X61.7976 Y36.0211 
G01 X61.9637 Y35.9523 
G01 X62.1401 Y35.9172 
G01 X62.3199 Y35.9172 
G01 X62.4963 Y35.9523 
G01 X62.6624 Y36.0211 
G01 X62.8119 Y36.1210 
G01 X62.9390 Y36.2481 
G01 X63.0389 Y36.3976 
G01 X63.1077 Y36.5637 
G01 X63.1428 Y36.7401 
G00 Z2.0000 
G00 X63.1428 Y34.2001 
G01 Z-0.0250 F254.00 
G01 X63.1428 Y34.3799 F508.00 
G01 X63.1077 Y34.5563 
G01 X63.0389 Y34.7224 
G01 X62.9390 Y34.8719 
G01 X62.8119 Y34.9990 
G01 X62.6624 Y35.0989 
G01 X62.4963 Y35.1677 
G01 X62.3199 Y35.2028 
G01 X62.1401 Y35.2028 
G01 X61.9637 Y35.1677 
G01 X61.7976 Y35.0989 
G01 X61.6481 Y34.9990 
G01 X61.5210 Y34.8719 
G01 X61.4211 Y34.7224 
G01 X61.3523 Y34.5563 
G01 X61.3172 Y34.3799 
G01 X61.3172 Y34.2001 
G01 X61.3523 Y34.0237 
G01 X61.4211 Y33.8576 
G01 X61.5210 Y33.7081 
G01 X61.6481 Y33.5810 
G01 X61.7976 Y33.4811 
G01 X61.9637 Y33.4123 
G01 X62.1401 Y33.3772 
G01 X62.3199 Y33.3772 
G01 X62.4963 Y33.4123 
G01 X62.6624 Y33.4811 
G01 X62.8119 Y33.5810 
G01 X62.9390 Y33.7081 
G01 X63.0389 Y33.8576 
G01 X63.1077 Y34.0237 
G01 X63.1428 Y34.2001 
G00 Z2.0000 
G00 X63.1428 Y31.6601 
G01 Z-0.0250 F254.00 
G01 X63.1428 Y31.8399 F508.00 
G01 X63.1077 Y32.0163 
G01 X63.0389 Y32.1824 
G01 X62.9390 Y32.3319 
G01 X62.8119 Y32.4590 
G01 X62.6624 Y32.5589 
G01 X62.4963 Y32.6277 
G01 X62.3199 Y32.6628 
G01 X62.1401 Y32.6628 
G01 X61.9637 Y32.6277 
G01 X61.7976 Y32.5589 
G01 X61.6481 Y32.4590 
G01 X61.5210 Y32.3319 
G01 X61.4211 Y32.1824 
G01 X61.3523 Y32.0163 
G01 X61.3172 Y31.8399 
G01 X61.3172 Y31.6601 
G01 X61.3523 Y31.4837 
G01 X61.4211 Y31.3176 
G01 X61.5210 Y31.1681 
G01 X61.6481 Y31.0410 
G01 X61.7976 Y30.9411 
G01 X61.9637 Y30.8723 
G01 X62.1401 Y30.8372 
G01 X62.3199 Y30.8372 
G01 X62.4963 Y30.8723 
G01 X62.6624 Y30.9411 
G01 X62.8119 Y31.0410 
G01 X62.9390 Y31.1681 
G01 X63.0389 Y31.3176 
G01 X63.1077 Y31.4837 
G01 X63.1428 Y31.6601 
G00 Z2.0000 
G00 X63.1428 Y26.5801 
G01 Z-0.0250 F254.00 
G01 X63.1428 Y26.7599 F508.00 
G01 X63.1077 Y26.9363 
G01 X63.0389 Y27.1024 
G01 X62.9390 Y27.2519 
G01 X62.8119 Y27.3790 
G01 X62.6624 Y27.4789 
G01 X62.4963 Y27.5477 
G01 X62.3199 Y27.5828 
G01 X62.1401 Y27.5828 
G01 X61.9637 Y27.5477 
G01 X61.7976 Y27.4789 
G01 X61.6481 Y27.3790 
G01 X61.5210 Y27.2519 
G01 X61.4211 Y27.1024 
G01 X61.3523 Y26.9363 
G01 X61.3172 Y26.7599 
G01 X61.3172 Y26.5801 
G01 X61.3523 Y26.4037 
G01 X61.4211 Y26.2376 
G01 X61.5210 Y26.0881 
G01 X61.6481 Y25.9610 
G01 X61.7976 Y25.8611 
G01 X61.9637 Y25.7923 
G01 X62.1401 Y25.7572 
G01 X62.3199 Y25.7572 
G01 X62.4963 Y25.7923 
G01 X62.6624 Y25.8611 
G01 X62.8119 Y25.9610 
G01 X62.9390 Y26.0881 
G01 X63.0389 Y26.2376 
G01 X63.1077 Y26.4037 
G01 X63.1428 Y26.5801 
G00 Z2.0000 
G00 X63.1428 Y21.5001 
G01 Z-0.0250 F254.00 
G01 X63.1428 Y21.6799 F508.00 
G01 X63.1077 Y21.8563 
G01 X63.0389 Y22.0224 
G01 X62.9390 Y22.1719 
G01 X62.8119 Y22.2990 
G01 X62.6624 Y22.3989 
G01 X62.4963 Y22.4677 
G01 X62.3199 Y22.5028 
G01 X62.1401 Y22.5028 
G01 X61.9637 Y22.4677 
G01 X61.7976 Y22.3989 
G01 X61.7419 Y22.3617 
G01 X61.2500 Y22.8536 
G01 X61.2500 Y28.5497 
G01 X61.2119 Y28.6416 
G01 X46.7119 Y43.1416 
G01 X46.6416 Y43.2119 
G01 X46.5497 Y43.2500 
G01 X44.5800 Y43.2500 
G01 X44.5800 Y43.7999 
G01 X44.5648 Y43.8366 
G01 X44.5366 Y43.8648 
G01 X44.4999 Y43.8800 
G01 X43.7236 Y43.8800 
G01 X42.2500 Y45.3536 
G01 X42.2500 Y46.8116 
G01 X42.2942 Y46.8299 
G01 X42.4271 Y46.9187 
G01 X42.5401 Y47.0317 
G01 X42.6289 Y47.1646 
G01 X42.6900 Y47.3122 
G01 X42.7212 Y47.4689 
G01 X42.7212 Y49.0511 
G01 X42.6900 Y49.2078 
G01 X42.6289 Y49.3554 
G01 X42.5401 Y49.4883 
G01 X42.4271 Y49.6013 
G01 X42.2942 Y49.6901 
G01 X42.1466 Y49.7512 
G01 X41.9899 Y49.7824 
G01 X41.8301 Y49.7824 
G01 X41.6734 Y49.7512 
G01 X41.5258 Y49.6901 
G01 X41.3929 Y49.6013 
G01 X41.2799 Y49.4883 
G01 X41.1911 Y49.3554 
G01 X41.1300 Y49.2078 
G01 X41.0988 Y49.0511 
G01 X41.0988 Y47.4689 
G01 X41.1300 Y47.3122 
G01 X41.1911 Y47.1646 
G01 X41.2799 Y47.0317 
G01 X41.3929 Y46.9187 
G01 X41.5258 Y46.8299 
G01 X41.6734 Y46.7688 
G01 X41.7500 Y46.7535 
G01 X41.7500 Y45.2003 
G01 X41.7881 Y45.1084 
G01 X41.8584 Y45.0381 
G01 X43.5800 Y43.3164 
G01 X43.5800 Y42.5601 
G01 X43.5952 Y42.5234 
G01 X43.6234 Y42.4952 
G01 X43.6601 Y42.4800 
G01 X44.4999 Y42.4800 
G01 X44.5366 Y42.4952 
G01 X44.5648 Y42.5234 
G01 X44.5800 Y42.5601 
G01 X44.5800 Y42.7500 
G01 X46.3964 Y42.7500 
G01 X60.7500 Y28.3964 
G01 X60.7500 Y22.7003 
G01 X60.7881 Y22.6084 
G01 X60.8584 Y22.5381 
G01 X61.4073 Y21.9891 
G01 X61.3523 Y21.8563 
G01 X61.3172 Y21.6799 
G01 X61.3172 Y21.5001 
G01 X61.3523 Y21.3237 
G01 X61.4211 Y21.1576 
G01 X61.5210 Y21.0081 
G01 X61.6481 Y20.8810 
G01 X61.7976 Y20.7811 
G01 X61.9637 Y20.7123 
G01 X62.1401 Y20.6772 
G01 X62.3199 Y20.6772 
G01 X62.4963 Y20.7123 
G01 X62.6624 Y20.7811 
G01 X62.8119 Y20.8810 
G01 X62.9390 Y21.0081 
G01 X63.0389 Y21.1576 
G01 X63.1077 Y21.3237 
G01 X63.1428 Y21.5001 
G00 Z2.0000 
G00 X63.1428 Y18.9601 
G01 Z-0.0250 F254.00 
G01 X63.1428 Y19.1399 F508.00 
G01 X63.1077 Y19.3163 
G01 X63.0389 Y19.4824 
G01 X62.9390 Y19.6319 
G01 X62.8119 Y19.7590 
G01 X62.6624 Y19.8589 
G01 X62.4963 Y19.9277 
G01 X62.3199 Y19.9628 
G01 X62.1401 Y19.9628 
G01 X61.9637 Y19.9277 
G01 X61.7976 Y19.8589 
G01 X61.6481 Y19.7590 
G01 X61.5210 Y19.6319 
G01 X61.4211 Y19.4824 
G01 X61.3523 Y19.3163 
G01 X61.3172 Y19.1399 
G01 X61.3172 Y18.9601 
G01 X61.3523 Y18.7837 
G01 X61.4211 Y18.6176 
G01 X61.5210 Y18.4681 
G01 X61.6481 Y18.3410 
G01 X61.7976 Y18.2411 
G01 X61.9637 Y18.1723 
G01 X62.1401 Y18.1372 
G01 X62.3199 Y18.1372 
G01 X62.4963 Y18.1723 
G01 X62.6624 Y18.2411 
G01 X62.8119 Y18.3410 
G01 X62.9390 Y18.4681 
G01 X63.0389 Y18.6176 
G01 X63.1077 Y18.7837 
G01 X63.1428 Y18.9601 
G00 Z2.0000 
G00 X63.1428 Y16.4201 
G01 Z-0.0250 F254.00 
G01 X63.1428 Y16.5999 F508.00 
G01 X63.1077 Y16.7763 
G01 X63.0389 Y16.9424 
G01 X62.9390 Y17.0919 
G01 X62.8119 Y17.2190 
G01 X62.6624 Y17.3189 
G01 X62.4963 Y17.3877 
G01 X62.3199 Y17.4228 
G01 X62.1401 Y17.4228 
G01 X61.9637 Y17.3877 
G01 X61.7976 Y17.3189 
G01 X61.7898 Y17.3137 
G01 X58.5000 Y20.6036 
G01 X58.5000 Y27.2997 
G01 X58.4619 Y27.3916 
G01 X58.3916 Y27.4619 
G01 X55.7500 Y30.1036 
G01 X55.7500 Y33.0497 
G01 X55.7119 Y33.1416 
G01 X55.6416 Y33.2119 
G01 X55.5497 Y33.2500 
G01 X46.6036 Y33.2500 
G01 X46.0000 Y33.8536 
G01 X46.0000 Y34.5497 
G01 X45.9619 Y34.6416 
G01 X45.8916 Y34.7119 
G01 X44.9619 Y35.6416 
G01 X44.8916 Y35.7119 
G01 X43.8625 Y36.7411 
G01 X43.8800 Y36.7801 
G01 X43.8800 Y37.6199 
G01 X43.8648 Y37.6566 
G01 X43.8366 Y37.6848 
G01 X43.7999 Y37.7000 
G01 X42.5601 Y37.7000 
G01 X42.5234 Y37.6848 
G01 X42.4952 Y37.6566 
G01 X42.4800 Y37.6199 
G01 X42.4800 Y36.7801 
G01 X42.4952 Y36.7434 
G01 X42.5234 Y36.7152 
G01 X42.5601 Y36.7000 
G01 X43.1964 Y36.7000 
G01 X44.2885 Y35.6080 
G01 X44.1901 Y35.6080 
G01 X44.0727 Y35.5846 
G01 X43.9620 Y35.5388 
G01 X43.8624 Y35.4723 
G01 X43.7777 Y35.3876 
G01 X43.7112 Y35.2880 
G01 X43.6654 Y35.1773 
G01 X43.6420 Y35.0599 
G01 X43.6420 Y34.9401 
G01 X43.6654 Y34.8227 
G01 X43.7112 Y34.7120 
G01 X43.7777 Y34.6124 
G01 X43.8624 Y34.5277 
G01 X43.9620 Y34.4612 
G01 X44.0727 Y34.4154 
G01 X44.1901 Y34.3920 
G01 X44.3099 Y34.3920 
G01 X44.4273 Y34.4154 
G01 X44.5380 Y34.4612 
G01 X44.6376 Y34.5277 
G01 X44.7223 Y34.6124 
G01 X44.7888 Y34.7120 
G01 X44.8346 Y34.8227 
G01 X44.8580 Y34.9401 
G01 X44.8580 Y35.0385 
G01 X45.5000 Y34.3964 
G01 X45.5000 Y33.7003 
G01 X45.5381 Y33.6084 
G01 X46.2881 Y32.8584 
G01 X46.3584 Y32.7881 
G01 X46.4503 Y32.7500 
G01 X55.2500 Y32.7500 
G01 X55.2500 Y29.9503 
G01 X55.2881 Y29.8584 
G01 X58.0000 Y27.1464 
G01 X58.0000 Y20.4503 
G01 X58.0381 Y20.3584 
G01 X61.4343 Y16.9621 
G01 X61.4211 Y16.9424 
G01 X61.3523 Y16.7763 
G01 X61.3172 Y16.5999 
G01 X61.3172 Y16.4201 
G01 X61.3523 Y16.2437 
G01 X61.4211 Y16.0776 
G01 X61.5210 Y15.9281 
G01 X61.6481 Y15.8010 
G01 X61.7976 Y15.7011 
G01 X61.9637 Y15.6323 
G01 X62.1401 Y15.5972 
G01 X62.3199 Y15.5972 
G01 X62.4963 Y15.6323 
G01 X62.6624 Y15.7011 
G01 X62.8119 Y15.8010 
G01 X62.9390 Y15.9281 
G01 X63.0389 Y16.0776 
G01 X63.1077 Y16.2437 
G01 X63.1428 Y16.4201 
G00 Z2.0000 
G00 X63.1428 Y11.3401 
G01 Z-0.0250 F254.00 
G01 X63.1428 Y11.5199 F508.00 
G01 X63.1077 Y11.6963 
G01 X63.0389 Y11.8624 
G01 X62.9390 Y12.0119 
G01 X62.8119 Y12.1390 
G01 X62.6624 Y12.2389 
G01 X62.4963 Y12.3077 
G01 X62.3199 Y12.3428 
G01 X62.1401 Y12.3428 
G01 X61.9637 Y12.3077 
G01 X61.7976 Y12.2389 
G01 X61.6481 Y12.1390 
G01 X61.5210 Y12.0119 
G01 X61.4211 Y11.8624 
G01 X61.3523 Y11.6963 
G01 X61.3172 Y11.5199 
G01 X61.3172 Y11.3401 
G01 X61.3523 Y11.1637 
G01 X61.4211 Y10.9976 
G01 X61.5210 Y10.8481 
G01 X61.6481 Y10.7210 
G01 X61.7976 Y10.6211 
G01 X61.9637 Y10.5523 
G01 X62.1401 Y10.5172 
G01 X62.3199 Y10.5172 
G01 X62.4963 Y10.5523 
G01 X62.6624 Y10.6211 
G01 X62.8119 Y10.7210 
G01 X62.9390 Y10.8481 
G01 X63.0389 Y10.9976 
G01 X63.1077 Y11.1637 
G01 X63.1428 Y11.3401 
G00 Z2.0000 
G00 X63.1428 Y8.8001 
G01 Z-0.0250 F254.00 
G01 X63.1428 Y8.9799 F508.00 
G01 X63.1077 Y9.1563 
G01 X63.0389 Y9.3224 
G01 X62.9390 Y9.4719 
G01 X62.8119 Y9.5990 
G01 X62.6624 Y9.6989 
G01 X62.4963 Y9.7677 
G01 X62.3199 Y9.8028 
G01 X62.1401 Y9.8028 
G01 X61.9637 Y9.7677 
G01 X61.7976 Y9.6989 
G01 X61.6481 Y9.5990 
G01 X61.5210 Y9.4719 
G01 X61.4211 Y9.3224 
G01 X61.3523 Y9.1563 
G01 X61.3172 Y8.9799 
G01 X61.3172 Y8.8001 
G01 X61.3523 Y8.6237 
G01 X61.4211 Y8.4576 
G01 X61.5210 Y8.3081 
G01 X61.6481 Y8.1810 
G01 X61.7976 Y8.0811 
G01 X61.9637 Y8.0123 
G01 X62.1401 Y7.9772 
G01 X62.3199 Y7.9772 
G01 X62.4963 Y8.0123 
G01 X62.6624 Y8.0811 
G01 X62.8119 Y8.1810 
G01 X62.9390 Y8.3081 
G01 X63.0389 Y8.4576 
G01 X63.1077 Y8.6237 
G01 X63.1428 Y8.8001 
G00 Z2.0000 
G00 X47.9028 Y8.8001 
G01 Z-0.0250 F254.00 
G01 X47.9028 Y8.9799 F508.00 
G01 X47.8677 Y9.1563 
G01 X47.7989 Y9.3224 
G01 X47.6990 Y9.4719 
G01 X47.5719 Y9.5990 
G01 X47.4224 Y9.6989 
G01 X47.2563 Y9.7677 
G01 X47.0799 Y9.8028 
G01 X46.9001 Y9.8028 
G01 X46.7237 Y9.7677 
G01 X46.5576 Y9.6989 
G01 X46.4081 Y9.5990 
G01 X46.2810 Y9.4719 
G01 X46.1811 Y9.3224 
G01 X46.1123 Y9.1563 
G01 X46.0772 Y8.9799 
G01 X46.0772 Y8.8001 
G01 X46.1123 Y8.6237 
G01 X46.1811 Y8.4576 
G01 X46.2810 Y8.3081 
G01 X46.4081 Y8.1810 
G01 X46.5576 Y8.0811 
G01 X46.7237 Y8.0123 
G01 X46.9001 Y7.9772 
G01 X47.0799 Y7.9772 
G01 X47.2563 Y8.0123 
G01 X47.4224 Y8.0811 
G01 X47.5719 Y8.1810 
G01 X47.6990 Y8.3081 
G01 X47.7989 Y8.4576 
G01 X47.8677 Y8.6237 
G01 X47.9028 Y8.8001 
G00 Z2.0000 
G00 X47.9028 Y11.3401 
G01 Z-0.0250 F254.00 
G01 X47.9028 Y11.5199 F508.00 
G01 X47.8677 Y11.6963 
G01 X47.7989 Y11.8624 
G01 X47.6990 Y12.0119 
G01 X47.5719 Y12.1390 
G01 X47.4224 Y12.2389 
G01 X47.2563 Y12.3077 
G01 X47.0799 Y12.3428 
G01 X46.9001 Y12.3428 
G01 X46.7237 Y12.3077 
G01 X46.5576 Y12.2389 
G01 X46.4081 Y12.1390 
G01 X46.2810 Y12.0119 
G01 X46.1811 Y11.8624 
G01 X46.1123 Y11.6963 
G01 X46.0772 Y11.5199 
G01 X46.0772 Y11.3401 
G01 X46.1123 Y11.1637 
G01 X46.1811 Y10.9976 
G01 X46.2810 Y10.8481 
G01 X46.4081 Y10.7210 
G01 X46.5576 Y10.6211 
G01 X46.7237 Y10.5523 
G01 X46.9001 Y10.5172 
G01 X47.0799 Y10.5172 
G01 X47.2563 Y10.5523 
G01 X47.4224 Y10.6211 
G01 X47.5719 Y10.7210 
G01 X47.6990 Y10.8481 
G01 X47.7989 Y10.9976 
G01 X47.8677 Y11.1637 
G01 X47.9028 Y11.3401 
G00 Z2.0000 
G00 X47.9028 Y13.8801 
G01 Z-0.0250 F254.00 
G01 X47.9028 Y14.0599 F508.00 
G01 X47.8677 Y14.2363 
G01 X47.7989 Y14.4024 
G01 X47.6990 Y14.5519 
G01 X47.5719 Y14.6790 
G01 X47.4224 Y14.7789 
G01 X47.2563 Y14.8477 
G01 X47.0799 Y14.8828 
G01 X46.9001 Y14.8828 
G01 X46.7237 Y14.8477 
G01 X46.5576 Y14.7789 
G01 X46.4081 Y14.6790 
G01 X46.2810 Y14.5519 
G01 X46.1811 Y14.4024 
G01 X46.1123 Y14.2363 
G01 X46.0772 Y14.0599 
G01 X46.0772 Y13.8801 
G01 X46.1123 Y13.7037 
G01 X46.1811 Y13.5376 
G01 X46.2810 Y13.3881 
G01 X46.4081 Y13.2610 
G01 X46.5576 Y13.1611 
G01 X46.7237 Y13.0923 
G01 X46.9001 Y13.0572 
G01 X47.0799 Y13.0572 
G01 X47.2563 Y13.0923 
G01 X47.4224 Y13.1611 
G01 X47.5719 Y13.2610 
G01 X47.6990 Y13.3881 
G01 X47.7989 Y13.5376 
G01 X47.8677 Y13.7037 
G01 X47.9028 Y13.8801 
G00 Z2.0000 
G00 X47.9028 Y16.4201 
G01 Z-0.0250 F254.00 
G01 X47.9028 Y16.5999 F508.00 
G01 X47.8677 Y16.7763 
G01 X47.7989 Y16.9424 
G01 X47.6990 Y17.0919 
G01 X47.5719 Y17.2190 
G01 X47.4224 Y17.3189 
G01 X47.2563 Y17.3877 
G01 X47.0799 Y17.4228 
G01 X46.9001 Y17.4228 
G01 X46.7237 Y17.3877 
G01 X46.5576 Y17.3189 
G01 X46.4081 Y17.2190 
G01 X46.2810 Y17.0919 
G01 X46.1811 Y16.9424 
G01 X46.1123 Y16.7763 
G01 X46.0772 Y16.5999 
G01 X46.0772 Y16.4201 
G01 X46.1123 Y16.2437 
G01 X46.1811 Y16.0776 
G01 X46.2810 Y15.9281 
G01 X46.4081 Y15.8010 
G01 X46.5576 Y15.7011 
G01 X46.7237 Y15.6323 
G01 X46.9001 Y15.5972 
G01 X47.0799 Y15.5972 
G01 X47.2563 Y15.6323 
G01 X47.4224 Y15.7011 
G01 X47.5719 Y15.8010 
G01 X47.6990 Y15.9281 
G01 X47.7989 Y16.0776 
G01 X47.8677 Y16.2437 
G01 X47.9028 Y16.4201 
G00 Z2.0000 
G00 X47.9028 Y18.9601 
G01 Z-0.0250 F254.00 
G01 X47.9028 Y19.1399 F508.00 
G01 X47.8677 Y19.3163 
G01 X47.7989 Y19.4824 
G01 X47.6990 Y19.6319 
G01 X47.5719 Y19.7590 
G01 X47.4224 Y19.8589 
G01 X47.2563 Y19.9277 
G01 X47.0799 Y19.9628 
G01 X46.9001 Y19.9628 
G01 X46.7237 Y19.9277 
G01 X46.5576 Y19.8589 
G01 X46.4081 Y19.7590 
G01 X46.2810 Y19.6319 
G01 X46.1811 Y19.4824 
G01 X46.1123 Y19.3163 
G01 X46.0772 Y19.1399 
G01 X46.0772 Y18.9601 
G01 X46.1123 Y18.7837 
G01 X46.1811 Y18.6176 
G01 X46.2810 Y18.4681 
G01 X46.4081 Y18.3410 
G01 X46.5576 Y18.2411 
G01 X46.7237 Y18.1723 
G01 X46.9001 Y18.1372 
G01 X47.0799 Y18.1372 
G01 X47.2563 Y18.1723 
G01 X47.4224 Y18.2411 
G01 X47.5719 Y18.3410 
G01 X47.6990 Y18.4681 
G01 X47.7989 Y18.6176 
G01 X47.8677 Y18.7837 
G01 X47.9028 Y18.9601 
G00 Z2.0000 
G00 X47.9028 Y21.5001 
G01 Z-0.0250 F254.00 
G01 X47.9028 Y21.6799 F508.00 
G01 X47.8677 Y21.8563 
G01 X47.7989 Y22.0224 
G01 X47.6990 Y22.1719 
G01 X47.5719 Y22.2990 
G01 X47.4224 Y22.3989 
G01 X47.2563 Y22.4677 
G01 X47.0799 Y22.5028 
G01 X46.9001 Y22.5028 
G01 X46.7237 Y22.4677 
G01 X46.5576 Y22.3989 
G01 X46.4081 Y22.2990 
G01 X46.2810 Y22.1719 
G01 X46.1811 Y22.0224 
G01 X46.1123 Y21.8563 
G01 X46.0772 Y21.6799 
G01 X46.0772 Y21.5001 
G01 X46.1123 Y21.3237 
G01 X46.1811 Y21.1576 
G01 X46.2810 Y21.0081 
G01 X46.4081 Y20.8810 
G01 X46.5576 Y20.7811 
G01 X46.7237 Y20.7123 
G01 X46.9001 Y20.6772 
G01 X47.0799 Y20.6772 
G01 X47.2563 Y20.7123 
G01 X47.4224 Y20.7811 
G01 X47.5719 Y20.8810 
G01 X47.6990 Y21.0081 
G01 X47.7989 Y21.1576 
G01 X47.8677 Y21.3237 
G01 X47.9028 Y21.5001 
G00 Z2.0000 
G00 X47.9028 Y24.0401 
G01 Z-0.0250 F254.00 
G01 X47.9028 Y24.2199 F508.00 
G01 X47.8677 Y24.3963 
G01 X47.7989 Y24.5624 
G01 X47.7456 Y24.6421 
G01 X48.4619 Y25.3584 
G01 X48.5000 Y25.4503 
G01 X48.5000 Y30.5497 
G01 X48.4619 Y30.6416 
G01 X48.3916 Y30.7119 
G01 X48.2997 Y30.7500 
G01 X46.6036 Y30.7500 
G01 X46.0000 Y31.3536 
G01 X46.0000 Y32.0497 
G01 X45.9619 Y32.1416 
G01 X45.8916 Y32.2119 
G01 X45.7997 Y32.2500 
G01 X43.8800 Y32.2500 
G01 X43.8800 Y32.5399 
G01 X43.8648 Y32.5766 
G01 X43.8366 Y32.6048 
G01 X43.7999 Y32.6200 
G01 X42.5601 Y32.6200 
G01 X42.5234 Y32.6048 
G01 X42.4952 Y32.5766 
G01 X42.4800 Y32.5399 
G01 X42.4800 Y31.7001 
G01 X42.4952 Y31.6634 
G01 X42.5234 Y31.6352 
G01 X42.5601 Y31.6200 
G01 X43.7999 Y31.6200 
G01 X43.8366 Y31.6352 
G01 X43.8648 Y31.6634 
G01 X43.8800 Y31.7001 
G01 X43.8800 Y31.7500 
G01 X45.5000 Y31.7500 
G01 X45.5000 Y31.2003 
G01 X45.5381 Y31.1084 
G01 X46.2881 Y30.3584 
G01 X46.3584 Y30.2881 
G01 X46.4503 Y30.2500 
G01 X48.0000 Y30.2500 
G01 X48.0000 Y25.6036 
G01 X47.3608 Y24.9644 
G01 X47.2563 Y25.0077 
G01 X47.0799 Y25.0428 
G01 X46.9001 Y25.0428 
G01 X46.7237 Y25.0077 
G01 X46.5576 Y24.9389 
G01 X46.4081 Y24.8390 
G01 X46.2810 Y24.7119 
G01 X46.1811 Y24.5624 
G01 X46.1123 Y24.3963 
G01 X46.0772 Y24.2199 
G01 X46.0772 Y24.0401 
G01 X46.1123 Y23.8637 
G01 X46.1811 Y23.6976 
G01 X46.2810 Y23.5481 
G01 X46.4081 Y23.4210 
G01 X46.5576 Y23.3211 
G01 X46.7237 Y23.2523 
G01 X46.9001 Y23.2172 
G01 X47.0799 Y23.2172 
G01 X47.2563 Y23.2523 
G01 X47.4224 Y23.3211 
G01 X47.5719 Y23.4210 
G01 X47.6990 Y23.5481 
G01 X47.7989 Y23.6976 
G01 X47.8677 Y23.8637 
G01 X47.9028 Y24.0401 
G00 Z2.0000 
G00 X47.9028 Y26.5801 
G01 Z-0.0250 F254.00 
G01 X47.9028 Y26.7599 F508.00 
G01 X47.8677 Y26.9363 
G01 X47.7989 Y27.1024 
G01 X47.6990 Y27.2519 
G01 X47.5719 Y27.3790 
G01 X47.4224 Y27.4789 
G01 X47.2563 Y27.5477 
G01 X47.0799 Y27.5828 
G01 X46.9001 Y27.5828 
G01 X46.7237 Y27.5477 
G01 X46.5576 Y27.4789 
G01 X46.4081 Y27.3790 
G01 X46.2810 Y27.2519 
G01 X46.1811 Y27.1024 
G01 X46.1123 Y26.9363 
G01 X46.0772 Y26.7599 
G01 X46.0772 Y26.5801 
G01 X46.1123 Y26.4037 
G01 X46.1811 Y26.2376 
G01 X46.2810 Y26.0881 
G01 X46.4081 Y25.9610 
G01 X46.5576 Y25.8611 
G01 X46.7237 Y25.7923 
G01 X46.9001 Y25.7572 
G01 X47.0799 Y25.7572 
G01 X47.2563 Y25.7923 
G01 X47.4224 Y25.8611 
G01 X47.5719 Y25.9610 
G01 X47.6990 Y26.0881 
G01 X47.7989 Y26.2376 
G01 X47.8677 Y26.4037 
G01 X47.9028 Y26.5801 
G00 Z2.0000 
G00 X47.9028 Y31.6601 
G01 Z-0.0250 F254.00 
G01 X47.9028 Y31.8399 F508.00 
G01 X47.8677 Y32.0163 
G01 X47.7989 Y32.1824 
G01 X47.6990 Y32.3319 
G01 X47.5719 Y32.4590 
G01 X47.4224 Y32.5589 
G01 X47.2563 Y32.6277 
G01 X47.0799 Y32.6628 
G01 X46.9001 Y32.6628 
G01 X46.7237 Y32.6277 
G01 X46.5576 Y32.5589 
G01 X46.4081 Y32.4590 
G01 X46.2810 Y32.3319 
G01 X46.1811 Y32.1824 
G01 X46.1123 Y32.0163 
G01 X46.0772 Y31.8399 
G01 X46.0772 Y31.6601 
G01 X46.1123 Y31.4837 
G01 X46.1811 Y31.3176 
G01 X46.2810 Y31.1681 
G01 X46.4081 Y31.0410 
G01 X46.5576 Y30.9411 
G01 X46.7237 Y30.8723 
G01 X46.9001 Y30.8372 
G01 X47.0799 Y30.8372 
G01 X47.2563 Y30.8723 
G01 X47.4224 Y30.9411 
G01 X47.5719 Y31.0410 
G01 X47.6990 Y31.1681 
G01 X47.7989 Y31.3176 
G01 X47.8677 Y31.4837 
G01 X47.9028 Y31.6601 
G00 Z2.0000 
G00 X47.9028 Y34.2001 
G01 Z-0.0250 F254.00 
G01 X47.9028 Y34.3799 F508.00 
G01 X47.8677 Y34.5563 
G01 X47.7989 Y34.7224 
G01 X47.6990 Y34.8719 
G01 X47.5719 Y34.9990 
G01 X47.4224 Y35.0989 
G01 X47.2563 Y35.1677 
G01 X47.0799 Y35.2028 
G01 X46.9001 Y35.2028 
G01 X46.7237 Y35.1677 
G01 X46.5576 Y35.0989 
G01 X46.4081 Y34.9990 
G01 X46.2810 Y34.8719 
G01 X46.1811 Y34.7224 
G01 X46.1123 Y34.5563 
G01 X46.0772 Y34.3799 
G01 X46.0772 Y34.2001 
G01 X46.1123 Y34.0237 
G01 X46.1811 Y33.8576 
G01 X46.2810 Y33.7081 
G01 X46.4081 Y33.5810 
G01 X46.5576 Y33.4811 
G01 X46.7237 Y33.4123 
G01 X46.9001 Y33.3772 
G01 X47.0799 Y33.3772 
G01 X47.2563 Y33.4123 
G01 X47.4224 Y33.4811 
G01 X47.5719 Y33.5810 
G01 X47.6990 Y33.7081 
G01 X47.7989 Y33.8576 
G01 X47.8677 Y34.0237 
G01 X47.9028 Y34.2001 
G00 Z2.0000 
G00 X47.9028 Y36.7401 
G01 Z-0.0250 F254.00 
G01 X47.9028 Y36.9199 F508.00 
G01 X47.8677 Y37.0963 
G01 X47.7989 Y37.2624 
G01 X47.6990 Y37.4119 
G01 X47.5719 Y37.5390 
G01 X47.4224 Y37.6389 
G01 X47.2563 Y37.7077 
G01 X47.0799 Y37.7428 
G01 X46.9001 Y37.7428 
G01 X46.7237 Y37.7077 
G01 X46.5576 Y37.6389 
G01 X46.4081 Y37.5390 
G01 X46.2810 Y37.4119 
G01 X46.1811 Y37.2624 
G01 X46.1123 Y37.0963 
G01 X46.0772 Y36.9199 
G01 X46.0772 Y36.7401 
G01 X46.1123 Y36.5637 
G01 X46.1811 Y36.3976 
G01 X46.2810 Y36.2481 
G01 X46.4081 Y36.1210 
G01 X46.5576 Y36.0211 
G01 X46.7237 Y35.9523 
G01 X46.9001 Y35.9172 
G01 X47.0799 Y35.9172 
G01 X47.2563 Y35.9523 
G01 X47.4224 Y36.0211 
G01 X47.5719 Y36.1210 
G01 X47.6990 Y36.2481 
G01 X47.7989 Y36.3976 
G01 X47.8677 Y36.5637 
G01 X47.9028 Y36.7401 
G00 Z2.0000 
G00 X60.6028 Y25.3101 
G01 Z-0.0250 F254.00 
G01 X60.6028 Y25.4899 F508.00 
G01 X60.5677 Y25.6663 
G01 X60.4989 Y25.8324 
G01 X60.3990 Y25.9819 
G01 X60.2719 Y26.1090 
G01 X60.1224 Y26.2089 
G01 X59.9563 Y26.2777 
G01 X59.7799 Y26.3128 
G01 X59.6001 Y26.3128 
G01 X59.4237 Y26.2777 
G01 X59.2576 Y26.2089 
G01 X59.1081 Y26.1090 
G01 X58.9810 Y25.9819 
G01 X58.8811 Y25.8324 
G01 X58.8123 Y25.6663 
G01 X58.7772 Y25.4899 
G01 X58.7772 Y25.3101 
G01 X58.8123 Y25.1337 
G01 X58.8811 Y24.9676 
G01 X58.9810 Y24.8181 
G01 X59.1081 Y24.6910 
G01 X59.2576 Y24.5911 
G01 X59.4237 Y24.5223 
G01 X59.6001 Y24.4872 
G01 X59.7799 Y24.4872 
G01 X59.9563 Y24.5223 
G01 X60.1224 Y24.5911 
G01 X60.2719 Y24.6910 
G01 X60.3990 Y24.8181 
G01 X60.4989 Y24.9676 
G01 X60.5677 Y25.1337 
G01 X60.6028 Y25.3101 
G00 Z2.0000 
G00 X60.6028 Y27.8501 
G01 Z-0.0250 F254.00 
G01 X60.6028 Y28.0299 F508.00 
G01 X60.5677 Y28.2063 
G01 X60.4989 Y28.3724 
G01 X60.3990 Y28.5219 
G01 X60.2719 Y28.6490 
G01 X60.1224 Y28.7489 
G01 X59.9563 Y28.8177 
G01 X59.7799 Y28.8528 
G01 X59.6001 Y28.8528 
G01 X59.4237 Y28.8177 
G01 X59.2576 Y28.7489 
G01 X59.1081 Y28.6490 
G01 X58.9810 Y28.5219 
G01 X58.8811 Y28.3724 
G01 X58.8123 Y28.2063 
G01 X58.7772 Y28.0299 
G01 X58.7772 Y27.8501 
G01 X58.8123 Y27.6737 
G01 X58.8811 Y27.5076 
G01 X58.9810 Y27.3581 
G01 X59.1081 Y27.2310 
G01 X59.2576 Y27.1311 
G01 X59.4237 Y27.0623 
G01 X59.6001 Y27.0272 
G01 X59.7799 Y27.0272 
G01 X59.9563 Y27.0623 
G01 X60.1224 Y27.1311 
G01 X60.2719 Y27.2310 
G01 X60.3990 Y27.3581 
G01 X60.4989 Y27.5076 
G01 X60.5677 Y27.6737 
G01 X60.6028 Y27.8501 
G00 Z2.0000 
G00 X20.9439 Y49.6241 
G01 Z-0.0250 F254.00 
G01 X20.9439 Y46.8959 F508.00 
G01 X20.9773 Y46.6849 
G01 X21.0433 Y46.4817 
G01 X21.1403 Y46.2913 
G01 X21.2659 Y46.1185 
G01 X21.4170 Y45.9674 
G01 X21.5898 Y45.8418 
G01 X21.7802 Y45.7448 
G01 X21.9834 Y45.6788 
G01 X22.0000 Y45.6762 
G01 X22.0000 Y38.8498 
G01 X21.9053 Y38.8348 
G01 X21.7497 Y38.7842 
G01 X21.6038 Y38.7099 
G01 X21.4714 Y38.6137 
G01 X21.3557 Y38.4980 
G01 X21.2595 Y38.3656 
G01 X21.1852 Y38.2197 
G01 X21.1346 Y38.0641 
G01 X21.1090 Y37.9024 
G01 X21.1090 Y37.7388 
G01 X21.1346 Y37.5771 
G01 X21.1852 Y37.4215 
G01 X21.2595 Y37.2756 
G01 X21.3557 Y37.1432 
G01 X21.4714 Y37.0275 
G01 X21.6038 Y36.9313 
G01 X21.7497 Y36.8570 
G01 X21.9053 Y36.8064 
G01 X22.0670 Y36.7808 
G01 X22.2306 Y36.7808 
G01 X22.3923 Y36.8064 
G01 X22.5479 Y36.8570 
G01 X22.6938 Y36.9313 
G01 X22.8262 Y37.0275 
G01 X22.9419 Y37.1432 
G01 X23.0381 Y37.2756 
G01 X23.1124 Y37.4215 
G01 X23.1630 Y37.5771 
G01 X23.1886 Y37.7388 
G01 X23.1886 Y37.9024 
G01 X23.1630 Y38.0641 
G01 X23.1124 Y38.2197 
G01 X23.0381 Y38.3656 
G01 X22.9419 Y38.4980 
G01 X22.8262 Y38.6137 
G01 X22.6938 Y38.7099 
G01 X22.5479 Y38.7842 
G01 X22.5000 Y38.7998 
G01 X22.5000 Y39.0000 
G01 X32.0000 Y39.0000 
G01 X32.0000 Y38.8136 
G01 X31.9097 Y38.7842 
G01 X31.7638 Y38.7099 
G01 X31.6314 Y38.6137 
G01 X31.5157 Y38.4980 
G01 X31.4195 Y38.3656 
G01 X31.3452 Y38.2197 
G01 X31.2946 Y38.0641 
G01 X31.2690 Y37.9024 
G01 X31.2690 Y37.7388 
G01 X31.2946 Y37.5771 
G01 X31.3452 Y37.4215 
G01 X31.4195 Y37.2756 
G01 X31.5157 Y37.1432 
G01 X31.6314 Y37.0275 
G01 X31.7638 Y36.9313 
G01 X31.9097 Y36.8570 
G01 X32.0653 Y36.8064 
G01 X32.2270 Y36.7808 
G01 X32.3906 Y36.7808 
G01 X32.5523 Y36.8064 
G01 X32.7079 Y36.8570 
G01 X32.8538 Y36.9313 
G01 X32.9862 Y37.0275 
G01 X33.1019 Y37.1432 
G01 X33.1981 Y37.2756 
G01 X33.2724 Y37.4215 
G01 X33.3230 Y37.5771 
G01 X33.3486 Y37.7388 
G01 X33.3486 Y37.9024 
G01 X33.3230 Y38.0641 
G01 X33.2724 Y38.2197 
G01 X33.2052 Y38.3517 
G01 X37.1986 Y42.3450 
G01 X38.3649 Y42.3450 
G01 X38.4016 Y42.3602 
G01 X38.4298 Y42.3884 
G01 X38.4450 Y42.4251 
G01 X38.4450 Y43.5914 
G01 X39.4619 Y44.6084 
G01 X39.5000 Y44.7003 
G01 X39.5000 Y46.7476 
G01 X39.6066 Y46.7688 
G01 X39.7542 Y46.8299 
G01 X39.8871 Y46.9187 
G01 X40.0001 Y47.0317 
G01 X40.0889 Y47.1646 
G01 X40.1500 Y47.3122 
G01 X40.1812 Y47.4689 
G01 X40.1812 Y49.0511 
G01 X40.1500 Y49.2078 
G01 X40.0889 Y49.3554 
G01 X40.0001 Y49.4883 
G01 X39.8871 Y49.6013 
G01 X39.7542 Y49.6901 
G01 X39.6066 Y49.7512 
G01 X39.4499 Y49.7824 
G01 X39.2901 Y49.7824 
G01 X39.1334 Y49.7512 
G01 X38.9858 Y49.6901 
G01 X38.8529 Y49.6013 
G01 X38.7399 Y49.4883 
G01 X38.6511 Y49.3554 
G01 X38.5900 Y49.2078 
G01 X38.5588 Y49.0511 
G01 X38.5588 Y47.4689 
G01 X38.5900 Y47.3122 
G01 X38.6511 Y47.1646 
G01 X38.7399 Y47.0317 
G01 X38.8529 Y46.9187 
G01 X38.9858 Y46.8299 
G01 X39.0000 Y46.8240 
G01 X39.0000 Y44.8536 
G01 X38.1614 Y44.0150 
G01 X37.0551 Y44.0150 
G01 X37.0184 Y43.9998 
G01 X36.9902 Y43.9716 
G01 X36.9750 Y43.9349 
G01 X36.9750 Y42.8285 
G01 X32.8553 Y38.7088 
G01 X32.7079 Y38.7842 
G01 X32.5523 Y38.8348 
G01 X32.5000 Y38.8431 
G01 X32.5000 Y39.2997 
G01 X32.4619 Y39.3916 
G01 X32.3916 Y39.4619 
G01 X32.2997 Y39.5000 
G01 X22.5000 Y39.5000 
G01 X22.5000 Y45.6600 
G01 X22.6190 Y45.6788 
G01 X22.8222 Y45.7448 
G01 X23.0126 Y45.8418 
G01 X23.1854 Y45.9674 
G01 X23.3365 Y46.1185 
G01 X23.4621 Y46.2913 
G01 X23.5591 Y46.4817 
G01 X23.6251 Y46.6849 
G01 X23.6585 Y46.8959 
G01 X23.6585 Y49.6241 
G01 X23.6251 Y49.8351 
G01 X23.5591 Y50.0383 
G01 X23.4621 Y50.2287 
G01 X23.3365 Y50.4015 
G01 X23.1854 Y50.5526 
G01 X23.0126 Y50.6782 
G01 X22.8222 Y50.7752 
G01 X22.6190 Y50.8412 
G01 X22.4080 Y50.8746 
G01 X22.1944 Y50.8746 
G01 X21.9834 Y50.8412 
G01 X21.7802 Y50.7752 
G01 X21.5898 Y50.6782 
G01 X21.4170 Y50.5526 
G01 X21.2659 Y50.4015 
G01 X21.1403 Y50.2287 
G01 X21.0433 Y50.0383 
G01 X20.9773 Y49.8351 
G01 X20.9439 Y49.6241 
G00 Z2.0000 
G00 X16.9815 Y49.6241 
G01 Z-0.0250 F254.00 
G01 X16.9815 Y46.8959 F508.00 
G01 X17.0149 Y46.6849 
G01 X17.0809 Y46.4817 
G01 X17.1779 Y46.2913 
G01 X17.3035 Y46.1185 
G01 X17.4546 Y45.9674 
G01 X17.6274 Y45.8418 
G01 X17.8178 Y45.7448 
G01 X18.0210 Y45.6788 
G01 X18.2320 Y45.6454 
G01 X18.4456 Y45.6454 
G01 X18.6566 Y45.6788 
G01 X18.8598 Y45.7448 
G01 X19.0502 Y45.8418 
G01 X19.2230 Y45.9674 
G01 X19.3741 Y46.1185 
G01 X19.4997 Y46.2913 
G01 X19.5967 Y46.4817 
G01 X19.6627 Y46.6849 
G01 X19.6694 Y46.7271 
G01 X19.7500 Y46.6464 
G01 X19.7500 Y37.9503 
G01 X19.7881 Y37.8584 
G01 X19.8584 Y37.7881 
G01 X23.2500 Y34.3964 
G01 X23.2500 Y24.4503 
G01 X23.2881 Y24.3584 
G01 X23.3584 Y24.2881 
G01 X23.4503 Y24.2500 
G01 X27.3400 Y24.2500 
G01 X27.3400 Y23.5801 
G01 X27.3552 Y23.5434 
G01 X27.3834 Y23.5152 
G01 X27.4201 Y23.5000 
G01 X28.3964 Y23.5000 
G01 X29.7500 Y22.1464 
G01 X29.7500 Y18.6150 
G01 X29.4351 Y18.6150 
G01 X29.3984 Y18.5998 
G01 X29.3702 Y18.5716 
G01 X29.3550 Y18.5349 
G01 X29.3550 Y17.0251 
G01 X29.3702 Y16.9884 
G01 X29.3984 Y16.9602 
G01 X29.4351 Y16.9450 
G01 X30.7449 Y16.9450 
G01 X30.7816 Y16.9602 
G01 X30.8098 Y16.9884 
G01 X30.8250 Y17.0251 
G01 X30.8250 Y18.5349 
G01 X30.8098 Y18.5716 
G01 X30.7816 Y18.5998 
G01 X30.7449 Y18.6150 
G01 X30.2500 Y18.6150 
G01 X30.2500 Y22.2997 
G01 X30.2119 Y22.3916 
G01 X30.1416 Y22.4619 
G01 X28.5400 Y24.0636 
G01 X28.5400 Y25.0199 
G01 X28.5248 Y25.0566 
G01 X28.4966 Y25.0848 
G01 X28.4599 Y25.1000 
G01 X27.4201 Y25.1000 
G01 X27.3834 Y25.0848 
G01 X27.3552 Y25.0566 
G01 X27.3400 Y25.0199 
G01 X27.3400 Y24.7500 
G01 X23.7500 Y24.7500 
G01 X23.7500 Y34.5497 
G01 X23.7119 Y34.6416 
G01 X20.2500 Y38.1036 
G01 X20.2500 Y46.7997 
G01 X20.2119 Y46.8916 
G01 X19.6961 Y47.4075 
G01 X19.6961 Y49.6241 
G01 X19.6627 Y49.8351 
G01 X19.5967 Y50.0383 
G01 X19.4997 Y50.2287 
G01 X19.3741 Y50.4015 
G01 X19.2230 Y50.5526 
G01 X19.0502 Y50.6782 
G01 X18.8598 Y50.7752 
G01 X18.6566 Y50.8412 
G01 X18.4456 Y50.8746 
G01 X18.2320 Y50.8746 
G01 X18.0210 Y50.8412 
G01 X17.8178 Y50.7752 
G01 X17.6274 Y50.6782 
G01 X17.4546 Y50.5526 
G01 X17.3035 Y50.4015 
G01 X17.1779 Y50.2287 
G01 X17.0809 Y50.0383 
G01 X17.0149 Y49.8351 
G01 X16.9815 Y49.6241 
G00 Z2.0000 
G00 X26.3900 Y27.2199 
G01 Z-0.0250 F254.00 
G01 X26.3900 Y25.7801 F508.00 
G01 X26.4052 Y25.7434 
G01 X26.4334 Y25.7152 
G01 X26.4701 Y25.7000 
G01 X27.5099 Y25.7000 
G01 X27.5466 Y25.7152 
G01 X27.5748 Y25.7434 
G01 X27.5900 Y25.7801 
G01 X27.5900 Y27.2199 
G01 X27.5748 Y27.2566 
G01 X27.5466 Y27.2848 
G01 X27.5099 Y27.3000 
G01 X27.2500 Y27.3000 
G01 X27.2500 Y30.0000 
G01 X31.6200 Y30.0000 
G01 X31.6200 Y29.8601 
G01 X31.6352 Y29.8234 
G01 X31.6634 Y29.7952 
G01 X31.7001 Y29.7800 
G01 X31.7500 Y29.7800 
G01 X31.7500 Y17.9503 
G01 X31.7881 Y17.8584 
G01 X31.8584 Y17.7881 
G01 X31.9503 Y17.7500 
G01 X33.7997 Y17.7500 
G01 X33.8916 Y17.7881 
G01 X33.9619 Y17.8584 
G01 X34.1836 Y18.0800 
G01 X35.1299 Y18.0800 
G01 X35.1666 Y18.0952 
G01 X35.1948 Y18.1234 
G01 X35.2100 Y18.1601 
G01 X35.2100 Y19.5999 
G01 X35.1948 Y19.6366 
G01 X35.1666 Y19.6648 
G01 X35.1299 Y19.6800 
G01 X35.0000 Y19.6800 
G01 X35.0000 Y20.3964 
G01 X36.7684 Y22.1649 
G01 X36.7801 Y22.1600 
G01 X37.6199 Y22.1600 
G01 X37.6566 Y22.1752 
G01 X37.6848 Y22.2034 
G01 X37.7000 Y22.2401 
G01 X37.7000 Y23.4799 
G01 X37.6848 Y23.5166 
G01 X37.6566 Y23.5448 
G01 X37.6199 Y23.5600 
G01 X36.7801 Y23.5600 
G01 X36.7434 Y23.5448 
G01 X36.7152 Y23.5166 
G01 X36.7000 Y23.4799 
G01 X36.7000 Y22.8036 
G01 X34.6084 Y20.7119 
G01 X34.5381 Y20.6416 
G01 X34.5000 Y20.5497 
G01 X34.5000 Y19.6800 
G01 X34.0901 Y19.6800 
G01 X34.0534 Y19.6648 
G01 X34.0252 Y19.6366 
G01 X34.0100 Y19.5999 
G01 X34.0100 Y18.6136 
G01 X33.6464 Y18.2500 
G01 X32.2500 Y18.2500 
G01 X32.2500 Y29.7800 
G01 X32.5399 Y29.7800 
G01 X32.5766 Y29.7952 
G01 X32.6048 Y29.8234 
G01 X32.6200 Y29.8601 
G01 X32.6200 Y31.0999 
G01 X32.6048 Y31.1366 
G01 X32.5766 Y31.1648 
G01 X32.5399 Y31.1800 
G01 X31.7001 Y31.1800 
G01 X31.6634 Y31.1648 
G01 X31.6352 Y31.1366 
G01 X31.6200 Y31.0999 
G01 X31.6200 Y30.5000 
G01 X31.0000 Y30.5000 
G01 X31.0000 Y34.1464 
G01 X41.0000 Y44.1464 
G01 X41.7800 Y43.3664 
G01 X41.7800 Y42.5601 
G01 X41.7952 Y42.5234 
G01 X41.8234 Y42.4952 
G01 X41.8601 Y42.4800 
G01 X42.2500 Y42.4800 
G01 X42.2500 Y39.4503 
G01 X42.2881 Y39.3584 
G01 X42.3584 Y39.2881 
G01 X42.4800 Y39.1664 
G01 X42.4800 Y38.8336 
G01 X41.6084 Y37.9619 
G01 X41.5381 Y37.8916 
G01 X41.5000 Y37.7997 
G01 X41.5000 Y31.7003 
G01 X41.5381 Y31.6084 
G01 X44.0381 Y29.1084 
G01 X44.1084 Y29.0381 
G01 X44.2003 Y29.0000 
G01 X46.1011 Y29.0000 
G01 X46.1123 Y28.9437 
G01 X46.1811 Y28.7776 
G01 X46.2810 Y28.6281 
G01 X46.4081 Y28.5010 
G01 X46.5576 Y28.4011 
G01 X46.7237 Y28.3323 
G01 X46.9001 Y28.2972 
G01 X47.0799 Y28.2972 
G01 X47.2563 Y28.3323 
G01 X47.4224 Y28.4011 
G01 X47.5719 Y28.5010 
G01 X47.6990 Y28.6281 
G01 X47.7989 Y28.7776 
G01 X47.8677 Y28.9437 
G01 X47.9028 Y29.1201 
G01 X47.9028 Y29.2999 
G01 X47.8677 Y29.4763 
G01 X47.7989 Y29.6424 
G01 X47.6990 Y29.7919 
G01 X47.5719 Y29.9190 
G01 X47.4224 Y30.0189 
G01 X47.2563 Y30.0877 
G01 X47.0799 Y30.1228 
G01 X46.9001 Y30.1228 
G01 X46.7237 Y30.0877 
G01 X46.5576 Y30.0189 
G01 X46.4081 Y29.9190 
G01 X46.2810 Y29.7919 
G01 X46.1811 Y29.6424 
G01 X46.1221 Y29.5000 
G01 X44.3536 Y29.5000 
G01 X42.0000 Y31.8536 
G01 X42.0000 Y37.6464 
G01 X42.8536 Y38.5000 
G01 X43.7999 Y38.5000 
G01 X43.8366 Y38.5152 
G01 X43.8648 Y38.5434 
G01 X43.8800 Y38.5801 
G01 X43.8800 Y39.4199 
G01 X43.8648 Y39.4566 
G01 X43.8366 Y39.4848 
G01 X43.7999 Y39.5000 
G01 X42.8536 Y39.5000 
G01 X42.7500 Y39.6036 
G01 X42.7500 Y42.5086 
G01 X42.7648 Y42.5234 
G01 X42.7800 Y42.5601 
G01 X42.7800 Y43.7999 
G01 X42.7648 Y43.8366 
G01 X42.7366 Y43.8648 
G01 X42.6999 Y43.8800 
G01 X41.9736 Y43.8800 
G01 X41.2119 Y44.6416 
G01 X41.0000 Y44.8536 
G01 X41.0000 Y50.2997 
G01 X40.9619 Y50.3916 
G01 X40.8916 Y50.4619 
G01 X40.7997 Y50.5000 
G01 X39.2500 Y50.5000 
G01 X39.2500 Y51.7997 
G01 X39.2119 Y51.8916 
G01 X39.1416 Y51.9619 
G01 X39.0497 Y52.0000 
G01 X10.4503 Y52.0000 
G01 X10.3584 Y51.9619 
G01 X10.2881 Y51.8916 
G01 X8.3474 Y49.9510 
G01 X8.3191 Y50.0383 
G01 X8.2221 Y50.2287 
G01 X8.0965 Y50.4015 
G01 X7.9454 Y50.5526 
G01 X7.7726 Y50.6782 
G01 X7.5822 Y50.7752 
G01 X7.3790 Y50.8412 
G01 X7.1680 Y50.8746 
G01 X6.9544 Y50.8746 
G01 X6.7434 Y50.8412 
G01 X6.5402 Y50.7752 
G01 X6.3498 Y50.6782 
G01 X6.1770 Y50.5526 
G01 X6.0259 Y50.4015 
G01 X5.9003 Y50.2287 
G01 X5.8033 Y50.0383 
G01 X5.7373 Y49.8351 
G01 X5.7039 Y49.6241 
G01 X5.7039 Y46.8959 
G01 X5.7373 Y46.6849 
G01 X5.8033 Y46.4817 
G01 X5.9003 Y46.2913 
G01 X6.0259 Y46.1185 
G01 X6.1770 Y45.9674 
G01 X6.3498 Y45.8418 
G01 X6.5402 Y45.7448 
G01 X6.7434 Y45.6788 
G01 X6.9544 Y45.6454 
G01 X7.1680 Y45.6454 
G01 X7.3790 Y45.6788 
G01 X7.5822 Y45.7448 
G01 X7.7726 Y45.8418 
G01 X7.9454 Y45.9674 
G01 X8.0965 Y46.1185 
G01 X8.2221 Y46.2913 
G01 X8.3191 Y46.4817 
G01 X8.3851 Y46.6849 
G01 X8.3955 Y46.7509 
G01 X8.7500 Y46.3964 
G01 X8.7500 Y39.2003 
G01 X8.7881 Y39.1084 
G01 X10.2500 Y37.6464 
G01 X10.2500 Y29.9503 
G01 X10.2881 Y29.8584 
G01 X11.5000 Y28.6464 
G01 X11.5000 Y23.5600 
G01 X11.3801 Y23.5600 
G01 X11.3434 Y23.5448 
G01 X11.3152 Y23.5166 
G01 X11.3000 Y23.4799 
G01 X11.3000 Y22.2401 
G01 X11.3152 Y22.2034 
G01 X11.3434 Y22.1752 
G01 X11.3801 Y22.1600 
G01 X11.7500 Y22.1600 
G01 X11.7500 Y12.1036 
G01 X9.5000 Y9.8535 
G01 X9.5000 Y12.0000 
G01 X9.6799 Y12.0000 
G01 X9.7166 Y12.0152 
G01 X9.7448 Y12.0434 
G01 X9.7600 Y12.0801 
G01 X9.7600 Y13.3199 
G01 X9.7448 Y13.3566 
G01 X9.7166 Y13.3848 
G01 X9.6799 Y13.4000 
G01 X8.8401 Y13.4000 
G01 X8.8034 Y13.3848 
G01 X8.7752 Y13.3566 
G01 X8.7600 Y13.3199 
G01 X8.7600 Y13.0935 
G01 X5.7800 Y16.0736 
G01 X5.7800 Y16.9099 
G01 X5.7648 Y16.9466 
G01 X5.7366 Y16.9748 
G01 X5.6999 Y16.9900 
G01 X4.4601 Y16.9900 
G01 X4.4234 Y16.9748 
G01 X4.3952 Y16.9466 
G01 X4.3800 Y16.9099 
G01 X4.3800 Y15.6701 
G01 X4.3952 Y15.6334 
G01 X4.4234 Y15.6052 
G01 X4.4601 Y15.5900 
G01 X5.5564 Y15.5900 
G01 X8.7600 Y12.3864 
G01 X8.7600 Y12.0801 
G01 X8.7752 Y12.0434 
G01 X8.8034 Y12.0152 
G01 X8.8401 Y12.0000 
G01 X9.0000 Y12.0000 
G01 X9.0000 Y7.8536 
G01 X6.9264 Y5.7800 
G01 X6.3001 Y5.7800 
G01 X6.2634 Y5.7648 
G01 X6.2352 Y5.7366 
G01 X6.2200 Y5.6999 
G01 X6.2200 Y4.4601 
G01 X6.2352 Y4.4234 
G01 X6.2634 Y4.3952 
G01 X6.3001 Y4.3800 
G01 X7.1399 Y4.3800 
G01 X7.1766 Y4.3952 
G01 X7.2048 Y4.4234 
G01 X7.2200 Y4.4601 
G01 X7.2200 Y5.3664 
G01 X9.3916 Y7.5381 
G01 X9.4619 Y7.6084 
G01 X9.5000 Y7.7003 
G01 X9.5000 Y9.1464 
G01 X12.2119 Y11.8584 
G01 X12.2500 Y11.9503 
G01 X12.2500 Y21.0000 
G01 X16.1464 Y21.0000 
G01 X19.2500 Y17.8964 
G01 X19.2500 Y15.7003 
G01 X19.2881 Y15.6084 
G01 X19.3584 Y15.5381 
G01 X19.4503 Y15.5000 
G01 X19.8263 Y15.5000 
G01 X19.8263 Y14.7502 
G01 X19.8415 Y14.7135 
G01 X19.8697 Y14.6853 
G01 X19.9064 Y14.6701 
G01 X20.7500 Y14.6701 
G01 X20.7500 Y8.4503 
G01 X20.7881 Y8.3584 
G01 X20.8584 Y8.2881 
G01 X21.4600 Y7.6864 
G01 X21.4600 Y7.0001 
G01 X21.4752 Y6.9634 
G01 X21.5034 Y6.9352 
G01 X21.5401 Y6.9200 
G01 X22.3799 Y6.9200 
G01 X22.4166 Y6.9352 
G01 X22.4448 Y6.9634 
G01 X22.4600 Y7.0001 
G01 X22.4600 Y8.2399 
G01 X22.4448 Y8.2766 
G01 X22.4166 Y8.3048 
G01 X22.3799 Y8.3200 
G01 X21.5401 Y8.3200 
G01 X21.5355 Y8.3181 
G01 X21.2500 Y8.6036 
G01 X21.2500 Y14.6701 
G01 X21.9528 Y14.6701 
G01 X21.9895 Y14.6853 
G01 X22.0177 Y14.7135 
G01 X22.0329 Y14.7502 
G01 X22.0329 Y16.2886 
G01 X22.0177 Y16.3253 
G01 X21.9895 Y16.3535 
G01 X21.9528 Y16.3687 
G01 X19.9064 Y16.3687 
G01 X19.8697 Y16.3535 
G01 X19.8415 Y16.3253 
G01 X19.8263 Y16.2886 
G01 X19.8263 Y16.0000 
G01 X19.7500 Y16.0000 
G01 X19.7500 Y18.0497 
G01 X19.7119 Y18.1416 
G01 X16.4619 Y21.3916 
G01 X16.3916 Y21.4619 
G01 X16.2997 Y21.5000 
G01 X12.2500 Y21.5000 
G01 X12.2500 Y22.1725 
G01 X12.2566 Y22.1752 
G01 X12.2848 Y22.2034 
G01 X12.3000 Y22.2401 
G01 X12.3000 Y23.4799 
G01 X12.2848 Y23.5166 
G01 X12.2566 Y23.5448 
G01 X12.2199 Y23.5600 
G01 X12.0000 Y23.5600 
G01 X12.0000 Y28.7997 
G01 X11.9619 Y28.8916 
G01 X11.8916 Y28.9619 
G01 X10.7500 Y30.1036 
G01 X10.7500 Y37.7997 
G01 X10.7119 Y37.8916 
G01 X10.6416 Y37.9619 
G01 X9.2500 Y39.3536 
G01 X9.2500 Y46.5497 
G01 X9.2119 Y46.6416 
G01 X9.1416 Y46.7119 
G01 X8.4185 Y47.4351 
G01 X8.4185 Y49.3149 
G01 X10.6036 Y51.5000 
G01 X38.7500 Y51.5000 
G01 X38.7500 Y50.3536 
G01 X38.0381 Y49.6416 
G01 X38.0000 Y49.5497 
G01 X38.0000 Y48.8536 
G01 X37.0789 Y47.9325 
G01 X37.0666 Y47.9448 
G01 X37.0299 Y47.9600 
G01 X35.9901 Y47.9600 
G01 X35.9534 Y47.9448 
G01 X35.9252 Y47.9166 
G01 X35.9100 Y47.8799 
G01 X35.9100 Y46.4401 
G01 X35.9252 Y46.4034 
G01 X35.9534 Y46.3752 
G01 X35.9901 Y46.3600 
G01 X37.0299 Y46.3600 
G01 X37.0666 Y46.3752 
G01 X37.0948 Y46.4034 
G01 X37.1100 Y46.4401 
G01 X37.1100 Y47.2564 
G01 X38.3916 Y48.5381 
G01 X38.4619 Y48.6084 
G01 X38.5000 Y48.7003 
G01 X38.5000 Y49.3964 
G01 X39.1036 Y50.0000 
G01 X40.5000 Y50.0000 
G01 X40.5000 Y44.7003 
G01 X40.5381 Y44.6084 
G01 X40.6464 Y44.5000 
G01 X30.6084 Y34.4619 
G01 X30.5381 Y34.3916 
G01 X30.5000 Y34.2997 
G01 X30.5000 Y30.5000 
G01 X26.9503 Y30.5000 
G01 X26.8584 Y30.4619 
G01 X26.7881 Y30.3916 
G01 X26.7500 Y30.2997 
G01 X26.7500 Y27.3000 
G01 X26.4701 Y27.3000 
G01 X26.4334 Y27.2848 
G01 X26.4052 Y27.2566 
G01 X26.3900 Y27.2199 
G00 Z2.0000 
G00 X28.2900 Y27.2199 
G01 Z-0.0250 F254.00 
G01 X28.2900 Y25.7801 F508.00 
G01 X28.3052 Y25.7434 
G01 X28.3334 Y25.7152 
G01 X28.3701 Y25.7000 
G01 X29.4099 Y25.7000 
G01 X29.4466 Y25.7152 
G01 X29.4748 Y25.7434 
G01 X29.4900 Y25.7801 
G01 X29.4900 Y26.6364 
G01 X30.0347 Y27.1811 
G01 X30.0727 Y27.1654 
G01 X30.1901 Y27.1420 
G01 X30.3099 Y27.1420 
G01 X30.4273 Y27.1654 
G01 X30.5380 Y27.2112 
G01 X30.6376 Y27.2777 
G01 X30.7223 Y27.3624 
G01 X30.7888 Y27.4620 
G01 X30.8346 Y27.5727 
G01 X30.8580 Y27.6901 
G01 X30.8580 Y27.8099 
G01 X30.8346 Y27.9273 
G01 X30.7888 Y28.0380 
G01 X30.7223 Y28.1376 
G01 X30.6376 Y28.2223 
G01 X30.5380 Y28.2888 
G01 X30.4273 Y28.3346 
G01 X30.3099 Y28.3580 
G01 X30.1901 Y28.3580 
G01 X30.0727 Y28.3346 
G01 X29.9620 Y28.2888 
G01 X29.8624 Y28.2223 
G01 X29.7777 Y28.1376 
G01 X29.7112 Y28.0380 
G01 X29.6654 Y27.9273 
G01 X29.6420 Y27.8099 
G01 X29.6420 Y27.6901 
G01 X29.6654 Y27.5727 
G01 X29.6811 Y27.5347 
G01 X29.4357 Y27.2893 
G01 X29.4099 Y27.3000 
G01 X28.3701 Y27.3000 
G01 X28.3334 Y27.2848 
G01 X28.3052 Y27.2566 
G01 X28.2900 Y27.2199 
G00 Z2.0000 
G00 X52.9400 Y19.7001 
G01 Z-0.0250 F254.00 
G01 X52.9400 Y20.9399 F508.00 
G01 X52.9248 Y20.9766 
G01 X52.8966 Y21.0048 
G01 X52.8599 Y21.0200 
G01 X52.0836 Y21.0200 
G01 X49.5000 Y23.6036 
G01 X49.5000 Y29.4455 
G01 X49.5380 Y29.4612 
G01 X49.6376 Y29.5277 
G01 X49.7223 Y29.6124 
G01 X49.7888 Y29.7120 
G01 X49.8346 Y29.8227 
G01 X49.8580 Y29.9401 
G01 X49.8580 Y30.0599 
G01 X49.8346 Y30.1773 
G01 X49.7888 Y30.2880 
G01 X49.7223 Y30.3876 
G01 X49.6376 Y30.4723 
G01 X49.5380 Y30.5388 
G01 X49.4273 Y30.5846 
G01 X49.3099 Y30.6080 
G01 X49.1901 Y30.6080 
G01 X49.0727 Y30.5846 
G01 X48.9620 Y30.5388 
G01 X48.8624 Y30.4723 
G01 X48.7777 Y30.3876 
G01 X48.7112 Y30.2880 
G01 X48.6654 Y30.1773 
G01 X48.6420 Y30.0599 
G01 X48.6420 Y29.9401 
G01 X48.6654 Y29.8227 
G01 X48.7112 Y29.7120 
G01 X48.7777 Y29.6124 
G01 X48.8624 Y29.5277 
G01 X48.9620 Y29.4612 
G01 X49.0000 Y29.4455 
G01 X49.0000 Y23.4503 
G01 X49.0381 Y23.3584 
G01 X49.1084 Y23.2881 
G01 X51.9400 Y20.4564 
G01 X51.9400 Y19.7001 
G01 X51.9552 Y19.6634 
G01 X51.9834 Y19.6352 
G01 X52.0201 Y19.6200 
G01 X52.8599 Y19.6200 
G01 X52.8966 Y19.6352 
G01 X52.9248 Y19.6634 
G01 X52.9400 Y19.7001 
G00 Z2.0000 
G00 X54.7400 Y19.7001 
G01 Z-0.0250 F254.00 
G01 X54.7400 Y20.6364 F508.00 
G01 X55.1416 Y21.0381 
G01 X55.2119 Y21.1084 
G01 X55.2500 Y21.2003 
G01 X55.2500 Y26.3964 
G01 X55.6036 Y26.7500 
G01 X57.2500 Y26.7500 
G01 X57.2500 Y18.4503 
G01 X57.2881 Y18.3584 
G01 X61.3692 Y14.2772 
G01 X61.3523 Y14.2363 
G01 X61.3172 Y14.0599 
G01 X61.3172 Y13.8801 
G01 X61.3523 Y13.7037 
G01 X61.4211 Y13.5376 
G01 X61.5210 Y13.3881 
G01 X61.6481 Y13.2610 
G01 X61.7976 Y13.1611 
G01 X61.9637 Y13.0923 
G01 X62.1401 Y13.0572 
G01 X62.3199 Y13.0572 
G01 X62.4963 Y13.0923 
G01 X62.6624 Y13.1611 
G01 X62.8119 Y13.2610 
G01 X62.9390 Y13.3881 
G01 X63.0389 Y13.5376 
G01 X63.1077 Y13.7037 
G01 X63.1428 Y13.8801 
G01 X63.1428 Y14.0599 
G01 X63.1077 Y14.2363 
G01 X63.0389 Y14.4024 
G01 X62.9390 Y14.5519 
G01 X62.8119 Y14.6790 
G01 X62.6624 Y14.7789 
G01 X62.4963 Y14.8477 
G01 X62.3199 Y14.8828 
G01 X62.1401 Y14.8828 
G01 X61.9637 Y14.8477 
G01 X61.7976 Y14.7789 
G01 X61.6640 Y14.6896 
G01 X57.7500 Y18.6036 
G01 X57.7500 Y27.0497 
G01 X57.7119 Y27.1416 
G01 X57.6416 Y27.2119 
G01 X57.5497 Y27.2500 
G01 X55.4503 Y27.2500 
G01 X55.3584 Y27.2119 
G01 X55.2881 Y27.1416 
G01 X54.7881 Y26.6416 
G01 X54.7500 Y26.5497 
G01 X54.7500 Y21.3536 
G01 X54.4164 Y21.0200 
G01 X53.8201 Y21.0200 
G01 X53.7834 Y21.0048 
G01 X53.7552 Y20.9766 
G01 X53.7400 Y20.9399 
G01 X53.7400 Y19.7001 
G01 X53.7552 Y19.6634 
G01 X53.7834 Y19.6352 
G01 X53.8201 Y19.6200 
G01 X54.6599 Y19.6200 
G01 X54.6966 Y19.6352 
G01 X54.7248 Y19.6634 
G01 X54.7400 Y19.7001 
G00 Z2.0000 
G00 X9.3710 Y37.7388 
G01 Z-0.0250 F254.00 
G01 X9.3710 Y37.9024 F508.00 
G01 X9.3454 Y38.0641 
G01 X9.2948 Y38.2197 
G01 X9.2205 Y38.3656 
G01 X9.1243 Y38.4980 
G01 X9.0086 Y38.6137 
G01 X8.8762 Y38.7099 
G01 X8.7303 Y38.7842 
G01 X8.5747 Y38.8348 
G01 X8.4130 Y38.8604 
G01 X8.2494 Y38.8604 
G01 X8.0877 Y38.8348 
G01 X7.9321 Y38.7842 
G01 X7.7862 Y38.7099 
G01 X7.6538 Y38.6137 
G01 X7.5381 Y38.4980 
G01 X7.4419 Y38.3656 
G01 X7.3676 Y38.2197 
G01 X7.3170 Y38.0641 
G01 X7.2914 Y37.9024 
G01 X7.2914 Y37.7388 
G01 X7.3170 Y37.5771 
G01 X7.3676 Y37.4215 
G01 X7.4419 Y37.2756 
G01 X7.5381 Y37.1432 
G01 X7.6538 Y37.0275 
G01 X7.7862 Y36.9313 
G01 X7.9321 Y36.8570 
G01 X8.0877 Y36.8064 
G01 X8.2494 Y36.7808 
G01 X8.4130 Y36.7808 
G01 X8.5747 Y36.8064 
G01 X8.7303 Y36.8570 
G01 X8.8762 Y36.9313 
G01 X9.0086 Y37.0275 
G01 X9.1243 Y37.1432 
G01 X9.2205 Y37.2756 
G01 X9.2948 Y37.4215 
G01 X9.3454 Y37.5771 
G01 X9.3710 Y37.7388 
G00 Z2.0000 
G00 X2.8686 Y33.2176 
G01 Z-0.0250 F254.00 
G01 X2.8686 Y33.3812 F508.00 
G01 X2.8430 Y33.5429 
G01 X2.7924 Y33.6985 
G01 X2.7181 Y33.8444 
G01 X2.6219 Y33.9768 
G01 X2.5062 Y34.0925 
G01 X2.3738 Y34.1887 
G01 X2.2279 Y34.2630 
G01 X2.0723 Y34.3136 
G01 X1.9106 Y34.3392 
G01 X1.7470 Y34.3392 
G01 X1.5853 Y34.3136 
G01 X1.4297 Y34.2630 
G01 X1.2838 Y34.1887 
G01 X1.1514 Y34.0925 
G01 X1.0357 Y33.9768 
G01 X0.9395 Y33.8444 
G01 X0.8652 Y33.6985 
G01 X0.8146 Y33.5429 
G01 X0.7890 Y33.3812 
G01 X0.7890 Y33.2176 
G01 X0.8146 Y33.0559 
G01 X0.8652 Y32.9003 
G01 X0.9395 Y32.7544 
G01 X1.0357 Y32.6220 
G01 X1.1514 Y32.5063 
G01 X1.2838 Y32.4101 
G01 X1.4297 Y32.3358 
G01 X1.5853 Y32.2852 
G01 X1.7470 Y32.2596 
G01 X1.9106 Y32.2596 
G01 X2.0723 Y32.2852 
G01 X2.2279 Y32.3358 
G01 X2.3738 Y32.4101 
G01 X2.5062 Y32.5063 
G01 X2.6219 Y32.6220 
G01 X2.7181 Y32.7544 
G01 X2.7924 Y32.9003 
G01 X2.8430 Y33.0559 
G01 X2.8686 Y33.2176 
G00 Z2.0000 
G00 X9.3710 Y33.2176 
G01 Z-0.0250 F254.00 
G01 X9.3710 Y33.3812 F508.00 
G01 X9.3454 Y33.5429 
G01 X9.2948 Y33.6985 
G01 X9.2205 Y33.8444 
G01 X9.1243 Y33.9768 
G01 X9.0086 Y34.0925 
G01 X8.8762 Y34.1887 
G01 X8.7303 Y34.2630 
G01 X8.5747 Y34.3136 
G01 X8.4130 Y34.3392 
G01 X8.2494 Y34.3392 
G01 X8.0877 Y34.3136 
G01 X7.9321 Y34.2630 
G01 X7.7862 Y34.1887 
G01 X7.6538 Y34.0925 
G01 X7.5381 Y33.9768 
G01 X7.4419 Y33.8444 
G01 X7.3676 Y33.6985 
G01 X7.3170 Y33.5429 
G01 X7.2914 Y33.3812 
G01 X7.2914 Y33.2176 
G01 X7.3170 Y33.0559 
G01 X7.3676 Y32.9003 
G01 X7.4419 Y32.7544 
G01 X7.5381 Y32.6220 
G01 X7.6538 Y32.5063 
G01 X7.7862 Y32.4101 
G01 X7.9321 Y32.3358 
G01 X8.0877 Y32.2852 
G01 X8.2494 Y32.2596 
G01 X8.4130 Y32.2596 
G01 X8.5747 Y32.2852 
G01 X8.7303 Y32.3358 
G01 X8.8762 Y32.4101 
G01 X9.0086 Y32.5063 
G01 X9.1243 Y32.6220 
G01 X9.2205 Y32.7544 
G01 X9.2948 Y32.9003 
G01 X9.3454 Y33.0559 
G01 X9.3710 Y33.2176 
G00 Z2.0000 
G00 X11.5600 Y12.0801 
G01 Z-0.0250 F254.00 
G01 X11.5600 Y13.3199 F508.00 
G01 X11.5448 Y13.3566 
G01 X11.5166 Y13.3848 
G01 X11.4799 Y13.4000 
G01 X11.2500 Y13.4000 
G01 X11.2500 Y17.5497 
G01 X11.2119 Y17.6416 
G01 X11.1416 Y17.7119 
G01 X11.0497 Y17.7500 
G01 X4.6036 Y17.7500 
G01 X3.0000 Y19.3536 
G01 X3.0000 Y32.1464 
G01 X3.3916 Y32.5381 
G01 X3.4619 Y32.6084 
G01 X3.5000 Y32.7003 
G01 X3.5000 Y36.5497 
G01 X3.4619 Y36.6416 
G01 X2.7552 Y37.3484 
G01 X2.7924 Y37.4215 
G01 X2.8430 Y37.5771 
G01 X2.8686 Y37.7388 
G01 X2.8686 Y37.9024 
G01 X2.8430 Y38.0641 
G01 X2.7924 Y38.2197 
G01 X2.7181 Y38.3656 
G01 X2.6219 Y38.4980 
G01 X2.5062 Y38.6137 
G01 X2.3738 Y38.7099 
G01 X2.2279 Y38.7842 
G01 X2.0723 Y38.8348 
G01 X1.9106 Y38.8604 
G01 X1.7470 Y38.8604 
G01 X1.5853 Y38.8348 
G01 X1.4297 Y38.7842 
G01 X1.2838 Y38.7099 
G01 X1.1514 Y38.6137 
G01 X1.0357 Y38.4980 
G01 X0.9395 Y38.3656 
G01 X0.8652 Y38.2197 
G01 X0.8146 Y38.0641 
G01 X0.7890 Y37.9024 
G01 X0.7890 Y37.7388 
G01 X0.8146 Y37.5771 
G01 X0.8652 Y37.4215 
G01 X0.9395 Y37.2756 
G01 X1.0357 Y37.1432 
G01 X1.1514 Y37.0275 
G01 X1.2838 Y36.9313 
G01 X1.4297 Y36.8570 
G01 X1.5853 Y36.8064 
G01 X1.7470 Y36.7808 
G01 X1.9106 Y36.7808 
G01 X2.0723 Y36.8064 
G01 X2.2279 Y36.8570 
G01 X2.3738 Y36.9313 
G01 X2.4267 Y36.9697 
G01 X3.0000 Y36.3964 
G01 X3.0000 Y32.8536 
G01 X2.5381 Y32.3916 
G01 X2.5000 Y32.2997 
G01 X2.5000 Y19.2003 
G01 X2.5381 Y19.1084 
G01 X2.6084 Y19.0381 
G01 X4.1464 Y17.5000 
G01 X3.7881 Y17.1416 
G01 X3.7500 Y17.0497 
G01 X3.7500 Y10.8600 
G01 X3.0201 Y10.8600 
G01 X2.9834 Y10.8448 
G01 X2.9552 Y10.8166 
G01 X2.9400 Y10.7799 
G01 X2.9400 Y9.5401 
G01 X2.9552 Y9.5034 
G01 X2.9834 Y9.4752 
G01 X3.0201 Y9.4600 
G01 X3.8599 Y9.4600 
G01 X3.8966 Y9.4752 
G01 X3.9248 Y9.5034 
G01 X3.9400 Y9.5401 
G01 X3.9400 Y10.3364 
G01 X4.1416 Y10.5381 
G01 X4.2119 Y10.6084 
G01 X4.2500 Y10.7003 
G01 X4.2500 Y16.8964 
G01 X4.6036 Y17.2500 
G01 X10.7500 Y17.2500 
G01 X10.7500 Y13.4000 
G01 X10.6401 Y13.4000 
G01 X10.6034 Y13.3848 
G01 X10.5752 Y13.3566 
G01 X10.5600 Y13.3199 
G01 X10.5600 Y12.0801 
G01 X10.5752 Y12.0434 
G01 X10.6034 Y12.0152 
G01 X10.6401 Y12.0000 
G01 X11.4799 Y12.0000 
G01 X11.5166 Y12.0152 
G01 X11.5448 Y12.0434 
G01 X11.5600 Y12.0801 
G00 Z2.0000 
G00 X5.7800 Y13.5701 
G01 Z-0.0250 F254.00 
G01 X5.7800 Y14.8099 F508.00 
G01 X5.7648 Y14.8466 
G01 X5.7366 Y14.8748 
G01 X5.6999 Y14.8900 
G01 X4.4601 Y14.8900 
G01 X4.4234 Y14.8748 
G01 X4.3952 Y14.8466 
G01 X4.3800 Y14.8099 
G01 X4.3800 Y13.5701 
G01 X4.3952 Y13.5334 
G01 X4.4234 Y13.5052 
G01 X4.4601 Y13.4900 
G01 X4.7500 Y13.4900 
G01 X4.7500 Y9.2500 
G01 X2.8536 Y9.2500 
G01 X2.1400 Y9.9636 
G01 X2.1400 Y10.7799 
G01 X2.1248 Y10.8166 
G01 X2.0966 Y10.8448 
G01 X2.0599 Y10.8600 
G01 X1.2201 Y10.8600 
G01 X1.1834 Y10.8448 
G01 X1.1552 Y10.8166 
G01 X1.1400 Y10.7799 
G01 X1.1400 Y9.5401 
G01 X1.1552 Y9.5034 
G01 X1.1834 Y9.4752 
G01 X1.2201 Y9.4600 
G01 X1.9364 Y9.4600 
G01 X2.5381 Y8.8584 
G01 X2.6084 Y8.7881 
G01 X2.7003 Y8.7500 
G01 X5.0497 Y8.7500 
G01 X5.1416 Y8.7881 
G01 X5.2119 Y8.8584 
G01 X5.2500 Y8.9503 
G01 X5.2500 Y13.4900 
G01 X5.6999 Y13.4900 
G01 X5.7366 Y13.5052 
G01 X5.7648 Y13.5334 
G01 X5.7800 Y13.5701 
G00 Z2.0000 
G00 X4.1215 Y20.6264 
G01 Z-0.0250 F254.00 
G01 X6.0385 Y20.6264 F508.00 
G01 X6.2247 Y20.6634 
G01 X6.4000 Y20.7361 
G01 X6.5579 Y20.8415 
G01 X6.6921 Y20.9757 
G01 X6.7975 Y21.1336 
G01 X6.8702 Y21.3089 
G01 X6.9072 Y21.4951 
G01 X6.9072 Y21.6849 
G01 X6.8702 Y21.8711 
G01 X6.7975 Y22.0464 
G01 X6.6921 Y22.2043 
G01 X6.5579 Y22.3385 
G01 X6.4000 Y22.4439 
G01 X6.2247 Y22.5166 
G01 X6.0385 Y22.5536 
G01 X5.6571 Y22.5536 
G01 X10.2086 Y27.1050 
G01 X11.2049 Y27.1050 
G01 X11.2416 Y27.1202 
G01 X11.2698 Y27.1484 
G01 X11.2850 Y27.1851 
G01 X11.2850 Y28.6949 
G01 X11.2698 Y28.7316 
G01 X11.2416 Y28.7598 
G01 X11.2049 Y28.7750 
G01 X9.8951 Y28.7750 
G01 X9.8584 Y28.7598 
G01 X9.8302 Y28.7316 
G01 X9.8150 Y28.6949 
G01 X9.8150 Y27.4185 
G01 X5.1084 Y22.7119 
G01 X5.0381 Y22.6416 
G01 X5.0016 Y22.5536 
G01 X4.1215 Y22.5536 
G01 X3.9353 Y22.5166 
G01 X3.7600 Y22.4439 
G01 X3.6021 Y22.3385 
G01 X3.4679 Y22.2043 
G01 X3.3625 Y22.0464 
G01 X3.2898 Y21.8711 
G01 X3.2528 Y21.6849 
G01 X3.2528 Y21.4951 
G01 X3.2898 Y21.3089 
G01 X3.3625 Y21.1336 
G01 X3.4679 Y20.9757 
G01 X3.6021 Y20.8415 
G01 X3.7600 Y20.7361 
G01 X3.9353 Y20.6634 
G01 X4.1215 Y20.6264 
G00 Z2.0000 
G00 X4.1215 Y24.4364 
G01 Z-0.0250 F254.00 
G01 X6.0385 Y24.4364 F508.00 
G01 X6.2247 Y24.4734 
G01 X6.4000 Y24.5461 
G01 X6.5579 Y24.6515 
G01 X6.6921 Y24.7857 
G01 X6.7975 Y24.9436 
G01 X6.8702 Y25.1189 
G01 X6.9072 Y25.3051 
G01 X6.9072 Y25.4949 
G01 X6.8702 Y25.6811 
G01 X6.7975 Y25.8564 
G01 X6.6921 Y26.0143 
G01 X6.5579 Y26.1485 
G01 X6.4000 Y26.2539 
G01 X6.3699 Y26.2664 
G01 X7.3916 Y27.2881 
G01 X7.4619 Y27.3584 
G01 X7.5000 Y27.4503 
G01 X7.5000 Y32.2997 
G01 X7.4619 Y32.3916 
G01 X4.2500 Y35.6036 
G01 X4.2500 Y46.2780 
G01 X4.2597 Y46.2913 
G01 X4.3567 Y46.4817 
G01 X4.4227 Y46.6849 
G01 X4.4561 Y46.8959 
G01 X4.4561 Y49.6241 
G01 X4.4227 Y49.8351 
G01 X4.3567 Y50.0383 
G01 X4.2597 Y50.2287 
G01 X4.1341 Y50.4015 
G01 X3.9830 Y50.5526 
G01 X3.8102 Y50.6782 
G01 X3.6198 Y50.7752 
G01 X3.4166 Y50.8412 
G01 X3.2056 Y50.8746 
G01 X2.9920 Y50.8746 
G01 X2.7810 Y50.8412 
G01 X2.5778 Y50.7752 
G01 X2.3874 Y50.6782 
G01 X2.2146 Y50.5526 
G01 X2.0635 Y50.4015 
G01 X1.9379 Y50.2287 
G01 X1.8409 Y50.0383 
G01 X1.7749 Y49.8351 
G01 X1.7415 Y49.6241 
G01 X1.7415 Y46.8959 
G01 X1.7749 Y46.6849 
G01 X1.8409 Y46.4817 
G01 X1.9379 Y46.2913 
G01 X2.0635 Y46.1185 
G01 X2.2146 Y45.9674 
G01 X2.3874 Y45.8418 
G01 X2.5778 Y45.7448 
G01 X2.7810 Y45.6788 
G01 X2.9920 Y45.6454 
G01 X3.2056 Y45.6454 
G01 X3.4166 Y45.6788 
G01 X3.6198 Y45.7448 
G01 X3.7500 Y45.8112 
G01 X3.7500 Y35.4503 
G01 X3.7881 Y35.3584 
G01 X3.8584 Y35.2881 
G01 X7.0000 Y32.1464 
G01 X7.0000 Y27.6036 
G01 X5.7600 Y26.3636 
G01 X4.1215 Y26.3636 
G01 X3.9353 Y26.3266 
G01 X3.7600 Y26.2539 
G01 X3.6021 Y26.1485 
G01 X3.4679 Y26.0143 
G01 X3.3625 Y25.8564 
G01 X3.2898 Y25.6811 
G01 X3.2528 Y25.4949 
G01 X3.2528 Y25.3051 
G01 X3.2898 Y25.1189 
G01 X3.3625 Y24.9436 
G01 X3.4679 Y24.7857 
G01 X3.6021 Y24.6515 
G01 X3.7600 Y24.5461 
G01 X3.9353 Y24.4734 
G01 X4.1215 Y24.4364 
G00 Z2.0000 
G00 X4.1215 Y28.2464 
G01 Z-0.0250 F254.00 
G01 X6.0385 Y28.2464 F508.00 
G01 X6.2247 Y28.2834 
G01 X6.4000 Y28.3561 
G01 X6.5579 Y28.4615 
G01 X6.6921 Y28.5957 
G01 X6.7975 Y28.7536 
G01 X6.8702 Y28.9289 
G01 X6.9072 Y29.1151 
G01 X6.9072 Y29.3049 
G01 X6.8702 Y29.4911 
G01 X6.7975 Y29.6664 
G01 X6.6921 Y29.8243 
G01 X6.5579 Y29.9585 
G01 X6.4000 Y30.0639 
G01 X6.2247 Y30.1366 
G01 X6.0385 Y30.1736 
G01 X4.1215 Y30.1736 
G01 X3.9353 Y30.1366 
G01 X3.7600 Y30.0639 
G01 X3.6021 Y29.9585 
G01 X3.4679 Y29.8243 
G01 X3.3625 Y29.6664 
G01 X3.2898 Y29.4911 
G01 X3.2528 Y29.3049 
G01 X3.2528 Y29.1151 
G01 X3.2898 Y28.9289 
G01 X3.3625 Y28.7536 
G01 X3.4679 Y28.5957 
G01 X3.6021 Y28.4615 
G01 X3.7600 Y28.3561 
G01 X3.9353 Y28.2834 
G01 X4.1215 Y28.2464 
G00 Z2.0000 
G00 X14.1000 Y22.2401 
G01 Z-0.0250 F254.00 
G01 X14.1000 Y22.9964 F508.00 
G01 X14.8916 Y23.7881 
G01 X14.9619 Y23.8584 
G01 X15.0000 Y23.9503 
G01 X15.0000 Y24.6464 
G01 X19.7935 Y29.4400 
G01 X21.9399 Y29.4400 
G01 X21.9766 Y29.4552 
G01 X22.0048 Y29.4834 
G01 X22.0200 Y29.5201 
G01 X22.0200 Y31.3399 
G01 X22.0048 Y31.3766 
G01 X21.9766 Y31.4048 
G01 X21.9399 Y31.4200 
G01 X18.7001 Y31.4200 
G01 X18.6634 Y31.4048 
G01 X18.6352 Y31.3766 
G01 X18.6200 Y31.3399 
G01 X18.6200 Y29.5201 
G01 X18.6352 Y29.4834 
G01 X18.6634 Y29.4552 
G01 X18.7001 Y29.4400 
G01 X19.0864 Y29.4400 
G01 X15.0000 Y25.3535 
G01 X15.0000 Y27.1050 
G01 X15.5049 Y27.1050 
G01 X15.5416 Y27.1202 
G01 X15.5698 Y27.1484 
G01 X15.5850 Y27.1851 
G01 X15.5850 Y28.6949 
G01 X15.5698 Y28.7316 
G01 X15.5416 Y28.7598 
G01 X15.5049 Y28.7750 
G01 X14.1951 Y28.7750 
G01 X14.1584 Y28.7598 
G01 X14.1302 Y28.7316 
G01 X14.1150 Y28.6949 
G01 X14.1150 Y27.1851 
G01 X14.1302 Y27.1484 
G01 X14.1584 Y27.1202 
G01 X14.1951 Y27.1050 
G01 X14.5000 Y27.1050 
G01 X14.5000 Y24.1036 
G01 X13.9564 Y23.5600 
G01 X13.1801 Y23.5600 
G01 X13.1434 Y23.5448 
G01 X13.1152 Y23.5166 
G01 X13.1000 Y23.4799 
G01 X13.1000 Y22.2401 
G01 X13.1152 Y22.2034 
G01 X13.1434 Y22.1752 
G01 X13.1801 Y22.1600 
G01 X14.0199 Y22.1600 
G01 X14.0566 Y22.1752 
G01 X14.0848 Y22.2034 
G01 X14.1000 Y22.2401 
G00 Z2.0000 
G00 X18.7001 Y24.4600 
G01 Z-0.0250 F254.00 
G01 X20.2500 Y24.4600 F508.00 
G01 X20.2500 Y20.9407 
G01 X19.9064 Y20.9407 
G01 X19.8697 Y20.9255 
G01 X19.8415 Y20.8973 
G01 X19.8263 Y20.8606 
G01 X19.8263 Y19.3222 
G01 X19.8415 Y19.2855 
G01 X19.8697 Y19.2573 
G01 X19.9064 Y19.2421 
G01 X21.9528 Y19.2421 
G01 X21.9895 Y19.2573 
G01 X22.0177 Y19.2855 
G01 X22.0329 Y19.3222 
G01 X22.0329 Y20.8606 
G01 X22.0177 Y20.8973 
G01 X21.9895 Y20.9255 
G01 X21.9528 Y20.9407 
G01 X20.7500 Y20.9407 
G01 X20.7500 Y24.4600 
G01 X21.9399 Y24.4600 
G01 X21.9766 Y24.4752 
G01 X22.0048 Y24.5034 
G01 X22.0200 Y24.5401 
G01 X22.0200 Y26.3599 
G01 X22.0048 Y26.3966 
G01 X21.9766 Y26.4248 
G01 X21.9399 Y26.4400 
G01 X18.7001 Y26.4400 
G01 X18.6634 Y26.4248 
G01 X18.6352 Y26.3966 
G01 X18.6200 Y26.3599 
G01 X18.6200 Y24.5401 
G01 X18.6352 Y24.5034 
G01 X18.6634 Y24.4752 
G01 X18.7001 Y24.4600 
G00 Z2.0000 
G00 X15.6536 Y19.7850 
G01 Z-0.0250 F254.00 
G01 X13.6072 Y19.7850 F508.00 
G01 X13.5705 Y19.7698 
G01 X13.5423 Y19.7416 
G01 X13.5271 Y19.7049 
G01 X13.5271 Y15.8551 
G01 X13.5423 Y15.8184 
G01 X13.5705 Y15.7902 
G01 X13.6072 Y15.7750 
G01 X15.6536 Y15.7750 
G01 X15.6903 Y15.7902 
G01 X15.7185 Y15.8184 
G01 X15.7337 Y15.8551 
G01 X15.7337 Y19.7049 
G01 X15.7185 Y19.7416 
G01 X15.6903 Y19.7698 
G01 X15.6536 Y19.7850 
G00 Z2.0000 
G00 X28.5639 Y49.6241 
G01 Z-0.0250 F254.00 
G01 X28.5639 Y46.8959 F508.00 
G01 X28.5973 Y46.6849 
G01 X28.6633 Y46.4817 
G01 X28.7603 Y46.2913 
G01 X28.8859 Y46.1185 
G01 X29.0370 Y45.9674 
G01 X29.2098 Y45.8418 
G01 X29.4002 Y45.7448 
G01 X29.6034 Y45.6788 
G01 X29.8144 Y45.6454 
G01 X30.0280 Y45.6454 
G01 X30.2390 Y45.6788 
G01 X30.4422 Y45.7448 
G01 X30.6326 Y45.8418 
G01 X30.8054 Y45.9674 
G01 X30.9565 Y46.1185 
G01 X31.0821 Y46.2913 
G01 X31.1791 Y46.4817 
G01 X31.2451 Y46.6849 
G01 X31.2785 Y46.8959 
G01 X31.2785 Y49.6241 
G01 X31.2451 Y49.8351 
G01 X31.1791 Y50.0383 
G01 X31.0821 Y50.2287 
G01 X30.9565 Y50.4015 
G01 X30.8054 Y50.5526 
G01 X30.6326 Y50.6782 
G01 X30.4422 Y50.7752 
G01 X30.2390 Y50.8412 
G01 X30.0280 Y50.8746 
G01 X29.8144 Y50.8746 
G01 X29.6034 Y50.8412 
G01 X29.4002 Y50.7752 
G01 X29.2098 Y50.6782 
G01 X29.0370 Y50.5526 
G01 X28.8859 Y50.4015 
G01 X28.7603 Y50.2287 
G01 X28.6633 Y50.0383 
G01 X28.5973 Y49.8351 
G01 X28.5639 Y49.6241 
G00 Z2.0000 
G00 X24.6015 Y49.6241 
G01 Z-0.0250 F254.00 
G01 X24.6015 Y46.8959 F508.00 
G01 X24.6349 Y46.6849 
G01 X24.7009 Y46.4817 
G01 X24.7979 Y46.2913 
G01 X24.9235 Y46.1185 
G01 X25.0746 Y45.9674 
G01 X25.2474 Y45.8418 
G01 X25.4378 Y45.7448 
G01 X25.6410 Y45.6788 
G01 X25.7500 Y45.6616 
G01 X25.7500 Y45.2003 
G01 X25.7881 Y45.1084 
G01 X25.8584 Y45.0381 
G01 X25.9503 Y45.0000 
G01 X33.2500 Y45.0000 
G01 X33.2500 Y44.0150 
G01 X32.7551 Y44.0150 
G01 X32.7184 Y43.9998 
G01 X32.6902 Y43.9716 
G01 X32.6750 Y43.9349 
G01 X32.6750 Y42.4251 
G01 X32.6902 Y42.3884 
G01 X32.7184 Y42.3602 
G01 X32.7551 Y42.3450 
G01 X34.0649 Y42.3450 
G01 X34.1016 Y42.3602 
G01 X34.1298 Y42.3884 
G01 X34.1450 Y42.4251 
G01 X34.1450 Y43.9349 
G01 X34.1298 Y43.9716 
G01 X34.1016 Y43.9998 
G01 X34.0649 Y44.0150 
G01 X33.7500 Y44.0150 
G01 X33.7500 Y49.0000 
G01 X34.9600 Y49.0000 
G01 X34.9600 Y48.6401 
G01 X34.9752 Y48.6034 
G01 X35.0034 Y48.5752 
G01 X35.0401 Y48.5600 
G01 X36.0799 Y48.5600 
G01 X36.1166 Y48.5752 
G01 X36.1448 Y48.6034 
G01 X36.1600 Y48.6401 
G01 X36.1600 Y50.0799 
G01 X36.1448 Y50.1166 
G01 X36.1166 Y50.1448 
G01 X36.0799 Y50.1600 
G01 X35.0401 Y50.1600 
G01 X35.0034 Y50.1448 
G01 X34.9752 Y50.1166 
G01 X34.9600 Y50.0799 
G01 X34.9600 Y49.5000 
G01 X33.4503 Y49.5000 
G01 X33.3584 Y49.4619 
G01 X33.2881 Y49.3916 
G01 X33.2500 Y49.2997 
G01 X33.2500 Y45.5000 
G01 X26.2500 Y45.5000 
G01 X26.2500 Y45.6746 
G01 X26.2766 Y45.6788 
G01 X26.4798 Y45.7448 
G01 X26.6702 Y45.8418 
G01 X26.8430 Y45.9674 
G01 X26.9941 Y46.1185 
G01 X27.1197 Y46.2913 
G01 X27.2167 Y46.4817 
G01 X27.2827 Y46.6849 
G01 X27.3161 Y46.8959 
G01 X27.3161 Y49.6241 
G01 X27.2827 Y49.8351 
G01 X27.2167 Y50.0383 
G01 X27.1197 Y50.2287 
G01 X26.9941 Y50.4015 
G01 X26.8430 Y50.5526 
G01 X26.6702 Y50.6782 
G01 X26.4798 Y50.7752 
G01 X26.2766 Y50.8412 
G01 X26.0656 Y50.8746 
G01 X25.8520 Y50.8746 
G01 X25.6410 Y50.8412 
G01 X25.4378 Y50.7752 
G01 X25.2474 Y50.6782 
G01 X25.0746 Y50.5526 
G01 X24.9235 Y50.4015 
G01 X24.7979 Y50.2287 
G01 X24.7009 Y50.0383 
G01 X24.6349 Y49.8351 
G01 X24.6015 Y49.6241 
G00 Z2.0000 
G00 X42.5601 Y33.4200 
G01 Z-0.0250 F254.00 
G01 X43.7999 Y33.4200 F508.00 
G01 X43.8366 Y33.4352 
G01 X43.8648 Y33.4634 
G01 X43.8800 Y33.5001 
G01 X43.8800 Y34.3399 
G01 X43.8648 Y34.3766 
G01 X43.8366 Y34.4048 
G01 X43.7999 Y34.4200 
G01 X43.0000 Y34.4200 
G01 X43.0000 Y35.4455 
G01 X43.0380 Y35.4612 
G01 X43.1376 Y35.5277 
G01 X43.2223 Y35.6124 
G01 X43.2888 Y35.7120 
G01 X43.3346 Y35.8227 
G01 X43.3580 Y35.9401 
G01 X43.3580 Y36.0599 
G01 X43.3346 Y36.1773 
G01 X43.2888 Y36.2880 
G01 X43.2223 Y36.3876 
G01 X43.1376 Y36.4723 
G01 X43.0380 Y36.5388 
G01 X42.9273 Y36.5846 
G01 X42.8099 Y36.6080 
G01 X42.6901 Y36.6080 
G01 X42.5727 Y36.5846 
G01 X42.4620 Y36.5388 
G01 X42.3624 Y36.4723 
G01 X42.2777 Y36.3876 
G01 X42.2112 Y36.2880 
G01 X42.1654 Y36.1773 
G01 X42.1420 Y36.0599 
G01 X42.1420 Y35.9401 
G01 X42.1654 Y35.8227 
G01 X42.2112 Y35.7120 
G01 X42.2777 Y35.6124 
G01 X42.3624 Y35.5277 
G01 X42.4620 Y35.4612 
G01 X42.5000 Y35.4455 
G01 X42.5000 Y34.3814 
G01 X42.4952 Y34.3766 
G01 X42.4800 Y34.3399 
G01 X42.4800 Y33.5001 
G01 X42.4952 Y33.4634 
G01 X42.5234 Y33.4352 
G01 X42.5601 Y33.4200 
G00 Z2.0000 
G00 X47.3600 Y48.1812 
G01 Z-0.0250 F254.00 
G01 X47.3600 Y48.3388 F508.00 
G01 X47.3293 Y48.4933 
G01 X47.2689 Y48.6389 
G01 X47.1814 Y48.7700 
G01 X47.0700 Y48.8814 
G01 X47.0000 Y48.9281 
G01 X47.0000 Y52.0000 
G01 X56.8964 Y52.0000 
G01 X63.2500 Y45.6464 
G01 X63.2500 Y25.6036 
G01 X62.6079 Y24.9615 
G01 X62.4963 Y25.0077 
G01 X62.3199 Y25.0428 
G01 X62.1401 Y25.0428 
G01 X61.9637 Y25.0077 
G01 X61.7976 Y24.9389 
G01 X61.6481 Y24.8390 
G01 X61.5210 Y24.7119 
G01 X61.4211 Y24.5624 
G01 X61.3523 Y24.3963 
G01 X61.3172 Y24.2199 
G01 X61.3172 Y24.0401 
G01 X61.3523 Y23.8637 
G01 X61.4211 Y23.6976 
G01 X61.5210 Y23.5481 
G01 X61.6481 Y23.4210 
G01 X61.7976 Y23.3211 
G01 X61.9637 Y23.2523 
G01 X62.1401 Y23.2172 
G01 X62.3199 Y23.2172 
G01 X62.4963 Y23.2523 
G01 X62.6624 Y23.3211 
G01 X62.8119 Y23.4210 
G01 X62.9390 Y23.5481 
G01 X63.0389 Y23.6976 
G01 X63.1077 Y23.8637 
G01 X63.1428 Y24.0401 
G01 X63.1428 Y24.2199 
G01 X63.1077 Y24.3963 
G01 X63.0389 Y24.5624 
G01 X62.9896 Y24.6361 
G01 X63.6416 Y25.2881 
G01 X63.7119 Y25.3584 
G01 X63.7500 Y25.4503 
G01 X63.7500 Y45.7997 
G01 X63.7119 Y45.8916 
G01 X57.2119 Y52.3916 
G01 X57.1416 Y52.4619 
G01 X57.0497 Y52.5000 
G01 X46.7003 Y52.5000 
G01 X46.6084 Y52.4619 
G01 X46.5381 Y52.3916 
G01 X46.5000 Y52.2997 
G01 X46.5000 Y49.0600 
G01 X46.4812 Y49.0600 
G01 X46.3266 Y49.0293 
G01 X46.1811 Y48.9689 
G01 X46.0500 Y48.8814 
G01 X45.9386 Y48.7700 
G01 X45.8511 Y48.6389 
G01 X45.7907 Y48.4933 
G01 X45.7600 Y48.3388 
G01 X45.7600 Y48.1812 
G01 X45.7907 Y48.0266 
G01 X45.8511 Y47.8811 
G01 X45.9386 Y47.7500 
G01 X46.0500 Y47.6386 
G01 X46.1811 Y47.5511 
G01 X46.3266 Y47.4907 
G01 X46.4812 Y47.4600 
G01 X46.6388 Y47.4600 
G01 X46.7934 Y47.4907 
G01 X46.9389 Y47.5511 
G01 X47.0700 Y47.6386 
G01 X47.1814 Y47.7500 
G01 X47.2689 Y47.8811 
G01 X47.3293 Y48.0266 
G01 X47.3600 Y48.1812 
G00 Z2.0000 
G00 X50.7600 Y48.1812 
G01 Z-0.0250 F254.00 
G01 X50.7600 Y48.2500 F508.00 
G01 X55.5000 Y48.2500 
G01 X55.5000 Y35.4503 
G01 X55.5381 Y35.3584 
G01 X55.6084 Y35.2881 
G01 X61.3722 Y29.5243 
G01 X61.3523 Y29.4763 
G01 X61.3172 Y29.2999 
G01 X61.3172 Y29.1201 
G01 X61.3523 Y28.9437 
G01 X61.4211 Y28.7776 
G01 X61.5210 Y28.6281 
G01 X61.6481 Y28.5010 
G01 X61.7976 Y28.4011 
G01 X61.9637 Y28.3323 
G01 X62.1401 Y28.2972 
G01 X62.3199 Y28.2972 
G01 X62.4963 Y28.3323 
G01 X62.6624 Y28.4011 
G01 X62.8119 Y28.5010 
G01 X62.9390 Y28.6281 
G01 X63.0389 Y28.7776 
G01 X63.1077 Y28.9437 
G01 X63.1428 Y29.1201 
G01 X63.1428 Y29.2999 
G01 X63.1077 Y29.4763 
G01 X63.0389 Y29.6424 
G01 X62.9390 Y29.7919 
G01 X62.8119 Y29.9190 
G01 X62.6624 Y30.0189 
G01 X62.4963 Y30.0877 
G01 X62.3199 Y30.1228 
G01 X62.1401 Y30.1228 
G01 X61.9637 Y30.0877 
G01 X61.7976 Y30.0189 
G01 X61.6700 Y29.9336 
G01 X56.0000 Y35.6036 
G01 X56.0000 Y49.8872 
G01 X56.7827 Y49.8872 
G01 X56.9591 Y49.9223 
G01 X57.1252 Y49.9911 
G01 X57.2747 Y50.0910 
G01 X57.4018 Y50.2181 
G01 X57.5017 Y50.3676 
G01 X57.5705 Y50.5337 
G01 X57.6056 Y50.7101 
G01 X57.6056 Y50.8899 
G01 X57.5705 Y51.0663 
G01 X57.5017 Y51.2324 
G01 X57.4018 Y51.3819 
G01 X57.2747 Y51.5090 
G01 X57.1252 Y51.6089 
G01 X56.9591 Y51.6777 
G01 X56.7827 Y51.7128 
G01 X54.9773 Y51.7128 
G01 X54.8009 Y51.6777 
G01 X54.6348 Y51.6089 
G01 X54.4853 Y51.5090 
G01 X54.3582 Y51.3819 
G01 X54.2583 Y51.2324 
G01 X54.1895 Y51.0663 
G01 X54.1544 Y50.8899 
G01 X54.1544 Y50.7101 
G01 X54.1895 Y50.5337 
G01 X54.2583 Y50.3676 
G01 X54.3582 Y50.2181 
G01 X54.4853 Y50.0910 
G01 X54.6348 Y49.9911 
G01 X54.8009 Y49.9223 
G01 X54.9773 Y49.8872 
G01 X55.5000 Y49.8872 
G01 X55.5000 Y48.7500 
G01 X50.5947 Y48.7500 
G01 X50.5814 Y48.7700 
G01 X50.4700 Y48.8814 
G01 X50.3389 Y48.9689 
G01 X50.1934 Y49.0293 
G01 X50.0388 Y49.0600 
G01 X49.8812 Y49.0600 
G01 X49.7266 Y49.0293 
G01 X49.5811 Y48.9689 
G01 X49.4500 Y48.8814 
G01 X49.3386 Y48.7700 
G01 X49.2510 Y48.6389 
G01 X49.1907 Y48.4933 
G01 X49.1600 Y48.3388 
G01 X49.1600 Y48.1812 
G01 X49.1907 Y48.0266 
G01 X49.2510 Y47.8811 
G01 X49.3386 Y47.7500 
G01 X49.4500 Y47.6386 
G01 X49.5811 Y47.5511 
G01 X49.7266 Y47.4907 
G01 X49.8812 Y47.4600 
G01 X50.0388 Y47.4600 
G01 X50.1934 Y47.4907 
G01 X50.3389 Y47.5511 
G01 X50.4700 Y47.6386 
G01 X50.5814 Y47.7500 
G01 X50.6689 Y47.8811 
G01 X50.7293 Y48.0266 
G01 X50.7600 Y48.1812 
G00 Z2.0000 
G00 X33.4200 Y31.0999 
G01 Z-0.0250 F254.00 
G01 X33.4200 Y29.8601 F508.00 
G01 X33.4352 Y29.8234 
G01 X33.4634 Y29.7952 
G01 X33.5001 Y29.7800 
G01 X34.3399 Y29.7800 
G01 X34.3766 Y29.7952 
G01 X34.4048 Y29.8234 
G01 X34.4200 Y29.8601 
G01 X34.4200 Y30.5664 
G01 X37.3916 Y33.5381 
G01 X37.4619 Y33.6084 
G01 X37.5000 Y33.7003 
G01 X37.5000 Y38.8964 
G01 X40.7847 Y42.1811 
G01 X40.8227 Y42.1654 
G01 X40.9401 Y42.1420 
G01 X41.0599 Y42.1420 
G01 X41.1773 Y42.1654 
G01 X41.2880 Y42.2112 
G01 X41.3876 Y42.2777 
G01 X41.4723 Y42.3624 
G01 X41.5388 Y42.4620 
G01 X41.5846 Y42.5727 
G01 X41.6080 Y42.6901 
G01 X41.6080 Y42.8099 
G01 X41.5846 Y42.9273 
G01 X41.5388 Y43.0380 
G01 X41.4723 Y43.1376 
G01 X41.3876 Y43.2223 
G01 X41.2880 Y43.2888 
G01 X41.1773 Y43.3346 
G01 X41.0599 Y43.3580 
G01 X40.9401 Y43.3580 
G01 X40.8227 Y43.3346 
G01 X40.7120 Y43.2888 
G01 X40.6124 Y43.2223 
G01 X40.5277 Y43.1376 
G01 X40.4612 Y43.0380 
G01 X40.4154 Y42.9273 
G01 X40.3920 Y42.8099 
G01 X40.3920 Y42.6901 
G01 X40.4154 Y42.5727 
G01 X40.4311 Y42.5347 
G01 X37.0381 Y39.1416 
G01 X37.0000 Y39.0497 
G01 X37.0000 Y33.8536 
G01 X34.3264 Y31.1800 
G01 X33.5001 Y31.1800 
G01 X33.4634 Y31.1648 
G01 X33.4352 Y31.1366 
G01 X33.4200 Y31.0999 
G00 Z2.0000 
G00 X13.3239 Y49.6241 
G01 Z-0.0250 F254.00 
G01 X13.3239 Y46.8959 F508.00 
G01 X13.3573 Y46.6849 
G01 X13.4233 Y46.4817 
G01 X13.5203 Y46.2913 
G01 X13.6459 Y46.1185 
G01 X13.7970 Y45.9674 
G01 X13.9698 Y45.8418 
G01 X14.1602 Y45.7448 
G01 X14.3634 Y45.6788 
G01 X14.5744 Y45.6454 
G01 X14.7880 Y45.6454 
G01 X14.9990 Y45.6788 
G01 X15.2022 Y45.7448 
G01 X15.3926 Y45.8418 
G01 X15.5654 Y45.9674 
G01 X15.7165 Y46.1185 
G01 X15.8421 Y46.2913 
G01 X15.9391 Y46.4817 
G01 X16.0051 Y46.6849 
G01 X16.0385 Y46.8959 
G01 X16.0385 Y49.6241 
G01 X16.0051 Y49.8351 
G01 X15.9391 Y50.0383 
G01 X15.8421 Y50.2287 
G01 X15.7165 Y50.4015 
G01 X15.5654 Y50.5526 
G01 X15.3926 Y50.6782 
G01 X15.2022 Y50.7752 
G01 X14.9990 Y50.8412 
G01 X14.7880 Y50.8746 
G01 X14.5744 Y50.8746 
G01 X14.3634 Y50.8412 
G01 X14.1602 Y50.7752 
G01 X13.9698 Y50.6782 
G01 X13.7970 Y50.5526 
G01 X13.6459 Y50.4015 
G01 X13.5203 Y50.2287 
G01 X13.4233 Y50.0383 
G01 X13.3573 Y49.8351 
G01 X13.3239 Y49.6241 
G00 Z2.0000 
G00 X9.3615 Y49.6241 
G01 Z-0.0250 F254.00 
G01 X9.3615 Y46.8959 F508.00 
G01 X9.3949 Y46.6849 
G01 X9.4609 Y46.4817 
G01 X9.5579 Y46.2913 
G01 X9.6835 Y46.1185 
G01 X9.8346 Y45.9674 
G01 X10.0074 Y45.8418 
G01 X10.1978 Y45.7448 
G01 X10.4010 Y45.6788 
G01 X10.6120 Y45.6454 
G01 X10.8256 Y45.6454 
G01 X11.0366 Y45.6788 
G01 X11.2398 Y45.7448 
G01 X11.4302 Y45.8418 
G01 X11.6030 Y45.9674 
G01 X11.7541 Y46.1185 
G01 X11.8797 Y46.2913 
G01 X11.9767 Y46.4817 
G01 X12.0427 Y46.6849 
G01 X12.0761 Y46.8959 
G01 X12.0761 Y49.6241 
G01 X12.0427 Y49.8351 
G01 X11.9767 Y50.0383 
G01 X11.8797 Y50.2287 
G01 X11.7541 Y50.4015 
G01 X11.6030 Y50.5526 
G01 X11.4302 Y50.6782 
G01 X11.2398 Y50.7752 
G01 X11.0366 Y50.8412 
G01 X10.8256 Y50.8746 
G01 X10.6120 Y50.8746 
G01 X10.4010 Y50.8412 
G01 X10.1978 Y50.7752 
G01 X10.0074 Y50.6782 
G01 X9.8346 Y50.5526 
G01 X9.6835 Y50.4015 
G01 X9.5579 Y50.2287 
G01 X9.4609 Y50.0383 
G01 X9.3949 Y49.8351 
G01 X9.3615 Y49.6241 
G00 Z2.0000 
G00 X52.4272 Y46.6227 
G01 Z-0.0250 F254.00 
G01 X52.4272 Y44.8173 F508.00 
G01 X52.4623 Y44.6409 
G01 X52.5311 Y44.4748 
G01 X52.6310 Y44.3253 
G01 X52.7581 Y44.1982 
G01 X52.9076 Y44.0983 
G01 X53.0737 Y44.0295 
G01 X53.2501 Y43.9944 
G01 X53.4299 Y43.9944 
G01 X53.6063 Y44.0295 
G01 X53.7724 Y44.0983 
G01 X53.9219 Y44.1982 
G01 X54.0490 Y44.3253 
G01 X54.1489 Y44.4748 
G01 X54.2177 Y44.6409 
G01 X54.2528 Y44.8173 
G01 X54.2528 Y46.6227 
G01 X54.2177 Y46.7991 
G01 X54.1489 Y46.9652 
G01 X54.0490 Y47.1147 
G01 X53.9219 Y47.2418 
G01 X53.7724 Y47.3417 
G01 X53.6063 Y47.4105 
G01 X53.4299 Y47.4456 
G01 X53.2501 Y47.4456 
G01 X53.0737 Y47.4105 
G01 X52.9076 Y47.3417 
G01 X52.7581 Y47.2418 
G01 X52.6310 Y47.1147 
G01 X52.5311 Y46.9652 
G01 X52.4623 Y46.7991 
G01 X52.4272 Y46.6227 
G00 Z2.0000 
G00 X57.5072 Y46.6227 
G01 Z-0.0250 F254.00 
G01 X57.5072 Y44.8173 F508.00 
G01 X57.5423 Y44.6409 
G01 X57.6111 Y44.4748 
G01 X57.7110 Y44.3253 
G01 X57.8381 Y44.1982 
G01 X57.9876 Y44.0983 
G01 X58.1537 Y44.0295 
G01 X58.3301 Y43.9944 
G01 X58.5099 Y43.9944 
G01 X58.6863 Y44.0295 
G01 X58.8524 Y44.0983 
G01 X59.0019 Y44.1982 
G01 X59.1290 Y44.3253 
G01 X59.2289 Y44.4748 
G01 X59.2977 Y44.6409 
G01 X59.3328 Y44.8173 
G01 X59.3328 Y46.6227 
G01 X59.2977 Y46.7991 
G01 X59.2289 Y46.9652 
G01 X59.1290 Y47.1147 
G01 X59.0019 Y47.2418 
G01 X58.8524 Y47.3417 
G01 X58.6863 Y47.4105 
G01 X58.5099 Y47.4456 
G01 X58.3301 Y47.4456 
G01 X58.1537 Y47.4105 
G01 X57.9876 Y47.3417 
G01 X57.8381 Y47.2418 
G01 X57.7110 Y47.1147 
G01 X57.6111 Y46.9652 
G01 X57.5423 Y46.7991 
G01 X57.5072 Y46.6227 
G00 Z2.0000 
G00 X10.6188 Y3.3311 
G01 Z-0.0250 F254.00 
G01 X10.6188 Y1.7489 F508.00 
G01 X10.6500 Y1.5922 
G01 X10.7111 Y1.4446 
G01 X10.7999 Y1.3117 
G01 X10.9129 Y1.1987 
G01 X11.0457 Y1.1099 
G01 X11.1934 Y1.0488 
G01 X11.3501 Y1.0176 
G01 X11.5099 Y1.0176 
G01 X11.6666 Y1.0488 
G01 X11.8142 Y1.1099 
G01 X11.9471 Y1.1987 
G01 X12.0601 Y1.3117 
G01 X12.1489 Y1.4446 
G01 X12.2100 Y1.5922 
G01 X12.2412 Y1.7489 
G01 X12.2412 Y3.3311 
G01 X12.2100 Y3.4878 
G01 X12.1489 Y3.6354 
G01 X12.0601 Y3.7683 
G01 X11.9471 Y3.8813 
G01 X11.8142 Y3.9701 
G01 X11.6666 Y4.0312 
G01 X11.5099 Y4.0624 
G01 X11.3501 Y4.0624 
G01 X11.1934 Y4.0312 
G01 X11.0457 Y3.9701 
G01 X10.9129 Y3.8813 
G01 X10.7999 Y3.7683 
G01 X10.7111 Y3.6354 
G01 X10.6500 Y3.4878 
G01 X10.6188 Y3.3311 
G00 Z2.0000 
G00 X13.1588 Y3.3311 
G01 Z-0.0250 F254.00 
G01 X13.1588 Y1.7489 F508.00 
G01 X13.1900 Y1.5922 
G01 X13.2511 Y1.4446 
G01 X13.3399 Y1.3117 
G01 X13.4529 Y1.1987 
G01 X13.5858 Y1.1099 
G01 X13.7334 Y1.0488 
G01 X13.8901 Y1.0176 
G01 X14.0499 Y1.0176 
G01 X14.2066 Y1.0488 
G01 X14.3542 Y1.1099 
G01 X14.4871 Y1.1987 
G01 X14.6001 Y1.3117 
G01 X14.6889 Y1.4446 
G01 X14.7500 Y1.5922 
G01 X14.7812 Y1.7489 
G01 X14.7812 Y3.3311 
G01 X14.7500 Y3.4878 
G01 X14.6889 Y3.6354 
G01 X14.6001 Y3.7683 
G01 X14.4871 Y3.8813 
G01 X14.3542 Y3.9701 
G01 X14.2066 Y4.0312 
G01 X14.0499 Y4.0624 
G01 X13.8901 Y4.0624 
G01 X13.7334 Y4.0312 
G01 X13.5858 Y3.9701 
G01 X13.4529 Y3.8813 
G01 X13.3399 Y3.7683 
G01 X13.2511 Y3.6354 
G01 X13.1900 Y3.4878 
G01 X13.1588 Y3.3311 
G00 Z2.0000 
G00 X15.6988 Y3.3311 
G01 Z-0.0250 F254.00 
G01 X15.6988 Y1.7489 F508.00 
G01 X15.7300 Y1.5922 
G01 X15.7911 Y1.4446 
G01 X15.8799 Y1.3117 
G01 X15.9929 Y1.1987 
G01 X16.1258 Y1.1099 
G01 X16.2734 Y1.0488 
G01 X16.4301 Y1.0176 
G01 X16.5899 Y1.0176 
G01 X16.7466 Y1.0488 
G01 X16.8942 Y1.1099 
G01 X17.0271 Y1.1987 
G01 X17.1401 Y1.3117 
G01 X17.2289 Y1.4446 
G01 X17.2900 Y1.5922 
G01 X17.3212 Y1.7489 
G01 X17.3212 Y3.3311 
G01 X17.2900 Y3.4878 
G01 X17.2289 Y3.6354 
G01 X17.1401 Y3.7683 
G01 X17.0271 Y3.8813 
G01 X16.8942 Y3.9701 
G01 X16.7466 Y4.0312 
G01 X16.5899 Y4.0624 
G01 X16.4301 Y4.0624 
G01 X16.2734 Y4.0312 
G01 X16.1258 Y3.9701 
G01 X15.9929 Y3.8813 
G01 X15.8799 Y3.7683 
G01 X15.7911 Y3.6354 
G01 X15.7300 Y3.4878 
G01 X15.6988 Y3.3311 
G00 Z2.0000 
G00 X18.2388 Y3.3311 
G01 Z-0.0250 F254.00 
G01 X18.2388 Y1.7489 F508.00 
G01 X18.2700 Y1.5922 
G01 X18.3311 Y1.4446 
G01 X18.4199 Y1.3117 
G01 X18.5329 Y1.1987 
G01 X18.6657 Y1.1099 
G01 X18.8134 Y1.0488 
G01 X18.9701 Y1.0176 
G01 X19.1299 Y1.0176 
G01 X19.2866 Y1.0488 
G01 X19.4342 Y1.1099 
G01 X19.5671 Y1.1987 
G01 X19.6801 Y1.3117 
G01 X19.7689 Y1.4446 
G01 X19.8300 Y1.5922 
G01 X19.8612 Y1.7489 
G01 X19.8612 Y3.3311 
G01 X19.8300 Y3.4878 
G01 X19.7689 Y3.6354 
G01 X19.6801 Y3.7683 
G01 X19.5671 Y3.8813 
G01 X19.4342 Y3.9701 
G01 X19.2866 Y4.0312 
G01 X19.1299 Y4.0624 
G01 X18.9701 Y4.0624 
G01 X18.8134 Y4.0312 
G01 X18.6657 Y3.9701 
G01 X18.5329 Y3.8813 
G01 X18.4199 Y3.7683 
G01 X18.3311 Y3.6354 
G01 X18.2700 Y3.4878 
G01 X18.2388 Y3.3311 
G00 Z2.0000 
G00 X20.7788 Y3.3311 
G01 Z-0.0250 F254.00 
G01 X20.7788 Y1.7489 F508.00 
G01 X20.8100 Y1.5922 
G01 X20.8711 Y1.4446 
G01 X20.9599 Y1.3117 
G01 X21.0729 Y1.1987 
G01 X21.2058 Y1.1099 
G01 X21.3534 Y1.0488 
G01 X21.5101 Y1.0176 
G01 X21.6699 Y1.0176 
G01 X21.8266 Y1.0488 
G01 X21.9742 Y1.1099 
G01 X22.1071 Y1.1987 
G01 X22.2201 Y1.3117 
G01 X22.3089 Y1.4446 
G01 X22.3700 Y1.5922 
G01 X22.4012 Y1.7489 
G01 X22.4012 Y3.3311 
G01 X22.3700 Y3.4878 
G01 X22.3089 Y3.6354 
G01 X22.2201 Y3.7683 
G01 X22.1071 Y3.8813 
G01 X21.9742 Y3.9701 
G01 X21.8266 Y4.0312 
G01 X21.6699 Y4.0624 
G01 X21.5101 Y4.0624 
G01 X21.3534 Y4.0312 
G01 X21.2058 Y3.9701 
G01 X21.0729 Y3.8813 
G01 X20.9599 Y3.7683 
G01 X20.8711 Y3.6354 
G01 X20.8100 Y3.4878 
G01 X20.7788 Y3.3311 
G00 Z2.0000 
G00 X23.3188 Y3.3311 
G01 Z-0.0250 F254.00 
G01 X23.3188 Y1.7489 F508.00 
G01 X23.3500 Y1.5922 
G01 X23.4111 Y1.4446 
G01 X23.4999 Y1.3117 
G01 X23.6129 Y1.1987 
G01 X23.7458 Y1.1099 
G01 X23.8934 Y1.0488 
G01 X24.0501 Y1.0176 
G01 X24.2099 Y1.0176 
G01 X24.3666 Y1.0488 
G01 X24.5142 Y1.1099 
G01 X24.6471 Y1.1987 
G01 X24.7601 Y1.3117 
G01 X24.8489 Y1.4446 
G01 X24.9100 Y1.5922 
G01 X24.9412 Y1.7489 
G01 X24.9412 Y3.0876 
G01 X24.9619 Y3.1084 
G01 X25.0000 Y3.2003 
G01 X25.0000 Y17.7500 
G01 X25.0550 Y17.7500 
G01 X25.0550 Y17.0251 
G01 X25.0702 Y16.9884 
G01 X25.0984 Y16.9602 
G01 X25.1351 Y16.9450 
G01 X26.4449 Y16.9450 
G01 X26.4816 Y16.9602 
G01 X26.5098 Y16.9884 
G01 X26.5250 Y17.0251 
G01 X26.5250 Y18.5349 
G01 X26.5098 Y18.5716 
G01 X26.4816 Y18.5998 
G01 X26.4449 Y18.6150 
G01 X25.1351 Y18.6150 
G01 X25.0984 Y18.5998 
G01 X25.0702 Y18.5716 
G01 X25.0550 Y18.5349 
G01 X25.0550 Y18.2500 
G01 X22.0329 Y18.2500 
G01 X22.0329 Y18.5746 
G01 X22.0177 Y18.6113 
G01 X21.9895 Y18.6395 
G01 X21.9528 Y18.6547 
G01 X19.9064 Y18.6547 
G01 X19.8697 Y18.6395 
G01 X19.8415 Y18.6113 
G01 X19.8263 Y18.5746 
G01 X19.8263 Y17.0362 
G01 X19.8415 Y16.9995 
G01 X19.8697 Y16.9713 
G01 X19.9064 Y16.9561 
G01 X21.9528 Y16.9561 
G01 X21.9895 Y16.9713 
G01 X22.0177 Y16.9995 
G01 X22.0329 Y17.0362 
G01 X22.0329 Y17.7500 
G01 X24.5000 Y17.7500 
G01 X24.5000 Y3.9760 
G01 X24.3666 Y4.0312 
G01 X24.2099 Y4.0624 
G01 X24.0501 Y4.0624 
G01 X23.8934 Y4.0312 
G01 X23.7458 Y3.9701 
G01 X23.6129 Y3.8813 
G01 X23.4999 Y3.7683 
G01 X23.4111 Y3.6354 
G01 X23.3500 Y3.4878 
G01 X23.3188 Y3.3311 
G00 Z2.0000 
G00 X25.8588 Y3.3311 
G01 Z-0.0250 F254.00 
G01 X25.8588 Y1.7489 F508.00 
G01 X25.8900 Y1.5922 
G01 X25.9511 Y1.4446 
G01 X26.0399 Y1.3117 
G01 X26.1529 Y1.1987 
G01 X26.2858 Y1.1099 
G01 X26.4334 Y1.0488 
G01 X26.5901 Y1.0176 
G01 X26.7499 Y1.0176 
G01 X26.9066 Y1.0488 
G01 X27.0542 Y1.1099 
G01 X27.1871 Y1.1987 
G01 X27.3001 Y1.3117 
G01 X27.3889 Y1.4446 
G01 X27.4500 Y1.5922 
G01 X27.4812 Y1.7489 
G01 X27.4812 Y3.1276 
G01 X29.2847 Y4.9311 
G01 X29.3227 Y4.9154 
G01 X29.4401 Y4.8920 
G01 X29.5599 Y4.8920 
G01 X29.6773 Y4.9154 
G01 X29.7880 Y4.9612 
G01 X29.8876 Y5.0277 
G01 X29.9723 Y5.1124 
G01 X30.0388 Y5.2120 
G01 X30.0846 Y5.3227 
G01 X30.1080 Y5.4401 
G01 X30.1080 Y5.5599 
G01 X30.0846 Y5.6773 
G01 X30.0388 Y5.7880 
G01 X29.9723 Y5.8876 
G01 X29.8876 Y5.9723 
G01 X29.7880 Y6.0388 
G01 X29.6773 Y6.0846 
G01 X29.5599 Y6.1080 
G01 X29.4401 Y6.1080 
G01 X29.3227 Y6.0846 
G01 X29.2120 Y6.0388 
G01 X29.1124 Y5.9723 
G01 X29.0277 Y5.8876 
G01 X28.9612 Y5.7880 
G01 X28.9154 Y5.6773 
G01 X28.8920 Y5.5599 
G01 X28.8920 Y5.4401 
G01 X28.9154 Y5.3227 
G01 X28.9311 Y5.2847 
G01 X27.3460 Y3.6996 
G01 X27.3001 Y3.7683 
G01 X27.1871 Y3.8813 
G01 X27.0542 Y3.9701 
G01 X26.9066 Y4.0312 
G01 X26.7499 Y4.0624 
G01 X26.5901 Y4.0624 
G01 X26.4334 Y4.0312 
G01 X26.2858 Y3.9701 
G01 X26.1529 Y3.8813 
G01 X26.0399 Y3.7683 
G01 X25.9511 Y3.6354 
G01 X25.8900 Y3.4878 
G01 X25.8588 Y3.3311 
G00 Z2.0000 
G00 X42.5601 Y1.1400 
G01 Z-0.0250 F254.00 
G01 X43.7999 Y1.1400 F508.00 
G01 X43.8366 Y1.1552 
G01 X43.8648 Y1.1834 
G01 X43.8800 Y1.2201 
G01 X43.8800 Y2.0599 
G01 X43.8648 Y2.0966 
G01 X43.8366 Y2.1248 
G01 X43.7999 Y2.1400 
G01 X42.5601 Y2.1400 
G01 X42.5234 Y2.1248 
G01 X42.4952 Y2.0966 
G01 X42.4800 Y2.0599 
G01 X42.4800 Y2.0000 
G01 X35.2500 Y2.0000 
G01 X35.2500 Y4.9455 
G01 X35.2880 Y4.9612 
G01 X35.3876 Y5.0277 
G01 X35.4723 Y5.1124 
G01 X35.5388 Y5.2120 
G01 X35.5846 Y5.3227 
G01 X35.6080 Y5.4401 
G01 X35.6080 Y5.5599 
G01 X35.5846 Y5.6773 
G01 X35.5388 Y5.7880 
G01 X35.4723 Y5.8876 
G01 X35.3876 Y5.9723 
G01 X35.2880 Y6.0388 
G01 X35.1773 Y6.0846 
G01 X35.0599 Y6.1080 
G01 X34.9401 Y6.1080 
G01 X34.8227 Y6.0846 
G01 X34.7120 Y6.0388 
G01 X34.6124 Y5.9723 
G01 X34.5277 Y5.8876 
G01 X34.4612 Y5.7880 
G01 X34.4154 Y5.6773 
G01 X34.3920 Y5.5599 
G01 X34.3920 Y5.4401 
G01 X34.4154 Y5.3227 
G01 X34.4612 Y5.2120 
G01 X34.5277 Y5.1124 
G01 X34.6124 Y5.0277 
G01 X34.7120 Y4.9612 
G01 X34.7500 Y4.9455 
G01 X34.7500 Y1.7003 
G01 X34.7881 Y1.6084 
G01 X34.8584 Y1.5381 
G01 X34.9503 Y1.5000 
G01 X42.4800 Y1.5000 
G01 X42.4800 Y1.2201 
G01 X42.4952 Y1.1834 
G01 X42.5234 Y1.1552 
G01 X42.5601 Y1.1400 
G00 Z2.0000 
G00 X13.0286 Y37.7388 
G01 Z-0.0250 F254.00 
G01 X13.0286 Y37.9024 F508.00 
G01 X13.0030 Y38.0641 
G01 X12.9524 Y38.2197 
G01 X12.8781 Y38.3656 
G01 X12.7819 Y38.4980 
G01 X12.6662 Y38.6137 
G01 X12.5338 Y38.7099 
G01 X12.3879 Y38.7842 
G01 X12.2323 Y38.8348 
G01 X12.0706 Y38.8604 
G01 X11.9070 Y38.8604 
G01 X11.7453 Y38.8348 
G01 X11.5897 Y38.7842 
G01 X11.4438 Y38.7099 
G01 X11.3114 Y38.6137 
G01 X11.1957 Y38.4980 
G01 X11.0995 Y38.3656 
G01 X11.0252 Y38.2197 
G01 X10.9746 Y38.0641 
G01 X10.9490 Y37.9024 
G01 X10.9490 Y37.7388 
G01 X10.9746 Y37.5771 
G01 X11.0252 Y37.4215 
G01 X11.0995 Y37.2756 
G01 X11.1957 Y37.1432 
G01 X11.3114 Y37.0275 
G01 X11.4438 Y36.9313 
G01 X11.5897 Y36.8570 
G01 X11.7453 Y36.8064 
G01 X11.9070 Y36.7808 
G01 X12.0706 Y36.7808 
G01 X12.2323 Y36.8064 
G01 X12.3879 Y36.8570 
G01 X12.5338 Y36.9313 
G01 X12.6662 Y37.0275 
G01 X12.7819 Y37.1432 
G01 X12.8781 Y37.2756 
G01 X12.9524 Y37.4215 
G01 X13.0030 Y37.5771 
G01 X13.0286 Y37.7388 
G00 Z2.0000 
G00 X19.5310 Y37.7388 
G01 Z-0.0250 F254.00 
G01 X19.5310 Y37.9024 F508.00 
G01 X19.5054 Y38.0641 
G01 X19.4548 Y38.2197 
G01 X19.3805 Y38.3656 
G01 X19.2843 Y38.4980 
G01 X19.1686 Y38.6137 
G01 X19.0362 Y38.7099 
G01 X18.8903 Y38.7842 
G01 X18.7347 Y38.8348 
G01 X18.5730 Y38.8604 
G01 X18.4094 Y38.8604 
G01 X18.2477 Y38.8348 
G01 X18.0921 Y38.7842 
G01 X17.9462 Y38.7099 
G01 X17.8138 Y38.6137 
G01 X17.6981 Y38.4980 
G01 X17.6019 Y38.3656 
G01 X17.5276 Y38.2197 
G01 X17.4770 Y38.0641 
G01 X17.4514 Y37.9024 
G01 X17.4514 Y37.7388 
G01 X17.4770 Y37.5771 
G01 X17.5276 Y37.4215 
G01 X17.6019 Y37.2756 
G01 X17.6981 Y37.1432 
G01 X17.8138 Y37.0275 
G01 X17.9462 Y36.9313 
G01 X18.0921 Y36.8570 
G01 X18.2477 Y36.8064 
G01 X18.4094 Y36.7808 
G01 X18.5730 Y36.7808 
G01 X18.7347 Y36.8064 
G01 X18.8903 Y36.8570 
G01 X19.0362 Y36.9313 
G01 X19.1686 Y37.0275 
G01 X19.2843 Y37.1432 
G01 X19.3805 Y37.2756 
G01 X19.4548 Y37.4215 
G01 X19.5054 Y37.5771 
G01 X19.5310 Y37.7388 
G00 Z2.0000 
G00 X13.0286 Y33.2176 
G01 Z-0.0250 F254.00 
G01 X13.0286 Y33.3812 F508.00 
G01 X13.0030 Y33.5429 
G01 X12.9524 Y33.6985 
G01 X12.8781 Y33.8444 
G01 X12.7819 Y33.9768 
G01 X12.6662 Y34.0925 
G01 X12.5338 Y34.1887 
G01 X12.3879 Y34.2630 
G01 X12.2323 Y34.3136 
G01 X12.0706 Y34.3392 
G01 X11.9070 Y34.3392 
G01 X11.7453 Y34.3136 
G01 X11.5897 Y34.2630 
G01 X11.4438 Y34.1887 
G01 X11.3114 Y34.0925 
G01 X11.1957 Y33.9768 
G01 X11.0995 Y33.8444 
G01 X11.0252 Y33.6985 
G01 X10.9746 Y33.5429 
G01 X10.9490 Y33.3812 
G01 X10.9490 Y33.2176 
G01 X10.9746 Y33.0559 
G01 X11.0252 Y32.9003 
G01 X11.0995 Y32.7544 
G01 X11.1957 Y32.6220 
G01 X11.3114 Y32.5063 
G01 X11.4438 Y32.4101 
G01 X11.5897 Y32.3358 
G01 X11.7453 Y32.2852 
G01 X11.9070 Y32.2596 
G01 X12.0706 Y32.2596 
G01 X12.2323 Y32.2852 
G01 X12.3879 Y32.3358 
G01 X12.5024 Y32.3941 
G01 X16.1811 Y28.7153 
G01 X16.1654 Y28.6773 
G01 X16.1420 Y28.5599 
G01 X16.1420 Y28.4401 
G01 X16.1654 Y28.3227 
G01 X16.2112 Y28.2120 
G01 X16.2777 Y28.1124 
G01 X16.3624 Y28.0277 
G01 X16.4620 Y27.9612 
G01 X16.5726 Y27.9154 
G01 X16.6901 Y27.8920 
G01 X16.8099 Y27.8920 
G01 X16.9273 Y27.9154 
G01 X17.0380 Y27.9612 
G01 X17.1376 Y28.0277 
G01 X17.2223 Y28.1124 
G01 X17.2888 Y28.2120 
G01 X17.3346 Y28.3227 
G01 X17.3580 Y28.4401 
G01 X17.3580 Y28.5599 
G01 X17.3346 Y28.6773 
G01 X17.2888 Y28.7880 
G01 X17.2223 Y28.8876 
G01 X17.1376 Y28.9723 
G01 X17.0380 Y29.0388 
G01 X16.9273 Y29.0846 
G01 X16.8099 Y29.1080 
G01 X16.6901 Y29.1080 
G01 X16.5726 Y29.0846 
G01 X16.5347 Y29.0689 
G01 X12.8659 Y32.7376 
G01 X12.8781 Y32.7544 
G01 X12.9524 Y32.9003 
G01 X13.0030 Y33.0559 
G01 X13.0286 Y33.2176 
G00 Z2.0000 
G00 X19.5310 Y33.2176 
G01 Z-0.0250 F254.00 
G01 X19.5310 Y33.3812 F508.00 
G01 X19.5054 Y33.5429 
G01 X19.4548 Y33.6985 
G01 X19.3805 Y33.8444 
G01 X19.2843 Y33.9768 
G01 X19.1686 Y34.0925 
G01 X19.0362 Y34.1887 
G01 X18.8903 Y34.2630 
G01 X18.7347 Y34.3136 
G01 X18.5730 Y34.3392 
G01 X18.4094 Y34.3392 
G01 X18.2477 Y34.3136 
G01 X18.0921 Y34.2630 
G01 X17.9462 Y34.1887 
G01 X17.8138 Y34.0925 
G01 X17.6981 Y33.9768 
G01 X17.6019 Y33.8444 
G01 X17.5276 Y33.6985 
G01 X17.4770 Y33.5429 
G01 X17.4514 Y33.3812 
G01 X17.4514 Y33.2176 
G01 X17.4770 Y33.0559 
G01 X17.5276 Y32.9003 
G01 X17.6019 Y32.7544 
G01 X17.6981 Y32.6220 
G01 X17.8138 Y32.5063 
G01 X17.9462 Y32.4101 
G01 X18.0921 Y32.3358 
G01 X18.2477 Y32.2852 
G01 X18.4094 Y32.2596 
G01 X18.5730 Y32.2596 
G01 X18.7347 Y32.2852 
G01 X18.8903 Y32.3358 
G01 X19.0362 Y32.4101 
G01 X19.1686 Y32.5063 
G01 X19.2843 Y32.6220 
G01 X19.3805 Y32.7544 
G01 X19.4548 Y32.9003 
G01 X19.5054 Y33.0559 
G01 X19.5310 Y33.2176 
G00 Z2.0000 
G00 X52.7201 Y28.3400 
G01 Z-0.0250 F254.00 
G01 X53.9599 Y28.3400 F508.00 
G01 X53.9966 Y28.3552 
G01 X54.0248 Y28.3834 
G01 X54.0400 Y28.4201 
G01 X54.0400 Y29.2599 
G01 X54.0248 Y29.2966 
G01 X53.9966 Y29.3248 
G01 X53.9599 Y29.3400 
G01 X52.7201 Y29.3400 
G01 X52.6834 Y29.3248 
G01 X52.6552 Y29.2966 
G01 X52.6400 Y29.2599 
G01 X52.6400 Y29.2500 
G01 X50.8045 Y29.2500 
G01 X50.7888 Y29.2880 
G01 X50.7223 Y29.3876 
G01 X50.6376 Y29.4723 
G01 X50.5380 Y29.5388 
G01 X50.4273 Y29.5846 
G01 X50.3099 Y29.6080 
G01 X50.1901 Y29.6080 
G01 X50.0727 Y29.5846 
G01 X49.9620 Y29.5388 
G01 X49.8624 Y29.4723 
G01 X49.7777 Y29.3876 
G01 X49.7112 Y29.2880 
G01 X49.6654 Y29.1773 
G01 X49.6420 Y29.0599 
G01 X49.6420 Y28.9401 
G01 X49.6654 Y28.8227 
G01 X49.7112 Y28.7120 
G01 X49.7777 Y28.6124 
G01 X49.8624 Y28.5277 
G01 X49.9620 Y28.4612 
G01 X50.0727 Y28.4154 
G01 X50.1901 Y28.3920 
G01 X50.3099 Y28.3920 
G01 X50.4273 Y28.4154 
G01 X50.5380 Y28.4612 
G01 X50.6376 Y28.5277 
G01 X50.7223 Y28.6124 
G01 X50.7888 Y28.7120 
G01 X50.8045 Y28.7500 
G01 X52.6400 Y28.7500 
G01 X52.6400 Y28.4201 
G01 X52.6552 Y28.3834 
G01 X52.6834 Y28.3552 
G01 X52.7201 Y28.3400 
G00 Z2.0000 
G00 X52.7201 Y26.5400 
G01 Z-0.0250 F254.00 
G01 X53.9599 Y26.5400 F508.00 
G01 X53.9966 Y26.5552 
G01 X54.0248 Y26.5834 
G01 X54.0400 Y26.6201 
G01 X54.0400 Y27.4599 
G01 X54.0248 Y27.4966 
G01 X53.9966 Y27.5248 
G01 X53.9599 Y27.5400 
G01 X52.7201 Y27.5400 
G01 X52.6834 Y27.5248 
G01 X52.6552 Y27.4966 
G01 X52.6400 Y27.4599 
G01 X52.6400 Y27.2500 
G01 X50.8045 Y27.2500 
G01 X50.7888 Y27.2880 
G01 X50.7223 Y27.3876 
G01 X50.6376 Y27.4723 
G01 X50.5380 Y27.5388 
G01 X50.4273 Y27.5846 
G01 X50.3099 Y27.6080 
G01 X50.1901 Y27.6080 
G01 X50.0727 Y27.5846 
G01 X49.9620 Y27.5388 
G01 X49.8624 Y27.4723 
G01 X49.7777 Y27.3876 
G01 X49.7112 Y27.2880 
G01 X49.6654 Y27.1773 
G01 X49.6420 Y27.0599 
G01 X49.6420 Y26.9401 
G01 X49.6654 Y26.8227 
G01 X49.7112 Y26.7120 
G01 X49.7777 Y26.6124 
G01 X49.8624 Y26.5277 
G01 X49.9620 Y26.4612 
G01 X50.0727 Y26.4154 
G01 X50.1901 Y26.3920 
G01 X50.3099 Y26.3920 
G01 X50.4273 Y26.4154 
G01 X50.5380 Y26.4612 
G01 X50.6376 Y26.5277 
G01 X50.7223 Y26.6124 
G01 X50.7888 Y26.7120 
G01 X50.8045 Y26.7500 
G01 X52.6400 Y26.7500 
G01 X52.6400 Y26.6201 
G01 X52.6552 Y26.5834 
G01 X52.6834 Y26.5552 
G01 X52.7201 Y26.5400 
G00 Z2.0000 
G00 X40.2400 Y19.7001 
G01 Z-0.0250 F254.00 
G01 X40.2400 Y20.9399 F508.00 
G01 X40.2248 Y20.9766 
G01 X40.1966 Y21.0048 
G01 X40.1599 Y21.0200 
G01 X39.3201 Y21.0200 
G01 X39.2834 Y21.0048 
G01 X39.2552 Y20.9766 
G01 X39.2400 Y20.9399 
G01 X39.2400 Y20.5000 
G01 X36.7003 Y20.5000 
G01 X36.6084 Y20.4619 
G01 X36.5381 Y20.3916 
G01 X36.5000 Y20.2997 
G01 X36.5000 Y19.6800 
G01 X35.9901 Y19.6800 
G01 X35.9534 Y19.6648 
G01 X35.9252 Y19.6366 
G01 X35.9100 Y19.5999 
G01 X35.9100 Y18.1601 
G01 X35.9252 Y18.1234 
G01 X35.9534 Y18.0952 
G01 X35.9901 Y18.0800 
G01 X37.0299 Y18.0800 
G01 X37.0666 Y18.0952 
G01 X37.0948 Y18.1234 
G01 X37.1100 Y18.1601 
G01 X37.1100 Y19.5999 
G01 X37.0948 Y19.6366 
G01 X37.0666 Y19.6648 
G01 X37.0299 Y19.6800 
G01 X37.0000 Y19.6800 
G01 X37.0000 Y20.0000 
G01 X39.2400 Y20.0000 
G01 X39.2400 Y19.7001 
G01 X39.2552 Y19.6634 
G01 X39.2834 Y19.6352 
G01 X39.3201 Y19.6200 
G01 X40.1599 Y19.6200 
G01 X40.1966 Y19.6352 
G01 X40.2248 Y19.6634 
G01 X40.2400 Y19.7001 
G00 Z2.0000 
G00 X42.0400 Y20.9399 
G01 Z-0.0250 F254.00 
G01 X42.0248 Y20.9766 F508.00 
G01 X41.9966 Y21.0048 
G01 X41.9599 Y21.0200 
G01 X41.1201 Y21.0200 
G01 X41.0834 Y21.0048 
G01 X41.0552 Y20.9766 
G01 X41.0400 Y20.9399 
G01 X41.0400 Y19.7001 
G01 X41.0552 Y19.6634 
G01 X41.0834 Y19.6352 
G01 X41.1201 Y19.6200 
G01 X41.9599 Y19.6200 
G01 X41.9966 Y19.6352 
G01 X42.0039 Y19.6425 
G01 X45.5000 Y16.1464 
G01 X45.5000 Y7.0545 
G01 X45.4620 Y7.0388 
G01 X45.3624 Y6.9723 
G01 X45.2777 Y6.8876 
G01 X45.2112 Y6.7880 
G01 X45.1654 Y6.6773 
G01 X45.1420 Y6.5599 
G01 X45.1420 Y6.4401 
G01 X45.1654 Y6.3227 
G01 X45.2112 Y6.2120 
G01 X45.2777 Y6.1124 
G01 X45.3624 Y6.0277 
G01 X45.4620 Y5.9612 
G01 X45.5727 Y5.9154 
G01 X45.6901 Y5.8920 
G01 X45.8099 Y5.8920 
G01 X45.9273 Y5.9154 
G01 X46.0380 Y5.9612 
G01 X46.1376 Y6.0277 
G01 X46.2223 Y6.1124 
G01 X46.2888 Y6.2120 
G01 X46.3346 Y6.3227 
G01 X46.3580 Y6.4401 
G01 X46.3580 Y6.5599 
G01 X46.3346 Y6.6773 
G01 X46.2888 Y6.7880 
G01 X46.2223 Y6.8876 
G01 X46.1376 Y6.9723 
G01 X46.0380 Y7.0388 
G01 X46.0000 Y7.0545 
G01 X46.0000 Y16.2997 
G01 X45.9619 Y16.3916 
G01 X45.8916 Y16.4619 
G01 X42.0400 Y20.3135 
G01 X42.0400 Y20.9399 
G00 Z2.0000 
G00 X32.6750 Y5.8349 
G01 Z-0.0250 F254.00 
G01 X32.6750 Y4.3251 F508.00 
G01 X32.6902 Y4.2884 
G01 X32.7184 Y4.2602 
G01 X32.7551 Y4.2450 
G01 X33.0000 Y4.2450 
G01 X33.0000 Y3.0000 
G01 X30.0212 Y3.0000 
G01 X30.0212 Y3.3311 
G01 X29.9900 Y3.4878 
G01 X29.9289 Y3.6354 
G01 X29.8401 Y3.7683 
G01 X29.7271 Y3.8813 
G01 X29.5942 Y3.9701 
G01 X29.4466 Y4.0312 
G01 X29.2899 Y4.0624 
G01 X29.1301 Y4.0624 
G01 X28.9734 Y4.0312 
G01 X28.8258 Y3.9701 
G01 X28.6929 Y3.8813 
G01 X28.5799 Y3.7683 
G01 X28.4911 Y3.6354 
G01 X28.4300 Y3.4878 
G01 X28.3988 Y3.3311 
G01 X28.3988 Y1.7489 
G01 X28.4300 Y1.5922 
G01 X28.4911 Y1.4446 
G01 X28.5799 Y1.3117 
G01 X28.6929 Y1.1987 
G01 X28.8258 Y1.1099 
G01 X28.9734 Y1.0488 
G01 X29.1301 Y1.0176 
G01 X29.2899 Y1.0176 
G01 X29.4466 Y1.0488 
G01 X29.5942 Y1.1099 
G01 X29.7271 Y1.1987 
G01 X29.8401 Y1.3117 
G01 X29.9289 Y1.4446 
G01 X29.9900 Y1.5922 
G01 X30.0212 Y1.7489 
G01 X30.0212 Y2.5000 
G01 X33.2997 Y2.5000 
G01 X33.3916 Y2.5381 
G01 X33.4619 Y2.6084 
G01 X33.5000 Y2.7003 
G01 X33.5000 Y4.2450 
G01 X34.0649 Y4.2450 
G01 X34.1016 Y4.2602 
G01 X34.1298 Y4.2884 
G01 X34.1450 Y4.3251 
G01 X34.1450 Y5.8349 
G01 X34.1298 Y5.8716 
G01 X34.1016 Y5.8998 
G01 X34.0649 Y5.9150 
G01 X33.7500 Y5.9150 
G01 X33.7500 Y14.3964 
G01 X35.2336 Y15.8800 
G01 X36.0799 Y15.8800 
G01 X36.1166 Y15.8952 
G01 X36.1448 Y15.9234 
G01 X36.1600 Y15.9601 
G01 X36.1600 Y17.3999 
G01 X36.1448 Y17.4366 
G01 X36.1166 Y17.4648 
G01 X36.0799 Y17.4800 
G01 X35.0401 Y17.4800 
G01 X35.0034 Y17.4648 
G01 X34.9752 Y17.4366 
G01 X34.9600 Y17.3999 
G01 X34.9600 Y16.3135 
G01 X33.3584 Y14.7119 
G01 X33.2881 Y14.6416 
G01 X33.2500 Y14.5497 
G01 X33.2500 Y5.9150 
G01 X32.7551 Y5.9150 
G01 X32.7184 Y5.8998 
G01 X32.6902 Y5.8716 
G01 X32.6750 Y5.8349 
G00 Z2.0000 
G00 X38.4450 Y4.3251 
G01 Z-0.0250 F254.00 
G01 X38.4450 Y5.8349 F508.00 
G01 X38.4298 Y5.8716 
G01 X38.4016 Y5.8998 
G01 X38.3649 Y5.9150 
G01 X37.0551 Y5.9150 
G01 X37.0184 Y5.8998 
G01 X36.9902 Y5.8716 
G01 X36.9750 Y5.8349 
G01 X36.9750 Y5.2500 
G01 X36.8045 Y5.2500 
G01 X36.7888 Y5.2880 
G01 X36.7223 Y5.3876 
G01 X36.6376 Y5.4723 
G01 X36.5380 Y5.5388 
G01 X36.4273 Y5.5846 
G01 X36.3099 Y5.6080 
G01 X36.1901 Y5.6080 
G01 X36.0727 Y5.5846 
G01 X35.9620 Y5.5388 
G01 X35.8624 Y5.4723 
G01 X35.7777 Y5.3876 
G01 X35.7112 Y5.2880 
G01 X35.6654 Y5.1773 
G01 X35.6420 Y5.0599 
G01 X35.6420 Y4.9401 
G01 X35.6654 Y4.8227 
G01 X35.7112 Y4.7120 
G01 X35.7777 Y4.6124 
G01 X35.8624 Y4.5277 
G01 X35.9620 Y4.4612 
G01 X36.0727 Y4.4154 
G01 X36.1901 Y4.3920 
G01 X36.3099 Y4.3920 
G01 X36.4273 Y4.4154 
G01 X36.5380 Y4.4612 
G01 X36.6376 Y4.5277 
G01 X36.7223 Y4.6124 
G01 X36.7888 Y4.7120 
G01 X36.8045 Y4.7500 
G01 X36.9750 Y4.7500 
G01 X36.9750 Y4.3251 
G01 X36.9902 Y4.2884 
G01 X37.0184 Y4.2602 
G01 X37.0551 Y4.2450 
G01 X37.5000 Y4.2450 
G01 X37.5000 Y3.4503 
G01 X37.5381 Y3.3584 
G01 X37.6084 Y3.2881 
G01 X37.7003 Y3.2500 
G01 X42.4800 Y3.2500 
G01 X42.4800 Y3.0201 
G01 X42.4952 Y2.9834 
G01 X42.5234 Y2.9552 
G01 X42.5601 Y2.9400 
G01 X43.7999 Y2.9400 
G01 X43.8366 Y2.9552 
G01 X43.8648 Y2.9834 
G01 X43.8800 Y3.0201 
G01 X43.8800 Y3.8599 
G01 X43.8648 Y3.8966 
G01 X43.8366 Y3.9248 
G01 X43.7999 Y3.9400 
G01 X42.5601 Y3.9400 
G01 X42.5234 Y3.9248 
G01 X42.4952 Y3.8966 
G01 X42.4800 Y3.8599 
G01 X42.4800 Y3.7500 
G01 X38.0000 Y3.7500 
G01 X38.0000 Y4.2450 
G01 X38.3649 Y4.2450 
G01 X38.4016 Y4.2602 
G01 X38.4298 Y4.2884 
G01 X38.4450 Y4.3251 
G00 Z2.0000 
G00 X29.6910 Y37.7388 
G01 Z-0.0250 F254.00 
G01 X29.6910 Y37.9024 F508.00 
G01 X29.6654 Y38.0641 
G01 X29.6148 Y38.2197 
G01 X29.5405 Y38.3656 
G01 X29.4443 Y38.4980 
G01 X29.3286 Y38.6137 
G01 X29.1962 Y38.7099 
G01 X29.0503 Y38.7842 
G01 X28.8947 Y38.8348 
G01 X28.7330 Y38.8604 
G01 X28.5694 Y38.8604 
G01 X28.4077 Y38.8348 
G01 X28.2521 Y38.7842 
G01 X28.1062 Y38.7099 
G01 X27.9738 Y38.6137 
G01 X27.8581 Y38.4980 
G01 X27.7619 Y38.3656 
G01 X27.6876 Y38.2197 
G01 X27.6370 Y38.0641 
G01 X27.6114 Y37.9024 
G01 X27.6114 Y37.7388 
G01 X27.6370 Y37.5771 
G01 X27.6876 Y37.4215 
G01 X27.7619 Y37.2756 
G01 X27.8581 Y37.1432 
G01 X27.9738 Y37.0275 
G01 X28.1062 Y36.9313 
G01 X28.2521 Y36.8570 
G01 X28.4077 Y36.8064 
G01 X28.5694 Y36.7808 
G01 X28.7330 Y36.7808 
G01 X28.8947 Y36.8064 
G01 X29.0503 Y36.8570 
G01 X29.1962 Y36.9313 
G01 X29.3286 Y37.0275 
G01 X29.4443 Y37.1432 
G01 X29.5405 Y37.2756 
G01 X29.6148 Y37.4215 
G01 X29.6654 Y37.5771 
G01 X29.6910 Y37.7388 
G00 Z2.0000 
G00 X23.1886 Y33.2176 
G01 Z-0.0250 F254.00 
G01 X23.1886 Y33.3812 F508.00 
G01 X23.1630 Y33.5429 
G01 X23.1124 Y33.6985 
G01 X23.0381 Y33.8444 
G01 X22.9419 Y33.9768 
G01 X22.8262 Y34.0925 
G01 X22.6938 Y34.1887 
G01 X22.5479 Y34.2630 
G01 X22.3923 Y34.3136 
G01 X22.2306 Y34.3392 
G01 X22.0670 Y34.3392 
G01 X21.9053 Y34.3136 
G01 X21.7497 Y34.2630 
G01 X21.6038 Y34.1887 
G01 X21.4714 Y34.0925 
G01 X21.3557 Y33.9768 
G01 X21.2595 Y33.8444 
G01 X21.1852 Y33.6985 
G01 X21.1346 Y33.5429 
G01 X21.1090 Y33.3812 
G01 X21.1090 Y33.2176 
G01 X21.1346 Y33.0559 
G01 X21.1852 Y32.9003 
G01 X21.2595 Y32.7544 
G01 X21.3557 Y32.6220 
G01 X21.4714 Y32.5063 
G01 X21.6038 Y32.4101 
G01 X21.7497 Y32.3358 
G01 X21.9053 Y32.2852 
G01 X22.0670 Y32.2596 
G01 X22.2306 Y32.2596 
G01 X22.3923 Y32.2852 
G01 X22.5479 Y32.3358 
G01 X22.6938 Y32.4101 
G01 X22.8262 Y32.5063 
G01 X22.9419 Y32.6220 
G01 X23.0381 Y32.7544 
G01 X23.1124 Y32.9003 
G01 X23.1630 Y33.0559 
G01 X23.1886 Y33.2176 
G00 Z2.0000 
G00 X29.6910 Y33.2176 
G01 Z-0.0250 F254.00 
G01 X29.6910 Y33.3812 F508.00 
G01 X29.6654 Y33.5429 
G01 X29.6148 Y33.6985 
G01 X29.5405 Y33.8444 
G01 X29.4443 Y33.9768 
G01 X29.3286 Y34.0925 
G01 X29.1962 Y34.1887 
G01 X29.0503 Y34.2630 
G01 X28.8947 Y34.3136 
G01 X28.7330 Y34.3392 
G01 X28.5694 Y34.3392 
G01 X28.4077 Y34.3136 
G01 X28.2521 Y34.2630 
G01 X28.1062 Y34.1887 
G01 X27.9738 Y34.0925 
G01 X27.8581 Y33.9768 
G01 X27.7619 Y33.8444 
G01 X27.6876 Y33.6985 
G01 X27.6370 Y33.5429 
G01 X27.6114 Y33.3812 
G01 X27.6114 Y33.2176 
G01 X27.6370 Y33.0559 
G01 X27.6876 Y32.9003 
G01 X27.7619 Y32.7544 
G01 X27.8581 Y32.6220 
G01 X27.9738 Y32.5063 
G01 X28.1062 Y32.4101 
G01 X28.2521 Y32.3358 
G01 X28.4077 Y32.2852 
G01 X28.5694 Y32.2596 
G01 X28.7330 Y32.2596 
G01 X28.8947 Y32.2852 
G01 X29.0503 Y32.3358 
G01 X29.1962 Y32.4101 
G01 X29.3286 Y32.5063 
G01 X29.4443 Y32.6220 
G01 X29.5405 Y32.7544 
G01 X29.6148 Y32.9003 
G01 X29.6654 Y33.0559 
G01 X29.6910 Y33.2176 
G00 Z2.0000 
G00 X9.0200 Y4.4601 
G01 Z-0.0250 F254.00 
G01 X9.0200 Y5.1664 F508.00 
G01 X13.1416 Y9.2881 
G01 X13.2119 Y9.3584 
G01 X13.2500 Y9.4503 
G01 X13.2500 Y19.6955 
G01 X13.2880 Y19.7112 
G01 X13.3876 Y19.7777 
G01 X13.4723 Y19.8624 
G01 X13.5388 Y19.9620 
G01 X13.5846 Y20.0726 
G01 X13.6080 Y20.1901 
G01 X13.6080 Y20.3099 
G01 X13.5846 Y20.4273 
G01 X13.5388 Y20.5380 
G01 X13.4723 Y20.6376 
G01 X13.3876 Y20.7223 
G01 X13.2880 Y20.7888 
G01 X13.1773 Y20.8346 
G01 X13.0599 Y20.8580 
G01 X12.9401 Y20.8580 
G01 X12.8227 Y20.8346 
G01 X12.7120 Y20.7888 
G01 X12.6124 Y20.7223 
G01 X12.5277 Y20.6376 
G01 X12.4612 Y20.5380 
G01 X12.4154 Y20.4273 
G01 X12.3920 Y20.3099 
G01 X12.3920 Y20.1901 
G01 X12.4154 Y20.0726 
G01 X12.4612 Y19.9620 
G01 X12.5277 Y19.8624 
G01 X12.6124 Y19.7777 
G01 X12.7120 Y19.7112 
G01 X12.7500 Y19.6955 
G01 X12.7500 Y9.6036 
G01 X8.9264 Y5.7800 
G01 X8.1001 Y5.7800 
G01 X8.0634 Y5.7648 
G01 X8.0352 Y5.7366 
G01 X8.0200 Y5.6999 
G01 X8.0200 Y4.4601 
G01 X8.0352 Y4.4234 
G01 X8.0634 Y4.3952 
G01 X8.1001 Y4.3800 
G01 X8.9399 Y4.3800 
G01 X8.9766 Y4.3952 
G01 X9.0048 Y4.4234 
G01 X9.0200 Y4.4601 
G00 Z2.0000 
G00 X39.8510 Y37.7388 
G01 Z-0.0250 F254.00 
G01 X39.8510 Y37.9024 F508.00 
G01 X39.8254 Y38.0641 
G01 X39.7748 Y38.2197 
G01 X39.7005 Y38.3656 
G01 X39.6043 Y38.4980 
G01 X39.4886 Y38.6137 
G01 X39.3562 Y38.7099 
G01 X39.2103 Y38.7842 
G01 X39.0547 Y38.8348 
G01 X38.8930 Y38.8604 
G01 X38.7294 Y38.8604 
G01 X38.5677 Y38.8348 
G01 X38.4121 Y38.7842 
G01 X38.2662 Y38.7099 
G01 X38.1338 Y38.6137 
G01 X38.0181 Y38.4980 
G01 X37.9219 Y38.3656 
G01 X37.8476 Y38.2197 
G01 X37.7970 Y38.0641 
G01 X37.7714 Y37.9024 
G01 X37.7714 Y37.7388 
G01 X37.7970 Y37.5771 
G01 X37.8476 Y37.4215 
G01 X37.9219 Y37.2756 
G01 X38.0181 Y37.1432 
G01 X38.1338 Y37.0275 
G01 X38.2662 Y36.9313 
G01 X38.4121 Y36.8570 
G01 X38.5677 Y36.8064 
G01 X38.7294 Y36.7808 
G01 X38.8930 Y36.7808 
G01 X39.0547 Y36.8064 
G01 X39.2103 Y36.8570 
G01 X39.3562 Y36.9313 
G01 X39.4886 Y37.0275 
G01 X39.6043 Y37.1432 
G01 X39.7005 Y37.2756 
G01 X39.7748 Y37.4215 
G01 X39.8254 Y37.5771 
G01 X39.8510 Y37.7388 
G00 Z2.0000 
G00 X33.3486 Y33.2176 
G01 Z-0.0250 F254.00 
G01 X33.3486 Y33.3812 F508.00 
G01 X33.3230 Y33.5429 
G01 X33.2724 Y33.6985 
G01 X33.1981 Y33.8444 
G01 X33.1019 Y33.9768 
G01 X32.9862 Y34.0925 
G01 X32.8538 Y34.1887 
G01 X32.7079 Y34.2630 
G01 X32.5523 Y34.3136 
G01 X32.3906 Y34.3392 
G01 X32.2270 Y34.3392 
G01 X32.0653 Y34.3136 
G01 X31.9097 Y34.2630 
G01 X31.7638 Y34.1887 
G01 X31.6314 Y34.0925 
G01 X31.5157 Y33.9768 
G01 X31.4195 Y33.8444 
G01 X31.3452 Y33.6985 
G01 X31.2946 Y33.5429 
G01 X31.2690 Y33.3812 
G01 X31.2690 Y33.2176 
G01 X31.2946 Y33.0559 
G01 X31.3452 Y32.9003 
G01 X31.4195 Y32.7544 
G01 X31.5157 Y32.6220 
G01 X31.6314 Y32.5063 
G01 X31.7638 Y32.4101 
G01 X31.9097 Y32.3358 
G01 X32.0653 Y32.2852 
G01 X32.2270 Y32.2596 
G01 X32.3906 Y32.2596 
G01 X32.5523 Y32.2852 
G01 X32.7079 Y32.3358 
G01 X32.7500 Y32.3572 
G01 X32.7500 Y19.5545 
G01 X32.7120 Y19.5388 
G01 X32.6124 Y19.4723 
G01 X32.5277 Y19.3876 
G01 X32.4612 Y19.2880 
G01 X32.4154 Y19.1773 
G01 X32.3920 Y19.0599 
G01 X32.3920 Y18.9401 
G01 X32.4154 Y18.8226 
G01 X32.4612 Y18.7120 
G01 X32.5277 Y18.6124 
G01 X32.6124 Y18.5277 
G01 X32.7120 Y18.4612 
G01 X32.8227 Y18.4154 
G01 X32.9401 Y18.3920 
G01 X33.0599 Y18.3920 
G01 X33.1773 Y18.4154 
G01 X33.2880 Y18.4612 
G01 X33.3876 Y18.5277 
G01 X33.4723 Y18.6124 
G01 X33.5388 Y18.7120 
G01 X33.5846 Y18.8226 
G01 X33.6080 Y18.9401 
G01 X33.6080 Y19.0599 
G01 X33.5846 Y19.1773 
G01 X33.5388 Y19.2880 
G01 X33.4723 Y19.3876 
G01 X33.3876 Y19.4723 
G01 X33.2880 Y19.5388 
G01 X33.2500 Y19.5545 
G01 X33.2500 Y32.7997 
G01 X33.2371 Y32.8309 
G01 X33.2724 Y32.9003 
G01 X33.3230 Y33.0559 
G01 X33.3486 Y33.2176 
G00 Z2.0000 
G00 X39.8510 Y33.2176 
G01 Z-0.0250 F254.00 
G01 X39.8510 Y33.3812 F508.00 
G01 X39.8254 Y33.5429 
G01 X39.7748 Y33.6985 
G01 X39.7005 Y33.8444 
G01 X39.6043 Y33.9768 
G01 X39.4886 Y34.0925 
G01 X39.3562 Y34.1887 
G01 X39.2103 Y34.2630 
G01 X39.0547 Y34.3136 
G01 X38.8930 Y34.3392 
G01 X38.7294 Y34.3392 
G01 X38.5677 Y34.3136 
G01 X38.4121 Y34.2630 
G01 X38.2662 Y34.1887 
G01 X38.1338 Y34.0925 
G01 X38.0181 Y33.9768 
G01 X37.9219 Y33.8444 
G01 X37.8476 Y33.6985 
G01 X37.7970 Y33.5429 
G01 X37.7714 Y33.3812 
G01 X37.7714 Y33.2176 
G01 X37.7970 Y33.0559 
G01 X37.8476 Y32.9003 
G01 X37.9219 Y32.7544 
G01 X38.0181 Y32.6220 
G01 X38.1338 Y32.5063 
G01 X38.2662 Y32.4101 
G01 X38.4121 Y32.3358 
G01 X38.5677 Y32.2852 
G01 X38.7294 Y32.2596 
G01 X38.8930 Y32.2596 
G01 X39.0547 Y32.2852 
G01 X39.2103 Y32.3358 
G01 X39.3562 Y32.4101 
G01 X39.4886 Y32.5063 
G01 X39.6043 Y32.6220 
G01 X39.7005 Y32.7544 
G01 X39.7748 Y32.9003 
G01 X39.8254 Y33.0559 
G01 X39.8510 Y33.2176 
G00 Z2.0000 
G00 X24.2600 Y7.0001 
G01 Z-0.0250 F254.00 
G01 X24.2600 Y8.2399 F508.00 
G01 X24.2448 Y8.2766 
G01 X24.2166 Y8.3048 
G01 X24.1799 Y8.3200 
G01 X23.3401 Y8.3200 
G01 X23.3034 Y8.3048 
G01 X23.2752 Y8.2766 
