(.../pcb-gcode-3.6.0.4/pcb-gcode.ulp)
(Copyright 2005 - 2012 by John Johnson)
(See readme.txt for licensing terms.)
(This file generated from the board:)
(.../eagle/SulaMatikV1/SulaMatikV1.brd)
(Current profile is .../pcb-gcode-3.6.0.4/profiles/emc.pp  )
(This file generated 8/27/2014 9:27:13 AM)
(Settings from pcb-machine.h)
(  Tool Size)
(0.1000 )
(Z Axis Settings)
(  High     Up        Down     Drill)
(19.5000 	2.0000 	-0.0250 	-1.5000 )
(spindle on time = 1.0000)
(milling depth = -0.0500)
(text depth = -0.0500)
(tool change at 15.0000 15.0000 19.0000 )
(feed rate xy = F508.00 )
(feed rate z  = F254.00 )
(Settings from pcb-defaults.h)
(isolate min = 0.0500)
(isolate max = 1.0000)
(isolate step = 0.1000)
(Generated top outlines, top drill, bottom outlines, bottom drill, )
(Unit of measure: mm)
(Metric Mode)
G21
(Absolute Coordinates)
G90
G00 X0.0000 Y0.0000 
M03
G04 P1.000000
G00 Z2.0000 
G00 X35.0280 Y24.5683 
G01 Z-0.0250 F254.00 
G01 X35.0280 Y26.2317 F508.00 
G01 X33.8517 Y27.4080 
G01 X32.1883 Y27.4080 
G01 X31.0120 Y26.2317 
G01 X31.0120 Y24.5683 
G01 X32.1883 Y23.3920 
G01 X33.8517 Y23.3920 
G01 X35.0280 Y24.5683 
G00 Z2.0000 
G00 X34.1084 Y45.4619 
G01 Z-0.0250 F254.00 
G01 X34.0381 Y45.3916 F508.00 
G01 X34.0000 Y45.2997 
G01 X34.0000 Y39.1035 
G01 X33.7200 Y39.3836 
G01 X33.7200 Y40.1599 
G01 X33.7048 Y40.1966 
G01 X33.6766 Y40.2248 
G01 X33.6399 Y40.2400 
G01 X32.4001 Y40.2400 
G01 X32.3634 Y40.2248 
G01 X32.3352 Y40.1966 
G01 X32.3200 Y40.1599 
G01 X32.3200 Y39.3201 
G01 X32.3352 Y39.2834 
G01 X32.3634 Y39.2552 
G01 X32.4001 Y39.2400 
G01 X33.1564 Y39.2400 
G01 X34.0381 Y38.3584 
G01 X34.1084 Y38.2881 
G01 X36.7500 Y35.6464 
G01 X36.7500 Y30.0545 
G01 X36.7120 Y30.0388 
G01 X36.6124 Y29.9723 
G01 X36.5277 Y29.8876 
G01 X36.4612 Y29.7880 
G01 X36.4154 Y29.6773 
G01 X36.3920 Y29.5599 
G01 X36.3920 Y29.4401 
G01 X36.4154 Y29.3227 
G01 X36.4612 Y29.2120 
G01 X36.5277 Y29.1124 
G01 X36.6124 Y29.0277 
G01 X36.7120 Y28.9612 
G01 X36.8227 Y28.9154 
G01 X36.9401 Y28.8920 
G01 X37.0599 Y28.8920 
G01 X37.1773 Y28.9154 
G01 X37.2880 Y28.9612 
G01 X37.3876 Y29.0277 
G01 X37.4723 Y29.1124 
G01 X37.5388 Y29.2120 
G01 X37.5846 Y29.3227 
G01 X37.6080 Y29.4401 
G01 X37.6080 Y29.5599 
G01 X37.5846 Y29.6773 
G01 X37.5388 Y29.7880 
G01 X37.4723 Y29.8876 
G01 X37.3876 Y29.9723 
G01 X37.2880 Y30.0388 
G01 X37.2500 Y30.0545 
G01 X37.2500 Y35.7997 
G01 X37.2119 Y35.8916 
G01 X37.1416 Y35.9619 
G01 X34.5000 Y38.6036 
G01 X34.5000 Y45.1464 
G01 X34.5347 Y45.1811 
G01 X34.5727 Y45.1654 
G01 X34.6901 Y45.1420 
G01 X34.8099 Y45.1420 
G01 X34.9273 Y45.1654 
G01 X35.0380 Y45.2112 
G01 X35.1376 Y45.2777 
G01 X35.2223 Y45.3624 
G01 X35.2888 Y45.4620 
G01 X35.3346 Y45.5727 
G01 X35.3580 Y45.6901 
G01 X35.3580 Y45.8099 
G01 X35.3346 Y45.9273 
G01 X35.2888 Y46.0380 
G01 X35.2223 Y46.1376 
G01 X35.1376 Y46.2223 
G01 X35.0380 Y46.2888 
G01 X34.9273 Y46.3346 
G01 X34.8099 Y46.3580 
G01 X34.6901 Y46.3580 
G01 X34.5727 Y46.3346 
G01 X34.4620 Y46.2888 
G01 X34.3624 Y46.2223 
G01 X34.2777 Y46.1376 
G01 X34.2112 Y46.0380 
G01 X34.1654 Y45.9273 
G01 X34.1420 Y45.8099 
G01 X34.1420 Y45.6901 
G01 X34.1654 Y45.5727 
G01 X34.1811 Y45.5347 
G01 X34.1084 Y45.4619 
G00 Z2.0000 
G00 X22.2500 Y56.1464 
G01 Z-0.0250 F254.00 
G01 X23.6036 Y57.5000 F508.00 
G01 X25.2500 Y57.5000 
G01 X25.2500 Y53.4503 
G01 X25.2881 Y53.3584 
G01 X30.7500 Y47.8964 
G01 X30.7500 Y46.2003 
G01 X30.7881 Y46.1084 
G01 X33.0000 Y43.8964 
G01 X33.0000 Y42.0400 
G01 X32.4001 Y42.0400 
G01 X32.3634 Y42.0248 
G01 X32.3352 Y41.9966 
G01 X32.3200 Y41.9599 
G01 X32.3200 Y41.1735 
G01 X31.7881 Y40.6416 
G01 X31.7500 Y40.5497 
G01 X31.7500 Y34.9503 
G01 X31.7881 Y34.8584 
G01 X31.8584 Y34.7881 
G01 X32.3200 Y34.3264 
G01 X32.3200 Y33.5001 
G01 X32.3352 Y33.4634 
G01 X32.3475 Y33.4511 
G01 X29.2881 Y30.3916 
G01 X29.2500 Y30.2997 
G01 X29.2500 Y17.1400 
G01 X29.0101 Y17.1400 
G01 X28.9734 Y17.1248 
G01 X28.9452 Y17.0966 
G01 X28.9300 Y17.0599 
G01 X28.9300 Y16.5000 
G01 X22.1884 Y16.5000 
G01 X22.1071 Y16.5813 
G01 X21.9742 Y16.6701 
G01 X21.8266 Y16.7312 
G01 X21.6699 Y16.7624 
G01 X21.5101 Y16.7624 
G01 X21.3534 Y16.7312 
G01 X21.2058 Y16.6701 
G01 X21.0729 Y16.5813 
G01 X20.9599 Y16.4683 
G01 X20.8711 Y16.3354 
G01 X20.8100 Y16.1878 
G01 X20.7788 Y16.0311 
G01 X20.7788 Y14.4489 
G01 X20.8100 Y14.2922 
G01 X20.8711 Y14.1446 
G01 X20.9599 Y14.0117 
G01 X21.0729 Y13.8987 
G01 X21.2058 Y13.8099 
G01 X21.3534 Y13.7488 
G01 X21.5101 Y13.7176 
G01 X21.6699 Y13.7176 
G01 X21.8266 Y13.7488 
G01 X21.9742 Y13.8099 
G01 X22.1071 Y13.8987 
G01 X22.2201 Y14.0117 
G01 X22.3089 Y14.1446 
G01 X22.3700 Y14.2922 
G01 X22.4012 Y14.4489 
G01 X22.4012 Y16.0000 
G01 X28.9300 Y16.0000 
G01 X28.9300 Y15.6201 
G01 X28.9452 Y15.5834 
G01 X28.9734 Y15.5552 
G01 X29.0101 Y15.5400 
G01 X30.0499 Y15.5400 
G01 X30.0866 Y15.5552 
G01 X30.1148 Y15.5834 
G01 X30.1300 Y15.6201 
G01 X30.1300 Y17.0599 
G01 X30.1148 Y17.0966 
G01 X30.0866 Y17.1248 
G01 X30.0499 Y17.1400 
G01 X29.7500 Y17.1400 
G01 X29.7500 Y30.1464 
G01 X33.0236 Y33.4200 
G01 X33.6399 Y33.4200 
G01 X33.6766 Y33.4352 
G01 X33.7048 Y33.4634 
G01 X33.7200 Y33.5001 
G01 X33.7200 Y34.3399 
G01 X33.7048 Y34.3766 
G01 X33.6766 Y34.4048 
G01 X33.6399 Y34.4200 
G01 X32.9336 Y34.4200 
G01 X32.2500 Y35.1035 
G01 X32.2500 Y40.3964 
G01 X32.8936 Y41.0400 
G01 X33.6399 Y41.0400 
G01 X33.6766 Y41.0552 
G01 X33.7048 Y41.0834 
G01 X33.7200 Y41.1201 
G01 X33.7200 Y41.9599 
G01 X33.7048 Y41.9966 
G01 X33.6766 Y42.0248 
G01 X33.6399 Y42.0400 
G01 X33.5000 Y42.0400 
G01 X33.5000 Y46.3600 
G01 X34.4899 Y46.3600 
G01 X34.5266 Y46.3752 
G01 X34.5548 Y46.4034 
G01 X34.5700 Y46.4401 
G01 X34.5700 Y46.7500 
G01 X41.0271 Y46.7500 
G01 X41.0323 Y46.7237 
G01 X41.1011 Y46.5576 
G01 X41.2010 Y46.4081 
G01 X41.3281 Y46.2810 
G01 X41.4776 Y46.1811 
G01 X41.6437 Y46.1123 
G01 X41.8201 Y46.0772 
G01 X41.9999 Y46.0772 
G01 X42.1763 Y46.1123 
G01 X42.3424 Y46.1811 
G01 X42.4919 Y46.2810 
G01 X42.6190 Y46.4081 
G01 X42.7189 Y46.5576 
G01 X42.7877 Y46.7237 
G01 X42.8228 Y46.9001 
G01 X42.8228 Y47.0799 
G01 X42.7877 Y47.2563 
G01 X42.7189 Y47.4224 
G01 X42.6190 Y47.5719 
G01 X42.4919 Y47.6990 
G01 X42.3424 Y47.7989 
G01 X42.1763 Y47.8677 
G01 X41.9999 Y47.9028 
G01 X41.8201 Y47.9028 
G01 X41.6437 Y47.8677 
G01 X41.4776 Y47.7989 
G01 X41.3281 Y47.6990 
G01 X41.2010 Y47.5719 
G01 X41.1011 Y47.4224 
G01 X41.0323 Y47.2563 
G01 X41.0310 Y47.2500 
G01 X34.5700 Y47.2500 
G01 X34.5700 Y47.8799 
G01 X34.5548 Y47.9166 
G01 X34.5266 Y47.9448 
G01 X34.4899 Y47.9600 
G01 X33.4501 Y47.9600 
G01 X33.4134 Y47.9448 
G01 X33.3852 Y47.9166 
G01 X33.3700 Y47.8799 
G01 X33.3700 Y46.9736 
G01 X33.1084 Y46.7119 
G01 X33.0381 Y46.6416 
G01 X33.0000 Y46.5497 
G01 X33.0000 Y44.6035 
G01 X31.2500 Y46.3536 
G01 X31.2500 Y48.0497 
G01 X31.2119 Y48.1416 
G01 X31.1416 Y48.2119 
G01 X25.7500 Y53.6036 
G01 X25.7500 Y57.7997 
G01 X25.7119 Y57.8916 
G01 X25.6416 Y57.9619 
G01 X25.5497 Y58.0000 
G01 X23.4503 Y58.0000 
G01 X23.3584 Y57.9619 
G01 X23.2881 Y57.8916 
G01 X22.0000 Y56.6036 
G01 X21.1185 Y57.4851 
G01 X21.1185 Y59.7841 
G01 X21.0851 Y59.9951 
G01 X21.0191 Y60.1983 
G01 X20.9221 Y60.3887 
G01 X20.7965 Y60.5615 
G01 X20.6454 Y60.7126 
G01 X20.4726 Y60.8382 
G01 X20.2822 Y60.9352 
G01 X20.0790 Y61.0012 
G01 X19.8680 Y61.0346 
G01 X19.6544 Y61.0346 
G01 X19.4434 Y61.0012 
G01 X19.2402 Y60.9352 
G01 X19.0498 Y60.8382 
G01 X18.8770 Y60.7126 
G01 X18.7259 Y60.5615 
G01 X18.6003 Y60.3887 
G01 X18.5033 Y60.1983 
G01 X18.4373 Y59.9951 
G01 X18.4039 Y59.7841 
G01 X18.4039 Y57.0559 
G01 X18.4373 Y56.8449 
G01 X18.5033 Y56.6417 
G01 X18.6003 Y56.4513 
G01 X18.7259 Y56.2785 
G01 X18.8770 Y56.1274 
G01 X19.0498 Y56.0018 
G01 X19.2402 Y55.9048 
G01 X19.4434 Y55.8388 
G01 X19.6544 Y55.8054 
G01 X19.8680 Y55.8054 
G01 X20.0790 Y55.8388 
G01 X20.2822 Y55.9048 
G01 X20.4726 Y56.0018 
G01 X20.6454 Y56.1274 
G01 X20.7965 Y56.2785 
G01 X20.9221 Y56.4513 
G01 X21.0191 Y56.6417 
G01 X21.0769 Y56.8196 
G01 X21.7500 Y56.1464 
G01 X21.7500 Y54.7500 
G01 X6.2003 Y54.7500 
G01 X6.1084 Y54.7119 
G01 X6.0381 Y54.6416 
G01 X5.7881 Y54.3916 
G01 X5.7500 Y54.2997 
G01 X5.7500 Y52.8536 
G01 X2.9064 Y50.0100 
G01 X1.9201 Y50.0100 
G01 X1.8834 Y49.9948 
G01 X1.8552 Y49.9666 
G01 X1.8400 Y49.9299 
G01 X1.8400 Y48.9436 
G01 X1.1084 Y48.2119 
G01 X1.0381 Y48.1416 
G01 X1.0000 Y48.0497 
G01 X1.0000 Y32.4503 
G01 X1.0381 Y32.3584 
G01 X4.6464 Y28.7500 
G01 X4.5364 Y28.6400 
G01 X3.7601 Y28.6400 
G01 X3.7234 Y28.6248 
G01 X3.6952 Y28.5966 
G01 X3.6800 Y28.5599 
G01 X3.6800 Y27.7836 
G01 X1.5381 Y25.6416 
G01 X1.5000 Y25.5497 
G01 X1.5000 Y5.9503 
G01 X1.5381 Y5.8584 
G01 X1.6084 Y5.7881 
G01 X1.7288 Y5.6676 
G01 X1.7288 Y4.2889 
G01 X1.7600 Y4.1322 
G01 X1.8211 Y3.9846 
G01 X1.9099 Y3.8517 
G01 X2.0229 Y3.7387 
G01 X2.1558 Y3.6499 
G01 X2.3034 Y3.5888 
G01 X2.4601 Y3.5576 
G01 X2.6199 Y3.5576 
G01 X2.7766 Y3.5888 
G01 X2.9242 Y3.6499 
G01 X3.0571 Y3.7387 
G01 X3.1701 Y3.8517 
G01 X3.2589 Y3.9846 
G01 X3.3200 Y4.1322 
G01 X3.3512 Y4.2889 
G01 X3.3512 Y5.8711 
G01 X3.3200 Y6.0278 
G01 X3.2589 Y6.1754 
G01 X3.1701 Y6.3083 
G01 X3.0571 Y6.4213 
G01 X2.9242 Y6.5101 
G01 X2.7766 Y6.5712 
G01 X2.6199 Y6.6024 
G01 X2.4601 Y6.6024 
G01 X2.3034 Y6.5712 
G01 X2.1558 Y6.5101 
G01 X2.0229 Y6.4213 
G01 X2.0000 Y6.3984 
G01 X2.0000 Y25.3964 
G01 X3.8436 Y27.2400 
G01 X4.5999 Y27.2400 
G01 X4.6366 Y27.2552 
G01 X4.6648 Y27.2834 
G01 X4.6800 Y27.3201 
G01 X4.6800 Y28.0764 
G01 X5.1416 Y28.5381 
G01 X5.2119 Y28.6084 
G01 X8.0000 Y31.3964 
G01 X11.3000 Y28.0964 
G01 X11.3000 Y27.3201 
G01 X11.3152 Y27.2834 
G01 X11.3434 Y27.2552 
G01 X11.3801 Y27.2400 
G01 X12.2199 Y27.2400 
G01 X12.2566 Y27.2552 
G01 X12.2848 Y27.2834 
G01 X12.3000 Y27.3201 
G01 X12.3000 Y28.5599 
G01 X12.2848 Y28.5966 
G01 X12.2566 Y28.6248 
G01 X12.2199 Y28.6400 
G01 X11.4636 Y28.6400 
G01 X8.3536 Y31.7500 
G01 X11.4635 Y34.8600 
G01 X12.2199 Y34.8600 
G01 X12.2566 Y34.8752 
G01 X12.2848 Y34.9034 
G01 X12.3000 Y34.9401 
G01 X12.3000 Y36.1799 
G01 X12.2848 Y36.2166 
G01 X12.2566 Y36.2448 
G01 X12.2199 Y36.2600 
G01 X12.0000 Y36.2600 
G01 X12.0000 Y37.4000 
G01 X12.2199 Y37.4000 
G01 X12.2566 Y37.4152 
G01 X12.2848 Y37.4434 
G01 X12.3000 Y37.4801 
G01 X12.3000 Y38.7199 
G01 X12.2848 Y38.7566 
G01 X12.2566 Y38.7848 
G01 X12.2199 Y38.8000 
G01 X11.3801 Y38.8000 
G01 X11.3434 Y38.7848 
G01 X11.3152 Y38.7566 
G01 X11.3000 Y38.7199 
G01 X11.3000 Y37.4801 
G01 X11.3152 Y37.4434 
G01 X11.3434 Y37.4152 
G01 X11.3801 Y37.4000 
G01 X11.5000 Y37.4000 
G01 X11.5000 Y36.2600 
G01 X11.3801 Y36.2600 
G01 X11.3434 Y36.2448 
G01 X11.3152 Y36.2166 
G01 X11.3000 Y36.1799 
G01 X11.3000 Y35.4036 
G01 X7.8584 Y31.9619 
G01 X7.7881 Y31.8916 
G01 X5.0000 Y29.1036 
G01 X1.5000 Y32.6036 
G01 X1.5000 Y47.8964 
G01 X2.2136 Y48.6100 
G01 X3.1599 Y48.6100 
G01 X3.1966 Y48.6252 
G01 X3.2248 Y48.6534 
G01 X3.2400 Y48.6901 
G01 X3.2400 Y49.6364 
G01 X6.1416 Y52.5381 
G01 X6.2119 Y52.6084 
G01 X6.2500 Y52.7003 
G01 X6.2500 Y54.1464 
G01 X6.3536 Y54.2500 
G01 X21.7500 Y54.2500 
G01 X21.7500 Y46.9503 
G01 X21.7881 Y46.8584 
G01 X25.5000 Y43.1464 
G01 X25.5000 Y41.8536 
G01 X23.4151 Y39.7686 
G01 X23.3865 Y39.7977 
G01 X23.3498 Y39.8129 
G01 X21.8114 Y39.8129 
G01 X21.7747 Y39.7977 
G01 X21.7465 Y39.7695 
G01 X21.7313 Y39.7328 
G01 X21.7313 Y37.6864 
G01 X21.7465 Y37.6497 
G01 X21.7747 Y37.6215 
G01 X21.8114 Y37.6063 
G01 X23.3498 Y37.6063 
G01 X23.3865 Y37.6215 
G01 X23.4147 Y37.6497 
G01 X23.4299 Y37.6864 
G01 X23.4299 Y39.0763 
G01 X25.8523 Y41.4988 
G01 X25.8611 Y41.4776 
G01 X25.9610 Y41.3281 
G01 X26.0881 Y41.2010 
G01 X26.2376 Y41.1011 
G01 X26.4037 Y41.0323 
G01 X26.5801 Y40.9972 
G01 X26.7599 Y40.9972 
G01 X26.9363 Y41.0323 
G01 X27.1024 Y41.1011 
G01 X27.2519 Y41.2010 
G01 X27.3790 Y41.3281 
G01 X27.4789 Y41.4776 
G01 X27.5477 Y41.6437 
G01 X27.5828 Y41.8201 
G01 X27.5828 Y41.9999 
G01 X27.5477 Y42.1763 
G01 X27.4789 Y42.3424 
G01 X27.3790 Y42.4919 
G01 X27.2519 Y42.6190 
G01 X27.1024 Y42.7189 
G01 X26.9363 Y42.7877 
G01 X26.7599 Y42.8228 
G01 X26.5801 Y42.8228 
G01 X26.4037 Y42.7877 
G01 X26.2376 Y42.7189 
G01 X26.0881 Y42.6190 
G01 X26.0000 Y42.5309 
G01 X26.0000 Y43.2997 
G01 X25.9619 Y43.3916 
G01 X25.8916 Y43.4619 
G01 X22.2500 Y47.1036 
G01 X22.2500 Y54.5497 
G01 X22.2500 Y56.1464 
G00 Z2.0000 
G00 X8.4312 Y4.2889 
G01 Z-0.0250 F254.00 
G01 X8.4312 Y5.8711 F508.00 
G01 X8.4000 Y6.0278 
G01 X8.3389 Y6.1754 
G01 X8.2501 Y6.3083 
G01 X8.1371 Y6.4213 
G01 X8.0042 Y6.5101 
G01 X7.8566 Y6.5712 
G01 X7.6999 Y6.6024 
G01 X7.5401 Y6.6024 
G01 X7.3834 Y6.5712 
G01 X7.2358 Y6.5101 
G01 X7.1029 Y6.4213 
G01 X6.9899 Y6.3083 
G01 X6.9011 Y6.1754 
G01 X6.8400 Y6.0278 
G01 X6.8088 Y5.8711 
G01 X6.8088 Y4.2889 
G01 X6.8400 Y4.1322 
G01 X6.9011 Y3.9846 
G01 X6.9899 Y3.8517 
G01 X7.1029 Y3.7387 
G01 X7.2358 Y3.6499 
G01 X7.3834 Y3.5888 
G01 X7.5401 Y3.5576 
G01 X7.6999 Y3.5576 
G01 X7.8566 Y3.5888 
G01 X8.0042 Y3.6499 
G01 X8.1371 Y3.7387 
G01 X8.2501 Y3.8517 
G01 X8.3389 Y3.9846 
G01 X8.4000 Y4.1322 
G01 X8.4312 Y4.2889 
G00 Z2.0000 
G00 X10.9712 Y4.2889 
G01 Z-0.0250 F254.00 
G01 X10.9712 Y5.8711 F508.00 
G01 X10.9400 Y6.0278 
G01 X10.8789 Y6.1754 
G01 X10.7901 Y6.3083 
G01 X10.6771 Y6.4213 
G01 X10.5442 Y6.5101 
G01 X10.3966 Y6.5712 
G01 X10.2399 Y6.6024 
G01 X10.0801 Y6.6024 
G01 X9.9234 Y6.5712 
G01 X9.7758 Y6.5101 
G01 X9.6429 Y6.4213 
G01 X9.5299 Y6.3083 
G01 X9.4411 Y6.1754 
G01 X9.3800 Y6.0278 
G01 X9.3488 Y5.8711 
G01 X9.3488 Y4.2889 
G01 X9.3800 Y4.1322 
G01 X9.4411 Y3.9846 
G01 X9.5299 Y3.8517 
G01 X9.6429 Y3.7387 
G01 X9.7758 Y3.6499 
G01 X9.9234 Y3.5888 
G01 X10.0801 Y3.5576 
G01 X10.2399 Y3.5576 
G01 X10.3966 Y3.5888 
G01 X10.5442 Y3.6499 
G01 X10.6771 Y3.7387 
G01 X10.7901 Y3.8517 
G01 X10.8789 Y3.9846 
G01 X10.9400 Y4.1322 
G01 X10.9712 Y4.2889 
G00 Z2.0000 
G00 X16.0512 Y4.2889 
G01 Z-0.0250 F254.00 
G01 X16.0512 Y5.8711 F508.00 
G01 X16.0200 Y6.0278 
G01 X15.9589 Y6.1754 
G01 X15.8701 Y6.3083 
G01 X15.7571 Y6.4213 
G01 X15.6242 Y6.5101 
G01 X15.5000 Y6.5615 
G01 X15.5000 Y30.9455 
G01 X15.5380 Y30.9612 
G01 X15.6376 Y31.0277 
G01 X15.7223 Y31.1124 
G01 X15.7888 Y31.2120 
G01 X15.8346 Y31.3227 
G01 X15.8580 Y31.4401 
G01 X15.8580 Y31.5599 
G01 X15.8346 Y31.6773 
G01 X15.7888 Y31.7880 
G01 X15.7223 Y31.8876 
G01 X15.6376 Y31.9723 
G01 X15.5380 Y32.0388 
G01 X15.4273 Y32.0846 
G01 X15.3099 Y32.1080 
G01 X15.1901 Y32.1080 
G01 X15.0727 Y32.0846 
G01 X14.9620 Y32.0388 
G01 X14.8624 Y31.9723 
G01 X14.7777 Y31.8876 
G01 X14.7112 Y31.7880 
G01 X14.6654 Y31.6773 
G01 X14.6420 Y31.5599 
G01 X14.6420 Y31.4401 
G01 X14.6654 Y31.3227 
G01 X14.7112 Y31.2120 
G01 X14.7777 Y31.1124 
G01 X14.8624 Y31.0277 
G01 X14.9620 Y30.9612 
G01 X15.0000 Y30.9455 
G01 X15.0000 Y6.5698 
G01 X14.8558 Y6.5101 
G01 X14.7229 Y6.4213 
G01 X14.6099 Y6.3083 
G01 X14.5211 Y6.1754 
G01 X14.4600 Y6.0278 
G01 X14.4288 Y5.8711 
G01 X14.4288 Y4.2889 
G01 X14.4600 Y4.1322 
G01 X14.5211 Y3.9846 
G01 X14.6099 Y3.8517 
G01 X14.7229 Y3.7387 
G01 X14.8558 Y3.6499 
G01 X15.0034 Y3.5888 
G01 X15.1601 Y3.5576 
G01 X15.3199 Y3.5576 
G01 X15.4766 Y3.5888 
G01 X15.6242 Y3.6499 
G01 X15.7571 Y3.7387 
G01 X15.8701 Y3.8517 
G01 X15.9589 Y3.9846 
G01 X16.0200 Y4.1322 
G01 X16.0512 Y4.2889 
G00 Z2.0000 
G00 X32.4001 Y31.6200 
G01 Z-0.0250 F254.00 
G01 X33.6399 Y31.6200 F508.00 
G01 X33.6766 Y31.6352 
G01 X33.7048 Y31.6634 
G01 X33.7200 Y31.7001 
G01 X33.7200 Y32.3664 
G01 X34.6416 Y33.2881 
G01 X34.7119 Y33.3584 
G01 X34.7476 Y33.4445 
G01 X34.7880 Y33.4612 
G01 X34.8876 Y33.5277 
G01 X34.9723 Y33.6124 
G01 X35.0388 Y33.7120 
G01 X35.0846 Y33.8227 
G01 X35.1080 Y33.9401 
G01 X35.1080 Y34.0599 
G01 X35.0846 Y34.1773 
G01 X35.0388 Y34.2880 
G01 X34.9723 Y34.3876 
G01 X34.8876 Y34.4723 
G01 X34.7880 Y34.5388 
G01 X34.6773 Y34.5846 
G01 X34.5599 Y34.6080 
G01 X34.4401 Y34.6080 
G01 X34.3227 Y34.5846 
G01 X34.2120 Y34.5388 
G01 X34.1124 Y34.4723 
G01 X34.0277 Y34.3876 
G01 X33.9612 Y34.2880 
G01 X33.9154 Y34.1773 
G01 X33.8920 Y34.0599 
G01 X33.8920 Y33.9401 
G01 X33.9154 Y33.8227 
G01 X33.9612 Y33.7120 
G01 X34.0277 Y33.6124 
G01 X34.1124 Y33.5277 
G01 X34.1494 Y33.5030 
G01 X33.2664 Y32.6200 
G01 X32.4001 Y32.6200 
G01 X32.3634 Y32.6048 
G01 X32.3352 Y32.5766 
G01 X32.3200 Y32.5399 
G01 X32.3200 Y31.7001 
G01 X32.3352 Y31.6634 
G01 X32.3634 Y31.6352 
G01 X32.4001 Y31.6200 
G00 Z2.0000 
G00 X24.6110 Y43.3776 
G01 Z-0.0250 F254.00 
G01 X24.6110 Y43.5412 F508.00 
G01 X24.5854 Y43.7029 
G01 X24.5348 Y43.8585 
G01 X24.4605 Y44.0044 
G01 X24.3643 Y44.1368 
G01 X24.2486 Y44.2525 
G01 X24.1162 Y44.3487 
G01 X23.9703 Y44.4230 
G01 X23.8147 Y44.4736 
G01 X23.6530 Y44.4992 
G01 X23.4894 Y44.4992 
G01 X23.3277 Y44.4736 
G01 X23.1721 Y44.4230 
G01 X23.0262 Y44.3487 
G01 X22.8938 Y44.2525 
G01 X22.7781 Y44.1368 
G01 X22.6819 Y44.0044 
G01 X22.6076 Y43.8585 
G01 X22.5570 Y43.7029 
G01 X22.5314 Y43.5412 
G01 X22.5314 Y43.3776 
G01 X22.5570 Y43.2159 
G01 X22.6076 Y43.0603 
G01 X22.6819 Y42.9144 
G01 X22.7781 Y42.7820 
G01 X22.8938 Y42.6663 
G01 X23.0262 Y42.5701 
G01 X23.1721 Y42.4958 
G01 X23.3277 Y42.4452 
G01 X23.4894 Y42.4196 
G01 X23.6530 Y42.4196 
G01 X23.8147 Y42.4452 
G01 X23.9703 Y42.4958 
G01 X24.1162 Y42.5701 
G01 X24.2486 Y42.6663 
G01 X24.3643 Y42.7820 
G01 X24.4605 Y42.9144 
G01 X24.5348 Y43.0603 
G01 X24.5854 Y43.2159 
G01 X24.6110 Y43.3776 
G00 Z2.0000 
G00 X18.1086 Y43.3776 
G01 Z-0.0250 F254.00 
G01 X18.1086 Y43.5412 F508.00 
G01 X18.0830 Y43.7029 
G01 X18.0324 Y43.8585 
G01 X17.9581 Y44.0044 
G01 X17.8619 Y44.1368 
G01 X17.7462 Y44.2525 
G01 X17.6138 Y44.3487 
G01 X17.4679 Y44.4230 
G01 X17.3123 Y44.4736 
G01 X17.1506 Y44.4992 
G01 X16.9870 Y44.4992 
G01 X16.8253 Y44.4736 
G01 X16.6697 Y44.4230 
G01 X16.5238 Y44.3487 
G01 X16.3914 Y44.2525 
G01 X16.2757 Y44.1368 
G01 X16.1795 Y44.0044 
G01 X16.1052 Y43.8585 
G01 X16.0546 Y43.7029 
G01 X16.0290 Y43.5412 
G01 X16.0290 Y43.3776 
G01 X16.0546 Y43.2159 
G01 X16.1052 Y43.0603 
G01 X16.1795 Y42.9144 
G01 X16.2757 Y42.7820 
G01 X16.3914 Y42.6663 
G01 X16.5238 Y42.5701 
G01 X16.6697 Y42.4958 
G01 X16.8253 Y42.4452 
G01 X16.9870 Y42.4196 
G01 X17.1506 Y42.4196 
G01 X17.3123 Y42.4452 
G01 X17.4679 Y42.4958 
G01 X17.6138 Y42.5701 
G01 X17.7462 Y42.6663 
G01 X17.8619 Y42.7820 
G01 X17.9581 Y42.9144 
G01 X18.0324 Y43.0603 
G01 X18.0830 Y43.2159 
G01 X18.1086 Y43.3776 
G00 Z2.0000 
G00 X24.6110 Y47.8988 
G01 Z-0.0250 F254.00 
G01 X24.6110 Y48.0624 F508.00 
G01 X24.5854 Y48.2241 
G01 X24.5348 Y48.3797 
G01 X24.4605 Y48.5256 
G01 X24.3643 Y48.6580 
G01 X24.2486 Y48.7737 
G01 X24.1162 Y48.8699 
G01 X23.9703 Y48.9442 
G01 X23.8147 Y48.9948 
G01 X23.6530 Y49.0204 
G01 X23.4894 Y49.0204 
G01 X23.3277 Y48.9948 
G01 X23.1721 Y48.9442 
G01 X23.0262 Y48.8699 
G01 X22.8938 Y48.7737 
G01 X22.7781 Y48.6580 
G01 X22.6819 Y48.5256 
G01 X22.6076 Y48.3797 
G01 X22.5570 Y48.2241 
G01 X22.5314 Y48.0624 
G01 X22.5314 Y47.8988 
G01 X22.5570 Y47.7371 
G01 X22.6076 Y47.5815 
G01 X22.6819 Y47.4356 
G01 X22.7781 Y47.3032 
G01 X22.8938 Y47.1875 
G01 X23.0262 Y47.0913 
G01 X23.1721 Y47.0170 
G01 X23.3277 Y46.9664 
G01 X23.4894 Y46.9408 
G01 X23.6530 Y46.9408 
G01 X23.8147 Y46.9664 
G01 X23.9703 Y47.0170 
G01 X24.1162 Y47.0913 
G01 X24.2486 Y47.1875 
G01 X24.3643 Y47.3032 
G01 X24.4605 Y47.4356 
G01 X24.5348 Y47.5815 
G01 X24.5854 Y47.7371 
G01 X24.6110 Y47.8988 
G00 Z2.0000 
G00 X24.7801 Y13.1000 
G01 Z-0.0250 F254.00 
G01 X25.5464 Y13.1000 F508.00 
G01 X29.0000 Y9.6464 
G01 X29.0000 Y3.2003 
G01 X29.0381 Y3.1084 
G01 X30.3584 Y1.7881 
G01 X30.4503 Y1.7500 
G01 X39.2997 Y1.7500 
G01 X39.3916 Y1.7881 
G01 X39.4619 Y1.8584 
G01 X39.5000 Y1.9503 
G01 X39.5000 Y18.6464 
G01 X41.5887 Y20.7351 
G01 X41.6437 Y20.7123 
G01 X41.8201 Y20.6772 
G01 X41.9999 Y20.6772 
G01 X42.1763 Y20.7123 
G01 X42.3424 Y20.7811 
G01 X42.4919 Y20.8810 
G01 X42.6190 Y21.0081 
G01 X42.7189 Y21.1576 
G01 X42.7877 Y21.3237 
G01 X42.8228 Y21.5001 
G01 X42.8228 Y21.6799 
G01 X42.7877 Y21.8563 
G01 X42.7189 Y22.0224 
G01 X42.6190 Y22.1719 
G01 X42.4919 Y22.2990 
G01 X42.3424 Y22.3989 
G01 X42.1763 Y22.4677 
G01 X41.9999 Y22.5028 
G01 X41.8201 Y22.5028 
G01 X41.6437 Y22.4677 
G01 X41.4776 Y22.3989 
G01 X41.3281 Y22.2990 
G01 X41.2010 Y22.1719 
G01 X41.1011 Y22.0224 
G01 X41.0323 Y21.8563 
G01 X40.9972 Y21.6799 
G01 X40.9972 Y21.5001 
G01 X41.0323 Y21.3237 
G01 X41.1011 Y21.1576 
G01 X41.1824 Y21.0359 
G01 X39.0381 Y18.8916 
G01 X39.0000 Y18.7997 
G01 X39.0000 Y2.2500 
G01 X30.6036 Y2.2500 
G01 X29.5000 Y3.3536 
G01 X29.5000 Y9.7997 
G01 X29.4619 Y9.8916 
G01 X29.3916 Y9.9619 
G01 X26.1000 Y13.2536 
G01 X26.1000 Y14.0199 
G01 X26.0848 Y14.0566 
G01 X26.0566 Y14.0848 
G01 X26.0199 Y14.1000 
G01 X24.7801 Y14.1000 
G01 X24.7434 Y14.0848 
G01 X24.7152 Y14.0566 
G01 X24.7000 Y14.0199 
G01 X24.7000 Y13.1801 
G01 X24.7152 Y13.1434 
G01 X24.7434 Y13.1152 
G01 X24.7801 Y13.1000 
G00 Z2.0000 
G00 X18.2388 Y16.0311 
G01 Z-0.0250 F254.00 
G01 X18.2388 Y14.4489 F508.00 
G01 X18.2700 Y14.2922 
G01 X18.3311 Y14.1446 
G01 X18.4199 Y14.0117 
G01 X18.5329 Y13.8987 
G01 X18.6657 Y13.8099 
G01 X18.8134 Y13.7488 
G01 X18.9701 Y13.7176 
G01 X19.0000 Y13.7176 
G01 X19.0000 Y11.9503 
G01 X19.0381 Y11.8584 
G01 X19.1084 Y11.7881 
G01 X19.2003 Y11.7500 
G01 X24.7000 Y11.7500 
G01 X24.7000 Y11.3801 
G01 X24.7152 Y11.3434 
G01 X24.7434 Y11.3152 
G01 X24.7801 Y11.3000 
G01 X26.0199 Y11.3000 
G01 X26.0566 Y11.3152 
G01 X26.0848 Y11.3434 
G01 X26.1000 Y11.3801 
G01 X26.1000 Y12.2199 
G01 X26.0848 Y12.2566 
G01 X26.0566 Y12.2848 
G01 X26.0199 Y12.3000 
G01 X24.7801 Y12.3000 
G01 X24.7434 Y12.2848 
G01 X24.7152 Y12.2566 
G01 X24.7125 Y12.2500 
G01 X19.5000 Y12.2500 
G01 X19.5000 Y13.8539 
G01 X19.5671 Y13.8987 
G01 X19.6801 Y14.0117 
G01 X19.7689 Y14.1446 
G01 X19.8300 Y14.2922 
G01 X19.8612 Y14.4489 
G01 X19.8612 Y16.0311 
G01 X19.8300 Y16.1878 
G01 X19.7689 Y16.3354 
G01 X19.6801 Y16.4683 
G01 X19.5671 Y16.5813 
G01 X19.4342 Y16.6701 
G01 X19.2866 Y16.7312 
G01 X19.1299 Y16.7624 
G01 X18.9701 Y16.7624 
G01 X18.8134 Y16.7312 
G01 X18.6657 Y16.6701 
G01 X18.5329 Y16.5813 
G01 X18.4199 Y16.4683 
G01 X18.3311 Y16.3354 
G01 X18.2700 Y16.1878 
G01 X18.2388 Y16.0311 
G00 Z2.0000 
G00 X15.6988 Y16.0311 
G01 Z-0.0250 F254.00 
G01 X15.6988 Y14.4489 F508.00 
G01 X15.7300 Y14.2922 
G01 X15.7911 Y14.1446 
G01 X15.8799 Y14.0117 
G01 X15.9929 Y13.8987 
G01 X16.1258 Y13.8099 
G01 X16.2734 Y13.7488 
G01 X16.4301 Y13.7176 
G01 X16.5899 Y13.7176 
G01 X16.7466 Y13.7488 
G01 X16.8942 Y13.8099 
G01 X17.0271 Y13.8987 
G01 X17.1401 Y14.0117 
G01 X17.2289 Y14.1446 
G01 X17.2900 Y14.2922 
G01 X17.3212 Y14.4489 
G01 X17.3212 Y16.0311 
G01 X17.2900 Y16.1878 
G01 X17.2289 Y16.3354 
G01 X17.1401 Y16.4683 
G01 X17.0271 Y16.5813 
G01 X16.8942 Y16.6701 
G01 X16.7500 Y16.7298 
G01 X16.7500 Y35.5000 
G01 X20.2997 Y35.5000 
G01 X20.3916 Y35.5381 
G01 X20.4619 Y35.6084 
G01 X20.5000 Y35.7003 
G01 X20.5000 Y37.6063 
G01 X21.0638 Y37.6063 
G01 X21.1005 Y37.6215 
G01 X21.1287 Y37.6497 
G01 X21.1439 Y37.6864 
G01 X21.1439 Y39.7328 
G01 X21.1287 Y39.7695 
G01 X21.1005 Y39.7977 
G01 X21.0638 Y39.8129 
G01 X20.5000 Y39.8129 
G01 X20.5000 Y44.7997 
G01 X20.4619 Y44.8916 
G01 X20.3916 Y44.9619 
G01 X17.9412 Y47.4124 
G01 X17.9581 Y47.4356 
G01 X18.0324 Y47.5815 
G01 X18.0830 Y47.7371 
G01 X18.1086 Y47.8988 
G01 X18.1086 Y48.0624 
G01 X18.0830 Y48.2241 
G01 X18.0324 Y48.3797 
G01 X17.9581 Y48.5256 
G01 X17.8619 Y48.6580 
G01 X17.7462 Y48.7737 
G01 X17.6138 Y48.8699 
G01 X17.4679 Y48.9442 
G01 X17.3123 Y48.9948 
G01 X17.1506 Y49.0204 
G01 X16.9870 Y49.0204 
G01 X16.8253 Y48.9948 
G01 X16.6697 Y48.9442 
G01 X16.5238 Y48.8699 
G01 X16.3914 Y48.7737 
G01 X16.2757 Y48.6580 
G01 X16.1795 Y48.5256 
G01 X16.1052 Y48.3797 
G01 X16.0546 Y48.2241 
G01 X16.0290 Y48.0624 
G01 X16.0290 Y47.8988 
G01 X16.0546 Y47.7371 
G01 X16.1052 Y47.5815 
G01 X16.1795 Y47.4356 
G01 X16.2757 Y47.3032 
G01 X16.3914 Y47.1875 
G01 X16.5238 Y47.0913 
G01 X16.6697 Y47.0170 
G01 X16.8253 Y46.9664 
G01 X16.9870 Y46.9408 
G01 X17.1506 Y46.9408 
G01 X17.3123 Y46.9664 
G01 X17.4679 Y47.0170 
G01 X17.5749 Y47.0715 
G01 X20.0000 Y44.6464 
G01 X20.0000 Y39.8129 
G01 X19.5254 Y39.8129 
G01 X19.4887 Y39.7977 
G01 X19.4605 Y39.7695 
G01 X19.4453 Y39.7328 
G01 X19.4453 Y37.6864 
G01 X19.4605 Y37.6497 
G01 X19.4887 Y37.6215 
G01 X19.5254 Y37.6063 
G01 X20.0000 Y37.6063 
G01 X20.0000 Y36.0000 
G01 X14.1000 Y36.0000 
G01 X14.1000 Y36.1799 
G01 X14.0848 Y36.2166 
G01 X14.0566 Y36.2448 
G01 X14.0199 Y36.2600 
G01 X13.1801 Y36.2600 
G01 X13.1434 Y36.2448 
G01 X13.1152 Y36.2166 
G01 X13.1000 Y36.1799 
G01 X13.1000 Y34.9401 
G01 X13.1152 Y34.9034 
G01 X13.1434 Y34.8752 
G01 X13.1801 Y34.8600 
G01 X14.0199 Y34.8600 
G01 X14.0566 Y34.8752 
G01 X14.0848 Y34.9034 
G01 X14.1000 Y34.9401 
G01 X14.1000 Y35.5000 
G01 X16.2500 Y35.5000 
G01 X16.2500 Y16.7215 
G01 X16.1258 Y16.6701 
G01 X15.9929 Y16.5813 
G01 X15.8799 Y16.4683 
G01 X15.7911 Y16.3354 
G01 X15.7300 Y16.1878 
G01 X15.6988 Y16.0311 
G00 Z2.0000 
G00 X13.1588 Y16.0311 
G01 Z-0.0250 F254.00 
G01 X13.1588 Y14.4489 F508.00 
G01 X13.1900 Y14.2922 
G01 X13.2511 Y14.1446 
G01 X13.3399 Y14.0117 
G01 X13.4529 Y13.8987 
G01 X13.5858 Y13.8099 
G01 X13.7334 Y13.7488 
G01 X13.8901 Y13.7176 
G01 X14.0499 Y13.7176 
G01 X14.2066 Y13.7488 
G01 X14.3542 Y13.8099 
G01 X14.4871 Y13.8987 
G01 X14.6001 Y14.0117 
G01 X14.6889 Y14.1446 
G01 X14.7500 Y14.2922 
G01 X14.7812 Y14.4489 
G01 X14.7812 Y16.0311 
G01 X14.7500 Y16.1878 
G01 X14.6889 Y16.3354 
G01 X14.6001 Y16.4683 
G01 X14.4871 Y16.5813 
G01 X14.3542 Y16.6701 
G01 X14.2066 Y16.7312 
G01 X14.0499 Y16.7624 
G01 X13.8901 Y16.7624 
G01 X13.7334 Y16.7312 
G01 X13.5858 Y16.6701 
G01 X13.4529 Y16.5813 
G01 X13.3399 Y16.4683 
G01 X13.2511 Y16.3354 
G01 X13.1900 Y16.1878 
G01 X13.1588 Y16.0311 
G00 Z2.0000 
G00 X10.6188 Y16.0311 
G01 Z-0.0250 F254.00 
G01 X10.6188 Y14.4489 F508.00 
G01 X10.6500 Y14.2922 
G01 X10.7111 Y14.1446 
G01 X10.7999 Y14.0117 
G01 X10.9129 Y13.8987 
G01 X11.0457 Y13.8099 
G01 X11.1934 Y13.7488 
G01 X11.3501 Y13.7176 
G01 X11.5099 Y13.7176 
G01 X11.6666 Y13.7488 
G01 X11.8142 Y13.8099 
G01 X11.9471 Y13.8987 
G01 X12.0601 Y14.0117 
G01 X12.1489 Y14.1446 
G01 X12.2100 Y14.2922 
G01 X12.2412 Y14.4489 
G01 X12.2412 Y16.0311 
G01 X12.2100 Y16.1878 
G01 X12.1489 Y16.3354 
G01 X12.0601 Y16.4683 
G01 X11.9471 Y16.5813 
G01 X11.8142 Y16.6701 
G01 X11.6666 Y16.7312 
G01 X11.5099 Y16.7624 
G01 X11.3501 Y16.7624 
G01 X11.1934 Y16.7312 
G01 X11.0457 Y16.6701 
G01 X10.9129 Y16.5813 
G01 X10.7999 Y16.4683 
G01 X10.7111 Y16.3354 
G01 X10.6500 Y16.1878 
G01 X10.6188 Y16.0311 
G00 Z2.0000 
G00 X8.0788 Y16.0311 
G01 Z-0.0250 F254.00 
G01 X8.0788 Y14.4489 F508.00 
G01 X8.1100 Y14.2922 
G01 X8.1711 Y14.1446 
G01 X8.2599 Y14.0117 
G01 X8.3729 Y13.8987 
G01 X8.5058 Y13.8099 
G01 X8.6534 Y13.7488 
G01 X8.8101 Y13.7176 
G01 X8.9699 Y13.7176 
G01 X9.1266 Y13.7488 
G01 X9.2742 Y13.8099 
G01 X9.4071 Y13.8987 
G01 X9.5201 Y14.0117 
G01 X9.6089 Y14.1446 
G01 X9.6700 Y14.2922 
G01 X9.7012 Y14.4489 
G01 X9.7012 Y16.0311 
G01 X9.6700 Y16.1878 
G01 X9.6089 Y16.3354 
G01 X9.5201 Y16.4683 
G01 X9.4071 Y16.5813 
G01 X9.2742 Y16.6701 
G01 X9.1266 Y16.7312 
G01 X8.9699 Y16.7624 
G01 X8.8101 Y16.7624 
G01 X8.6534 Y16.7312 
G01 X8.5058 Y16.6701 
G01 X8.3729 Y16.5813 
G01 X8.2599 Y16.4683 
G01 X8.1711 Y16.3354 
G01 X8.1100 Y16.1878 
G01 X8.0788 Y16.0311 
G00 Z2.0000 
G00 X5.5388 Y16.0311 
G01 Z-0.0250 F254.00 
G01 X5.5388 Y14.4489 F508.00 
G01 X5.5700 Y14.2922 
G01 X5.6311 Y14.1446 
G01 X5.7199 Y14.0117 
G01 X5.8329 Y13.8987 
G01 X5.9657 Y13.8099 
G01 X6.1134 Y13.7488 
G01 X6.2701 Y13.7176 
G01 X6.4299 Y13.7176 
G01 X6.5866 Y13.7488 
G01 X6.7342 Y13.8099 
G01 X6.8671 Y13.8987 
G01 X6.9801 Y14.0117 
G01 X7.0689 Y14.1446 
G01 X7.1300 Y14.2922 
G01 X7.1612 Y14.4489 
G01 X7.1612 Y16.0311 
G01 X7.1300 Y16.1878 
G01 X7.0689 Y16.3354 
G01 X6.9801 Y16.4683 
G01 X6.8671 Y16.5813 
G01 X6.7342 Y16.6701 
G01 X6.5866 Y16.7312 
G01 X6.4299 Y16.7624 
G01 X6.2701 Y16.7624 
G01 X6.1134 Y16.7312 
G01 X5.9657 Y16.6701 
G01 X5.8329 Y16.5813 
G01 X5.7199 Y16.4683 
G01 X5.6311 Y16.3354 
G01 X5.5700 Y16.1878 
G01 X5.5388 Y16.0311 
G00 Z2.0000 
G00 X2.9988 Y16.0311 
G01 Z-0.0250 F254.00 
G01 X2.9988 Y14.4489 F508.00 
G01 X3.0300 Y14.2922 
G01 X3.0911 Y14.1446 
G01 X3.1799 Y14.0117 
G01 X3.2929 Y13.8987 
G01 X3.4258 Y13.8099 
G01 X3.5734 Y13.7488 
G01 X3.7301 Y13.7176 
G01 X3.8899 Y13.7176 
G01 X4.0466 Y13.7488 
G01 X4.1942 Y13.8099 
G01 X4.3271 Y13.8987 
G01 X4.4401 Y14.0117 
G01 X4.5289 Y14.1446 
G01 X4.5900 Y14.2922 
G01 X4.6212 Y14.4489 
G01 X4.6212 Y15.5176 
G01 X10.6416 Y21.5381 
G01 X10.7119 Y21.6084 
G01 X10.7500 Y21.7003 
G01 X10.7500 Y26.9455 
G01 X10.7880 Y26.9612 
G01 X10.8876 Y27.0277 
G01 X10.9723 Y27.1124 
G01 X11.0388 Y27.2120 
G01 X11.0846 Y27.3227 
G01 X11.1080 Y27.4401 
G01 X11.1080 Y27.5599 
G01 X11.0846 Y27.6773 
G01 X11.0388 Y27.7880 
G01 X10.9723 Y27.8876 
G01 X10.8876 Y27.9723 
G01 X10.7880 Y28.0388 
G01 X10.6773 Y28.0846 
G01 X10.5599 Y28.1080 
G01 X10.4401 Y28.1080 
G01 X10.3227 Y28.0846 
G01 X10.2120 Y28.0388 
G01 X10.1124 Y27.9723 
G01 X10.0277 Y27.8876 
G01 X9.9612 Y27.7880 
G01 X9.9154 Y27.6773 
G01 X9.8920 Y27.5599 
G01 X9.8920 Y27.4401 
G01 X9.9154 Y27.3227 
G01 X9.9612 Y27.2120 
G01 X10.0277 Y27.1124 
G01 X10.1124 Y27.0277 
G01 X10.2120 Y26.9612 
G01 X10.2500 Y26.9455 
G01 X10.2500 Y21.8536 
G01 X4.5883 Y16.1919 
G01 X4.5289 Y16.3354 
G01 X4.4401 Y16.4683 
G01 X4.3271 Y16.5813 
G01 X4.1942 Y16.6701 
G01 X4.0466 Y16.7312 
G01 X3.8899 Y16.7624 
G01 X3.7301 Y16.7624 
G01 X3.5734 Y16.7312 
G01 X3.4258 Y16.6701 
G01 X3.2929 Y16.5813 
G01 X3.1799 Y16.4683 
G01 X3.0911 Y16.3354 
G01 X3.0300 Y16.1878 
G01 X2.9988 Y16.0311 
G00 Z2.0000 
G00 X44.8173 Y6.7072 
G01 Z-0.0250 F254.00 
G01 X46.6227 Y6.7072 F508.00 
G01 X46.7991 Y6.7423 
G01 X46.9652 Y6.8111 
G01 X47.1147 Y6.9110 
G01 X47.2418 Y7.0381 
G01 X47.3417 Y7.1876 
G01 X47.4105 Y7.3537 
G01 X47.4456 Y7.5301 
G01 X47.4456 Y7.7099 
G01 X47.4105 Y7.8863 
G01 X47.3417 Y8.0524 
G01 X47.2418 Y8.2019 
G01 X47.1147 Y8.3290 
G01 X46.9652 Y8.4289 
G01 X46.7991 Y8.4977 
G01 X46.6227 Y8.5328 
G01 X45.0708 Y8.5328 
G01 X43.0000 Y10.6036 
G01 X43.0000 Y14.1464 
G01 X44.7175 Y15.8639 
G01 X47.0841 Y15.8639 
G01 X47.2951 Y15.8973 
G01 X47.4983 Y15.9633 
G01 X47.6887 Y16.0603 
G01 X47.8615 Y16.1859 
G01 X48.0126 Y16.3370 
G01 X48.1382 Y16.5098 
G01 X48.2352 Y16.7002 
G01 X48.3012 Y16.9034 
G01 X48.3346 Y17.1144 
G01 X48.3346 Y17.3280 
G01 X48.3012 Y17.5390 
G01 X48.2352 Y17.7422 
G01 X48.1382 Y17.9326 
G01 X48.0126 Y18.1054 
G01 X47.8615 Y18.2565 
G01 X47.6887 Y18.3821 
G01 X47.4983 Y18.4791 
G01 X47.2951 Y18.5451 
G01 X47.0841 Y18.5785 
G01 X44.3559 Y18.5785 
G01 X44.1449 Y18.5451 
G01 X43.9417 Y18.4791 
G01 X43.7513 Y18.3821 
G01 X43.5785 Y18.2565 
G01 X43.4274 Y18.1054 
G01 X43.3018 Y17.9326 
G01 X43.2048 Y17.7422 
G01 X43.1388 Y17.5390 
G01 X43.1054 Y17.3280 
G01 X43.1054 Y17.1144 
G01 X43.1388 Y16.9034 
G01 X43.2048 Y16.7002 
G01 X43.3018 Y16.5098 
G01 X43.4274 Y16.3370 
G01 X43.5785 Y16.1859 
G01 X43.7513 Y16.0603 
G01 X43.9417 Y15.9633 
G01 X44.0686 Y15.9221 
G01 X42.5381 Y14.3916 
G01 X42.5000 Y14.2997 
G01 X42.5000 Y10.4503 
G01 X42.5381 Y10.3584 
G01 X42.6084 Y10.2881 
G01 X44.4705 Y8.4260 
G01 X44.3253 Y8.3290 
G01 X44.1982 Y8.2019 
G01 X44.0983 Y8.0524 
G01 X44.0295 Y7.8863 
G01 X43.9944 Y7.7099 
G01 X43.9944 Y7.5301 
G01 X44.0295 Y7.3537 
G01 X44.0983 Y7.1876 
G01 X44.1982 Y7.0381 
G01 X44.3253 Y6.9110 
G01 X44.4748 Y6.8111 
G01 X44.6409 Y6.7423 
G01 X44.8173 Y6.7072 
G00 Z2.0000 
G00 X44.8173 Y1.6272 
G01 Z-0.0250 F254.00 
G01 X46.6227 Y1.6272 F508.00 
G01 X46.7991 Y1.6623 
G01 X46.9652 Y1.7311 
G01 X47.1147 Y1.8310 
G01 X47.2418 Y1.9581 
G01 X47.3417 Y2.1076 
G01 X47.4105 Y2.2737 
G01 X47.4456 Y2.4501 
G01 X47.4456 Y2.6299 
G01 X47.4105 Y2.8063 
G01 X47.3417 Y2.9724 
G01 X47.2418 Y3.1219 
G01 X47.1147 Y3.2490 
G01 X46.9652 Y3.3489 
G01 X46.7991 Y3.4177 
G01 X46.6227 Y3.4528 
G01 X44.8173 Y3.4528 
G01 X44.6409 Y3.4177 
G01 X44.4748 Y3.3489 
G01 X44.3253 Y3.2490 
G01 X44.1982 Y3.1219 
G01 X44.0983 Y2.9724 
G01 X44.0295 Y2.8063 
G01 X43.9944 Y2.6299 
G01 X43.9944 Y2.4501 
G01 X44.0295 Y2.2737 
G01 X44.0983 Y2.1076 
G01 X44.1982 Y1.9581 
G01 X44.3253 Y1.8310 
G01 X44.4748 Y1.7311 
G01 X44.6409 Y1.6623 
G01 X44.8173 Y1.6272 
G00 Z2.0000 
G00 X39.7272 Y5.9827 
G01 Z-0.0250 F254.00 
G01 X39.7272 Y4.1773 F508.00 
G01 X39.7623 Y4.0009 
G01 X39.8311 Y3.8348 
G01 X39.9310 Y3.6853 
G01 X40.0581 Y3.5582 
G01 X40.2076 Y3.4583 
G01 X40.3737 Y3.3895 
G01 X40.5501 Y3.3544 
G01 X40.7299 Y3.3544 
G01 X40.9063 Y3.3895 
G01 X41.0724 Y3.4583 
G01 X41.2219 Y3.5582 
G01 X41.3490 Y3.6853 
G01 X41.4489 Y3.8348 
G01 X41.5177 Y4.0009 
G01 X41.5528 Y4.1773 
G01 X41.5528 Y5.9827 
G01 X41.5177 Y6.1591 
G01 X41.4489 Y6.3252 
G01 X41.3490 Y6.4747 
G01 X41.2219 Y6.6018 
G01 X41.0724 Y6.7017 
G01 X40.9063 Y6.7705 
G01 X40.7299 Y6.8056 
G01 X40.5501 Y6.8056 
G01 X40.3737 Y6.7705 
G01 X40.2076 Y6.7017 
G01 X40.0581 Y6.6018 
G01 X39.9310 Y6.4747 
G01 X39.8311 Y6.3252 
G01 X39.7623 Y6.1591 
G01 X39.7272 Y5.9827 
G00 Z2.0000 
G00 X47.0841 Y14.6161 
G01 Z-0.0250 F254.00 
G01 X44.3559 Y14.6161 F508.00 
G01 X44.1449 Y14.5827 
G01 X43.9417 Y14.5167 
G01 X43.7513 Y14.4197 
G01 X43.5785 Y14.2941 
G01 X43.4274 Y14.1430 
G01 X43.3018 Y13.9702 
G01 X43.2048 Y13.7798 
G01 X43.1388 Y13.5766 
G01 X43.1054 Y13.3656 
G01 X43.1054 Y13.1520 
G01 X43.1388 Y12.9410 
G01 X43.2048 Y12.7378 
G01 X43.3018 Y12.5474 
G01 X43.4274 Y12.3746 
G01 X43.5785 Y12.2235 
G01 X43.7513 Y12.0979 
G01 X43.9417 Y12.0009 
G01 X44.1449 Y11.9349 
G01 X44.3559 Y11.9015 
G01 X47.0841 Y11.9015 
G01 X47.2951 Y11.9349 
G01 X47.4983 Y12.0009 
G01 X47.6887 Y12.0979 
G01 X47.8615 Y12.2235 
G01 X48.0126 Y12.3746 
G01 X48.1382 Y12.5474 
G01 X48.2352 Y12.7378 
G01 X48.3012 Y12.9410 
G01 X48.3346 Y13.1520 
G01 X48.3346 Y13.3656 
G01 X48.3012 Y13.5766 
G01 X48.2352 Y13.7798 
G01 X48.1382 Y13.9702 
G01 X48.0126 Y14.1430 
G01 X47.8615 Y14.2941 
G01 X47.6887 Y14.4197 
G01 X47.4983 Y14.5167 
G01 X47.2951 Y14.5827 
G01 X47.0841 Y14.6161 
G00 Z2.0000 
G00 X46.3399 Y34.4200 
G01 Z-0.0250 F254.00 
G01 X45.4336 Y34.4200 F508.00 
G01 X44.5000 Y35.3536 
G01 X44.5000 Y43.9455 
G01 X44.5380 Y43.9612 
G01 X44.6376 Y44.0277 
G01 X44.7223 Y44.1124 
G01 X44.7888 Y44.2120 
G01 X44.8346 Y44.3227 
G01 X44.8580 Y44.4401 
G01 X44.8580 Y44.5599 
G01 X44.8346 Y44.6773 
G01 X44.7888 Y44.7880 
G01 X44.7223 Y44.8876 
G01 X44.6376 Y44.9723 
G01 X44.5380 Y45.0388 
G01 X44.4273 Y45.0846 
G01 X44.3099 Y45.1080 
G01 X44.1901 Y45.1080 
G01 X44.0727 Y45.0846 
G01 X43.9620 Y45.0388 
G01 X43.8624 Y44.9723 
G01 X43.7777 Y44.8876 
G01 X43.7112 Y44.7880 
G01 X43.6654 Y44.6773 
G01 X43.6420 Y44.5599 
G01 X43.6420 Y44.4401 
G01 X43.6654 Y44.3227 
G01 X43.7112 Y44.2120 
G01 X43.7777 Y44.1124 
G01 X43.8624 Y44.0277 
G01 X43.9620 Y43.9612 
G01 X44.0000 Y43.9455 
G01 X44.0000 Y35.2003 
G01 X44.0381 Y35.1084 
G01 X44.1084 Y35.0381 
G01 X45.0200 Y34.1264 
G01 X45.0200 Y33.5001 
G01 X45.0352 Y33.4634 
G01 X45.0634 Y33.4352 
G01 X45.1001 Y33.4200 
G01 X46.3399 Y33.4200 
G01 X46.3766 Y33.4352 
G01 X46.4048 Y33.4634 
G01 X46.4200 Y33.5001 
G01 X46.4200 Y34.3399 
G01 X46.4048 Y34.3766 
G01 X46.3766 Y34.4048 
G01 X46.3399 Y34.4200 
G00 Z2.0000 
G00 X46.3399 Y32.6200 
G01 Z-0.0250 F254.00 
G01 X45.1001 Y32.6200 F508.00 
G01 X45.0634 Y32.6048 
G01 X45.0352 Y32.5766 
G01 X45.0200 Y32.5399 
G01 X45.0200 Y32.2500 
G01 X42.6737 Y32.2500 
G01 X42.6190 Y32.3319 
G01 X42.4919 Y32.4590 
G01 X42.3424 Y32.5589 
G01 X42.1763 Y32.6277 
G01 X41.9999 Y32.6628 
G01 X41.8201 Y32.6628 
G01 X41.6437 Y32.6277 
G01 X41.4776 Y32.5589 
G01 X41.3281 Y32.4590 
G01 X41.2010 Y32.3319 
G01 X41.1011 Y32.1824 
G01 X41.0323 Y32.0163 
G01 X40.9972 Y31.8399 
G01 X40.9972 Y31.6601 
G01 X41.0323 Y31.4837 
G01 X41.1011 Y31.3176 
G01 X41.2010 Y31.1681 
G01 X41.3281 Y31.0410 
G01 X41.4776 Y30.9411 
G01 X41.6437 Y30.8723 
G01 X41.8201 Y30.8372 
G01 X41.9999 Y30.8372 
G01 X42.1763 Y30.8723 
G01 X42.3424 Y30.9411 
G01 X42.4919 Y31.0410 
G01 X42.6190 Y31.1681 
G01 X42.7189 Y31.3176 
G01 X42.7877 Y31.4837 
G01 X42.8228 Y31.6601 
G01 X42.8228 Y31.7500 
G01 X45.0200 Y31.7500 
G01 X45.0200 Y31.7001 
G01 X45.0352 Y31.6634 
G01 X45.0634 Y31.6352 
G01 X45.1001 Y31.6200 
G01 X46.3399 Y31.6200 
G01 X46.3766 Y31.6352 
G01 X46.4048 Y31.6634 
G01 X46.4200 Y31.7001 
G01 X46.4200 Y32.5399 
G01 X46.4048 Y32.5766 
G01 X46.3766 Y32.6048 
G01 X46.3399 Y32.6200 
G00 Z2.0000 
G00 X25.3600 Y5.0012 
G01 Z-0.0250 F254.00 
G01 X25.3600 Y5.1588 F508.00 
G01 X25.3293 Y5.3134 
G01 X25.2689 Y5.4589 
G01 X25.1814 Y5.5900 
G01 X25.0700 Y5.7014 
G01 X24.9389 Y5.7889 
G01 X24.7934 Y5.8493 
G01 X24.6388 Y5.8800 
G01 X24.4812 Y5.8800 
G01 X24.3266 Y5.8493 
G01 X24.1811 Y5.7889 
G01 X24.0500 Y5.7014 
G01 X23.9386 Y5.5900 
G01 X23.8511 Y5.4589 
G01 X23.7907 Y5.3134 
G01 X23.7600 Y5.1588 
G01 X23.7600 Y5.0012 
G01 X23.7907 Y4.8466 
G01 X23.8511 Y4.7011 
G01 X23.9386 Y4.5700 
G01 X24.0500 Y4.4586 
G01 X24.1811 Y4.3711 
G01 X24.3266 Y4.3107 
G01 X24.4812 Y4.2800 
G01 X24.6388 Y4.2800 
G01 X24.7934 Y4.3107 
G01 X24.9389 Y4.3711 
G01 X25.0700 Y4.4586 
G01 X25.1814 Y4.5700 
G01 X25.2689 Y4.7011 
G01 X25.3293 Y4.8466 
G01 X25.3600 Y5.0012 
G00 Z2.0000 
G00 X5.5388 Y10.9511 
G01 Z-0.0250 F254.00 
G01 X5.5388 Y9.3689 F508.00 
G01 X5.5700 Y9.2122 
G01 X5.6311 Y9.0646 
G01 X5.7199 Y8.9317 
G01 X5.8329 Y8.8187 
G01 X5.9657 Y8.7299 
G01 X6.0000 Y8.7157 
G01 X6.0000 Y6.3536 
G01 X5.8056 Y6.1592 
G01 X5.7989 Y6.1754 
G01 X5.7101 Y6.3083 
G01 X5.5971 Y6.4213 
G01 X5.4642 Y6.5101 
G01 X5.3166 Y6.5712 
G01 X5.1599 Y6.6024 
G01 X5.0001 Y6.6024 
G01 X4.8434 Y6.5712 
G01 X4.6958 Y6.5101 
G01 X4.5629 Y6.4213 
G01 X4.4499 Y6.3083 
G01 X4.3611 Y6.1754 
G01 X4.3000 Y6.0278 
G01 X4.2688 Y5.8711 
G01 X4.2688 Y4.2889 
G01 X4.3000 Y4.1322 
G01 X4.3611 Y3.9846 
G01 X4.4499 Y3.8517 
G01 X4.5629 Y3.7387 
G01 X4.6958 Y3.6499 
G01 X4.8434 Y3.5888 
G01 X5.0001 Y3.5576 
G01 X5.1599 Y3.5576 
G01 X5.3166 Y3.5888 
G01 X5.4642 Y3.6499 
G01 X5.5971 Y3.7387 
G01 X5.7101 Y3.8517 
G01 X5.7989 Y3.9846 
G01 X5.8600 Y4.1322 
G01 X5.8912 Y4.2889 
G01 X5.8912 Y5.5376 
G01 X6.3916 Y6.0381 
G01 X6.4619 Y6.1084 
G01 X6.5000 Y6.2003 
G01 X6.5000 Y8.6515 
G01 X6.5866 Y8.6688 
G01 X6.7342 Y8.7299 
G01 X6.8671 Y8.8187 
G01 X6.9801 Y8.9317 
G01 X7.0689 Y9.0646 
G01 X7.1300 Y9.2122 
G01 X7.1612 Y9.3689 
G01 X7.1612 Y10.9511 
G01 X7.1300 Y11.1078 
G01 X7.0689 Y11.2554 
G01 X6.9801 Y11.3883 
G01 X6.8671 Y11.5013 
G01 X6.7342 Y11.5901 
G01 X6.5866 Y11.6512 
G01 X6.4299 Y11.6824 
G01 X6.2701 Y11.6824 
G01 X6.1134 Y11.6512 
G01 X5.9657 Y11.5901 
G01 X5.8329 Y11.5013 
G01 X5.7199 Y11.3883 
G01 X5.6311 Y11.2554 
G01 X5.5700 Y11.1078 
G01 X5.5388 Y10.9511 
G00 Z2.0000 
G00 X2.9988 Y9.3689 
G01 Z-0.0250 F254.00 
G01 X3.0300 Y9.2122 F508.00 
G01 X3.0911 Y9.0646 
G01 X3.1799 Y8.9317 
G01 X3.2929 Y8.8187 
G01 X3.4258 Y8.7299 
G01 X3.5734 Y8.6688 
G01 X3.7301 Y8.6376 
G01 X3.8899 Y8.6376 
G01 X4.0466 Y8.6688 
G01 X4.1942 Y8.7299 
G01 X4.3271 Y8.8187 
G01 X4.4401 Y8.9317 
G01 X4.5289 Y9.0646 
G01 X4.5900 Y9.2122 
G01 X4.6212 Y9.3689 
G01 X4.6212 Y10.9511 
G01 X4.5900 Y11.1078 
G01 X4.5289 Y11.2554 
G01 X4.4401 Y11.3883 
G01 X4.3271 Y11.5013 
G01 X4.1942 Y11.5901 
G01 X4.0466 Y11.6512 
G01 X3.8899 Y11.6824 
G01 X3.7301 Y11.6824 
G01 X3.5734 Y11.6512 
G01 X3.4258 Y11.5901 
G01 X3.2929 Y11.5013 
G01 X3.1799 Y11.3883 
G01 X3.0939 Y11.2596 
G01 X2.7500 Y11.6036 
G01 X2.7500 Y24.3964 
G01 X5.5936 Y27.2400 
G01 X6.3999 Y27.2400 
G01 X6.4366 Y27.2552 
G01 X6.4648 Y27.2834 
G01 X6.4800 Y27.3201 
G01 X6.4800 Y28.5599 
G01 X6.4648 Y28.5966 
G01 X6.4366 Y28.6248 
G01 X6.3999 Y28.6400 
G01 X5.5601 Y28.6400 
G01 X5.5234 Y28.6248 
G01 X5.4952 Y28.5966 
G01 X5.4800 Y28.5599 
G01 X5.4800 Y27.8336 
G01 X2.3584 Y24.7119 
G01 X2.2881 Y24.6416 
G01 X2.2500 Y24.5497 
G01 X2.2500 Y11.4503 
G01 X2.2881 Y11.3584 
G01 X2.9988 Y10.6476 
G01 X2.9988 Y9.3689 
G00 Z2.0000 
G00 X32.6700 Y46.4401 
G01 Z-0.0250 F254.00 
G01 X32.6700 Y47.8799 F508.00 
G01 X32.6548 Y47.9166 
G01 X32.6266 Y47.9448 
G01 X32.5899 Y47.9600 
G01 X32.2500 Y47.9600 
G01 X32.2500 Y50.2997 
G01 X32.2119 Y50.3916 
G01 X32.1416 Y50.4619 
G01 X26.8000 Y55.8036 
G01 X26.8000 Y56.4999 
G01 X26.7848 Y56.5366 
G01 X26.7566 Y56.5648 
G01 X26.7199 Y56.5800 
G01 X25.8801 Y56.5800 
G01 X25.8434 Y56.5648 
G01 X25.8152 Y56.5366 
G01 X25.8000 Y56.4999 
G01 X25.8000 Y55.2601 
G01 X25.8152 Y55.2234 
G01 X25.8434 Y55.1952 
G01 X25.8801 Y55.1800 
G01 X26.7164 Y55.1800 
G01 X31.7500 Y50.1464 
G01 X31.7500 Y47.9600 
G01 X31.5501 Y47.9600 
G01 X31.5134 Y47.9448 
G01 X31.4852 Y47.9166 
G01 X31.4700 Y47.8799 
G01 X31.4700 Y46.4401 
G01 X31.4852 Y46.4034 
G01 X31.5134 Y46.3752 
G01 X31.5501 Y46.3600 
G01 X32.5899 Y46.3600 
G01 X32.6266 Y46.3752 
G01 X32.6548 Y46.4034 
G01 X32.6700 Y46.4401 
G00 Z2.0000 
G00 X44.5441 Y59.2185 
G01 Z-0.0250 F254.00 
G01 X41.8159 Y59.2185 F508.00 
G01 X41.6049 Y59.1851 
G01 X41.4017 Y59.1191 
G01 X41.2113 Y59.0221 
G01 X41.0385 Y58.8965 
G01 X40.8874 Y58.7454 
G01 X40.7618 Y58.5726 
G01 X40.6648 Y58.3822 
G01 X40.5988 Y58.1790 
G01 X40.5654 Y57.9680 
G01 X40.5654 Y57.7544 
G01 X40.5988 Y57.5434 
G01 X40.6648 Y57.3402 
G01 X40.7108 Y57.2500 
G01 X34.3536 Y57.2500 
G01 X33.8550 Y57.7486 
G01 X33.8550 Y58.6849 
G01 X33.8398 Y58.7216 
G01 X33.8116 Y58.7498 
G01 X33.7749 Y58.7650 
G01 X32.2651 Y58.7650 
G01 X32.2284 Y58.7498 
G01 X32.2002 Y58.7216 
G01 X32.1850 Y58.6849 
G01 X32.1850 Y57.3751 
G01 X32.2002 Y57.3384 
G01 X32.2284 Y57.3102 
G01 X32.2651 Y57.2950 
G01 X33.6014 Y57.2950 
G01 X34.0000 Y56.8964 
G01 X34.0000 Y50.6036 
G01 X33.5516 Y50.1551 
G01 X33.5399 Y50.1600 
G01 X32.5001 Y50.1600 
G01 X32.4634 Y50.1448 
G01 X32.4352 Y50.1166 
G01 X32.4200 Y50.0799 
G01 X32.4200 Y48.6401 
G01 X32.4352 Y48.6034 
G01 X32.4634 Y48.5752 
G01 X32.5001 Y48.5600 
G01 X33.5399 Y48.5600 
G01 X33.5766 Y48.5752 
G01 X33.6048 Y48.6034 
G01 X33.6200 Y48.6401 
G01 X33.6200 Y49.5164 
G01 X34.3916 Y50.2881 
G01 X34.4619 Y50.3584 
G01 X34.5000 Y50.4503 
G01 X34.5000 Y56.7500 
G01 X41.1430 Y56.7500 
G01 X41.2113 Y56.7003 
G01 X41.4017 Y56.6033 
G01 X41.6049 Y56.5373 
G01 X41.8159 Y56.5039 
G01 X44.5441 Y56.5039 
G01 X44.7551 Y56.5373 
G01 X44.9583 Y56.6033 
G01 X45.1487 Y56.7003 
G01 X45.3215 Y56.8259 
G01 X45.4726 Y56.9770 
G01 X45.5982 Y57.1498 
G01 X45.6952 Y57.3402 
G01 X45.7612 Y57.5434 
G01 X45.7946 Y57.7544 
G01 X45.7946 Y57.9680 
G01 X45.7612 Y58.1790 
G01 X45.6952 Y58.3822 
G01 X45.5982 Y58.5726 
G01 X45.4726 Y58.7454 
G01 X45.3215 Y58.8965 
G01 X45.1487 Y59.0221 
G01 X44.9583 Y59.1191 
G01 X44.7551 Y59.1851 
G01 X44.5441 Y59.2185 
G00 Z2.0000 
G00 X18.3150 Y33.4336 
G01 Z-0.0250 F254.00 
G01 X18.3150 Y31.3872 F508.00 
G01 X18.3302 Y31.3505 
G01 X18.3584 Y31.3223 
G01 X18.3951 Y31.3071 
G01 X22.2449 Y31.3071 
G01 X22.2816 Y31.3223 
G01 X22.3098 Y31.3505 
G01 X22.3250 Y31.3872 
G01 X22.3250 Y33.4336 
G01 X22.3098 Y33.4703 
G01 X22.2816 Y33.4985 
G01 X22.2449 Y33.5137 
G01 X18.3951 Y33.5137 
G01 X18.3584 Y33.4985 
G01 X18.3302 Y33.4703 
G01 X18.3150 Y33.4336 
G00 Z2.0000 
G00 X14.4415 Y59.7841 
G01 Z-0.0250 F254.00 
G01 X14.4415 Y57.0559 F508.00 
G01 X14.4749 Y56.8449 
G01 X14.5409 Y56.6417 
G01 X14.6379 Y56.4513 
G01 X14.7635 Y56.2785 
G01 X14.9146 Y56.1274 
G01 X15.0874 Y56.0018 
G01 X15.2778 Y55.9048 
G01 X15.4810 Y55.8388 
G01 X15.6920 Y55.8054 
G01 X15.9056 Y55.8054 
G01 X16.1166 Y55.8388 
G01 X16.3198 Y55.9048 
G01 X16.5102 Y56.0018 
G01 X16.6830 Y56.1274 
G01 X16.8341 Y56.2785 
G01 X16.9597 Y56.4513 
G01 X17.0567 Y56.6417 
G01 X17.1227 Y56.8449 
G01 X17.1561 Y57.0559 
G01 X17.1561 Y59.7841 
G01 X17.1227 Y59.9951 
G01 X17.0567 Y60.1983 
G01 X16.9597 Y60.3887 
G01 X16.8341 Y60.5615 
G01 X16.6830 Y60.7126 
G01 X16.5102 Y60.8382 
G01 X16.3198 Y60.9352 
G01 X16.1166 Y61.0012 
G01 X15.9056 Y61.0346 
G01 X15.6920 Y61.0346 
G01 X15.4810 Y61.0012 
G01 X15.2778 Y60.9352 
G01 X15.0874 Y60.8382 
G01 X14.9146 Y60.7126 
G01 X14.7635 Y60.5615 
G01 X14.6379 Y60.3887 
G01 X14.5409 Y60.1983 
G01 X14.4749 Y59.9951 
G01 X14.4415 Y59.7841 
G00 Z2.0000 
G00 X1.6000 Y39.7199 
G01 Z-0.0250 F254.00 
G01 X1.6000 Y36.4801 F508.00 
G01 X1.6152 Y36.4434 
G01 X1.6434 Y36.4152 
G01 X1.6801 Y36.4000 
G01 X2.5000 Y36.4000 
G01 X2.5000 Y31.9503 
G01 X2.5381 Y31.8584 
G01 X2.6084 Y31.7881 
G01 X2.7003 Y31.7500 
G01 X6.7997 Y31.7500 
G01 X6.8916 Y31.7881 
G01 X6.9619 Y31.8584 
G01 X9.7119 Y34.6084 
G01 X9.7500 Y34.7003 
G01 X9.7500 Y40.2500 
G01 X12.8964 Y40.2500 
G01 X14.2500 Y38.8964 
G01 X14.2500 Y38.7003 
G01 X14.2881 Y38.6084 
G01 X14.3584 Y38.5381 
G01 X14.4503 Y38.5000 
G01 X17.1593 Y38.5000 
G01 X17.1593 Y37.6864 
G01 X17.1745 Y37.6497 
G01 X17.2027 Y37.6215 
G01 X17.2394 Y37.6063 
G01 X18.7778 Y37.6063 
G01 X18.8145 Y37.6215 
G01 X18.8427 Y37.6497 
G01 X18.8579 Y37.6864 
G01 X18.8579 Y39.7328 
G01 X18.8427 Y39.7695 
G01 X18.8145 Y39.7977 
G01 X18.7778 Y39.8129 
G01 X17.2394 Y39.8129 
G01 X17.2027 Y39.7977 
G01 X17.1745 Y39.7695 
G01 X17.1593 Y39.7328 
G01 X17.1593 Y39.0000 
G01 X14.7500 Y39.0000 
G01 X14.7500 Y39.0497 
G01 X14.7119 Y39.1416 
G01 X14.6416 Y39.2119 
G01 X13.2119 Y40.6416 
G01 X13.1416 Y40.7119 
G01 X13.0497 Y40.7500 
G01 X9.4503 Y40.7500 
G01 X9.3584 Y40.7119 
G01 X9.2881 Y40.6416 
G01 X9.2500 Y40.5497 
G01 X9.2500 Y34.8536 
G01 X6.6464 Y32.2500 
G01 X3.0000 Y32.2500 
G01 X3.0000 Y36.4000 
G01 X3.4999 Y36.4000 
G01 X3.5366 Y36.4152 
G01 X3.5648 Y36.4434 
G01 X3.5800 Y36.4801 
G01 X3.5800 Y39.7199 
G01 X3.5648 Y39.7566 
G01 X3.5366 Y39.7848 
G01 X3.4999 Y39.8000 
G01 X1.6801 Y39.8000 
G01 X1.6434 Y39.7848 
G01 X1.6152 Y39.7566 
G01 X1.6000 Y39.7199 
G00 Z2.0000 
G00 X6.4800 Y32.4001 
G01 Z-0.0250 F254.00 
G01 X6.4800 Y33.6399 F508.00 
G01 X6.4648 Y33.6766 
G01 X6.4366 Y33.7048 
G01 X6.3999 Y33.7200 
G01 X5.7500 Y33.7200 
G01 X5.7500 Y46.3964 
G01 X6.4175 Y47.0639 
G01 X6.5097 Y47.0170 
G01 X6.6653 Y46.9664 
G01 X6.8270 Y46.9408 
G01 X6.9906 Y46.9408 
G01 X7.1523 Y46.9664 
G01 X7.3079 Y47.0170 
G01 X7.4538 Y47.0913 
G01 X7.5862 Y47.1875 
G01 X7.7019 Y47.3032 
G01 X7.7981 Y47.4356 
G01 X7.8724 Y47.5815 
G01 X7.9230 Y47.7371 
G01 X7.9486 Y47.8988 
G01 X7.9486 Y48.0624 
G01 X7.9230 Y48.2241 
G01 X7.8724 Y48.3797 
G01 X7.7981 Y48.5256 
G01 X7.7019 Y48.6580 
G01 X7.5862 Y48.7737 
G01 X7.4538 Y48.8699 
G01 X7.3079 Y48.9442 
G01 X7.1523 Y48.9948 
G01 X6.9906 Y49.0204 
G01 X6.8270 Y49.0204 
G01 X6.6653 Y48.9948 
G01 X6.5097 Y48.9442 
G01 X6.3638 Y48.8699 
G01 X6.2314 Y48.7737 
G01 X6.1157 Y48.6580 
G01 X6.0195 Y48.5256 
G01 X5.9452 Y48.3797 
G01 X5.8946 Y48.2241 
G01 X5.8690 Y48.0624 
G01 X5.8690 Y47.8988 
G01 X5.8946 Y47.7371 
G01 X5.9452 Y47.5815 
G01 X6.0195 Y47.4356 
G01 X6.0458 Y47.3994 
G01 X5.2881 Y46.6416 
G01 X5.2500 Y46.5497 
G01 X5.2500 Y33.4503 
G01 X5.2881 Y33.3584 
G01 X5.3584 Y33.2881 
G01 X5.4800 Y33.1664 
G01 X5.4800 Y32.4001 
G01 X5.4952 Y32.3634 
G01 X5.5234 Y32.3352 
G01 X5.5601 Y32.3200 
G01 X6.3999 Y32.3200 
G01 X6.4366 Y32.3352 
G01 X6.4648 Y32.3634 
G01 X6.4800 Y32.4001 
G00 Z2.0000 
G00 X4.6800 Y32.4001 
G01 Z-0.0250 F254.00 
G01 X4.6800 Y33.6399 F508.00 
G01 X4.6648 Y33.6766 
G01 X4.6366 Y33.7048 
G01 X4.5999 Y33.7200 
G01 X4.2500 Y33.7200 
G01 X4.2500 Y45.7997 
G01 X4.2119 Y45.8916 
G01 X3.2400 Y46.8636 
G01 X3.2400 Y47.8299 
G01 X3.2248 Y47.8666 
G01 X3.1966 Y47.8948 
G01 X3.1599 Y47.9100 
G01 X1.9201 Y47.9100 
G01 X1.8834 Y47.8948 
G01 X1.8552 Y47.8666 
G01 X1.8400 Y47.8299 
G01 X1.8400 Y46.5901 
G01 X1.8552 Y46.5534 
G01 X1.8834 Y46.5252 
G01 X1.9201 Y46.5100 
G01 X2.8864 Y46.5100 
G01 X3.7500 Y45.6464 
G01 X3.7500 Y33.7158 
G01 X3.7234 Y33.7048 
G01 X3.6952 Y33.6766 
G01 X3.6800 Y33.6399 
G01 X3.6800 Y32.4001 
G01 X3.6952 Y32.3634 
G01 X3.7234 Y32.3352 
G01 X3.7601 Y32.3200 
G01 X4.5999 Y32.3200 
G01 X4.6366 Y32.3352 
G01 X4.6648 Y32.3634 
G01 X4.6800 Y32.4001 
G00 Z2.0000 
G00 X14.1000 Y37.4801 
G01 Z-0.0250 F254.00 
G01 X14.1000 Y38.7199 F508.00 
G01 X14.0848 Y38.7566 
G01 X14.0566 Y38.7848 
G01 X14.0199 Y38.8000 
G01 X13.3036 Y38.8000 
G01 X12.8189 Y39.2847 
G01 X12.8346 Y39.3227 
G01 X12.8580 Y39.4401 
G01 X12.8580 Y39.5599 
G01 X12.8346 Y39.6773 
G01 X12.7888 Y39.7880 
G01 X12.7223 Y39.8876 
G01 X12.6376 Y39.9723 
G01 X12.5380 Y40.0388 
G01 X12.4273 Y40.0846 
G01 X12.3099 Y40.1080 
G01 X12.1901 Y40.1080 
G01 X12.0727 Y40.0846 
G01 X11.9620 Y40.0388 
G01 X11.8624 Y39.9723 
G01 X11.7777 Y39.8876 
G01 X11.7112 Y39.7880 
G01 X11.6654 Y39.6773 
G01 X11.6420 Y39.5599 
G01 X11.6420 Y39.4401 
G01 X11.6654 Y39.3227 
G01 X11.7112 Y39.2120 
G01 X11.7777 Y39.1124 
G01 X11.8624 Y39.0277 
G01 X11.9620 Y38.9612 
G01 X12.0727 Y38.9154 
G01 X12.1901 Y38.8920 
G01 X12.3099 Y38.8920 
G01 X12.4273 Y38.9154 
G01 X12.4653 Y38.9311 
G01 X13.1000 Y38.2964 
G01 X13.1000 Y37.4801 
G01 X13.1152 Y37.4434 
G01 X13.1434 Y37.4152 
G01 X13.1801 Y37.4000 
G01 X14.0199 Y37.4000 
G01 X14.0566 Y37.4152 
G01 X14.0848 Y37.4434 
G01 X14.1000 Y37.4801 
G00 Z2.0000 
G00 X10.4664 Y59.3785 
G01 Z-0.0250 F254.00 
G01 X10.4664 Y57.4615 F508.00 
G01 X10.5034 Y57.2753 
G01 X10.5761 Y57.1000 
G01 X10.6815 Y56.9421 
G01 X10.8157 Y56.8079 
G01 X10.9736 Y56.7025 
G01 X11.1489 Y56.6298 
G01 X11.3351 Y56.5928 
G01 X11.5249 Y56.5928 
G01 X11.7111 Y56.6298 
G01 X11.8864 Y56.7025 
G01 X12.0443 Y56.8079 
G01 X12.1785 Y56.9421 
G01 X12.2839 Y57.1000 
G01 X12.3566 Y57.2753 
G01 X12.3936 Y57.4615 
G01 X12.3936 Y59.3785 
G01 X12.3566 Y59.5647 
G01 X12.2839 Y59.7400 
G01 X12.1785 Y59.8979 
G01 X12.0443 Y60.0321 
G01 X11.8864 Y60.1375 
G01 X11.7111 Y60.2102 
G01 X11.5249 Y60.2472 
G01 X11.3351 Y60.2472 
G01 X11.1489 Y60.2102 
G01 X10.9736 Y60.1375 
G01 X10.8157 Y60.0321 
G01 X10.6815 Y59.8979 
G01 X10.5761 Y59.7400 
G01 X10.5034 Y59.5647 
G01 X10.4664 Y59.3785 
G00 Z2.0000 
G00 X6.6564 Y59.3785 
G01 Z-0.0250 F254.00 
G01 X6.6564 Y57.4615 F508.00 
G01 X6.6934 Y57.2753 
G01 X6.7661 Y57.1000 
G01 X6.8715 Y56.9421 
G01 X7.0057 Y56.8079 
G01 X7.1636 Y56.7025 
G01 X7.3389 Y56.6298 
G01 X7.5251 Y56.5928 
G01 X7.7149 Y56.5928 
G01 X7.9011 Y56.6298 
G01 X8.0764 Y56.7025 
G01 X8.2343 Y56.8079 
G01 X8.3685 Y56.9421 
G01 X8.4739 Y57.1000 
G01 X8.5466 Y57.2753 
G01 X8.5836 Y57.4615 
G01 X8.5836 Y59.3785 
G01 X8.5466 Y59.5647 
G01 X8.4739 Y59.7400 
G01 X8.3685 Y59.8979 
G01 X8.2343 Y60.0321 
G01 X8.0764 Y60.1375 
G01 X7.9011 Y60.2102 
G01 X7.7149 Y60.2472 
G01 X7.5251 Y60.2472 
G01 X7.3389 Y60.2102 
G01 X7.1636 Y60.1375 
G01 X7.0057 Y60.0321 
G01 X6.8715 Y59.8979 
G01 X6.7661 Y59.7400 
G01 X6.6934 Y59.5647 
G01 X6.6564 Y59.3785 
G00 Z2.0000 
G00 X2.8464 Y59.3785 
G01 Z-0.0250 F254.00 
G01 X2.8464 Y57.4615 F508.00 
G01 X2.8834 Y57.2753 
G01 X2.9561 Y57.1000 
G01 X3.0615 Y56.9421 
G01 X3.1957 Y56.8079 
G01 X3.3536 Y56.7025 
G01 X3.5000 Y56.6418 
G01 X3.5000 Y54.3536 
G01 X3.3214 Y54.1750 
G01 X2.2751 Y54.1750 
G01 X2.2384 Y54.1598 
G01 X2.2102 Y54.1316 
G01 X2.1950 Y54.0949 
G01 X2.1950 Y52.5851 
G01 X2.2102 Y52.5484 
G01 X2.2384 Y52.5202 
G01 X2.2751 Y52.5050 
G01 X3.5849 Y52.5050 
G01 X3.6216 Y52.5202 
G01 X3.6498 Y52.5484 
G01 X3.6650 Y52.5851 
G01 X3.6650 Y53.8114 
G01 X3.8916 Y54.0381 
G01 X3.9619 Y54.1084 
G01 X4.0000 Y54.2003 
G01 X4.0000 Y56.6117 
G01 X4.0911 Y56.6298 
G01 X4.2664 Y56.7025 
G01 X4.4243 Y56.8079 
G01 X4.5585 Y56.9421 
G01 X4.6639 Y57.1000 
G01 X4.7366 Y57.2753 
G01 X4.7736 Y57.4615 
G01 X4.7736 Y59.3785 
G01 X4.7366 Y59.5647 
G01 X4.6639 Y59.7400 
G01 X4.5585 Y59.8979 
G01 X4.4243 Y60.0321 
G01 X4.2664 Y60.1375 
G01 X4.0911 Y60.2102 
G01 X3.9049 Y60.2472 
G01 X3.7151 Y60.2472 
G01 X3.5289 Y60.2102 
G01 X3.3536 Y60.1375 
G01 X3.1957 Y60.0321 
G01 X3.0615 Y59.8979 
G01 X2.9561 Y59.7400 
G01 X2.8834 Y59.5647 
G01 X2.8464 Y59.3785 
G00 Z2.0000 
G00 X7.9650 Y54.0949 
G01 Z-0.0250 F254.00 
G01 X7.9498 Y54.1316 F508.00 
G01 X7.9216 Y54.1598 
G01 X7.8849 Y54.1750 
G01 X6.5751 Y54.1750 
G01 X6.5384 Y54.1598 
G01 X6.5102 Y54.1316 
G01 X6.4950 Y54.0949 
G01 X6.4950 Y52.5851 
G01 X6.5102 Y52.5484 
G01 X6.5384 Y52.5202 
G01 X6.5751 Y52.5050 
G01 X7.6414 Y52.5050 
G01 X8.2500 Y51.8964 
G01 X8.2500 Y41.0545 
G01 X8.2120 Y41.0388 
G01 X8.1124 Y40.9723 
G01 X8.0277 Y40.8876 
G01 X7.9612 Y40.7880 
G01 X7.9154 Y40.6773 
G01 X7.8920 Y40.5599 
G01 X7.8920 Y40.4401 
G01 X7.9154 Y40.3227 
G01 X7.9311 Y40.2847 
G01 X7.6084 Y39.9619 
G01 X7.5381 Y39.8916 
G01 X7.5001 Y39.8000 
G01 X6.6601 Y39.8000 
G01 X6.6234 Y39.7848 
G01 X6.5952 Y39.7566 
G01 X6.5800 Y39.7199 
G01 X6.5800 Y36.4801 
G01 X6.5952 Y36.4434 
G01 X6.6234 Y36.4152 
G01 X6.6601 Y36.4000 
G01 X8.4799 Y36.4000 
G01 X8.5166 Y36.4152 
G01 X8.5448 Y36.4434 
G01 X8.5600 Y36.4801 
G01 X8.5600 Y39.7199 
G01 X8.5448 Y39.7566 
G01 X8.5166 Y39.7848 
G01 X8.4799 Y39.8000 
G01 X8.1535 Y39.8000 
G01 X8.2847 Y39.9311 
G01 X8.3227 Y39.9154 
G01 X8.4401 Y39.8920 
G01 X8.5599 Y39.8920 
G01 X8.6773 Y39.9154 
G01 X8.7880 Y39.9612 
G01 X8.8876 Y40.0277 
G01 X8.9723 Y40.1124 
G01 X9.0388 Y40.2120 
G01 X9.0846 Y40.3227 
G01 X9.1080 Y40.4401 
G01 X9.1080 Y40.5599 
G01 X9.0846 Y40.6773 
G01 X9.0388 Y40.7880 
G01 X8.9723 Y40.8876 
G01 X8.8876 Y40.9723 
G01 X8.7880 Y41.0388 
G01 X8.7500 Y41.0545 
G01 X8.7500 Y52.0497 
G01 X8.7119 Y52.1416 
G01 X8.6416 Y52.2119 
G01 X7.9650 Y52.8886 
G01 X7.9650 Y54.0949 
G00 Z2.0000 
G00 X14.4510 Y43.3776 
G01 Z-0.0250 F254.00 
G01 X14.4510 Y43.5412 F508.00 
G01 X14.4254 Y43.7029 
G01 X14.3748 Y43.8585 
G01 X14.3005 Y44.0044 
G01 X14.2043 Y44.1368 
G01 X14.0886 Y44.2525 
G01 X13.9562 Y44.3487 
G01 X13.8103 Y44.4230 
G01 X13.6547 Y44.4736 
G01 X13.4930 Y44.4992 
G01 X13.3294 Y44.4992 
G01 X13.1677 Y44.4736 
G01 X13.0121 Y44.4230 
G01 X12.8662 Y44.3487 
G01 X12.7338 Y44.2525 
G01 X12.6181 Y44.1368 
G01 X12.5219 Y44.0044 
G01 X12.4476 Y43.8585 
G01 X12.3970 Y43.7029 
G01 X12.3714 Y43.5412 
G01 X12.3714 Y43.3776 
G01 X12.3970 Y43.2159 
G01 X12.4476 Y43.0603 
G01 X12.5219 Y42.9144 
G01 X12.6181 Y42.7820 
G01 X12.7338 Y42.6663 
G01 X12.8662 Y42.5701 
G01 X13.0121 Y42.4958 
G01 X13.1677 Y42.4452 
G01 X13.3294 Y42.4196 
G01 X13.4930 Y42.4196 
G01 X13.6547 Y42.4452 
G01 X13.8103 Y42.4958 
G01 X13.9562 Y42.5701 
G01 X14.0886 Y42.6663 
G01 X14.2043 Y42.7820 
G01 X14.3005 Y42.9144 
G01 X14.3748 Y43.0603 
G01 X14.4254 Y43.2159 
G01 X14.4510 Y43.3776 
G00 Z2.0000 
G00 X7.9486 Y43.3776 
G01 Z-0.0250 F254.00 
G01 X7.9486 Y43.5412 F508.00 
G01 X7.9230 Y43.7029 
G01 X7.8724 Y43.8585 
G01 X7.7981 Y44.0044 
G01 X7.7019 Y44.1368 
G01 X7.5862 Y44.2525 
G01 X7.4538 Y44.3487 
G01 X7.3079 Y44.4230 
G01 X7.1523 Y44.4736 
G01 X6.9906 Y44.4992 
G01 X6.8270 Y44.4992 
G01 X6.6653 Y44.4736 
G01 X6.5097 Y44.4230 
G01 X6.3638 Y44.3487 
G01 X6.2314 Y44.2525 
G01 X6.1157 Y44.1368 
G01 X6.0195 Y44.0044 
G01 X5.9452 Y43.8585 
G01 X5.8946 Y43.7029 
G01 X5.8690 Y43.5412 
G01 X5.8690 Y43.3776 
G01 X5.8946 Y43.2159 
G01 X5.9452 Y43.0603 
G01 X6.0195 Y42.9144 
G01 X6.1157 Y42.7820 
G01 X6.2314 Y42.6663 
G01 X6.3638 Y42.5701 
G01 X6.5097 Y42.4958 
G01 X6.6653 Y42.4452 
G01 X6.8270 Y42.4196 
G01 X6.9906 Y42.4196 
G01 X7.1523 Y42.4452 
G01 X7.3079 Y42.4958 
G01 X7.4538 Y42.5701 
G01 X7.5862 Y42.6663 
G01 X7.7019 Y42.7820 
G01 X7.7981 Y42.9144 
G01 X7.8724 Y43.0603 
G01 X7.9230 Y43.2159 
G01 X7.9486 Y43.3776 
G00 Z2.0000 
G00 X14.4510 Y47.8988 
G01 Z-0.0250 F254.00 
G01 X14.4510 Y48.0624 F508.00 
G01 X14.4254 Y48.2241 
G01 X14.3748 Y48.3797 
G01 X14.3005 Y48.5256 
G01 X14.2043 Y48.6580 
G01 X14.0886 Y48.7737 
G01 X13.9562 Y48.8699 
G01 X13.8103 Y48.9442 
G01 X13.6547 Y48.9948 
G01 X13.4930 Y49.0204 
G01 X13.3294 Y49.0204 
G01 X13.1677 Y48.9948 
G01 X13.0121 Y48.9442 
G01 X12.8662 Y48.8699 
G01 X12.7338 Y48.7737 
G01 X12.6181 Y48.6580 
G01 X12.5219 Y48.5256 
G01 X12.4476 Y48.3797 
G01 X12.3970 Y48.2241 
G01 X12.3714 Y48.0624 
G01 X12.3714 Y47.8988 
G01 X12.3970 Y47.7371 
G01 X12.4476 Y47.5815 
G01 X12.5219 Y47.4356 
G01 X12.6181 Y47.3032 
G01 X12.7338 Y47.1875 
G01 X12.8662 Y47.0913 
G01 X13.0121 Y47.0170 
G01 X13.1677 Y46.9664 
G01 X13.3294 Y46.9408 
G01 X13.4930 Y46.9408 
G01 X13.6547 Y46.9664 
G01 X13.8103 Y47.0170 
G01 X13.9562 Y47.0913 
G01 X14.0886 Y47.1875 
G01 X14.2043 Y47.3032 
G01 X14.3005 Y47.4356 
G01 X14.3748 Y47.5815 
G01 X14.4254 Y47.7371 
G01 X14.4510 Y47.8988 
G00 Z2.0000 
G00 X38.7199 Y17.3800 
G01 Z-0.0250 F254.00 
G01 X37.4801 Y17.3800 F508.00 
G01 X37.4434 Y17.3648 
G01 X37.4152 Y17.3366 
G01 X37.4000 Y17.2999 
G01 X37.4000 Y17.0000 
G01 X32.0300 Y17.0000 
G01 X32.0300 Y17.0599 
G01 X32.0148 Y17.0966 
G01 X31.9866 Y17.1248 
G01 X31.9499 Y17.1400 
G01 X30.9101 Y17.1400 
G01 X30.8734 Y17.1248 
G01 X30.8452 Y17.0966 
G01 X30.8300 Y17.0599 
G01 X30.8300 Y15.6201 
G01 X30.8452 Y15.5834 
G01 X30.8734 Y15.5552 
G01 X30.9101 Y15.5400 
G01 X31.9499 Y15.5400 
G01 X31.9866 Y15.5552 
G01 X32.0148 Y15.5834 
G01 X32.0300 Y15.6201 
G01 X32.0300 Y16.5000 
G01 X37.4000 Y16.5000 
G01 X37.4000 Y16.4601 
G01 X37.4152 Y16.4234 
G01 X37.4434 Y16.3952 
G01 X37.4801 Y16.3800 
G01 X38.7199 Y16.3800 
G01 X38.7566 Y16.3952 
G01 X38.7848 Y16.4234 
G01 X38.8000 Y16.4601 
G01 X38.8000 Y17.2999 
G01 X38.7848 Y17.3366 
G01 X38.7566 Y17.3648 
G01 X38.7199 Y17.3800 
G00 Z2.0000 
G00 X36.3585 Y3.7159 
G01 Z-0.0250 F254.00 
G01 X36.3585 Y6.4441 F508.00 
G01 X36.3251 Y6.6551 
G01 X36.2591 Y6.8583 
G01 X36.1621 Y7.0487 
G01 X36.0365 Y7.2215 
G01 X35.8854 Y7.3726 
G01 X35.7126 Y7.4982 
G01 X35.5222 Y7.5952 
G01 X35.5000 Y7.6024 
G01 X35.5000 Y10.1464 
G01 X37.2186 Y11.8650 
G01 X38.3649 Y11.8650 
G01 X38.4016 Y11.8802 
G01 X38.4298 Y11.9084 
G01 X38.4450 Y11.9451 
G01 X38.4450 Y13.4549 
G01 X38.4298 Y13.4916 
G01 X38.4016 Y13.5198 
G01 X38.3649 Y13.5350 
G01 X37.7500 Y13.5350 
G01 X37.7500 Y14.0497 
G01 X37.7119 Y14.1416 
G01 X37.6416 Y14.2119 
G01 X37.5497 Y14.2500 
G01 X31.0800 Y14.2500 
G01 X31.0800 Y14.8599 
G01 X31.0648 Y14.8966 
G01 X31.0366 Y14.9248 
G01 X30.9999 Y14.9400 
G01 X29.9601 Y14.9400 
G01 X29.9234 Y14.9248 
G01 X29.8952 Y14.8966 
G01 X29.8800 Y14.8599 
G01 X29.8800 Y13.4201 
G01 X29.8952 Y13.3834 
G01 X29.9234 Y13.3552 
G01 X29.9601 Y13.3400 
G01 X30.9999 Y13.3400 
G01 X31.0366 Y13.3552 
G01 X31.0648 Y13.3834 
G01 X31.0800 Y13.4201 
G01 X31.0800 Y13.7500 
G01 X37.2500 Y13.7500 
G01 X37.2500 Y13.5350 
G01 X37.0551 Y13.5350 
G01 X37.0184 Y13.5198 
G01 X36.9902 Y13.4916 
G01 X36.9750 Y13.4549 
G01 X36.9750 Y12.3285 
G01 X35.1084 Y10.4619 
G01 X35.0381 Y10.3916 
G01 X35.0000 Y10.2997 
G01 X35.0000 Y7.6946 
G01 X34.8944 Y7.6946 
G01 X34.6834 Y7.6612 
G01 X34.4802 Y7.5952 
G01 X34.2898 Y7.4982 
G01 X34.1170 Y7.3726 
G01 X33.9659 Y7.2215 
G01 X33.8403 Y7.0487 
G01 X33.7433 Y6.8583 
G01 X33.6773 Y6.6551 
G01 X33.6439 Y6.4441 
G01 X33.6439 Y3.7159 
G01 X33.6773 Y3.5049 
G01 X33.7433 Y3.3017 
G01 X33.8403 Y3.1113 
G01 X33.9659 Y2.9385 
G01 X34.1170 Y2.7874 
G01 X34.2898 Y2.6618 
G01 X34.4802 Y2.5648 
G01 X34.6834 Y2.4988 
G01 X34.8944 Y2.4654 
G01 X35.1080 Y2.4654 
G01 X35.3190 Y2.4988 
G01 X35.5222 Y2.5648 
G01 X35.7126 Y2.6618 
G01 X35.8854 Y2.7874 
G01 X36.0365 Y2.9385 
G01 X36.1621 Y3.1113 
G01 X36.2591 Y3.3017 
G01 X36.3251 Y3.5049 
G01 X36.3585 Y3.7159 
G00 Z2.0000 
G00 X32.3961 Y3.7159 
G01 Z-0.0250 F254.00 
G01 X32.3961 Y6.4441 F508.00 
G01 X32.3627 Y6.6551 
G01 X32.2967 Y6.8583 
G01 X32.1997 Y7.0487 
G01 X32.0741 Y7.2215 
G01 X31.9230 Y7.3726 
G01 X31.7502 Y7.4982 
G01 X31.5598 Y7.5952 
G01 X31.5000 Y7.6146 
G01 X31.5000 Y10.3964 
G01 X32.9686 Y11.8650 
G01 X34.0649 Y11.8650 
G01 X34.1016 Y11.8802 
G01 X34.1298 Y11.9084 
G01 X34.1450 Y11.9451 
G01 X34.1450 Y13.4549 
G01 X34.1298 Y13.4916 
G01 X34.1016 Y13.5198 
G01 X34.0649 Y13.5350 
G01 X32.7551 Y13.5350 
G01 X32.7184 Y13.5198 
G01 X32.6902 Y13.4916 
G01 X32.6750 Y13.4549 
G01 X32.6750 Y12.2786 
G01 X31.1084 Y10.7119 
G01 X31.0381 Y10.6416 
G01 X31.0000 Y10.5497 
G01 X31.0000 Y7.6946 
G01 X30.9320 Y7.6946 
G01 X30.7210 Y7.6612 
G01 X30.5178 Y7.5952 
G01 X30.3274 Y7.4982 
G01 X30.1546 Y7.3726 
G01 X30.0035 Y7.2215 
G01 X29.8779 Y7.0487 
G01 X29.7809 Y6.8583 
G01 X29.7149 Y6.6551 
G01 X29.6815 Y6.4441 
G01 X29.6815 Y3.7159 
G01 X29.7149 Y3.5049 
G01 X29.7809 Y3.3017 
G01 X29.8779 Y3.1113 
G01 X30.0035 Y2.9385 
G01 X30.1546 Y2.7874 
G01 X30.3274 Y2.6618 
G01 X30.5178 Y2.5648 
G01 X30.7210 Y2.4988 
G01 X30.9320 Y2.4654 
G01 X31.1456 Y2.4654 
G01 X31.3566 Y2.4988 
G01 X31.5598 Y2.5648 
G01 X31.7502 Y2.6618 
G01 X31.9230 Y2.7874 
G01 X32.0741 Y2.9385 
G01 X32.1997 Y3.1113 
G01 X32.2967 Y3.3017 
G01 X32.3627 Y3.5049 
G01 X32.3961 Y3.7159 
G00 Z2.0000 
G00 X40.2828 Y40.5501 
G01 Z-0.0250 F254.00 
G01 X40.2828 Y40.7299 F508.00 
G01 X40.2477 Y40.9063 
G01 X40.1789 Y41.0724 
G01 X40.0790 Y41.2219 
G01 X39.9519 Y41.3490 
G01 X39.8024 Y41.4489 
G01 X39.6363 Y41.5177 
G01 X39.4599 Y41.5528 
G01 X39.2801 Y41.5528 
G01 X39.1037 Y41.5177 
G01 X38.9376 Y41.4489 
G01 X38.7881 Y41.3490 
G01 X38.6610 Y41.2219 
G01 X38.5611 Y41.0724 
G01 X38.4923 Y40.9063 
G01 X38.4572 Y40.7299 
G01 X38.4572 Y40.5501 
G01 X38.4923 Y40.3737 
G01 X38.5611 Y40.2076 
G01 X38.5783 Y40.1819 
G01 X37.7881 Y39.3916 
G01 X37.7500 Y39.2997 
G01 X37.7500 Y26.8536 
G01 X30.7153 Y19.8189 
G01 X30.6773 Y19.8346 
G01 X30.5599 Y19.8580 
G01 X30.4401 Y19.8580 
G01 X30.3227 Y19.8346 
G01 X30.2120 Y19.7888 
G01 X30.1124 Y19.7223 
G01 X30.0277 Y19.6376 
G01 X29.9612 Y19.5380 
G01 X29.9154 Y19.4273 
G01 X29.8920 Y19.3099 
G01 X29.8920 Y19.1901 
G01 X29.9154 Y19.0726 
G01 X29.9612 Y18.9620 
G01 X30.0277 Y18.8624 
G01 X30.1124 Y18.7777 
G01 X30.2120 Y18.7112 
G01 X30.3227 Y18.6654 
G01 X30.4401 Y18.6420 
G01 X30.5599 Y18.6420 
G01 X30.6773 Y18.6654 
G01 X30.7880 Y18.7112 
G01 X30.8876 Y18.7777 
G01 X30.9723 Y18.8624 
G01 X31.0388 Y18.9620 
G01 X31.0846 Y19.0726 
G01 X31.1080 Y19.1901 
G01 X31.1080 Y19.3099 
G01 X31.0846 Y19.4273 
G01 X31.0689 Y19.4653 
G01 X38.1416 Y26.5381 
G01 X38.2119 Y26.6084 
G01 X38.2500 Y26.7003 
G01 X38.2500 Y39.1464 
G01 X38.9358 Y39.8323 
G01 X39.1037 Y39.7623 
G01 X39.2801 Y39.7272 
G01 X39.4599 Y39.7272 
G01 X39.6363 Y39.7623 
G01 X39.8024 Y39.8311 
G01 X39.9519 Y39.9310 
G01 X40.0790 Y40.0581 
G01 X40.1789 Y40.2076 
G01 X40.2477 Y40.3737 
G01 X40.2828 Y40.5501 
G00 Z2.0000 
G00 X27.5828 Y49.4401 
G01 Z-0.0250 F254.00 
G01 X27.5828 Y49.6199 F508.00 
G01 X27.5477 Y49.7963 
G01 X27.4789 Y49.9624 
G01 X27.3790 Y50.1119 
G01 X27.2519 Y50.2390 
G01 X27.1024 Y50.3389 
G01 X26.9363 Y50.4077 
G01 X26.7599 Y50.4428 
G01 X26.5801 Y50.4428 
G01 X26.4037 Y50.4077 
G01 X26.2376 Y50.3389 
G01 X26.0881 Y50.2390 
G01 X25.9610 Y50.1119 
G01 X25.8611 Y49.9624 
G01 X25.7923 Y49.7963 
G01 X25.7572 Y49.6199 
G01 X25.7572 Y49.4401 
G01 X25.7923 Y49.2637 
G01 X25.8611 Y49.0976 
G01 X25.9610 Y48.9481 
G01 X26.0881 Y48.8210 
G01 X26.2376 Y48.7211 
G01 X26.4037 Y48.6523 
G01 X26.5801 Y48.6172 
G01 X26.7599 Y48.6172 
G01 X26.9363 Y48.6523 
G01 X27.1024 Y48.7211 
G01 X27.2519 Y48.8210 
G01 X27.3790 Y48.9481 
G01 X27.4789 Y49.0976 
G01 X27.5477 Y49.2637 
G01 X27.5828 Y49.4401 
G00 Z2.0000 
G00 X27.5828 Y46.9001 
G01 Z-0.0250 F254.00 
G01 X27.5828 Y47.0799 F508.00 
G01 X27.5477 Y47.2563 
G01 X27.4789 Y47.4224 
G01 X27.3790 Y47.5719 
G01 X27.2519 Y47.6990 
G01 X27.1024 Y47.7989 
G01 X26.9363 Y47.8677 
G01 X26.7599 Y47.9028 
G01 X26.5801 Y47.9028 
G01 X26.4037 Y47.8677 
G01 X26.2376 Y47.7989 
G01 X26.0881 Y47.6990 
G01 X25.9610 Y47.5719 
G01 X25.8611 Y47.4224 
G01 X25.7923 Y47.2563 
G01 X25.7572 Y47.0799 
G01 X25.7572 Y46.9001 
G01 X25.7923 Y46.7237 
G01 X25.8611 Y46.5576 
G01 X25.9610 Y46.4081 
G01 X26.0881 Y46.2810 
G01 X26.2376 Y46.1811 
G01 X26.4037 Y46.1123 
G01 X26.5801 Y46.0772 
G01 X26.7599 Y46.0772 
G01 X26.9363 Y46.1123 
G01 X27.1024 Y46.1811 
G01 X27.2519 Y46.2810 
G01 X27.3790 Y46.4081 
G01 X27.4789 Y46.5576 
G01 X27.5477 Y46.7237 
G01 X27.5828 Y46.9001 
G00 Z2.0000 
G00 X27.5828 Y44.3601 
G01 Z-0.0250 F254.00 
G01 X27.5828 Y44.5399 F508.00 
G01 X27.5477 Y44.7163 
G01 X27.4789 Y44.8824 
G01 X27.3790 Y45.0319 
G01 X27.2519 Y45.1590 
G01 X27.1024 Y45.2589 
G01 X26.9363 Y45.3277 
G01 X26.7599 Y45.3628 
G01 X26.5801 Y45.3628 
G01 X26.4037 Y45.3277 
G01 X26.2376 Y45.2589 
G01 X26.0881 Y45.1590 
G01 X25.9610 Y45.0319 
G01 X25.8611 Y44.8824 
G01 X25.7923 Y44.7163 
G01 X25.7572 Y44.5399 
G01 X25.7572 Y44.3601 
G01 X25.7923 Y44.1837 
G01 X25.8611 Y44.0176 
G01 X25.9610 Y43.8681 
G01 X26.0881 Y43.7410 
G01 X26.2376 Y43.6411 
G01 X26.4037 Y43.5723 
G01 X26.5801 Y43.5372 
G01 X26.7599 Y43.5372 
G01 X26.9363 Y43.5723 
G01 X27.1024 Y43.6411 
G01 X27.2519 Y43.7410 
G01 X27.3790 Y43.8681 
G01 X27.4789 Y44.0176 
G01 X27.5477 Y44.1837 
G01 X27.5828 Y44.3601 
G00 Z2.0000 
G00 X27.5828 Y39.2801 
G01 Z-0.0250 F254.00 
G01 X27.5828 Y39.4599 F508.00 
G01 X27.5477 Y39.6363 
G01 X27.4789 Y39.8024 
G01 X27.3790 Y39.9519 
G01 X27.2519 Y40.0790 
G01 X27.1024 Y40.1789 
G01 X26.9363 Y40.2477 
G01 X26.7599 Y40.2828 
G01 X26.5801 Y40.2828 
G01 X26.4037 Y40.2477 
G01 X26.2376 Y40.1789 
G01 X26.0881 Y40.0790 
G01 X25.9610 Y39.9519 
G01 X25.8611 Y39.8024 
G01 X25.7923 Y39.6363 
G01 X25.7572 Y39.4599 
G01 X25.7572 Y39.2801 
G01 X25.7923 Y39.1037 
G01 X25.8611 Y38.9376 
G01 X25.9610 Y38.7881 
G01 X26.0881 Y38.6610 
G01 X26.2376 Y38.5611 
G01 X26.4037 Y38.4923 
G01 X26.5801 Y38.4572 
G01 X26.7599 Y38.4572 
G01 X26.9363 Y38.4923 
G01 X27.1024 Y38.5611 
G01 X27.2519 Y38.6610 
G01 X27.3790 Y38.7881 
G01 X27.4789 Y38.9376 
G01 X27.5477 Y39.1037 
G01 X27.5828 Y39.2801 
G00 Z2.0000 
G00 X27.5828 Y36.7401 
G01 Z-0.0250 F254.00 
G01 X27.5828 Y36.9199 F508.00 
G01 X27.5477 Y37.0963 
G01 X27.4789 Y37.2624 
G01 X27.4337 Y37.3301 
G01 X28.2119 Y38.1084 
G01 X28.2500 Y38.2003 
G01 X28.2500 Y50.0497 
G01 X28.2119 Y50.1416 
G01 X28.1416 Y50.2119 
G01 X25.0000 Y53.3536 
G01 X25.0000 Y56.4999 
G01 X24.9848 Y56.5366 
G01 X24.9566 Y56.5648 
G01 X24.9199 Y56.5800 
G01 X24.0801 Y56.5800 
G01 X24.0434 Y56.5648 
G01 X24.0152 Y56.5366 
G01 X24.0000 Y56.4999 
G01 X24.0000 Y55.2601 
G01 X24.0152 Y55.2234 
G01 X24.0434 Y55.1952 
G01 X24.0801 Y55.1800 
G01 X24.5000 Y55.1800 
G01 X24.5000 Y53.2003 
G01 X24.5381 Y53.1084 
G01 X27.7500 Y49.8964 
G01 X27.7500 Y38.3536 
G01 X27.0550 Y37.6585 
G01 X26.9363 Y37.7077 
G01 X26.7599 Y37.7428 
G01 X26.5801 Y37.7428 
G01 X26.4037 Y37.7077 
G01 X26.2376 Y37.6389 
G01 X26.0881 Y37.5390 
G01 X25.9610 Y37.4119 
G01 X25.8611 Y37.2624 
G01 X25.7923 Y37.0963 
G01 X25.7572 Y36.9199 
G01 X25.7572 Y36.7401 
G01 X25.7923 Y36.5637 
G01 X25.8611 Y36.3976 
G01 X25.9610 Y36.2481 
G01 X26.0881 Y36.1210 
G01 X26.2376 Y36.0211 
G01 X26.4037 Y35.9523 
G01 X26.5801 Y35.9172 
G01 X26.7599 Y35.9172 
G01 X26.9363 Y35.9523 
G01 X27.1024 Y36.0211 
G01 X27.2519 Y36.1210 
G01 X27.3790 Y36.2481 
G01 X27.4789 Y36.3976 
G01 X27.5477 Y36.5637 
G01 X27.5828 Y36.7401 
G00 Z2.0000 
G00 X27.5828 Y34.2001 
G01 Z-0.0250 F254.00 
G01 X27.5828 Y34.3799 F508.00 
G01 X27.5477 Y34.5563 
G01 X27.4789 Y34.7224 
G01 X27.3790 Y34.8719 
G01 X27.2519 Y34.9990 
G01 X27.1024 Y35.0989 
G01 X26.9363 Y35.1677 
G01 X26.7599 Y35.2028 
G01 X26.5801 Y35.2028 
G01 X26.4037 Y35.1677 
G01 X26.2376 Y35.0989 
G01 X26.0881 Y34.9990 
G01 X25.9610 Y34.8719 
G01 X25.8611 Y34.7224 
G01 X25.7923 Y34.5563 
G01 X25.7572 Y34.3799 
G01 X25.7572 Y34.2001 
G01 X25.7923 Y34.0237 
G01 X25.8297 Y33.9333 
G01 X17.5381 Y25.6416 
G01 X17.5000 Y25.5497 
G01 X17.5000 Y6.5533 
G01 X17.3957 Y6.5101 
G01 X17.2629 Y6.4213 
G01 X17.1499 Y6.3083 
G01 X17.0611 Y6.1754 
G01 X17.0000 Y6.0278 
G01 X16.9688 Y5.8711 
G01 X16.9688 Y4.2889 
G01 X17.0000 Y4.1322 
G01 X17.0611 Y3.9846 
G01 X17.1499 Y3.8517 
G01 X17.2629 Y3.7387 
G01 X17.3957 Y3.6499 
G01 X17.5434 Y3.5888 
G01 X17.7001 Y3.5576 
G01 X17.8599 Y3.5576 
G01 X18.0166 Y3.5888 
G01 X18.1642 Y3.6499 
G01 X18.2971 Y3.7387 
G01 X18.4101 Y3.8517 
G01 X18.4989 Y3.9846 
G01 X18.5600 Y4.1322 
G01 X18.5912 Y4.2889 
G01 X18.5912 Y5.8711 
G01 X18.5600 Y6.0278 
G01 X18.4989 Y6.1754 
G01 X18.4101 Y6.3083 
G01 X18.2971 Y6.4213 
G01 X18.1642 Y6.5101 
G01 X18.0166 Y6.5712 
G01 X18.0000 Y6.5745 
G01 X18.0000 Y25.3964 
G01 X26.1459 Y33.5424 
G01 X26.2376 Y33.4811 
G01 X26.4037 Y33.4123 
G01 X26.5801 Y33.3772 
G01 X26.7599 Y33.3772 
G01 X26.9363 Y33.4123 
G01 X27.1024 Y33.4811 
G01 X27.2519 Y33.5810 
G01 X27.3790 Y33.7081 
G01 X27.4789 Y33.8576 
G01 X27.5477 Y34.0237 
G01 X27.5828 Y34.2001 
G00 Z2.0000 
G00 X27.5828 Y31.6601 
G01 Z-0.0250 F254.00 
G01 X27.5828 Y31.8399 F508.00 
G01 X27.5477 Y32.0163 
G01 X27.4789 Y32.1824 
G01 X27.3790 Y32.3319 
G01 X27.2519 Y32.4590 
G01 X27.1024 Y32.5589 
G01 X26.9363 Y32.6277 
G01 X26.7599 Y32.6628 
G01 X26.5801 Y32.6628 
G01 X26.4037 Y32.6277 
G01 X26.2376 Y32.5589 
G01 X26.0881 Y32.4590 
G01 X25.9610 Y32.3319 
G01 X25.8611 Y32.1824 
G01 X25.7923 Y32.0163 
G01 X25.7572 Y31.8399 
G01 X25.7572 Y31.6601 
G01 X25.7923 Y31.4837 
G01 X25.8611 Y31.3176 
G01 X25.9610 Y31.1681 
G01 X26.0881 Y31.0410 
G01 X26.2376 Y30.9411 
G01 X26.4037 Y30.8723 
G01 X26.5801 Y30.8372 
G01 X26.7599 Y30.8372 
G01 X26.9363 Y30.8723 
G01 X27.1024 Y30.9411 
G01 X27.2519 Y31.0410 
G01 X27.3790 Y31.1681 
G01 X27.4789 Y31.3176 
G01 X27.5477 Y31.4837 
G01 X27.5828 Y31.6601 
G00 Z2.0000 
G00 X27.5828 Y29.1201 
G01 Z-0.0250 F254.00 
G01 X27.5828 Y29.2999 F508.00 
G01 X27.5477 Y29.4763 
G01 X27.4789 Y29.6424 
G01 X27.3790 Y29.7919 
G01 X27.2519 Y29.9190 
G01 X27.1024 Y30.0189 
G01 X26.9363 Y30.0877 
G01 X26.7599 Y30.1228 
G01 X26.5801 Y30.1228 
G01 X26.4037 Y30.0877 
G01 X26.2376 Y30.0189 
G01 X26.0881 Y29.9190 
G01 X25.9610 Y29.7919 
G01 X25.8611 Y29.6424 
G01 X25.7923 Y29.4763 
G01 X25.7572 Y29.2999 
G01 X25.7572 Y29.1201 
G01 X25.7923 Y28.9437 
G01 X25.8611 Y28.7776 
G01 X25.9610 Y28.6281 
G01 X26.0881 Y28.5010 
G01 X26.2376 Y28.4011 
G01 X26.4037 Y28.3323 
G01 X26.5801 Y28.2972 
G01 X26.7599 Y28.2972 
G01 X26.9363 Y28.3323 
G01 X27.1024 Y28.4011 
G01 X27.2519 Y28.5010 
G01 X27.3790 Y28.6281 
G01 X27.4789 Y28.7776 
G01 X27.5477 Y28.9437 
G01 X27.5828 Y29.1201 
G00 Z2.0000 
G00 X27.5828 Y26.5801 
G01 Z-0.0250 F254.00 
G01 X27.5828 Y26.7599 F508.00 
G01 X27.5477 Y26.9363 
G01 X27.4789 Y27.1024 
G01 X27.3790 Y27.2519 
G01 X27.2519 Y27.3790 
G01 X27.1024 Y27.4789 
G01 X26.9363 Y27.5477 
G01 X26.7599 Y27.5828 
G01 X26.5801 Y27.5828 
G01 X26.4037 Y27.5477 
G01 X26.2376 Y27.4789 
G01 X26.0881 Y27.3790 
G01 X25.9610 Y27.2519 
G01 X25.8611 Y27.1024 
G01 X25.7923 Y26.9363 
G01 X25.7572 Y26.7599 
G01 X25.7572 Y26.5801 
G01 X25.7923 Y26.4037 
G01 X25.8611 Y26.2376 
G01 X25.9610 Y26.0881 
G01 X26.0881 Y25.9610 
G01 X26.2376 Y25.8611 
G01 X26.4037 Y25.7923 
G01 X26.5801 Y25.7572 
G01 X26.7599 Y25.7572 
G01 X26.9363 Y25.7923 
G01 X27.1024 Y25.8611 
G01 X27.2519 Y25.9610 
G01 X27.3790 Y26.0881 
G01 X27.4789 Y26.2376 
G01 X27.5477 Y26.4037 
G01 X27.5828 Y26.5801 
G00 Z2.0000 
G00 X27.5828 Y24.0401 
G01 Z-0.0250 F254.00 
G01 X27.5828 Y24.2199 F508.00 
G01 X27.5477 Y24.3963 
G01 X27.4789 Y24.5624 
G01 X27.3790 Y24.7119 
G01 X27.2519 Y24.8390 
G01 X27.1024 Y24.9389 
G01 X26.9363 Y25.0077 
G01 X26.7599 Y25.0428 
G01 X26.5801 Y25.0428 
G01 X26.4037 Y25.0077 
G01 X26.2376 Y24.9389 
G01 X26.0881 Y24.8390 
G01 X25.9610 Y24.7119 
G01 X25.8611 Y24.5624 
G01 X25.7923 Y24.3963 
G01 X25.7572 Y24.2199 
G01 X25.7572 Y24.0401 
G01 X25.7923 Y23.8637 
G01 X25.8611 Y23.6976 
G01 X25.9610 Y23.5481 
G01 X26.0881 Y23.4210 
G01 X26.2376 Y23.3211 
G01 X26.4037 Y23.2523 
G01 X26.5801 Y23.2172 
G01 X26.7599 Y23.2172 
G01 X26.9363 Y23.2523 
G01 X27.1024 Y23.3211 
G01 X27.2519 Y23.4210 
G01 X27.3790 Y23.5481 
G01 X27.4789 Y23.6976 
G01 X27.5477 Y23.8637 
G01 X27.5828 Y24.0401 
G00 Z2.0000 
G00 X27.5828 Y21.5001 
G01 Z-0.0250 F254.00 
G01 X27.5828 Y21.6799 F508.00 
G01 X27.5477 Y21.8563 
G01 X27.4789 Y22.0224 
G01 X27.3790 Y22.1719 
G01 X27.2519 Y22.2990 
G01 X27.1024 Y22.3989 
G01 X26.9363 Y22.4677 
G01 X26.7599 Y22.5028 
G01 X26.5801 Y22.5028 
G01 X26.4037 Y22.4677 
G01 X26.2376 Y22.3989 
G01 X26.0881 Y22.2990 
G01 X25.9610 Y22.1719 
G01 X25.8611 Y22.0224 
G01 X25.7923 Y21.8563 
G01 X25.7572 Y21.6799 
G01 X25.7572 Y21.5001 
G01 X25.7923 Y21.3237 
G01 X25.8611 Y21.1576 
G01 X25.9610 Y21.0081 
G01 X26.0881 Y20.8810 
G01 X26.2376 Y20.7811 
G01 X26.4037 Y20.7123 
G01 X26.5801 Y20.6772 
G01 X26.7599 Y20.6772 
G01 X26.9363 Y20.7123 
G01 X27.1024 Y20.7811 
G01 X27.2519 Y20.8810 
G01 X27.3790 Y21.0081 
G01 X27.4789 Y21.1576 
G01 X27.5477 Y21.3237 
G01 X27.5828 Y21.5001 
G00 Z2.0000 
G00 X42.8228 Y24.0401 
G01 Z-0.0250 F254.00 
G01 X42.8228 Y24.2199 F508.00 
G01 X42.7877 Y24.3963 
G01 X42.7189 Y24.5624 
G01 X42.6190 Y24.7119 
G01 X42.4919 Y24.8390 
G01 X42.3424 Y24.9389 
G01 X42.1763 Y25.0077 
G01 X41.9999 Y25.0428 
G01 X41.8201 Y25.0428 
G01 X41.6437 Y25.0077 
G01 X41.4776 Y24.9389 
G01 X41.3281 Y24.8390 
G01 X41.2010 Y24.7119 
G01 X41.1011 Y24.5624 
G01 X41.0323 Y24.3963 
G01 X40.9972 Y24.2199 
G01 X40.9972 Y24.0401 
G01 X41.0323 Y23.8637 
G01 X41.1011 Y23.6976 
G01 X41.2010 Y23.5481 
G01 X41.3281 Y23.4210 
G01 X41.4776 Y23.3211 
G01 X41.6437 Y23.2523 
G01 X41.8201 Y23.2172 
G01 X41.9999 Y23.2172 
G01 X42.1763 Y23.2523 
G01 X42.3424 Y23.3211 
G01 X42.4919 Y23.4210 
G01 X42.6190 Y23.5481 
G01 X42.7189 Y23.6976 
G01 X42.7877 Y23.8637 
G01 X42.8228 Y24.0401 
G00 Z2.0000 
G00 X42.8228 Y26.5801 
G01 Z-0.0250 F254.00 
G01 X42.8228 Y26.7599 F508.00 
G01 X42.7877 Y26.9363 
G01 X42.7189 Y27.1024 
G01 X42.6190 Y27.2519 
G01 X42.4919 Y27.3790 
G01 X42.3424 Y27.4789 
G01 X42.1763 Y27.5477 
G01 X41.9999 Y27.5828 
G01 X41.8201 Y27.5828 
G01 X41.6437 Y27.5477 
G01 X41.4776 Y27.4789 
G01 X41.3281 Y27.3790 
G01 X41.2010 Y27.2519 
G01 X41.1011 Y27.1024 
G01 X41.0323 Y26.9363 
G01 X40.9972 Y26.7599 
G01 X40.9972 Y26.5801 
G01 X41.0323 Y26.4037 
G01 X41.1011 Y26.2376 
G01 X41.1143 Y26.2179 
G01 X40.2881 Y25.3916 
G01 X40.2500 Y25.2997 
G01 X40.2500 Y21.1036 
G01 X38.3264 Y19.1800 
G01 X37.4801 Y19.1800 
G01 X37.4434 Y19.1648 
G01 X37.4152 Y19.1366 
G01 X37.4000 Y19.0999 
G01 X37.4000 Y18.2601 
G01 X37.4152 Y18.2234 
G01 X37.4434 Y18.1952 
G01 X37.4801 Y18.1800 
G01 X38.7199 Y18.1800 
G01 X38.7566 Y18.1952 
G01 X38.7848 Y18.2234 
G01 X38.8000 Y18.2601 
G01 X38.8000 Y18.9464 
G01 X40.6416 Y20.7881 
G01 X40.7119 Y20.8584 
G01 X40.7500 Y20.9503 
G01 X40.7500 Y25.1464 
G01 X41.4698 Y25.8663 
G01 X41.4776 Y25.8611 
G01 X41.6437 Y25.7923 
G01 X41.8201 Y25.7572 
G01 X41.9999 Y25.7572 
G01 X42.1763 Y25.7923 
G01 X42.3424 Y25.8611 
G01 X42.4919 Y25.9610 
G01 X42.6190 Y26.0881 
G01 X42.7189 Y26.2376 
G01 X42.7877 Y26.4037 
G01 X42.8228 Y26.5801 
G00 Z2.0000 
G00 X42.8228 Y29.1201 
G01 Z-0.0250 F254.00 
G01 X42.8228 Y29.2999 F508.00 
G01 X42.7877 Y29.4763 
G01 X42.7189 Y29.6424 
G01 X42.6190 Y29.7919 
G01 X42.4919 Y29.9190 
G01 X42.3424 Y30.0189 
G01 X42.1763 Y30.0877 
G01 X41.9999 Y30.1228 
G01 X41.8201 Y30.1228 
G01 X41.6437 Y30.0877 
G01 X41.4776 Y30.0189 
G01 X41.3281 Y29.9190 
G01 X41.2010 Y29.7919 
G01 X41.1011 Y29.6424 
G01 X41.0323 Y29.4763 
G01 X40.9972 Y29.2999 
G01 X40.9972 Y29.1201 
G01 X41.0323 Y28.9437 
G01 X41.1011 Y28.7776 
G01 X41.2010 Y28.6281 
G01 X41.3281 Y28.5010 
G01 X41.4776 Y28.4011 
G01 X41.6437 Y28.3323 
G01 X41.8201 Y28.2972 
G01 X41.9999 Y28.2972 
G01 X42.1763 Y28.3323 
G01 X42.3424 Y28.4011 
G01 X42.4919 Y28.5010 
G01 X42.6190 Y28.6281 
G01 X42.7189 Y28.7776 
G01 X42.7877 Y28.9437 
G01 X42.8228 Y29.1201 
G00 Z2.0000 
G00 X42.8228 Y34.2001 
G01 Z-0.0250 F254.00 
G01 X42.8228 Y34.3799 F508.00 
G01 X42.7877 Y34.5563 
G01 X42.7189 Y34.7224 
G01 X42.6190 Y34.8719 
G01 X42.4919 Y34.9990 
G01 X42.3424 Y35.0989 
G01 X42.1763 Y35.1677 
G01 X41.9999 Y35.2028 
G01 X41.8201 Y35.2028 
G01 X41.6437 Y35.1677 
G01 X41.4776 Y35.0989 
G01 X41.3281 Y34.9990 
G01 X41.2010 Y34.8719 
G01 X41.1011 Y34.7224 
G01 X41.0323 Y34.5563 
G01 X40.9972 Y34.3799 
G01 X40.9972 Y34.2001 
G01 X41.0323 Y34.0237 
G01 X41.1011 Y33.8576 
G01 X41.2010 Y33.7081 
G01 X41.3281 Y33.5810 
G01 X41.4776 Y33.4811 
G01 X41.6437 Y33.4123 
G01 X41.8201 Y33.3772 
G01 X41.9999 Y33.3772 
G01 X42.1763 Y33.4123 
G01 X42.3424 Y33.4811 
G01 X42.4919 Y33.5810 
G01 X42.6190 Y33.7081 
G01 X42.7189 Y33.8576 
G01 X42.7877 Y34.0237 
G01 X42.8228 Y34.2001 
G00 Z2.0000 
G00 X42.8228 Y36.7401 
G01 Z-0.0250 F254.00 
G01 X42.8228 Y36.9199 F508.00 
G01 X42.7877 Y37.0963 
G01 X42.7189 Y37.2624 
G01 X42.6190 Y37.4119 
G01 X42.4919 Y37.5390 
G01 X42.3424 Y37.6389 
G01 X42.1763 Y37.7077 
G01 X41.9999 Y37.7428 
G01 X41.8201 Y37.7428 
G01 X41.6437 Y37.7077 
G01 X41.4776 Y37.6389 
G01 X41.3281 Y37.5390 
G01 X41.2010 Y37.4119 
G01 X41.1011 Y37.2624 
G01 X41.0323 Y37.0963 
G01 X40.9972 Y36.9199 
G01 X40.9972 Y36.7401 
G01 X41.0323 Y36.5637 
G01 X41.1011 Y36.3976 
G01 X41.2010 Y36.2481 
G01 X41.3281 Y36.1210 
G01 X41.4776 Y36.0211 
G01 X41.6437 Y35.9523 
G01 X41.8201 Y35.9172 
G01 X41.9999 Y35.9172 
G01 X42.1763 Y35.9523 
G01 X42.3424 Y36.0211 
G01 X42.4919 Y36.1210 
G01 X42.6190 Y36.2481 
G01 X42.7189 Y36.3976 
G01 X42.7877 Y36.5637 
G01 X42.8228 Y36.7401 
G00 Z2.0000 
G00 X42.8228 Y39.2801 
G01 Z-0.0250 F254.00 
G01 X42.8228 Y39.4599 F508.00 
G01 X42.7877 Y39.6363 
G01 X42.7189 Y39.8024 
G01 X42.6190 Y39.9519 
G01 X42.4919 Y40.0790 
G01 X42.3424 Y40.1789 
G01 X42.1763 Y40.2477 
G01 X41.9999 Y40.2828 
G01 X41.8201 Y40.2828 
G01 X41.6437 Y40.2477 
G01 X41.4776 Y40.1789 
G01 X41.3281 Y40.0790 
G01 X41.2010 Y39.9519 
G01 X41.1011 Y39.8024 
G01 X41.0323 Y39.6363 
G01 X40.9972 Y39.4599 
G01 X40.9972 Y39.2801 
G01 X41.0323 Y39.1037 
G01 X41.1011 Y38.9376 
G01 X41.2010 Y38.7881 
G01 X41.3178 Y38.6713 
G01 X40.2881 Y37.6416 
G01 X40.2500 Y37.5497 
G01 X40.2500 Y30.4503 
G01 X40.2881 Y30.3584 
G01 X40.3584 Y30.2881 
G01 X40.4503 Y30.2500 
G01 X42.3964 Y30.2500 
G01 X43.0000 Y29.6464 
G01 X43.0000 Y21.1036 
G01 X41.7881 Y19.8916 
G01 X41.7500 Y19.7997 
G01 X41.7500 Y1.5000 
G01 X15.8536 Y1.5000 
G01 X13.5000 Y3.8536 
G01 X13.5000 Y4.2326 
G01 X13.5112 Y4.2889 
G01 X13.5112 Y5.8711 
G01 X13.4800 Y6.0278 
G01 X13.4189 Y6.1754 
G01 X13.3301 Y6.3083 
G01 X13.2171 Y6.4213 
G01 X13.0842 Y6.5101 
G01 X12.9366 Y6.5712 
G01 X12.7799 Y6.6024 
G01 X12.6201 Y6.6024 
G01 X12.4634 Y6.5712 
G01 X12.3158 Y6.5101 
G01 X12.1829 Y6.4213 
G01 X12.0699 Y6.3083 
G01 X11.9811 Y6.1754 
G01 X11.9200 Y6.0278 
G01 X11.8888 Y5.8711 
G01 X11.8888 Y4.2889 
G01 X11.9200 Y4.1322 
G01 X11.9811 Y3.9846 
G01 X12.0699 Y3.8517 
G01 X12.1829 Y3.7387 
G01 X12.3158 Y3.6499 
G01 X12.4634 Y3.5888 
G01 X12.6201 Y3.5576 
G01 X12.7799 Y3.5576 
G01 X12.9366 Y3.5888 
G01 X13.0301 Y3.6275 
G01 X13.0381 Y3.6084 
G01 X15.5381 Y1.1084 
G01 X15.6084 Y1.0381 
G01 X15.7003 Y1.0000 
G01 X42.0497 Y1.0000 
G01 X42.1416 Y1.0381 
G01 X42.2119 Y1.1084 
G01 X42.2500 Y1.2003 
G01 X42.2500 Y19.6464 
G01 X43.3916 Y20.7881 
G01 X43.4619 Y20.8584 
G01 X43.5000 Y20.9503 
G01 X43.5000 Y29.7997 
G01 X43.4619 Y29.8916 
G01 X42.7119 Y30.6416 
G01 X42.6416 Y30.7119 
G01 X42.5497 Y30.7500 
G01 X40.7500 Y30.7500 
G01 X40.7500 Y37.3964 
G01 X41.8123 Y38.4588 
G01 X41.8201 Y38.4572 
G01 X41.9999 Y38.4572 
G01 X42.1763 Y38.4923 
G01 X42.3424 Y38.5611 
G01 X42.4919 Y38.6610 
G01 X42.6190 Y38.7881 
G01 X42.7189 Y38.9376 
G01 X42.7877 Y39.1037 
G01 X42.8228 Y39.2801 
G00 Z2.0000 
G00 X42.8228 Y41.8201 
G01 Z-0.0250 F254.00 
G01 X42.8228 Y41.9999 F508.00 
G01 X42.7877 Y42.1763 
G01 X42.7189 Y42.3424 
G01 X42.7097 Y42.3561 
G01 X43.3916 Y43.0381 
G01 X43.4619 Y43.1084 
G01 X43.5000 Y43.2003 
G01 X43.5000 Y52.5415 
G01 X44.5441 Y52.5415 
G01 X44.7551 Y52.5749 
G01 X44.9583 Y52.6409 
G01 X45.1487 Y52.7379 
G01 X45.3215 Y52.8635 
G01 X45.4726 Y53.0146 
G01 X45.5982 Y53.1874 
G01 X45.6952 Y53.3778 
G01 X45.7612 Y53.5810 
G01 X45.7946 Y53.7920 
G01 X45.7946 Y54.0056 
G01 X45.7612 Y54.2166 
G01 X45.6952 Y54.4198 
G01 X45.5982 Y54.6102 
G01 X45.4726 Y54.7830 
G01 X45.3215 Y54.9341 
G01 X45.1487 Y55.0597 
G01 X44.9583 Y55.1567 
G01 X44.8088 Y55.2052 
G01 X46.4619 Y56.8584 
G01 X46.5000 Y56.9503 
G01 X46.5000 Y59.7997 
G01 X46.4619 Y59.8916 
G01 X46.3916 Y59.9619 
G01 X46.2997 Y60.0000 
G01 X32.7003 Y60.0000 
G01 X32.6084 Y59.9619 
G01 X32.5381 Y59.8916 
G01 X31.5381 Y58.8916 
G01 X31.5000 Y58.7997 
G01 X31.5000 Y54.9503 
G01 X31.5381 Y54.8584 
G01 X31.6084 Y54.7881 
G01 X32.1850 Y54.2114 
G01 X32.1850 Y53.0751 
G01 X32.2002 Y53.0384 
G01 X32.2284 Y53.0102 
G01 X32.2651 Y52.9950 
G01 X33.7749 Y52.9950 
G01 X33.8116 Y53.0102 
G01 X33.8398 Y53.0384 
G01 X33.8550 Y53.0751 
G01 X33.8550 Y54.3849 
G01 X33.8398 Y54.4216 
G01 X33.8116 Y54.4498 
G01 X33.7749 Y54.4650 
G01 X32.6386 Y54.4650 
G01 X32.0000 Y55.1036 
G01 X32.0000 Y58.6464 
G01 X32.8536 Y59.5000 
G01 X46.0000 Y59.5000 
G01 X46.0000 Y57.1036 
G01 X44.1525 Y55.2561 
G01 X41.8159 Y55.2561 
G01 X41.6049 Y55.2227 
G01 X41.4017 Y55.1567 
G01 X41.2113 Y55.0597 
G01 X41.0385 Y54.9341 
G01 X40.8874 Y54.7830 
G01 X40.7618 Y54.6102 
G01 X40.6648 Y54.4198 
G01 X40.5988 Y54.2166 
G01 X40.5654 Y54.0056 
G01 X40.5654 Y53.7920 
G01 X40.5988 Y53.5810 
G01 X40.6648 Y53.3778 
G01 X40.7618 Y53.1874 
G01 X40.8874 Y53.0146 
G01 X41.0385 Y52.8635 
G01 X41.2113 Y52.7379 
G01 X41.4017 Y52.6409 
G01 X41.6049 Y52.5749 
G01 X41.8159 Y52.5415 
G01 X43.0000 Y52.5415 
G01 X43.0000 Y43.3536 
G01 X42.3561 Y42.7097 
G01 X42.3424 Y42.7189 
G01 X42.1763 Y42.7877 
G01 X41.9999 Y42.8228 
G01 X41.8201 Y42.8228 
G01 X41.6437 Y42.7877 
G01 X41.4776 Y42.7189 
G01 X41.3281 Y42.6190 
G01 X41.2010 Y42.4919 
G01 X41.1011 Y42.3424 
G01 X41.0323 Y42.1763 
G01 X40.9972 Y41.9999 
G01 X40.9972 Y41.8201 
G01 X41.0323 Y41.6437 
G01 X41.1011 Y41.4776 
G01 X41.2010 Y41.3281 
G01 X41.3281 Y41.2010 
G01 X41.4776 Y41.1011 
G01 X41.6437 Y41.0323 
G01 X41.8201 Y40.9972 
G01 X41.9999 Y40.9972 
G01 X42.1763 Y41.0323 
G01 X42.3424 Y41.1011 
G01 X42.4919 Y41.2010 
G01 X42.6190 Y41.3281 
G01 X42.7189 Y41.4776 
G01 X42.7877 Y41.6437 
G01 X42.8228 Y41.8201 
G00 Z2.0000 
G00 X42.8228 Y44.3601 
G01 Z-0.0250 F254.00 
G01 X42.8228 Y44.5399 F508.00 
G01 X42.7877 Y44.7163 
G01 X42.7189 Y44.8824 
G01 X42.6190 Y45.0319 
G01 X42.4919 Y45.1590 
G01 X42.3424 Y45.2589 
G01 X42.1763 Y45.3277 
G01 X41.9999 Y45.3628 
G01 X41.8201 Y45.3628 
G01 X41.6437 Y45.3277 
G01 X41.4776 Y45.2589 
G01 X41.3281 Y45.1590 
G01 X41.2010 Y45.0319 
G01 X41.1011 Y44.8824 
G01 X41.0323 Y44.7163 
G01 X40.9972 Y44.5399 
G01 X40.9972 Y44.3601 
G01 X41.0323 Y44.1837 
G01 X41.1011 Y44.0176 
G01 X41.2010 Y43.8681 
G01 X41.3281 Y43.7410 
G01 X41.4776 Y43.6411 
G01 X41.6437 Y43.5723 
G01 X41.8201 Y43.5372 
G01 X41.9999 Y43.5372 
G01 X42.1763 Y43.5723 
G01 X42.3424 Y43.6411 
G01 X42.4919 Y43.7410 
G01 X42.6190 Y43.8681 
G01 X42.7189 Y44.0176 
G01 X42.7877 Y44.1837 
G01 X42.8228 Y44.3601 
G00 Z2.0000 
G00 X42.8228 Y49.4401 
G01 Z-0.0250 F254.00 
G01 X42.8228 Y49.6199 F508.00 
G01 X42.7877 Y49.7963 
G01 X42.7189 Y49.9624 
G01 X42.6190 Y50.1119 
G01 X42.4919 Y50.2390 
G01 X42.3424 Y50.3389 
G01 X42.1763 Y50.4077 
G01 X41.9999 Y50.4428 
G01 X41.8201 Y50.4428 
G01 X41.6437 Y50.4077 
G01 X41.4776 Y50.3389 
G01 X41.3281 Y50.2390 
G01 X41.2010 Y50.1119 
G01 X41.1011 Y49.9624 
G01 X41.0323 Y49.7963 
G01 X40.9972 Y49.6199 
G01 X40.9972 Y49.4401 
G01 X41.0323 Y49.2637 
G01 X41.1011 Y49.0976 
G01 X41.2010 Y48.9481 
G01 X41.3281 Y48.8210 
G01 X41.4776 Y48.7211 
G01 X41.6437 Y48.6523 
G01 X41.8201 Y48.6172 
G01 X41.9999 Y48.6172 
G01 X42.1763 Y48.6523 
G01 X42.3424 Y48.7211 
G01 X42.4919 Y48.8210 
G01 X42.6190 Y48.9481 
G01 X42.7189 Y49.0976 
G01 X42.7877 Y49.2637 
G01 X42.8228 Y49.4401 
G00 Z2.0000 
G00 X39.3916 Y25.7881 
G01 Z-0.0250 F254.00 
G01 X39.4619 Y25.8584 F508.00 
G01 X39.5000 Y25.9503 
G01 X39.5000 Y37.1952 
G01 X39.6363 Y37.2223 
G01 X39.8024 Y37.2911 
G01 X39.9519 Y37.3910 
G01 X40.0790 Y37.5181 
G01 X40.1789 Y37.6676 
G01 X40.2477 Y37.8337 
G01 X40.2828 Y38.0101 
G01 X40.2828 Y38.1899 
G01 X40.2477 Y38.3663 
G01 X40.1789 Y38.5324 
G01 X40.0790 Y38.6819 
G01 X39.9519 Y38.8090 
G01 X39.8024 Y38.9089 
G01 X39.6363 Y38.9777 
G01 X39.4599 Y39.0128 
G01 X39.2801 Y39.0128 
G01 X39.1037 Y38.9777 
G01 X38.9376 Y38.9089 
G01 X38.7881 Y38.8090 
G01 X38.6610 Y38.6819 
G01 X38.5611 Y38.5324 
G01 X38.4923 Y38.3663 
G01 X38.4572 Y38.1899 
G01 X38.4572 Y38.0101 
G01 X38.4923 Y37.8337 
G01 X38.5611 Y37.6676 
G01 X38.6610 Y37.5181 
G01 X38.7881 Y37.3910 
G01 X38.9376 Y37.2911 
G01 X39.0000 Y37.2653 
G01 X39.0000 Y26.1036 
G01 X32.7153 Y19.8189 
G01 X32.6773 Y19.8346 
G01 X32.5599 Y19.8580 
G01 X32.4401 Y19.8580 
G01 X32.3227 Y19.8346 
G01 X32.2120 Y19.7888 
G01 X32.1124 Y19.7223 
G01 X32.0277 Y19.6376 
G01 X31.9612 Y19.5380 
G01 X31.9154 Y19.4273 
G01 X31.8920 Y19.3099 
G01 X31.8920 Y19.1901 
G01 X31.9154 Y19.0726 
G01 X31.9612 Y18.9620 
G01 X32.0277 Y18.8624 
G01 X32.1124 Y18.7777 
G01 X32.2120 Y18.7112 
G01 X32.3227 Y18.6654 
G01 X32.4401 Y18.6420 
G01 X32.5599 Y18.6420 
G01 X32.6773 Y18.6654 
G01 X32.7880 Y18.7112 
G01 X32.8876 Y18.7777 
G01 X32.9723 Y18.8624 
G01 X33.0388 Y18.9620 
G01 X33.0846 Y19.0726 
G01 X33.1080 Y19.1901 
G01 X33.1080 Y19.3099 
G01 X33.0846 Y19.4273 
G01 X33.0689 Y19.4653 
G01 X39.3916 Y25.7881 
G00 Z2.0000 
G00 X13.6084 Y31.7119 
G01 Z-0.0250 F254.00 
G01 X13.5381 Y31.6416 F508.00 
G01 X13.5000 Y31.5497 
G01 X13.5000 Y28.6400 
G01 X13.1801 Y28.6400 
G01 X13.1434 Y28.6248 
G01 X13.1152 Y28.5966 
G01 X13.1000 Y28.5599 
G01 X13.1000 Y27.7036 
G01 X12.6084 Y27.2119 
G01 X12.5381 Y27.1416 
G01 X12.5000 Y27.0497 
G01 X12.5000 Y7.4503 
G01 X12.5381 Y7.3584 
G01 X13.7500 Y6.1464 
G01 X13.7500 Y3.9503 
G01 X13.7881 Y3.8584 
G01 X14.5381 Y3.1084 
G01 X14.6084 Y3.0381 
G01 X14.7003 Y3.0000 
G01 X21.0497 Y3.0000 
G01 X21.1416 Y3.0381 
G01 X21.2119 Y3.1084 
G01 X21.2500 Y3.2003 
G01 X21.2500 Y4.2822 
G01 X21.3934 Y4.3107 
G01 X21.5389 Y4.3711 
G01 X21.6700 Y4.4586 
G01 X21.7814 Y4.5700 
G01 X21.8689 Y4.7011 
G01 X21.9293 Y4.8466 
G01 X21.9600 Y5.0012 
G01 X21.9600 Y5.1588 
G01 X21.9293 Y5.3134 
G01 X21.8689 Y5.4589 
G01 X21.7814 Y5.5900 
G01 X21.6700 Y5.7014 
G01 X21.5389 Y5.7889 
G01 X21.3934 Y5.8493 
G01 X21.2388 Y5.8800 
G01 X21.0812 Y5.8800 
G01 X20.9266 Y5.8493 
G01 X20.7811 Y5.7889 
G01 X20.6500 Y5.7014 
G01 X20.5386 Y5.5900 
G01 X20.4511 Y5.4589 
G01 X20.3907 Y5.3134 
G01 X20.3600 Y5.1588 
G01 X20.3600 Y5.0012 
G01 X20.3907 Y4.8466 
G01 X20.4511 Y4.7011 
G01 X20.5386 Y4.5700 
G01 X20.6500 Y4.4586 
G01 X20.7500 Y4.3918 
G01 X20.7500 Y3.5000 
G01 X14.8536 Y3.5000 
G01 X14.2500 Y4.1036 
G01 X14.2500 Y6.2997 
G01 X14.2119 Y6.3916 
G01 X14.1416 Y6.4619 
G01 X13.0000 Y7.6036 
G01 X13.0000 Y26.8964 
G01 X13.3436 Y27.2400 
G01 X14.0199 Y27.2400 
G01 X14.0566 Y27.2552 
G01 X14.0848 Y27.2834 
G01 X14.1000 Y27.3201 
G01 X14.1000 Y28.5599 
G01 X14.0848 Y28.5966 
G01 X14.0566 Y28.6248 
G01 X14.0199 Y28.6400 
G01 X14.0000 Y28.6400 
G01 X14.0000 Y31.3964 
G01 X15.0347 Y32.4311 
G01 X15.0727 Y32.4154 
G01 X15.1901 Y32.3920 
G01 X15.3099 Y32.3920 
G01 X15.4273 Y32.4154 
G01 X15.5380 Y32.4612 
G01 X15.6376 Y32.5277 
G01 X15.7223 Y32.6124 
G01 X15.7888 Y32.7120 
G01 X15.8346 Y32.8227 
G01 X15.8580 Y32.9401 
G01 X15.8580 Y33.0599 
G01 X15.8346 Y33.1773 
G01 X15.7888 Y33.2880 
G01 X15.7223 Y33.3876 
G01 X15.6376 Y33.4723 
G01 X15.5380 Y33.5388 
G01 X15.4273 Y33.5846 
G01 X15.3099 Y33.6080 
G01 X15.1901 Y33.6080 
G01 X15.0727 Y33.5846 
G01 X14.9620 Y33.5388 
G01 X14.8624 Y33.4723 
G01 X14.7777 Y33.3876 
G01 X14.7112 Y33.2880 
G01 X14.6654 Y33.1773 
G01 X14.6420 Y33.0599 
G01 X14.6420 Y32.9401 
G01 X14.6654 Y32.8227 
G01 X14.6811 Y32.7847 
G01 X13.6084 Y31.7119 
G00 Z2.0000 
G00 X34.0351 Y45.5301 
G01 Z-0.0250 F254.00 
G01 X33.9699 Y45.4649 F508.00 
G01 X33.9239 Y45.3851 
G01 X33.9000 Y45.2961 
G01 X33.9000 Y39.3450 
G01 X33.8200 Y39.4250 
G01 X33.8200 Y40.1798 
G01 X33.7895 Y40.2533 
G01 X33.7333 Y40.3096 
G01 X33.6598 Y40.3400 
G01 X32.3802 Y40.3400 
G01 X32.3500 Y40.3275 
G01 X32.3500 Y40.3550 
G01 X32.9350 Y40.9400 
G01 X33.6598 Y40.9400 
G01 X33.7333 Y40.9704 
G01 X33.7895 Y41.0267 
G01 X33.8200 Y41.1002 
G01 X33.8200 Y41.9798 
G01 X33.7895 Y42.0533 
G01 X33.7333 Y42.1095 
G01 X33.6598 Y42.1400 
G01 X33.6000 Y42.1400 
G01 X33.6000 Y46.2600 
G01 X34.2587 Y46.2600 
G01 X34.2001 Y46.2013 
G01 X34.1226 Y46.0854 
G01 X34.0692 Y45.9565 
G01 X34.0420 Y45.8197 
G01 X34.0420 Y45.6803 
G01 X34.0658 Y45.5607 
G01 X34.0351 Y45.5301 
G00 Z2.0000 
G00 X15.6338 Y14.2630 
G01 Z-0.0250 F254.00 
G01 X15.7025 Y14.0972 F508.00 
G01 X15.8022 Y13.9479 
G01 X15.9291 Y13.8210 
G01 X16.0784 Y13.7213 
G01 X16.2442 Y13.6526 
G01 X16.4203 Y13.6176 
G01 X16.5997 Y13.6176 
G01 X16.7758 Y13.6526 
G01 X16.9416 Y13.7213 
G01 X17.0909 Y13.8210 
G01 X17.2178 Y13.9479 
G01 X17.3175 Y14.0972 
G01 X17.3862 Y14.2630 
G01 X17.4000 Y14.3325 
G01 X17.4000 Y6.6201 
G01 X17.3484 Y6.5987 
G01 X17.1991 Y6.4990 
G01 X17.0722 Y6.3721 
G01 X16.9725 Y6.2228 
G01 X16.9038 Y6.0570 
G01 X16.8688 Y5.8809 
G01 X16.8688 Y4.2791 
G01 X16.9038 Y4.1030 
G01 X16.9725 Y3.9372 
G01 X17.0722 Y3.7879 
G01 X17.1991 Y3.6610 
G01 X17.2905 Y3.6000 
G01 X15.7295 Y3.6000 
G01 X15.8209 Y3.6610 
G01 X15.9478 Y3.7879 
G01 X16.0475 Y3.9372 
G01 X16.1162 Y4.1030 
G01 X16.1512 Y4.2791 
G01 X16.1512 Y5.8809 
G01 X16.1162 Y6.0570 
G01 X16.0475 Y6.2228 
G01 X15.9478 Y6.3721 
G01 X15.8209 Y6.4990 
G01 X15.6716 Y6.5987 
G01 X15.6000 Y6.6284 
G01 X15.6000 Y14.4330 
G01 X15.6338 Y14.2630 
G00 Z2.0000 
G00 X14.3500 Y4.1725 
G01 Z-0.0250 F254.00 
G01 X14.3568 Y4.1381 F508.00 
G01 X14.3500 Y4.1450 
G01 X14.3500 Y4.1725 
G00 Z2.0000 
G00 X32.7700 Y46.4202 
G01 Z-0.0250 F254.00 
G01 X32.7700 Y47.8998 F508.00 
G01 X32.7396 Y47.9733 
G01 X32.6833 Y48.0296 
G01 X32.6098 Y48.0600 
G01 X32.3500 Y48.0600 
G01 X32.3500 Y48.5478 
G01 X32.4067 Y48.4904 
G01 X32.4802 Y48.4600 
G01 X33.5598 Y48.4600 
G01 X33.6333 Y48.4904 
G01 X33.6896 Y48.5467 
G01 X33.7200 Y48.6202 
G01 X33.7200 Y49.4750 
G01 X34.4649 Y50.2199 
G01 X34.5301 Y50.2851 
G01 X34.5761 Y50.3649 
G01 X34.6000 Y50.4539 
G01 X34.6000 Y56.6500 
G01 X41.1105 Y56.6500 
G01 X41.1589 Y56.6148 
G01 X41.3633 Y56.5107 
G01 X41.5814 Y56.4398 
G01 X41.8080 Y56.4039 
G01 X44.5520 Y56.4039 
G01 X44.7786 Y56.4398 
G01 X44.9967 Y56.5107 
G01 X45.2011 Y56.6148 
G01 X45.3867 Y56.7496 
G01 X45.5489 Y56.9118 
G01 X45.6837 Y57.0974 
G01 X45.7878 Y57.3018 
G01 X45.8587 Y57.5199 
G01 X45.8946 Y57.7465 
G01 X45.8946 Y57.9759 
G01 X45.8587 Y58.2025 
G01 X45.7878 Y58.4206 
G01 X45.6837 Y58.6250 
G01 X45.5489 Y58.8106 
G01 X45.3867 Y58.9728 
G01 X45.2011 Y59.1076 
G01 X44.9967 Y59.2117 
G01 X44.7786 Y59.2826 
G01 X44.5520 Y59.3185 
G01 X41.8080 Y59.3185 
G01 X41.5814 Y59.2826 
G01 X41.3633 Y59.2117 
G01 X41.1589 Y59.1076 
G01 X40.9733 Y58.9728 
G01 X40.8111 Y58.8106 
G01 X40.6763 Y58.6250 
G01 X40.5722 Y58.4206 
G01 X40.5013 Y58.2025 
G01 X40.4654 Y57.9759 
G01 X40.4654 Y57.7465 
G01 X40.5013 Y57.5199 
G01 X40.5565 Y57.3500 
G01 X34.3950 Y57.3500 
G01 X33.9550 Y57.7900 
G01 X33.9550 Y58.7048 
G01 X33.9246 Y58.7783 
G01 X33.8683 Y58.8346 
G01 X33.7948 Y58.8650 
G01 X32.3600 Y58.8650 
G01 X32.8950 Y59.4000 
G01 X45.9000 Y59.4000 
G01 X45.9000 Y57.1450 
G01 X44.1111 Y55.3561 
G01 X41.8080 Y55.3561 
G01 X41.5814 Y55.3202 
G01 X41.3633 Y55.2493 
G01 X41.1589 Y55.1452 
G01 X40.9733 Y55.0104 
G01 X40.8111 Y54.8482 
G01 X40.6763 Y54.6626 
G01 X40.5722 Y54.4582 
G01 X40.5013 Y54.2401 
G01 X40.4654 Y54.0135 
G01 X40.4654 Y53.7841 
G01 X40.5013 Y53.5575 
G01 X40.5722 Y53.3394 
G01 X40.6763 Y53.1350 
G01 X40.8111 Y52.9494 
G01 X40.9733 Y52.7872 
G01 X41.1589 Y52.6524 
G01 X41.3633 Y52.5483 
G01 X41.5814 Y52.4774 
G01 X41.8080 Y52.4415 
G01 X42.9000 Y52.4415 
G01 X42.9000 Y49.7443 
G01 X42.8839 Y49.8254 
G01 X42.8075 Y50.0097 
G01 X42.6967 Y50.1756 
G01 X42.5556 Y50.3167 
G01 X42.3897 Y50.4275 
G01 X42.2054 Y50.5039 
G01 X42.0098 Y50.5428 
G01 X41.8102 Y50.5428 
G01 X41.6146 Y50.5039 
G01 X41.4303 Y50.4275 
G01 X41.2644 Y50.3167 
G01 X41.1233 Y50.1756 
G01 X41.0125 Y50.0097 
G01 X40.9361 Y49.8254 
G01 X40.8972 Y49.6298 
G01 X40.8972 Y49.4302 
G01 X40.9361 Y49.2346 
G01 X41.0125 Y49.0503 
G01 X41.1233 Y48.8844 
G01 X41.2644 Y48.7433 
G01 X41.4303 Y48.6325 
G01 X41.6146 Y48.5561 
G01 X41.8102 Y48.5172 
G01 X42.0098 Y48.5172 
G01 X42.2054 Y48.5561 
G01 X42.3897 Y48.6325 
G01 X42.5556 Y48.7433 
G01 X42.6967 Y48.8844 
G01 X42.8075 Y49.0503 
G01 X42.8839 Y49.2346 
G01 X42.9000 Y49.3157 
G01 X42.9000 Y47.2043 
G01 X42.8839 Y47.2854 
G01 X42.8075 Y47.4697 
G01 X42.6967 Y47.6356 
G01 X42.5556 Y47.7767 
G01 X42.3897 Y47.8875 
G01 X42.2054 Y47.9639 
G01 X42.0098 Y48.0028 
G01 X41.8102 Y48.0028 
G01 X41.6146 Y47.9639 
G01 X41.4303 Y47.8875 
G01 X41.2644 Y47.7767 
G01 X41.1233 Y47.6356 
G01 X41.0125 Y47.4697 
G01 X40.9629 Y47.3500 
G01 X34.6700 Y47.3500 
G01 X34.6700 Y47.8998 
G01 X34.6395 Y47.9733 
G01 X34.5833 Y48.0296 
G01 X34.5098 Y48.0600 
G01 X33.4302 Y48.0600 
G01 X33.3567 Y48.0296 
G01 X33.3004 Y47.9733 
G01 X33.2700 Y47.8998 
G01 X33.2700 Y47.0150 
G01 X33.0351 Y46.7801 
G01 X32.9699 Y46.7149 
G01 X32.9239 Y46.6351 
G01 X32.9000 Y46.5461 
G01 X32.9000 Y44.8450 
G01 X31.3500 Y46.3950 
G01 X31.3500 Y48.0461 
G01 X31.3261 Y48.1351 
G01 X31.2801 Y48.2149 
G01 X31.2149 Y48.2801 
G01 X25.8500 Y53.6450 
G01 X25.8500 Y55.0842 
G01 X25.8602 Y55.0800 
G01 X26.6750 Y55.0800 
G01 X31.6500 Y50.1050 
G01 X31.6500 Y48.0600 
G01 X31.5302 Y48.0600 
G01 X31.4567 Y48.0296 
G01 X31.4004 Y47.9733 
G01 X31.3700 Y47.8998 
G01 X31.3700 Y46.4202 
G01 X31.4004 Y46.3467 
G01 X31.4567 Y46.2904 
G01 X31.5302 Y46.2600 
G01 X32.6098 Y46.2600 
G01 X32.6833 Y46.2904 
G01 X32.7396 Y46.3467 
G01 X32.7700 Y46.4202 
G00 Z2.0000 
G00 X33.9000 Y54.5028 
G01 Z-0.0250 F254.00 
G01 X33.8683 Y54.5346 F508.00 
G01 X33.7948 Y54.5650 
G01 X32.6800 Y54.5650 
G01 X32.1000 Y55.1450 
G01 X32.1000 Y57.3190 
G01 X32.1154 Y57.2817 
G01 X32.1717 Y57.2254 
G01 X32.2452 Y57.1950 
G01 X33.5600 Y57.1950 
G01 X33.9000 Y56.8550 
G01 X33.9000 Y54.5028 
G00 Z2.0000 
G00 X14.1500 Y38.8550 
G01 Z-0.0250 F254.00 
G01 X14.1500 Y38.8328 F508.00 
G01 X14.1133 Y38.8696 
G01 X14.0398 Y38.9000 
G01 X13.3450 Y38.9000 
G01 X12.9342 Y39.3107 
G01 X12.9580 Y39.4303 
G01 X12.9580 Y39.5697 
G01 X12.9308 Y39.7065 
G01 X12.8774 Y39.8354 
G01 X12.7999 Y39.9513 
G01 X12.7013 Y40.0499 
G01 X12.5854 Y40.1274 
G01 X12.5308 Y40.1500 
G01 X12.8550 Y40.1500 
G01 X14.1500 Y38.8550 
G00 Z2.0000 
G00 X9.7801 Y34.5351 
G01 Z-0.0250 F254.00 
G01 X9.8261 Y34.6149 F508.00 
G01 X9.8500 Y34.7039 
G01 X9.8500 Y40.1500 
G01 X11.9692 Y40.1500 
G01 X11.9146 Y40.1274 
G01 X11.7987 Y40.0499 
G01 X11.7001 Y39.9513 
G01 X11.6226 Y39.8354 
G01 X11.5692 Y39.7065 
G01 X11.5420 Y39.5697 
G01 X11.5420 Y39.4303 
G01 X11.5692 Y39.2935 
G01 X11.6226 Y39.1646 
G01 X11.7001 Y39.0487 
G01 X11.7987 Y38.9501 
G01 X11.8736 Y38.9000 
G01 X11.3602 Y38.9000 
G01 X11.2867 Y38.8696 
G01 X11.2304 Y38.8133 
G01 X11.2000 Y38.7398 
G01 X11.2000 Y37.4602 
G01 X11.2304 Y37.3867 
G01 X11.2867 Y37.3304 
G01 X11.3602 Y37.3000 
G01 X11.4000 Y37.3000 
G01 X11.4000 Y36.3600 
G01 X11.3602 Y36.3600 
G01 X11.2867 Y36.3296 
G01 X11.2304 Y36.2733 
G01 X11.2000 Y36.1998 
G01 X11.2000 Y35.4450 
G01 X7.7851 Y32.0301 
G01 X7.7199 Y31.9649 
G01 X5.0000 Y29.2450 
G01 X1.6000 Y32.6450 
G01 X1.6000 Y36.3249 
G01 X1.6602 Y36.3000 
G01 X2.4000 Y36.3000 
G01 X2.4000 Y31.9539 
G01 X2.4239 Y31.8649 
G01 X2.4699 Y31.7851 
G01 X2.5351 Y31.7199 
G01 X2.6149 Y31.6739 
G01 X2.7039 Y31.6500 
G01 X6.7961 Y31.6500 
G01 X6.8851 Y31.6739 
G01 X6.9649 Y31.7199 
G01 X7.0301 Y31.7851 
G01 X9.7801 Y34.5351 
G00 Z2.0000 
G00 X3.5198 Y36.3000 
G01 Z-0.0250 F254.00 
G01 X3.5933 Y36.3304 F508.00 
G01 X3.6496 Y36.3867 
G01 X3.6500 Y33.7728 
G01 X3.6104 Y33.7333 
G01 X3.5800 Y33.6598 
G01 X3.5800 Y32.3802 
G01 X3.5925 Y32.3500 
G01 X3.1000 Y32.3500 
G01 X3.1000 Y36.3000 
G01 X3.5198 Y36.3000 
G00 Z2.0000 
G00 X8.0486 Y43.3697 
G01 Z-0.0250 F254.00 
G01 X8.0486 Y43.5491 F508.00 
G01 X8.0205 Y43.7263 
G01 X7.9651 Y43.8969 
G01 X7.8836 Y44.0568 
G01 X7.7782 Y44.2019 
G01 X7.6513 Y44.3288 
G01 X7.5062 Y44.4342 
G01 X7.3463 Y44.5157 
G01 X7.1757 Y44.5711 
G01 X6.9985 Y44.5992 
G01 X6.8191 Y44.5992 
G01 X6.6419 Y44.5711 
G01 X6.4713 Y44.5157 
G01 X6.3114 Y44.4342 
G01 X6.1663 Y44.3288 
G01 X6.0394 Y44.2019 
G01 X5.9340 Y44.0568 
G01 X5.8525 Y43.8969 
G01 X5.8500 Y43.8892 
G01 X5.8500 Y46.3550 
G01 X6.4368 Y46.9419 
G01 X6.4713 Y46.9243 
G01 X6.6419 Y46.8689 
G01 X6.8191 Y46.8408 
G01 X6.9985 Y46.8408 
G01 X7.1757 Y46.8689 
G01 X7.3463 Y46.9243 
G01 X7.5062 Y47.0058 
G01 X7.6513 Y47.1112 
G01 X7.7782 Y47.2381 
G01 X7.8836 Y47.3832 
G01 X7.9651 Y47.5431 
G01 X8.0205 Y47.7137 
G01 X8.0486 Y47.8909 
G01 X8.0486 Y48.0703 
G01 X8.0205 Y48.2475 
G01 X7.9651 Y48.4181 
G01 X7.8836 Y48.5780 
G01 X7.7782 Y48.7231 
G01 X7.6513 Y48.8500 
G01 X7.5062 Y48.9554 
G01 X7.3463 Y49.0369 
G01 X7.1757 Y49.0923 
G01 X6.9985 Y49.1204 
G01 X6.8191 Y49.1204 
G01 X6.6419 Y49.0923 
G01 X6.4713 Y49.0369 
G01 X6.3114 Y48.9554 
G01 X6.1663 Y48.8500 
G01 X6.0394 Y48.7231 
G01 X5.9340 Y48.5780 
G01 X5.8525 Y48.4181 
G01 X5.7971 Y48.2475 
G01 X5.7690 Y48.0703 
G01 X5.7690 Y47.8909 
G01 X5.7971 Y47.7137 
G01 X5.8525 Y47.5431 
G01 X5.9185 Y47.4135 
G01 X5.2199 Y46.7149 
G01 X5.1739 Y46.6351 
G01 X5.1500 Y46.5461 
G01 X5.1500 Y33.4539 
G01 X5.1739 Y33.3649 
G01 X5.2199 Y33.2851 
G01 X5.2851 Y33.2199 
G01 X5.3800 Y33.1250 
G01 X5.3800 Y32.3802 
G01 X5.3925 Y32.3500 
G01 X4.7675 Y32.3500 
G01 X4.7800 Y32.3802 
G01 X4.7800 Y33.6598 
G01 X4.7496 Y33.7333 
G01 X4.6933 Y33.7895 
G01 X4.6198 Y33.8200 
G01 X4.3500 Y33.8200 
G01 X4.3500 Y45.7961 
G01 X4.3261 Y45.8851 
G01 X4.2801 Y45.9649 
G01 X3.3400 Y46.9050 
G01 X3.3400 Y47.8498 
G01 X3.3096 Y47.9233 
G01 X3.2533 Y47.9796 
G01 X3.1798 Y48.0100 
G01 X1.9002 Y48.0100 
G01 X1.8267 Y47.9796 
G01 X1.7704 Y47.9233 
G01 X1.7400 Y47.8498 
G01 X1.7400 Y46.5702 
G01 X1.7704 Y46.4967 
G01 X1.8267 Y46.4404 
G01 X1.9002 Y46.4100 
G01 X2.8450 Y46.4100 
G01 X3.6500 Y45.6050 
G01 X3.6500 Y39.8122 
G01 X3.5933 Y39.8696 
G01 X3.5198 Y39.9000 
G01 X1.6602 Y39.9000 
G01 X1.6000 Y39.8751 
G01 X1.6000 Y47.8550 
G01 X2.2550 Y48.5100 
G01 X3.1798 Y48.5100 
G01 X3.2533 Y48.5404 
G01 X3.3096 Y48.5967 
G01 X3.3400 Y48.6702 
G01 X3.3400 Y49.5950 
G01 X6.2149 Y52.4699 
G01 X6.2801 Y52.5351 
G01 X6.3261 Y52.6149 
G01 X6.3500 Y52.7039 
G01 X6.3500 Y54.1050 
G01 X6.3950 Y54.1500 
G01 X6.4096 Y54.1500 
G01 X6.3950 Y54.1148 
G01 X6.3950 Y52.5652 
G01 X6.4254 Y52.4917 
G01 X6.4817 Y52.4354 
G01 X6.5552 Y52.4050 
G01 X7.6000 Y52.4050 
G01 X8.1500 Y51.8550 
G01 X8.1500 Y41.1176 
G01 X8.0487 Y41.0499 
G01 X7.9501 Y40.9513 
G01 X7.8726 Y40.8354 
G01 X7.8192 Y40.7065 
G01 X7.7920 Y40.5697 
G01 X7.7920 Y40.4303 
G01 X7.8158 Y40.3107 
G01 X7.5351 Y40.0301 
G01 X7.4699 Y39.9649 
G01 X7.4325 Y39.9000 
G01 X6.6402 Y39.9000 
G01 X6.5667 Y39.8696 
G01 X6.5104 Y39.8133 
G01 X6.4800 Y39.7398 
G01 X6.4800 Y36.4602 
G01 X6.5104 Y36.3867 
G01 X6.5667 Y36.3304 
G01 X6.6402 Y36.3000 
G01 X8.4998 Y36.3000 
G01 X8.5733 Y36.3304 
G01 X8.6296 Y36.3867 
G01 X8.6600 Y36.4602 
G01 X8.6600 Y39.7398 
G01 X8.6331 Y39.8046 
G01 X8.7065 Y39.8192 
G01 X8.8354 Y39.8726 
G01 X8.9513 Y39.9501 
G01 X9.0499 Y40.0487 
G01 X9.1274 Y40.1646 
G01 X9.1500 Y40.2192 
G01 X9.1500 Y34.8950 
G01 X6.6050 Y32.3500 
G01 X6.5675 Y32.3500 
G01 X6.5800 Y32.3802 
G01 X6.5800 Y33.6598 
G01 X6.5495 Y33.7333 
G01 X6.4933 Y33.7895 
G01 X6.4198 Y33.8200 
G01 X5.8500 Y33.8200 
G01 X5.8500 Y43.0296 
G01 X5.8525 Y43.0219 
G01 X5.9340 Y42.8620 
G01 X6.0394 Y42.7169 
G01 X6.1663 Y42.5900 
G01 X6.3114 Y42.4846 
G01 X6.4713 Y42.4031 
G01 X6.6419 Y42.3477 
G01 X6.8191 Y42.3196 
G01 X6.9985 Y42.3196 
G01 X7.1757 Y42.3477 
G01 X7.3463 Y42.4031 
G01 X7.5062 Y42.4846 
G01 X7.6513 Y42.5900 
G01 X7.7782 Y42.7169 
G01 X7.8836 Y42.8620 
G01 X7.9651 Y43.0219 
G01 X8.0205 Y43.1925 
G01 X8.0486 Y43.3697 
G00 Z2.0000 
G00 X29.6000 Y3.5912 
G01 Z-0.0250 F254.00 
G01 X29.6174 Y3.4814 F508.00 
G01 X29.6674 Y3.3276 
G01 X29.6000 Y3.3950 
G01 X29.6000 Y3.5912 
G00 Z2.0000 
G00 X33.2250 Y32.7200 
G01 Z-0.0250 F254.00 
G01 X32.4650 Y32.7200 F508.00 
G01 X33.0650 Y33.3200 
G01 X33.6598 Y33.3200 
G01 X33.7333 Y33.3504 
G01 X33.7895 Y33.4067 
G01 X33.8200 Y33.4802 
G01 X33.8200 Y33.7916 
G01 X33.8726 Y33.6646 
G01 X33.9501 Y33.5487 
G01 X34.0019 Y33.4969 
G01 X33.2250 Y32.7200 
G00 Z2.0000 
G00 X29.8500 Y30.1050 
G01 Z-0.0250 F254.00 
G01 X32.2200 Y32.4750 F508.00 
G01 X32.2200 Y31.6802 
G01 X32.2504 Y31.6067 
G01 X32.3067 Y31.5504 
G01 X32.3802 Y31.5200 
G01 X33.6598 Y31.5200 
G01 X33.7333 Y31.5504 
G01 X33.7895 Y31.6067 
G01 X33.8200 Y31.6802 
G01 X33.8200 Y32.3250 
G01 X34.7149 Y33.2199 
G01 X34.7801 Y33.2851 
G01 X34.8261 Y33.3649 
G01 X34.8273 Y33.3692 
G01 X34.8354 Y33.3726 
G01 X34.9513 Y33.4501 
G01 X35.0499 Y33.5487 
G01 X35.1274 Y33.6646 
G01 X35.1808 Y33.7935 
G01 X35.2080 Y33.9303 
G01 X35.2080 Y34.0697 
G01 X35.1808 Y34.2065 
G01 X35.1274 Y34.3354 
G01 X35.0499 Y34.4513 
G01 X34.9513 Y34.5499 
G01 X34.8354 Y34.6274 
G01 X34.7065 Y34.6808 
G01 X34.5697 Y34.7080 
G01 X34.4303 Y34.7080 
G01 X34.2935 Y34.6808 
G01 X34.1646 Y34.6274 
G01 X34.0487 Y34.5499 
G01 X33.9501 Y34.4513 
G01 X33.8726 Y34.3354 
G01 X33.8200 Y34.2084 
G01 X33.8200 Y34.3598 
G01 X33.7895 Y34.4333 
G01 X33.7333 Y34.4896 
G01 X33.6598 Y34.5200 
G01 X32.9750 Y34.5200 
G01 X32.3500 Y35.1450 
G01 X32.3500 Y39.1525 
G01 X32.3802 Y39.1400 
