(.../pcb-gcode-3.6.0.4/pcb-gcode.ulp)
(Copyright 2005 - 2012 by John Johnson)
(See readme.txt for licensing terms.)
(This file generated from the board:)
(.../eagle/SulaMatikV1/SulaMatikV1.brd)
(Current profile is .../pcb-gcode-3.6.0.4/profiles/emc.pp  )
(This file generated 9/3/2014 2:59:01 PM)
(Settings from pcb-machine.h)
(  Tool Size)
(0.1000 )
(Z Axis Settings)
(  High     Up        Down     Drill)
(19.5000 	2.0000 	-0.0250 	-1.5000 )
(spindle on time = 1.0000)
(milling depth = -0.0500)
(text depth = -0.0500)
(tool change at 15.0000 15.0000 19.0000 )
(feed rate xy = F508.00 )
(feed rate z  = F254.00 )
(Settings from pcb-defaults.h)
(isolate min = 0.0500)
(isolate max = 1.0000)
(isolate step = 0.1000)
(Generated top outlines, top drill, bottom outlines, bottom drill, )
(Unit of measure: mm)
(Metric Mode)
G21
(Absolute Coordinates)
G90
G00 X0.0000 Y0.0000 
M03
G04 P1.000000
G00 Z2.0000 
G00 X-14.1480 Y16.7900 
G01 Z-0.0250 F254.00 
G01 X-14.1480 Y16.8499 F508.00 
G01 X-14.1246 Y16.9673 
G01 X-14.0788 Y17.0780 
G01 X-14.0123 Y17.1776 
G01 X-13.9276 Y17.2623 
G01 X-13.8280 Y17.3288 
G01 X-13.7173 Y17.3746 
G01 X-13.5999 Y17.3980 
G01 X-13.4801 Y17.3980 
G01 X-13.3627 Y17.3746 
G01 X-13.2520 Y17.3288 
G01 X-13.1524 Y17.2623 
G01 X-13.0677 Y17.1776 
G01 X-13.0012 Y17.0780 
G01 X-12.9554 Y16.9673 
G01 X-12.9320 Y16.8499 
G01 X-12.9320 Y16.7301 
G01 X-12.9554 Y16.6127 
G01 X-13.0012 Y16.5020 
G01 X-13.0677 Y16.4024 
G01 X-13.1524 Y16.3177 
G01 X-13.2520 Y16.2512 
G01 X-13.3627 Y16.2054 
G01 X-13.4801 Y16.1820 
G01 X-13.5999 Y16.1820 
G01 X-13.7173 Y16.2054 
G01 X-13.8280 Y16.2512 
G01 X-13.8861 Y16.2900 
G01 X-60.7355 Y16.2900 
G01 X-60.7512 Y16.2520 
G01 X-60.8177 Y16.1524 
G01 X-60.9024 Y16.0677 
G01 X-61.0020 Y16.0012 
G01 X-61.1127 Y15.9554 
G01 X-61.2301 Y15.9320 
G01 X-61.3499 Y15.9320 
G01 X-61.4673 Y15.9554 
G01 X-61.5780 Y16.0012 
G01 X-61.6776 Y16.0677 
G01 X-61.7623 Y16.1524 
G01 X-61.8288 Y16.2520 
G01 X-61.8746 Y16.3627 
G01 X-61.8980 Y16.4801 
G01 X-61.8980 Y16.5999 
G01 X-61.8746 Y16.7173 
G01 X-61.8288 Y16.8280 
G01 X-61.7623 Y16.9276 
G01 X-61.6776 Y17.0123 
G01 X-61.5780 Y17.0788 
G01 X-61.4673 Y17.1246 
G01 X-61.3499 Y17.1480 
G01 X-61.2301 Y17.1480 
G01 X-61.1127 Y17.1246 
G01 X-61.0020 Y17.0788 
G01 X-60.9024 Y17.0123 
G01 X-60.8177 Y16.9276 
G01 X-60.7512 Y16.8280 
G01 X-60.7355 Y16.7900 
G01 X-14.1480 Y16.7900 
G00 Z2.0000 
G00 X-16.0400 Y29.3936 
G01 Z-0.0250 F254.00 
G01 X-16.0400 Y37.2900 F508.00 
G01 X-46.9364 Y37.2900 
G01 X-48.8281 Y35.3984 
G01 X-48.8984 Y35.3281 
G01 X-48.9903 Y35.2900 
G01 X-65.1864 Y35.2900 
G01 X-66.7900 Y33.6864 
G01 X-66.7900 Y32.0400 
G01 X-65.6379 Y32.0400 
G01 X-65.5789 Y32.1824 
G01 X-65.4790 Y32.3319 
G01 X-65.3519 Y32.4590 
G01 X-65.2024 Y32.5589 
G01 X-65.0363 Y32.6277 
G01 X-64.8599 Y32.6628 
G01 X-64.6801 Y32.6628 
G01 X-64.5037 Y32.6277 
G01 X-64.3376 Y32.5589 
G01 X-64.1881 Y32.4590 
G01 X-64.0610 Y32.3319 
G01 X-63.9611 Y32.1824 
G01 X-63.8923 Y32.0163 
G01 X-63.8572 Y31.8399 
G01 X-63.8572 Y31.6601 
G01 X-63.8923 Y31.4837 
G01 X-63.9611 Y31.3176 
G01 X-64.0610 Y31.1681 
G01 X-64.1881 Y31.0410 
G01 X-64.3376 Y30.9411 
G01 X-64.5037 Y30.8723 
G01 X-64.6801 Y30.8372 
G01 X-64.8599 Y30.8372 
G01 X-65.0363 Y30.8723 
G01 X-65.2024 Y30.9411 
G01 X-65.3519 Y31.0410 
G01 X-65.4790 Y31.1681 
G01 X-65.5789 Y31.3176 
G01 X-65.6477 Y31.4837 
G01 X-65.6589 Y31.5400 
G01 X-67.0897 Y31.5400 
G01 X-67.1816 Y31.5781 
G01 X-67.2519 Y31.6484 
G01 X-67.2900 Y31.7403 
G01 X-67.2900 Y33.8397 
G01 X-67.2519 Y33.9316 
G01 X-67.1816 Y34.0019 
G01 X-65.4316 Y35.7519 
G01 X-65.3397 Y35.7900 
G01 X-49.1436 Y35.7900 
G01 X-47.1816 Y37.7519 
G01 X-47.0897 Y37.7900 
G01 X-15.7403 Y37.7900 
G01 X-15.6484 Y37.7519 
G01 X-15.5781 Y37.6816 
G01 X-15.5400 Y37.5897 
G01 X-15.5400 Y29.2403 
G01 X-15.5781 Y29.1484 
G01 X-15.6484 Y29.0781 
G01 X-23.2211 Y21.5053 
G01 X-23.2054 Y21.4673 
G01 X-23.1820 Y21.3499 
G01 X-23.1820 Y21.2301 
G01 X-23.2054 Y21.1127 
G01 X-23.2512 Y21.0020 
G01 X-23.3177 Y20.9024 
G01 X-23.4024 Y20.8177 
G01 X-23.5020 Y20.7512 
G01 X-23.6127 Y20.7054 
G01 X-23.7301 Y20.6820 
G01 X-23.8499 Y20.6820 
G01 X-23.9673 Y20.7054 
G01 X-24.0780 Y20.7512 
G01 X-24.1776 Y20.8177 
G01 X-24.2623 Y20.9024 
G01 X-24.3288 Y21.0020 
G01 X-24.3746 Y21.1127 
G01 X-24.3980 Y21.2301 
G01 X-24.3980 Y21.3499 
G01 X-24.3746 Y21.4673 
G01 X-24.3288 Y21.5780 
G01 X-24.2623 Y21.6776 
G01 X-24.1776 Y21.7623 
G01 X-24.0780 Y21.8288 
G01 X-23.9673 Y21.8746 
G01 X-23.8499 Y21.8980 
G01 X-23.7301 Y21.8980 
G01 X-23.6127 Y21.8746 
G01 X-23.5747 Y21.8589 
G01 X-16.0400 Y29.3936 
G00 Z2.0000 
G00 X-20.8281 Y27.1484 
G01 Z-0.0250 F254.00 
G01 X-20.8984 Y27.0781 F508.00 
G01 X-20.9903 Y27.0400 
G01 X-53.3397 Y27.0400 
G01 X-53.4316 Y27.0781 
G01 X-58.1436 Y31.7900 
G01 X-62.4855 Y31.7900 
G01 X-62.5012 Y31.7520 
G01 X-62.5677 Y31.6524 
G01 X-62.6524 Y31.5677 
G01 X-62.7520 Y31.5012 
G01 X-62.8627 Y31.4554 
G01 X-62.9801 Y31.4320 
G01 X-63.0999 Y31.4320 
G01 X-63.2173 Y31.4554 
G01 X-63.3280 Y31.5012 
G01 X-63.4276 Y31.5677 
G01 X-63.5123 Y31.6524 
G01 X-63.5788 Y31.7520 
G01 X-63.6246 Y31.8627 
G01 X-63.6480 Y31.9801 
G01 X-63.6480 Y32.0999 
G01 X-63.6246 Y32.2173 
G01 X-63.5788 Y32.3280 
G01 X-63.5123 Y32.4276 
G01 X-63.4276 Y32.5123 
G01 X-63.3280 Y32.5788 
G01 X-63.2173 Y32.6246 
G01 X-63.0999 Y32.6480 
G01 X-62.9801 Y32.6480 
G01 X-62.8627 Y32.6246 
G01 X-62.7520 Y32.5788 
G01 X-62.6524 Y32.5123 
G01 X-62.5677 Y32.4276 
G01 X-62.5012 Y32.3280 
G01 X-62.4855 Y32.2900 
G01 X-57.9903 Y32.2900 
G01 X-57.8984 Y32.2519 
G01 X-57.8281 Y32.1816 
G01 X-53.1864 Y27.5400 
G01 X-21.1436 Y27.5400 
G01 X-21.1089 Y27.5747 
G01 X-21.1246 Y27.6127 
G01 X-21.1480 Y27.7301 
G01 X-21.1480 Y27.8499 
G01 X-21.1246 Y27.9673 
G01 X-21.0788 Y28.0780 
G01 X-21.0123 Y28.1776 
G01 X-20.9276 Y28.2623 
G01 X-20.8280 Y28.3288 
G01 X-20.7173 Y28.3746 
G01 X-20.5999 Y28.3980 
G01 X-20.4801 Y28.3980 
G01 X-20.3627 Y28.3746 
G01 X-20.2520 Y28.3288 
G01 X-20.1524 Y28.2623 
G01 X-20.0677 Y28.1776 
G01 X-20.0012 Y28.0780 
G01 X-19.9554 Y27.9673 
G01 X-19.9320 Y27.8499 
G01 X-19.9320 Y27.7301 
G01 X-19.9554 Y27.6127 
G01 X-20.0012 Y27.5020 
G01 X-20.0677 Y27.4024 
G01 X-20.1524 Y27.3177 
G01 X-20.2520 Y27.2512 
G01 X-20.3627 Y27.2054 
G01 X-20.4801 Y27.1820 
G01 X-20.5999 Y27.1820 
G01 X-20.7173 Y27.2054 
G01 X-20.7553 Y27.2211 
G01 X-20.8281 Y27.1484 
G00 Z2.0000 
G00 X-45.3628 Y4.1773 
G01 Z-0.0250 F254.00 
G01 X-45.3628 Y5.9827 F508.00 
G01 X-45.3277 Y6.1591 
G01 X-45.2589 Y6.3252 
G01 X-45.1590 Y6.4747 
G01 X-45.0319 Y6.6018 
G01 X-44.8824 Y6.7017 
G01 X-44.7163 Y6.7705 
G01 X-44.5399 Y6.8056 
G01 X-44.3601 Y6.8056 
G01 X-44.1837 Y6.7705 
G01 X-44.0176 Y6.7017 
G01 X-43.8681 Y6.6018 
G01 X-43.7410 Y6.4747 
G01 X-43.6411 Y6.3252 
G01 X-43.5723 Y6.1591 
G01 X-43.5372 Y5.9827 
G01 X-43.5372 Y4.1773 
G01 X-43.5723 Y4.0009 
G01 X-43.6411 Y3.8348 
G01 X-43.7410 Y3.6853 
G01 X-43.8681 Y3.5582 
G01 X-44.0176 Y3.4583 
G01 X-44.1837 Y3.3895 
G01 X-44.3601 Y3.3544 
G01 X-44.5399 Y3.3544 
G01 X-44.7163 Y3.3895 
G01 X-44.8824 Y3.4583 
G01 X-45.0319 Y3.5582 
G01 X-45.1590 Y3.6853 
G01 X-45.2589 Y3.8348 
G01 X-45.3277 Y4.0009 
G01 X-45.3628 Y4.1773 
G00 Z2.0000 
G00 X-61.3172 Y26.3027 
G01 Z-0.0250 F254.00 
G01 X-61.3172 Y24.4973 F508.00 
G01 X-61.3523 Y24.3209 
G01 X-61.4211 Y24.1548 
G01 X-61.5210 Y24.0053 
G01 X-61.6481 Y23.8782 
G01 X-61.7976 Y23.7783 
G01 X-61.9637 Y23.7095 
G01 X-62.1401 Y23.6744 
G01 X-62.3199 Y23.6744 
G01 X-62.4963 Y23.7095 
G01 X-62.6624 Y23.7783 
G01 X-62.8119 Y23.8782 
G01 X-62.9390 Y24.0053 
G01 X-63.0389 Y24.1548 
G01 X-63.1077 Y24.3209 
G01 X-63.1428 Y24.4973 
G01 X-63.1428 Y26.3027 
G01 X-63.1077 Y26.4791 
G01 X-63.0389 Y26.6452 
G01 X-62.9390 Y26.7947 
G01 X-62.8119 Y26.9218 
G01 X-62.6624 Y27.0217 
G01 X-62.4963 Y27.0905 
G01 X-62.3199 Y27.1256 
G01 X-62.1401 Y27.1256 
G01 X-61.9637 Y27.0905 
G01 X-61.7976 Y27.0217 
G01 X-61.6481 Y26.9218 
G01 X-61.5210 Y26.7947 
G01 X-61.4211 Y26.6452 
G01 X-61.3523 Y26.4791 
G01 X-61.3172 Y26.3027 
G00 Z2.0000 
G00 X-58.7772 Y26.3027 
G01 Z-0.0250 F254.00 
G01 X-58.7772 Y24.4973 F508.00 
G01 X-58.8123 Y24.3209 
G01 X-58.8811 Y24.1548 
G01 X-58.9810 Y24.0053 
G01 X-59.1081 Y23.8782 
G01 X-59.2576 Y23.7783 
G01 X-59.4237 Y23.7095 
G01 X-59.6001 Y23.6744 
G01 X-59.7799 Y23.6744 
G01 X-59.9563 Y23.7095 
G01 X-60.1224 Y23.7783 
G01 X-60.2719 Y23.8782 
G01 X-60.3990 Y24.0053 
G01 X-60.4989 Y24.1548 
G01 X-60.5677 Y24.3209 
G01 X-60.6028 Y24.4973 
G01 X-60.6028 Y26.3027 
G01 X-60.5677 Y26.4791 
G01 X-60.4989 Y26.6452 
G01 X-60.3990 Y26.7947 
G01 X-60.2719 Y26.9218 
G01 X-60.1224 Y27.0217 
G01 X-59.9563 Y27.0905 
G01 X-59.7799 Y27.1256 
G01 X-59.6001 Y27.1256 
G01 X-59.4237 Y27.0905 
G01 X-59.2576 Y27.0217 
G01 X-59.1081 Y26.9218 
G01 X-58.9810 Y26.7947 
G01 X-58.8811 Y26.6452 
G01 X-58.8123 Y26.4791 
G01 X-58.7772 Y26.3027 
G00 Z2.0000 
G00 X-56.2372 Y26.3027 
G01 Z-0.0250 F254.00 
G01 X-56.2372 Y24.4973 F508.00 
G01 X-56.2723 Y24.3209 
G01 X-56.3411 Y24.1548 
G01 X-56.4410 Y24.0053 
G01 X-56.5681 Y23.8782 
G01 X-56.7176 Y23.7783 
G01 X-56.8837 Y23.7095 
G01 X-57.0601 Y23.6744 
G01 X-57.2399 Y23.6744 
G01 X-57.4163 Y23.7095 
G01 X-57.5824 Y23.7783 
G01 X-57.7319 Y23.8782 
G01 X-57.8590 Y24.0053 
G01 X-57.9589 Y24.1548 
G01 X-58.0277 Y24.3209 
G01 X-58.0628 Y24.4973 
G01 X-58.0628 Y26.3027 
G01 X-58.0277 Y26.4791 
G01 X-57.9589 Y26.6452 
G01 X-57.8590 Y26.7947 
G01 X-57.7319 Y26.9218 
G01 X-57.5824 Y27.0217 
G01 X-57.4163 Y27.0905 
G01 X-57.2399 Y27.1256 
G01 X-57.0601 Y27.1256 
G01 X-56.8837 Y27.0905 
G01 X-56.7176 Y27.0217 
G01 X-56.5681 Y26.9218 
G01 X-56.4410 Y26.7947 
G01 X-56.3411 Y26.6452 
G01 X-56.2723 Y26.4791 
G01 X-56.2372 Y26.3027 
G00 Z2.0000 
G00 X-53.6972 Y26.3027 
G01 Z-0.0250 F254.00 
G01 X-53.6972 Y24.4973 F508.00 
G01 X-53.7323 Y24.3209 
G01 X-53.8011 Y24.1548 
G01 X-53.9010 Y24.0053 
G01 X-54.0281 Y23.8782 
G01 X-54.1776 Y23.7783 
G01 X-54.3437 Y23.7095 
G01 X-54.5201 Y23.6744 
G01 X-54.6999 Y23.6744 
G01 X-54.8763 Y23.7095 
G01 X-55.0424 Y23.7783 
G01 X-55.1919 Y23.8782 
G01 X-55.3190 Y24.0053 
G01 X-55.4189 Y24.1548 
G01 X-55.4877 Y24.3209 
G01 X-55.5228 Y24.4973 
G01 X-55.5228 Y26.3027 
G01 X-55.4877 Y26.4791 
G01 X-55.4189 Y26.6452 
G01 X-55.3190 Y26.7947 
G01 X-55.1919 Y26.9218 
G01 X-55.0424 Y27.0217 
G01 X-55.0400 Y27.5400 
G01 X-61.4855 Y27.5400 
G01 X-61.5012 Y27.5020 
G01 X-61.5677 Y27.4024 
G01 X-61.6524 Y27.3177 
G01 X-61.7520 Y27.2512 
G01 X-61.8627 Y27.2054 
G01 X-61.9801 Y27.1820 
G01 X-62.0999 Y27.1820 
G01 X-62.2173 Y27.2054 
G01 X-62.3280 Y27.2512 
G01 X-62.4276 Y27.3177 
G01 X-62.5123 Y27.4024 
G01 X-62.5788 Y27.5020 
G01 X-62.6246 Y27.6127 
G01 X-62.6480 Y27.7301 
G01 X-62.6480 Y27.8499 
G01 X-62.6246 Y27.9673 
G01 X-62.5788 Y28.0780 
G01 X-62.5123 Y28.1776 
G01 X-62.4276 Y28.2623 
G01 X-62.3280 Y28.3288 
G01 X-62.2173 Y28.3746 
G01 X-62.0999 Y28.3980 
G01 X-61.9801 Y28.3980 
G01 X-61.8627 Y28.3746 
G01 X-61.7520 Y28.3288 
G01 X-61.6524 Y28.2623 
G01 X-61.5677 Y28.1776 
G01 X-61.5012 Y28.0780 
G01 X-61.4855 Y28.0400 
G01 X-54.7403 Y28.0400 
G01 X-54.6484 Y28.0019 
G01 X-54.5781 Y27.9316 
G01 X-54.5400 Y27.8397 
G01 X-54.5400 Y27.1256 
G01 X-54.5201 Y27.1256 
G01 X-54.3437 Y27.0905 
G01 X-54.1776 Y27.0217 
G01 X-54.0281 Y26.9218 
G01 X-53.9010 Y26.7947 
G01 X-53.8011 Y26.6452 
G01 X-53.7323 Y26.4791 
G01 X-53.6972 Y26.3027 
G00 Z2.0000 
G00 X-48.7188 Y10.9511 
G01 Z-0.0250 F254.00 
G01 X-48.7188 Y9.3689 F508.00 
G01 X-48.7500 Y9.2122 
G01 X-48.8111 Y9.0646 
G01 X-48.8999 Y8.9317 
G01 X-49.0129 Y8.8187 
G01 X-49.1457 Y8.7299 
G01 X-49.2934 Y8.6688 
G01 X-49.4501 Y8.6376 
G01 X-49.6099 Y8.6376 
G01 X-49.7666 Y8.6688 
G01 X-49.9142 Y8.7299 
G01 X-50.0471 Y8.8187 
G01 X-50.1601 Y8.9317 
G01 X-50.2489 Y9.0646 
G01 X-50.3100 Y9.2122 
G01 X-50.3412 Y9.3689 
G01 X-50.3412 Y10.9511 
G01 X-50.3100 Y11.1078 
G01 X-50.2489 Y11.2554 
G01 X-50.1601 Y11.3883 
G01 X-50.0471 Y11.5013 
G01 X-49.9142 Y11.5901 
G01 X-49.7666 Y11.6512 
G01 X-49.6099 Y11.6824 
G01 X-49.4501 Y11.6824 
G01 X-49.2934 Y11.6512 
G01 X-49.1457 Y11.5901 
G01 X-49.0129 Y11.5013 
G01 X-48.8999 Y11.3883 
G01 X-48.8111 Y11.2554 
G01 X-48.7500 Y11.1078 
G01 X-48.7188 Y10.9511 
G00 Z2.0000 
G00 X-11.9110 Y53.5376 
G01 Z-0.0250 F254.00 
G01 X-11.9110 Y53.7012 F508.00 
G01 X-11.8854 Y53.8629 
G01 X-11.8348 Y54.0185 
G01 X-11.7605 Y54.1644 
G01 X-11.6643 Y54.2968 
G01 X-11.5486 Y54.4125 
G01 X-11.4162 Y54.5087 
G01 X-11.2703 Y54.5830 
G01 X-11.1147 Y54.6336 
G01 X-10.9530 Y54.6592 
G01 X-10.7894 Y54.6592 
G01 X-10.6277 Y54.6336 
G01 X-10.4721 Y54.5830 
G01 X-10.3262 Y54.5087 
G01 X-10.1938 Y54.4125 
G01 X-10.0781 Y54.2968 
G01 X-9.9819 Y54.1644 
G01 X-9.9076 Y54.0185 
G01 X-9.8570 Y53.8629 
G01 X-9.8314 Y53.7012 
G01 X-9.8314 Y53.5376 
G01 X-9.8570 Y53.3759 
G01 X-9.9076 Y53.2203 
G01 X-9.9819 Y53.0744 
G01 X-10.0781 Y52.9420 
G01 X-10.1938 Y52.8263 
G01 X-10.3262 Y52.7301 
G01 X-10.4721 Y52.6558 
G01 X-10.6277 Y52.6052 
G01 X-10.7894 Y52.5796 
G01 X-10.9530 Y52.5796 
G01 X-11.1147 Y52.6052 
G01 X-11.2703 Y52.6558 
G01 X-11.4162 Y52.7301 
G01 X-11.5486 Y52.8263 
G01 X-11.6643 Y52.9420 
G01 X-11.7605 Y53.0744 
G01 X-11.8348 Y53.2203 
G01 X-11.8854 Y53.3759 
G01 X-11.9110 Y53.5376 
G00 Z2.0000 
G00 X-11.9110 Y58.0588 
G01 Z-0.0250 F254.00 
G01 X-11.9110 Y58.2224 F508.00 
G01 X-11.8854 Y58.3841 
G01 X-11.8348 Y58.5397 
G01 X-11.7605 Y58.6856 
G01 X-11.6643 Y58.8180 
G01 X-11.5486 Y58.9337 
G01 X-11.4162 Y59.0299 
G01 X-11.2703 Y59.1042 
G01 X-11.1147 Y59.1548 
G01 X-10.9530 Y59.1804 
G01 X-10.7894 Y59.1804 
G01 X-10.6277 Y59.1548 
G01 X-10.4721 Y59.1042 
G01 X-10.3262 Y59.0299 
G01 X-10.1938 Y58.9337 
G01 X-10.0781 Y58.8180 
G01 X-9.9819 Y58.6856 
G01 X-9.9076 Y58.5397 
G01 X-9.8570 Y58.3841 
G01 X-9.8314 Y58.2224 
G01 X-9.8314 Y58.0588 
G01 X-9.8570 Y57.8971 
G01 X-9.9076 Y57.7415 
G01 X-9.9819 Y57.5956 
G01 X-10.0781 Y57.4632 
G01 X-10.1938 Y57.3475 
G01 X-10.3262 Y57.2513 
G01 X-10.4721 Y57.1770 
G01 X-10.6277 Y57.1264 
G01 X-10.7894 Y57.1008 
G01 X-10.9530 Y57.1008 
G01 X-11.1147 Y57.1264 
G01 X-11.2703 Y57.1770 
G01 X-11.4162 Y57.2513 
G01 X-11.5486 Y57.3475 
G01 X-11.6643 Y57.4632 
G01 X-11.7605 Y57.5956 
G01 X-11.8348 Y57.7415 
G01 X-11.8854 Y57.8971 
G01 X-11.9110 Y58.0588 
G00 Z2.0000 
G00 X-5.4086 Y58.0588 
G01 Z-0.0250 F254.00 
G01 X-5.4086 Y58.2224 F508.00 
G01 X-5.3830 Y58.3841 
G01 X-5.3324 Y58.5397 
G01 X-5.2581 Y58.6856 
G01 X-5.1619 Y58.8180 
G01 X-5.0462 Y58.9337 
G01 X-4.9138 Y59.0299 
G01 X-4.7679 Y59.1042 
G01 X-4.6123 Y59.1548 
G01 X-4.4506 Y59.1804 
G01 X-4.2870 Y59.1804 
G01 X-4.1253 Y59.1548 
G01 X-3.9697 Y59.1042 
G01 X-3.8238 Y59.0299 
G01 X-3.6914 Y58.9337 
G01 X-3.5757 Y58.8180 
G01 X-3.4795 Y58.6856 
G01 X-3.4052 Y58.5397 
G01 X-3.3546 Y58.3841 
G01 X-3.3290 Y58.2224 
G01 X-3.3290 Y58.0588 
G01 X-3.3546 Y57.8971 
G01 X-3.4052 Y57.7415 
G01 X-3.4795 Y57.5956 
G01 X-3.5757 Y57.4632 
G01 X-3.6914 Y57.3475 
G01 X-3.8238 Y57.2513 
G01 X-3.9697 Y57.1770 
G01 X-4.1253 Y57.1264 
G01 X-4.2870 Y57.1008 
G01 X-4.4506 Y57.1008 
G01 X-4.6123 Y57.1264 
G01 X-4.7679 Y57.1770 
G01 X-4.9138 Y57.2513 
G01 X-5.0462 Y57.3475 
G01 X-5.1619 Y57.4632 
G01 X-5.2581 Y57.5956 
G01 X-5.3324 Y57.7415 
G01 X-5.3830 Y57.8971 
G01 X-5.4086 Y58.0588 
G00 Z2.0000 
G00 X-42.3910 Y53.5376 
G01 Z-0.0250 F254.00 
G01 X-42.3910 Y53.7012 F508.00 
G01 X-42.3654 Y53.8629 
G01 X-42.3148 Y54.0185 
G01 X-42.2405 Y54.1644 
G01 X-42.1443 Y54.2968 
G01 X-42.0286 Y54.4125 
G01 X-41.8962 Y54.5087 
G01 X-41.7503 Y54.5830 
G01 X-41.5947 Y54.6336 
G01 X-41.4330 Y54.6592 
G01 X-41.2694 Y54.6592 
G01 X-41.1077 Y54.6336 
G01 X-40.9521 Y54.5830 
G01 X-40.8062 Y54.5087 
G01 X-40.6738 Y54.4125 
G01 X-40.5581 Y54.2968 
G01 X-40.4619 Y54.1644 
G01 X-40.3876 Y54.0185 
G01 X-40.3370 Y53.8629 
G01 X-40.3114 Y53.7012 
G01 X-40.3114 Y53.5376 
G01 X-40.3370 Y53.3759 
G01 X-40.3876 Y53.2203 
G01 X-40.4619 Y53.0744 
G01 X-40.5581 Y52.9420 
G01 X-40.6738 Y52.8263 
G01 X-40.8062 Y52.7301 
G01 X-40.9521 Y52.6558 
G01 X-41.1077 Y52.6052 
G01 X-41.2694 Y52.5796 
G01 X-41.4330 Y52.5796 
G01 X-41.5947 Y52.6052 
G01 X-41.7503 Y52.6558 
G01 X-41.8962 Y52.7301 
G01 X-42.0286 Y52.8263 
G01 X-42.1443 Y52.9420 
G01 X-42.2405 Y53.0744 
G01 X-42.3148 Y53.2203 
G01 X-42.3654 Y53.3759 
G01 X-42.3910 Y53.5376 
G00 Z2.0000 
G00 X-35.8886 Y53.5376 
G01 Z-0.0250 F254.00 
G01 X-35.8886 Y53.7012 F508.00 
G01 X-35.8630 Y53.8629 
G01 X-35.8124 Y54.0185 
G01 X-35.7381 Y54.1644 
G01 X-35.6419 Y54.2968 
G01 X-35.5262 Y54.4125 
G01 X-35.3938 Y54.5087 
G01 X-35.2479 Y54.5830 
G01 X-35.0923 Y54.6336 
G01 X-34.9306 Y54.6592 
G01 X-34.7670 Y54.6592 
G01 X-34.6053 Y54.6336 
G01 X-34.4497 Y54.5830 
G01 X-34.3038 Y54.5087 
G01 X-34.1714 Y54.4125 
G01 X-34.0557 Y54.2968 
G01 X-33.9595 Y54.1644 
G01 X-33.8852 Y54.0185 
G01 X-33.8346 Y53.8629 
G01 X-33.8090 Y53.7012 
G01 X-33.8090 Y53.5376 
G01 X-33.8346 Y53.3759 
G01 X-33.8852 Y53.2203 
G01 X-33.9595 Y53.0744 
G01 X-34.0557 Y52.9420 
G01 X-34.1714 Y52.8263 
G01 X-34.3038 Y52.7301 
G01 X-34.4497 Y52.6558 
G01 X-34.6053 Y52.6052 
G01 X-34.7670 Y52.5796 
G01 X-34.9306 Y52.5796 
G01 X-35.0923 Y52.6052 
G01 X-35.2479 Y52.6558 
G01 X-35.3938 Y52.7301 
G01 X-35.5262 Y52.8263 
G01 X-35.6419 Y52.9420 
G01 X-35.7381 Y53.0744 
G01 X-35.8124 Y53.2203 
G01 X-35.8630 Y53.3759 
G01 X-35.8886 Y53.5376 
G00 Z2.0000 
G00 X-42.3910 Y58.0588 
G01 Z-0.0250 F254.00 
G01 X-42.3910 Y58.2224 F508.00 
G01 X-42.3654 Y58.3841 
G01 X-42.3148 Y58.5397 
G01 X-42.2405 Y58.6856 
G01 X-42.1443 Y58.8180 
G01 X-42.0286 Y58.9337 
G01 X-41.8962 Y59.0299 
G01 X-41.7503 Y59.1042 
G01 X-41.5947 Y59.1548 
G01 X-41.4330 Y59.1804 
G01 X-41.2694 Y59.1804 
G01 X-41.1077 Y59.1548 
G01 X-40.9521 Y59.1042 
G01 X-40.8062 Y59.0299 
G01 X-40.6738 Y58.9337 
G01 X-40.5581 Y58.8180 
G01 X-40.4619 Y58.6856 
G01 X-40.3876 Y58.5397 
G01 X-40.3370 Y58.3841 
G01 X-40.3114 Y58.2224 
G01 X-40.3114 Y58.0588 
G01 X-40.3370 Y57.8971 
G01 X-40.3876 Y57.7415 
G01 X-40.4619 Y57.5956 
G01 X-40.5581 Y57.4632 
G01 X-40.6738 Y57.3475 
G01 X-40.8062 Y57.2513 
G01 X-40.9521 Y57.1770 
G01 X-41.1077 Y57.1264 
G01 X-41.2694 Y57.1008 
G01 X-41.4330 Y57.1008 
G01 X-41.5947 Y57.1264 
G01 X-41.7503 Y57.1770 
G01 X-41.8962 Y57.2513 
G01 X-42.0286 Y57.3475 
G01 X-42.1443 Y57.4632 
G01 X-42.2405 Y57.5956 
G01 X-42.3148 Y57.7415 
G01 X-42.3654 Y57.8971 
G01 X-42.3910 Y58.0588 
G00 Z2.0000 
G00 X-35.8886 Y58.0588 
G01 Z-0.0250 F254.00 
G01 X-35.8886 Y58.2224 F508.00 
G01 X-35.8630 Y58.3841 
G01 X-35.8124 Y58.5397 
G01 X-35.7381 Y58.6856 
G01 X-35.6419 Y58.8180 
G01 X-35.5262 Y58.9337 
G01 X-35.3938 Y59.0299 
G01 X-35.2479 Y59.1042 
G01 X-35.0923 Y59.1548 
G01 X-34.9306 Y59.1804 
G01 X-34.7670 Y59.1804 
G01 X-34.6053 Y59.1548 
G01 X-34.4497 Y59.1042 
G01 X-34.3699 Y59.0636 
G01 X-33.7519 Y59.6816 
G01 X-33.6816 Y59.7519 
G01 X-33.5897 Y59.7900 
G01 X-15.7403 Y59.7900 
G01 X-15.6484 Y59.7519 
G01 X-14.9761 Y59.0797 
G01 X-14.9279 Y59.1042 
G01 X-14.7723 Y59.1548 
G01 X-14.6106 Y59.1804 
G01 X-14.4470 Y59.1804 
G01 X-14.2853 Y59.1548 
G01 X-14.1297 Y59.1042 
G01 X-13.9838 Y59.0299 
G01 X-13.8514 Y58.9337 
G01 X-13.7357 Y58.8180 
G01 X-13.6395 Y58.6856 
G01 X-13.5652 Y58.5397 
G01 X-13.5146 Y58.3841 
G01 X-13.4890 Y58.2224 
G01 X-13.4890 Y58.0588 
G01 X-13.5146 Y57.8971 
G01 X-13.5652 Y57.7415 
G01 X-13.6395 Y57.5956 
G01 X-13.7357 Y57.4632 
G01 X-13.8514 Y57.3475 
G01 X-13.9838 Y57.2513 
G01 X-14.1297 Y57.1770 
G01 X-14.2853 Y57.1264 
G01 X-14.4470 Y57.1008 
G01 X-14.6106 Y57.1008 
G01 X-14.7723 Y57.1264 
G01 X-14.9279 Y57.1770 
G01 X-15.0738 Y57.2513 
G01 X-15.2062 Y57.3475 
G01 X-15.3219 Y57.4632 
G01 X-15.4181 Y57.5956 
G01 X-15.4924 Y57.7415 
G01 X-15.5430 Y57.8971 
G01 X-15.5686 Y58.0588 
G01 X-15.5686 Y58.2224 
G01 X-15.5430 Y58.3841 
G01 X-15.4924 Y58.5397 
G01 X-15.4181 Y58.6856 
G01 X-15.3638 Y58.7603 
G01 X-15.8936 Y59.2900 
G01 X-23.1864 Y59.2900 
G01 X-23.7966 Y58.6799 
G01 X-23.7252 Y58.5397 
G01 X-23.6746 Y58.3841 
G01 X-23.6490 Y58.2224 
G01 X-23.6490 Y58.0588 
G01 X-23.6746 Y57.8971 
G01 X-23.7252 Y57.7415 
G01 X-23.7995 Y57.5956 
G01 X-23.8957 Y57.4632 
G01 X-24.0114 Y57.3475 
G01 X-24.1438 Y57.2513 
G01 X-24.2897 Y57.1770 
G01 X-24.4453 Y57.1264 
G01 X-24.6070 Y57.1008 
G01 X-24.7706 Y57.1008 
G01 X-24.9323 Y57.1264 
G01 X-25.0879 Y57.1770 
G01 X-25.2338 Y57.2513 
G01 X-25.3662 Y57.3475 
G01 X-25.4819 Y57.4632 
G01 X-25.5781 Y57.5956 
G01 X-25.6524 Y57.7415 
G01 X-25.7030 Y57.8971 
G01 X-25.7286 Y58.0588 
G01 X-25.7286 Y58.2224 
G01 X-25.7030 Y58.3841 
G01 X-25.6524 Y58.5397 
G01 X-25.5781 Y58.6856 
G01 X-25.4819 Y58.8180 
G01 X-25.3662 Y58.9337 
G01 X-25.2338 Y59.0299 
G01 X-25.0879 Y59.1042 
G01 X-24.9323 Y59.1548 
G01 X-24.7706 Y59.1804 
G01 X-24.6070 Y59.1804 
G01 X-24.4453 Y59.1548 
G01 X-24.2897 Y59.1042 
G01 X-24.1503 Y59.0332 
G01 X-23.8935 Y59.2900 
G01 X-33.4364 Y59.2900 
G01 X-33.9937 Y58.7327 
G01 X-33.9595 Y58.6856 
G01 X-33.8852 Y58.5397 
G01 X-33.8346 Y58.3841 
G01 X-33.8090 Y58.2224 
G01 X-33.8090 Y58.0588 
G01 X-33.8346 Y57.8971 
G01 X-33.8852 Y57.7415 
G01 X-33.9595 Y57.5956 
G01 X-34.0557 Y57.4632 
G01 X-34.1714 Y57.3475 
G01 X-34.3038 Y57.2513 
G01 X-34.4497 Y57.1770 
G01 X-34.6053 Y57.1264 
G01 X-34.7670 Y57.1008 
G01 X-34.9306 Y57.1008 
G01 X-35.0923 Y57.1264 
G01 X-35.2479 Y57.1770 
G01 X-35.3938 Y57.2513 
G01 X-35.5262 Y57.3475 
G01 X-35.6419 Y57.4632 
G01 X-35.7381 Y57.5956 
G01 X-35.8124 Y57.7415 
G01 X-35.8630 Y57.8971 
G01 X-35.8886 Y58.0588 
G00 Z2.0000 
G00 X-22.0710 Y53.5376 
G01 Z-0.0250 F254.00 
G01 X-22.0710 Y53.7012 F508.00 
G01 X-22.0454 Y53.8629 
G01 X-21.9948 Y54.0185 
G01 X-21.9205 Y54.1644 
G01 X-21.8243 Y54.2968 
G01 X-21.7086 Y54.4125 
G01 X-21.5762 Y54.5087 
G01 X-21.4303 Y54.5830 
G01 X-21.2747 Y54.6336 
G01 X-21.1130 Y54.6592 
G01 X-20.9494 Y54.6592 
G01 X-20.7877 Y54.6336 
G01 X-20.6321 Y54.5830 
G01 X-20.4862 Y54.5087 
G01 X-20.3538 Y54.4125 
G01 X-20.2381 Y54.2968 
G01 X-20.1419 Y54.1644 
G01 X-20.0676 Y54.0185 
G01 X-20.0170 Y53.8629 
G01 X-19.9914 Y53.7012 
G01 X-19.9914 Y53.5376 
G01 X-20.0170 Y53.3759 
G01 X-20.0676 Y53.2203 
G01 X-20.1419 Y53.0744 
G01 X-20.2381 Y52.9420 
G01 X-20.3538 Y52.8263 
G01 X-20.4862 Y52.7301 
G01 X-20.6321 Y52.6558 
G01 X-20.7877 Y52.6052 
G01 X-20.9494 Y52.5796 
G01 X-21.1130 Y52.5796 
G01 X-21.2747 Y52.6052 
G01 X-21.4303 Y52.6558 
G01 X-21.5762 Y52.7301 
G01 X-21.7086 Y52.8263 
G01 X-21.8243 Y52.9420 
G01 X-21.9205 Y53.0744 
G01 X-21.9948 Y53.2203 
G01 X-22.0454 Y53.3759 
G01 X-22.0710 Y53.5376 
G00 Z2.0000 
G00 X-15.5686 Y53.5376 
G01 Z-0.0250 F254.00 
G01 X-15.5686 Y53.7012 F508.00 
G01 X-15.5430 Y53.8629 
G01 X-15.4924 Y54.0185 
G01 X-15.4181 Y54.1644 
G01 X-15.3219 Y54.2968 
G01 X-15.2062 Y54.4125 
G01 X-15.0738 Y54.5087 
G01 X-14.9279 Y54.5830 
G01 X-14.7723 Y54.6336 
G01 X-14.6106 Y54.6592 
G01 X-14.4470 Y54.6592 
G01 X-14.2853 Y54.6336 
G01 X-14.1297 Y54.5830 
G01 X-13.9838 Y54.5087 
G01 X-13.8514 Y54.4125 
G01 X-13.7357 Y54.2968 
G01 X-13.6395 Y54.1644 
G01 X-13.5652 Y54.0185 
G01 X-13.5146 Y53.8629 
G01 X-13.4890 Y53.7012 
G01 X-13.4890 Y53.5376 
G01 X-13.5146 Y53.3759 
G01 X-13.5652 Y53.2203 
G01 X-13.6395 Y53.0744 
G01 X-13.7357 Y52.9420 
G01 X-13.8514 Y52.8263 
G01 X-13.9838 Y52.7301 
G01 X-14.1297 Y52.6558 
G01 X-14.2853 Y52.6052 
G01 X-14.4470 Y52.5796 
G01 X-14.6106 Y52.5796 
G01 X-14.7723 Y52.6052 
G01 X-14.9279 Y52.6558 
G01 X-15.0225 Y52.7040 
G01 X-20.8984 Y46.8281 
G01 X-20.9903 Y46.7900 
G01 X-48.6391 Y46.7900 
G01 X-48.6523 Y46.7237 
G01 X-48.7211 Y46.5576 
G01 X-48.8210 Y46.4081 
G01 X-48.9481 Y46.2810 
G01 X-49.0976 Y46.1811 
G01 X-49.2637 Y46.1123 
G01 X-49.4401 Y46.0772 
G01 X-49.6199 Y46.0772 
G01 X-49.7963 Y46.1123 
G01 X-49.9624 Y46.1811 
G01 X-50.1119 Y46.2810 
G01 X-50.2390 Y46.4081 
G01 X-50.3389 Y46.5576 
G01 X-50.4077 Y46.7237 
G01 X-50.4428 Y46.9001 
G01 X-50.4428 Y47.0799 
G01 X-50.4077 Y47.2563 
G01 X-50.3389 Y47.4224 
G01 X-50.2390 Y47.5719 
G01 X-50.1119 Y47.6990 
G01 X-49.9624 Y47.7989 
G01 X-49.7963 Y47.8677 
G01 X-49.6199 Y47.9028 
G01 X-49.4401 Y47.9028 
G01 X-49.2637 Y47.8677 
G01 X-49.0976 Y47.7989 
G01 X-48.9481 Y47.6990 
G01 X-48.8210 Y47.5719 
G01 X-48.7211 Y47.4224 
G01 X-48.6663 Y47.2900 
G01 X-21.1436 Y47.2900 
G01 X-15.3933 Y53.0403 
G01 X-15.4181 Y53.0744 
G01 X-15.4924 Y53.2203 
G01 X-15.5430 Y53.3759 
G01 X-15.5686 Y53.5376 
G00 Z2.0000 
G00 X-22.0710 Y58.0588 
G01 Z-0.0250 F254.00 
G01 X-22.0710 Y58.2224 F508.00 
G01 X-22.0454 Y58.3841 
G01 X-21.9948 Y58.5397 
G01 X-21.9205 Y58.6856 
G01 X-21.8243 Y58.8180 
G01 X-21.7086 Y58.9337 
G01 X-21.5762 Y59.0299 
G01 X-21.4303 Y59.1042 
G01 X-21.2747 Y59.1548 
G01 X-21.1130 Y59.1804 
G01 X-20.9494 Y59.1804 
G01 X-20.7877 Y59.1548 
G01 X-20.6321 Y59.1042 
G01 X-20.4862 Y59.0299 
G01 X-20.3538 Y58.9337 
G01 X-20.2381 Y58.8180 
G01 X-20.1419 Y58.6856 
G01 X-20.0676 Y58.5397 
G01 X-20.0170 Y58.3841 
G01 X-19.9914 Y58.2224 
G01 X-19.9914 Y58.0588 
G01 X-20.0170 Y57.8971 
G01 X-20.0676 Y57.7415 
G01 X-20.1419 Y57.5956 
G01 X-20.2381 Y57.4632 
G01 X-20.3538 Y57.3475 
G01 X-20.4862 Y57.2513 
G01 X-20.6321 Y57.1770 
G01 X-20.7877 Y57.1264 
G01 X-20.9494 Y57.1008 
G01 X-21.1130 Y57.1008 
G01 X-21.2747 Y57.1264 
G01 X-21.4303 Y57.1770 
G01 X-21.5762 Y57.2513 
G01 X-21.7086 Y57.3475 
G01 X-21.8243 Y57.4632 
G01 X-21.9205 Y57.5956 
G01 X-21.9948 Y57.7415 
G01 X-22.0454 Y57.8971 
G01 X-22.0710 Y58.0588 
G00 Z2.0000 
G00 X-30.9388 Y8.4111 
G01 Z-0.0250 F254.00 
G01 X-30.9388 Y6.8289 F508.00 
G01 X-30.9700 Y6.6722 
G01 X-31.0311 Y6.5246 
G01 X-31.1199 Y6.3917 
G01 X-31.2329 Y6.2787 
G01 X-31.3658 Y6.1899 
G01 X-31.5134 Y6.1288 
G01 X-31.6701 Y6.0976 
G01 X-31.8299 Y6.0976 
G01 X-31.9866 Y6.1288 
G01 X-32.1342 Y6.1899 
G01 X-32.2671 Y6.2787 
G01 X-32.3801 Y6.3917 
G01 X-32.4689 Y6.5246 
G01 X-32.5300 Y6.6722 
G01 X-32.5612 Y6.8289 
G01 X-32.5612 Y8.4111 
G01 X-32.5300 Y8.5678 
G01 X-32.4689 Y8.7154 
G01 X-32.3801 Y8.8483 
G01 X-32.2671 Y8.9613 
G01 X-32.1342 Y9.0501 
G01 X-31.9866 Y9.1112 
G01 X-31.8299 Y9.1424 
G01 X-31.6701 Y9.1424 
G01 X-31.5134 Y9.1112 
G01 X-31.3658 Y9.0501 
G01 X-31.2329 Y8.9613 
G01 X-31.1199 Y8.8483 
G01 X-31.0311 Y8.7154 
G01 X-30.9700 Y8.5678 
G01 X-30.9388 Y8.4111 
G00 Z2.0000 
G00 X-28.3988 Y8.4111 
G01 Z-0.0250 F254.00 
G01 X-28.3988 Y6.8289 F508.00 
G01 X-28.4300 Y6.6722 
G01 X-28.4911 Y6.5246 
G01 X-28.5799 Y6.3917 
G01 X-28.6929 Y6.2787 
G01 X-28.8258 Y6.1899 
G01 X-28.9734 Y6.1288 
G01 X-29.1301 Y6.0976 
G01 X-29.2899 Y6.0976 
G01 X-29.4466 Y6.1288 
G01 X-29.5942 Y6.1899 
G01 X-29.7271 Y6.2787 
G01 X-29.8401 Y6.3917 
G01 X-29.9289 Y6.5246 
G01 X-29.9900 Y6.6722 
G01 X-30.0212 Y6.8289 
G01 X-30.0212 Y8.4111 
G01 X-29.9900 Y8.5678 
G01 X-29.9289 Y8.7154 
G01 X-29.8401 Y8.8483 
G01 X-29.7271 Y8.9613 
G01 X-29.5942 Y9.0501 
G01 X-29.4466 Y9.1112 
G01 X-29.2899 Y9.1424 
G01 X-29.1301 Y9.1424 
G01 X-28.9734 Y9.1112 
G01 X-28.8258 Y9.0501 
G01 X-28.6929 Y8.9613 
G01 X-28.5799 Y8.8483 
G01 X-28.4911 Y8.7154 
G01 X-28.4300 Y8.5678 
G01 X-28.3988 Y8.4111 
G00 Z2.0000 
G00 X-25.8588 Y8.4111 
G01 Z-0.0250 F254.00 
G01 X-25.8588 Y6.8289 F508.00 
G01 X-25.8900 Y6.6722 
G01 X-25.9511 Y6.5246 
G01 X-26.0399 Y6.3917 
G01 X-26.1529 Y6.2787 
G01 X-26.2858 Y6.1899 
G01 X-26.4334 Y6.1288 
G01 X-26.5901 Y6.0976 
G01 X-26.7499 Y6.0976 
G01 X-26.9066 Y6.1288 
G01 X-27.0542 Y6.1899 
G01 X-27.1871 Y6.2787 
G01 X-27.3001 Y6.3917 
G01 X-27.3889 Y6.5246 
G01 X-27.4073 Y6.5691 
G01 X-28.3281 Y5.6484 
G01 X-28.3984 Y5.5781 
G01 X-28.4903 Y5.5400 
G01 X-42.5897 Y5.5400 
G01 X-42.6816 Y5.5781 
G01 X-44.1436 Y7.0400 
G01 X-48.4365 Y7.0400 
G01 X-47.7679 Y6.3715 
G01 X-47.6990 Y6.4747 
G01 X-47.5719 Y6.6018 
G01 X-47.4224 Y6.7017 
G01 X-47.2563 Y6.7705 
G01 X-47.0799 Y6.8056 
G01 X-46.9001 Y6.8056 
G01 X-46.7237 Y6.7705 
G01 X-46.5576 Y6.7017 
G01 X-46.4081 Y6.6018 
G01 X-46.2810 Y6.4747 
G01 X-46.1811 Y6.3252 
G01 X-46.1123 Y6.1591 
G01 X-46.0772 Y5.9827 
G01 X-46.0772 Y4.1773 
G01 X-46.1123 Y4.0009 
G01 X-46.1811 Y3.8348 
G01 X-46.2810 Y3.6853 
G01 X-46.4081 Y3.5582 
G01 X-46.5576 Y3.4583 
G01 X-46.7237 Y3.3895 
G01 X-46.9001 Y3.3544 
G01 X-47.0799 Y3.3544 
G01 X-47.2563 Y3.3895 
G01 X-47.4224 Y3.4583 
G01 X-47.5719 Y3.5582 
G01 X-47.6990 Y3.6853 
G01 X-47.7989 Y3.8348 
G01 X-47.8677 Y4.0009 
G01 X-47.9028 Y4.1773 
G01 X-47.9028 Y5.7992 
G01 X-49.2519 Y7.1484 
G01 X-51.2975 Y9.1940 
G01 X-51.3511 Y9.0646 
G01 X-51.4399 Y8.9317 
G01 X-51.5529 Y8.8187 
G01 X-51.6858 Y8.7299 
G01 X-51.8334 Y8.6688 
G01 X-51.9901 Y8.6376 
G01 X-52.1499 Y8.6376 
G01 X-52.3066 Y8.6688 
G01 X-52.4542 Y8.7299 
G01 X-52.5871 Y8.8187 
G01 X-52.7001 Y8.9317 
G01 X-52.7889 Y9.0646 
G01 X-52.8500 Y9.2122 
G01 X-52.8812 Y9.3689 
G01 X-52.8812 Y10.9511 
G01 X-52.8500 Y11.1078 
G01 X-52.7889 Y11.2554 
G01 X-52.7001 Y11.3883 
G01 X-52.5871 Y11.5013 
G01 X-52.4542 Y11.5901 
G01 X-52.3066 Y11.6512 
G01 X-52.1499 Y11.6824 
G01 X-51.9901 Y11.6824 
G01 X-51.8334 Y11.6512 
G01 X-51.6858 Y11.5901 
G01 X-51.5529 Y11.5013 
G01 X-51.4399 Y11.3883 
G01 X-51.3511 Y11.2554 
G01 X-51.2900 Y11.1078 
G01 X-51.2588 Y10.9511 
G01 X-51.2588 Y9.8624 
G01 X-48.9364 Y7.5400 
G01 X-43.9903 Y7.5400 
G01 X-43.8984 Y7.5019 
G01 X-43.8281 Y7.4316 
G01 X-42.4364 Y6.0400 
G01 X-28.6436 Y6.0400 
G01 X-27.4812 Y7.2024 
G01 X-27.4812 Y8.4111 
G01 X-27.4500 Y8.5678 
G01 X-27.3889 Y8.7154 
G01 X-27.3001 Y8.8483 
G01 X-27.1871 Y8.9613 
G01 X-27.0542 Y9.0501 
G01 X-26.9066 Y9.1112 
G01 X-26.7499 Y9.1424 
G01 X-26.5901 Y9.1424 
G01 X-26.4334 Y9.1112 
G01 X-26.2858 Y9.0501 
G01 X-26.1529 Y8.9613 
G01 X-26.0399 Y8.8483 
G01 X-25.9511 Y8.7154 
G01 X-25.8900 Y8.5678 
G01 X-25.8588 Y8.4111 
G00 Z2.0000 
G00 X-23.3188 Y8.4111 
G01 Z-0.0250 F254.00 
G01 X-23.3188 Y6.8289 F508.00 
G01 X-23.3500 Y6.6722 
G01 X-23.4111 Y6.5246 
G01 X-23.4999 Y6.3917 
G01 X-23.6129 Y6.2787 
G01 X-23.7458 Y6.1899 
G01 X-23.8934 Y6.1288 
G01 X-24.0501 Y6.0976 
G01 X-24.2099 Y6.0976 
G01 X-24.3666 Y6.1288 
G01 X-24.5142 Y6.1899 
G01 X-24.6471 Y6.2787 
G01 X-24.7601 Y6.3917 
G01 X-24.8489 Y6.5246 
G01 X-24.9100 Y6.6722 
G01 X-24.9412 Y6.8289 
G01 X-24.9412 Y8.4111 
G01 X-24.9100 Y8.5678 
G01 X-24.8489 Y8.7154 
G01 X-24.7601 Y8.8483 
G01 X-24.6471 Y8.9613 
G01 X-24.5142 Y9.0501 
G01 X-24.3666 Y9.1112 
G01 X-24.2099 Y9.1424 
G01 X-24.0501 Y9.1424 
G01 X-23.8934 Y9.1112 
G01 X-23.7458 Y9.0501 
G01 X-23.6129 Y8.9613 
G01 X-23.4999 Y8.8483 
G01 X-23.4111 Y8.7154 
G01 X-23.3500 Y8.5678 
G01 X-23.3188 Y8.4111 
G00 Z2.0000 
G00 X-20.7788 Y8.4111 
G01 Z-0.0250 F254.00 
G01 X-20.7788 Y6.8289 F508.00 
G01 X-20.8100 Y6.6722 
G01 X-20.8711 Y6.5246 
G01 X-20.9599 Y6.3917 
G01 X-21.0729 Y6.2787 
G01 X-21.2058 Y6.1899 
G01 X-21.3534 Y6.1288 
G01 X-21.5101 Y6.0976 
G01 X-21.6699 Y6.0976 
G01 X-21.8266 Y6.1288 
G01 X-21.9742 Y6.1899 
G01 X-22.1071 Y6.2787 
G01 X-22.2201 Y6.3917 
G01 X-22.3089 Y6.5246 
G01 X-22.3700 Y6.6722 
G01 X-22.4012 Y6.8289 
G01 X-22.4012 Y8.4111 
G01 X-22.3700 Y8.5678 
G01 X-22.3089 Y8.7154 
G01 X-22.2201 Y8.8483 
G01 X-22.1071 Y8.9613 
G01 X-21.9742 Y9.0501 
G01 X-21.8266 Y9.1112 
G01 X-21.6699 Y9.1424 
G01 X-21.5101 Y9.1424 
G01 X-21.3534 Y9.1112 
G01 X-21.2058 Y9.0501 
G01 X-21.0729 Y8.9613 
G01 X-20.9599 Y8.8483 
G01 X-20.8711 Y8.7154 
G01 X-20.8100 Y8.5678 
G01 X-20.7788 Y8.4111 
G00 Z2.0000 
G00 X-18.2388 Y8.4111 
G01 Z-0.0250 F254.00 
G01 X-18.2388 Y6.8289 F508.00 
G01 X-18.2700 Y6.6722 
G01 X-18.3311 Y6.5246 
G01 X-18.4199 Y6.3917 
G01 X-18.5329 Y6.2787 
G01 X-18.6657 Y6.1899 
G01 X-18.8134 Y6.1288 
G01 X-18.9701 Y6.0976 
G01 X-19.1299 Y6.0976 
G01 X-19.2866 Y6.1288 
G01 X-19.4342 Y6.1899 
G01 X-19.5671 Y6.2787 
G01 X-19.6801 Y6.3917 
G01 X-19.7689 Y6.5246 
G01 X-19.8300 Y6.6722 
G01 X-19.8612 Y6.8289 
G01 X-19.8612 Y8.4111 
G01 X-19.8300 Y8.5678 
G01 X-19.7689 Y8.7154 
G01 X-19.6801 Y8.8483 
G01 X-19.5671 Y8.9613 
G01 X-19.4342 Y9.0501 
G01 X-19.2866 Y9.1112 
G01 X-19.1299 Y9.1424 
G01 X-18.9701 Y9.1424 
G01 X-18.8134 Y9.1112 
G01 X-18.6657 Y9.0501 
G01 X-18.5329 Y8.9613 
G01 X-18.4199 Y8.8483 
G01 X-18.3311 Y8.7154 
G01 X-18.2700 Y8.5678 
G01 X-18.2388 Y8.4111 
G00 Z2.0000 
G00 X-15.6988 Y8.4111 
G01 Z-0.0250 F254.00 
G01 X-15.6988 Y6.8289 F508.00 
G01 X-15.7300 Y6.6722 
G01 X-15.7911 Y6.5246 
G01 X-15.8799 Y6.3917 
G01 X-15.9929 Y6.2787 
G01 X-16.1258 Y6.1899 
G01 X-16.2734 Y6.1288 
G01 X-16.4301 Y6.0976 
G01 X-16.5899 Y6.0976 
G01 X-16.7466 Y6.1288 
G01 X-16.8942 Y6.1899 
G01 X-17.0271 Y6.2787 
G01 X-17.1401 Y6.3917 
G01 X-17.2289 Y6.5246 
G01 X-17.2900 Y6.6722 
G01 X-17.3212 Y6.8289 
G01 X-17.3212 Y8.2176 
G01 X-21.8936 Y12.7900 
G01 X-45.7355 Y12.7900 
G01 X-45.7512 Y12.7520 
G01 X-45.8177 Y12.6524 
G01 X-45.9024 Y12.5677 
G01 X-46.0020 Y12.5012 
G01 X-46.1127 Y12.4554 
G01 X-46.2301 Y12.4320 
G01 X-46.3499 Y12.4320 
G01 X-46.4673 Y12.4554 
G01 X-46.5780 Y12.5012 
G01 X-46.6776 Y12.5677 
G01 X-46.7623 Y12.6524 
G01 X-46.8288 Y12.7520 
G01 X-46.8746 Y12.8627 
G01 X-46.8980 Y12.9801 
G01 X-46.8980 Y13.0999 
G01 X-46.8746 Y13.2173 
G01 X-46.8288 Y13.3280 
G01 X-46.7623 Y13.4276 
G01 X-46.6776 Y13.5123 
G01 X-46.5780 Y13.5788 
G01 X-46.4673 Y13.6246 
G01 X-46.3499 Y13.6480 
G01 X-46.2301 Y13.6480 
G01 X-46.1127 Y13.6246 
G01 X-46.0020 Y13.5788 
G01 X-45.9024 Y13.5123 
G01 X-45.8177 Y13.4276 
G01 X-45.7512 Y13.3280 
G01 X-45.7355 Y13.2900 
G01 X-21.7403 Y13.2900 
G01 X-21.6484 Y13.2519 
G01 X-21.5781 Y13.1816 
G01 X-17.1820 Y8.7856 
G01 X-17.1401 Y8.8483 
G01 X-17.0271 Y8.9613 
G01 X-16.8942 Y9.0501 
G01 X-16.7466 Y9.1112 
G01 X-16.5899 Y9.1424 
G01 X-16.4301 Y9.1424 
G01 X-16.2734 Y9.1112 
G01 X-16.1258 Y9.0501 
G01 X-15.9929 Y8.9613 
G01 X-15.8799 Y8.8483 
G01 X-15.7911 Y8.7154 
G01 X-15.7300 Y8.5678 
G01 X-15.6988 Y8.4111 
G00 Z2.0000 
G00 X-60.0472 Y13.6027 
G01 Z-0.0250 F254.00 
G01 X-60.0472 Y11.7973 F508.00 
G01 X-60.0823 Y11.6209 
G01 X-60.1511 Y11.4548 
G01 X-60.2510 Y11.3053 
G01 X-60.3781 Y11.1782 
G01 X-60.5276 Y11.0783 
G01 X-60.6937 Y11.0095 
G01 X-60.8701 Y10.9744 
G01 X-61.0499 Y10.9744 
G01 X-61.2263 Y11.0095 
G01 X-61.3924 Y11.0783 
G01 X-61.5419 Y11.1782 
G01 X-61.6690 Y11.3053 
G01 X-61.7689 Y11.4548 
G01 X-61.8281 Y11.3984 
G01 X-61.8984 Y11.3281 
G01 X-61.9903 Y11.2900 
G01 X-64.3244 Y11.2900 
G01 X-64.3495 Y11.1637 
G01 X-64.4183 Y10.9976 
G01 X-64.5182 Y10.8481 
G01 X-64.6453 Y10.7210 
G01 X-64.7948 Y10.6211 
G01 X-64.9609 Y10.5523 
G01 X-65.1373 Y10.5172 
G01 X-66.9427 Y10.5172 
G01 X-67.1191 Y10.5523 
G01 X-67.2852 Y10.6211 
G01 X-67.4347 Y10.7210 
G01 X-67.5618 Y10.8481 
G01 X-67.6617 Y10.9976 
G01 X-67.7305 Y11.1637 
G01 X-67.7656 Y11.3401 
G01 X-67.7656 Y11.5199 
G01 X-67.7305 Y11.6963 
G01 X-67.6617 Y11.8624 
G01 X-67.5618 Y12.0119 
G01 X-67.4347 Y12.1390 
G01 X-67.2852 Y12.2389 
G01 X-67.1191 Y12.3077 
G01 X-66.9427 Y12.3428 
G01 X-65.1373 Y12.3428 
G01 X-64.9609 Y12.3077 
G01 X-64.7948 Y12.2389 
G01 X-64.6453 Y12.1390 
G01 X-64.5182 Y12.0119 
G01 X-64.4183 Y11.8624 
G01 X-64.3883 Y11.7900 
G01 X-62.1436 Y11.7900 
G01 X-61.8728 Y12.0608 
G01 X-61.8728 Y13.6027 
G01 X-61.8377 Y13.7791 
G01 X-61.7689 Y13.9452 
G01 X-61.6690 Y14.0947 
G01 X-61.5419 Y14.2218 
G01 X-61.3924 Y14.3217 
G01 X-61.2263 Y14.3905 
G01 X-61.0499 Y14.4256 
G01 X-60.8701 Y14.4256 
G01 X-60.6937 Y14.3905 
G01 X-60.5276 Y14.3217 
G01 X-60.3781 Y14.2218 
G01 X-60.2510 Y14.0947 
G01 X-60.1511 Y13.9452 
G01 X-60.0823 Y13.7791 
G01 X-60.0472 Y13.6027 
G00 Z2.0000 
G00 X-54.9672 Y13.6027 
G01 Z-0.0250 F254.00 
G01 X-54.9672 Y11.7973 F508.00 
G01 X-55.0023 Y11.6209 
G01 X-55.0711 Y11.4548 
G01 X-55.1710 Y11.3053 
G01 X-55.2981 Y11.1782 
G01 X-55.4476 Y11.0783 
G01 X-55.6137 Y11.0095 
G01 X-55.7901 Y10.9744 
G01 X-55.9699 Y10.9744 
G01 X-56.1463 Y11.0095 
G01 X-56.3124 Y11.0783 
G01 X-56.4619 Y11.1782 
G01 X-56.5890 Y11.3053 
G01 X-56.6889 Y11.4548 
G01 X-56.7577 Y11.6209 
G01 X-56.7928 Y11.7973 
G01 X-56.7928 Y13.6027 
G01 X-56.7577 Y13.7791 
G01 X-56.6889 Y13.9452 
G01 X-56.5890 Y14.0947 
G01 X-56.4619 Y14.2218 
G01 X-56.3124 Y14.3217 
G01 X-56.1463 Y14.3905 
G01 X-55.9699 Y14.4256 
G01 X-55.7901 Y14.4256 
G01 X-55.6137 Y14.3905 
G01 X-55.4476 Y14.3217 
G01 X-55.2981 Y14.2218 
G01 X-55.1710 Y14.0947 
G01 X-55.0711 Y13.9452 
G01 X-55.0023 Y13.7791 
G01 X-54.9672 Y13.6027 
G00 Z2.0000 
G00 X-66.9427 Y9.8028 
G01 Z-0.0250 F254.00 
G01 X-65.1373 Y9.8028 F508.00 
G01 X-64.9609 Y9.7677 
G01 X-64.7948 Y9.6989 
G01 X-64.6453 Y9.5990 
G01 X-64.5182 Y9.4719 
G01 X-64.4183 Y9.3224 
G01 X-64.4049 Y9.2900 
G01 X-56.8936 Y9.2900 
G01 X-52.8936 Y13.2900 
G01 X-53.5747 Y13.9711 
G01 X-53.6127 Y13.9554 
G01 X-53.7301 Y13.9320 
G01 X-53.8499 Y13.9320 
G01 X-53.9673 Y13.9554 
G01 X-54.0780 Y14.0012 
G01 X-54.1776 Y14.0677 
G01 X-54.2623 Y14.1524 
G01 X-54.3288 Y14.2520 
G01 X-54.3746 Y14.3627 
G01 X-54.3980 Y14.4801 
G01 X-54.3980 Y14.5999 
G01 X-54.3746 Y14.7173 
G01 X-54.3288 Y14.8280 
G01 X-54.2623 Y14.9276 
G01 X-54.1776 Y15.0123 
G01 X-54.0780 Y15.0788 
G01 X-53.9673 Y15.1246 
G01 X-53.8499 Y15.1480 
G01 X-53.7301 Y15.1480 
G01 X-53.6127 Y15.1246 
G01 X-53.5020 Y15.0788 
G01 X-53.4024 Y15.0123 
G01 X-53.3177 Y14.9276 
G01 X-53.2512 Y14.8280 
G01 X-53.2054 Y14.7173 
G01 X-53.1820 Y14.5999 
G01 X-53.1820 Y14.4801 
G01 X-53.2054 Y14.3627 
G01 X-53.2211 Y14.3247 
G01 X-52.5400 Y13.6436 
G01 X-51.9316 Y14.2519 
G01 X-51.8397 Y14.2900 
G01 X-11.3936 Y14.2900 
G01 X-10.8589 Y14.8247 
G01 X-10.8746 Y14.8627 
G01 X-10.8980 Y14.9801 
G01 X-10.8980 Y15.0999 
G01 X-10.8746 Y15.2173 
G01 X-10.8288 Y15.3280 
G01 X-10.7623 Y15.4276 
G01 X-10.6776 Y15.5123 
G01 X-10.5780 Y15.5788 
G01 X-10.4673 Y15.6246 
G01 X-10.3499 Y15.6480 
G01 X-10.2301 Y15.6480 
G01 X-10.1127 Y15.6246 
G01 X-10.0020 Y15.5788 
G01 X-9.9024 Y15.5123 
G01 X-9.8177 Y15.4276 
G01 X-9.7512 Y15.3280 
G01 X-9.7054 Y15.2173 
G01 X-9.6820 Y15.0999 
G01 X-9.6820 Y14.9801 
G01 X-9.7054 Y14.8627 
G01 X-9.7512 Y14.7520 
G01 X-9.8177 Y14.6524 
G01 X-9.9024 Y14.5677 
G01 X-10.0020 Y14.5012 
G01 X-10.1127 Y14.4554 
G01 X-10.2301 Y14.4320 
G01 X-10.3499 Y14.4320 
G01 X-10.4673 Y14.4554 
G01 X-10.5053 Y14.4711 
G01 X-11.0781 Y13.8984 
G01 X-11.1484 Y13.8281 
G01 X-11.2403 Y13.7900 
G01 X-51.6864 Y13.7900 
G01 X-52.3281 Y13.1484 
G01 X-52.3984 Y13.0781 
G01 X-56.5781 Y8.8984 
G01 X-56.6484 Y8.8281 
G01 X-56.7403 Y8.7900 
G01 X-64.3164 Y8.7900 
G01 X-64.3495 Y8.6237 
G01 X-64.4183 Y8.4576 
G01 X-64.5182 Y8.3081 
G01 X-64.6453 Y8.1810 
G01 X-64.7948 Y8.0811 
G01 X-64.9609 Y8.0123 
G01 X-65.1373 Y7.9772 
G01 X-66.9427 Y7.9772 
G01 X-67.1191 Y8.0123 
G01 X-67.2852 Y8.0811 
G01 X-67.4347 Y8.1810 
G01 X-67.5618 Y8.3081 
G01 X-67.6617 Y8.4576 
G01 X-67.7305 Y8.6237 
G01 X-67.7656 Y8.8001 
G01 X-67.7656 Y8.9799 
G01 X-67.7305 Y9.1563 
G01 X-67.6617 Y9.3224 
G01 X-67.5618 Y9.4719 
G01 X-67.4347 Y9.5990 
G01 X-67.2852 Y9.6989 
G01 X-67.1191 Y9.7677 
G01 X-66.9427 Y9.8028 
G00 Z2.0000 
G00 X-49.9000 Y20.2412 
G01 Z-0.0250 F254.00 
G01 X-49.9000 Y20.3988 F508.00 
G01 X-49.8693 Y20.5534 
G01 X-49.8089 Y20.6989 
G01 X-49.8064 Y20.7028 
G01 X-50.3936 Y21.2900 
G01 X-61.0897 Y21.2900 
G01 X-61.1816 Y21.3281 
G01 X-61.2519 Y21.3984 
G01 X-66.8247 Y26.9711 
G01 X-66.8627 Y26.9554 
G01 X-66.9801 Y26.9320 
G01 X-67.0999 Y26.9320 
G01 X-67.2173 Y26.9554 
G01 X-67.3280 Y27.0012 
G01 X-67.4276 Y27.0677 
G01 X-67.5123 Y27.1524 
G01 X-67.5788 Y27.2520 
G01 X-67.6246 Y27.3627 
G01 X-67.6480 Y27.4801 
G01 X-67.6480 Y27.5999 
G01 X-67.6246 Y27.7173 
G01 X-67.5788 Y27.8280 
G01 X-67.5123 Y27.9276 
G01 X-67.4276 Y28.0123 
G01 X-67.3280 Y28.0788 
G01 X-67.2173 Y28.1246 
G01 X-67.0999 Y28.1480 
G01 X-66.9801 Y28.1480 
G01 X-66.8627 Y28.1246 
G01 X-66.7520 Y28.0788 
G01 X-66.6524 Y28.0123 
G01 X-66.5677 Y27.9276 
G01 X-66.5012 Y27.8280 
G01 X-66.4554 Y27.7173 
G01 X-66.4320 Y27.5999 
G01 X-66.4320 Y27.4801 
G01 X-66.4554 Y27.3627 
G01 X-66.4711 Y27.3247 
G01 X-60.9364 Y21.7900 
G01 X-50.2403 Y21.7900 
G01 X-50.1484 Y21.7519 
G01 X-49.4411 Y21.0446 
G01 X-49.3334 Y21.0893 
G01 X-49.1788 Y21.1200 
G01 X-49.0212 Y21.1200 
G01 X-48.8666 Y21.0893 
G01 X-48.7211 Y21.0289 
G01 X-48.5900 Y20.9414 
G01 X-48.4786 Y20.8300 
G01 X-48.3910 Y20.6989 
G01 X-48.3307 Y20.5534 
G01 X-48.3281 Y20.5400 
G01 X-14.0945 Y20.5400 
G01 X-14.0788 Y20.5780 
G01 X-14.0123 Y20.6776 
G01 X-13.9276 Y20.7623 
G01 X-13.8280 Y20.8288 
G01 X-13.7173 Y20.8746 
G01 X-13.5999 Y20.8980 
G01 X-13.4801 Y20.8980 
G01 X-13.3627 Y20.8746 
G01 X-13.2520 Y20.8288 
G01 X-13.1524 Y20.7623 
G01 X-13.0677 Y20.6776 
G01 X-13.0012 Y20.5780 
G01 X-12.9554 Y20.4673 
G01 X-12.9320 Y20.3499 
G01 X-12.9320 Y20.2301 
G01 X-12.9554 Y20.1127 
G01 X-13.0012 Y20.0020 
G01 X-13.0677 Y19.9024 
G01 X-13.1524 Y19.8177 
G01 X-13.2520 Y19.7512 
G01 X-13.3627 Y19.7054 
G01 X-13.4801 Y19.6820 
G01 X-13.5999 Y19.6820 
G01 X-13.7173 Y19.7054 
G01 X-13.8280 Y19.7512 
G01 X-13.9276 Y19.8177 
G01 X-14.0123 Y19.9024 
G01 X-14.0788 Y20.0020 
G01 X-14.0945 Y20.0400 
G01 X-48.3501 Y20.0400 
G01 X-48.3910 Y19.9411 
G01 X-48.4786 Y19.8100 
G01 X-48.5900 Y19.6986 
G01 X-48.7211 Y19.6111 
G01 X-48.8666 Y19.5507 
G01 X-49.0212 Y19.5200 
G01 X-49.1788 Y19.5200 
G01 X-49.3334 Y19.5507 
G01 X-49.4789 Y19.6111 
G01 X-49.6100 Y19.6986 
G01 X-49.7214 Y19.8100 
G01 X-49.8089 Y19.9411 
G01 X-49.8693 Y20.0866 
G01 X-49.9000 Y20.2412 
G00 Z2.0000 
G00 X-66.9427 Y19.9628 
G01 Z-0.0250 F254.00 
G01 X-65.1373 Y19.9628 F508.00 
G01 X-64.9609 Y19.9277 
G01 X-64.7948 Y19.8589 
G01 X-64.6453 Y19.7590 
G01 X-64.5182 Y19.6319 
G01 X-64.4183 Y19.4824 
G01 X-64.3495 Y19.3163 
G01 X-64.3144 Y19.1399 
G01 X-64.3144 Y18.9601 
G01 X-64.3495 Y18.7837 
G01 X-64.4183 Y18.6176 
G01 X-64.5182 Y18.4681 
G01 X-64.6453 Y18.3410 
G01 X-64.7948 Y18.2411 
G01 X-64.8604 Y18.2139 
G01 X-64.6864 Y18.0400 
G01 X-60.1118 Y18.0400 
G01 X-60.1105 Y18.0463 
G01 X-60.0417 Y18.2124 
G01 X-59.9418 Y18.3619 
G01 X-59.8147 Y18.4890 
G01 X-59.6652 Y18.5889 
G01 X-59.4991 Y18.6577 
G01 X-59.3227 Y18.6928 
G01 X-57.5173 Y18.6928 
G01 X-57.3409 Y18.6577 
G01 X-57.1748 Y18.5889 
G01 X-57.0253 Y18.4890 
G01 X-56.8982 Y18.3619 
G01 X-56.7983 Y18.2124 
G01 X-56.7295 Y18.0463 
G01 X-56.7282 Y18.0400 
G01 X-55.1436 Y18.0400 
G01 X-53.2188 Y19.9648 
G01 X-53.2693 Y20.0866 
G01 X-53.3000 Y20.2412 
G01 X-53.3000 Y20.3988 
G01 X-53.2693 Y20.5534 
G01 X-53.2089 Y20.6989 
G01 X-53.1214 Y20.8300 
G01 X-53.0100 Y20.9414 
G01 X-52.8789 Y21.0289 
G01 X-52.7334 Y21.0893 
G01 X-52.5788 Y21.1200 
G01 X-52.4212 Y21.1200 
G01 X-52.2666 Y21.0893 
G01 X-52.1211 Y21.0289 
G01 X-51.9900 Y20.9414 
G01 X-51.8786 Y20.8300 
G01 X-51.7911 Y20.6989 
G01 X-51.7307 Y20.5534 
G01 X-51.7000 Y20.3988 
G01 X-51.7000 Y20.2412 
G01 X-51.7307 Y20.0866 
G01 X-51.7911 Y19.9411 
G01 X-51.8786 Y19.8100 
G01 X-51.9900 Y19.6986 
G01 X-52.1211 Y19.6111 
G01 X-52.2666 Y19.5507 
G01 X-52.4212 Y19.5200 
G01 X-52.5788 Y19.5200 
G01 X-52.7334 Y19.5507 
G01 X-52.8694 Y19.6071 
G01 X-54.8281 Y17.6484 
G01 X-54.8984 Y17.5781 
G01 X-54.9903 Y17.5400 
G01 X-56.7243 Y17.5400 
G01 X-56.7295 Y17.5137 
G01 X-56.7983 Y17.3476 
G01 X-56.8982 Y17.1981 
G01 X-57.0253 Y17.0710 
G01 X-57.1748 Y16.9711 
G01 X-57.3409 Y16.9023 
G01 X-57.5173 Y16.8672 
G01 X-59.3227 Y16.8672 
G01 X-59.4991 Y16.9023 
G01 X-59.6652 Y16.9711 
G01 X-59.8147 Y17.0710 
G01 X-59.9418 Y17.1981 
G01 X-60.0417 Y17.3476 
G01 X-60.1105 Y17.5137 
G01 X-60.1157 Y17.5400 
G01 X-64.8397 Y17.5400 
G01 X-64.9316 Y17.5781 
G01 X-65.0019 Y17.6484 
G01 X-65.4908 Y18.1372 
G01 X-66.9427 Y18.1372 
G01 X-67.1191 Y18.1723 
G01 X-67.2852 Y18.2411 
G01 X-67.4347 Y18.3410 
G01 X-67.5618 Y18.4681 
G01 X-67.6617 Y18.6176 
G01 X-67.7305 Y18.7837 
G01 X-67.7656 Y18.9601 
G01 X-67.7656 Y19.1399 
G01 X-67.7305 Y19.3163 
G01 X-67.6617 Y19.4824 
G01 X-67.5618 Y19.6319 
G01 X-67.4347 Y19.7590 
G01 X-67.2852 Y19.8589 
G01 X-67.1191 Y19.9277 
G01 X-66.9427 Y19.9628 
G00 Z2.0000 
G00 X-66.9427 Y22.5028 
G01 Z-0.0250 F254.00 
G01 X-65.1373 Y22.5028 F508.00 
G01 X-64.9609 Y22.4677 
G01 X-64.7948 Y22.3989 
G01 X-64.6453 Y22.2990 
G01 X-64.5182 Y22.1719 
G01 X-64.4183 Y22.0224 
G01 X-64.3495 Y21.8563 
G01 X-64.3144 Y21.6799 
G01 X-64.3144 Y21.5001 
G01 X-64.3495 Y21.3237 
G01 X-64.4183 Y21.1576 
G01 X-64.5182 Y21.0081 
G01 X-64.6453 Y20.8810 
G01 X-64.7948 Y20.7811 
G01 X-64.9609 Y20.7123 
G01 X-65.1373 Y20.6772 
G01 X-66.9427 Y20.6772 
G01 X-67.1191 Y20.7123 
G01 X-67.2852 Y20.7811 
G01 X-67.4347 Y20.8810 
G01 X-67.5618 Y21.0081 
G01 X-67.6617 Y21.1576 
G01 X-67.7305 Y21.3237 
G01 X-67.7656 Y21.5001 
G01 X-67.7656 Y21.6799 
G01 X-67.7305 Y21.8563 
G01 X-67.6617 Y22.0224 
G01 X-67.5618 Y22.1719 
G01 X-67.4347 Y22.2990 
G01 X-67.2852 Y22.3989 
G01 X-67.1191 Y22.4677 
G01 X-66.9427 Y22.5028 
G00 Z2.0000 
G00 X-50.4428 Y4.1773 
G01 Z-0.0250 F254.00 
G01 X-50.4428 Y5.8392 F508.00 
G01 X-52.3936 Y7.7900 
G01 X-58.4855 Y7.7900 
G01 X-58.5012 Y7.7520 
G01 X-58.5677 Y7.6524 
G01 X-58.6524 Y7.5677 
G01 X-58.7520 Y7.5012 
G01 X-58.8627 Y7.4554 
G01 X-58.9801 Y7.4320 
G01 X-59.0999 Y7.4320 
G01 X-59.2173 Y7.4554 
G01 X-59.3280 Y7.5012 
G01 X-59.4276 Y7.5677 
G01 X-59.5123 Y7.6524 
G01 X-59.5788 Y7.7520 
G01 X-59.6246 Y7.8627 
G01 X-59.6480 Y7.9801 
G01 X-59.6480 Y8.0999 
G01 X-59.6246 Y8.2173 
G01 X-59.5788 Y8.3280 
G01 X-59.5123 Y8.4276 
G01 X-59.4276 Y8.5123 
G01 X-59.3280 Y8.5788 
G01 X-59.2173 Y8.6246 
G01 X-59.0999 Y8.6480 
G01 X-58.9801 Y8.6480 
G01 X-58.8627 Y8.6246 
G01 X-58.7520 Y8.5788 
G01 X-58.6524 Y8.5123 
G01 X-58.5677 Y8.4276 
G01 X-58.5012 Y8.3280 
G01 X-58.4855 Y8.2900 
G01 X-52.2403 Y8.2900 
G01 X-52.1484 Y8.2519 
G01 X-52.0781 Y8.1816 
G01 X-50.2919 Y6.3955 
G01 X-50.2390 Y6.4747 
G01 X-50.1119 Y6.6018 
G01 X-49.9624 Y6.7017 
G01 X-49.7963 Y6.7705 
G01 X-49.6199 Y6.8056 
G01 X-49.4401 Y6.8056 
G01 X-49.2637 Y6.7705 
G01 X-49.0976 Y6.7017 
G01 X-48.9481 Y6.6018 
G01 X-48.8210 Y6.4747 
G01 X-48.7211 Y6.3252 
G01 X-48.6523 Y6.1591 
G01 X-48.6172 Y5.9827 
G01 X-48.6172 Y4.1773 
G01 X-48.6523 Y4.0009 
G01 X-48.7211 Y3.8348 
G01 X-48.8210 Y3.6853 
G01 X-48.9481 Y3.5582 
G01 X-49.0976 Y3.4583 
G01 X-49.2637 Y3.3895 
G01 X-49.4401 Y3.3544 
G01 X-49.6199 Y3.3544 
G01 X-49.7963 Y3.3895 
G01 X-49.9624 Y3.4583 
G01 X-50.1119 Y3.5582 
G01 X-50.2390 Y3.6853 
G01 X-50.3389 Y3.8348 
G01 X-50.4077 Y4.0009 
G01 X-50.4428 Y4.1773 
G00 Z2.0000 
G00 X-52.9828 Y4.1773 
G01 Z-0.0250 F254.00 
G01 X-52.9828 Y5.6292 F508.00 
G01 X-54.3936 Y7.0400 
G01 X-58.1864 Y7.0400 
G01 X-59.9964 Y5.2300 
G01 X-59.9964 Y4.1215 
G01 X-60.0334 Y3.9353 
G01 X-60.1061 Y3.7600 
G01 X-60.2115 Y3.6021 
G01 X-60.3457 Y3.4679 
G01 X-60.5036 Y3.3625 
G01 X-60.6789 Y3.2898 
G01 X-60.8651 Y3.2528 
G01 X-61.0549 Y3.2528 
G01 X-61.2411 Y3.2898 
G01 X-61.4164 Y3.3625 
G01 X-61.5743 Y3.4679 
G01 X-61.7085 Y3.6021 
G01 X-61.8139 Y3.7600 
G01 X-61.8866 Y3.9353 
G01 X-61.9236 Y4.1215 
G01 X-61.9236 Y6.0385 
G01 X-61.8866 Y6.2247 
G01 X-61.8139 Y6.4000 
G01 X-61.7085 Y6.5579 
G01 X-61.5743 Y6.6921 
G01 X-61.4164 Y6.7975 
G01 X-61.2411 Y6.8702 
G01 X-61.0549 Y6.9072 
G01 X-60.8651 Y6.9072 
G01 X-60.6789 Y6.8702 
G01 X-60.5036 Y6.7975 
G01 X-60.3457 Y6.6921 
G01 X-60.2115 Y6.5579 
G01 X-60.1061 Y6.4000 
G01 X-60.0334 Y6.2247 
G01 X-59.9964 Y6.0385 
G01 X-59.9964 Y5.9371 
G01 X-58.4316 Y7.5019 
G01 X-58.3397 Y7.5400 
G01 X-54.2403 Y7.5400 
G01 X-54.1484 Y7.5019 
G01 X-54.0781 Y7.4316 
G01 X-52.9061 Y6.2596 
G01 X-52.8789 Y6.3252 
G01 X-52.7790 Y6.4747 
G01 X-52.6519 Y6.6018 
G01 X-52.5024 Y6.7017 
G01 X-52.3363 Y6.7705 
G01 X-52.1599 Y6.8056 
G01 X-51.9801 Y6.8056 
G01 X-51.8037 Y6.7705 
G01 X-51.6376 Y6.7017 
G01 X-51.4881 Y6.6018 
G01 X-51.3610 Y6.4747 
G01 X-51.2611 Y6.3252 
G01 X-51.1923 Y6.1591 
G01 X-51.1572 Y5.9827 
G01 X-51.1572 Y4.1773 
G01 X-51.1923 Y4.0009 
G01 X-51.2611 Y3.8348 
G01 X-51.3610 Y3.6853 
G01 X-51.4881 Y3.5582 
G01 X-51.6376 Y3.4583 
G01 X-51.8037 Y3.3895 
G01 X-51.9801 Y3.3544 
G01 X-52.1599 Y3.3544 
G01 X-52.3363 Y3.3895 
G01 X-52.5024 Y3.4583 
G01 X-52.6519 Y3.5582 
G01 X-52.7790 Y3.6853 
G01 X-52.8789 Y3.8348 
G01 X-52.9477 Y4.0009 
G01 X-52.9828 Y4.1773 
G00 Z2.0000 
G00 X-63.8064 Y6.0385 
G01 Z-0.0250 F254.00 
G01 X-63.8064 Y4.1215 F508.00 
G01 X-63.8434 Y3.9353 
G01 X-63.9161 Y3.7600 
G01 X-64.0215 Y3.6021 
G01 X-64.1557 Y3.4679 
G01 X-64.3136 Y3.3625 
G01 X-64.4889 Y3.2898 
G01 X-64.6751 Y3.2528 
G01 X-64.8649 Y3.2528 
G01 X-65.0511 Y3.2898 
G01 X-65.2264 Y3.3625 
G01 X-65.3843 Y3.4679 
G01 X-65.5185 Y3.6021 
G01 X-65.6239 Y3.7600 
G01 X-65.6966 Y3.9353 
G01 X-65.7336 Y4.1215 
G01 X-65.7336 Y6.0385 
G01 X-65.6966 Y6.2247 
G01 X-65.6239 Y6.4000 
G01 X-65.5185 Y6.5579 
G01 X-65.3843 Y6.6921 
G01 X-65.2264 Y6.7975 
G01 X-65.0511 Y6.8702 
G01 X-64.8649 Y6.9072 
G01 X-64.6751 Y6.9072 
G01 X-64.4889 Y6.8702 
G01 X-64.3136 Y6.7975 
G01 X-64.1557 Y6.6921 
G01 X-64.0215 Y6.5579 
G01 X-63.9161 Y6.4000 
G01 X-63.8434 Y6.2247 
G01 X-63.8064 Y6.0385 
G00 Z2.0000 
G00 X-56.1864 Y6.0385 
G01 Z-0.0250 F254.00 
G01 X-56.1864 Y4.1215 F508.00 
G01 X-56.2234 Y3.9353 
G01 X-56.2961 Y3.7600 
G01 X-56.4015 Y3.6021 
G01 X-56.5357 Y3.4679 
G01 X-56.6936 Y3.3625 
G01 X-56.8689 Y3.2898 
G01 X-57.0551 Y3.2528 
G01 X-57.2449 Y3.2528 
G01 X-57.4311 Y3.2898 
G01 X-57.6064 Y3.3625 
G01 X-57.7643 Y3.4679 
G01 X-57.8985 Y3.6021 
G01 X-58.0039 Y3.7600 
G01 X-58.0766 Y3.9353 
G01 X-58.1136 Y4.1215 
G01 X-58.1136 Y6.0385 
G01 X-58.0766 Y6.2247 
G01 X-58.0039 Y6.4000 
G01 X-57.8985 Y6.5579 
G01 X-57.7643 Y6.6921 
G01 X-57.6064 Y6.7975 
G01 X-57.4311 Y6.8702 
G01 X-57.2449 Y6.9072 
G01 X-57.0551 Y6.9072 
G01 X-56.8689 Y6.8702 
G01 X-56.6936 Y6.7975 
G01 X-56.5357 Y6.6921 
G01 X-56.4015 Y6.5579 
G01 X-56.2961 Y6.4000 
G01 X-56.2234 Y6.2247 
G01 X-56.1864 Y6.0385 
G00 Z2.0000 
G00 X-32.2310 Y53.5376 
G01 Z-0.0250 F254.00 
G01 X-32.2310 Y53.7012 F508.00 
G01 X-32.2054 Y53.8629 
G01 X-32.1548 Y54.0185 
G01 X-32.0805 Y54.1644 
G01 X-31.9843 Y54.2968 
G01 X-31.8686 Y54.4125 
G01 X-31.7362 Y54.5087 
G01 X-31.5903 Y54.5830 
G01 X-31.4347 Y54.6336 
G01 X-31.2730 Y54.6592 
G01 X-31.1094 Y54.6592 
G01 X-30.9477 Y54.6336 
G01 X-30.7921 Y54.5830 
G01 X-30.6462 Y54.5087 
G01 X-30.5138 Y54.4125 
G01 X-30.3981 Y54.2968 
G01 X-30.3019 Y54.1644 
G01 X-30.2276 Y54.0185 
G01 X-30.1770 Y53.8629 
G01 X-30.1514 Y53.7012 
G01 X-30.1514 Y53.5376 
G01 X-30.1770 Y53.3759 
G01 X-30.2276 Y53.2203 
G01 X-30.3019 Y53.0744 
G01 X-30.3981 Y52.9420 
G01 X-30.5138 Y52.8263 
G01 X-30.6462 Y52.7301 
G01 X-30.7921 Y52.6558 
G01 X-30.9477 Y52.6052 
G01 X-31.1094 Y52.5796 
G01 X-31.2730 Y52.5796 
G01 X-31.4347 Y52.6052 
G01 X-31.5903 Y52.6558 
G01 X-31.7362 Y52.7301 
G01 X-31.8686 Y52.8263 
G01 X-31.9843 Y52.9420 
G01 X-32.0805 Y53.0744 
G01 X-32.1548 Y53.2203 
G01 X-32.2054 Y53.3759 
G01 X-32.2310 Y53.5376 
G00 Z2.0000 
G00 X-32.2310 Y58.0588 
G01 Z-0.0250 F254.00 
G01 X-32.2310 Y58.2224 F508.00 
G01 X-32.2054 Y58.3841 
G01 X-32.1548 Y58.5397 
G01 X-32.0805 Y58.6856 
G01 X-31.9843 Y58.8180 
G01 X-31.8686 Y58.9337 
G01 X-31.7362 Y59.0299 
G01 X-31.5903 Y59.1042 
G01 X-31.4347 Y59.1548 
G01 X-31.2730 Y59.1804 
G01 X-31.1094 Y59.1804 
G01 X-30.9477 Y59.1548 
G01 X-30.7921 Y59.1042 
G01 X-30.6462 Y59.0299 
G01 X-30.5138 Y58.9337 
G01 X-30.3981 Y58.8180 
G01 X-30.3019 Y58.6856 
G01 X-30.2276 Y58.5397 
G01 X-30.1770 Y58.3841 
G01 X-30.1514 Y58.2224 
G01 X-30.1514 Y58.0588 
G01 X-30.1770 Y57.8971 
G01 X-30.2276 Y57.7415 
G01 X-30.3019 Y57.5956 
G01 X-30.3981 Y57.4632 
G01 X-30.5138 Y57.3475 
G01 X-30.6462 Y57.2513 
G01 X-30.7921 Y57.1770 
G01 X-30.9477 Y57.1264 
G01 X-31.1094 Y57.1008 
G01 X-31.2730 Y57.1008 
G01 X-31.4347 Y57.1264 
G01 X-31.5903 Y57.1770 
G01 X-31.7362 Y57.2513 
G01 X-31.8686 Y57.3475 
G01 X-31.9843 Y57.4632 
G01 X-32.0805 Y57.5956 
G01 X-32.1548 Y57.7415 
G01 X-32.2054 Y57.8971 
G01 X-32.2310 Y58.0588 
G00 Z2.0000 
G00 X-66.9427 Y14.8828 
G01 Z-0.0250 F254.00 
G01 X-65.1373 Y14.8828 F508.00 
G01 X-64.9609 Y14.8477 
G01 X-64.7948 Y14.7789 
G01 X-64.6453 Y14.6790 
G01 X-64.5182 Y14.5519 
G01 X-64.4183 Y14.4024 
G01 X-64.3495 Y14.2363 
G01 X-64.3144 Y14.0599 
G01 X-64.3144 Y13.8801 
G01 X-64.3495 Y13.7037 
G01 X-64.4183 Y13.5376 
G01 X-64.5182 Y13.3881 
G01 X-64.6453 Y13.2610 
G01 X-64.7948 Y13.1611 
G01 X-64.9609 Y13.0923 
G01 X-65.1373 Y13.0572 
G01 X-66.9427 Y13.0572 
G01 X-67.1191 Y13.0923 
G01 X-67.2852 Y13.1611 
G01 X-67.4347 Y13.2610 
G01 X-67.5618 Y13.3881 
G01 X-67.6617 Y13.5376 
G01 X-67.7305 Y13.7037 
G01 X-67.7656 Y13.8801 
G01 X-67.7656 Y14.0599 
G01 X-67.7305 Y14.2363 
G01 X-67.6617 Y14.4024 
G01 X-67.5618 Y14.5519 
G01 X-67.4347 Y14.6790 
G01 X-67.2852 Y14.7789 
G01 X-67.1191 Y14.8477 
G01 X-66.9427 Y14.8828 
G00 Z2.0000 
G00 X-66.9427 Y17.4228 
G01 Z-0.0250 F254.00 
G01 X-65.1373 Y17.4228 F508.00 
G01 X-64.9609 Y17.3877 
G01 X-64.7948 Y17.3189 
G01 X-64.6453 Y17.2190 
G01 X-64.5182 Y17.0919 
G01 X-64.4183 Y16.9424 
G01 X-64.3495 Y16.7763 
G01 X-64.3144 Y16.5999 
G01 X-64.3144 Y16.4201 
G01 X-64.3495 Y16.2437 
G01 X-64.4183 Y16.0776 
G01 X-64.5182 Y15.9281 
G01 X-64.6453 Y15.8010 
G01 X-64.6618 Y15.7900 
G01 X-13.3936 Y15.7900 
G01 X-9.0400 Y20.1436 
G01 X-9.0400 Y21.4855 
G01 X-9.0780 Y21.5012 
G01 X-9.1776 Y21.5677 
G01 X-9.2623 Y21.6524 
G01 X-9.3288 Y21.7520 
G01 X-9.3746 Y21.8627 
G01 X-9.3980 Y21.9801 
G01 X-9.3980 Y22.0999 
G01 X-9.3746 Y22.2173 
G01 X-9.3288 Y22.3280 
G01 X-9.2623 Y22.4276 
G01 X-9.1776 Y22.5123 
G01 X-9.0780 Y22.5788 
G01 X-9.0400 Y22.5945 
G01 X-9.0400 Y43.7355 
G01 X-9.0780 Y43.7512 
G01 X-9.1776 Y43.8177 
G01 X-9.2623 Y43.9024 
G01 X-9.3288 Y44.0020 
G01 X-9.3746 Y44.1127 
G01 X-9.3980 Y44.2301 
G01 X-9.3980 Y44.3499 
G01 X-9.3746 Y44.4673 
G01 X-9.3288 Y44.5780 
G01 X-9.2623 Y44.6776 
G01 X-9.1776 Y44.7623 
G01 X-9.0780 Y44.8288 
G01 X-8.9673 Y44.8746 
G01 X-8.8499 Y44.8980 
G01 X-8.7301 Y44.8980 
G01 X-8.6127 Y44.8746 
G01 X-8.5020 Y44.8288 
G01 X-8.4024 Y44.7623 
G01 X-8.3177 Y44.6776 
G01 X-8.2512 Y44.5780 
G01 X-8.2054 Y44.4673 
G01 X-8.1820 Y44.3499 
G01 X-8.1820 Y44.2301 
G01 X-8.2054 Y44.1127 
G01 X-8.2512 Y44.0020 
G01 X-8.3177 Y43.9024 
G01 X-8.4024 Y43.8177 
G01 X-8.5020 Y43.7512 
G01 X-8.5400 Y43.7355 
G01 X-8.5400 Y22.5945 
G01 X-8.5020 Y22.5788 
G01 X-8.4024 Y22.5123 
G01 X-8.3177 Y22.4276 
G01 X-8.2512 Y22.3280 
G01 X-8.2054 Y22.2173 
G01 X-8.1820 Y22.0999 
G01 X-8.1820 Y21.9801 
G01 X-8.2054 Y21.8627 
G01 X-8.2512 Y21.7520 
G01 X-8.3177 Y21.6524 
G01 X-8.4024 Y21.5677 
G01 X-8.5020 Y21.5012 
G01 X-8.5400 Y21.4855 
G01 X-8.5400 Y19.9903 
G01 X-8.5781 Y19.8984 
G01 X-8.6484 Y19.8281 
G01 X-13.1484 Y15.3281 
G01 X-13.2403 Y15.2900 
G01 X-65.3397 Y15.2900 
G01 X-65.4316 Y15.3281 
G01 X-65.5019 Y15.3984 
G01 X-65.7007 Y15.5972 
G01 X-66.9427 Y15.5972 
G01 X-67.1191 Y15.6323 
G01 X-67.2852 Y15.7011 
G01 X-67.4347 Y15.8010 
G01 X-67.5618 Y15.9281 
G01 X-67.6617 Y16.0776 
G01 X-67.7305 Y16.2437 
G01 X-67.7656 Y16.4201 
G01 X-67.7656 Y16.5999 
G01 X-67.7305 Y16.7763 
G01 X-67.6617 Y16.9424 
G01 X-67.5618 Y17.0919 
G01 X-67.4347 Y17.2190 
G01 X-67.2852 Y17.3189 
G01 X-67.1191 Y17.3877 
G01 X-66.9427 Y17.4228 
G00 Z2.0000 
G00 X-63.1428 Y45.6301 
G01 Z-0.0250 F254.00 
G01 X-63.1428 Y45.8099 F508.00 
G01 X-63.1077 Y45.9863 
G01 X-63.0389 Y46.1524 
G01 X-62.9390 Y46.3019 
G01 X-62.8119 Y46.4290 
G01 X-62.6624 Y46.5289 
G01 X-62.4963 Y46.5977 
G01 X-62.3199 Y46.6328 
G01 X-62.1401 Y46.6328 
G01 X-61.9637 Y46.5977 
G01 X-61.7976 Y46.5289 
G01 X-61.6481 Y46.4290 
G01 X-61.5210 Y46.3019 
G01 X-61.4211 Y46.1524 
G01 X-61.3523 Y45.9863 
G01 X-61.3172 Y45.8099 
G01 X-61.3172 Y45.6301 
G01 X-61.3523 Y45.4537 
G01 X-61.4211 Y45.2876 
G01 X-61.5210 Y45.1381 
G01 X-61.6481 Y45.0110 
G01 X-61.7976 Y44.9111 
G01 X-61.9637 Y44.8423 
G01 X-62.1401 Y44.8072 
G01 X-62.3199 Y44.8072 
G01 X-62.4963 Y44.8423 
G01 X-62.6624 Y44.9111 
G01 X-62.8119 Y45.0110 
G01 X-62.9390 Y45.1381 
G01 X-63.0389 Y45.2876 
G01 X-63.1077 Y45.4537 
G01 X-63.1428 Y45.6301 
G00 Z2.0000 
G00 X-50.4428 Y57.0601 
G01 Z-0.0250 F254.00 
G01 X-50.4428 Y57.2399 F508.00 
G01 X-50.4077 Y57.4163 
G01 X-50.3389 Y57.5824 
G01 X-50.2390 Y57.7319 
G01 X-50.1119 Y57.8590 
G01 X-49.9624 Y57.9589 
G01 X-49.7963 Y58.0277 
G01 X-49.6199 Y58.0628 
G01 X-49.4401 Y58.0628 
G01 X-49.2637 Y58.0277 
G01 X-49.0976 Y57.9589 
G01 X-48.9481 Y57.8590 
G01 X-48.8210 Y57.7319 
G01 X-48.7211 Y57.5824 
G01 X-48.6523 Y57.4163 
G01 X-48.6172 Y57.2399 
G01 X-48.6172 Y57.0601 
G01 X-48.6523 Y56.8837 
G01 X-48.7211 Y56.7176 
G01 X-48.8210 Y56.5681 
G01 X-48.9481 Y56.4410 
G01 X-49.0976 Y56.3411 
G01 X-49.2637 Y56.2723 
G01 X-49.4401 Y56.2372 
G01 X-49.6199 Y56.2372 
G01 X-49.7963 Y56.2723 
G01 X-49.9624 Y56.3411 
G01 X-50.1119 Y56.4410 
G01 X-50.2390 Y56.5681 
G01 X-50.3389 Y56.7176 
G01 X-50.4077 Y56.8837 
G01 X-50.4428 Y57.0601 
G00 Z2.0000 
G00 X-50.4428 Y54.5201 
G01 Z-0.0250 F254.00 
G01 X-50.4428 Y54.6999 F508.00 
G01 X-50.4077 Y54.8763 
G01 X-50.3389 Y55.0424 
G01 X-50.2390 Y55.1919 
G01 X-50.1119 Y55.3190 
G01 X-49.9624 Y55.4189 
G01 X-49.7963 Y55.4877 
G01 X-49.6199 Y55.5228 
G01 X-49.4401 Y55.5228 
G01 X-49.2637 Y55.4877 
G01 X-49.0976 Y55.4189 
G01 X-48.9481 Y55.3190 
G01 X-48.8210 Y55.1919 
G01 X-48.7211 Y55.0424 
G01 X-48.6523 Y54.8763 
G01 X-48.6172 Y54.6999 
G01 X-48.6172 Y54.5201 
G01 X-48.6523 Y54.3437 
G01 X-48.7211 Y54.1776 
G01 X-48.8210 Y54.0281 
G01 X-48.9481 Y53.9010 
G01 X-49.0976 Y53.8011 
G01 X-49.2637 Y53.7323 
G01 X-49.4401 Y53.6972 
G01 X-49.6199 Y53.6972 
G01 X-49.7963 Y53.7323 
G01 X-49.9624 Y53.8011 
G01 X-50.1119 Y53.9010 
G01 X-50.2390 Y54.0281 
G01 X-50.3389 Y54.1776 
G01 X-50.4077 Y54.3437 
G01 X-50.4428 Y54.5201 
G00 Z2.0000 
G00 X-50.4428 Y49.4401 
G01 Z-0.0250 F254.00 
G01 X-50.4428 Y49.6199 F508.00 
G01 X-50.4077 Y49.7963 
G01 X-50.3389 Y49.9624 
G01 X-50.2390 Y50.1119 
G01 X-50.1119 Y50.2390 
G01 X-49.9624 Y50.3389 
G01 X-49.7963 Y50.4077 
G01 X-49.6199 Y50.4428 
G01 X-49.4401 Y50.4428 
G01 X-49.2637 Y50.4077 
G01 X-49.0976 Y50.3389 
G01 X-48.9481 Y50.2390 
G01 X-48.8210 Y50.1119 
G01 X-48.7211 Y49.9624 
G01 X-48.6523 Y49.7963 
G01 X-48.6172 Y49.6199 
G01 X-48.6172 Y49.4401 
G01 X-48.6523 Y49.2637 
G01 X-48.7211 Y49.0976 
G01 X-48.8210 Y48.9481 
G01 X-48.9481 Y48.8210 
G01 X-49.0976 Y48.7211 
G01 X-49.2637 Y48.6523 
G01 X-49.4401 Y48.6172 
G01 X-49.6199 Y48.6172 
G01 X-49.7963 Y48.6523 
G01 X-49.9624 Y48.7211 
G01 X-50.1119 Y48.8210 
G01 X-50.2390 Y48.9481 
G01 X-50.3389 Y49.0976 
G01 X-50.4077 Y49.2637 
G01 X-50.4428 Y49.4401 
G00 Z2.0000 
G00 X-50.4428 Y41.8201 
G01 Z-0.0250 F254.00 
G01 X-50.4428 Y41.9999 F508.00 
G01 X-50.4077 Y42.1763 
G01 X-50.3389 Y42.3424 
G01 X-50.2390 Y42.4919 
G01 X-50.1119 Y42.6190 
G01 X-49.9624 Y42.7189 
G01 X-49.7963 Y42.7877 
G01 X-49.6199 Y42.8228 
G01 X-49.4401 Y42.8228 
G01 X-49.2637 Y42.7877 
G01 X-49.0976 Y42.7189 
G01 X-49.0179 Y42.6656 
G01 X-48.0019 Y43.6816 
G01 X-47.9316 Y43.7519 
G01 X-47.8397 Y43.7900 
G01 X-39.3445 Y43.7900 
G01 X-39.3288 Y43.8280 
G01 X-39.2623 Y43.9276 
G01 X-39.1776 Y44.0123 
G01 X-39.0780 Y44.0788 
G01 X-38.9673 Y44.1246 
G01 X-38.8499 Y44.1480 
G01 X-38.7301 Y44.1480 
G01 X-38.6127 Y44.1246 
G01 X-38.5020 Y44.0788 
G01 X-38.4024 Y44.0123 
G01 X-38.3177 Y43.9276 
G01 X-38.2512 Y43.8280 
G01 X-38.2054 Y43.7173 
G01 X-38.1820 Y43.5999 
G01 X-38.1820 Y43.4801 
G01 X-38.2054 Y43.3627 
G01 X-38.2512 Y43.2520 
G01 X-38.3177 Y43.1524 
G01 X-38.4024 Y43.0677 
G01 X-38.5020 Y43.0012 
G01 X-38.6127 Y42.9554 
G01 X-38.7301 Y42.9320 
G01 X-38.8499 Y42.9320 
G01 X-38.9673 Y42.9554 
G01 X-39.0780 Y43.0012 
G01 X-39.1776 Y43.0677 
G01 X-39.2623 Y43.1524 
G01 X-39.3288 Y43.2520 
G01 X-39.3445 Y43.2900 
G01 X-47.6864 Y43.2900 
G01 X-48.6956 Y42.2808 
G01 X-48.6523 Y42.1763 
G01 X-48.6172 Y41.9999 
G01 X-48.6172 Y41.8201 
G01 X-48.6523 Y41.6437 
G01 X-48.7211 Y41.4776 
G01 X-48.8210 Y41.3281 
G01 X-48.9481 Y41.2010 
G01 X-49.0976 Y41.1011 
G01 X-49.2637 Y41.0323 
G01 X-49.4401 Y40.9972 
G01 X-49.6199 Y40.9972 
G01 X-49.7963 Y41.0323 
G01 X-49.9624 Y41.1011 
G01 X-50.1119 Y41.2010 
G01 X-50.2390 Y41.3281 
G01 X-50.3389 Y41.4776 
G01 X-50.4077 Y41.6437 
G01 X-50.4428 Y41.8201 
G00 Z2.0000 
G00 X-50.4428 Y36.7401 
G01 Z-0.0250 F254.00 
G01 X-50.4428 Y36.9199 F508.00 
G01 X-50.4077 Y37.0963 
G01 X-50.3389 Y37.2624 
G01 X-50.2390 Y37.4119 
G01 X-50.1119 Y37.5390 
G01 X-49.9624 Y37.6389 
G01 X-49.7963 Y37.7077 
G01 X-49.6199 Y37.7428 
G01 X-49.4401 Y37.7428 
G01 X-49.2637 Y37.7077 
G01 X-49.0976 Y37.6389 
G01 X-49.0659 Y37.6177 
G01 X-48.1816 Y38.5019 
G01 X-48.0897 Y38.5400 
G01 X-21.1436 Y38.5400 
G01 X-14.1816 Y45.5019 
G01 X-14.0897 Y45.5400 
G01 X-7.7403 Y45.5400 
G01 X-7.6484 Y45.5019 
G01 X-7.5781 Y45.4316 
G01 X-7.5400 Y45.3397 
G01 X-7.5400 Y13.7403 
G01 X-7.5781 Y13.6484 
G01 X-7.6484 Y13.5781 
G01 X-13.1588 Y8.0676 
G01 X-13.1588 Y6.8289 
G01 X-13.1900 Y6.6722 
G01 X-13.2511 Y6.5246 
G01 X-13.3399 Y6.3917 
G01 X-13.4529 Y6.2787 
G01 X-13.5858 Y6.1899 
G01 X-13.7334 Y6.1288 
G01 X-13.8901 Y6.0976 
G01 X-14.0499 Y6.0976 
G01 X-14.2066 Y6.1288 
G01 X-14.3542 Y6.1899 
G01 X-14.4871 Y6.2787 
G01 X-14.6001 Y6.3917 
G01 X-14.6889 Y6.5246 
G01 X-14.7500 Y6.6722 
G01 X-14.7812 Y6.8289 
G01 X-14.7812 Y8.4111 
G01 X-14.7500 Y8.5678 
G01 X-14.6889 Y8.7154 
G01 X-14.6001 Y8.8483 
G01 X-14.4871 Y8.9613 
G01 X-14.3542 Y9.0501 
G01 X-14.2066 Y9.1112 
G01 X-14.0499 Y9.1424 
G01 X-13.8901 Y9.1424 
G01 X-13.7334 Y9.1112 
G01 X-13.5858 Y9.0501 
G01 X-13.4529 Y8.9613 
G01 X-13.3399 Y8.8483 
G01 X-13.2511 Y8.7154 
G01 X-13.2415 Y8.6921 
G01 X-8.0400 Y13.8936 
G01 X-8.0400 Y45.0400 
G01 X-13.9364 Y45.0400 
G01 X-20.8281 Y38.1484 
G01 X-20.8984 Y38.0781 
G01 X-20.9903 Y38.0400 
G01 X-47.9364 Y38.0400 
G01 X-48.7190 Y37.2574 
G01 X-48.6523 Y37.0963 
G01 X-48.6172 Y36.9199 
G01 X-48.6172 Y36.7401 
G01 X-48.6523 Y36.5637 
G01 X-48.7211 Y36.3976 
G01 X-48.8210 Y36.2481 
G01 X-48.9481 Y36.1210 
G01 X-49.0976 Y36.0211 
G01 X-49.2637 Y35.9523 
G01 X-49.4401 Y35.9172 
G01 X-49.6199 Y35.9172 
G01 X-49.7963 Y35.9523 
G01 X-49.9624 Y36.0211 
G01 X-50.1119 Y36.1210 
G01 X-50.2390 Y36.2481 
G01 X-50.3389 Y36.3976 
G01 X-50.4077 Y36.5637 
G01 X-50.4428 Y36.7401 
G00 Z2.0000 
G00 X-50.4428 Y34.2001 
G01 Z-0.0250 F254.00 
G01 X-50.4428 Y34.3799 F508.00 
G01 X-50.4077 Y34.5563 
G01 X-50.3389 Y34.7224 
G01 X-50.2390 Y34.8719 
G01 X-50.1119 Y34.9990 
G01 X-49.9624 Y35.0989 
G01 X-49.7963 Y35.1677 
G01 X-49.6199 Y35.2028 
G01 X-49.4401 Y35.2028 
G01 X-49.2637 Y35.1677 
G01 X-49.0976 Y35.0989 
G01 X-48.9481 Y34.9990 
G01 X-48.8210 Y34.8719 
G01 X-48.7211 Y34.7224 
G01 X-48.6523 Y34.5563 
G01 X-48.6172 Y34.3799 
G01 X-48.6172 Y34.2001 
G01 X-48.6523 Y34.0237 
G01 X-48.7211 Y33.8576 
G01 X-48.8210 Y33.7081 
G01 X-48.9481 Y33.5810 
G01 X-49.0976 Y33.4811 
G01 X-49.2637 Y33.4123 
G01 X-49.4401 Y33.3772 
G01 X-49.6199 Y33.3772 
G01 X-49.7963 Y33.4123 
G01 X-49.9624 Y33.4811 
G01 X-50.1119 Y33.5810 
G01 X-50.2390 Y33.7081 
G01 X-50.3389 Y33.8576 
G01 X-50.4077 Y34.0237 
G01 X-50.4428 Y34.2001 
G00 Z2.0000 
G00 X-50.4428 Y29.1201 
G01 Z-0.0250 F254.00 
G01 X-50.4428 Y29.2999 F508.00 
G01 X-50.4077 Y29.4763 
G01 X-50.3389 Y29.6424 
G01 X-50.2390 Y29.7919 
G01 X-50.1119 Y29.9190 
G01 X-49.9624 Y30.0189 
G01 X-49.7963 Y30.0877 
G01 X-49.6199 Y30.1228 
G01 X-49.4401 Y30.1228 
G01 X-49.2637 Y30.0877 
G01 X-49.0976 Y30.0189 
G01 X-48.9481 Y29.9190 
G01 X-48.8210 Y29.7919 
G01 X-48.7211 Y29.6424 
G01 X-48.6523 Y29.4763 
G01 X-48.6172 Y29.2999 
G01 X-48.6172 Y29.2900 
G01 X-30.3445 Y29.2900 
G01 X-30.3288 Y29.3280 
G01 X-30.2623 Y29.4276 
G01 X-30.1776 Y29.5123 
G01 X-30.0780 Y29.5788 
G01 X-29.9673 Y29.6246 
G01 X-29.8499 Y29.6480 
G01 X-29.7301 Y29.6480 
G01 X-29.6127 Y29.6246 
G01 X-29.5020 Y29.5788 
G01 X-29.4024 Y29.5123 
G01 X-29.3177 Y29.4276 
G01 X-29.2512 Y29.3280 
G01 X-29.2054 Y29.2173 
G01 X-29.1820 Y29.0999 
G01 X-29.1820 Y28.9801 
G01 X-29.2054 Y28.8627 
G01 X-29.2512 Y28.7520 
G01 X-29.3177 Y28.6524 
G01 X-29.4024 Y28.5677 
G01 X-29.5020 Y28.5012 
G01 X-29.6127 Y28.4554 
G01 X-29.7301 Y28.4320 
G01 X-29.8499 Y28.4320 
G01 X-29.9673 Y28.4554 
G01 X-30.0780 Y28.5012 
G01 X-30.1776 Y28.5677 
G01 X-30.2623 Y28.6524 
G01 X-30.3288 Y28.7520 
G01 X-30.3445 Y28.7900 
G01 X-48.7160 Y28.7900 
G01 X-48.7211 Y28.7776 
G01 X-48.8210 Y28.6281 
G01 X-48.9481 Y28.5010 
G01 X-49.0976 Y28.4011 
G01 X-49.2637 Y28.3323 
G01 X-49.4401 Y28.2972 
G01 X-49.6199 Y28.2972 
G01 X-49.7963 Y28.3323 
G01 X-49.9624 Y28.4011 
G01 X-50.1119 Y28.5010 
G01 X-50.2390 Y28.6281 
G01 X-50.3389 Y28.7776 
G01 X-50.4077 Y28.9437 
G01 X-50.4428 Y29.1201 
G00 Z2.0000 
G00 X-65.6828 Y29.1201 
G01 Z-0.0250 F254.00 
G01 X-65.6828 Y29.2999 F508.00 
G01 X-65.6477 Y29.4763 
G01 X-65.5789 Y29.6424 
G01 X-65.4790 Y29.7919 
G01 X-65.3519 Y29.9190 
G01 X-65.2024 Y30.0189 
G01 X-65.0363 Y30.0877 
G01 X-64.8599 Y30.1228 
G01 X-64.6801 Y30.1228 
G01 X-64.5037 Y30.0877 
G01 X-64.3376 Y30.0189 
G01 X-64.1881 Y29.9190 
G01 X-64.0610 Y29.7919 
G01 X-63.9611 Y29.6424 
G01 X-63.8923 Y29.4763 
G01 X-63.8572 Y29.2999 
G01 X-63.8572 Y29.1201 
G01 X-63.8923 Y28.9437 
G01 X-63.9611 Y28.7776 
G01 X-64.0610 Y28.6281 
G01 X-64.1881 Y28.5010 
G01 X-64.3376 Y28.4011 
G01 X-64.5037 Y28.3323 
G01 X-64.6801 Y28.2972 
G01 X-64.8599 Y28.2972 
G01 X-65.0363 Y28.3323 
G01 X-65.2024 Y28.4011 
G01 X-65.3519 Y28.5010 
G01 X-65.4790 Y28.6281 
G01 X-65.5789 Y28.7776 
G01 X-65.6477 Y28.9437 
G01 X-65.6828 Y29.1201 
G00 Z2.0000 
G00 X-65.6828 Y34.2001 
G01 Z-0.0250 F254.00 
G01 X-65.6828 Y34.3799 F508.00 
G01 X-65.6477 Y34.5563 
G01 X-65.5789 Y34.7224 
G01 X-65.4790 Y34.8719 
G01 X-65.3519 Y34.9990 
G01 X-65.2024 Y35.0989 
G01 X-65.0363 Y35.1677 
G01 X-64.8599 Y35.2028 
G01 X-64.6801 Y35.2028 
G01 X-64.5037 Y35.1677 
G01 X-64.3376 Y35.0989 
G01 X-64.1881 Y34.9990 
G01 X-64.0610 Y34.8719 
G01 X-63.9611 Y34.7224 
G01 X-63.8923 Y34.5563 
G01 X-63.8572 Y34.3799 
G01 X-63.8572 Y34.2001 
G01 X-63.8923 Y34.0237 
G01 X-63.9611 Y33.8576 
G01 X-64.0610 Y33.7081 
G01 X-64.1881 Y33.5810 
G01 X-64.3376 Y33.4811 
G01 X-64.5037 Y33.4123 
G01 X-64.6801 Y33.3772 
G01 X-64.8599 Y33.3772 
G01 X-65.0363 Y33.4123 
G01 X-65.2024 Y33.4811 
G01 X-65.3519 Y33.5810 
G01 X-65.4790 Y33.7081 
G01 X-65.5789 Y33.8576 
G01 X-65.6477 Y34.0237 
G01 X-65.6828 Y34.2001 
G00 Z2.0000 
G00 X-65.6828 Y36.7401 
G01 Z-0.0250 F254.00 
G01 X-65.6828 Y36.9199 F508.00 
G01 X-65.6477 Y37.0963 
G01 X-65.5789 Y37.2624 
G01 X-65.4936 Y37.3900 
G01 X-66.1816 Y38.0781 
G01 X-66.2519 Y38.1484 
G01 X-66.2900 Y38.2403 
G01 X-66.2900 Y50.8397 
G01 X-66.2519 Y50.9316 
G01 X-66.1816 Y51.0019 
G01 X-66.0897 Y51.0400 
G01 X-27.6436 Y51.0400 
G01 X-25.5886 Y53.0950 
G01 X-25.6524 Y53.2203 
G01 X-25.7030 Y53.3759 
G01 X-25.7286 Y53.5376 
G01 X-25.7286 Y53.7012 
G01 X-25.7030 Y53.8629 
G01 X-25.6524 Y54.0185 
G01 X-25.5781 Y54.1644 
G01 X-25.4819 Y54.2968 
G01 X-25.3662 Y54.4125 
G01 X-25.2338 Y54.5087 
G01 X-25.0879 Y54.5830 
G01 X-24.9323 Y54.6336 
G01 X-24.7706 Y54.6592 
G01 X-24.6070 Y54.6592 
G01 X-24.4453 Y54.6336 
G01 X-24.2897 Y54.5830 
G01 X-24.1438 Y54.5087 
G01 X-24.0114 Y54.4125 
G01 X-23.8957 Y54.2968 
G01 X-23.7995 Y54.1644 
G01 X-23.7252 Y54.0185 
G01 X-23.6746 Y53.8629 
G01 X-23.6490 Y53.7012 
G01 X-23.6490 Y53.5376 
G01 X-23.6746 Y53.3759 
G01 X-23.7252 Y53.2203 
G01 X-23.7995 Y53.0744 
G01 X-23.8957 Y52.9420 
G01 X-24.0114 Y52.8263 
G01 X-24.1438 Y52.7301 
G01 X-24.2897 Y52.6558 
G01 X-24.4453 Y52.6052 
G01 X-24.6070 Y52.5796 
G01 X-24.7706 Y52.5796 
G01 X-24.9323 Y52.6052 
G01 X-25.0879 Y52.6558 
G01 X-25.2338 Y52.7301 
G01 X-25.2411 Y52.7354 
G01 X-27.3984 Y50.5781 
G01 X-27.4903 Y50.5400 
G01 X-65.7900 Y50.5400 
G01 X-65.7900 Y38.3936 
G01 X-65.0843 Y37.6878 
G01 X-65.0363 Y37.7077 
G01 X-64.8599 Y37.7428 
G01 X-64.6801 Y37.7428 
G01 X-64.5037 Y37.7077 
G01 X-64.3376 Y37.6389 
G01 X-64.1881 Y37.5390 
G01 X-64.0610 Y37.4119 
G01 X-63.9611 Y37.2624 
G01 X-63.8923 Y37.0963 
G01 X-63.8572 Y36.9199 
G01 X-63.8572 Y36.7401 
G01 X-63.8923 Y36.5637 
G01 X-63.9611 Y36.3976 
G01 X-64.0610 Y36.2481 
G01 X-64.1881 Y36.1210 
G01 X-64.3376 Y36.0211 
G01 X-64.5037 Y35.9523 
G01 X-64.6801 Y35.9172 
G01 X-64.8599 Y35.9172 
G01 X-65.0363 Y35.9523 
G01 X-65.2024 Y36.0211 
G01 X-65.3519 Y36.1210 
G01 X-65.4790 Y36.2481 
G01 X-65.5789 Y36.3976 
G01 X-65.6477 Y36.5637 
G01 X-65.6828 Y36.7401 
G00 Z2.0000 
G00 X-65.6828 Y39.2801 
G01 Z-0.0250 F254.00 
G01 X-65.6828 Y39.4599 F508.00 
G01 X-65.6477 Y39.6363 
G01 X-65.5789 Y39.8024 
G01 X-65.4790 Y39.9519 
G01 X-65.3519 Y40.0790 
G01 X-65.2024 Y40.1789 
G01 X-65.0363 Y40.2477 
G01 X-64.8599 Y40.2828 
G01 X-64.6801 Y40.2828 
G01 X-64.5037 Y40.2477 
G01 X-64.3376 Y40.1789 
G01 X-64.1881 Y40.0790 
G01 X-64.0610 Y39.9519 
G01 X-63.9611 Y39.8024 
G01 X-63.8923 Y39.6363 
G01 X-63.8572 Y39.4599 
G01 X-63.8572 Y39.2801 
G01 X-63.8923 Y39.1037 
G01 X-63.9239 Y39.0274 
G01 X-61.6864 Y36.7900 
G01 X-58.5945 Y36.7900 
G01 X-58.5788 Y36.8280 
G01 X-58.5123 Y36.9276 
G01 X-58.4276 Y37.0123 
G01 X-58.3280 Y37.0788 
G01 X-58.2173 Y37.1246 
G01 X-58.0999 Y37.1480 
G01 X-57.9801 Y37.1480 
G01 X-57.8627 Y37.1246 
G01 X-57.7520 Y37.0788 
G01 X-57.6524 Y37.0123 
G01 X-57.5677 Y36.9276 
G01 X-57.5012 Y36.8280 
G01 X-57.4554 Y36.7173 
G01 X-57.4320 Y36.5999 
G01 X-57.4320 Y36.4801 
G01 X-57.4554 Y36.3627 
G01 X-57.5012 Y36.2520 
G01 X-57.5677 Y36.1524 
G01 X-57.6524 Y36.0677 
G01 X-57.7520 Y36.0012 
G01 X-57.8627 Y35.9554 
G01 X-57.9801 Y35.9320 
G01 X-58.0999 Y35.9320 
G01 X-58.2173 Y35.9554 
G01 X-58.3280 Y36.0012 
G01 X-58.4276 Y36.0677 
G01 X-58.5123 Y36.1524 
G01 X-58.5788 Y36.2520 
G01 X-58.5945 Y36.2900 
G01 X-61.8397 Y36.2900 
G01 X-61.9316 Y36.3281 
G01 X-62.0019 Y36.3984 
G01 X-64.2339 Y38.6304 
G01 X-64.3376 Y38.5611 
G01 X-64.5037 Y38.4923 
G01 X-64.6801 Y38.4572 
G01 X-64.8599 Y38.4572 
G01 X-65.0363 Y38.4923 
G01 X-65.2024 Y38.5611 
G01 X-65.3519 Y38.6610 
G01 X-65.4790 Y38.7881 
G01 X-65.5789 Y38.9376 
G01 X-65.6477 Y39.1037 
G01 X-65.6828 Y39.2801 
G00 Z2.0000 
G00 X-65.6828 Y41.8201 
G01 Z-0.0250 F254.00 
G01 X-65.6828 Y41.9999 F508.00 
G01 X-65.6477 Y42.1763 
G01 X-65.5789 Y42.3424 
G01 X-65.4790 Y42.4919 
G01 X-65.3519 Y42.6190 
G01 X-65.2024 Y42.7189 
G01 X-65.0363 Y42.7877 
G01 X-64.8599 Y42.8228 
G01 X-64.6801 Y42.8228 
G01 X-64.5037 Y42.7877 
G01 X-64.3376 Y42.7189 
G01 X-64.2639 Y42.6696 
G01 X-63.2519 Y43.6816 
G01 X-63.1816 Y43.7519 
G01 X-63.0897 Y43.7900 
G01 X-54.8936 Y43.7900 
G01 X-50.2519 Y48.4316 
G01 X-50.1816 Y48.5019 
G01 X-50.0897 Y48.5400 
G01 X-33.8445 Y48.5400 
G01 X-33.8288 Y48.5780 
G01 X-33.7623 Y48.6776 
G01 X-33.6776 Y48.7623 
G01 X-33.5780 Y48.8288 
G01 X-33.4673 Y48.8746 
G01 X-33.3499 Y48.8980 
G01 X-33.2301 Y48.8980 
G01 X-33.1127 Y48.8746 
G01 X-33.0020 Y48.8288 
G01 X-32.9024 Y48.7623 
G01 X-32.8177 Y48.6776 
G01 X-32.7512 Y48.5780 
G01 X-32.7054 Y48.4673 
G01 X-32.6820 Y48.3499 
G01 X-32.6820 Y48.2301 
G01 X-32.7054 Y48.1127 
G01 X-32.7512 Y48.0020 
G01 X-32.8177 Y47.9024 
G01 X-32.9024 Y47.8177 
G01 X-33.0020 Y47.7512 
G01 X-33.1127 Y47.7054 
G01 X-33.2301 Y47.6820 
G01 X-33.3499 Y47.6820 
G01 X-33.4673 Y47.7054 
G01 X-33.5780 Y47.7512 
G01 X-33.6776 Y47.8177 
G01 X-33.7623 Y47.9024 
G01 X-33.8288 Y48.0020 
G01 X-33.8445 Y48.0400 
G01 X-49.9364 Y48.0400 
G01 X-54.6484 Y43.3281 
G01 X-54.7403 Y43.2900 
G01 X-62.9364 Y43.2900 
G01 X-63.9385 Y42.2879 
G01 X-63.8923 Y42.1763 
G01 X-63.8572 Y41.9999 
G01 X-63.8572 Y41.8201 
G01 X-63.8923 Y41.6437 
G01 X-63.9611 Y41.4776 
G01 X-64.0610 Y41.3281 
G01 X-64.1881 Y41.2010 
G01 X-64.3376 Y41.1011 
G01 X-64.5037 Y41.0323 
G01 X-64.6801 Y40.9972 
G01 X-64.8599 Y40.9972 
G01 X-65.0363 Y41.0323 
G01 X-65.2024 Y41.1011 
G01 X-65.3519 Y41.2010 
G01 X-65.4790 Y41.3281 
G01 X-65.5789 Y41.4776 
G01 X-65.6477 Y41.6437 
G01 X-65.6828 Y41.8201 
G00 Z2.0000 
G00 X-65.6828 Y44.3601 
G01 Z-0.0250 F254.00 
G01 X-65.6828 Y44.5399 F508.00 
G01 X-65.6477 Y44.7163 
G01 X-65.5789 Y44.8824 
G01 X-65.4790 Y45.0319 
G01 X-65.3519 Y45.1590 
G01 X-65.2024 Y45.2589 
G01 X-65.0363 Y45.3277 
G01 X-64.8599 Y45.3628 
G01 X-64.6801 Y45.3628 
G01 X-64.5037 Y45.3277 
G01 X-64.3376 Y45.2589 
G01 X-64.1881 Y45.1590 
G01 X-64.0610 Y45.0319 
G01 X-63.9611 Y44.8824 
G01 X-63.8923 Y44.7163 
G01 X-63.8572 Y44.5399 
G01 X-63.8572 Y44.3601 
G01 X-63.8923 Y44.1837 
G01 X-63.9611 Y44.0176 
G01 X-64.0610 Y43.8681 
G01 X-64.1881 Y43.7410 
G01 X-64.3376 Y43.6411 
G01 X-64.5037 Y43.5723 
G01 X-64.6801 Y43.5372 
G01 X-64.8599 Y43.5372 
G01 X-65.0363 Y43.5723 
G01 X-65.2024 Y43.6411 
G01 X-65.3519 Y43.7410 
G01 X-65.4790 Y43.8681 
G01 X-65.5789 Y44.0176 
G01 X-65.6477 Y44.1837 
G01 X-65.6828 Y44.3601 
G00 Z2.0000 
G00 X-65.6828 Y46.9001 
G01 Z-0.0250 F254.00 
G01 X-65.6828 Y47.0799 F508.00 
G01 X-65.6477 Y47.2563 
G01 X-65.5789 Y47.4224 
G01 X-65.4790 Y47.5719 
G01 X-65.3519 Y47.6990 
G01 X-65.2024 Y47.7989 
G01 X-65.0363 Y47.8677 
G01 X-64.8599 Y47.9028 
G01 X-64.6801 Y47.9028 
G01 X-64.5037 Y47.8677 
G01 X-64.3376 Y47.7989 
G01 X-64.1881 Y47.6990 
G01 X-64.0610 Y47.5719 
G01 X-63.9611 Y47.4224 
G01 X-63.9063 Y47.2900 
G01 X-61.2403 Y47.2900 
G01 X-61.1484 Y47.2519 
G01 X-58.6864 Y44.7900 
G01 X-56.3445 Y44.7900 
G01 X-56.3288 Y44.8280 
G01 X-56.2623 Y44.9276 
G01 X-56.1776 Y45.0123 
G01 X-56.0780 Y45.0788 
G01 X-55.9673 Y45.1246 
G01 X-55.8499 Y45.1480 
G01 X-55.7301 Y45.1480 
G01 X-55.6127 Y45.1246 
G01 X-55.5020 Y45.0788 
G01 X-55.4024 Y45.0123 
G01 X-55.3177 Y44.9276 
G01 X-55.2512 Y44.8280 
G01 X-55.2054 Y44.7173 
G01 X-55.1820 Y44.5999 
G01 X-55.1820 Y44.4801 
G01 X-55.2054 Y44.3627 
G01 X-55.2512 Y44.2520 
G01 X-55.3177 Y44.1524 
G01 X-55.4024 Y44.0677 
G01 X-55.5020 Y44.0012 
G01 X-55.6127 Y43.9554 
G01 X-55.7301 Y43.9320 
G01 X-55.8499 Y43.9320 
G01 X-55.9673 Y43.9554 
G01 X-56.0780 Y44.0012 
G01 X-56.1776 Y44.0677 
G01 X-56.2623 Y44.1524 
G01 X-56.3288 Y44.2520 
G01 X-56.3445 Y44.2900 
G01 X-58.8397 Y44.2900 
G01 X-58.9316 Y44.3281 
G01 X-59.0019 Y44.3984 
G01 X-61.3936 Y46.7900 
G01 X-63.8791 Y46.7900 
G01 X-63.8923 Y46.7237 
G01 X-63.9611 Y46.5576 
G01 X-64.0610 Y46.4081 
G01 X-64.1881 Y46.2810 
G01 X-64.3376 Y46.1811 
G01 X-64.5037 Y46.1123 
G01 X-64.6801 Y46.0772 
G01 X-64.8599 Y46.0772 
G01 X-65.0363 Y46.1123 
G01 X-65.2024 Y46.1811 
G01 X-65.3519 Y46.2810 
G01 X-65.4790 Y46.4081 
G01 X-65.5789 Y46.5576 
G01 X-65.6477 Y46.7237 
G01 X-65.6828 Y46.9001 
G00 Z2.0000 
G00 X-65.6828 Y49.4401 
G01 Z-0.0250 F254.00 
G01 X-65.6828 Y49.6199 F508.00 
G01 X-65.6477 Y49.7963 
G01 X-65.5789 Y49.9624 
G01 X-65.4790 Y50.1119 
G01 X-65.3519 Y50.2390 
G01 X-65.2024 Y50.3389 
G01 X-65.0363 Y50.4077 
G01 X-64.8599 Y50.4428 
G01 X-64.6801 Y50.4428 
G01 X-64.5037 Y50.4077 
G01 X-64.3376 Y50.3389 
G01 X-64.1881 Y50.2390 
G01 X-64.0610 Y50.1119 
G01 X-63.9611 Y49.9624 
G01 X-63.8923 Y49.7963 
G01 X-63.8910 Y49.7900 
G01 X-52.7403 Y49.7900 
G01 X-52.6484 Y49.7519 
G01 X-51.7553 Y48.8589 
G01 X-51.7173 Y48.8746 
G01 X-51.5999 Y48.8980 
G01 X-51.4801 Y48.8980 
G01 X-51.3627 Y48.8746 
G01 X-51.2520 Y48.8288 
G01 X-51.1524 Y48.7623 
G01 X-51.0677 Y48.6776 
G01 X-51.0012 Y48.5780 
G01 X-50.9554 Y48.4673 
G01 X-50.9320 Y48.3499 
G01 X-50.9320 Y48.2301 
G01 X-50.9554 Y48.1127 
G01 X-51.0012 Y48.0020 
G01 X-51.0677 Y47.9024 
G01 X-51.1524 Y47.8177 
G01 X-51.2520 Y47.7512 
G01 X-51.3627 Y47.7054 
G01 X-51.4801 Y47.6820 
G01 X-51.5999 Y47.6820 
G01 X-51.7173 Y47.7054 
G01 X-51.8280 Y47.7512 
G01 X-51.9276 Y47.8177 
G01 X-52.0123 Y47.9024 
G01 X-52.0788 Y48.0020 
G01 X-52.1246 Y48.1127 
G01 X-52.1480 Y48.2301 
G01 X-52.1480 Y48.3499 
G01 X-52.1246 Y48.4673 
G01 X-52.1089 Y48.5053 
G01 X-52.8936 Y49.2900 
G01 X-63.8871 Y49.2900 
G01 X-63.8923 Y49.2637 
G01 X-63.9611 Y49.0976 
G01 X-64.0610 Y48.9481 
G01 X-64.1881 Y48.8210 
G01 X-64.3376 Y48.7211 
G01 X-64.5037 Y48.6523 
G01 X-64.6801 Y48.6172 
G01 X-64.8599 Y48.6172 
G01 X-65.0363 Y48.6523 
G01 X-65.2024 Y48.7211 
G01 X-65.3519 Y48.8210 
G01 X-65.4790 Y48.9481 
G01 X-65.5789 Y49.0976 
G01 X-65.6477 Y49.2637 
G01 X-65.6828 Y49.4401 
G00 Z2.0000 
G00 X-65.6828 Y51.9801 
G01 Z-0.0250 F254.00 
G01 X-65.6828 Y52.1599 F508.00 
G01 X-65.6477 Y52.3363 
G01 X-65.5789 Y52.5024 
G01 X-65.4790 Y52.6519 
G01 X-65.3519 Y52.7790 
G01 X-65.2024 Y52.8789 
G01 X-65.0363 Y52.9477 
G01 X-64.8599 Y52.9828 
G01 X-64.6801 Y52.9828 
G01 X-64.5037 Y52.9477 
G01 X-64.3376 Y52.8789 
G01 X-64.1881 Y52.7790 
G01 X-64.0610 Y52.6519 
G01 X-63.9611 Y52.5024 
G01 X-63.8923 Y52.3363 
G01 X-63.8831 Y52.2900 
G01 X-50.4169 Y52.2900 
G01 X-50.4077 Y52.3363 
G01 X-50.3389 Y52.5024 
G01 X-50.2390 Y52.6519 
G01 X-50.1119 Y52.7790 
G01 X-49.9624 Y52.8789 
G01 X-49.7963 Y52.9477 
G01 X-49.6199 Y52.9828 
G01 X-49.4401 Y52.9828 
G01 X-49.2637 Y52.9477 
G01 X-49.0976 Y52.8789 
G01 X-48.9481 Y52.7790 
G01 X-48.8210 Y52.6519 
G01 X-48.7211 Y52.5024 
G01 X-48.6523 Y52.3363 
G01 X-48.6172 Y52.1599 
G01 X-48.6172 Y51.9801 
G01 X-48.6523 Y51.8037 
G01 X-48.7211 Y51.6376 
G01 X-48.8210 Y51.4881 
G01 X-48.9481 Y51.3610 
G01 X-49.0976 Y51.2611 
G01 X-49.2637 Y51.1923 
G01 X-49.4401 Y51.1572 
G01 X-49.6199 Y51.1572 
G01 X-49.7963 Y51.1923 
G01 X-49.9624 Y51.2611 
G01 X-50.1119 Y51.3610 
G01 X-50.2390 Y51.4881 
G01 X-50.3389 Y51.6376 
G01 X-50.4020 Y51.7900 
G01 X-63.8980 Y51.7900 
G01 X-63.9611 Y51.6376 
G01 X-64.0610 Y51.4881 
G01 X-64.1881 Y51.3610 
G01 X-64.3376 Y51.2611 
G01 X-64.5037 Y51.1923 
G01 X-64.6801 Y51.1572 
G01 X-64.8599 Y51.1572 
G01 X-65.0363 Y51.1923 
G01 X-65.2024 Y51.2611 
G01 X-65.3519 Y51.3610 
G01 X-65.4790 Y51.4881 
G01 X-65.5789 Y51.6376 
G01 X-65.6477 Y51.8037 
G01 X-65.6828 Y51.9801 
G00 Z2.0000 
G00 X-65.6828 Y54.5201 
G01 Z-0.0250 F254.00 
G01 X-65.6828 Y54.6999 F508.00 
G01 X-65.6477 Y54.8763 
G01 X-65.5789 Y55.0424 
G01 X-65.4790 Y55.1919 
G01 X-65.3519 Y55.3190 
G01 X-65.2024 Y55.4189 
G01 X-65.0363 Y55.4877 
G01 X-64.8599 Y55.5228 
G01 X-64.6801 Y55.5228 
G01 X-64.5037 Y55.4877 
G01 X-64.3376 Y55.4189 
G01 X-64.1881 Y55.3190 
G01 X-64.0610 Y55.1919 
G01 X-63.9611 Y55.0424 
G01 X-63.8923 Y54.8763 
G01 X-63.8572 Y54.6999 
G01 X-63.8572 Y54.5201 
G01 X-63.8923 Y54.3437 
G01 X-63.9611 Y54.1776 
G01 X-64.0610 Y54.0281 
G01 X-64.1881 Y53.9010 
G01 X-64.3376 Y53.8011 
G01 X-64.5037 Y53.7323 
G01 X-64.6801 Y53.6972 
G01 X-64.8599 Y53.6972 
G01 X-65.0363 Y53.7323 
G01 X-65.2024 Y53.8011 
G01 X-65.3519 Y53.9010 
G01 X-65.4790 Y54.0281 
G01 X-65.5789 Y54.1776 
G01 X-65.6477 Y54.3437 
G01 X-65.6828 Y54.5201 
G00 Z2.0000 
G00 X-65.6828 Y57.0601 
G01 Z-0.0250 F254.00 
G01 X-65.6828 Y57.2399 F508.00 
G01 X-65.6477 Y57.4163 
G01 X-65.5789 Y57.5824 
G01 X-65.4790 Y57.7319 
G01 X-65.3519 Y57.8590 
G01 X-65.2024 Y57.9589 
G01 X-65.0363 Y58.0277 
G01 X-64.8599 Y58.0628 
G01 X-64.6801 Y58.0628 
G01 X-64.5037 Y58.0277 
G01 X-64.3376 Y57.9589 
G01 X-64.1881 Y57.8590 
G01 X-64.0610 Y57.7319 
G01 X-63.9611 Y57.5824 
G01 X-63.8923 Y57.4163 
G01 X-63.8572 Y57.2399 
G01 X-63.8572 Y57.0601 
G01 X-63.8923 Y56.8837 
G01 X-63.9611 Y56.7176 
G01 X-64.0610 Y56.5681 
G01 X-64.1881 Y56.4410 
G01 X-64.3376 Y56.3411 
G01 X-64.5037 Y56.2723 
G01 X-64.6801 Y56.2372 
G01 X-64.8599 Y56.2372 
G01 X-65.0363 Y56.2723 
G01 X-65.2024 Y56.3411 
G01 X-65.3519 Y56.4410 
G01 X-65.4790 Y56.5681 
G01 X-65.5789 Y56.7176 
G01 X-65.6477 Y56.8837 
G01 X-65.6828 Y57.0601 
G00 Z2.0000 
G00 X-25.1436 Y31.2900 
G01 Z-0.0250 F254.00 
G01 X-48.7395 Y31.2900 F508.00 
G01 X-48.8210 Y31.1681 
G01 X-48.9481 Y31.0410 
G01 X-49.0976 Y30.9411 
G01 X-49.2637 Y30.8723 
G01 X-49.4401 Y30.8372 
G01 X-49.6199 Y30.8372 
G01 X-49.7963 Y30.8723 
G01 X-49.9624 Y30.9411 
G01 X-50.1119 Y31.0410 
G01 X-50.2390 Y31.1681 
G01 X-50.3389 Y31.3176 
G01 X-50.4077 Y31.4837 
G01 X-50.4428 Y31.6601 
G01 X-50.4428 Y31.8399 
G01 X-50.4077 Y32.0163 
G01 X-50.3389 Y32.1824 
G01 X-50.2390 Y32.3319 
G01 X-50.1119 Y32.4590 
G01 X-49.9624 Y32.5589 
G01 X-49.7963 Y32.6277 
G01 X-49.6199 Y32.6628 
G01 X-49.4401 Y32.6628 
G01 X-49.2637 Y32.6277 
G01 X-49.0976 Y32.5589 
G01 X-48.9481 Y32.4590 
G01 X-48.8210 Y32.3319 
G01 X-48.7211 Y32.1824 
G01 X-48.6523 Y32.0163 
G01 X-48.6172 Y31.8399 
G01 X-48.6172 Y31.7900 
G01 X-24.9903 Y31.7900 
G01 X-24.8984 Y31.7519 
G01 X-24.8281 Y31.6816 
G01 X-22.0053 Y28.8589 
G01 X-21.9673 Y28.8746 
G01 X-21.8499 Y28.8980 
G01 X-21.7301 Y28.8980 
G01 X-21.6127 Y28.8746 
G01 X-21.5020 Y28.8288 
G01 X-21.4024 Y28.7623 
G01 X-21.3177 Y28.6776 
G01 X-21.2512 Y28.5780 
G01 X-21.2054 Y28.4673 
G01 X-21.1820 Y28.3499 
G01 X-21.1820 Y28.2301 
G01 X-21.2054 Y28.1127 
G01 X-21.2512 Y28.0020 
G01 X-21.3177 Y27.9024 
G01 X-21.4024 Y27.8177 
G01 X-21.5020 Y27.7512 
G01 X-21.6127 Y27.7054 
G01 X-21.7301 Y27.6820 
G01 X-21.8499 Y27.6820 
G01 X-21.9673 Y27.7054 
G01 X-22.0780 Y27.7512 
G01 X-22.1776 Y27.8177 
G01 X-22.2623 Y27.9024 
G01 X-22.3288 Y28.0020 
G01 X-22.3746 Y28.1127 
G01 X-22.3980 Y28.2301 
G01 X-22.3980 Y28.3499 
G01 X-22.3746 Y28.4673 
G01 X-22.3589 Y28.5053 
G01 X-25.1436 Y31.2900 
G00 Z2.0000 
G00 X-60.8936 Y47.7900 
G01 Z-0.0250 F254.00 
G01 X-61.4462 Y47.7900 F508.00 
G01 X-61.5210 Y47.6781 
G01 X-61.6481 Y47.5510 
G01 X-61.7976 Y47.4511 
G01 X-61.9637 Y47.3823 
G01 X-62.1401 Y47.3472 
G01 X-62.3199 Y47.3472 
G01 X-62.4963 Y47.3823 
G01 X-62.6624 Y47.4511 
G01 X-62.8119 Y47.5510 
G01 X-62.9390 Y47.6781 
G01 X-63.0389 Y47.8276 
G01 X-63.1077 Y47.9937 
G01 X-63.1428 Y48.1701 
G01 X-63.1428 Y48.3499 
G01 X-63.1077 Y48.5263 
G01 X-63.0389 Y48.6924 
G01 X-62.9390 Y48.8419 
G01 X-62.8119 Y48.9690 
G01 X-62.6624 Y49.0689 
G01 X-62.4963 Y49.1377 
G01 X-62.3199 Y49.1728 
G01 X-62.1401 Y49.1728 
G01 X-61.9637 Y49.1377 
G01 X-61.7976 Y49.0689 
G01 X-61.6481 Y48.9690 
G01 X-61.5210 Y48.8419 
G01 X-61.4211 Y48.6924 
G01 X-61.3523 Y48.5263 
G01 X-61.3172 Y48.3499 
G01 X-61.3172 Y48.2900 
G01 X-60.7403 Y48.2900 
G01 X-60.6484 Y48.2519 
G01 X-60.5781 Y48.1816 
G01 X-59.0053 Y46.6089 
G01 X-58.9673 Y46.6246 
G01 X-58.8499 Y46.6480 
G01 X-58.7301 Y46.6480 
G01 X-58.6127 Y46.6246 
G01 X-58.5020 Y46.5788 
G01 X-58.4024 Y46.5123 
G01 X-58.3177 Y46.4276 
G01 X-58.2512 Y46.3280 
G01 X-58.2054 Y46.2173 
G01 X-58.1820 Y46.0999 
G01 X-58.1820 Y45.9801 
G01 X-58.2054 Y45.8627 
G01 X-58.2512 Y45.7520 
G01 X-58.3177 Y45.6524 
G01 X-58.4024 Y45.5677 
G01 X-58.5020 Y45.5012 
G01 X-58.6127 Y45.4554 
G01 X-58.7301 Y45.4320 
G01 X-58.8499 Y45.4320 
G01 X-58.9673 Y45.4554 
G01 X-59.0780 Y45.5012 
G01 X-59.1776 Y45.5677 
G01 X-59.2623 Y45.6524 
G01 X-59.3288 Y45.7520 
G01 X-59.3746 Y45.8627 
G01 X-59.3980 Y45.9801 
G01 X-59.3980 Y46.0999 
G01 X-59.3746 Y46.2173 
G01 X-59.3589 Y46.2553 
G01 X-60.8936 Y47.7900 
G00 Z2.0000 
G00 X-35.1436 Y44.2900 
G01 Z-0.0250 F254.00 
G01 X-48.6311 Y44.2900 F508.00 
G01 X-48.6523 Y44.1837 
G01 X-48.7211 Y44.0176 
G01 X-48.8210 Y43.8681 
G01 X-48.9481 Y43.7410 
G01 X-49.0976 Y43.6411 
G01 X-49.2637 Y43.5723 
G01 X-49.4401 Y43.5372 
G01 X-49.6199 Y43.5372 
G01 X-49.7963 Y43.5723 
G01 X-49.9624 Y43.6411 
G01 X-50.1119 Y43.7410 
G01 X-50.2390 Y43.8681 
G01 X-50.3389 Y44.0176 
G01 X-50.4077 Y44.1837 
G01 X-50.4428 Y44.3601 
G01 X-50.4428 Y44.5399 
G01 X-50.4077 Y44.7163 
G01 X-50.3389 Y44.8824 
G01 X-50.2390 Y45.0319 
G01 X-50.1119 Y45.1590 
G01 X-49.9624 Y45.2589 
G01 X-49.7963 Y45.3277 
G01 X-49.6199 Y45.3628 
G01 X-49.4401 Y45.3628 
G01 X-49.2637 Y45.3277 
G01 X-49.0976 Y45.2589 
G01 X-48.9481 Y45.1590 
G01 X-48.8210 Y45.0319 
G01 X-48.7211 Y44.8824 
G01 X-48.6828 Y44.7900 
G01 X-34.9903 Y44.7900 
G01 X-34.8984 Y44.7519 
G01 X-34.8281 Y44.6816 
G01 X-32.0053 Y41.8589 
G01 X-31.9673 Y41.8746 
G01 X-31.8499 Y41.8980 
G01 X-31.7301 Y41.8980 
G01 X-31.6127 Y41.8746 
G01 X-31.5020 Y41.8288 
G01 X-31.4024 Y41.7623 
G01 X-31.3177 Y41.6776 
G01 X-31.2512 Y41.5780 
G01 X-31.2054 Y41.4673 
G01 X-31.1820 Y41.3499 
G01 X-31.1820 Y41.2301 
G01 X-31.2054 Y41.1127 
G01 X-31.2512 Y41.0020 
G01 X-31.3177 Y40.9024 
G01 X-31.4024 Y40.8177 
G01 X-31.5020 Y40.7512 
G01 X-31.6127 Y40.7054 
G01 X-31.7301 Y40.6820 
G01 X-31.8499 Y40.6820 
G01 X-31.9673 Y40.7054 
G01 X-32.0780 Y40.7512 
G01 X-32.1776 Y40.8177 
G01 X-32.2623 Y40.9024 
G01 X-32.3288 Y41.0020 
G01 X-32.3746 Y41.1127 
G01 X-32.3980 Y41.2301 
G01 X-32.3980 Y41.3499 
G01 X-32.3746 Y41.4673 
G01 X-32.3589 Y41.5053 
G01 X-35.1436 Y44.2900 
G00 Z2.0000 
G00 X-7.5019 Y53.6816 
G01 Z-0.0250 F254.00 
G01 X-7.4316 Y53.7519 F508.00 
G01 X-7.3397 Y53.7900 
G01 X-5.3945 Y53.7900 
G01 X-5.3830 Y53.8629 
G01 X-5.3324 Y54.0185 
G01 X-5.2581 Y54.1644 
G01 X-5.1619 Y54.2968 
G01 X-5.0462 Y54.4125 
G01 X-4.9138 Y54.5087 
G01 X-4.7679 Y54.5830 
G01 X-4.6123 Y54.6336 
G01 X-4.4506 Y54.6592 
G01 X-4.2870 Y54.6592 
G01 X-4.1253 Y54.6336 
G01 X-3.9697 Y54.5830 
G01 X-3.8238 Y54.5087 
G01 X-3.6914 Y54.4125 
G01 X-3.5757 Y54.2968 
G01 X-3.4795 Y54.1644 
G01 X-3.4052 Y54.0185 
G01 X-3.3546 Y53.8629 
G01 X-3.3290 Y53.7012 
G01 X-3.3290 Y53.5376 
G01 X-3.3546 Y53.3759 
G01 X-3.4052 Y53.2203 
G01 X-3.4795 Y53.0744 
G01 X-3.5757 Y52.9420 
G01 X-3.6914 Y52.8263 
G01 X-3.8238 Y52.7301 
G01 X-3.9697 Y52.6558 
G01 X-4.1253 Y52.6052 
G01 X-4.2870 Y52.5796 
G01 X-4.4506 Y52.5796 
G01 X-4.6123 Y52.6052 
G01 X-4.7679 Y52.6558 
G01 X-4.9138 Y52.7301 
G01 X-5.0462 Y52.8263 
G01 X-5.1619 Y52.9420 
G01 X-5.2581 Y53.0744 
G01 X-5.3324 Y53.2203 
G01 X-5.3551 Y53.2900 
G01 X-7.1864 Y53.2900 
G01 X-19.7211 Y40.7553 
G01 X-19.7054 Y40.7173 
G01 X-19.6820 Y40.5999 
G01 X-19.6820 Y40.4801 
G01 X-19.7054 Y40.3627 
G01 X-19.7512 Y40.2520 
G01 X-19.8177 Y40.1524 
G01 X-19.9024 Y40.0677 
G01 X-20.0020 Y40.0012 
G01 X-20.1127 Y39.9554 
G01 X-20.2301 Y39.9320 
G01 X-20.3499 Y39.9320 
G01 X-20.4673 Y39.9554 
G01 X-20.5780 Y40.0012 
G01 X-20.6361 Y40.0400 
G01 X-48.4364 Y40.0400 
G01 X-48.7073 Y39.7691 
G01 X-48.6523 Y39.6363 
G01 X-48.6172 Y39.4599 
G01 X-48.6172 Y39.2801 
G01 X-48.6523 Y39.1037 
G01 X-48.7211 Y38.9376 
G01 X-48.8210 Y38.7881 
G01 X-48.9481 Y38.6610 
G01 X-49.0976 Y38.5611 
G01 X-49.2637 Y38.4923 
G01 X-49.4401 Y38.4572 
G01 X-49.6199 Y38.4572 
G01 X-49.7963 Y38.4923 
G01 X-49.9624 Y38.5611 
G01 X-50.1119 Y38.6610 
G01 X-50.2390 Y38.7881 
G01 X-50.3389 Y38.9376 
G01 X-50.4077 Y39.1037 
G01 X-50.4428 Y39.2801 
G01 X-50.4428 Y39.4599 
G01 X-50.4077 Y39.6363 
G01 X-50.3389 Y39.8024 
G01 X-50.2390 Y39.9519 
G01 X-50.1119 Y40.0790 
G01 X-49.9624 Y40.1789 
G01 X-49.7963 Y40.2477 
G01 X-49.6199 Y40.2828 
G01 X-49.4401 Y40.2828 
G01 X-49.2637 Y40.2477 
G01 X-49.0976 Y40.1789 
G01 X-49.0419 Y40.1417 
G01 X-48.7519 Y40.4316 
G01 X-48.6816 Y40.5019 
G01 X-48.5897 Y40.5400 
G01 X-20.8980 Y40.5400 
G01 X-20.8980 Y40.5999 
G01 X-20.8746 Y40.7173 
G01 X-20.8288 Y40.8280 
G01 X-20.7623 Y40.9276 
G01 X-20.6776 Y41.0123 
G01 X-20.5780 Y41.0788 
G01 X-20.4673 Y41.1246 
G01 X-20.3499 Y41.1480 
G01 X-20.2301 Y41.1480 
G01 X-20.1127 Y41.1246 
G01 X-20.0747 Y41.1089 
G01 X-7.5019 Y53.6816 
G00 Z2.0000 
G00 X-27.0781 Y22.3984 
G01 Z-0.0250 F254.00 
G01 X-27.1484 Y22.3281 F508.00 
G01 X-27.2403 Y22.2900 
G01 X-53.7355 Y22.2900 
G01 X-53.7512 Y22.2520 
G01 X-53.8177 Y22.1524 
G01 X-53.9024 Y22.0677 
G01 X-54.0020 Y22.0012 
G01 X-54.1127 Y21.9554 
G01 X-54.2301 Y21.9320 
G01 X-54.3499 Y21.9320 
G01 X-54.4673 Y21.9554 
G01 X-54.5780 Y22.0012 
G01 X-54.6776 Y22.0677 
G01 X-54.7623 Y22.1524 
G01 X-54.8288 Y22.2520 
G01 X-54.8746 Y22.3627 
G01 X-54.8980 Y22.4801 
G01 X-54.8980 Y22.5999 
G01 X-54.8746 Y22.7173 
G01 X-54.8288 Y22.8280 
G01 X-54.7623 Y22.9276 
G01 X-54.6776 Y23.0123 
G01 X-54.5780 Y23.0788 
G01 X-54.4673 Y23.1246 
G01 X-54.3499 Y23.1480 
G01 X-54.2301 Y23.1480 
G01 X-54.1127 Y23.1246 
G01 X-54.0020 Y23.0788 
G01 X-53.9024 Y23.0123 
G01 X-53.8177 Y22.9276 
G01 X-53.7512 Y22.8280 
G01 X-53.7355 Y22.7900 
G01 X-27.3936 Y22.7900 
G01 X-24.1089 Y26.0747 
G01 X-24.1246 Y26.1127 
G01 X-24.1480 Y26.2301 
G01 X-24.1480 Y26.3499 
G01 X-24.1246 Y26.4673 
G01 X-24.0788 Y26.5780 
G01 X-24.0123 Y26.6776 
G01 X-23.9276 Y26.7623 
G01 X-23.8280 Y26.8288 
G01 X-23.7173 Y26.8746 
G01 X-23.5999 Y26.8980 
G01 X-23.4801 Y26.8980 
G01 X-23.3627 Y26.8746 
G01 X-23.2520 Y26.8288 
G01 X-23.1524 Y26.7623 
G01 X-23.0677 Y26.6776 
G01 X-23.0012 Y26.5780 
G01 X-22.9554 Y26.4673 
G01 X-22.9320 Y26.3499 
G01 X-22.9320 Y26.2301 
G01 X-22.9554 Y26.1127 
G01 X-23.0012 Y26.0020 
G01 X-23.0677 Y25.9024 
G01 X-23.1524 Y25.8177 
G01 X-23.2520 Y25.7512 
G01 X-23.3627 Y25.7054 
G01 X-23.4801 Y25.6820 
G01 X-23.5999 Y25.6820 
G01 X-23.7173 Y25.7054 
G01 X-23.7553 Y25.7211 
G01 X-27.0781 Y22.3984 
G00 Z2.0000 
G00 X-23.4364 Y35.0400 
G01 Z-0.0250 F254.00 
G01 X-17.3445 Y35.0400 F508.00 
G01 X-17.3288 Y35.0780 
G01 X-17.2623 Y35.1776 
G01 X-17.1776 Y35.2623 
G01 X-17.0780 Y35.3288 
G01 X-16.9673 Y35.3746 
G01 X-16.8499 Y35.3980 
G01 X-16.7301 Y35.3980 
G01 X-16.6127 Y35.3746 
G01 X-16.5020 Y35.3288 
G01 X-16.4024 Y35.2623 
G01 X-16.3177 Y35.1776 
G01 X-16.2512 Y35.0780 
G01 X-16.2054 Y34.9673 
G01 X-16.1820 Y34.8499 
G01 X-16.1820 Y34.7301 
G01 X-16.2054 Y34.6127 
G01 X-16.2512 Y34.5020 
G01 X-16.3177 Y34.4024 
G01 X-16.4024 Y34.3177 
G01 X-16.5020 Y34.2512 
G01 X-16.6127 Y34.2054 
G01 X-16.7301 Y34.1820 
G01 X-16.8499 Y34.1820 
G01 X-16.9673 Y34.2054 
G01 X-17.0780 Y34.2512 
G01 X-17.1776 Y34.3177 
G01 X-17.2623 Y34.4024 
G01 X-17.3288 Y34.5020 
G01 X-17.3445 Y34.5400 
G01 X-23.5897 Y34.5400 
G01 X-23.6816 Y34.5781 
G01 X-23.7519 Y34.6484 
G01 X-25.0747 Y35.9711 
G01 X-25.1127 Y35.9554 
G01 X-25.2301 Y35.9320 
G01 X-25.3499 Y35.9320 
G01 X-25.4673 Y35.9554 
G01 X-25.5053 Y35.9711 
G01 X-28.6484 Y32.8281 
G01 X-28.7403 Y32.7900 
G01 X-65.4320 Y32.7900 
G01 X-65.4320 Y32.7301 
G01 X-65.4554 Y32.6127 
G01 X-65.5012 Y32.5020 
G01 X-65.5677 Y32.4024 
G01 X-65.6524 Y32.3177 
G01 X-65.7520 Y32.2512 
G01 X-65.8627 Y32.2054 
G01 X-65.9801 Y32.1820 
G01 X-66.0999 Y32.1820 
G01 X-66.2173 Y32.2054 
G01 X-66.3280 Y32.2512 
G01 X-66.4276 Y32.3177 
G01 X-66.5123 Y32.4024 
G01 X-66.5788 Y32.5020 
G01 X-66.6246 Y32.6127 
G01 X-66.6480 Y32.7301 
G01 X-66.6480 Y32.8499 
G01 X-66.6246 Y32.9673 
G01 X-66.5788 Y33.0780 
G01 X-66.5123 Y33.1776 
G01 X-66.4276 Y33.2623 
G01 X-66.3280 Y33.3288 
G01 X-66.2173 Y33.3746 
G01 X-66.0999 Y33.3980 
G01 X-65.9801 Y33.3980 
G01 X-65.8627 Y33.3746 
G01 X-65.7520 Y33.3288 
G01 X-65.6939 Y33.2900 
G01 X-28.8936 Y33.2900 
G01 X-25.8589 Y36.3247 
G01 X-25.8746 Y36.3627 
G01 X-25.8980 Y36.4801 
G01 X-25.8980 Y36.5999 
G01 X-25.8746 Y36.7173 
G01 X-25.8288 Y36.8280 
G01 X-25.7623 Y36.9276 
G01 X-25.6776 Y37.0123 
G01 X-25.5780 Y37.0788 
G01 X-25.4673 Y37.1246 
G01 X-25.3499 Y37.1480 
G01 X-25.2301 Y37.1480 
G01 X-25.1127 Y37.1246 
G01 X-25.0020 Y37.0788 
G01 X-24.9024 Y37.0123 
G01 X-24.8177 Y36.9276 
G01 X-24.7512 Y36.8280 
G01 X-24.7054 Y36.7173 
G01 X-24.6820 Y36.5999 
G01 X-24.6820 Y36.4801 
G01 X-24.7054 Y36.3627 
G01 X-24.7211 Y36.3247 
G01 X-23.4364 Y35.0400 
G00 Z2.0000 
G00 X-6.6800 Y4.9541 
G01 Z-0.0250 F254.00 
G01 X-6.6800 Y5.2059 F508.00 
G01 X-6.6406 Y5.4547 
G01 X-6.5628 Y5.6942 
G01 X-6.4484 Y5.9186 
G01 X-6.3004 Y6.1223 
G01 X-6.1223 Y6.3004 
G01 X-5.9186 Y6.4484 
G01 X-5.6942 Y6.5628 
G01 X-5.4547 Y6.6406 
G01 X-5.2059 Y6.6800 
G01 X-4.9541 Y6.6800 
G01 X-4.7053 Y6.6406 
G01 X-4.4658 Y6.5628 
G01 X-4.2414 Y6.4484 
G01 X-4.0377 Y6.3004 
G01 X-3.8596 Y6.1223 
G01 X-3.7116 Y5.9186 
G01 X-3.5972 Y5.6942 
G01 X-3.5194 Y5.4547 
G01 X-3.4800 Y5.2059 
G01 X-3.4800 Y4.9541 
G01 X-3.5194 Y4.7053 
G01 X-3.5972 Y4.4658 
G01 X-3.7116 Y4.2414 
G01 X-3.8596 Y4.0377 
G01 X-4.0377 Y3.8596 
G01 X-4.2414 Y3.7116 
G01 X-4.4658 Y3.5972 
G01 X-4.7053 Y3.5194 
G01 X-4.9541 Y3.4800 
G01 X-5.2059 Y3.4800 
G01 X-5.4547 Y3.5194 
G01 X-5.6942 Y3.5972 
G01 X-5.9186 Y3.7116 
G01 X-6.1223 Y3.8596 
G01 X-6.3004 Y4.0377 
G01 X-6.4484 Y4.2414 
G01 X-6.5628 Y4.4658 
G01 X-6.6406 Y4.7053 
G01 X-6.6800 Y4.9541 
G00 Z2.0000 
G00 X-67.6400 Y60.8341 
G01 Z-0.0250 F254.00 
G01 X-67.6400 Y61.0859 F508.00 
G01 X-67.6006 Y61.3347 
G01 X-67.5228 Y61.5742 
G01 X-67.4084 Y61.7986 
G01 X-67.2604 Y62.0023 
G01 X-67.0823 Y62.1804 
G01 X-66.8786 Y62.3284 
G01 X-66.6542 Y62.4428 
G01 X-66.4147 Y62.5206 
G01 X-66.1659 Y62.5600 
G01 X-65.9141 Y62.5600 
G01 X-65.6653 Y62.5206 
G01 X-65.4258 Y62.4428 
G01 X-65.2014 Y62.3284 
G01 X-64.9977 Y62.1804 
G01 X-64.8196 Y62.0023 
G01 X-64.6716 Y61.7986 
G01 X-64.5572 Y61.5742 
G01 X-64.4794 Y61.3347 
G01 X-64.4400 Y61.0859 
G01 X-64.4400 Y60.8341 
G01 X-64.4794 Y60.5853 
G01 X-64.5572 Y60.3458 
G01 X-64.6716 Y60.1214 
G01 X-64.8196 Y59.9177 
G01 X-64.9977 Y59.7396 
G01 X-65.2014 Y59.5916 
G01 X-65.4258 Y59.4772 
G01 X-65.6653 Y59.3994 
G01 X-65.9141 Y59.3600 
G01 X-66.1659 Y59.3600 
G01 X-66.4147 Y59.3994 
G01 X-66.6542 Y59.4772 
G01 X-66.8786 Y59.5916 
G01 X-67.0823 Y59.7396 
G01 X-67.2604 Y59.9177 
G01 X-67.4084 Y60.1214 
G01 X-67.5228 Y60.3458 
G01 X-67.6006 Y60.5853 
G01 X-67.6400 Y60.8341 
G00 Z2.0000 
G00 X-65.6900 Y49.9555 
G01 Z-0.0250 F254.00 
G01 X-65.6675 Y50.0097 F508.00 
G01 X-65.5567 Y50.1756 
G01 X-65.4156 Y50.3167 
G01 X-65.2497 Y50.4275 
G01 X-65.2196 Y50.4400 
G01 X-65.6900 Y50.4400 
G01 X-65.6900 Y49.9555 
G00 Z2.0000 
G00 X-50.0097 Y51.1725 
G01 Z-0.0250 F254.00 
G01 X-50.1756 Y51.2833 F508.00 
G01 X-50.3167 Y51.4244 
G01 X-50.4275 Y51.5903 
G01 X-50.4688 Y51.6900 
G01 X-63.8312 Y51.6900 
G01 X-63.8725 Y51.5903 
G01 X-63.9833 Y51.4244 
G01 X-64.1244 Y51.2833 
G01 X-64.2903 Y51.1725 
G01 X-64.3687 Y51.1400 
G01 X-49.9313 Y51.1400 
G01 X-50.0097 Y51.1725 
G00 Z2.0000 
G00 X-62.8756 Y47.4733 
G01 Z-0.0250 F254.00 
G01 X-63.0167 Y47.6144 F508.00 
G01 X-63.1275 Y47.7803 
G01 X-63.2039 Y47.9646 
G01 X-63.2428 Y48.1602 
G01 X-63.2428 Y48.3598 
G01 X-63.2039 Y48.5554 
G01 X-63.1275 Y48.7397 
G01 X-63.0167 Y48.9056 
G01 X-62.8756 Y49.0467 
G01 X-62.7097 Y49.1575 
G01 X-62.6313 Y49.1900 
G01 X-63.8146 Y49.1900 
G01 X-63.8725 Y49.0503 
G01 X-63.9833 Y48.8844 
G01 X-64.1244 Y48.7433 
G01 X-64.2903 Y48.6325 
G01 X-64.4746 Y48.5561 
G01 X-64.6702 Y48.5172 
G01 X-64.8698 Y48.5172 
G01 X-65.0654 Y48.5561 
G01 X-65.2497 Y48.6325 
G01 X-65.4156 Y48.7433 
G01 X-65.5567 Y48.8844 
G01 X-65.6675 Y49.0503 
G01 X-65.6900 Y49.1045 
G01 X-65.6900 Y47.4155 
G01 X-65.6675 Y47.4697 
G01 X-65.5567 Y47.6356 
G01 X-65.4156 Y47.7767 
G01 X-65.2497 Y47.8875 
G01 X-65.0654 Y47.9639 
G01 X-64.8698 Y48.0028 
G01 X-64.6702 Y48.0028 
G01 X-64.4746 Y47.9639 
G01 X-64.2903 Y47.8875 
G01 X-64.1244 Y47.7767 
G01 X-63.9833 Y47.6356 
G01 X-63.8725 Y47.4697 
G01 X-63.8394 Y47.3900 
G01 X-62.7509 Y47.3900 
G01 X-62.8756 Y47.4733 
G00 Z2.0000 
G00 X-50.1756 Y48.7433 
G01 Z-0.0250 F254.00 
G01 X-50.3167 Y48.8844 F508.00 
G01 X-50.4275 Y49.0503 
G01 X-50.5039 Y49.2346 
G01 X-50.5428 Y49.4302 
G01 X-50.5428 Y49.6298 
G01 X-50.5039 Y49.8254 
G01 X-50.4275 Y50.0097 
G01 X-50.3167 Y50.1756 
G01 X-50.1756 Y50.3167 
G01 X-50.0097 Y50.4275 
G01 X-49.9796 Y50.4400 
G01 X-64.3204 Y50.4400 
G01 X-64.2903 Y50.4275 
G01 X-64.1244 Y50.3167 
G01 X-63.9833 Y50.1756 
G01 X-63.8725 Y50.0097 
G01 X-63.8229 Y49.8900 
G01 X-52.7439 Y49.8900 
G01 X-52.6549 Y49.8661 
G01 X-52.5751 Y49.8201 
G01 X-51.7293 Y48.9742 
G01 X-51.6097 Y48.9980 
G01 X-51.4703 Y48.9980 
G01 X-51.3335 Y48.9708 
G01 X-51.2046 Y48.9174 
G01 X-51.0887 Y48.8399 
G01 X-50.9901 Y48.7413 
G01 X-50.9126 Y48.6254 
G01 X-50.8592 Y48.4965 
G01 X-50.8320 Y48.3597 
G01 X-50.8320 Y48.2203 
G01 X-50.8592 Y48.0835 
G01 X-50.9126 Y47.9546 
G01 X-50.9901 Y47.8387 
G01 X-51.0887 Y47.7401 
G01 X-51.2046 Y47.6626 
G01 X-51.3335 Y47.6092 
G01 X-51.4703 Y47.5820 
G01 X-51.6097 Y47.5820 
G01 X-51.7465 Y47.6092 
G01 X-51.8754 Y47.6626 
G01 X-51.9913 Y47.7401 
G01 X-52.0899 Y47.8387 
G01 X-52.1674 Y47.9546 
G01 X-52.2208 Y48.0835 
G01 X-52.2480 Y48.2203 
G01 X-52.2480 Y48.3597 
G01 X-52.2242 Y48.4793 
G01 X-52.9350 Y49.1900 
G01 X-61.8287 Y49.1900 
G01 X-61.7503 Y49.1575 
G01 X-61.5844 Y49.0467 
G01 X-61.4433 Y48.9056 
G01 X-61.3325 Y48.7397 
G01 X-61.2561 Y48.5554 
G01 X-61.2232 Y48.3900 
G01 X-60.7439 Y48.3900 
G01 X-60.6549 Y48.3661 
G01 X-60.5751 Y48.3201 
G01 X-60.5099 Y48.2549 
G01 X-58.9792 Y46.7242 
G01 X-58.8597 Y46.7480 
G01 X-58.7203 Y46.7480 
G01 X-58.5835 Y46.7208 
G01 X-58.4546 Y46.6674 
G01 X-58.3387 Y46.5899 
G01 X-58.2401 Y46.4913 
G01 X-58.1626 Y46.3754 
G01 X-58.1092 Y46.2465 
G01 X-58.0820 Y46.1097 
G01 X-58.0820 Y45.9703 
G01 X-58.1092 Y45.8335 
G01 X-58.1626 Y45.7046 
G01 X-58.2401 Y45.5887 
G01 X-58.3387 Y45.4901 
G01 X-58.4546 Y45.4126 
G01 X-58.5835 Y45.3592 
G01 X-58.7203 Y45.3320 
G01 X-58.8597 Y45.3320 
G01 X-58.9965 Y45.3592 
G01 X-59.1254 Y45.4126 
G01 X-59.2413 Y45.4901 
G01 X-59.3399 Y45.5887 
G01 X-59.4174 Y45.7046 
G01 X-59.4708 Y45.8335 
G01 X-59.4980 Y45.9703 
G01 X-59.4980 Y46.1097 
G01 X-59.4742 Y46.2292 
G01 X-60.9350 Y47.6900 
G01 X-61.3928 Y47.6900 
G01 X-61.4433 Y47.6144 
G01 X-61.5844 Y47.4733 
G01 X-61.7091 Y47.3900 
G01 X-61.2439 Y47.3900 
G01 X-61.1549 Y47.3661 
G01 X-61.0751 Y47.3201 
G01 X-58.6450 Y44.8900 
G01 X-56.4076 Y44.8900 
G01 X-56.3399 Y44.9913 
G01 X-56.2413 Y45.0899 
G01 X-56.1254 Y45.1674 
G01 X-55.9965 Y45.2208 
G01 X-55.8597 Y45.2480 
G01 X-55.7203 Y45.2480 
G01 X-55.5835 Y45.2208 
G01 X-55.4546 Y45.1674 
G01 X-55.3387 Y45.0899 
G01 X-55.2401 Y44.9913 
G01 X-55.1626 Y44.8754 
G01 X-55.1092 Y44.7465 
G01 X-55.0820 Y44.6097 
G01 X-55.0820 Y44.4703 
G01 X-55.1092 Y44.3335 
G01 X-55.1626 Y44.2046 
G01 X-55.2401 Y44.0887 
G01 X-55.3387 Y43.9901 
G01 X-55.4546 Y43.9126 
G01 X-55.5092 Y43.8900 
G01 X-54.9350 Y43.8900 
G01 X-50.3201 Y48.5049 
G01 X-50.2549 Y48.5701 
G01 X-50.1751 Y48.6161 
G01 X-50.0861 Y48.6400 
G01 X-50.0210 Y48.6400 
G01 X-50.1756 Y48.7433 
G00 Z2.0000 
G00 X-61.8361 Y36.1900 
G01 Z-0.0250 F254.00 
G01 X-61.9251 Y36.2139 F508.00 
G01 X-62.0049 Y36.2599 
G01 X-62.0701 Y36.3251 
G01 X-64.2466 Y38.5016 
G01 X-64.2903 Y38.4725 
G01 X-64.4746 Y38.3961 
G01 X-64.6702 Y38.3572 
G01 X-64.8698 Y38.3572 
G01 X-65.0654 Y38.3961 
G01 X-65.2497 Y38.4725 
G01 X-65.4156 Y38.5833 
G01 X-65.5567 Y38.7244 
G01 X-65.6675 Y38.8903 
G01 X-65.6900 Y38.9445 
G01 X-65.6900 Y38.4350 
G01 X-65.0600 Y37.8050 
G01 X-64.8698 Y37.8428 
G01 X-64.6702 Y37.8428 
G01 X-64.4746 Y37.8039 
G01 X-64.2903 Y37.7275 
G01 X-64.1244 Y37.6167 
G01 X-63.9833 Y37.4756 
G01 X-63.8725 Y37.3097 
G01 X-63.7961 Y37.1254 
G01 X-63.7572 Y36.9298 
G01 X-63.7572 Y36.7302 
G01 X-63.7961 Y36.5346 
G01 X-63.8725 Y36.3503 
G01 X-63.9833 Y36.1844 
G01 X-64.1244 Y36.0433 
G01 X-64.2903 Y35.9325 
G01 X-64.3928 Y35.8900 
G01 X-58.3208 Y35.8900 
G01 X-58.3754 Y35.9126 
G01 X-58.4913 Y35.9901 
G01 X-58.5899 Y36.0887 
G01 X-58.6576 Y36.1900 
G01 X-61.8361 Y36.1900 
G00 Z2.0000 
G00 X-49.9035 Y47.9315 
G01 Z-0.0250 F254.00 
G01 X-49.8831 Y47.9400 F508.00 
G01 X-49.8950 Y47.9400 
G01 X-49.9035 Y47.9315 
G00 Z2.0000 
G00 X-56.1254 Y43.9126 
G01 Z-0.0250 F254.00 
G01 X-56.2413 Y43.9901 F508.00 
G01 X-56.3399 Y44.0887 
G01 X-56.4076 Y44.1900 
G01 X-58.8361 Y44.1900 
G01 X-58.9251 Y44.2139 
G01 X-59.0049 Y44.2599 
G01 X-59.0701 Y44.3251 
G01 X-61.4350 Y46.6900 
G01 X-61.9252 Y46.6900 
G01 X-61.7503 Y46.6175 
G01 X-61.5844 Y46.5067 
G01 X-61.4433 Y46.3656 
G01 X-61.3325 Y46.1997 
G01 X-61.2561 Y46.0154 
G01 X-61.2172 Y45.8198 
G01 X-61.2172 Y45.6202 
G01 X-61.2561 Y45.4246 
G01 X-61.3325 Y45.2403 
G01 X-61.4433 Y45.0744 
G01 X-61.5844 Y44.9333 
G01 X-61.7503 Y44.8225 
G01 X-61.9346 Y44.7461 
G01 X-62.1302 Y44.7072 
G01 X-62.3298 Y44.7072 
G01 X-62.5254 Y44.7461 
G01 X-62.7097 Y44.8225 
G01 X-62.8756 Y44.9333 
G01 X-63.0167 Y45.0744 
G01 X-63.1275 Y45.2403 
G01 X-63.2039 Y45.4246 
G01 X-63.2428 Y45.6202 
G01 X-63.2428 Y45.8198 
G01 X-63.2039 Y46.0154 
G01 X-63.1275 Y46.1997 
G01 X-63.0167 Y46.3656 
G01 X-62.8756 Y46.5067 
G01 X-62.7097 Y46.6175 
G01 X-62.5348 Y46.6900 
G01 X-63.7980 Y46.6900 
G01 X-63.8725 Y46.5103 
G01 X-63.9833 Y46.3444 
G01 X-64.1244 Y46.2033 
G01 X-64.2903 Y46.0925 
G01 X-64.4746 Y46.0161 
G01 X-64.6702 Y45.9772 
G01 X-64.8698 Y45.9772 
G01 X-65.0654 Y46.0161 
G01 X-65.2497 Y46.0925 
G01 X-65.4156 Y46.2033 
G01 X-65.5567 Y46.3444 
G01 X-65.6675 Y46.5103 
G01 X-65.6900 Y46.5645 
G01 X-65.6900 Y44.8755 
G01 X-65.6675 Y44.9297 
G01 X-65.5567 Y45.0956 
G01 X-65.4156 Y45.2367 
G01 X-65.2497 Y45.3475 
G01 X-65.0654 Y45.4239 
G01 X-64.8698 Y45.4628 
G01 X-64.6702 Y45.4628 
G01 X-64.4746 Y45.4239 
G01 X-64.2903 Y45.3475 
G01 X-64.1244 Y45.2367 
G01 X-63.9833 Y45.0956 
G01 X-63.8725 Y44.9297 
G01 X-63.7961 Y44.7454 
G01 X-63.7572 Y44.5498 
G01 X-63.7572 Y44.3502 
G01 X-63.7961 Y44.1546 
G01 X-63.8725 Y43.9703 
G01 X-63.9833 Y43.8044 
G01 X-64.1244 Y43.6633 
G01 X-64.2903 Y43.5525 
G01 X-64.4746 Y43.4761 
G01 X-64.6702 Y43.4372 
G01 X-64.8698 Y43.4372 
G01 X-65.0654 Y43.4761 
G01 X-65.2497 Y43.5525 
G01 X-65.4156 Y43.6633 
G01 X-65.5567 Y43.8044 
G01 X-65.6675 Y43.9703 
G01 X-65.6900 Y44.0245 
G01 X-65.6900 Y42.3355 
G01 X-65.6675 Y42.3897 
G01 X-65.5567 Y42.5556 
G01 X-65.4156 Y42.6967 
G01 X-65.2497 Y42.8075 
G01 X-65.0654 Y42.8839 
G01 X-64.8698 Y42.9228 
G01 X-64.6702 Y42.9228 
G01 X-64.4746 Y42.8839 
G01 X-64.2903 Y42.8075 
G01 X-64.2766 Y42.7984 
G01 X-63.3201 Y43.7549 
G01 X-63.2549 Y43.8201 
G01 X-63.1751 Y43.8661 
G01 X-63.0861 Y43.8900 
G01 X-56.0708 Y43.8900 
G01 X-56.1254 Y43.9126 
G00 Z2.0000 
G00 X-61.6254 Y15.9126 
G01 Z-0.0250 F254.00 
G01 X-61.7413 Y15.9901 F508.00 
G01 X-61.8399 Y16.0887 
G01 X-61.9174 Y16.2046 
G01 X-61.9708 Y16.3335 
G01 X-61.9980 Y16.4703 
