(.../pcb-gcode-3.6.0.4/pcb-gcode.ulp)
(Copyright 2005 - 2012 by John Johnson)
(See readme.txt for licensing terms.)
(This file generated from the board:)
(.../eagle/SulaMatikV1/SulaMatikV1.brd)
(Current profile is .../pcb-gcode-3.6.0.4/profiles/emc.pp  )
(This file generated 9/3/2014 1:30:22 PM)
(Settings from pcb-machine.h)
(  Tool Size)
(0.1000 )
(Z Axis Settings)
(  High     Up        Down     Drill)
(19.5000 	2.0000 	-0.0250 	-1.5000 )
(spindle on time = 1.0000)
(milling depth = -0.0500)
(text depth = -0.0500)
(tool change at 15.0000 15.0000 19.0000 )
(feed rate xy = F508.00 )
(feed rate z  = F254.00 )
(Settings from pcb-defaults.h)
(isolate min = 0.0500)
(isolate max = 1.0000)
(isolate step = 0.1000)
(Generated top outlines, top drill, bottom outlines, bottom drill, )
(Unit of measure: mm)
(Metric Mode)
G21
(Absolute Coordinates)
G90
G00 X0.0000 Y0.0000 
M03
G04 P1.000000
G00 Z2.0000 
G00 X35.2568 Y21.9930 
G01 Z-0.0250 F254.00 
G01 X35.2568 Y21.1087 F508.00 
G01 X35.0686 Y20.9205 
G01 X34.8804 Y21.1087 
G01 X34.8804 Y21.9930 
G01 X35.2568 Y21.9930 
G00 Z2.0000 
G00 X35.2568 Y17.3154 
G01 Z-0.0250 F254.00 
G01 X35.2568 Y16.4311 F508.00 
G01 X35.0686 Y16.2429 
G01 X34.8804 Y16.4311 
G01 X34.8804 Y17.3154 
G01 X35.2568 Y17.3154 
G00 Z2.0000 
G00 X65.1000 Y58.2941 
G01 Z-0.0250 F254.00 
G01 X65.1000 Y58.5459 F508.00 
G01 X65.0606 Y58.7947 
G01 X64.9828 Y59.0342 
G01 X64.8684 Y59.2586 
G01 X64.7204 Y59.4623 
G01 X64.5423 Y59.6404 
G01 X64.3386 Y59.7884 
G01 X64.1142 Y59.9028 
G01 X63.8747 Y59.9806 
G01 X63.6259 Y60.0200 
G01 X63.3741 Y60.0200 
G01 X63.1253 Y59.9806 
G01 X62.8858 Y59.9028 
G01 X62.6614 Y59.7884 
G01 X62.4577 Y59.6404 
G01 X62.2796 Y59.4623 
G01 X62.1316 Y59.2586 
G01 X62.0172 Y59.0342 
G01 X61.9394 Y58.7947 
G01 X61.9000 Y58.5459 
G01 X61.9000 Y58.2941 
G01 X61.9394 Y58.0453 
G01 X62.0172 Y57.8058 
G01 X62.1316 Y57.5814 
G01 X62.2796 Y57.3777 
G01 X62.4577 Y57.1996 
G01 X62.6614 Y57.0516 
G01 X62.8858 Y56.9372 
G01 X63.1253 Y56.8594 
G01 X63.3741 Y56.8200 
G01 X63.6259 Y56.8200 
G01 X63.8747 Y56.8594 
G01 X64.1142 Y56.9372 
G01 X64.3386 Y57.0516 
G01 X64.5423 Y57.1996 
G01 X64.7204 Y57.3777 
G01 X64.8684 Y57.5814 
G01 X64.9828 Y57.8058 
G01 X65.0606 Y58.0453 
G01 X65.1000 Y58.2941 
G00 Z2.0000 
G00 X4.1400 Y2.4141 
G01 Z-0.0250 F254.00 
G01 X4.1400 Y2.6659 F508.00 
G01 X4.1006 Y2.9147 
G01 X4.0228 Y3.1542 
G01 X3.9084 Y3.3786 
G01 X3.7604 Y3.5823 
G01 X3.5823 Y3.7604 
G01 X3.3786 Y3.9084 
G01 X3.1542 Y4.0228 
G01 X2.9147 Y4.1006 
G01 X2.6659 Y4.1400 
G01 X2.4141 Y4.1400 
G01 X2.1653 Y4.1006 
G01 X1.9258 Y4.0228 
G01 X1.7014 Y3.9084 
G01 X1.4977 Y3.7604 
G01 X1.3196 Y3.5823 
G01 X1.1716 Y3.3786 
G01 X1.0572 Y3.1542 
G01 X0.9794 Y2.9147 
G01 X0.9400 Y2.6659 
G01 X0.9400 Y2.4141 
G01 X0.9794 Y2.1653 
G01 X1.0572 Y1.9258 
G01 X1.1716 Y1.7014 
G01 X1.3196 Y1.4977 
G01 X1.4977 Y1.3196 
G01 X1.7014 Y1.1716 
G01 X1.9258 Y1.0572 
G01 X2.1653 Y0.9794 
G01 X2.4141 Y0.9400 
G01 X2.6659 Y0.9400 
G01 X2.9147 Y0.9794 
G01 X3.1542 Y1.0572 
G01 X3.3786 Y1.1716 
G01 X3.5823 Y1.3196 
G01 X3.7604 Y1.4977 
G01 X3.9084 Y1.7014 
G01 X4.0228 Y1.9258 
G01 X4.1006 Y2.1653 
G01 X4.1400 Y2.4141 
G00 Z2.0000 
G00 X53.5000 Y17.8964 
G01 Z-0.0250 F254.00 
G01 X53.5000 Y12.4503 F508.00 
G01 X53.5381 Y12.3584 
G01 X54.5000 Y11.3964 
G01 X54.5000 Y4.3642 
G01 X54.3289 Y4.3302 
G01 X54.1536 Y4.2575 
G01 X53.9957 Y4.1521 
G01 X53.8615 Y4.0179 
G01 X53.7561 Y3.8600 
G01 X53.6834 Y3.6847 
G01 X53.6464 Y3.4985 
G01 X53.6464 Y1.5815 
G01 X53.6834 Y1.3953 
G01 X53.7561 Y1.2200 
G01 X53.8615 Y1.0621 
G01 X53.9957 Y0.9279 
G01 X54.1536 Y0.8225 
G01 X54.3289 Y0.7498 
G01 X54.5151 Y0.7128 
G01 X54.7049 Y0.7128 
G01 X54.8911 Y0.7498 
G01 X55.0664 Y0.8225 
G01 X55.2243 Y0.9279 
G01 X55.3585 Y1.0621 
G01 X55.4639 Y1.2200 
G01 X55.5366 Y1.3953 
G01 X55.5736 Y1.5815 
G01 X55.5736 Y3.4985 
G01 X55.5366 Y3.6847 
G01 X55.4639 Y3.8600 
G01 X55.3585 Y4.0179 
G01 X55.2243 Y4.1521 
G01 X55.0664 Y4.2575 
G01 X55.0000 Y4.2850 
G01 X55.0000 Y11.5497 
G01 X54.9619 Y11.6416 
G01 X54.8916 Y11.7119 
G01 X54.0000 Y12.6036 
G01 X54.0000 Y18.0497 
G01 X53.9619 Y18.1416 
G01 X53.8916 Y18.2119 
G01 X52.3189 Y19.7847 
G01 X52.3346 Y19.8226 
G01 X52.3580 Y19.9401 
G01 X52.3580 Y20.0599 
G01 X52.3346 Y20.1773 
G01 X52.2888 Y20.2880 
G01 X52.2223 Y20.3876 
G01 X52.1376 Y20.4723 
G01 X52.0380 Y20.5388 
G01 X51.9273 Y20.5846 
G01 X51.8099 Y20.6080 
G01 X51.6901 Y20.6080 
G01 X51.5727 Y20.5846 
G01 X51.4620 Y20.5388 
G01 X51.3624 Y20.4723 
G01 X51.2777 Y20.3876 
G01 X51.2112 Y20.2880 
G01 X51.1654 Y20.1773 
G01 X51.1420 Y20.0599 
G01 X51.1420 Y19.9401 
G01 X51.1654 Y19.8226 
G01 X51.2112 Y19.7120 
G01 X51.2777 Y19.6124 
G01 X51.3624 Y19.5277 
G01 X51.4620 Y19.4612 
G01 X51.5727 Y19.4154 
G01 X51.6901 Y19.3920 
G01 X51.8099 Y19.3920 
G01 X51.9273 Y19.4154 
G01 X51.9653 Y19.4311 
G01 X53.5000 Y17.8964 
G00 Z2.0000 
G00 X50.6084 Y29.4619 
G01 Z-0.0250 F254.00 
G01 X50.5381 Y29.3916 F508.00 
G01 X50.5000 Y29.2997 
G01 X50.5000 Y18.7003 
G01 X50.5381 Y18.6084 
G01 X51.0000 Y18.1464 
G01 X51.0000 Y12.5545 
G01 X50.9620 Y12.5388 
G01 X50.8624 Y12.4723 
G01 X50.7777 Y12.3876 
G01 X50.7112 Y12.2880 
G01 X50.6654 Y12.1773 
G01 X50.6420 Y12.0599 
G01 X50.6420 Y11.9401 
G01 X50.6654 Y11.8227 
G01 X50.7112 Y11.7120 
G01 X50.7777 Y11.6124 
G01 X50.8624 Y11.5277 
G01 X50.9620 Y11.4612 
G01 X51.0727 Y11.4154 
G01 X51.1901 Y11.3920 
G01 X51.3099 Y11.3920 
G01 X51.4273 Y11.4154 
G01 X51.5380 Y11.4612 
G01 X51.6376 Y11.5277 
G01 X51.7223 Y11.6124 
G01 X51.7888 Y11.7120 
G01 X51.8346 Y11.8227 
G01 X51.8580 Y11.9401 
G01 X51.8580 Y12.0599 
G01 X51.8346 Y12.1773 
G01 X51.7888 Y12.2880 
G01 X51.7223 Y12.3876 
G01 X51.6376 Y12.4723 
G01 X51.5380 Y12.5388 
G01 X51.5000 Y12.5545 
G01 X51.5000 Y18.2997 
G01 X51.4619 Y18.3916 
G01 X51.3916 Y18.4619 
G01 X51.0000 Y18.8536 
G01 X51.0000 Y29.1464 
G01 X55.2847 Y33.4311 
G01 X55.3227 Y33.4154 
G01 X55.4401 Y33.3920 
G01 X55.5599 Y33.3920 
G01 X55.6773 Y33.4154 
G01 X55.7880 Y33.4612 
G01 X55.8876 Y33.5277 
G01 X55.9723 Y33.6124 
G01 X56.0388 Y33.7120 
G01 X56.0846 Y33.8227 
G01 X56.1080 Y33.9401 
G01 X56.1080 Y34.0599 
G01 X56.0846 Y34.1773 
G01 X56.0388 Y34.2880 
G01 X55.9723 Y34.3876 
G01 X55.8876 Y34.4723 
G01 X55.7880 Y34.5388 
G01 X55.6773 Y34.5846 
G01 X55.5599 Y34.6080 
G01 X55.4401 Y34.6080 
G01 X55.3227 Y34.5846 
G01 X55.2120 Y34.5388 
G01 X55.1124 Y34.4723 
G01 X55.0277 Y34.3876 
G01 X54.9612 Y34.2880 
G01 X54.9154 Y34.1773 
G01 X54.8920 Y34.0599 
G01 X54.8920 Y33.9401 
G01 X54.9154 Y33.8227 
G01 X54.9311 Y33.7847 
G01 X50.6084 Y29.4619 
G00 Z2.0000 
G00 X33.8591 Y12.2614 
G01 Z-0.0250 F254.00 
G01 X33.7850 Y12.2307 F508.00 
G01 X33.7283 Y12.1740 
G01 X33.6976 Y12.0999 
G01 X33.6976 Y12.0197 
G01 X33.7283 Y11.9456 
G01 X33.7850 Y11.8889 
G01 X33.8591 Y11.8582 
G01 X35.1087 Y11.8582 
G01 X35.1828 Y11.8889 
G01 X35.5726 Y12.2787 
G01 X35.6293 Y12.3354 
G01 X35.6600 Y12.4095 
G01 X35.6600 Y13.6591 
G01 X35.6293 Y13.7332 
G01 X35.5726 Y13.7899 
G01 X35.4985 Y13.8206 
G01 X33.8591 Y13.8206 
G01 X33.7850 Y13.7899 
G01 X33.7283 Y13.7332 
G01 X33.6976 Y13.6591 
G01 X33.6976 Y13.5789 
G01 X33.7283 Y13.5048 
G01 X33.7850 Y13.4481 
G01 X33.8591 Y13.4174 
G01 X35.2568 Y13.4174 
G01 X35.2568 Y12.5331 
G01 X34.9851 Y12.2614 
G01 X33.8591 Y12.2614 
G00 Z2.0000 
G00 X33.6803 Y11.1660 
G01 Z-0.0250 F254.00 
G01 X33.7110 Y11.2401 F508.00 
G01 X33.7110 Y11.3203 
G01 X33.6803 Y11.3944 
G01 X33.6236 Y11.4511 
G01 X33.5495 Y11.4818 
G01 X33.4693 Y11.4818 
G01 X33.3952 Y11.4511 
G01 X33.0054 Y11.0613 
G01 X32.9487 Y11.0046 
G01 X32.9180 Y10.9305 
G01 X32.9180 Y10.0707 
G01 X32.9487 Y9.9966 
G01 X32.9521 Y9.9932 
G01 X33.0054 Y9.9399 
G01 X33.3385 Y9.6068 
G01 X33.3952 Y9.5501 
G01 X33.4693 Y9.5194 
G01 X33.9393 Y9.5194 
G01 X34.0134 Y9.5501 
G01 X34.0701 Y9.6068 
G01 X34.4032 Y9.9399 
G01 X34.4599 Y9.9966 
G01 X34.4906 Y10.0707 
G01 X34.4906 Y10.8069 
G01 X34.7623 Y11.0786 
G01 X34.9851 Y11.0786 
G01 X35.2568 Y10.8069 
G01 X35.2568 Y10.1943 
G01 X34.8977 Y9.8352 
G01 X34.8670 Y9.7611 
G01 X34.8670 Y9.6809 
G01 X34.8977 Y9.6068 
G01 X34.9544 Y9.5501 
G01 X35.0285 Y9.5194 
G01 X35.1087 Y9.5194 
G01 X35.1828 Y9.5501 
G01 X35.6293 Y9.9966 
G01 X35.6600 Y10.0707 
G01 X35.6600 Y10.9305 
G01 X35.6293 Y11.0046 
G01 X35.5726 Y11.0613 
G01 X35.2395 Y11.3944 
G01 X35.1862 Y11.4477 
G01 X35.1828 Y11.4511 
G01 X35.1087 Y11.4818 
G01 X34.6387 Y11.4818 
G01 X34.5646 Y11.4511 
G01 X34.5079 Y11.3944 
G01 X34.1181 Y11.0046 
G01 X34.0874 Y10.9305 
G01 X34.0874 Y10.1943 
G01 X33.8157 Y9.9226 
G01 X33.5929 Y9.9226 
G01 X33.3212 Y10.1943 
G01 X33.3212 Y10.8069 
G01 X33.6803 Y11.1660 
G00 Z2.0000 
G00 X32.9180 Y14.3585 
G01 Z-0.0250 F254.00 
G01 X32.9487 Y14.2844 F508.00 
G01 X33.0054 Y14.2277 
G01 X33.0795 Y14.1970 
G01 X33.1597 Y14.1970 
G01 X33.2338 Y14.2277 
G01 X33.2905 Y14.2844 
G01 X33.3212 Y14.3585 
G01 X33.3212 Y14.5868 
G01 X35.2568 Y14.5868 
G01 X35.2568 Y14.3585 
G01 X35.2875 Y14.2844 
G01 X35.3442 Y14.2277 
G01 X35.4183 Y14.1970 
G01 X35.4985 Y14.1970 
G01 X35.5726 Y14.2277 
G01 X35.6293 Y14.2844 
G01 X35.6600 Y14.3585 
G01 X35.6600 Y15.2183 
G01 X35.6293 Y15.2924 
G01 X35.5726 Y15.3491 
G01 X35.4985 Y15.3798 
G01 X35.4183 Y15.3798 
G01 X35.3442 Y15.3491 
G01 X35.2875 Y15.2924 
G01 X35.2568 Y15.2183 
G01 X35.2568 Y14.9900 
G01 X33.0795 Y14.9900 
G01 X33.0054 Y14.9593 
G01 X32.9487 Y14.9026 
G01 X32.9180 Y14.8285 
G01 X32.9180 Y14.7483 
G01 X32.9180 Y14.3585 
G00 Z2.0000 
G00 X33.6976 Y16.3075 
G01 Z-0.0250 F254.00 
G01 X33.7283 Y16.2334 F508.00 
G01 X33.7850 Y16.1767 
G01 X33.8591 Y16.1460 
G01 X33.9393 Y16.1460 
G01 X34.0134 Y16.1767 
G01 X34.0701 Y16.2334 
G01 X34.1008 Y16.3075 
G01 X34.1008 Y17.0437 
G01 X34.3725 Y17.3154 
G01 X34.4772 Y17.3154 
G01 X34.4772 Y16.3075 
G01 X34.5079 Y16.2334 
G01 X34.5646 Y16.1767 
G01 X34.8977 Y15.8436 
G01 X34.9544 Y15.7869 
G01 X35.0264 Y15.7571 
G01 X35.1087 Y15.7562 
G01 X35.1828 Y15.7869 
G01 X35.6293 Y16.2334 
G01 X35.6600 Y16.3075 
G01 X35.6600 Y17.5571 
G01 X35.6293 Y17.6312 
G01 X35.5726 Y17.6879 
G01 X35.4985 Y17.7186 
G01 X34.2489 Y17.7186 
G01 X34.1748 Y17.6879 
G01 X34.1181 Y17.6312 
G01 X33.7283 Y17.2414 
G01 X33.6976 Y17.1673 
G01 X33.6976 Y17.0871 
G01 X33.6976 Y16.3075 
G00 Z2.0000 
G00 X35.4985 Y18.0950 
G01 Z-0.0250 F254.00 
G01 X35.5726 Y18.1257 F508.00 
G01 X35.6293 Y18.1824 
G01 X35.6600 Y18.2565 
G01 X35.6600 Y18.3367 
G01 X35.6293 Y18.4108 
G01 X35.5726 Y18.4675 
G01 X35.4985 Y18.4982 
G01 X34.1008 Y18.4982 
G01 X34.1008 Y18.6029 
G01 X34.3725 Y18.8746 
G01 X35.4985 Y18.8746 
G01 X35.5726 Y18.9053 
G01 X35.6293 Y18.9620 
G01 X35.6600 Y19.0361 
G01 X35.6600 Y19.1163 
G01 X35.6293 Y19.1904 
G01 X35.5726 Y19.2471 
G01 X35.4985 Y19.2778 
G01 X34.3725 Y19.2778 
G01 X34.1843 Y19.4660 
G01 X34.3725 Y19.6542 
G01 X35.4985 Y19.6542 
G01 X35.5726 Y19.6849 
G01 X35.6293 Y19.7416 
G01 X35.6600 Y19.8157 
G01 X35.6600 Y19.8959 
G01 X35.6293 Y19.9700 
G01 X35.5726 Y20.0267 
G01 X35.4985 Y20.0574 
G01 X34.2489 Y20.0574 
G01 X34.1748 Y20.0267 
G01 X34.1181 Y19.9700 
G01 X33.7283 Y19.5802 
G01 X33.6976 Y19.5061 
G01 X33.6976 Y19.4259 
G01 X33.7283 Y19.3518 
G01 X33.7850 Y19.2951 
G01 X34.0039 Y19.0762 
G01 X33.7283 Y18.8006 
G01 X33.6976 Y18.7265 
G01 X33.6976 Y18.2565 
G01 X33.7283 Y18.1824 
G01 X33.7850 Y18.1257 
G01 X33.8591 Y18.0950 
G01 X33.9393 Y18.0950 
G01 X35.4985 Y18.0950 
G00 Z2.0000 
G00 X33.6976 Y20.9851 
G01 Z-0.0250 F254.00 
G01 X33.7283 Y20.9110 F508.00 
G01 X33.7850 Y20.8543 
G01 X33.8591 Y20.8236 
G01 X33.9393 Y20.8236 
G01 X34.0134 Y20.8543 
G01 X34.0701 Y20.9110 
G01 X34.1008 Y20.9851 
G01 X34.1008 Y21.7213 
G01 X34.3725 Y21.9930 
G01 X34.4772 Y21.9930 
G01 X34.4772 Y20.9851 
G01 X34.5079 Y20.9110 
G01 X34.5646 Y20.8543 
G01 X34.8977 Y20.5212 
G01 X34.9544 Y20.4645 
G01 X35.0285 Y20.4338 
G01 X35.1087 Y20.4338 
G01 X35.1828 Y20.4645 
G01 X35.6293 Y20.9110 
G01 X35.6600 Y20.9851 
G01 X35.6600 Y22.2347 
G01 X35.6293 Y22.3088 
G01 X35.5726 Y22.3655 
G01 X35.4985 Y22.3962 
G01 X34.2489 Y22.3962 
G01 X34.1748 Y22.3655 
G01 X34.1181 Y22.3088 
G01 X33.7283 Y21.9190 
G01 X33.6976 Y21.8449 
G01 X33.6976 Y21.7647 
G01 X33.6976 Y20.9851 
G00 Z2.0000 
G00 X33.4693 Y23.5656 
G01 Z-0.0250 F254.00 
G01 X33.3952 Y23.5349 F508.00 
G01 X33.3385 Y23.4782 
G01 X33.3078 Y23.4041 
G01 X33.3078 Y23.3239 
G01 X33.3385 Y23.2498 
G01 X33.3952 Y23.1931 
G01 X33.4693 Y23.1624 
G01 X33.6976 Y23.1624 
G01 X33.6976 Y22.9341 
G01 X33.7283 Y22.8600 
G01 X33.7850 Y22.8033 
G01 X33.8591 Y22.7726 
G01 X33.9393 Y22.7726 
G01 X34.0134 Y22.8033 
G01 X34.0701 Y22.8600 
G01 X34.1008 Y22.9341 
G01 X34.1008 Y23.1624 
G01 X35.1087 Y23.1624 
G01 X35.1828 Y23.1931 
G01 X35.1862 Y23.1965 
G01 X35.2395 Y23.2498 
G01 X35.6293 Y23.6396 
G01 X35.6600 Y23.7137 
G01 X35.6600 Y23.7939 
G01 X35.6293 Y23.8680 
G01 X35.5726 Y23.9247 
G01 X35.4985 Y23.9554 
G01 X35.4183 Y23.9554 
G01 X35.3442 Y23.9247 
G01 X34.9851 Y23.5656 
G01 X34.1008 Y23.5656 
G01 X34.1008 Y23.7939 
G01 X34.0701 Y23.8680 
G01 X34.0134 Y23.9247 
G01 X33.9393 Y23.9554 
G01 X33.8591 Y23.9554 
G01 X33.7850 Y23.9247 
G01 X33.7283 Y23.8680 
G01 X33.6976 Y23.7939 
G01 X33.6976 Y23.5656 
G01 X33.4693 Y23.5656 
G00 Z2.0000 
G00 X33.6976 Y24.4933 
G01 Z-0.0250 F254.00 
G01 X33.7283 Y24.4192 F508.00 
G01 X33.7850 Y24.3625 
G01 X33.8591 Y24.3318 
G01 X33.9393 Y24.3318 
G01 X34.0134 Y24.3625 
G01 X34.0701 Y24.4192 
G01 X34.1008 Y24.4933 
G01 X34.1008 Y24.7216 
G01 X35.2568 Y24.7216 
G01 X35.2568 Y24.4933 
G01 X35.2875 Y24.4192 
G01 X35.3442 Y24.3625 
G01 X35.4183 Y24.3318 
G01 X35.4985 Y24.3318 
G01 X35.5726 Y24.3625 
G01 X35.6293 Y24.4192 
G01 X35.6600 Y24.4933 
G01 X35.6600 Y25.3531 
G01 X35.6293 Y25.4272 
G01 X35.5726 Y25.4839 
G01 X35.4985 Y25.5146 
G01 X35.4183 Y25.5146 
G01 X35.3442 Y25.4839 
G01 X35.2875 Y25.4272 
G01 X35.2568 Y25.3531 
G01 X35.2568 Y25.1248 
G01 X33.8591 Y25.1248 
G01 X33.7850 Y25.0941 
G01 X33.7283 Y25.0374 
G01 X33.6976 Y24.9633 
G01 X33.6976 Y24.8831 
G01 X33.6976 Y24.4933 
G00 Z2.0000 
G00 X33.1597 Y25.1248 
G01 Z-0.0250 F254.00 
G01 X32.6897 Y25.1248 F508.00 
G01 X32.6156 Y25.0941 
G01 X32.5589 Y25.0374 
G01 X32.5282 Y24.9633 
G01 X32.5282 Y24.8831 
G01 X32.5589 Y24.8090 
G01 X32.6156 Y24.7523 
G01 X32.6897 Y24.7216 
G01 X33.1597 Y24.7216 
G01 X33.2338 Y24.7523 
G01 X33.2905 Y24.8090 
G01 X33.3212 Y24.8831 
G01 X33.3212 Y24.9633 
G01 X33.2905 Y25.0374 
G01 X33.2338 Y25.0941 
G01 X33.1597 Y25.1248 
G00 Z2.0000 
G00 X33.0795 Y25.8910 
G01 Z-0.0250 F254.00 
G01 X34.6588 Y25.8910 F508.00 
G01 X34.6786 Y25.8870 
G01 X34.6988 Y25.8910 
G01 X35.4985 Y25.8910 
G01 X35.5726 Y25.9217 
G01 X35.6293 Y25.9784 
G01 X35.6600 Y26.0525 
G01 X35.6600 Y26.1327 
G01 X35.6293 Y26.2068 
G01 X35.5726 Y26.2635 
G01 X35.4985 Y26.2942 
G01 X35.0555 Y26.2942 
G01 X35.6484 Y27.1835 
G01 X35.6639 Y27.2622 
G01 X35.6482 Y27.3408 
G01 X35.6036 Y27.4075 
G01 X35.5369 Y27.4520 
G01 X35.4582 Y27.4675 
G01 X35.3795 Y27.4518 
G01 X35.3129 Y27.4072 
G01 X34.6788 Y26.4560 
G01 X34.0447 Y27.4072 
G01 X33.9781 Y27.4518 
G01 X33.8994 Y27.4675 
G01 X33.8207 Y27.4520 
G01 X33.7540 Y27.4075 
G01 X33.7094 Y27.3408 
G01 X33.6937 Y27.2622 
G01 X33.7092 Y27.1835 
G01 X34.3021 Y26.2942 
G01 X33.0795 Y26.2942 
G01 X33.0054 Y26.2635 
G01 X32.9487 Y26.2068 
G01 X32.9180 Y26.1327 
G01 X32.9180 Y26.0525 
G01 X32.9487 Y25.9784 
G01 X33.0054 Y25.9217 
G01 X33.0795 Y25.8910 
G00 Z2.0000 
G00 X63.1428 Y54.5201 
G01 Z-0.0250 F254.00 
G01 X63.1428 Y54.6999 F508.00 
G01 X63.1077 Y54.8763 
G01 X63.0389 Y55.0424 
G01 X62.9390 Y55.1919 
G01 X62.8119 Y55.3190 
G01 X62.6624 Y55.4189 
G01 X62.4963 Y55.4877 
G01 X62.3199 Y55.5228 
G01 X62.1401 Y55.5228 
G01 X61.9637 Y55.4877 
G01 X61.7976 Y55.4189 
G01 X61.6481 Y55.3190 
G01 X61.5210 Y55.1919 
G01 X61.4211 Y55.0424 
G01 X61.3523 Y54.8763 
G01 X61.3172 Y54.6999 
G01 X61.3172 Y54.5201 
G01 X61.3523 Y54.3437 
G01 X61.4211 Y54.1776 
G01 X61.5210 Y54.0281 
G01 X61.6481 Y53.9010 
G01 X61.7976 Y53.8011 
G01 X61.9637 Y53.7323 
G01 X62.1401 Y53.6972 
G01 X62.3199 Y53.6972 
G01 X62.4963 Y53.7323 
G01 X62.6624 Y53.8011 
G01 X62.8119 Y53.9010 
G01 X62.9390 Y54.0281 
G01 X63.0389 Y54.1776 
G01 X63.1077 Y54.3437 
G01 X63.1428 Y54.5201 
G00 Z2.0000 
G00 X63.1428 Y49.4401 
G01 Z-0.0250 F254.00 
G01 X63.1428 Y49.6199 F508.00 
G01 X63.1077 Y49.7963 
G01 X63.0389 Y49.9624 
G01 X62.9390 Y50.1119 
G01 X62.8119 Y50.2390 
G01 X62.6624 Y50.3389 
G01 X62.4963 Y50.4077 
G01 X62.3199 Y50.4428 
G01 X62.1401 Y50.4428 
G01 X61.9637 Y50.4077 
G01 X61.7976 Y50.3389 
G01 X61.6481 Y50.2390 
G01 X61.5210 Y50.1119 
G01 X61.4211 Y49.9624 
G01 X61.3523 Y49.7963 
G01 X61.3172 Y49.6199 
G01 X61.3172 Y49.4401 
G01 X61.3523 Y49.2637 
G01 X61.4211 Y49.0976 
G01 X61.5210 Y48.9481 
G01 X61.6481 Y48.8210 
G01 X61.7976 Y48.7211 
G01 X61.9637 Y48.6523 
G01 X62.1401 Y48.6172 
G01 X62.3199 Y48.6172 
G01 X62.4963 Y48.6523 
G01 X62.6624 Y48.7211 
G01 X62.8119 Y48.8210 
G01 X62.9390 Y48.9481 
G01 X63.0389 Y49.0976 
G01 X63.1077 Y49.2637 
G01 X63.1428 Y49.4401 
G00 Z2.0000 
G00 X63.1428 Y46.9001 
G01 Z-0.0250 F254.00 
G01 X63.1428 Y47.0799 F508.00 
G01 X63.1077 Y47.2563 
G01 X63.0389 Y47.4224 
G01 X62.9390 Y47.5719 
G01 X62.8119 Y47.6990 
G01 X62.6624 Y47.7989 
G01 X62.4963 Y47.8677 
G01 X62.3199 Y47.9028 
G01 X62.1401 Y47.9028 
G01 X61.9637 Y47.8677 
G01 X61.7976 Y47.7989 
G01 X61.6481 Y47.6990 
G01 X61.5210 Y47.5719 
G01 X61.4211 Y47.4224 
G01 X61.3523 Y47.2563 
G01 X61.3172 Y47.0799 
G01 X61.3172 Y46.9001 
G01 X61.3523 Y46.7237 
G01 X61.4211 Y46.5576 
G01 X61.5210 Y46.4081 
G01 X61.6481 Y46.2810 
G01 X61.7976 Y46.1811 
G01 X61.9637 Y46.1123 
G01 X62.1401 Y46.0772 
G01 X62.3199 Y46.0772 
G01 X62.4963 Y46.1123 
G01 X62.6624 Y46.1811 
G01 X62.8119 Y46.2810 
G01 X62.9390 Y46.4081 
G01 X63.0389 Y46.5576 
G01 X63.1077 Y46.7237 
G01 X63.1428 Y46.9001 
G00 Z2.0000 
G00 X63.1428 Y44.3601 
G01 Z-0.0250 F254.00 
G01 X63.1428 Y44.5399 F508.00 
G01 X63.1077 Y44.7163 
G01 X63.0389 Y44.8824 
G01 X62.9390 Y45.0319 
G01 X62.8119 Y45.1590 
G01 X62.6624 Y45.2589 
G01 X62.4963 Y45.3277 
G01 X62.3199 Y45.3628 
G01 X62.1401 Y45.3628 
G01 X61.9637 Y45.3277 
G01 X61.7976 Y45.2589 
G01 X61.6481 Y45.1590 
G01 X61.5210 Y45.0319 
G01 X61.4211 Y44.8824 
G01 X61.3523 Y44.7163 
G01 X61.3172 Y44.5399 
G01 X61.3172 Y44.3601 
G01 X61.3523 Y44.1837 
G01 X61.4211 Y44.0176 
G01 X61.5210 Y43.8681 
G01 X61.6481 Y43.7410 
G01 X61.7976 Y43.6411 
G01 X61.9637 Y43.5723 
G01 X62.1401 Y43.5372 
G01 X62.3199 Y43.5372 
G01 X62.4963 Y43.5723 
G01 X62.6624 Y43.6411 
G01 X62.8119 Y43.7410 
G01 X62.9390 Y43.8681 
G01 X63.0389 Y44.0176 
G01 X63.1077 Y44.1837 
G01 X63.1428 Y44.3601 
G00 Z2.0000 
G00 X63.1428 Y41.8201 
G01 Z-0.0250 F254.00 
G01 X63.1428 Y41.9999 F508.00 
G01 X63.1077 Y42.1763 
G01 X63.0389 Y42.3424 
G01 X62.9390 Y42.4919 
G01 X62.8119 Y42.6190 
G01 X62.6624 Y42.7189 
G01 X62.4963 Y42.7877 
G01 X62.3199 Y42.8228 
G01 X62.1401 Y42.8228 
G01 X61.9637 Y42.7877 
G01 X61.7976 Y42.7189 
G01 X61.6481 Y42.6190 
G01 X61.5210 Y42.4919 
G01 X61.4211 Y42.3424 
G01 X61.3523 Y42.1763 
G01 X61.3172 Y41.9999 
G01 X61.3172 Y41.8201 
G01 X61.3523 Y41.6437 
G01 X61.4211 Y41.4776 
G01 X61.5210 Y41.3281 
G01 X61.6481 Y41.2010 
G01 X61.7976 Y41.1011 
G01 X61.9637 Y41.0323 
G01 X62.1401 Y40.9972 
G01 X62.3199 Y40.9972 
G01 X62.4963 Y41.0323 
G01 X62.5796 Y41.0668 
G01 X64.2500 Y39.3964 
G01 X64.2500 Y25.5545 
G01 X64.2120 Y25.5388 
G01 X64.1124 Y25.4723 
G01 X64.0277 Y25.3876 
G01 X63.9612 Y25.2880 
G01 X63.9154 Y25.1773 
G01 X63.8920 Y25.0599 
G01 X63.8920 Y24.9401 
G01 X63.9154 Y24.8226 
G01 X63.9612 Y24.7120 
G01 X64.0277 Y24.6124 
G01 X64.1124 Y24.5277 
G01 X64.2120 Y24.4612 
G01 X64.3227 Y24.4154 
G01 X64.4401 Y24.3920 
G01 X64.5599 Y24.3920 
G01 X64.6773 Y24.4154 
G01 X64.7880 Y24.4612 
G01 X64.8876 Y24.5277 
G01 X64.9723 Y24.6124 
G01 X65.0388 Y24.7120 
G01 X65.0846 Y24.8226 
G01 X65.1080 Y24.9401 
G01 X65.1080 Y25.0599 
G01 X65.0846 Y25.1773 
G01 X65.0388 Y25.2880 
G01 X64.9723 Y25.3876 
G01 X64.8876 Y25.4723 
G01 X64.7880 Y25.5388 
G01 X64.7500 Y25.5545 
G01 X64.7500 Y39.5497 
G01 X64.7119 Y39.6416 
G01 X64.6416 Y39.7119 
G01 X62.9736 Y41.3799 
G01 X63.0389 Y41.4776 
G01 X63.1077 Y41.6437 
G01 X63.1428 Y41.8201 
G00 Z2.0000 
G00 X63.1428 Y39.2801 
G01 Z-0.0250 F254.00 
G01 X63.1428 Y39.4599 F508.00 
G01 X63.1077 Y39.6363 
G01 X63.0389 Y39.8024 
G01 X62.9390 Y39.9519 
G01 X62.8119 Y40.0790 
G01 X62.6624 Y40.1789 
G01 X62.4963 Y40.2477 
G01 X62.3199 Y40.2828 
G01 X62.1401 Y40.2828 
G01 X61.9637 Y40.2477 
G01 X61.7976 Y40.1789 
G01 X61.6481 Y40.0790 
G01 X61.5210 Y39.9519 
G01 X61.4211 Y39.8024 
G01 X61.3523 Y39.6363 
G01 X61.3172 Y39.4599 
G01 X61.3172 Y39.2801 
G01 X61.3523 Y39.1037 
G01 X61.4211 Y38.9376 
G01 X61.5210 Y38.7881 
G01 X61.6481 Y38.6610 
G01 X61.7976 Y38.5611 
G01 X61.9637 Y38.4923 
G01 X62.1401 Y38.4572 
G01 X62.3199 Y38.4572 
G01 X62.4963 Y38.4923 
G01 X62.6624 Y38.5611 
G01 X62.8119 Y38.6610 
G01 X62.9390 Y38.7881 
G01 X63.0389 Y38.9376 
G01 X63.1077 Y39.1037 
G01 X63.1428 Y39.2801 
G00 Z2.0000 
G00 X63.1428 Y36.7401 
G01 Z-0.0250 F254.00 
G01 X63.1428 Y36.9199 F508.00 
G01 X63.1077 Y37.0963 
G01 X63.0389 Y37.2624 
G01 X62.9390 Y37.4119 
G01 X62.8119 Y37.5390 
G01 X62.6624 Y37.6389 
G01 X62.4963 Y37.7077 
G01 X62.3199 Y37.7428 
G01 X62.1401 Y37.7428 
G01 X61.9637 Y37.7077 
G01 X61.7976 Y37.6389 
G01 X61.6481 Y37.5390 
G01 X61.5210 Y37.4119 
G01 X61.4211 Y37.2624 
G01 X61.3523 Y37.0963 
G01 X61.3172 Y36.9199 
G01 X61.3172 Y36.7401 
G01 X61.3523 Y36.5637 
G01 X61.4211 Y36.3976 
G01 X61.5210 Y36.2481 
G01 X61.6481 Y36.1210 
G01 X61.7976 Y36.0211 
G01 X61.9637 Y35.9523 
G01 X62.1401 Y35.9172 
G01 X62.3199 Y35.9172 
G01 X62.4963 Y35.9523 
G01 X62.6624 Y36.0211 
G01 X62.8119 Y36.1210 
G01 X62.9390 Y36.2481 
G01 X63.0389 Y36.3976 
G01 X63.1077 Y36.5637 
G01 X63.1428 Y36.7401 
G00 Z2.0000 
G00 X63.1428 Y34.2001 
G01 Z-0.0250 F254.00 
G01 X63.1428 Y34.3799 F508.00 
G01 X63.1077 Y34.5563 
G01 X63.0389 Y34.7224 
G01 X62.9390 Y34.8719 
G01 X62.8119 Y34.9990 
G01 X62.6624 Y35.0989 
G01 X62.4963 Y35.1677 
G01 X62.3199 Y35.2028 
G01 X62.1401 Y35.2028 
G01 X61.9637 Y35.1677 
G01 X61.7976 Y35.0989 
G01 X61.6481 Y34.9990 
G01 X61.5210 Y34.8719 
G01 X61.4211 Y34.7224 
G01 X61.3523 Y34.5563 
G01 X61.3172 Y34.3799 
G01 X61.3172 Y34.2001 
G01 X61.3523 Y34.0237 
G01 X61.4211 Y33.8576 
G01 X61.5210 Y33.7081 
G01 X61.6481 Y33.5810 
G01 X61.7976 Y33.4811 
G01 X61.9637 Y33.4123 
G01 X62.1401 Y33.3772 
G01 X62.3199 Y33.3772 
G01 X62.4963 Y33.4123 
G01 X62.6624 Y33.4811 
G01 X62.8119 Y33.5810 
G01 X62.9390 Y33.7081 
G01 X63.0389 Y33.8576 
G01 X63.1077 Y34.0237 
G01 X63.1428 Y34.2001 
G00 Z2.0000 
G00 X63.1428 Y31.6601 
G01 Z-0.0250 F254.00 
G01 X63.1428 Y31.8399 F508.00 
G01 X63.1077 Y32.0163 
G01 X63.0389 Y32.1824 
G01 X62.9390 Y32.3319 
G01 X62.8119 Y32.4590 
G01 X62.6624 Y32.5589 
G01 X62.4963 Y32.6277 
G01 X62.3199 Y32.6628 
G01 X62.1401 Y32.6628 
G01 X61.9637 Y32.6277 
G01 X61.7976 Y32.5589 
G01 X61.6481 Y32.4590 
G01 X61.5210 Y32.3319 
G01 X61.4211 Y32.1824 
G01 X61.3523 Y32.0163 
G01 X61.3172 Y31.8399 
G01 X61.3172 Y31.6601 
G01 X61.3523 Y31.4837 
G01 X61.4211 Y31.3176 
G01 X61.5210 Y31.1681 
G01 X61.6481 Y31.0410 
G01 X61.6717 Y31.0252 
G01 X60.7153 Y30.0689 
G01 X60.6773 Y30.0846 
G01 X60.5599 Y30.1080 
G01 X60.4401 Y30.1080 
G01 X60.3227 Y30.0846 
G01 X60.2120 Y30.0388 
G01 X60.1124 Y29.9723 
G01 X60.0277 Y29.8876 
G01 X59.9612 Y29.7880 
G01 X59.9154 Y29.6773 
G01 X59.8920 Y29.5599 
G01 X59.8920 Y29.4401 
G01 X59.9154 Y29.3227 
G01 X59.9612 Y29.2120 
G01 X60.0277 Y29.1124 
G01 X60.1124 Y29.0277 
G01 X60.2120 Y28.9612 
G01 X60.3227 Y28.9154 
G01 X60.4401 Y28.8920 
G01 X60.5599 Y28.8920 
G01 X60.6773 Y28.9154 
G01 X60.7880 Y28.9612 
G01 X60.8876 Y29.0277 
G01 X60.9723 Y29.1124 
G01 X61.0388 Y29.2120 
G01 X61.0846 Y29.3227 
G01 X61.1080 Y29.4401 
G01 X61.1080 Y29.5599 
G01 X61.0846 Y29.6773 
G01 X61.0689 Y29.7153 
G01 X62.1416 Y30.7881 
G01 X62.1908 Y30.8372 
G01 X62.3199 Y30.8372 
G01 X62.4963 Y30.8723 
G01 X62.6624 Y30.9411 
G01 X62.8119 Y31.0410 
G01 X62.9390 Y31.1681 
G01 X63.0389 Y31.3176 
G01 X63.1077 Y31.4837 
G01 X63.1428 Y31.6601 
G00 Z2.0000 
G00 X63.1428 Y29.1201 
G01 Z-0.0250 F254.00 
G01 X63.1428 Y29.2999 F508.00 
G01 X63.1077 Y29.4763 
G01 X63.0389 Y29.6424 
G01 X62.9390 Y29.7919 
G01 X62.8119 Y29.9190 
G01 X62.6624 Y30.0189 
G01 X62.4963 Y30.0877 
G01 X62.3199 Y30.1228 
G01 X62.1401 Y30.1228 
G01 X61.9637 Y30.0877 
G01 X61.7976 Y30.0189 
G01 X61.6481 Y29.9190 
G01 X61.5210 Y29.7919 
G01 X61.4211 Y29.6424 
G01 X61.3523 Y29.4763 
G01 X61.3172 Y29.2999 
G01 X61.3172 Y29.1201 
G01 X61.3523 Y28.9437 
G01 X61.4211 Y28.7776 
G01 X61.5210 Y28.6281 
G01 X61.6481 Y28.5010 
G01 X61.7976 Y28.4011 
G01 X61.9637 Y28.3323 
G01 X62.1401 Y28.2972 
G01 X62.3199 Y28.2972 
G01 X62.4963 Y28.3323 
G01 X62.6624 Y28.4011 
G01 X62.8119 Y28.5010 
G01 X62.9390 Y28.6281 
G01 X63.0389 Y28.7776 
G01 X63.1077 Y28.9437 
G01 X63.1428 Y29.1201 
G00 Z2.0000 
G00 X63.1428 Y26.5801 
G01 Z-0.0250 F254.00 
G01 X63.1428 Y26.7599 F508.00 
G01 X63.1077 Y26.9363 
G01 X63.0389 Y27.1024 
G01 X62.9390 Y27.2519 
G01 X62.8119 Y27.3790 
G01 X62.6624 Y27.4789 
G01 X62.4963 Y27.5477 
G01 X62.3199 Y27.5828 
G01 X62.1401 Y27.5828 
G01 X61.9637 Y27.5477 
G01 X61.7976 Y27.4789 
G01 X61.6481 Y27.3790 
G01 X61.5210 Y27.2519 
G01 X61.4211 Y27.1024 
G01 X61.3523 Y26.9363 
G01 X61.3172 Y26.7599 
G01 X61.3172 Y26.5801 
G01 X61.3523 Y26.4037 
G01 X61.4102 Y26.2638 
G01 X61.0381 Y25.8916 
G01 X61.0000 Y25.7997 
G01 X61.0000 Y16.6036 
G01 X58.9653 Y14.5689 
G01 X58.9273 Y14.5846 
G01 X58.8099 Y14.6080 
G01 X58.6901 Y14.6080 
G01 X58.5727 Y14.5846 
G01 X58.4620 Y14.5388 
G01 X58.3624 Y14.4723 
G01 X58.2777 Y14.3876 
G01 X58.2112 Y14.2880 
G01 X58.1654 Y14.1773 
G01 X58.1420 Y14.0599 
G01 X58.1420 Y13.9401 
G01 X58.1654 Y13.8227 
G01 X58.2112 Y13.7120 
G01 X58.2777 Y13.6124 
G01 X58.3624 Y13.5277 
G01 X58.4620 Y13.4612 
G01 X58.5727 Y13.4154 
G01 X58.6901 Y13.3920 
G01 X58.8099 Y13.3920 
G01 X58.9273 Y13.4154 
G01 X59.0380 Y13.4612 
G01 X59.1376 Y13.5277 
G01 X59.2223 Y13.6124 
G01 X59.2888 Y13.7120 
G01 X59.3346 Y13.8227 
G01 X59.3580 Y13.9401 
G01 X59.3580 Y14.0599 
G01 X59.3346 Y14.1773 
G01 X59.3189 Y14.2153 
G01 X61.3916 Y16.2881 
G01 X61.4619 Y16.3584 
G01 X61.5000 Y16.4503 
G01 X61.5000 Y25.6464 
G01 X61.7479 Y25.8943 
G01 X61.7976 Y25.8611 
G01 X61.9637 Y25.7923 
G01 X62.1401 Y25.7572 
G01 X62.3199 Y25.7572 
G01 X62.4963 Y25.7923 
G01 X62.6624 Y25.8611 
G01 X62.8119 Y25.9610 
G01 X62.9390 Y26.0881 
G01 X63.0389 Y26.2376 
G01 X63.1077 Y26.4037 
G01 X63.1428 Y26.5801 
G00 Z2.0000 
G00 X47.9028 Y26.5801 
G01 Z-0.0250 F254.00 
G01 X47.9028 Y26.7599 F508.00 
G01 X47.8677 Y26.9363 
G01 X47.7989 Y27.1024 
G01 X47.6990 Y27.2519 
G01 X47.5719 Y27.3790 
G01 X47.4224 Y27.4789 
G01 X47.2563 Y27.5477 
G01 X47.0799 Y27.5828 
G01 X46.9001 Y27.5828 
G01 X46.7237 Y27.5477 
G01 X46.5576 Y27.4789 
G01 X46.4081 Y27.3790 
G01 X46.2810 Y27.2519 
G01 X46.1811 Y27.1024 
G01 X46.1123 Y26.9363 
G01 X46.0772 Y26.7599 
G01 X46.0772 Y26.5801 
G01 X46.1123 Y26.4037 
G01 X46.1811 Y26.2376 
G01 X46.2810 Y26.0881 
G01 X46.4081 Y25.9610 
G01 X46.5576 Y25.8611 
G01 X46.7237 Y25.7923 
G01 X46.9001 Y25.7572 
G01 X47.0799 Y25.7572 
G01 X47.2563 Y25.7923 
G01 X47.4224 Y25.8611 
G01 X47.5719 Y25.9610 
G01 X47.6990 Y26.0881 
G01 X47.7989 Y26.2376 
G01 X47.8677 Y26.4037 
G01 X47.9028 Y26.5801 
G00 Z2.0000 
G00 X47.9028 Y29.1201 
G01 Z-0.0250 F254.00 
G01 X47.9028 Y29.2999 F508.00 
G01 X47.8677 Y29.4763 
G01 X47.7989 Y29.6424 
G01 X47.6990 Y29.7919 
G01 X47.5719 Y29.9190 
G01 X47.4224 Y30.0189 
G01 X47.2563 Y30.0877 
G01 X47.0799 Y30.1228 
G01 X46.9001 Y30.1228 
G01 X46.7237 Y30.0877 
G01 X46.5576 Y30.0189 
G01 X46.4081 Y29.9190 
G01 X46.2810 Y29.7919 
G01 X46.1811 Y29.6424 
G01 X46.1123 Y29.4763 
G01 X46.0772 Y29.2999 
G01 X46.0772 Y29.1201 
G01 X46.1123 Y28.9437 
G01 X46.1811 Y28.7776 
G01 X46.2810 Y28.6281 
G01 X46.4081 Y28.5010 
G01 X46.5576 Y28.4011 
G01 X46.7237 Y28.3323 
G01 X46.9001 Y28.2972 
G01 X47.0799 Y28.2972 
G01 X47.2563 Y28.3323 
G01 X47.4224 Y28.4011 
G01 X47.5719 Y28.5010 
G01 X47.6990 Y28.6281 
G01 X47.7989 Y28.7776 
G01 X47.8677 Y28.9437 
G01 X47.9028 Y29.1201 
G00 Z2.0000 
G00 X47.9028 Y31.6601 
G01 Z-0.0250 F254.00 
G01 X47.9028 Y31.8399 F508.00 
G01 X47.8677 Y32.0163 
G01 X47.7989 Y32.1824 
G01 X47.6990 Y32.3319 
G01 X47.5719 Y32.4590 
G01 X47.4224 Y32.5589 
G01 X47.2563 Y32.6277 
G01 X47.0799 Y32.6628 
G01 X46.9001 Y32.6628 
G01 X46.7237 Y32.6277 
G01 X46.5576 Y32.5589 
G01 X46.4081 Y32.4590 
G01 X46.2810 Y32.3319 
G01 X46.1811 Y32.1824 
G01 X46.1123 Y32.0163 
G01 X46.0772 Y31.8399 
G01 X46.0772 Y31.6601 
G01 X46.1123 Y31.4837 
G01 X46.1175 Y31.4711 
G01 X45.0381 Y30.3916 
G01 X45.0000 Y30.2997 
G01 X45.0000 Y12.1036 
G01 X43.9653 Y11.0689 
G01 X43.9273 Y11.0846 
G01 X43.8099 Y11.1080 
G01 X43.6901 Y11.1080 
G01 X43.5727 Y11.0846 
G01 X43.4620 Y11.0388 
G01 X43.3624 Y10.9723 
G01 X43.2777 Y10.8876 
G01 X43.2112 Y10.7880 
G01 X43.1654 Y10.6773 
G01 X43.1420 Y10.5599 
G01 X43.1420 Y10.4401 
G01 X43.1654 Y10.3227 
G01 X43.2112 Y10.2120 
G01 X43.2777 Y10.1124 
G01 X43.3624 Y10.0277 
G01 X43.4620 Y9.9612 
G01 X43.5727 Y9.9154 
G01 X43.6901 Y9.8920 
G01 X43.8099 Y9.8920 
G01 X43.9273 Y9.9154 
G01 X44.0380 Y9.9612 
G01 X44.1376 Y10.0277 
G01 X44.2223 Y10.1124 
G01 X44.2888 Y10.2120 
G01 X44.3346 Y10.3227 
G01 X44.3580 Y10.4401 
G01 X44.3580 Y10.5599 
G01 X44.3346 Y10.6773 
G01 X44.3189 Y10.7153 
G01 X45.3916 Y11.7881 
G01 X45.4619 Y11.8584 
G01 X45.5000 Y11.9503 
G01 X45.5000 Y30.1464 
G01 X46.4013 Y31.0478 
G01 X46.4081 Y31.0410 
G01 X46.5576 Y30.9411 
G01 X46.7237 Y30.8723 
G01 X46.9001 Y30.8372 
G01 X47.0799 Y30.8372 
G01 X47.2563 Y30.8723 
G01 X47.4224 Y30.9411 
G01 X47.5719 Y31.0410 
G01 X47.6990 Y31.1681 
G01 X47.7989 Y31.3176 
G01 X47.8677 Y31.4837 
G01 X47.9028 Y31.6601 
G00 Z2.0000 
G00 X47.9028 Y34.2001 
G01 Z-0.0250 F254.00 
G01 X47.9028 Y34.3799 F508.00 
G01 X47.8677 Y34.5563 
G01 X47.7989 Y34.7224 
G01 X47.6990 Y34.8719 
G01 X47.5719 Y34.9990 
G01 X47.4224 Y35.0989 
G01 X47.2563 Y35.1677 
G01 X47.0799 Y35.2028 
G01 X46.9001 Y35.2028 
G01 X46.7237 Y35.1677 
G01 X46.5576 Y35.0989 
G01 X46.4081 Y34.9990 
G01 X46.2810 Y34.8719 
G01 X46.1811 Y34.7224 
G01 X46.1123 Y34.5563 
G01 X46.0772 Y34.3799 
G01 X46.0772 Y34.2001 
G01 X46.1123 Y34.0237 
G01 X46.1811 Y33.8576 
G01 X46.2810 Y33.7081 
G01 X46.4081 Y33.5810 
G01 X46.5576 Y33.4811 
G01 X46.7237 Y33.4123 
G01 X46.9001 Y33.3772 
G01 X47.0799 Y33.3772 
G01 X47.2563 Y33.4123 
G01 X47.4224 Y33.4811 
G01 X47.5719 Y33.5810 
G01 X47.6990 Y33.7081 
G01 X47.7989 Y33.8576 
G01 X47.8677 Y34.0237 
G01 X47.9028 Y34.2001 
G00 Z2.0000 
G00 X47.9028 Y36.7401 
G01 Z-0.0250 F254.00 
G01 X47.9028 Y36.9199 F508.00 
G01 X47.8677 Y37.0963 
G01 X47.7989 Y37.2624 
G01 X47.6990 Y37.4119 
G01 X47.5719 Y37.5390 
G01 X47.4224 Y37.6389 
G01 X47.2563 Y37.7077 
G01 X47.0799 Y37.7428 
G01 X46.9001 Y37.7428 
G01 X46.7237 Y37.7077 
G01 X46.5576 Y37.6389 
G01 X46.4081 Y37.5390 
G01 X46.2810 Y37.4119 
G01 X46.1811 Y37.2624 
G01 X46.1123 Y37.0963 
G01 X46.0772 Y36.9199 
G01 X46.0772 Y36.7401 
G01 X46.1123 Y36.5637 
G01 X46.1811 Y36.3976 
G01 X46.2810 Y36.2481 
G01 X46.4081 Y36.1210 
G01 X46.5576 Y36.0211 
G01 X46.7237 Y35.9523 
G01 X46.9001 Y35.9172 
G01 X47.0799 Y35.9172 
G01 X47.2563 Y35.9523 
G01 X47.4224 Y36.0211 
G01 X47.5719 Y36.1210 
G01 X47.6990 Y36.2481 
G01 X47.7989 Y36.3976 
G01 X47.8677 Y36.5637 
G01 X47.9028 Y36.7401 
G00 Z2.0000 
G00 X47.9028 Y39.2801 
G01 Z-0.0250 F254.00 
G01 X47.9028 Y39.4599 F508.00 
G01 X47.8677 Y39.6363 
G01 X47.7989 Y39.8024 
G01 X47.6990 Y39.9519 
G01 X47.5719 Y40.0790 
G01 X47.4224 Y40.1789 
G01 X47.2563 Y40.2477 
G01 X47.0799 Y40.2828 
G01 X46.9001 Y40.2828 
G01 X46.7237 Y40.2477 
G01 X46.5576 Y40.1789 
G01 X46.4081 Y40.0790 
G01 X46.2810 Y39.9519 
G01 X46.1811 Y39.8024 
G01 X46.1123 Y39.6363 
G01 X46.0772 Y39.4599 
G01 X46.0772 Y39.2801 
G01 X46.1123 Y39.1037 
G01 X46.1811 Y38.9376 
G01 X46.2810 Y38.7881 
G01 X46.4081 Y38.6610 
G01 X46.5576 Y38.5611 
G01 X46.7237 Y38.4923 
G01 X46.9001 Y38.4572 
G01 X47.0799 Y38.4572 
G01 X47.2563 Y38.4923 
G01 X47.4224 Y38.5611 
G01 X47.5719 Y38.6610 
G01 X47.6990 Y38.7881 
G01 X47.7989 Y38.9376 
G01 X47.8677 Y39.1037 
G01 X47.9028 Y39.2801 
G00 Z2.0000 
G00 X47.9028 Y41.8201 
G01 Z-0.0250 F254.00 
G01 X47.9028 Y41.9999 F508.00 
G01 X47.8677 Y42.1763 
G01 X47.7989 Y42.3424 
G01 X47.6990 Y42.4919 
G01 X47.5719 Y42.6190 
G01 X47.4224 Y42.7189 
G01 X47.2563 Y42.7877 
G01 X47.0799 Y42.8228 
G01 X46.9001 Y42.8228 
G01 X46.7237 Y42.7877 
G01 X46.5576 Y42.7189 
G01 X46.4081 Y42.6190 
G01 X46.2810 Y42.4919 
G01 X46.1811 Y42.3424 
G01 X46.1123 Y42.1763 
G01 X46.0772 Y41.9999 
G01 X46.0772 Y41.8201 
G01 X46.1123 Y41.6437 
G01 X46.1811 Y41.4776 
G01 X46.2810 Y41.3281 
G01 X46.4081 Y41.2010 
G01 X46.5576 Y41.1011 
G01 X46.7237 Y41.0323 
G01 X46.9001 Y40.9972 
G01 X47.0799 Y40.9972 
G01 X47.2563 Y41.0323 
G01 X47.4224 Y41.1011 
G01 X47.5719 Y41.2010 
G01 X47.6990 Y41.3281 
G01 X47.7989 Y41.4776 
G01 X47.8677 Y41.6437 
G01 X47.9028 Y41.8201 
G00 Z2.0000 
G00 X47.9028 Y44.3601 
G01 Z-0.0250 F254.00 
G01 X47.9028 Y44.5000 F508.00 
G01 X50.1000 Y44.5000 
G01 X50.1000 Y44.4001 
G01 X50.1152 Y44.3634 
G01 X50.1434 Y44.3352 
G01 X50.1801 Y44.3200 
G01 X51.4199 Y44.3200 
G01 X51.4566 Y44.3352 
G01 X51.4848 Y44.3634 
G01 X51.5000 Y44.4001 
G01 X51.5000 Y45.2399 
G01 X51.4848 Y45.2766 
G01 X51.4566 Y45.3048 
G01 X51.4199 Y45.3200 
G01 X50.1801 Y45.3200 
G01 X50.1434 Y45.3048 
G01 X50.1152 Y45.2766 
G01 X50.1000 Y45.2399 
G01 X50.1000 Y45.0000 
G01 X47.7203 Y45.0000 
G01 X47.6990 Y45.0319 
G01 X47.5719 Y45.1590 
G01 X47.4224 Y45.2589 
G01 X47.2563 Y45.3277 
G01 X47.0799 Y45.3628 
G01 X46.9001 Y45.3628 
G01 X46.7237 Y45.3277 
G01 X46.5576 Y45.2589 
G01 X46.4081 Y45.1590 
G01 X46.2810 Y45.0319 
G01 X46.1811 Y44.8824 
G01 X46.1123 Y44.7163 
G01 X46.0772 Y44.5399 
G01 X46.0772 Y44.3601 
G01 X46.1123 Y44.1837 
G01 X46.1811 Y44.0176 
G01 X46.2810 Y43.8681 
G01 X46.4081 Y43.7410 
G01 X46.5576 Y43.6411 
G01 X46.7237 Y43.5723 
G01 X46.9001 Y43.5372 
G01 X47.0799 Y43.5372 
G01 X47.2563 Y43.5723 
G01 X47.4224 Y43.6411 
G01 X47.5719 Y43.7410 
G01 X47.6990 Y43.8681 
G01 X47.7989 Y44.0176 
G01 X47.8677 Y44.1837 
G01 X47.9028 Y44.3601 
G00 Z2.0000 
G00 X47.9028 Y49.4401 
G01 Z-0.0250 F254.00 
G01 X47.9028 Y49.6199 F508.00 
G01 X47.8677 Y49.7963 
G01 X47.7989 Y49.9624 
G01 X47.6990 Y50.1119 
G01 X47.5719 Y50.2390 
G01 X47.4224 Y50.3389 
G01 X47.2563 Y50.4077 
G01 X47.0799 Y50.4428 
G01 X46.9001 Y50.4428 
G01 X46.7237 Y50.4077 
G01 X46.5576 Y50.3389 
G01 X46.4081 Y50.2390 
G01 X46.2810 Y50.1119 
G01 X46.1811 Y49.9624 
G01 X46.1123 Y49.7963 
G01 X46.0772 Y49.6199 
G01 X46.0772 Y49.4401 
G01 X46.1123 Y49.2637 
G01 X46.1811 Y49.0976 
G01 X46.2810 Y48.9481 
G01 X46.4081 Y48.8210 
G01 X46.5576 Y48.7211 
G01 X46.7237 Y48.6523 
G01 X46.9001 Y48.6172 
G01 X47.0799 Y48.6172 
G01 X47.2563 Y48.6523 
G01 X47.4224 Y48.7211 
G01 X47.5719 Y48.8210 
G01 X47.6990 Y48.9481 
G01 X47.7989 Y49.0976 
G01 X47.8677 Y49.2637 
G01 X47.9028 Y49.4401 
G00 Z2.0000 
G00 X47.9028 Y51.9801 
G01 Z-0.0250 F254.00 
G01 X47.9028 Y52.1599 F508.00 
G01 X47.8677 Y52.3363 
G01 X47.7989 Y52.5024 
G01 X47.6990 Y52.6519 
G01 X47.5719 Y52.7790 
G01 X47.4224 Y52.8789 
G01 X47.2563 Y52.9477 
G01 X47.0799 Y52.9828 
G01 X46.9001 Y52.9828 
G01 X46.7237 Y52.9477 
G01 X46.5576 Y52.8789 
G01 X46.4081 Y52.7790 
G01 X46.2810 Y52.6519 
G01 X46.1811 Y52.5024 
G01 X46.1123 Y52.3363 
G01 X46.0772 Y52.1599 
G01 X46.0772 Y51.9801 
G01 X46.1123 Y51.8037 
G01 X46.1811 Y51.6376 
G01 X46.2810 Y51.4881 
G01 X46.4081 Y51.3610 
G01 X46.5576 Y51.2611 
G01 X46.7237 Y51.1923 
G01 X46.9001 Y51.1572 
G01 X47.0799 Y51.1572 
G01 X47.2563 Y51.1923 
G01 X47.4224 Y51.2611 
G01 X47.5719 Y51.3610 
G01 X47.6990 Y51.4881 
G01 X47.7989 Y51.6376 
G01 X47.8677 Y51.8037 
G01 X47.9028 Y51.9801 
G00 Z2.0000 
G00 X47.9028 Y54.5201 
G01 Z-0.0250 F254.00 
G01 X47.9028 Y54.6999 F508.00 
G01 X47.8677 Y54.8763 
G01 X47.7989 Y55.0424 
G01 X47.6990 Y55.1919 
G01 X47.5719 Y55.3190 
G01 X47.4224 Y55.4189 
G01 X47.2563 Y55.4877 
G01 X47.0799 Y55.5228 
G01 X46.9001 Y55.5228 
G01 X46.7237 Y55.4877 
G01 X46.5576 Y55.4189 
G01 X46.4081 Y55.3190 
G01 X46.2810 Y55.1919 
G01 X46.1811 Y55.0424 
G01 X46.1123 Y54.8763 
G01 X46.0772 Y54.6999 
G01 X46.0772 Y54.5201 
G01 X46.1123 Y54.3437 
G01 X46.1811 Y54.1776 
G01 X46.2810 Y54.0281 
G01 X46.4081 Y53.9010 
G01 X46.5576 Y53.8011 
G01 X46.7237 Y53.7323 
G01 X46.9001 Y53.6972 
G01 X47.0799 Y53.6972 
G01 X47.2563 Y53.7323 
G01 X47.4224 Y53.8011 
G01 X47.5719 Y53.9010 
G01 X47.6990 Y54.0281 
G01 X47.7989 Y54.1776 
G01 X47.8677 Y54.3437 
G01 X47.9028 Y54.5201 
G00 Z2.0000 
G00 X60.6028 Y43.0901 
G01 Z-0.0250 F254.00 
G01 X60.6028 Y43.2699 F508.00 
G01 X60.5677 Y43.4463 
G01 X60.4989 Y43.6124 
G01 X60.3990 Y43.7619 
G01 X60.2719 Y43.8890 
G01 X60.1224 Y43.9889 
G01 X59.9563 Y44.0577 
G01 X59.7799 Y44.0928 
G01 X59.6001 Y44.0928 
G01 X59.4237 Y44.0577 
G01 X59.2576 Y43.9889 
G01 X59.1081 Y43.8890 
G01 X58.9810 Y43.7619 
G01 X58.8811 Y43.6124 
G01 X58.8123 Y43.4463 
G01 X58.7772 Y43.2699 
G01 X58.7772 Y43.0901 
G01 X58.8123 Y42.9137 
G01 X58.8811 Y42.7476 
G01 X58.9810 Y42.5981 
G01 X59.1081 Y42.4710 
G01 X59.2500 Y42.3762 
G01 X59.2500 Y25.8045 
G01 X59.2120 Y25.7888 
G01 X59.1124 Y25.7223 
G01 X59.0277 Y25.6376 
G01 X58.9612 Y25.5380 
G01 X58.9154 Y25.4273 
G01 X58.8920 Y25.3099 
G01 X58.8920 Y25.1901 
G01 X58.9154 Y25.0726 
G01 X58.9612 Y24.9620 
G01 X59.0277 Y24.8624 
G01 X59.1124 Y24.7777 
G01 X59.2120 Y24.7112 
G01 X59.3227 Y24.6654 
G01 X59.4401 Y24.6420 
G01 X59.5599 Y24.6420 
G01 X59.6773 Y24.6654 
G01 X59.7880 Y24.7112 
G01 X59.8876 Y24.7777 
G01 X59.9723 Y24.8624 
G01 X60.0388 Y24.9620 
G01 X60.0846 Y25.0726 
G01 X60.1080 Y25.1901 
G01 X60.1080 Y25.3099 
G01 X60.0846 Y25.4273 
G01 X60.0388 Y25.5380 
G01 X59.9723 Y25.6376 
G01 X59.8876 Y25.7223 
G01 X59.7880 Y25.7888 
G01 X59.7500 Y25.8045 
G01 X59.7500 Y42.2672 
G01 X59.7799 Y42.2672 
G01 X59.9563 Y42.3023 
G01 X60.1224 Y42.3711 
G01 X60.2719 Y42.4710 
G01 X60.3990 Y42.5981 
G01 X60.4989 Y42.7476 
G01 X60.5677 Y42.9137 
G01 X60.6028 Y43.0901 
G00 Z2.0000 
G00 X60.6028 Y45.6301 
G01 Z-0.0250 F254.00 
G01 X60.6028 Y45.8099 F508.00 
G01 X60.5677 Y45.9863 
G01 X60.4989 Y46.1524 
G01 X60.3990 Y46.3019 
G01 X60.2719 Y46.4290 
G01 X60.1224 Y46.5289 
G01 X59.9563 Y46.5977 
G01 X59.7799 Y46.6328 
G01 X59.6001 Y46.6328 
G01 X59.4237 Y46.5977 
G01 X59.2576 Y46.5289 
G01 X59.1081 Y46.4290 
G01 X58.9810 Y46.3019 
G01 X58.8811 Y46.1524 
G01 X58.8123 Y45.9863 
G01 X58.7772 Y45.8099 
G01 X58.7772 Y45.6301 
G01 X58.8123 Y45.4537 
G01 X58.8811 Y45.2876 
G01 X58.9810 Y45.1381 
G01 X59.1081 Y45.0110 
G01 X59.2576 Y44.9111 
G01 X59.4237 Y44.8423 
G01 X59.6001 Y44.8072 
G01 X59.7799 Y44.8072 
G01 X59.9563 Y44.8423 
G01 X60.1224 Y44.9111 
G01 X60.2719 Y45.0110 
G01 X60.3990 Y45.1381 
G01 X60.4989 Y45.2876 
G01 X60.5677 Y45.4537 
G01 X60.6028 Y45.6301 
G00 Z2.0000 
G00 X64.4027 Y14.8828 
G01 Z-0.0250 F254.00 
G01 X62.5973 Y14.8828 F508.00 
G01 X62.4209 Y14.8477 
G01 X62.2548 Y14.7789 
G01 X62.1053 Y14.6790 
G01 X61.9782 Y14.5519 
G01 X61.8783 Y14.4024 
G01 X61.8095 Y14.2363 
G01 X61.7744 Y14.0599 
G01 X61.7744 Y13.8801 
G01 X61.8095 Y13.7037 
G01 X61.8783 Y13.5376 
G01 X61.9782 Y13.3881 
G01 X62.1053 Y13.2610 
G01 X62.2548 Y13.1611 
G01 X62.4209 Y13.0923 
G01 X62.5973 Y13.0572 
G01 X64.4027 Y13.0572 
G01 X64.5791 Y13.0923 
G01 X64.7452 Y13.1611 
G01 X64.8947 Y13.2610 
G01 X65.0218 Y13.3881 
G01 X65.1217 Y13.5376 
G01 X65.1905 Y13.7037 
G01 X65.2256 Y13.8801 
G01 X65.2256 Y14.0599 
G01 X65.1905 Y14.2363 
G01 X65.1217 Y14.4024 
G01 X65.0218 Y14.5519 
G01 X64.8947 Y14.6790 
G01 X64.7452 Y14.7789 
G01 X64.5791 Y14.8477 
G01 X64.4027 Y14.8828 
G00 Z2.0000 
G00 X64.4027 Y12.3428 
G01 Z-0.0250 F254.00 
G01 X62.5973 Y12.3428 F508.00 
G01 X62.4209 Y12.3077 
G01 X62.2548 Y12.2389 
G01 X62.1053 Y12.1390 
G01 X61.9782 Y12.0119 
G01 X61.8783 Y11.8624 
G01 X61.8317 Y11.7500 
G01 X61.5000 Y11.7500 
G01 X61.5000 Y14.1464 
G01 X62.9508 Y15.5972 
G01 X64.4027 Y15.5972 
G01 X64.5791 Y15.6323 
G01 X64.7452 Y15.7011 
G01 X64.8947 Y15.8010 
G01 X65.0218 Y15.9281 
G01 X65.1217 Y16.0776 
G01 X65.1905 Y16.2437 
G01 X65.2256 Y16.4201 
G01 X65.2256 Y16.5999 
G01 X65.1905 Y16.7763 
G01 X65.1217 Y16.9424 
G01 X65.0218 Y17.0919 
G01 X64.8947 Y17.2190 
G01 X64.7452 Y17.3189 
G01 X64.5791 Y17.3877 
G01 X64.4027 Y17.4228 
G01 X62.5973 Y17.4228 
G01 X62.4209 Y17.3877 
G01 X62.2548 Y17.3189 
G01 X62.1053 Y17.2190 
G01 X61.9782 Y17.0919 
G01 X61.8783 Y16.9424 
G01 X61.8095 Y16.7763 
G01 X61.7744 Y16.5999 
G01 X61.7744 Y16.4201 
G01 X61.8095 Y16.2437 
G01 X61.8783 Y16.0776 
G01 X61.9782 Y15.9281 
G01 X62.1053 Y15.8010 
G01 X62.2548 Y15.7011 
G01 X62.3204 Y15.6739 
G01 X61.0381 Y14.3916 
G01 X61.0000 Y14.2997 
G01 X61.0000 Y11.4503 
G01 X61.0381 Y11.3584 
G01 X61.1084 Y11.2881 
G01 X61.2003 Y11.2500 
G01 X61.7923 Y11.2500 
G01 X61.8095 Y11.1637 
G01 X61.8783 Y10.9976 
G01 X61.9782 Y10.8481 
G01 X62.1053 Y10.7210 
G01 X62.2548 Y10.6211 
G01 X62.4209 Y10.5523 
G01 X62.5973 Y10.5172 
G01 X64.4027 Y10.5172 
G01 X64.5791 Y10.5523 
G01 X64.7452 Y10.6211 
G01 X64.8947 Y10.7210 
G01 X65.0218 Y10.8481 
G01 X65.1217 Y10.9976 
G01 X65.1905 Y11.1637 
G01 X65.2256 Y11.3401 
G01 X65.2256 Y11.5199 
G01 X65.1905 Y11.6963 
G01 X65.1217 Y11.8624 
G01 X65.0218 Y12.0119 
G01 X64.8947 Y12.1390 
G01 X64.7452 Y12.2389 
G01 X64.5791 Y12.3077 
G01 X64.4027 Y12.3428 
G00 Z2.0000 
G00 X7.0200 Y19.9399 
G01 Z-0.0250 F254.00 
G01 X7.0200 Y19.5000 F508.00 
G01 X6.8580 Y19.5000 
G01 X6.8580 Y19.5599 
G01 X6.8346 Y19.6773 
G01 X6.7888 Y19.7880 
G01 X6.7223 Y19.8876 
G01 X6.6376 Y19.9723 
G01 X6.5380 Y20.0388 
G01 X6.4273 Y20.0846 
G01 X6.3099 Y20.1080 
G01 X6.1901 Y20.1080 
G01 X6.0727 Y20.0846 
G01 X5.9620 Y20.0388 
G01 X5.8624 Y19.9723 
G01 X5.7777 Y19.8876 
G01 X5.7112 Y19.7880 
G01 X5.6654 Y19.6773 
G01 X5.6420 Y19.5599 
G01 X5.6420 Y19.4401 
G01 X5.6654 Y19.3226 
G01 X5.7112 Y19.2120 
G01 X5.7777 Y19.1124 
G01 X5.8624 Y19.0277 
G01 X5.9620 Y18.9612 
G01 X6.0727 Y18.9154 
G01 X6.1901 Y18.8920 
G01 X6.3099 Y18.8920 
G01 X6.4273 Y18.9154 
G01 X6.5380 Y18.9612 
G01 X6.5961 Y19.0000 
G01 X7.0200 Y19.0000 
G01 X7.0200 Y18.5001 
G01 X7.0352 Y18.4634 
G01 X7.0634 Y18.4352 
G01 X7.1001 Y18.4200 
G01 X8.1399 Y18.4200 
G01 X8.1766 Y18.4352 
G01 X8.2048 Y18.4634 
G01 X8.2200 Y18.5001 
G01 X8.2200 Y19.9399 
G01 X8.2048 Y19.9766 
G01 X8.1766 Y20.0048 
G01 X8.1399 Y20.0200 
G01 X7.1001 Y20.0200 
G01 X7.0634 Y20.0048 
G01 X7.0352 Y19.9766 
G01 X7.0200 Y19.9399 
G00 Z2.0000 
G00 X14.8400 Y24.7801 
G01 Z-0.0250 F254.00 
G01 X14.8400 Y26.0199 F508.00 
G01 X14.8248 Y26.0566 
G01 X14.7966 Y26.0848 
G01 X14.7599 Y26.1000 
G01 X13.9201 Y26.1000 
G01 X13.8834 Y26.0848 
G01 X13.8552 Y26.0566 
G01 X13.8400 Y26.0199 
G01 X13.8400 Y25.5000 
G01 X9.2003 Y25.5000 
G01 X9.1084 Y25.4619 
G01 X9.0381 Y25.3916 
G01 X9.0000 Y25.2997 
G01 X9.0000 Y22.2200 
G01 X8.0501 Y22.2200 
G01 X8.0134 Y22.2048 
G01 X7.9852 Y22.1766 
G01 X7.9700 Y22.1399 
G01 X7.9700 Y20.7001 
G01 X7.9852 Y20.6634 
G01 X8.0134 Y20.6352 
G01 X8.0501 Y20.6200 
G01 X9.0899 Y20.6200 
G01 X9.1266 Y20.6352 
G01 X9.1548 Y20.6634 
G01 X9.1700 Y20.7001 
G01 X9.1700 Y21.5664 
G01 X9.4619 Y21.8584 
G01 X9.5000 Y21.9503 
G01 X9.5000 Y25.0000 
G01 X13.8400 Y25.0000 
G01 X13.8400 Y24.7801 
G01 X13.8552 Y24.7434 
G01 X13.8834 Y24.7152 
G01 X13.9201 Y24.7000 
G01 X14.7599 Y24.7000 
G01 X14.7966 Y24.7152 
G01 X14.8248 Y24.7434 
G01 X14.8400 Y24.7801 
G00 Z2.0000 
G00 X16.6400 Y24.7801 
G01 Z-0.0250 F254.00 
G01 X16.6400 Y25.0000 F508.00 
G01 X17.4455 Y25.0000 
G01 X17.4612 Y24.9620 
G01 X17.5277 Y24.8624 
G01 X17.6124 Y24.7777 
G01 X17.7120 Y24.7112 
G01 X17.8226 Y24.6654 
G01 X17.9401 Y24.6420 
G01 X18.0599 Y24.6420 
G01 X18.1773 Y24.6654 
G01 X18.2880 Y24.7112 
G01 X18.3876 Y24.7777 
G01 X18.4723 Y24.8624 
G01 X18.5388 Y24.9620 
G01 X18.5846 Y25.0726 
G01 X18.6080 Y25.1901 
G01 X18.6080 Y25.3099 
G01 X18.5846 Y25.4273 
G01 X18.5388 Y25.5380 
G01 X18.4723 Y25.6376 
G01 X18.3876 Y25.7223 
G01 X18.2880 Y25.7888 
G01 X18.1773 Y25.8346 
G01 X18.0599 Y25.8580 
G01 X17.9401 Y25.8580 
G01 X17.8226 Y25.8346 
G01 X17.7120 Y25.7888 
G01 X17.6124 Y25.7223 
G01 X17.5277 Y25.6376 
G01 X17.4612 Y25.5380 
G01 X17.4455 Y25.5000 
G01 X16.6400 Y25.5000 
G01 X16.6400 Y26.0199 
G01 X16.6248 Y26.0566 
G01 X16.5966 Y26.0848 
G01 X16.5599 Y26.1000 
G01 X15.7201 Y26.1000 
G01 X15.6834 Y26.0848 
G01 X15.6552 Y26.0566 
G01 X15.6400 Y26.0199 
G01 X15.6400 Y24.7801 
G01 X15.6552 Y24.7434 
G01 X15.6834 Y24.7152 
G01 X15.7201 Y24.7000 
G01 X16.5599 Y24.7000 
G01 X16.5966 Y24.7152 
G01 X16.6248 Y24.7434 
G01 X16.6400 Y24.7801 
G00 Z2.0000 
G00 X7.9650 Y42.4251 
G01 Z-0.0250 F254.00 
G01 X7.9650 Y43.9349 F508.00 
G01 X7.9498 Y43.9716 
G01 X7.9216 Y43.9998 
G01 X7.8849 Y44.0150 
G01 X6.5751 Y44.0150 
G01 X6.5384 Y43.9998 
G01 X6.5102 Y43.9716 
G01 X6.4950 Y43.9349 
G01 X6.4950 Y42.4251 
G01 X6.5102 Y42.3884 
G01 X6.5225 Y42.3761 
G01 X6.4653 Y42.3189 
G01 X6.4273 Y42.3346 
G01 X6.3099 Y42.3580 
G01 X6.1901 Y42.3580 
G01 X6.0727 Y42.3346 
G01 X5.9620 Y42.2888 
G01 X5.8624 Y42.2223 
G01 X5.7777 Y42.1376 
G01 X5.7112 Y42.0380 
G01 X5.6654 Y41.9273 
G01 X5.6420 Y41.8099 
G01 X5.6420 Y41.6901 
G01 X5.6654 Y41.5727 
G01 X5.7112 Y41.4620 
G01 X5.7777 Y41.3624 
G01 X5.8624 Y41.2777 
G01 X5.9620 Y41.2112 
G01 X6.0727 Y41.1654 
G01 X6.1901 Y41.1420 
G01 X6.3099 Y41.1420 
G01 X6.4273 Y41.1654 
G01 X6.5380 Y41.2112 
G01 X6.6376 Y41.2777 
G01 X6.7223 Y41.3624 
G01 X6.7888 Y41.4620 
G01 X6.8346 Y41.5727 
G01 X6.8580 Y41.6901 
G01 X6.8580 Y41.8099 
G01 X6.8346 Y41.9273 
G01 X6.8189 Y41.9653 
G01 X7.1416 Y42.2881 
G01 X7.1986 Y42.3450 
G01 X7.8849 Y42.3450 
G01 X7.9216 Y42.3602 
G01 X7.9498 Y42.3884 
G01 X7.9650 Y42.4251 
G00 Z2.0000 
G00 X23.1886 Y55.5188 
G01 Z-0.0250 F254.00 
G01 X23.1886 Y55.6824 F508.00 
G01 X23.1630 Y55.8441 
G01 X23.1124 Y55.9997 
G01 X23.0381 Y56.1456 
G01 X22.9419 Y56.2780 
G01 X22.8262 Y56.3937 
G01 X22.6938 Y56.4899 
G01 X22.5479 Y56.5642 
G01 X22.3923 Y56.6148 
G01 X22.2306 Y56.6404 
G01 X22.0670 Y56.6404 
G01 X21.9053 Y56.6148 
G01 X21.7497 Y56.5642 
G01 X21.6038 Y56.4899 
G01 X21.4714 Y56.3937 
G01 X21.3557 Y56.2780 
G01 X21.2595 Y56.1456 
G01 X21.1852 Y55.9997 
G01 X21.1346 Y55.8441 
G01 X21.1090 Y55.6824 
G01 X21.1090 Y55.5188 
G01 X21.1346 Y55.3571 
G01 X21.1852 Y55.2015 
G01 X21.2595 Y55.0556 
G01 X21.3557 Y54.9232 
G01 X21.4714 Y54.8075 
G01 X21.6038 Y54.7113 
G01 X21.7497 Y54.6370 
G01 X21.9053 Y54.5864 
G01 X22.0670 Y54.5608 
G01 X22.2306 Y54.5608 
G01 X22.3923 Y54.5864 
G01 X22.5479 Y54.6370 
G01 X22.6938 Y54.7113 
G01 X22.8262 Y54.8075 
G01 X22.9419 Y54.9232 
G01 X23.0381 Y55.0556 
G01 X23.1124 Y55.2015 
G01 X23.1630 Y55.3571 
G01 X23.1886 Y55.5188 
G00 Z2.0000 
G00 X29.6910 Y55.5188 
G01 Z-0.0250 F254.00 
G01 X29.6910 Y55.6824 F508.00 
G01 X29.6654 Y55.8441 
G01 X29.6148 Y55.9997 
G01 X29.5405 Y56.1456 
G01 X29.4443 Y56.2780 
G01 X29.3286 Y56.3937 
G01 X29.1962 Y56.4899 
G01 X29.0503 Y56.5642 
G01 X28.8947 Y56.6148 
G01 X28.7330 Y56.6404 
G01 X28.5694 Y56.6404 
G01 X28.4077 Y56.6148 
G01 X28.2521 Y56.5642 
G01 X28.1062 Y56.4899 
G01 X27.9738 Y56.3937 
G01 X27.8581 Y56.2780 
G01 X27.7619 Y56.1456 
G01 X27.6876 Y55.9997 
G01 X27.6370 Y55.8441 
G01 X27.6114 Y55.6824 
G01 X27.6114 Y55.5188 
G01 X27.6370 Y55.3571 
G01 X27.6876 Y55.2015 
G01 X27.7619 Y55.0556 
G01 X27.8581 Y54.9232 
G01 X27.9738 Y54.8075 
G01 X28.1062 Y54.7113 
G01 X28.2521 Y54.6370 
G01 X28.4077 Y54.5864 
G01 X28.5694 Y54.5608 
G01 X28.7330 Y54.5608 
G01 X28.8947 Y54.5864 
G01 X29.0503 Y54.6370 
G01 X29.1962 Y54.7113 
G01 X29.3286 Y54.8075 
G01 X29.4443 Y54.9232 
G01 X29.5405 Y55.0556 
G01 X29.6148 Y55.2015 
G01 X29.6654 Y55.3571 
G01 X29.6910 Y55.5188 
G00 Z2.0000 
G00 X23.1886 Y50.9976 
G01 Z-0.0250 F254.00 
G01 X23.1886 Y51.1612 F508.00 
G01 X23.1630 Y51.3229 
G01 X23.1124 Y51.4785 
G01 X23.0381 Y51.6244 
G01 X22.9419 Y51.7568 
G01 X22.8262 Y51.8725 
G01 X22.6938 Y51.9687 
G01 X22.5479 Y52.0430 
G01 X22.3923 Y52.0936 
G01 X22.2306 Y52.1192 
G01 X22.0670 Y52.1192 
G01 X21.9053 Y52.0936 
G01 X21.7497 Y52.0430 
G01 X21.6038 Y51.9687 
G01 X21.4714 Y51.8725 
G01 X21.3557 Y51.7568 
G01 X21.2595 Y51.6244 
G01 X21.1852 Y51.4785 
G01 X21.1346 Y51.3229 
G01 X21.1090 Y51.1612 
G01 X21.1090 Y50.9976 
G01 X21.1346 Y50.8359 
G01 X21.1852 Y50.6803 
G01 X21.2595 Y50.5344 
G01 X21.3557 Y50.4020 
G01 X21.4714 Y50.2863 
G01 X21.6038 Y50.1901 
G01 X21.7497 Y50.1158 
G01 X21.9053 Y50.0652 
G01 X22.0000 Y50.0502 
G01 X22.0000 Y49.2003 
G01 X22.0381 Y49.1084 
G01 X22.1084 Y49.0381 
G01 X22.2003 Y49.0000 
G01 X24.7000 Y49.0000 
G01 X24.7000 Y48.7401 
G01 X24.7152 Y48.7034 
G01 X24.7434 Y48.6752 
G01 X24.7801 Y48.6600 
G01 X26.0199 Y48.6600 
G01 X26.0566 Y48.6752 
G01 X26.0848 Y48.7034 
G01 X26.1000 Y48.7401 
G01 X26.1000 Y49.5799 
G01 X26.0848 Y49.6166 
G01 X26.0566 Y49.6448 
G01 X26.0199 Y49.6600 
G01 X24.7801 Y49.6600 
G01 X24.7434 Y49.6448 
G01 X24.7152 Y49.6166 
G01 X24.7000 Y49.5799 
G01 X24.7000 Y49.5000 
G01 X22.5000 Y49.5000 
G01 X22.5000 Y50.1002 
G01 X22.5479 Y50.1158 
G01 X22.6938 Y50.1901 
G01 X22.8262 Y50.2863 
G01 X22.9419 Y50.4020 
G01 X23.0381 Y50.5344 
G01 X23.1124 Y50.6803 
G01 X23.1630 Y50.8359 
G01 X23.1886 Y50.9976 
G00 Z2.0000 
G00 X29.6910 Y50.9976 
G01 Z-0.0250 F254.00 
G01 X29.6910 Y51.1612 F508.00 
G01 X29.6654 Y51.3229 
G01 X29.6148 Y51.4785 
G01 X29.5405 Y51.6244 
G01 X29.4443 Y51.7568 
G01 X29.3286 Y51.8725 
G01 X29.1962 Y51.9687 
G01 X29.0503 Y52.0430 
G01 X28.8947 Y52.0936 
G01 X28.7330 Y52.1192 
G01 X28.5694 Y52.1192 
G01 X28.4077 Y52.0936 
G01 X28.2521 Y52.0430 
G01 X28.1062 Y51.9687 
G01 X27.9738 Y51.8725 
G01 X27.8581 Y51.7568 
G01 X27.7619 Y51.6244 
G01 X27.6876 Y51.4785 
G01 X27.6370 Y51.3229 
G01 X27.6114 Y51.1612 
G01 X27.6114 Y50.9976 
G01 X27.6370 Y50.8359 
G01 X27.6876 Y50.6803 
G01 X27.7619 Y50.5344 
G01 X27.8581 Y50.4020 
G01 X27.9738 Y50.2863 
G01 X28.1062 Y50.1901 
G01 X28.2521 Y50.1158 
G01 X28.4077 Y50.0652 
G01 X28.5694 Y50.0396 
G01 X28.7330 Y50.0396 
G01 X28.8947 Y50.0652 
G01 X29.0503 Y50.1158 
G01 X29.1962 Y50.1901 
G01 X29.3286 Y50.2863 
G01 X29.4443 Y50.4020 
G01 X29.5405 Y50.5344 
G01 X29.6148 Y50.6803 
G01 X29.6654 Y50.8359 
G01 X29.6910 Y50.9976 
G00 Z2.0000 
G00 X17.4350 Y43.9349 
G01 Z-0.0250 F254.00 
G01 X17.4350 Y42.4251 F508.00 
G01 X17.4502 Y42.3884 
G01 X17.4784 Y42.3602 
G01 X17.5151 Y42.3450 
G01 X18.5514 Y42.3450 
G01 X18.7500 Y42.1464 
G01 X18.7500 Y36.9503 
G01 X18.7881 Y36.8584 
G01 X20.7500 Y34.8964 
G01 X20.7500 Y24.3045 
G01 X20.7120 Y24.2888 
G01 X20.6124 Y24.2223 
G01 X20.5277 Y24.1376 
G01 X20.4612 Y24.0380 
G01 X20.4154 Y23.9273 
G01 X20.3920 Y23.8099 
G01 X20.3920 Y23.6901 
G01 X20.4154 Y23.5726 
G01 X20.4612 Y23.4620 
G01 X20.5277 Y23.3624 
G01 X20.6124 Y23.2777 
G01 X20.7120 Y23.2112 
G01 X20.8226 Y23.1654 
G01 X20.9401 Y23.1420 
G01 X21.0599 Y23.1420 
G01 X21.1773 Y23.1654 
G01 X21.2880 Y23.2112 
G01 X21.3876 Y23.2777 
G01 X21.4723 Y23.3624 
G01 X21.5388 Y23.4620 
G01 X21.5846 Y23.5726 
G01 X21.6080 Y23.6901 
G01 X21.6080 Y23.8099 
G01 X21.5846 Y23.9273 
G01 X21.5388 Y24.0380 
G01 X21.4723 Y24.1376 
G01 X21.3876 Y24.2223 
G01 X21.2880 Y24.2888 
G01 X21.2500 Y24.3045 
G01 X21.2500 Y35.0497 
G01 X21.2119 Y35.1416 
G01 X21.1416 Y35.2119 
G01 X19.2500 Y37.1036 
G01 X19.2500 Y42.2997 
G01 X19.2119 Y42.3916 
G01 X19.1416 Y42.4619 
G01 X18.9050 Y42.6986 
G01 X18.9050 Y43.9349 
G01 X18.8898 Y43.9716 
G01 X18.8616 Y43.9998 
G01 X18.8249 Y44.0150 
G01 X17.5151 Y44.0150 
G01 X17.4784 Y43.9998 
G01 X17.4502 Y43.9716 
G01 X17.4350 Y43.9349 
G00 Z2.0000 
G00 X57.4564 Y3.4985 
G01 Z-0.0250 F254.00 
G01 X57.4564 Y1.5815 F508.00 
G01 X57.4934 Y1.3953 
G01 X57.5661 Y1.2200 
G01 X57.6715 Y1.0621 
G01 X57.8057 Y0.9279 
G01 X57.9636 Y0.8225 
G01 X58.1389 Y0.7498 
G01 X58.3251 Y0.7128 
G01 X58.5149 Y0.7128 
G01 X58.7011 Y0.7498 
G01 X58.8764 Y0.8225 
G01 X59.0343 Y0.9279 
G01 X59.1685 Y1.0621 
G01 X59.2739 Y1.2200 
G01 X59.3466 Y1.3953 
G01 X59.3836 Y1.5815 
G01 X59.3836 Y3.4985 
G01 X59.3466 Y3.6847 
G01 X59.2739 Y3.8600 
G01 X59.1685 Y4.0179 
G01 X59.0343 Y4.1521 
G01 X58.8764 Y4.2575 
G01 X58.7011 Y4.3302 
G01 X58.5149 Y4.3672 
G01 X58.3251 Y4.3672 
G01 X58.1389 Y4.3302 
G01 X57.9636 Y4.2575 
G01 X57.8057 Y4.1521 
G01 X57.6715 Y4.0179 
G01 X57.5661 Y3.8600 
G01 X57.4934 Y3.6847 
G01 X57.4564 Y3.4985 
G00 Z2.0000 
G00 X61.2664 Y3.4985 
G01 Z-0.0250 F254.00 
G01 X61.2664 Y1.5815 F508.00 
G01 X61.3034 Y1.3953 
G01 X61.3761 Y1.2200 
G01 X61.4815 Y1.0621 
G01 X61.6157 Y0.9279 
G01 X61.7736 Y0.8225 
G01 X61.9489 Y0.7498 
G01 X62.1351 Y0.7128 
G01 X62.3249 Y0.7128 
G01 X62.5111 Y0.7498 
G01 X62.6864 Y0.8225 
G01 X62.8443 Y0.9279 
G01 X62.9785 Y1.0621 
G01 X63.0839 Y1.2200 
G01 X63.1566 Y1.3953 
G01 X63.1936 Y1.5815 
G01 X63.1936 Y3.4985 
G01 X63.1566 Y3.6847 
G01 X63.0839 Y3.8600 
G01 X62.9785 Y4.0179 
G01 X62.8443 Y4.1521 
G01 X62.6864 Y4.2575 
G01 X62.5111 Y4.3302 
G01 X62.3249 Y4.3672 
G01 X62.1351 Y4.3672 
G01 X61.9489 Y4.3302 
G01 X61.7736 Y4.2575 
G01 X61.6157 Y4.1521 
G01 X61.4815 Y4.0179 
G01 X61.3761 Y3.8600 
G01 X61.3034 Y3.6847 
G01 X61.2664 Y3.4985 
G00 Z2.0000 
G00 X42.5601 Y53.7400 
G01 Z-0.0250 F254.00 
G01 X43.7999 Y53.7400 F508.00 
G01 X43.8366 Y53.7552 
G01 X43.8648 Y53.7834 
G01 X43.8800 Y53.8201 
G01 X43.8800 Y54.5264 
G01 X44.1416 Y54.7881 
G01 X44.2119 Y54.8584 
G01 X44.2500 Y54.9503 
G01 X44.2500 Y57.7200 
G01 X44.8499 Y57.7200 
G01 X44.8866 Y57.7352 
G01 X44.9148 Y57.7634 
G01 X44.9300 Y57.8001 
G01 X44.9300 Y59.0399 
G01 X44.9148 Y59.0766 
G01 X44.8866 Y59.1048 
G01 X44.8499 Y59.1200 
G01 X43.6101 Y59.1200 
G01 X43.5734 Y59.1048 
G01 X43.5452 Y59.0766 
G01 X43.5300 Y59.0399 
G01 X43.5300 Y57.8001 
G01 X43.5452 Y57.7634 
G01 X43.5734 Y57.7352 
G01 X43.6101 Y57.7200 
G01 X43.7500 Y57.7200 
G01 X43.7500 Y55.1036 
G01 X43.3864 Y54.7400 
G01 X42.5601 Y54.7400 
G01 X42.5234 Y54.7248 
G01 X42.4952 Y54.6966 
G01 X42.4800 Y54.6599 
G01 X42.4800 Y53.8201 
G01 X42.4952 Y53.7834 
G01 X42.5234 Y53.7552 
G01 X42.5601 Y53.7400 
G00 Z2.0000 
G00 X11.0801 Y44.6800 
G01 Z-0.0250 F254.00 
G01 X14.3199 Y44.6800 F508.00 
G01 X14.3566 Y44.6952 
G01 X14.3848 Y44.7234 
G01 X14.4000 Y44.7601 
G01 X14.4000 Y46.5799 
G01 X14.3848 Y46.6166 
G01 X14.3566 Y46.6448 
G01 X14.3199 Y46.6600 
G01 X14.0135 Y46.6600 
G01 X16.6036 Y49.2500 
G01 X18.2500 Y49.2500 
G01 X18.2500 Y48.9558 
G01 X18.2234 Y48.9448 
G01 X18.1952 Y48.9166 
G01 X18.1800 Y48.8799 
G01 X18.1800 Y47.6401 
G01 X18.1952 Y47.6034 
G01 X18.2234 Y47.5752 
G01 X18.2601 Y47.5600 
G01 X19.0864 Y47.5600 
G01 X22.0000 Y44.6464 
G01 X22.0000 Y44.0150 
G01 X21.8151 Y44.0150 
G01 X21.7784 Y43.9998 
G01 X21.7502 Y43.9716 
G01 X21.7350 Y43.9349 
G01 X21.7350 Y42.4251 
G01 X21.7502 Y42.3884 
G01 X21.7784 Y42.3602 
G01 X21.8151 Y42.3450 
G01 X23.1249 Y42.3450 
G01 X23.1616 Y42.3602 
G01 X23.1898 Y42.3884 
G01 X23.2050 Y42.4251 
G01 X23.2050 Y43.9349 
G01 X23.1898 Y43.9716 
G01 X23.1616 Y43.9998 
G01 X23.1249 Y44.0150 
G01 X22.5000 Y44.0150 
G01 X22.5000 Y44.7997 
G01 X22.4619 Y44.8916 
G01 X22.3916 Y44.9619 
G01 X19.1800 Y48.1735 
G01 X19.1800 Y48.8799 
G01 X19.1648 Y48.9166 
G01 X19.1366 Y48.9448 
G01 X19.0999 Y48.9600 
G01 X18.7500 Y48.9600 
G01 X18.7500 Y49.5497 
G01 X18.7119 Y49.6416 
G01 X18.6416 Y49.7119 
G01 X18.5497 Y49.7500 
G01 X16.4503 Y49.7500 
G01 X16.3584 Y49.7119 
G01 X16.2881 Y49.6416 
G01 X13.3064 Y46.6600 
G01 X11.0801 Y46.6600 
G01 X11.0434 Y46.6448 
G01 X11.0152 Y46.6166 
G01 X11.0000 Y46.5799 
G01 X11.0000 Y44.7601 
G01 X11.0152 Y44.7234 
G01 X11.0434 Y44.6952 
G01 X11.0801 Y44.6800 
G00 Z2.0000 
G00 X11.0801 Y39.7000 
G01 Z-0.0250 F254.00 
G01 X12.2500 Y39.7000 F508.00 
G01 X12.2500 Y39.6036 
G01 X11.3671 Y38.7207 
G01 X9.7464 Y38.7207 
G01 X9.7097 Y38.7055 
G01 X9.6815 Y38.6773 
G01 X9.6663 Y38.6406 
G01 X9.6663 Y37.1022 
G01 X9.6815 Y37.0655 
G01 X9.7097 Y37.0373 
G01 X9.7464 Y37.0221 
G01 X11.7928 Y37.0221 
G01 X11.8295 Y37.0373 
G01 X11.8577 Y37.0655 
G01 X11.8729 Y37.1022 
G01 X11.8729 Y38.5193 
G01 X12.6416 Y39.2881 
G01 X12.7119 Y39.3584 
G01 X12.7500 Y39.4503 
G01 X12.7500 Y39.7000 
G01 X14.3199 Y39.7000 
G01 X14.3566 Y39.7152 
G01 X14.3848 Y39.7434 
G01 X14.4000 Y39.7801 
G01 X14.4000 Y41.5999 
G01 X14.3848 Y41.6366 
G01 X14.3566 Y41.6648 
G01 X14.3199 Y41.6800 
G01 X11.0801 Y41.6800 
G01 X11.0434 Y41.6648 
G01 X11.0152 Y41.6366 
G01 X11.0000 Y41.5999 
G01 X11.0000 Y39.7801 
G01 X11.0152 Y39.7434 
G01 X11.0434 Y39.7152 
G01 X11.0801 Y39.7000 
G00 Z2.0000 
G00 X50.4428 Y1.6373 
G01 Z-0.0250 F254.00 
G01 X50.4428 Y3.4427 F508.00 
G01 X50.4077 Y3.6191 
G01 X50.3389 Y3.7852 
G01 X50.2390 Y3.9347 
G01 X50.1119 Y4.0618 
G01 X49.9624 Y4.1617 
G01 X49.7963 Y4.2305 
G01 X49.6199 Y4.2656 
G01 X49.4401 Y4.2656 
G01 X49.2637 Y4.2305 
G01 X49.0976 Y4.1617 
G01 X48.9481 Y4.0618 
G01 X48.8210 Y3.9347 
G01 X48.7211 Y3.7852 
G01 X48.6523 Y3.6191 
G01 X48.6172 Y3.4427 
G01 X48.6172 Y1.6373 
G01 X48.6523 Y1.4609 
G01 X48.7211 Y1.2948 
G01 X48.8210 Y1.1453 
G01 X48.9481 Y1.0182 
G01 X49.0976 Y0.9183 
G01 X49.2637 Y0.8495 
G01 X49.4401 Y0.8144 
G01 X49.6199 Y0.8144 
G01 X49.7963 Y0.8495 
G01 X49.9624 Y0.9183 
G01 X50.1119 Y1.0182 
G01 X50.2390 Y1.1453 
G01 X50.3389 Y1.2948 
G01 X50.4077 Y1.4609 
G01 X50.4428 Y1.6373 
G00 Z2.0000 
G00 X47.9028 Y1.6373 
G01 Z-0.0250 F254.00 
G01 X47.9028 Y3.4427 F508.00 
G01 X47.8677 Y3.6191 
G01 X47.7989 Y3.7852 
G01 X47.6990 Y3.9347 
G01 X47.5719 Y4.0618 
G01 X47.4224 Y4.1617 
G01 X47.2563 Y4.2305 
G01 X47.0799 Y4.2656 
G01 X46.9001 Y4.2656 
G01 X46.7237 Y4.2305 
G01 X46.5576 Y4.1617 
G01 X46.4081 Y4.0618 
G01 X46.2810 Y3.9347 
G01 X46.1811 Y3.7852 
G01 X46.1123 Y3.6191 
G01 X46.0772 Y3.4427 
G01 X46.0772 Y1.6373 
G01 X46.1123 Y1.4609 
G01 X46.1811 Y1.2948 
G01 X46.2810 Y1.1453 
G01 X46.4081 Y1.0182 
G01 X46.5576 Y0.9183 
G01 X46.7237 Y0.8495 
G01 X46.9001 Y0.8144 
G01 X47.0799 Y0.8144 
G01 X47.2563 Y0.8495 
G01 X47.4224 Y0.9183 
G01 X47.5719 Y1.0182 
G01 X47.6990 Y1.1453 
G01 X47.7989 Y1.2948 
G01 X47.8677 Y1.4609 
G01 X47.9028 Y1.6373 
G00 Z2.0000 
G00 X5.4936 Y37.5650 
G01 Z-0.0250 F254.00 
G01 X3.4472 Y37.5650 F508.00 
G01 X3.4105 Y37.5498 
G01 X3.3823 Y37.5216 
G01 X3.3671 Y37.4849 
G01 X3.3671 Y33.6351 
G01 X3.3823 Y33.5984 
G01 X3.4105 Y33.5702 
G01 X3.4472 Y33.5550 
G01 X5.4936 Y33.5550 
G01 X5.5303 Y33.5702 
G01 X5.5585 Y33.5984 
G01 X5.5737 Y33.6351 
G01 X5.5737 Y37.4849 
G01 X5.5585 Y37.5216 
G01 X5.5303 Y37.5498 
G01 X5.4936 Y37.5650 
G00 Z2.0000 
G00 X64.4027 Y19.9628 
G01 Z-0.0250 F254.00 
G01 X63.7500 Y19.9628 F508.00 
G01 X63.7500 Y29.6955 
G01 X63.7880 Y29.7112 
G01 X63.8876 Y29.7777 
G01 X63.9723 Y29.8624 
G01 X64.0388 Y29.9620 
G01 X64.0846 Y30.0727 
G01 X64.1080 Y30.1901 
G01 X64.1080 Y30.3099 
G01 X64.0846 Y30.4273 
G01 X64.0388 Y30.5380 
G01 X63.9723 Y30.6376 
G01 X63.8876 Y30.7223 
G01 X63.7880 Y30.7888 
G01 X63.6773 Y30.8346 
G01 X63.5599 Y30.8580 
G01 X63.4401 Y30.8580 
G01 X63.3227 Y30.8346 
G01 X63.2120 Y30.7888 
G01 X63.1124 Y30.7223 
G01 X63.0277 Y30.6376 
G01 X62.9612 Y30.5380 
G01 X62.9154 Y30.4273 
G01 X62.8920 Y30.3099 
G01 X62.8920 Y30.1901 
G01 X62.9154 Y30.0727 
G01 X62.9612 Y29.9620 
G01 X63.0277 Y29.8624 
G01 X63.1124 Y29.7777 
G01 X63.2120 Y29.7112 
G01 X63.2500 Y29.6955 
G01 X63.2500 Y19.9628 
G01 X62.5973 Y19.9628 
G01 X62.4209 Y19.9277 
G01 X62.2548 Y19.8589 
G01 X62.1053 Y19.7590 
G01 X61.9782 Y19.6319 
G01 X61.8783 Y19.4824 
G01 X61.8095 Y19.3163 
G01 X61.7744 Y19.1399 
G01 X61.7744 Y18.9601 
G01 X61.8095 Y18.7837 
G01 X61.8783 Y18.6176 
G01 X61.9782 Y18.4681 
G01 X62.1053 Y18.3410 
G01 X62.2548 Y18.2411 
G01 X62.4209 Y18.1723 
G01 X62.5973 Y18.1372 
G01 X64.4027 Y18.1372 
G01 X64.5791 Y18.1723 
G01 X64.7452 Y18.2411 
G01 X64.8947 Y18.3410 
G01 X65.0218 Y18.4681 
G01 X65.1217 Y18.6176 
G01 X65.1905 Y18.7837 
G01 X65.2256 Y18.9601 
G01 X65.2256 Y19.1399 
G01 X65.1905 Y19.3163 
G01 X65.1217 Y19.4824 
G01 X65.0218 Y19.6319 
G01 X64.8947 Y19.7590 
G01 X64.7452 Y19.8589 
G01 X64.5791 Y19.9277 
G01 X64.4027 Y19.9628 
G00 Z2.0000 
G00 X26.0000 Y33.4001 
G01 Z-0.0250 F254.00 
G01 X26.0000 Y34.8399 F508.00 
G01 X25.9848 Y34.8766 
G01 X25.9566 Y34.9048 
G01 X25.9199 Y34.9200 
G01 X24.8801 Y34.9200 
G01 X24.8434 Y34.9048 
G01 X24.8152 Y34.8766 
G01 X24.8000 Y34.8399 
G01 X24.8000 Y34.2500 
G01 X23.3045 Y34.2500 
G01 X23.2888 Y34.2880 
G01 X23.2223 Y34.3876 
G01 X23.1376 Y34.4723 
G01 X23.0380 Y34.5388 
G01 X22.9273 Y34.5846 
G01 X22.8099 Y34.6080 
G01 X22.6901 Y34.6080 
G01 X22.5726 Y34.5846 
G01 X22.4620 Y34.5388 
G01 X22.3624 Y34.4723 
G01 X22.2777 Y34.3876 
G01 X22.2112 Y34.2880 
G01 X22.1654 Y34.1773 
G01 X22.1420 Y34.0599 
G01 X22.1420 Y33.9401 
G01 X22.1654 Y33.8227 
G01 X22.2112 Y33.7120 
G01 X22.2777 Y33.6124 
G01 X22.3624 Y33.5277 
G01 X22.4620 Y33.4612 
G01 X22.5726 Y33.4154 
G01 X22.6901 Y33.3920 
G01 X22.8099 Y33.3920 
G01 X22.9273 Y33.4154 
G01 X23.0380 Y33.4612 
G01 X23.1376 Y33.5277 
G01 X23.2223 Y33.6124 
G01 X23.2888 Y33.7120 
G01 X23.3045 Y33.7500 
G01 X24.8000 Y33.7500 
G01 X24.8000 Y33.4001 
G01 X24.8152 Y33.3634 
G01 X24.8434 Y33.3352 
G01 X24.8801 Y33.3200 
G01 X25.9199 Y33.3200 
G01 X25.9566 Y33.3352 
G01 X25.9848 Y33.3634 
G01 X26.0000 Y33.4001 
G00 Z2.0000 
G00 X22.2401 Y25.8000 
G01 Z-0.0250 F254.00 
G01 X23.4799 Y25.8000 F508.00 
G01 X23.5166 Y25.8152 
G01 X23.5448 Y25.8434 
G01 X23.5600 Y25.8801 
G01 X23.5600 Y26.7064 
G01 X24.3916 Y27.5381 
G01 X24.4619 Y27.6084 
G01 X24.5000 Y27.7003 
G01 X24.5000 Y31.1200 
G01 X24.9699 Y31.1200 
G01 X25.0066 Y31.1352 
G01 X25.0348 Y31.1634 
G01 X25.0500 Y31.2001 
G01 X25.0500 Y32.6399 
G01 X25.0348 Y32.6766 
G01 X25.0066 Y32.7048 
G01 X24.9699 Y32.7200 
G01 X23.9301 Y32.7200 
G01 X23.8934 Y32.7048 
G01 X23.8652 Y32.6766 
G01 X23.8500 Y32.6399 
G01 X23.8500 Y31.2001 
G01 X23.8652 Y31.1634 
G01 X23.8934 Y31.1352 
G01 X23.9301 Y31.1200 
G01 X24.0000 Y31.1200 
G01 X24.0000 Y27.8536 
G01 X22.9464 Y26.8000 
G01 X22.2401 Y26.8000 
G01 X22.2034 Y26.7848 
G01 X22.1752 Y26.7566 
G01 X22.1600 Y26.7199 
G01 X22.1600 Y25.8801 
G01 X22.1752 Y25.8434 
G01 X22.2034 Y25.8152 
G01 X22.2401 Y25.8000 
G00 Z2.0000 
G00 X22.2401 Y24.0000 
G01 Z-0.0250 F254.00 
G01 X23.4799 Y24.0000 F508.00 
G01 X23.5166 Y24.0152 
G01 X23.5448 Y24.0434 
G01 X23.5600 Y24.0801 
G01 X23.5600 Y24.7064 
G01 X29.3916 Y30.5381 
G01 X29.4619 Y30.6084 
G01 X29.5000 Y30.7003 
G01 X29.5000 Y38.1955 
G01 X29.5380 Y38.2112 
G01 X29.6376 Y38.2777 
G01 X29.7223 Y38.3624 
G01 X29.7888 Y38.4620 
G01 X29.8346 Y38.5727 
G01 X29.8580 Y38.6901 
G01 X29.8580 Y38.8099 
G01 X29.8346 Y38.9273 
G01 X29.7888 Y39.0380 
G01 X29.7223 Y39.1376 
G01 X29.6376 Y39.2223 
G01 X29.5380 Y39.2888 
G01 X29.4273 Y39.3346 
G01 X29.3099 Y39.3580 
G01 X29.1901 Y39.3580 
G01 X29.0727 Y39.3346 
G01 X28.9620 Y39.2888 
G01 X28.8624 Y39.2223 
G01 X28.7777 Y39.1376 
G01 X28.7112 Y39.0380 
G01 X28.6654 Y38.9273 
G01 X28.6420 Y38.8099 
G01 X28.6420 Y38.6901 
G01 X28.6654 Y38.5727 
G01 X28.7112 Y38.4620 
G01 X28.7777 Y38.3624 
G01 X28.8624 Y38.2777 
G01 X28.9620 Y38.2112 
G01 X29.0000 Y38.1955 
G01 X29.0000 Y30.8536 
G01 X23.1464 Y25.0000 
G01 X22.2401 Y25.0000 
G01 X22.2034 Y24.9848 
G01 X22.1752 Y24.9566 
G01 X22.1600 Y24.9199 
G01 X22.1600 Y24.0801 
G01 X22.1752 Y24.0434 
G01 X22.2034 Y24.0152 
G01 X22.2401 Y24.0000 
G00 Z2.0000 
G00 X10.5050 Y27.1851 
G01 Z-0.0250 F254.00 
G01 X10.5050 Y28.1514 F508.00 
G01 X14.0347 Y31.6811 
G01 X14.0727 Y31.6654 
G01 X14.1901 Y31.6420 
G01 X14.3099 Y31.6420 
G01 X14.4273 Y31.6654 
G01 X14.5380 Y31.7112 
G01 X14.6376 Y31.7777 
G01 X14.7223 Y31.8624 
G01 X14.7888 Y31.9620 
G01 X14.8346 Y32.0727 
G01 X14.8580 Y32.1901 
G01 X14.8580 Y32.3099 
G01 X14.8346 Y32.4273 
G01 X14.7888 Y32.5380 
G01 X14.7223 Y32.6376 
G01 X14.6376 Y32.7223 
G01 X14.5380 Y32.7888 
G01 X14.4273 Y32.8346 
G01 X14.3099 Y32.8580 
G01 X14.1901 Y32.8580 
G01 X14.0727 Y32.8346 
G01 X13.9620 Y32.7888 
G01 X13.8624 Y32.7223 
G01 X13.7777 Y32.6376 
G01 X13.7112 Y32.5380 
G01 X13.6654 Y32.4273 
G01 X13.6420 Y32.3099 
G01 X13.6420 Y32.1901 
G01 X13.6654 Y32.0727 
G01 X13.6811 Y32.0347 
G01 X10.4214 Y28.7750 
G01 X9.1151 Y28.7750 
G01 X9.0784 Y28.7598 
G01 X9.0502 Y28.7316 
G01 X9.0350 Y28.6949 
G01 X9.0350 Y27.1851 
G01 X9.0502 Y27.1484 
G01 X9.0784 Y27.1202 
G01 X9.1151 Y27.1050 
G01 X10.4249 Y27.1050 
G01 X10.4616 Y27.1202 
G01 X10.4898 Y27.1484 
G01 X10.5050 Y27.1851 
G00 Z2.0000 
G00 X4.7350 Y28.6949 
G01 Z-0.0250 F254.00 
G01 X4.7350 Y27.1851 F508.00 
G01 X4.7502 Y27.1484 
G01 X4.7784 Y27.1202 
G01 X4.8151 Y27.1050 
G01 X6.1249 Y27.1050 
G01 X6.1616 Y27.1202 
G01 X6.1898 Y27.1484 
G01 X6.2050 Y27.1851 
G01 X6.2050 Y28.3514 
G01 X7.8916 Y30.0381 
G01 X7.9619 Y30.1084 
G01 X8.0000 Y30.2003 
G01 X8.0000 Y37.6465 
G01 X9.6663 Y35.9801 
G01 X9.6663 Y34.8162 
G01 X9.6815 Y34.7795 
G01 X9.7097 Y34.7513 
G01 X9.7464 Y34.7361 
G01 X11.7928 Y34.7361 
G01 X11.8295 Y34.7513 
G01 X11.8577 Y34.7795 
G01 X11.8729 Y34.8162 
G01 X11.8729 Y36.3546 
G01 X11.8577 Y36.3913 
G01 X11.8295 Y36.4195 
G01 X11.7928 Y36.4347 
G01 X9.9189 Y36.4347 
G01 X7.9619 Y38.3916 
G01 X7.8916 Y38.4619 
G01 X3.6650 Y42.6886 
G01 X3.6650 Y43.9349 
G01 X3.6498 Y43.9716 
G01 X3.6216 Y43.9998 
G01 X3.5849 Y44.0150 
G01 X3.5000 Y44.0150 
G01 X3.5000 Y53.2500 
G01 X9.7997 Y53.2500 
G01 X9.8916 Y53.2881 
G01 X9.9619 Y53.3584 
G01 X11.3691 Y54.7656 
G01 X11.4438 Y54.7113 
G01 X11.5897 Y54.6370 
G01 X11.7453 Y54.5864 
G01 X11.9070 Y54.5608 
G01 X12.0706 Y54.5608 
G01 X12.2323 Y54.5864 
G01 X12.3879 Y54.6370 
G01 X12.5338 Y54.7113 
G01 X12.6662 Y54.8075 
G01 X12.7819 Y54.9232 
G01 X12.8781 Y55.0556 
G01 X12.9524 Y55.2015 
G01 X13.0030 Y55.3571 
G01 X13.0286 Y55.5188 
G01 X13.0286 Y55.6824 
G01 X13.0030 Y55.8441 
G01 X12.9524 Y55.9997 
G01 X12.8781 Y56.1456 
G01 X12.7819 Y56.2780 
G01 X12.6662 Y56.3937 
G01 X12.5338 Y56.4899 
G01 X12.3879 Y56.5642 
G01 X12.2323 Y56.6148 
G01 X12.0706 Y56.6404 
G01 X11.9070 Y56.6404 
G01 X11.7453 Y56.6148 
G01 X11.5897 Y56.5642 
G01 X11.4438 Y56.4899 
G01 X11.3114 Y56.3937 
G01 X11.1957 Y56.2780 
G01 X11.0995 Y56.1456 
G01 X11.0252 Y55.9997 
G01 X10.9746 Y55.8441 
G01 X10.9490 Y55.6824 
G01 X10.9490 Y55.5188 
G01 X10.9746 Y55.3571 
G01 X11.0252 Y55.2015 
G01 X11.0497 Y55.1533 
G01 X9.6464 Y53.7500 
G01 X3.5000 Y53.7500 
G01 X3.5000 Y54.2997 
G01 X3.4619 Y54.3916 
G01 X3.3916 Y54.4619 
G01 X2.7450 Y55.1085 
G01 X2.7924 Y55.2015 
G01 X2.8430 Y55.3571 
G01 X2.8686 Y55.5188 
G01 X2.8686 Y55.6824 
G01 X2.8430 Y55.8441 
G01 X2.7924 Y55.9997 
G01 X2.7181 Y56.1456 
G01 X2.6219 Y56.2780 
G01 X2.5062 Y56.3937 
G01 X2.3738 Y56.4899 
G01 X2.2279 Y56.5642 
G01 X2.0723 Y56.6148 
G01 X1.9106 Y56.6404 
G01 X1.7470 Y56.6404 
G01 X1.5853 Y56.6148 
G01 X1.4297 Y56.5642 
G01 X1.2838 Y56.4899 
G01 X1.1514 Y56.3937 
G01 X1.0357 Y56.2780 
G01 X0.9395 Y56.1456 
G01 X0.8652 Y55.9997 
G01 X0.8146 Y55.8441 
G01 X0.7890 Y55.6824 
G01 X0.7890 Y55.5188 
G01 X0.8146 Y55.3571 
G01 X0.8652 Y55.2015 
G01 X0.9395 Y55.0556 
G01 X1.0357 Y54.9232 
G01 X1.1514 Y54.8075 
G01 X1.2838 Y54.7113 
G01 X1.4297 Y54.6370 
G01 X1.5853 Y54.5864 
G01 X1.7470 Y54.5608 
G01 X1.9106 Y54.5608 
G01 X2.0723 Y54.5864 
G01 X2.2279 Y54.6370 
G01 X2.3738 Y54.7113 
G01 X2.4093 Y54.7371 
G01 X3.0000 Y54.1464 
G01 X3.0000 Y44.0150 
G01 X2.2751 Y44.0150 
G01 X2.2384 Y43.9998 
G01 X2.2102 Y43.9716 
G01 X2.1950 Y43.9349 
G01 X2.1950 Y42.4251 
G01 X2.2102 Y42.3884 
G01 X2.2384 Y42.3602 
G01 X2.2751 Y42.3450 
G01 X3.3014 Y42.3450 
G01 X7.5000 Y38.1464 
G01 X7.5000 Y30.3536 
G01 X5.9214 Y28.7750 
G01 X4.8151 Y28.7750 
G01 X4.7784 Y28.7598 
G01 X4.7502 Y28.7316 
G01 X4.7350 Y28.6949 
G00 Z2.0000 
G00 X47.3600 Y17.7012 
G01 Z-0.0250 F254.00 
G01 X47.3600 Y17.8588 F508.00 
G01 X47.3293 Y18.0134 
G01 X47.2689 Y18.1589 
G01 X47.1814 Y18.2900 
G01 X47.0700 Y18.4014 
G01 X46.9389 Y18.4889 
G01 X46.7934 Y18.5493 
G01 X46.6388 Y18.5800 
G01 X46.4812 Y18.5800 
G01 X46.3266 Y18.5493 
G01 X46.1811 Y18.4889 
G01 X46.0500 Y18.4014 
G01 X45.9386 Y18.2900 
G01 X45.8511 Y18.1589 
G01 X45.7907 Y18.0134 
G01 X45.7600 Y17.8588 
G01 X45.7600 Y17.7012 
G01 X45.7907 Y17.5466 
G01 X45.8511 Y17.4011 
G01 X45.9386 Y17.2700 
G01 X46.0500 Y17.1586 
G01 X46.1811 Y17.0710 
G01 X46.3266 Y17.0107 
G01 X46.4812 Y16.9800 
G01 X46.6388 Y16.9800 
G01 X46.7934 Y17.0107 
G01 X46.9389 Y17.0710 
G01 X47.0700 Y17.1586 
G01 X47.1814 Y17.2700 
G01 X47.2689 Y17.4011 
G01 X47.3293 Y17.5466 
G01 X47.3600 Y17.7012 
G00 Z2.0000 
G00 X2.9400 Y18.3999 
G01 Z-0.0250 F254.00 
G01 X2.9400 Y17.1601 F508.00 
G01 X2.9552 Y17.1234 
G01 X2.9834 Y17.0952 
G01 X3.0201 Y17.0800 
G01 X3.8599 Y17.0800 
G01 X3.8966 Y17.0952 
G01 X3.9248 Y17.1234 
G01 X3.9400 Y17.1601 
G01 X3.9400 Y17.5000 
G01 X10.4455 Y17.5000 
G01 X10.4612 Y17.4620 
G01 X10.5277 Y17.3624 
G01 X10.6124 Y17.2777 
G01 X10.7120 Y17.2112 
G01 X10.8227 Y17.1654 
G01 X10.9401 Y17.1420 
G01 X11.0599 Y17.1420 
G01 X11.1773 Y17.1654 
G01 X11.2880 Y17.2112 
G01 X11.3876 Y17.2777 
G01 X11.4723 Y17.3624 
G01 X11.5388 Y17.4620 
G01 X11.5846 Y17.5726 
G01 X11.6080 Y17.6901 
G01 X11.6080 Y17.8099 
G01 X11.5846 Y17.9273 
G01 X11.5388 Y18.0380 
G01 X11.4723 Y18.1376 
G01 X11.3876 Y18.2223 
G01 X11.2880 Y18.2888 
G01 X11.1773 Y18.3346 
G01 X11.0599 Y18.3580 
G01 X10.9401 Y18.3580 
G01 X10.8227 Y18.3346 
G01 X10.7120 Y18.2888 
G01 X10.6124 Y18.2223 
G01 X10.5277 Y18.1376 
G01 X10.4612 Y18.0380 
G01 X10.4455 Y18.0000 
G01 X3.9400 Y18.0000 
G01 X3.9400 Y18.3999 
G01 X3.9248 Y18.4366 
G01 X3.8966 Y18.4648 
G01 X3.8599 Y18.4800 
G01 X3.0201 Y18.4800 
G01 X2.9834 Y18.4648 
G01 X2.9552 Y18.4366 
G01 X2.9400 Y18.3999 
G00 Z2.0000 
G00 X2.9400 Y13.3199 
G01 Z-0.0250 F254.00 
G01 X2.9400 Y12.0801 F508.00 
G01 X2.9552 Y12.0434 
G01 X2.9834 Y12.0152 
G01 X3.0201 Y12.0000 
G01 X3.8599 Y12.0000 
G01 X3.8966 Y12.0152 
G01 X3.9248 Y12.0434 
G01 X3.9400 Y12.0801 
G01 X3.9400 Y12.2500 
G01 X7.1955 Y12.2500 
G01 X7.2112 Y12.2120 
G01 X7.2777 Y12.1124 
G01 X7.3624 Y12.0277 
G01 X7.4620 Y11.9612 
G01 X7.5727 Y11.9154 
G01 X7.6901 Y11.8920 
G01 X7.8099 Y11.8920 
G01 X7.9273 Y11.9154 
G01 X8.0380 Y11.9612 
G01 X8.1376 Y12.0277 
G01 X8.2223 Y12.1124 
G01 X8.2888 Y12.2120 
G01 X8.3346 Y12.3227 
G01 X8.3580 Y12.4401 
G01 X8.3580 Y12.5599 
G01 X8.3346 Y12.6773 
G01 X8.2888 Y12.7880 
G01 X8.2223 Y12.8876 
G01 X8.1376 Y12.9723 
G01 X8.0380 Y13.0388 
G01 X7.9273 Y13.0846 
G01 X7.8099 Y13.1080 
G01 X7.6901 Y13.1080 
G01 X7.5727 Y13.0846 
G01 X7.4620 Y13.0388 
G01 X7.3624 Y12.9723 
G01 X7.2777 Y12.8876 
G01 X7.2112 Y12.7880 
G01 X7.1955 Y12.7500 
G01 X3.9400 Y12.7500 
G01 X3.9400 Y13.3199 
G01 X3.9248 Y13.3566 
G01 X3.8966 Y13.3848 
G01 X3.8599 Y13.4000 
G01 X3.0201 Y13.4000 
G01 X2.9834 Y13.3848 
G01 X2.9552 Y13.3566 
G01 X2.9400 Y13.3199 
G00 Z2.0000 
G00 X64.4027 Y9.8028 
G01 Z-0.0250 F254.00 
G01 X62.5973 Y9.8028 F508.00 
G01 X62.4209 Y9.7677 
G01 X62.2548 Y9.6989 
G01 X62.1053 Y9.5990 
G01 X61.9782 Y9.4719 
G01 X61.8783 Y9.3224 
G01 X61.8095 Y9.1563 
G01 X61.7744 Y8.9799 
G01 X61.7744 Y8.8001 
G01 X61.8095 Y8.6237 
G01 X61.8783 Y8.4576 
G01 X61.9782 Y8.3081 
G01 X62.1053 Y8.1810 
G01 X62.2548 Y8.0811 
G01 X62.4209 Y8.0123 
G01 X62.5973 Y7.9772 
G01 X64.4027 Y7.9772 
G01 X64.5791 Y8.0123 
G01 X64.7452 Y8.0811 
G01 X64.8947 Y8.1810 
G01 X65.0218 Y8.3081 
G01 X65.1217 Y8.4576 
G01 X65.1905 Y8.6237 
G01 X65.2256 Y8.8001 
G01 X65.2256 Y8.9799 
G01 X65.1905 Y9.1563 
G01 X65.1217 Y9.3224 
G01 X65.0218 Y9.4719 
G01 X64.8947 Y9.5990 
G01 X64.7452 Y9.6989 
G01 X64.5791 Y9.7677 
G01 X64.4027 Y9.8028 
G00 Z2.0000 
G00 X64.4027 Y7.2628 
G01 Z-0.0250 F254.00 
G01 X62.5973 Y7.2628 F508.00 
G01 X62.4209 Y7.2277 
G01 X62.2548 Y7.1589 
G01 X62.1053 Y7.0590 
G01 X61.9782 Y6.9319 
G01 X61.8783 Y6.7824 
G01 X61.8095 Y6.6163 
G01 X61.7744 Y6.4399 
G01 X61.7744 Y6.2601 
G01 X61.8095 Y6.0837 
G01 X61.8783 Y5.9176 
G01 X61.9782 Y5.7681 
G01 X62.1053 Y5.6410 
G01 X62.2548 Y5.5411 
G01 X62.4209 Y5.4723 
G01 X62.5973 Y5.4372 
G01 X64.4027 Y5.4372 
G01 X64.5791 Y5.4723 
G01 X64.7452 Y5.5411 
G01 X64.8947 Y5.6410 
G01 X65.0218 Y5.7681 
G01 X65.1217 Y5.9176 
G01 X65.1905 Y6.0837 
G01 X65.2256 Y6.2601 
G01 X65.2256 Y6.4399 
G01 X65.1905 Y6.6163 
G01 X65.1217 Y6.7824 
G01 X65.0218 Y6.9319 
G01 X64.8947 Y7.0590 
G01 X64.7452 Y7.1589 
G01 X64.5791 Y7.2277 
G01 X64.4027 Y7.2628 
G00 Z2.0000 
G00 X52.4272 Y11.0627 
G01 Z-0.0250 F254.00 
G01 X52.4272 Y9.2573 F508.00 
G01 X52.4623 Y9.0809 
G01 X52.5311 Y8.9148 
G01 X52.6310 Y8.7653 
G01 X52.7581 Y8.6382 
G01 X52.9076 Y8.5383 
G01 X53.0737 Y8.4695 
G01 X53.2501 Y8.4344 
G01 X53.4299 Y8.4344 
G01 X53.6063 Y8.4695 
G01 X53.7724 Y8.5383 
G01 X53.9219 Y8.6382 
G01 X54.0490 Y8.7653 
G01 X54.1489 Y8.9148 
G01 X54.2177 Y9.0809 
G01 X54.2528 Y9.2573 
G01 X54.2528 Y11.0627 
G01 X54.2177 Y11.2391 
G01 X54.1489 Y11.4052 
G01 X54.0490 Y11.5547 
G01 X53.9219 Y11.6818 
G01 X53.7724 Y11.7817 
G01 X53.6063 Y11.8505 
G01 X53.4299 Y11.8856 
G01 X53.2501 Y11.8856 
G01 X53.0737 Y11.8505 
G01 X52.9076 Y11.7817 
G01 X52.7581 Y11.6818 
G01 X52.6310 Y11.5547 
G01 X52.5311 Y11.4052 
G01 X52.4623 Y11.2391 
G01 X52.4272 Y11.0627 
G00 Z2.0000 
G00 X57.5072 Y11.0627 
G01 Z-0.0250 F254.00 
G01 X57.5072 Y9.2573 F508.00 
G01 X57.5423 Y9.0809 
G01 X57.6111 Y8.9148 
G01 X57.7110 Y8.7653 
G01 X57.8381 Y8.6382 
G01 X57.9876 Y8.5383 
G01 X58.1537 Y8.4695 
G01 X58.3301 Y8.4344 
G01 X58.5099 Y8.4344 
G01 X58.6863 Y8.4695 
G01 X58.8524 Y8.5383 
G01 X59.0019 Y8.6382 
G01 X59.1290 Y8.7653 
G01 X59.2289 Y8.9148 
G01 X59.2977 Y9.0809 
G01 X59.3328 Y9.2573 
G01 X59.3328 Y11.0627 
G01 X59.2977 Y11.2391 
G01 X59.2289 Y11.4052 
G01 X59.1290 Y11.5547 
G01 X59.0019 Y11.6818 
G01 X58.8524 Y11.7817 
G01 X58.6863 Y11.8505 
G01 X58.5099 Y11.8856 
G01 X58.3301 Y11.8856 
G01 X58.1537 Y11.8505 
G01 X57.9876 Y11.7817 
G01 X57.8381 Y11.6818 
G01 X57.7110 Y11.5547 
G01 X57.6111 Y11.4052 
G01 X57.5423 Y11.2391 
G01 X57.5072 Y11.0627 
G00 Z2.0000 
G00 X10.6188 Y5.8711 
G01 Z-0.0250 F254.00 
G01 X10.6188 Y4.2889 F508.00 
G01 X10.6500 Y4.1322 
G01 X10.7111 Y3.9846 
G01 X10.7999 Y3.8517 
G01 X10.9129 Y3.7387 
G01 X11.0457 Y3.6499 
G01 X11.1934 Y3.5888 
G01 X11.3501 Y3.5576 
G01 X11.5099 Y3.5576 
G01 X11.6666 Y3.5888 
G01 X11.8142 Y3.6499 
G01 X11.9471 Y3.7387 
G01 X12.0601 Y3.8517 
G01 X12.1489 Y3.9846 
G01 X12.2100 Y4.1322 
G01 X12.2412 Y4.2889 
G01 X12.2412 Y5.8711 
G01 X12.2100 Y6.0278 
G01 X12.1489 Y6.1754 
G01 X12.0601 Y6.3083 
G01 X11.9471 Y6.4213 
G01 X11.8142 Y6.5101 
G01 X11.6666 Y6.5712 
G01 X11.5099 Y6.6024 
G01 X11.3501 Y6.6024 
G01 X11.1934 Y6.5712 
G01 X11.0457 Y6.5101 
G01 X10.9129 Y6.4213 
G01 X10.7999 Y6.3083 
G01 X10.7111 Y6.1754 
G01 X10.6500 Y6.0278 
G01 X10.6188 Y5.8711 
G00 Z2.0000 
G00 X13.1588 Y5.8711 
G01 Z-0.0250 F254.00 
G01 X13.1588 Y4.2889 F508.00 
G01 X13.1900 Y4.1322 
G01 X13.2511 Y3.9846 
G01 X13.3399 Y3.8517 
G01 X13.4529 Y3.7387 
G01 X13.5858 Y3.6499 
G01 X13.7334 Y3.5888 
G01 X13.8901 Y3.5576 
G01 X14.0499 Y3.5576 
G01 X14.2066 Y3.5888 
G01 X14.3542 Y3.6499 
G01 X14.4871 Y3.7387 
G01 X14.6001 Y3.8517 
G01 X14.6889 Y3.9846 
G01 X14.7500 Y4.1322 
G01 X14.7812 Y4.2889 
G01 X14.7812 Y5.8711 
G01 X14.7500 Y6.0278 
G01 X14.6889 Y6.1754 
G01 X14.6001 Y6.3083 
G01 X14.4871 Y6.4213 
G01 X14.3542 Y6.5101 
G01 X14.2066 Y6.5712 
G01 X14.0499 Y6.6024 
G01 X13.8901 Y6.6024 
G01 X13.7334 Y6.5712 
G01 X13.5858 Y6.5101 
G01 X13.4529 Y6.4213 
G01 X13.3399 Y6.3083 
G01 X13.2511 Y6.1754 
G01 X13.1900 Y6.0278 
G01 X13.1588 Y5.8711 
G00 Z2.0000 
G00 X15.6988 Y4.2889 
G01 Z-0.0250 F254.00 
G01 X15.7300 Y4.1322 F508.00 
G01 X15.7911 Y3.9846 
G01 X15.8799 Y3.8517 
G01 X15.9929 Y3.7387 
G01 X16.1258 Y3.6499 
G01 X16.2734 Y3.5888 
G01 X16.4301 Y3.5576 
G01 X16.5899 Y3.5576 
G01 X16.7466 Y3.5888 
G01 X16.8942 Y3.6499 
G01 X17.0271 Y3.7387 
G01 X17.1401 Y3.8517 
G01 X17.2289 Y3.9846 
G01 X17.2900 Y4.1322 
G01 X17.3212 Y4.2889 
G01 X17.3212 Y5.8711 
G01 X17.2900 Y6.0278 
G01 X17.2289 Y6.1754 
G01 X17.1401 Y6.3083 
G01 X17.0271 Y6.4213 
G01 X16.8942 Y6.5101 
G01 X16.7466 Y6.5712 
G01 X16.5899 Y6.6024 
G01 X16.4301 Y6.6024 
G01 X16.2734 Y6.5712 
G01 X16.1258 Y6.5101 
G01 X15.9929 Y6.4213 
G01 X15.8799 Y6.3083 
G01 X15.8460 Y6.2576 
G01 X14.2500 Y7.8536 
G01 X14.2500 Y17.1464 
G01 X14.6036 Y17.5000 
G01 X19.2997 Y17.5000 
G01 X19.3916 Y17.5381 
G01 X19.4619 Y17.6084 
G01 X19.5000 Y17.7003 
G01 X19.5000 Y25.1955 
G01 X19.5380 Y25.2112 
G01 X19.6376 Y25.2777 
G01 X19.7223 Y25.3624 
G01 X19.7888 Y25.4620 
G01 X19.8346 Y25.5727 
G01 X19.8580 Y25.6901 
G01 X19.8580 Y25.8099 
G01 X19.8346 Y25.9273 
G01 X19.7888 Y26.0380 
G01 X19.7223 Y26.1376 
G01 X19.6376 Y26.2223 
G01 X19.5380 Y26.2888 
G01 X19.4273 Y26.3346 
G01 X19.3099 Y26.3580 
G01 X19.1901 Y26.3580 
G01 X19.0726 Y26.3346 
G01 X18.9620 Y26.2888 
G01 X18.8624 Y26.2223 
G01 X18.7777 Y26.1376 
G01 X18.7112 Y26.0380 
G01 X18.6654 Y25.9273 
G01 X18.6420 Y25.8099 
G01 X18.6420 Y25.6901 
G01 X18.6654 Y25.5727 
G01 X18.7112 Y25.4620 
G01 X18.7777 Y25.3624 
G01 X18.8624 Y25.2777 
G01 X18.9620 Y25.2112 
G01 X19.0000 Y25.1955 
G01 X19.0000 Y18.0000 
G01 X14.4503 Y18.0000 
G01 X14.3584 Y17.9619 
G01 X14.2881 Y17.8916 
G01 X13.7881 Y17.3916 
G01 X13.7500 Y17.2997 
G01 X13.7500 Y7.7003 
G01 X13.7881 Y7.6084 
G01 X15.6988 Y5.6976 
G01 X15.6988 Y4.2889 
G00 Z2.0000 
G00 X18.2388 Y5.8711 
G01 Z-0.0250 F254.00 
G01 X18.2388 Y4.2889 F508.00 
G01 X18.2700 Y4.1322 
G01 X18.3311 Y3.9846 
G01 X18.4199 Y3.8517 
G01 X18.5329 Y3.7387 
G01 X18.6657 Y3.6499 
G01 X18.8134 Y3.5888 
G01 X18.9701 Y3.5576 
G01 X19.1299 Y3.5576 
G01 X19.2866 Y3.5888 
G01 X19.4342 Y3.6499 
G01 X19.5671 Y3.7387 
G01 X19.6801 Y3.8517 
G01 X19.7689 Y3.9846 
G01 X19.8300 Y4.1322 
G01 X19.8612 Y4.2889 
G01 X19.8612 Y5.5076 
G01 X20.1416 Y5.7881 
G01 X20.2119 Y5.8584 
G01 X20.2500 Y5.9503 
G01 X20.2500 Y19.1464 
G01 X27.0347 Y25.9311 
G01 X27.0727 Y25.9154 
G01 X27.1901 Y25.8920 
G01 X27.3099 Y25.8920 
G01 X27.4273 Y25.9154 
G01 X27.5380 Y25.9612 
G01 X27.6376 Y26.0277 
G01 X27.7223 Y26.1124 
G01 X27.7888 Y26.2120 
G01 X27.8346 Y26.3227 
G01 X27.8580 Y26.4401 
G01 X27.8580 Y26.5599 
G01 X27.8346 Y26.6773 
G01 X27.7888 Y26.7880 
G01 X27.7223 Y26.8876 
G01 X27.6376 Y26.9723 
G01 X27.5380 Y27.0388 
G01 X27.4273 Y27.0846 
G01 X27.3099 Y27.1080 
G01 X27.1901 Y27.1080 
G01 X27.0727 Y27.0846 
G01 X26.9620 Y27.0388 
G01 X26.8624 Y26.9723 
G01 X26.7777 Y26.8876 
G01 X26.7112 Y26.7880 
G01 X26.6654 Y26.6773 
G01 X26.6420 Y26.5599 
G01 X26.6420 Y26.4401 
G01 X26.6654 Y26.3227 
G01 X26.6811 Y26.2847 
G01 X19.7881 Y19.3916 
G01 X19.7500 Y19.2997 
G01 X19.7500 Y6.2037 
G01 X19.6801 Y6.3083 
G01 X19.5671 Y6.4213 
G01 X19.4342 Y6.5101 
G01 X19.2866 Y6.5712 
G01 X19.1299 Y6.6024 
G01 X18.9701 Y6.6024 
G01 X18.8134 Y6.5712 
G01 X18.6657 Y6.5101 
G01 X18.5329 Y6.4213 
G01 X18.4199 Y6.3083 
G01 X18.3311 Y6.1754 
G01 X18.2700 Y6.0278 
G01 X18.2388 Y5.8711 
G00 Z2.0000 
G00 X20.7788 Y5.8711 
G01 Z-0.0250 F254.00 
G01 X20.7788 Y4.2889 F508.00 
G01 X20.8100 Y4.1322 
G01 X20.8711 Y3.9846 
G01 X20.9599 Y3.8517 
G01 X21.0729 Y3.7387 
G01 X21.2058 Y3.6499 
G01 X21.3534 Y3.5888 
G01 X21.5101 Y3.5576 
G01 X21.6699 Y3.5576 
G01 X21.8266 Y3.5888 
G01 X21.9742 Y3.6499 
G01 X22.1071 Y3.7387 
G01 X22.2201 Y3.8517 
G01 X22.3089 Y3.9846 
G01 X22.3700 Y4.1322 
G01 X22.4012 Y4.2889 
G01 X22.4012 Y5.8711 
G01 X22.3700 Y6.0278 
G01 X22.3089 Y6.1754 
G01 X22.2201 Y6.3083 
G01 X22.1071 Y6.4213 
G01 X21.9742 Y6.5101 
G01 X21.8266 Y6.5712 
G01 X21.6699 Y6.6024 
G01 X21.5101 Y6.6024 
G01 X21.5000 Y6.6004 
G01 X21.5000 Y18.1955 
G01 X21.5380 Y18.2112 
G01 X21.6376 Y18.2777 
G01 X21.7223 Y18.3624 
G01 X21.7888 Y18.4620 
G01 X21.8346 Y18.5726 
G01 X21.8580 Y18.6901 
G01 X21.8580 Y18.8099 
G01 X21.8346 Y18.9273 
G01 X21.7888 Y19.0380 
G01 X21.7223 Y19.1376 
G01 X21.6376 Y19.2223 
G01 X21.5380 Y19.2888 
G01 X21.4273 Y19.3346 
G01 X21.3099 Y19.3580 
G01 X21.1901 Y19.3580 
G01 X21.0726 Y19.3346 
G01 X20.9620 Y19.2888 
G01 X20.8624 Y19.2223 
G01 X20.7777 Y19.1376 
G01 X20.7112 Y19.0380 
G01 X20.6654 Y18.9273 
G01 X20.6420 Y18.8099 
G01 X20.6420 Y18.6901 
G01 X20.6654 Y18.5726 
G01 X20.7112 Y18.4620 
G01 X20.7777 Y18.3624 
G01 X20.8624 Y18.2777 
G01 X20.9620 Y18.2112 
G01 X21.0000 Y18.1955 
G01 X21.0000 Y6.3484 
G01 X20.9599 Y6.3083 
G01 X20.8711 Y6.1754 
G01 X20.8100 Y6.0278 
G01 X20.7788 Y5.8711 
G00 Z2.0000 
G00 X28.3988 Y5.8711 
G01 Z-0.0250 F254.00 
G01 X28.3988 Y4.2889 F508.00 
G01 X28.4300 Y4.1322 
G01 X28.4911 Y3.9846 
G01 X28.5799 Y3.8517 
G01 X28.6929 Y3.7387 
G01 X28.7500 Y3.7005 
G01 X28.7500 Y2.7500 
G01 X14.3536 Y2.7500 
G01 X13.0000 Y4.1036 
G01 X13.0000 Y6.5497 
G01 X12.9619 Y6.6416 
G01 X12.8916 Y6.7119 
G01 X10.8536 Y8.7500 
G01 X12.2119 Y10.1084 
G01 X12.2500 Y10.2003 
G01 X12.2500 Y18.2500 
G01 X14.5442 Y18.2500 
G01 X14.5552 Y18.2234 
G01 X14.5834 Y18.1952 
G01 X14.6201 Y18.1800 
G01 X15.8599 Y18.1800 
G01 X15.8966 Y18.1952 
G01 X15.9248 Y18.2234 
G01 X15.9400 Y18.2601 
G01 X15.9400 Y19.0999 
G01 X15.9248 Y19.1366 
G01 X15.8966 Y19.1648 
G01 X15.8599 Y19.1800 
G01 X14.6201 Y19.1800 
G01 X14.5834 Y19.1648 
G01 X14.5552 Y19.1366 
G01 X14.5400 Y19.0999 
G01 X14.5400 Y18.7500 
G01 X11.9503 Y18.7500 
G01 X11.8584 Y18.7119 
G01 X11.7881 Y18.6416 
G01 X11.7500 Y18.5497 
G01 X11.7500 Y10.3536 
G01 X10.3584 Y8.9619 
G01 X10.2881 Y8.8916 
G01 X8.3964 Y7.0000 
G01 X8.2200 Y7.0000 
G01 X8.2200 Y7.2399 
G01 X8.2048 Y7.2766 
G01 X8.1766 Y7.3048 
G01 X8.1399 Y7.3200 
G01 X7.1001 Y7.3200 
G01 X7.0634 Y7.3048 
G01 X7.0352 Y7.2766 
G01 X7.0200 Y7.2399 
G01 X7.0200 Y5.8001 
G01 X7.0352 Y5.7634 
G01 X7.0634 Y5.7352 
G01 X7.1001 Y5.7200 
G01 X8.1399 Y5.7200 
G01 X8.1766 Y5.7352 
G01 X8.2048 Y5.7634 
G01 X8.2200 Y5.8001 
G01 X8.2200 Y6.5000 
G01 X8.5497 Y6.5000 
G01 X8.6416 Y6.5381 
G01 X8.7119 Y6.6084 
G01 X10.5000 Y8.3964 
G01 X12.5000 Y6.3964 
G01 X12.5000 Y3.9503 
G01 X12.5381 Y3.8584 
G01 X14.0381 Y2.3584 
G01 X14.1084 Y2.2881 
G01 X14.2003 Y2.2500 
G01 X29.0497 Y2.2500 
G01 X29.1416 Y2.2881 
G01 X29.2119 Y2.3584 
G01 X29.2500 Y2.4503 
G01 X29.2500 Y3.5576 
G01 X29.2899 Y3.5576 
G01 X29.4466 Y3.5888 
G01 X29.5942 Y3.6499 
G01 X29.7271 Y3.7387 
G01 X29.8401 Y3.8517 
G01 X29.9289 Y3.9846 
G01 X29.9900 Y4.1322 
G01 X30.0212 Y4.2889 
G01 X30.0212 Y5.8711 
G01 X29.9900 Y6.0278 
G01 X29.9289 Y6.1754 
G01 X29.8401 Y6.3083 
G01 X29.7271 Y6.4213 
G01 X29.5942 Y6.5101 
G01 X29.4466 Y6.5712 
G01 X29.2899 Y6.6024 
G01 X29.2500 Y6.6024 
G01 X29.2500 Y13.7997 
G01 X29.2119 Y13.8916 
G01 X29.1416 Y13.9619 
G01 X23.6950 Y19.4086 
G01 X23.6950 Y20.5849 
G01 X23.6798 Y20.6216 
G01 X23.6516 Y20.6498 
G01 X23.6149 Y20.6650 
G01 X22.1051 Y20.6650 
G01 X22.0684 Y20.6498 
G01 X22.0402 Y20.6216 
G01 X22.0250 Y20.5849 
G01 X22.0250 Y19.2751 
G01 X22.0402 Y19.2384 
G01 X22.0684 Y19.2102 
G01 X22.1051 Y19.1950 
G01 X23.2014 Y19.1950 
G01 X28.7500 Y13.6464 
G01 X28.7500 Y6.4595 
G01 X28.6929 Y6.4213 
G01 X28.5799 Y6.3083 
G01 X28.4911 Y6.1754 
G01 X28.4300 Y6.0278 
G01 X28.3988 Y5.8711 
G00 Z2.0000 
G00 X14.6201 Y16.3800 
G01 Z-0.0250 F254.00 
G01 X15.2664 Y16.3800 F508.00 
G01 X17.5000 Y14.1464 
G01 X17.5000 Y3.9503 
G01 X17.5381 Y3.8584 
G01 X18.2881 Y3.1084 
G01 X18.3584 Y3.0381 
G01 X18.4503 Y3.0000 
G01 X26.5497 Y3.0000 
G01 X26.6416 Y3.0381 
G01 X26.7119 Y3.1084 
G01 X26.7500 Y3.2003 
G01 X26.7500 Y3.5576 
G01 X26.9066 Y3.5888 
G01 X27.0542 Y3.6499 
G01 X27.1871 Y3.7387 
G01 X27.3001 Y3.8517 
G01 X27.3889 Y3.9846 
G01 X27.4500 Y4.1322 
G01 X27.4812 Y4.2889 
G01 X27.4812 Y5.8711 
G01 X27.4500 Y6.0278 
G01 X27.3889 Y6.1754 
G01 X27.3001 Y6.3083 
G01 X27.1871 Y6.4213 
G01 X27.0542 Y6.5101 
G01 X26.9066 Y6.5712 
G01 X26.7499 Y6.6024 
G01 X26.5901 Y6.6024 
G01 X26.4334 Y6.5712 
G01 X26.2858 Y6.5101 
G01 X26.1529 Y6.4213 
G01 X26.0399 Y6.3083 
G01 X25.9511 Y6.1754 
G01 X25.8900 Y6.0278 
G01 X25.8588 Y5.8711 
G01 X25.8588 Y4.2889 
G01 X25.8900 Y4.1322 
G01 X25.9511 Y3.9846 
G01 X26.0399 Y3.8517 
G01 X26.1529 Y3.7387 
G01 X26.2500 Y3.6738 
G01 X26.2500 Y3.5000 
G01 X18.6036 Y3.5000 
G01 X18.0000 Y4.1036 
G01 X18.0000 Y14.2997 
G01 X17.9619 Y14.3916 
G01 X17.8916 Y14.4619 
G01 X15.9264 Y16.4272 
G01 X15.9400 Y16.4601 
G01 X15.9400 Y17.2999 
G01 X15.9248 Y17.3366 
G01 X15.8966 Y17.3648 
G01 X15.8599 Y17.3800 
G01 X14.6201 Y17.3800 
G01 X14.5834 Y17.3648 
G01 X14.5552 Y17.3366 
G01 X14.5400 Y17.2999 
G01 X14.5400 Y16.4601 
G01 X14.5552 Y16.4234 
G01 X14.5834 Y16.3952 
G01 X14.6201 Y16.3800 
G00 Z2.0000 
G00 X19.5310 Y55.5188 
G01 Z-0.0250 F254.00 
G01 X19.5310 Y55.6824 F508.00 
G01 X19.5054 Y55.8441 
G01 X19.4548 Y55.9997 
G01 X19.3805 Y56.1456 
G01 X19.2843 Y56.2780 
G01 X19.1686 Y56.3937 
G01 X19.0362 Y56.4899 
G01 X18.8903 Y56.5642 
G01 X18.7347 Y56.6148 
G01 X18.5730 Y56.6404 
G01 X18.4094 Y56.6404 
G01 X18.2477 Y56.6148 
G01 X18.0921 Y56.5642 
G01 X17.9462 Y56.4899 
G01 X17.8138 Y56.3937 
G01 X17.6981 Y56.2780 
G01 X17.6019 Y56.1456 
G01 X17.5276 Y55.9997 
G01 X17.4770 Y55.8441 
G01 X17.4514 Y55.6824 
G01 X17.4514 Y55.5188 
G01 X17.4770 Y55.3571 
G01 X17.5276 Y55.2015 
G01 X17.6019 Y55.0556 
G01 X17.6981 Y54.9232 
G01 X17.8138 Y54.8075 
G01 X17.9462 Y54.7113 
G01 X18.0921 Y54.6370 
G01 X18.2477 Y54.5864 
G01 X18.4094 Y54.5608 
G01 X18.5730 Y54.5608 
G01 X18.7347 Y54.5864 
G01 X18.8903 Y54.6370 
G01 X19.0362 Y54.7113 
G01 X19.1686 Y54.8075 
G01 X19.2843 Y54.9232 
G01 X19.3805 Y55.0556 
G01 X19.4548 Y55.2015 
G01 X19.5054 Y55.3571 
G01 X19.5310 Y55.5188 
G00 Z2.0000 
G00 X13.0286 Y50.9976 
G01 Z-0.0250 F254.00 
G01 X13.0286 Y51.1612 F508.00 
G01 X13.0030 Y51.3229 
G01 X12.9524 Y51.4785 
G01 X12.8781 Y51.6244 
G01 X12.7819 Y51.7568 
G01 X12.6662 Y51.8725 
G01 X12.5338 Y51.9687 
G01 X12.3879 Y52.0430 
G01 X12.2323 Y52.0936 
G01 X12.0706 Y52.1192 
G01 X11.9070 Y52.1192 
G01 X11.7453 Y52.0936 
G01 X11.5897 Y52.0430 
G01 X11.4438 Y51.9687 
G01 X11.3114 Y51.8725 
G01 X11.1957 Y51.7568 
G01 X11.0995 Y51.6244 
G01 X11.0252 Y51.4785 
G01 X10.9746 Y51.3229 
G01 X10.9490 Y51.1612 
G01 X10.9490 Y50.9976 
G01 X10.9746 Y50.8359 
G01 X11.0252 Y50.6803 
G01 X11.0995 Y50.5344 
G01 X11.1957 Y50.4020 
G01 X11.3114 Y50.2863 
G01 X11.4438 Y50.1901 
G01 X11.5897 Y50.1158 
G01 X11.7453 Y50.0652 
G01 X11.9070 Y50.0396 
G01 X12.0706 Y50.0396 
G01 X12.2323 Y50.0652 
G01 X12.3879 Y50.1158 
G01 X12.5338 Y50.1901 
G01 X12.6662 Y50.2863 
G01 X12.7819 Y50.4020 
G01 X12.8781 Y50.5344 
G01 X12.9524 Y50.6803 
G01 X13.0030 Y50.8359 
G01 X13.0286 Y50.9976 
G00 Z2.0000 
G00 X19.5310 Y50.9976 
G01 Z-0.0250 F254.00 
G01 X19.5310 Y51.1612 F508.00 
G01 X19.5054 Y51.3229 
G01 X19.4548 Y51.4785 
G01 X19.3805 Y51.6244 
G01 X19.2843 Y51.7568 
G01 X19.1686 Y51.8725 
G01 X19.0362 Y51.9687 
G01 X18.8903 Y52.0430 
G01 X18.7347 Y52.0936 
G01 X18.5730 Y52.1192 
G01 X18.4094 Y52.1192 
G01 X18.2477 Y52.0936 
G01 X18.0921 Y52.0430 
G01 X17.9462 Y51.9687 
G01 X17.8138 Y51.8725 
G01 X17.6981 Y51.7568 
G01 X17.6019 Y51.6244 
G01 X17.5276 Y51.4785 
G01 X17.4770 Y51.3229 
G01 X17.4514 Y51.1612 
G01 X17.4514 Y50.9976 
G01 X17.4770 Y50.8359 
G01 X17.5276 Y50.6803 
G01 X17.6019 Y50.5344 
G01 X17.6981 Y50.4020 
G01 X17.8138 Y50.2863 
G01 X17.9462 Y50.1901 
G01 X18.0921 Y50.1158 
G01 X18.2477 Y50.0652 
G01 X18.4094 Y50.0396 
G01 X18.5730 Y50.0396 
G01 X18.7347 Y50.0652 
G01 X18.8903 Y50.1158 
G01 X19.0362 Y50.1901 
G01 X19.1686 Y50.2863 
G01 X19.2843 Y50.4020 
G01 X19.3805 Y50.5344 
G01 X19.4548 Y50.6803 
G01 X19.5054 Y50.8359 
G01 X19.5310 Y50.9976 
G00 Z2.0000 
G00 X6.0700 Y9.4399 
G01 Z-0.0250 F254.00 
G01 X6.0700 Y9.0000 F508.00 
G01 X2.0000 Y9.0000 
G01 X2.0000 Y12.0000 
G01 X2.0599 Y12.0000 
G01 X2.0966 Y12.0152 
G01 X2.1248 Y12.0434 
G01 X2.1400 Y12.0801 
G01 X2.1400 Y13.3199 
G01 X2.1248 Y13.3566 
G01 X2.0966 Y13.3848 
G01 X2.0599 Y13.4000 
G01 X2.0000 Y13.4000 
G01 X2.0000 Y17.0800 
G01 X2.0599 Y17.0800 
G01 X2.0966 Y17.0952 
G01 X2.1248 Y17.1234 
G01 X2.1400 Y17.1601 
G01 X2.1400 Y18.3999 
G01 X2.1248 Y18.4366 
G01 X2.0966 Y18.4648 
G01 X2.0599 Y18.4800 
G01 X2.0000 Y18.4800 
G01 X2.0000 Y21.0000 
G01 X6.0700 Y21.0000 
G01 X6.0700 Y20.7001 
G01 X6.0852 Y20.6634 
G01 X6.1134 Y20.6352 
G01 X6.1501 Y20.6200 
G01 X7.1899 Y20.6200 
G01 X7.2266 Y20.6352 
G01 X7.2548 Y20.6634 
G01 X7.2700 Y20.7001 
G01 X7.2700 Y21.6664 
G01 X8.6416 Y23.0381 
G01 X8.7119 Y23.1084 
G01 X8.7500 Y23.2003 
G01 X8.7500 Y30.8964 
G01 X10.3037 Y32.4501 
G01 X11.7928 Y32.4501 
G01 X11.8295 Y32.4653 
G01 X11.8577 Y32.4935 
G01 X11.8729 Y32.5302 
G01 X11.8729 Y33.7693 
G01 X12.4619 Y34.3584 
G01 X12.5000 Y34.4503 
G01 X12.5000 Y35.2500 
G01 X16.3800 Y35.2500 
G01 X16.3800 Y34.9401 
G01 X16.3952 Y34.9034 
G01 X16.4234 Y34.8752 
G01 X16.4601 Y34.8600 
G01 X17.2999 Y34.8600 
G01 X17.3366 Y34.8752 
G01 X17.3648 Y34.9034 
G01 X17.3800 Y34.9401 
G01 X17.3800 Y36.1799 
G01 X17.3648 Y36.2166 
G01 X17.3366 Y36.2448 
G01 X17.2999 Y36.2600 
G01 X17.0000 Y36.2600 
G01 X17.0000 Y44.2500 
G01 X21.0000 Y44.2500 
G01 X21.0000 Y42.2003 
G01 X21.0381 Y42.1084 
G01 X26.7500 Y36.3964 
G01 X26.7500 Y32.7200 
G01 X25.8301 Y32.7200 
G01 X25.7934 Y32.7048 
G01 X25.7652 Y32.6766 
G01 X25.7500 Y32.6399 
G01 X25.7500 Y31.2001 
G01 X25.7652 Y31.1634 
G01 X25.7934 Y31.1352 
G01 X25.8301 Y31.1200 
G01 X26.8699 Y31.1200 
G01 X26.9066 Y31.1352 
G01 X26.9348 Y31.1634 
G01 X26.9500 Y31.2001 
G01 X26.9500 Y32.0964 
G01 X27.1416 Y32.2881 
G01 X27.2119 Y32.3584 
G01 X27.2500 Y32.4503 
G01 X27.2500 Y39.9400 
G01 X27.4599 Y39.9400 
G01 X27.4966 Y39.9552 
G01 X27.5248 Y39.9834 
G01 X27.5400 Y40.0201 
G01 X27.5400 Y41.2599 
G01 X27.5248 Y41.2966 
G01 X27.4966 Y41.3248 
G01 X27.4599 Y41.3400 
G01 X27.2500 Y41.3400 
G01 X27.2500 Y45.7997 
G01 X27.2119 Y45.8916 
G01 X27.1416 Y45.9619 
G01 X26.6035 Y46.5000 
G01 X31.1464 Y46.5000 
G01 X32.3525 Y45.2939 
G01 X32.3352 Y45.2766 
G01 X32.3200 Y45.2399 
G01 X32.3200 Y44.4001 
G01 X32.3352 Y44.3634 
G01 X32.3634 Y44.3352 
G01 X32.4001 Y44.3200 
G01 X33.0000 Y44.3200 
G01 X33.0000 Y39.9503 
G01 X33.0381 Y39.8584 
G01 X33.1084 Y39.7881 
G01 X33.2003 Y39.7500 
G01 X36.7997 Y39.7500 
G01 X36.8916 Y39.7881 
G01 X36.9619 Y39.8584 
G01 X37.4619 Y40.3584 
G01 X37.5000 Y40.4503 
G01 X37.5000 Y45.0200 
G01 X37.6199 Y45.0200 
G01 X37.6566 Y45.0352 
G01 X37.6848 Y45.0634 
G01 X37.7000 Y45.1001 
G01 X37.7000 Y46.3399 
G01 X37.6848 Y46.3766 
G01 X37.6566 Y46.4048 
G01 X37.6199 Y46.4200 
G01 X36.7801 Y46.4200 
G01 X36.7434 Y46.4048 
G01 X36.7152 Y46.3766 
G01 X36.7000 Y46.3399 
G01 X36.7000 Y45.1001 
G01 X36.7152 Y45.0634 
G01 X36.7434 Y45.0352 
G01 X36.7801 Y45.0200 
G01 X37.0000 Y45.0200 
G01 X37.0000 Y40.6036 
G01 X36.6464 Y40.2500 
G01 X33.5000 Y40.2500 
G01 X33.5000 Y44.3200 
G01 X33.6399 Y44.3200 
G01 X33.6766 Y44.3352 
G01 X33.7048 Y44.3634 
G01 X33.7200 Y44.4001 
G01 X33.7200 Y45.2399 
G01 X33.7048 Y45.2766 
G01 X33.6766 Y45.3048 
G01 X33.6399 Y45.3200 
G01 X33.0335 Y45.3200 
G01 X31.4619 Y46.8916 
G01 X31.3916 Y46.9619 
G01 X31.2997 Y47.0000 
G01 X31.0000 Y47.0000 
G01 X31.0000 Y58.0000 
G01 X41.4300 Y58.0000 
G01 X41.4300 Y57.8001 
G01 X41.4452 Y57.7634 
G01 X41.4734 Y57.7352 
G01 X41.5101 Y57.7200 
G01 X41.7500 Y57.7200 
G01 X41.7500 Y53.2003 
G01 X41.7881 Y53.1084 
G01 X41.8584 Y53.0381 
G01 X41.9503 Y53.0000 
G01 X43.8964 Y53.0000 
G01 X44.0000 Y52.8964 
G01 X44.0000 Y49.4503 
G01 X44.0381 Y49.3584 
G01 X44.1084 Y49.2881 
G01 X46.1205 Y47.2760 
G01 X46.1123 Y47.2563 
G01 X46.0772 Y47.0799 
G01 X46.0772 Y46.9001 
G01 X46.1123 Y46.7237 
G01 X46.1811 Y46.5576 
G01 X46.2810 Y46.4081 
G01 X46.4081 Y46.2810 
G01 X46.5576 Y46.1811 
G01 X46.7237 Y46.1123 
G01 X46.9001 Y46.0772 
G01 X47.0799 Y46.0772 
G01 X47.2563 Y46.1123 
G01 X47.4224 Y46.1811 
G01 X47.5719 Y46.2810 
G01 X47.6990 Y46.4081 
G01 X47.7604 Y46.5000 
G01 X50.1000 Y46.5000 
G01 X50.1000 Y46.2001 
G01 X50.1152 Y46.1634 
G01 X50.1434 Y46.1352 
G01 X50.1801 Y46.1200 
G01 X51.0264 Y46.1200 
G01 X53.5381 Y43.6084 
G01 X53.6084 Y43.5381 
G01 X54.0000 Y43.1464 
G01 X54.0000 Y41.3400 
G01 X53.8201 Y41.3400 
G01 X53.7834 Y41.3248 
G01 X53.7552 Y41.2966 
G01 X53.7400 Y41.2599 
G01 X53.7400 Y40.0201 
G01 X53.7552 Y39.9834 
G01 X53.7834 Y39.9552 
G01 X53.8201 Y39.9400 
G01 X54.6599 Y39.9400 
G01 X54.6966 Y39.9552 
G01 X54.7248 Y39.9834 
G01 X54.7400 Y40.0201 
G01 X54.7400 Y41.2599 
G01 X54.7248 Y41.2966 
G01 X54.6966 Y41.3248 
G01 X54.6599 Y41.3400 
G01 X54.5000 Y41.3400 
G01 X54.5000 Y43.2997 
G01 X54.4619 Y43.3916 
G01 X54.1036 Y43.7500 
G01 X57.0000 Y46.6465 
G01 X57.0000 Y43.7003 
G01 X57.0381 Y43.6084 
G01 X57.1084 Y43.5381 
G01 X58.2500 Y42.3964 
G01 X58.2500 Y23.9503 
G01 X58.2881 Y23.8584 
G01 X58.3584 Y23.7881 
G01 X58.7772 Y23.3692 
G01 X58.7772 Y21.9573 
G01 X58.8123 Y21.7809 
G01 X58.8811 Y21.6148 
G01 X58.9810 Y21.4653 
G01 X59.1081 Y21.3382 
G01 X59.2500 Y21.2434 
G01 X59.2500 Y16.3536 
G01 X56.7881 Y13.8916 
G01 X56.7500 Y13.7997 
G01 X56.7500 Y6.1036 
G01 X56.7153 Y6.0689 
G01 X56.6773 Y6.0846 
G01 X56.5599 Y6.1080 
G01 X56.4401 Y6.1080 
G01 X56.3227 Y6.0846 
G01 X56.2120 Y6.0388 
G01 X56.1124 Y5.9723 
G01 X56.0277 Y5.8876 
G01 X55.9612 Y5.7880 
G01 X55.9154 Y5.6773 
G01 X55.8920 Y5.5599 
G01 X55.8920 Y5.4401 
G01 X55.9154 Y5.3227 
G01 X55.9612 Y5.2120 
G01 X56.0277 Y5.1124 
G01 X56.1124 Y5.0277 
G01 X56.2120 Y4.9612 
G01 X56.3227 Y4.9154 
G01 X56.4401 Y4.8920 
G01 X56.5599 Y4.8920 
G01 X56.6773 Y4.9154 
G01 X56.7880 Y4.9612 
G01 X56.8876 Y5.0277 
G01 X56.9723 Y5.1124 
G01 X57.0388 Y5.2120 
G01 X57.0846 Y5.3227 
G01 X57.1080 Y5.4401 
G01 X57.1080 Y5.5599 
G01 X57.0846 Y5.6773 
G01 X57.0689 Y5.7153 
G01 X57.1416 Y5.7881 
G01 X57.2119 Y5.8584 
G01 X57.2500 Y5.9503 
G01 X57.2500 Y13.6464 
G01 X59.6416 Y16.0381 
G01 X59.7119 Y16.1084 
G01 X59.7500 Y16.2003 
G01 X59.7500 Y21.1344 
G01 X59.7799 Y21.1344 
G01 X59.9563 Y21.1695 
G01 X60.1224 Y21.2383 
G01 X60.2719 Y21.3382 
G01 X60.3990 Y21.4653 
G01 X60.4989 Y21.6148 
G01 X60.5677 Y21.7809 
G01 X60.6028 Y21.9573 
G01 X60.6028 Y23.7627 
G01 X60.5677 Y23.9391 
G01 X60.4989 Y24.1052 
G01 X60.3990 Y24.2547 
G01 X60.2719 Y24.3818 
G01 X60.1224 Y24.4817 
G01 X59.9563 Y24.5505 
G01 X59.7799 Y24.5856 
G01 X59.6001 Y24.5856 
G01 X59.4237 Y24.5505 
G01 X59.2576 Y24.4817 
G01 X59.1081 Y24.3818 
G01 X58.9810 Y24.2547 
G01 X58.8811 Y24.1052 
G01 X58.8422 Y24.0113 
G01 X58.7500 Y24.1036 
G01 X58.7500 Y42.5497 
G01 X58.7119 Y42.6416 
G01 X57.5000 Y43.8536 
G01 X57.5000 Y47.1464 
G01 X61.6879 Y51.3344 
G01 X61.7976 Y51.2611 
G01 X61.9637 Y51.1923 
G01 X62.1401 Y51.1572 
G01 X62.3199 Y51.1572 
G01 X62.4963 Y51.1923 
G01 X62.6624 Y51.2611 
G01 X62.8119 Y51.3610 
G01 X62.9390 Y51.4881 
G01 X63.0389 Y51.6376 
G01 X63.1077 Y51.8037 
G01 X63.1428 Y51.9801 
G01 X63.1428 Y52.1599 
G01 X63.1077 Y52.3363 
G01 X63.0389 Y52.5024 
G01 X62.9390 Y52.6519 
G01 X62.8119 Y52.7790 
G01 X62.6624 Y52.8789 
G01 X62.4963 Y52.9477 
G01 X62.3199 Y52.9828 
G01 X62.1401 Y52.9828 
G01 X61.9637 Y52.9477 
G01 X61.7976 Y52.8789 
G01 X61.6481 Y52.7790 
G01 X61.5210 Y52.6519 
G01 X61.4211 Y52.5024 
G01 X61.3523 Y52.3363 
G01 X61.3172 Y52.1599 
G01 X61.3172 Y51.9801 
G01 X61.3523 Y51.8037 
G01 X61.3810 Y51.7345 
G01 X57.1084 Y47.4619 
G01 X53.7500 Y44.1036 
G01 X51.5000 Y46.3536 
G01 X51.5000 Y47.0399 
G01 X51.4848 Y47.0766 
G01 X51.4566 Y47.1048 
G01 X51.4199 Y47.1200 
G01 X50.1801 Y47.1200 
G01 X50.1434 Y47.1048 
G01 X50.1152 Y47.0766 
G01 X50.1000 Y47.0399 
G01 X50.1000 Y47.0000 
G01 X47.9028 Y47.0000 
G01 X47.9028 Y47.0799 
G01 X47.8677 Y47.2563 
G01 X47.7989 Y47.4224 
G01 X47.6990 Y47.5719 
G01 X47.5719 Y47.6990 
G01 X47.4224 Y47.7989 
G01 X47.2563 Y47.8677 
G01 X47.0799 Y47.9028 
G01 X46.9001 Y47.9028 
G01 X46.7237 Y47.8677 
G01 X46.5576 Y47.7989 
G01 X46.4081 Y47.6990 
G01 X44.5000 Y49.6036 
G01 X44.5000 Y53.0497 
G01 X44.4619 Y53.1416 
G01 X44.2119 Y53.3916 
G01 X44.1416 Y53.4619 
G01 X44.0497 Y53.5000 
G01 X42.2500 Y53.5000 
G01 X42.2500 Y57.7200 
G01 X42.7499 Y57.7200 
G01 X42.7866 Y57.7352 
G01 X42.8148 Y57.7634 
G01 X42.8300 Y57.8001 
G01 X42.8300 Y59.0399 
G01 X42.8148 Y59.0766 
G01 X42.7866 Y59.1048 
G01 X42.7499 Y59.1200 
G01 X41.5101 Y59.1200 
G01 X41.4734 Y59.1048 
G01 X41.4452 Y59.0766 
G01 X41.4300 Y59.0399 
G01 X41.4300 Y58.5000 
G01 X30.7003 Y58.5000 
G01 X30.6084 Y58.4619 
G01 X30.5381 Y58.3916 
G01 X30.5000 Y58.2997 
G01 X30.5000 Y47.0000 
G01 X26.1036 Y47.0000 
G01 X26.1000 Y47.0036 
G01 X26.1000 Y47.7799 
G01 X26.0848 Y47.8166 
G01 X26.0566 Y47.8448 
G01 X26.0199 Y47.8600 
G01 X24.7801 Y47.8600 
G01 X24.7434 Y47.8448 
G01 X24.7152 Y47.8166 
G01 X24.7000 Y47.7799 
G01 X24.7000 Y46.9401 
G01 X24.7152 Y46.9034 
G01 X24.7434 Y46.8752 
G01 X24.7801 Y46.8600 
G01 X25.5364 Y46.8600 
G01 X25.7881 Y46.6084 
G01 X25.8584 Y46.5381 
G01 X26.7500 Y45.6464 
G01 X26.7500 Y41.3400 
G01 X26.6201 Y41.3400 
G01 X26.5834 Y41.3248 
G01 X26.5552 Y41.2966 
G01 X26.5400 Y41.2599 
G01 X26.5400 Y40.0201 
G01 X26.5552 Y39.9834 
G01 X26.5834 Y39.9552 
G01 X26.6201 Y39.9400 
G01 X26.7500 Y39.9400 
G01 X26.7500 Y37.1035 
G01 X21.5000 Y42.3536 
G01 X21.5000 Y44.5497 
G01 X21.4619 Y44.6416 
G01 X21.3916 Y44.7119 
G01 X21.2997 Y44.7500 
G01 X17.0000 Y44.7500 
G01 X17.0000 Y47.5600 
G01 X17.2999 Y47.5600 
G01 X17.3366 Y47.5752 
G01 X17.3648 Y47.6034 
G01 X17.3800 Y47.6401 
G01 X17.3800 Y48.8799 
G01 X17.3648 Y48.9166 
G01 X17.3366 Y48.9448 
G01 X17.2999 Y48.9600 
G01 X16.4601 Y48.9600 
G01 X16.4234 Y48.9448 
G01 X16.3952 Y48.9166 
G01 X16.3800 Y48.8799 
G01 X16.3800 Y47.6401 
G01 X16.3952 Y47.6034 
G01 X16.4234 Y47.5752 
G01 X16.4601 Y47.5600 
G01 X16.5000 Y47.5600 
G01 X16.5000 Y36.2600 
G01 X16.4601 Y36.2600 
G01 X16.4234 Y36.2448 
G01 X16.3952 Y36.2166 
G01 X16.3800 Y36.1799 
G01 X16.3800 Y35.7500 
G01 X12.2003 Y35.7500 
G01 X12.1084 Y35.7119 
G01 X12.0381 Y35.6416 
G01 X12.0000 Y35.5497 
G01 X12.0000 Y34.6036 
G01 X11.5451 Y34.1487 
G01 X9.7464 Y34.1487 
G01 X9.7097 Y34.1335 
G01 X9.6815 Y34.1053 
G01 X9.6663 Y34.0686 
G01 X9.6663 Y32.5302 
G01 X9.6693 Y32.5229 
G01 X8.2881 Y31.1416 
G01 X8.2500 Y31.0497 
G01 X8.2500 Y23.3536 
G01 X7.1164 Y22.2200 
G01 X6.1501 Y22.2200 
G01 X6.1134 Y22.2048 
G01 X6.0852 Y22.1766 
G01 X6.0700 Y22.1399 
G01 X6.0700 Y21.5000 
G01 X1.7003 Y21.5000 
G01 X1.6084 Y21.4619 
G01 X1.5381 Y21.3916 
G01 X1.5000 Y21.2997 
G01 X1.5000 Y18.4800 
G01 X1.2201 Y18.4800 
G01 X1.1834 Y18.4648 
G01 X1.1552 Y18.4366 
G01 X1.1400 Y18.3999 
G01 X1.1400 Y17.1601 
G01 X1.1552 Y17.1234 
G01 X1.1834 Y17.0952 
G01 X1.2201 Y17.0800 
G01 X1.5000 Y17.0800 
G01 X1.5000 Y13.4000 
G01 X1.2201 Y13.4000 
G01 X1.1834 Y13.3848 
G01 X1.1552 Y13.3566 
G01 X1.1400 Y13.3199 
G01 X1.1400 Y12.0801 
G01 X1.1552 Y12.0434 
G01 X1.1834 Y12.0152 
G01 X1.2201 Y12.0000 
G01 X1.5000 Y12.0000 
G01 X1.5000 Y8.7003 
G01 X1.5381 Y8.6084 
G01 X1.6084 Y8.5381 
G01 X1.7003 Y8.5000 
G01 X6.0700 Y8.5000 
G01 X6.0700 Y8.0001 
G01 X6.0852 Y7.9634 
G01 X6.1134 Y7.9352 
G01 X6.1501 Y7.9200 
G01 X7.1899 Y7.9200 
G01 X7.2266 Y7.9352 
G01 X7.2548 Y7.9634 
G01 X7.2700 Y8.0001 
G01 X7.2700 Y9.4399 
G01 X7.2548 Y9.4766 
G01 X7.2266 Y9.5048 
G01 X7.1899 Y9.5200 
G01 X6.1501 Y9.5200 
G01 X6.1134 Y9.5048 
G01 X6.0852 Y9.4766 
G01 X6.0700 Y9.4399 
G00 Z2.0000 
G00 X9.7600 Y12.0801 
G01 Z-0.0250 F254.00 
G01 X9.7600 Y13.3199 F508.00 
G01 X9.7448 Y13.3566 
G01 X9.7166 Y13.3848 
G01 X9.6799 Y13.4000 
G01 X8.8401 Y13.4000 
G01 X8.8034 Y13.3848 
G01 X8.7752 Y13.3566 
G01 X8.7600 Y13.3199 
G01 X8.7600 Y12.3636 
G01 X8.6084 Y12.2119 
G01 X8.5381 Y12.1416 
G01 X8.5000 Y12.0497 
G01 X8.5000 Y9.5200 
G01 X8.0501 Y9.5200 
G01 X8.0134 Y9.5048 
G01 X7.9852 Y9.4766 
G01 X7.9700 Y9.4399 
G01 X7.9700 Y8.0001 
G01 X7.9852 Y7.9634 
G01 X8.0134 Y7.9352 
G01 X8.0501 Y7.9200 
G01 X9.0899 Y7.9200 
G01 X9.1266 Y7.9352 
G01 X9.1548 Y7.9634 
G01 X9.1700 Y8.0001 
G01 X9.1700 Y9.4399 
G01 X9.1548 Y9.4766 
G01 X9.1266 Y9.5048 
G01 X9.0899 Y9.5200 
G01 X9.0000 Y9.5200 
G01 X9.0000 Y11.8964 
G01 X9.1036 Y12.0000 
G01 X9.6799 Y12.0000 
G01 X9.7166 Y12.0152 
G01 X9.7448 Y12.0434 
G01 X9.7600 Y12.0801 
G00 Z2.0000 
G00 X11.5600 Y12.0801 
G01 Z-0.0250 F254.00 
G01 X11.5600 Y13.3199 F508.00 
G01 X11.5448 Y13.3566 
G01 X11.5166 Y13.3848 
G01 X11.4799 Y13.4000 
G01 X11.2500 Y13.4000 
G01 X11.2500 Y13.6955 
G01 X11.2880 Y13.7112 
G01 X11.3876 Y13.7777 
G01 X11.4723 Y13.8624 
G01 X11.5388 Y13.9620 
G01 X11.5846 Y14.0727 
G01 X11.6080 Y14.1901 
G01 X11.6080 Y14.3099 
G01 X11.5846 Y14.4273 
G01 X11.5388 Y14.5380 
G01 X11.4723 Y14.6376 
G01 X11.3876 Y14.7223 
G01 X11.2880 Y14.7888 
G01 X11.1773 Y14.8346 
G01 X11.0599 Y14.8580 
G01 X10.9401 Y14.8580 
G01 X10.8227 Y14.8346 
G01 X10.7120 Y14.7888 
G01 X10.6124 Y14.7223 
G01 X10.5277 Y14.6376 
G01 X10.4612 Y14.5380 
G01 X10.4154 Y14.4273 
G01 X10.3920 Y14.3099 
G01 X10.3920 Y14.1901 
G01 X10.4154 Y14.0727 
G01 X10.4612 Y13.9620 
G01 X10.5277 Y13.8624 
G01 X10.6124 Y13.7777 
G01 X10.7120 Y13.7112 
G01 X10.7500 Y13.6955 
G01 X10.7500 Y13.4000 
G01 X10.6401 Y13.4000 
G01 X10.6034 Y13.3848 
G01 X10.5752 Y13.3566 
G01 X10.5600 Y13.3199 
G01 X10.5600 Y12.0801 
G01 X10.5752 Y12.0434 
