(.../pcb-gcode-3.6.0.4/pcb-gcode.ulp)
(Copyright 2005 - 2012 by John Johnson)
(See readme.txt for licensing terms.)
(This file generated from the board:)
(.../eagle/SulaMatikV1/SulaMatikV1.brd)
(Current profile is .../pcb-gcode-3.6.0.4/profiles/emc.pp  )
(This file generated 9/3/2014 2:59:20 PM)
(Settings from pcb-machine.h)
(  Tool Size)
(0.1000 )
(Z Axis Settings)
(  High     Up        Down     Drill)
(19.5000 	2.0000 	-0.0250 	-1.5000 )
(spindle on time = 1.0000)
(milling depth = -0.0500)
(text depth = -0.0500)
(tool change at 15.0000 15.0000 19.0000 )
(feed rate xy = F508.00 )
(feed rate z  = F254.00 )
(Settings from pcb-defaults.h)
(isolate min = 0.0500)
(isolate max = 1.0000)
(isolate step = 0.1000)
(Generated top outlines, top drill, bottom outlines, bottom drill, )
(Unit of measure: mm)
( Tool|       Size       |  Min Sub |  Max Sub |   Count )
( T01  0.508mm 0.0200in 0.0000in 0.0000in )
( T02  0.700mm 0.0276in 0.0000in 0.0000in )
( T03  0.813mm 0.0320in 0.0000in 0.0000in )
( T04  1.016mm 0.0400in 0.0000in 0.0000in )
( T05  1.118mm 0.0440in 0.0000in 0.0000in )
( T06  2.000mm 0.0787in 0.0000in 0.0000in )
(Metric Mode)
G21
(Absolute Coordinates)
G90
M05
G00 Z19.0000 
G00 X15.0000 Y15.0000 
M06 T01  ; 0.5080 
G01 Z0.0000 F254.00 
M06 T01  ; 0.5080 
G00 Z2.0000 
M03
G04 P1.000000
G00 Z2.000000
G00 X31.7900 Y41.2900 
G01 Z-1.5000 F254.00 
G01 Z2.000000
(R2.0000  P1.000000)
(G00 Z2.000000)
G00 X33.2900 Y48.2900 
G01 Z-1.500000
G01 Z2.000000
(G00 Z2.000000)
G00 X38.7900 Y43.5400 
G01 Z-1.500000
G01 Z2.000000
(G00 Z2.000000)
G00 X46.2900 Y13.0400 
G01 Z-1.500000
G01 Z2.000000
(G00 Z2.000000)
G00 X51.5400 Y48.2900 
G01 Z-1.500000
G01 Z2.000000
(G00 Z2.000000)
G00 X53.7900 Y14.5400 
G01 Z-1.500000
G01 Z2.000000
(G00 Z2.000000)
G00 X54.2900 Y22.5400 
G01 Z-1.500000
G01 Z2.000000
(G00 Z2.000000)
G00 X55.7900 Y44.5400 
G01 Z-1.500000
G01 Z2.000000
(G00 Z2.000000)
G00 X58.0400 Y36.5400 
G01 Z-1.500000
G01 Z2.000000
(G00 Z2.000000)
G00 X58.7900 Y46.0400 
G01 Z-1.500000
G01 Z2.000000
(G00 Z2.000000)
G00 X59.0400 Y8.0400 
G01 Z-1.500000
G01 Z2.000000
(G00 Z2.000000)
G00 X61.2900 Y16.5400 
G01 Z-1.500000
G01 Z2.000000
(G00 Z2.000000)
G00 X62.0400 Y27.7900 
G01 Z-1.500000
G01 Z2.000000
(G00 Z2.000000)
G00 X63.0400 Y32.0400 
G01 Z-1.500000
G01 Z2.000000
(G00 Z2.000000)
G00 X66.0400 Y32.7900 
G01 Z-1.500000
G01 Z2.000000
(G00 Z2.000000)
G00 X67.0400 Y27.5400 
G01 Z-1.500000
G01 Z2.000000
(G00 Z2.000000)
G00 X8.7900 Y44.2900 
G01 Z-1.500000
G01 Z2.000000
(G00 Z2.000000)
G00 X8.7900 Y22.0400 
G01 Z-1.500000
G01 Z2.000000
(G00 Z2.000000)
G00 X10.2900 Y15.0400 
G01 Z-1.500000
G01 Z2.000000
(G00 Z2.000000)
G00 X13.5400 Y16.7900 
G01 Z-1.500000
G01 Z2.000000
(G00 Z2.000000)
G00 X13.5400 Y20.2900 
G01 Z-1.500000
G01 Z2.000000
(G00 Z2.000000)
G00 X16.7900 Y34.7900 
G01 Z-1.500000
G01 Z2.000000
(G00 Z2.000000)
G00 X20.2900 Y40.5400 
G01 Z-1.500000
G01 Z2.000000
(G00 Z2.000000)
G00 X20.5400 Y27.7900 
G01 Z-1.500000
G01 Z2.000000
(G00 Z2.000000)
G00 X21.7900 Y28.2900 
G01 Z-1.500000
G01 Z2.000000
(G00 Z2.000000)
G00 X23.5400 Y26.2900 
G01 Z-1.500000
G01 Z2.000000
(G00 Z2.000000)
G00 X23.7900 Y21.2900 
G01 Z-1.500000
G01 Z2.000000
(G00 Z2.000000)
G00 X25.2900 Y36.5400 
G01 Z-1.500000
G01 Z2.000000
(G00 Z2.000000)
G00 X29.7900 Y29.0400 
G01 Z-1.500000
G01 Z2.000000
M05
G00 Z19.0000 
M06 T02  ; 0.7000 
G01 Z0.0000 F254.00 
M06 T02  ; 0.7000 
G00 Z2.0000 
M03
G04 P1.000000
G00 Z2.000000
G00 X49.1000 Y20.3200 
G01 Z-1.5000 F254.00 
G01 Z2.000000
(R2.0000  P1.000000)
(G00 Z2.000000)
G00 X52.5000 Y20.3200 
G01 Z-1.500000
G01 Z2.000000
M05
G00 Z19.0000 
M06 T03  ; 0.8128 
G01 Z0.0000 F254.00 
M06 T03  ; 0.8128 
G00 Z2.0000 
M03
G04 P1.000000
G00 Z2.000000
G00 X31.7500 Y7.6200 
G01 Z-1.5000 F254.00 
G01 Z2.000000
(R2.0000  P1.000000)
(G00 Z2.000000)
G00 X49.5300 Y10.1600 
G01 Z-1.500000
G01 Z2.000000
(G00 Z2.000000)
G00 X52.0700 Y10.1600 
G01 Z-1.500000
G01 Z2.000000
(G00 Z2.000000)
G00 X13.9700 Y7.6200 
G01 Z-1.500000
G01 Z2.000000
(G00 Z2.000000)
G00 X16.5100 Y7.6200 
G01 Z-1.500000
G01 Z2.000000
(G00 Z2.000000)
G00 X19.0500 Y7.6200 
G01 Z-1.500000
G01 Z2.000000
(G00 Z2.000000)
G00 X21.5900 Y7.6200 
G01 Z-1.500000
G01 Z2.000000
(G00 Z2.000000)
G00 X24.1300 Y7.6200 
G01 Z-1.500000
G01 Z2.000000
(G00 Z2.000000)
G00 X26.6700 Y7.6200 
G01 Z-1.500000
G01 Z2.000000
(G00 Z2.000000)
G00 X29.2100 Y7.6200 
G01 Z-1.500000
G01 Z2.000000
M05
G00 Z19.0000 
M06 T04  ; 1.0160 
G01 Z0.0000 F254.00 
M06 T04  ; 1.0160 
G00 Z2.0000 
M03
G04 P1.000000
G00 Z2.000000
G00 X34.8488 Y53.6194 
G01 Z-1.5000 F254.00 
G01 Z2.000000
(R2.0000  P1.000000)
(G00 Z2.000000)
G00 X34.8488 Y58.1406 
G01 Z-1.500000
G01 Z2.000000
(G00 Z2.000000)
G00 X41.3512 Y53.6194 
G01 Z-1.500000
G01 Z2.000000
(G00 Z2.000000)
G00 X41.3512 Y58.1406 
G01 Z-1.500000
G01 Z2.000000
(G00 Z2.000000)
G00 X4.3688 Y53.6194 
G01 Z-1.500000
G01 Z2.000000
(G00 Z2.000000)
G00 X4.3688 Y58.1406 
G01 Z-1.500000
G01 Z2.000000
(G00 Z2.000000)
G00 X44.4500 Y5.0800 
G01 Z-1.500000
G01 Z2.000000
(G00 Z2.000000)
G00 X46.9900 Y5.0800 
G01 Z-1.500000
G01 Z2.000000
(G00 Z2.000000)
G00 X49.5300 Y31.7500 
G01 Z-1.500000
G01 Z2.000000
(G00 Z2.000000)
G00 X49.5300 Y34.2900 
G01 Z-1.500000
G01 Z2.000000
(G00 Z2.000000)
G00 X49.5300 Y36.8300 
G01 Z-1.500000
G01 Z2.000000
(G00 Z2.000000)
G00 X49.5300 Y39.3700 
G01 Z-1.500000
G01 Z2.000000
(G00 Z2.000000)
G00 X49.5300 Y41.9100 
G01 Z-1.500000
G01 Z2.000000
(G00 Z2.000000)
G00 X49.5300 Y44.4500 
G01 Z-1.500000
G01 Z2.000000
(G00 Z2.000000)
G00 X49.5300 Y46.9900 
G01 Z-1.500000
G01 Z2.000000
(G00 Z2.000000)
G00 X49.5300 Y49.5300 
G01 Z-1.500000
G01 Z2.000000
(G00 Z2.000000)
G00 X49.5300 Y5.0800 
G01 Z-1.500000
G01 Z2.000000
(G00 Z2.000000)
G00 X49.5300 Y52.0700 
G01 Z-1.500000
G01 Z2.000000
(G00 Z2.000000)
G00 X49.5300 Y54.6100 
G01 Z-1.500000
G01 Z2.000000
(G00 Z2.000000)
G00 X49.5300 Y57.1500 
G01 Z-1.500000
G01 Z2.000000
(G00 Z2.000000)
G00 X49.5300 Y29.2100 
G01 Z-1.500000
G01 Z2.000000
(G00 Z2.000000)
G00 X52.0700 Y5.0800 
G01 Z-1.500000
G01 Z2.000000
(G00 Z2.000000)
G00 X54.6100 Y25.4000 
G01 Z-1.500000
G01 Z2.000000
(G00 Z2.000000)
G00 X55.8800 Y12.7000 
G01 Z-1.500000
G01 Z2.000000
(G00 Z2.000000)
G00 X57.1500 Y25.4000 
G01 Z-1.500000
G01 Z2.000000
(G00 Z2.000000)
G00 X58.4200 Y17.7800 
G01 Z-1.500000
G01 Z2.000000
(G00 Z2.000000)
G00 X59.6900 Y25.4000 
G01 Z-1.500000
G01 Z2.000000
(G00 Z2.000000)
G00 X60.9600 Y12.7000 
G01 Z-1.500000
G01 Z2.000000
(G00 Z2.000000)
G00 X62.2300 Y45.7200 
G01 Z-1.500000
G01 Z2.000000
(G00 Z2.000000)
G00 X62.2300 Y48.2600 
G01 Z-1.500000
G01 Z2.000000
(G00 Z2.000000)
G00 X62.2300 Y25.4000 
G01 Z-1.500000
G01 Z2.000000
(G00 Z2.000000)
G00 X64.7700 Y31.7500 
G01 Z-1.500000
G01 Z2.000000
(G00 Z2.000000)
G00 X64.7700 Y34.2900 
G01 Z-1.500000
G01 Z2.000000
(G00 Z2.000000)
G00 X64.7700 Y36.8300 
G01 Z-1.500000
G01 Z2.000000
(G00 Z2.000000)
G00 X64.7700 Y39.3700 
G01 Z-1.500000
G01 Z2.000000
(G00 Z2.000000)
G00 X64.7700 Y41.9100 
G01 Z-1.500000
G01 Z2.000000
(G00 Z2.000000)
G00 X64.7700 Y44.4500 
G01 Z-1.500000
G01 Z2.000000
(G00 Z2.000000)
G00 X64.7700 Y46.9900 
G01 Z-1.500000
G01 Z2.000000
(G00 Z2.000000)
G00 X64.7700 Y49.5300 
G01 Z-1.500000
G01 Z2.000000
(G00 Z2.000000)
G00 X64.7700 Y52.0700 
G01 Z-1.500000
G01 Z2.000000
(G00 Z2.000000)
G00 X64.7700 Y54.6100 
G01 Z-1.500000
G01 Z2.000000
(G00 Z2.000000)
G00 X64.7700 Y57.1500 
G01 Z-1.500000
G01 Z2.000000
(G00 Z2.000000)
G00 X64.7700 Y29.2100 
G01 Z-1.500000
G01 Z2.000000
(G00 Z2.000000)
G00 X66.0400 Y8.8900 
G01 Z-1.500000
G01 Z2.000000
(G00 Z2.000000)
G00 X66.0400 Y11.4300 
G01 Z-1.500000
G01 Z2.000000
(G00 Z2.000000)
G00 X66.0400 Y13.9700 
G01 Z-1.500000
G01 Z2.000000
(G00 Z2.000000)
G00 X66.0400 Y16.5100 
G01 Z-1.500000
G01 Z2.000000
(G00 Z2.000000)
G00 X66.0400 Y19.0500 
G01 Z-1.500000
G01 Z2.000000
(G00 Z2.000000)
G00 X66.0400 Y21.5900 
G01 Z-1.500000
G01 Z2.000000
(G00 Z2.000000)
G00 X10.8712 Y53.6194 
G01 Z-1.500000
G01 Z2.000000
(G00 Z2.000000)
G00 X10.8712 Y58.1406 
G01 Z-1.500000
G01 Z2.000000
(G00 Z2.000000)
G00 X14.5288 Y53.6194 
G01 Z-1.500000
G01 Z2.000000
(G00 Z2.000000)
G00 X14.5288 Y58.1406 
G01 Z-1.500000
G01 Z2.000000
(G00 Z2.000000)
G00 X21.0312 Y53.6194 
G01 Z-1.500000
G01 Z2.000000
(G00 Z2.000000)
G00 X21.0312 Y58.1406 
G01 Z-1.500000
G01 Z2.000000
(G00 Z2.000000)
G00 X24.6888 Y53.6194 
G01 Z-1.500000
G01 Z2.000000
(G00 Z2.000000)
G00 X24.6888 Y58.1406 
G01 Z-1.500000
G01 Z2.000000
(G00 Z2.000000)
G00 X31.1912 Y53.6194 
G01 Z-1.500000
G01 Z2.000000
(G00 Z2.000000)
G00 X31.1912 Y58.1406 
G01 Z-1.500000
G01 Z2.000000
M05
G00 Z19.0000 
M06 T05  ; 1.1176 
G01 Z0.0000 F254.00 
M06 T05  ; 1.1176 
G00 Z2.0000 
M03
G04 P1.000000
G00 Z2.000000
G00 X57.1500 Y5.0800 
G01 Z-1.5000 F254.00 
G01 Z2.000000
(R2.0000  P1.000000)
(G00 Z2.000000)
G00 X60.9600 Y5.0800 
G01 Z-1.500000
G01 Z2.000000
(G00 Z2.000000)
G00 X64.7700 Y5.0800 
G01 Z-1.500000
G01 Z2.000000
M05
G00 Z19.0000 
M06 T06  ; 2.0000 
G01 Z0.0000 F254.00 
M06 T06  ; 2.0000 
G00 Z2.0000 
M03
G04 P1.000000
G00 Z2.000000
G00 X5.0800 Y5.0800 
G01 Z-1.5000 F254.00 
G01 Z2.000000
(R2.0000  P1.000000)
(G00 Z2.000000)
G00 X66.0400 Y60.9600 
G01 Z-1.500000
G01 Z2.000000
T01 
G00 Z19.5000 
M05
M02
