(.../pcb-gcode-3.6.0.4/pcb-gcode.ulp)
(Copyright 2005 - 2012 by John Johnson)
(See readme.txt for licensing terms.)
(This file generated from the board:)
(.../eagle/SulaMatikV1/SulaMatikV1.brd)
(Current profile is .../pcb-gcode-3.6.0.4/profiles/emc.pp  )
(This file generated 8/27/2014 5:18:54 PM)
(Settings from pcb-machine.h)
(  Tool Size)
(0.1000 )
(Z Axis Settings)
(  High     Up        Down     Drill)
(19.5000 	2.0000 	-0.0250 	-1.5000 )
(spindle on time = 1.0000)
(milling depth = -0.0500)
(text depth = -0.0500)
(tool change at 15.0000 15.0000 19.0000 )
(feed rate xy = F508.00 )
(feed rate z  = F254.00 )
(Settings from pcb-defaults.h)
(isolate min = 0.0500)
(isolate max = 1.0000)
(isolate step = 0.1000)
(Generated top outlines, top drill, bottom outlines, bottom drill, )
(Unit of measure: mm)
(Metric Mode)
G21
(Absolute Coordinates)
G90
G00 X0.0000 Y0.0000 
M03
G04 P1.000000
G00 Z2.0000 
G00 X-5.5714 Y13.3005 
G01 Z-0.0250 F254.00 
G01 X-5.3832 Y13.4887 F508.00 
G01 X-5.3832 Y14.3730 
G01 X-5.7596 Y14.3730 
G01 X-5.7596 Y13.4887 
G01 X-5.5714 Y13.3005 
G00 Z2.0000 
G00 X-5.5714 Y8.6229 
G01 Z-0.0250 F254.00 
G01 X-5.3832 Y8.8111 F508.00 
G01 X-5.3832 Y9.6954 
G01 X-5.7596 Y9.6954 
G01 X-5.7596 Y8.8111 
G01 X-5.5714 Y8.6229 
G00 Z2.0000 
G00 X-42.1811 Y36.2153 
G01 Z-0.0250 F254.00 
G01 X-42.1654 Y36.1773 F508.00 
G01 X-42.1420 Y36.0599 
G01 X-42.1420 Y35.9401 
G01 X-42.1654 Y35.8227 
G01 X-42.2112 Y35.7120 
G01 X-42.2777 Y35.6124 
G01 X-42.3624 Y35.5277 
G01 X-42.4620 Y35.4612 
G01 X-42.5727 Y35.4154 
G01 X-42.6901 Y35.3920 
G01 X-42.8099 Y35.3920 
G01 X-42.9273 Y35.4154 
G01 X-43.0380 Y35.4612 
G01 X-43.1376 Y35.5277 
G01 X-43.2223 Y35.6124 
G01 X-43.2888 Y35.7120 
G01 X-43.3346 Y35.8227 
G01 X-43.3580 Y35.9401 
G01 X-43.3580 Y36.0599 
G01 X-43.3346 Y36.1773 
G01 X-43.2888 Y36.2880 
G01 X-43.2223 Y36.3876 
G01 X-43.1376 Y36.4723 
G01 X-43.0380 Y36.5388 
G01 X-42.9273 Y36.5846 
G01 X-42.8099 Y36.6080 
G01 X-42.6901 Y36.6080 
G01 X-42.5727 Y36.5846 
G01 X-42.5347 Y36.5689 
G01 X-35.5689 Y43.5347 
G01 X-35.5846 Y43.5727 
G01 X-35.6080 Y43.6901 
G01 X-35.6080 Y43.8099 
G01 X-35.5846 Y43.9273 
G01 X-35.5388 Y44.0380 
G01 X-35.4723 Y44.1376 
G01 X-35.3876 Y44.2223 
G01 X-35.2880 Y44.2888 
G01 X-35.1773 Y44.3346 
G01 X-35.0599 Y44.3580 
G01 X-34.9401 Y44.3580 
G01 X-34.8227 Y44.3346 
G01 X-34.7120 Y44.2888 
G01 X-34.6124 Y44.2223 
G01 X-34.5277 Y44.1376 
G01 X-34.4612 Y44.0380 
G01 X-34.4154 Y43.9273 
G01 X-34.3920 Y43.8099 
G01 X-34.3920 Y43.6901 
G01 X-34.4154 Y43.5727 
G01 X-34.4612 Y43.4620 
G01 X-34.5277 Y43.3624 
G01 X-34.6124 Y43.2777 
G01 X-34.7120 Y43.2112 
G01 X-34.8227 Y43.1654 
G01 X-34.9401 Y43.1420 
G01 X-35.0599 Y43.1420 
G01 X-35.1773 Y43.1654 
G01 X-35.2153 Y43.1811 
G01 X-42.1811 Y36.2153 
G00 Z2.0000 
G00 X-56.8536 Y25.0000 
G01 Z-0.0250 F254.00 
G01 X-58.8677 Y25.0000 F508.00 
G01 X-58.8811 Y24.9676 
G01 X-58.9810 Y24.8181 
G01 X-59.1081 Y24.6910 
G01 X-59.2576 Y24.5911 
G01 X-59.4237 Y24.5223 
G01 X-59.6001 Y24.4872 
G01 X-59.7799 Y24.4872 
G01 X-59.9563 Y24.5223 
G01 X-60.1224 Y24.5911 
G01 X-60.2719 Y24.6910 
G01 X-60.3990 Y24.8181 
G01 X-60.4989 Y24.9676 
G01 X-60.5677 Y25.1337 
G01 X-60.6028 Y25.3101 
G01 X-60.6028 Y25.4899 
G01 X-60.5677 Y25.6663 
G01 X-60.4989 Y25.8324 
G01 X-60.3990 Y25.9819 
G01 X-60.2719 Y26.1090 
G01 X-60.1224 Y26.2089 
G01 X-59.9563 Y26.2777 
G01 X-59.7799 Y26.3128 
G01 X-59.6001 Y26.3128 
G01 X-59.4237 Y26.2777 
G01 X-59.2576 Y26.2089 
G01 X-59.1081 Y26.1090 
G01 X-58.9810 Y25.9819 
G01 X-58.8811 Y25.8324 
G01 X-58.8123 Y25.6663 
G01 X-58.7792 Y25.5000 
G01 X-56.7003 Y25.5000 
G01 X-56.6084 Y25.4619 
G01 X-56.5381 Y25.3916 
G01 X-53.4653 Y22.3189 
G01 X-53.4273 Y22.3346 
G01 X-53.3099 Y22.3580 
G01 X-53.1901 Y22.3580 
G01 X-53.0727 Y22.3346 
G01 X-52.9620 Y22.2888 
G01 X-52.8624 Y22.2223 
G01 X-52.7777 Y22.1376 
G01 X-52.7112 Y22.0380 
G01 X-52.6654 Y21.9273 
G01 X-52.6420 Y21.8099 
G01 X-52.6420 Y21.6901 
G01 X-52.6654 Y21.5726 
G01 X-52.7112 Y21.4620 
G01 X-52.7777 Y21.3624 
G01 X-52.8624 Y21.2777 
G01 X-52.9620 Y21.2112 
G01 X-53.0727 Y21.1654 
G01 X-53.1901 Y21.1420 
G01 X-53.3099 Y21.1420 
G01 X-53.4273 Y21.1654 
G01 X-53.5380 Y21.2112 
G01 X-53.6376 Y21.2777 
G01 X-53.7223 Y21.3624 
G01 X-53.7888 Y21.4620 
G01 X-53.8346 Y21.5726 
G01 X-53.8580 Y21.6901 
G01 X-53.8580 Y21.8099 
G01 X-53.8346 Y21.9273 
G01 X-53.8189 Y21.9653 
G01 X-56.8536 Y25.0000 
G00 Z2.0000 
G00 X-59.0960 Y3.6996 
G01 Z-0.0250 F254.00 
G01 X-59.0501 Y3.7683 F508.00 
G01 X-58.9371 Y3.8813 
G01 X-58.8042 Y3.9701 
G01 X-58.6566 Y4.0312 
G01 X-58.4999 Y4.0624 
G01 X-58.3401 Y4.0624 
G01 X-58.1834 Y4.0312 
G01 X-58.0358 Y3.9701 
G01 X-57.9029 Y3.8813 
G01 X-57.7899 Y3.7683 
G01 X-57.7011 Y3.6354 
G01 X-57.6400 Y3.4878 
G01 X-57.6088 Y3.3311 
G01 X-57.6088 Y1.7489 
G01 X-57.6400 Y1.5922 
G01 X-57.7011 Y1.4446 
G01 X-57.7899 Y1.3117 
G01 X-57.9029 Y1.1987 
G01 X-58.0358 Y1.1099 
G01 X-58.1834 Y1.0488 
G01 X-58.3401 Y1.0176 
G01 X-58.4999 Y1.0176 
G01 X-58.6566 Y1.0488 
G01 X-58.8042 Y1.1099 
G01 X-58.9371 Y1.1987 
G01 X-59.0501 Y1.3117 
G01 X-59.1389 Y1.4446 
G01 X-59.2000 Y1.5922 
G01 X-59.2312 Y1.7489 
G01 X-59.2312 Y3.1276 
G01 X-60.3916 Y4.2881 
G01 X-60.4619 Y4.3584 
G01 X-63.6416 Y7.5381 
G01 X-63.7119 Y7.6084 
G01 X-63.7500 Y7.7003 
G01 X-63.7500 Y29.0497 
G01 X-63.7119 Y29.1416 
G01 X-63.6416 Y29.2119 
G01 X-63.5497 Y29.2500 
G01 X-63.1428 Y29.2500 
G01 X-63.1428 Y29.2999 
G01 X-63.1077 Y29.4763 
G01 X-63.0389 Y29.6424 
G01 X-62.9390 Y29.7919 
G01 X-62.8119 Y29.9190 
G01 X-62.6624 Y30.0189 
G01 X-62.4963 Y30.0877 
G01 X-62.3199 Y30.1228 
G01 X-62.1401 Y30.1228 
G01 X-61.9637 Y30.0877 
G01 X-61.7976 Y30.0189 
G01 X-61.6481 Y29.9190 
G01 X-61.5210 Y29.7919 
G01 X-61.4211 Y29.6424 
G01 X-61.3523 Y29.4763 
G01 X-61.3172 Y29.2999 
G01 X-61.3172 Y29.1201 
G01 X-61.3523 Y28.9437 
G01 X-61.4211 Y28.7776 
G01 X-61.5210 Y28.6281 
G01 X-61.6481 Y28.5010 
G01 X-61.7976 Y28.4011 
G01 X-61.9637 Y28.3323 
G01 X-62.1401 Y28.2972 
G01 X-62.3199 Y28.2972 
G01 X-62.4963 Y28.3323 
G01 X-62.6624 Y28.4011 
G01 X-62.8119 Y28.5010 
G01 X-62.9390 Y28.6281 
G01 X-63.0205 Y28.7500 
G01 X-63.2500 Y28.7500 
G01 X-63.2500 Y7.8536 
G01 X-60.1464 Y4.7500 
G01 X-36.8536 Y4.7500 
G01 X-36.8189 Y4.7847 
G01 X-36.8346 Y4.8227 
G01 X-36.8580 Y4.9401 
G01 X-36.8580 Y5.0599 
G01 X-36.8346 Y5.1773 
G01 X-36.7888 Y5.2880 
G01 X-36.7223 Y5.3876 
G01 X-36.6376 Y5.4723 
G01 X-36.5380 Y5.5388 
G01 X-36.4273 Y5.5846 
G01 X-36.3099 Y5.6080 
G01 X-36.1901 Y5.6080 
G01 X-36.0727 Y5.5846 
G01 X-35.9620 Y5.5388 
G01 X-35.8624 Y5.4723 
G01 X-35.7777 Y5.3876 
G01 X-35.7112 Y5.2880 
G01 X-35.6654 Y5.1773 
G01 X-35.6420 Y5.0599 
G01 X-35.6420 Y4.9401 
G01 X-35.6654 Y4.8227 
G01 X-35.6811 Y4.7847 
G01 X-35.6464 Y4.7500 
G01 X-25.9503 Y4.7500 
G01 X-25.8584 Y4.7119 
G01 X-24.8220 Y3.6756 
G01 X-24.7601 Y3.7683 
G01 X-24.6471 Y3.8813 
G01 X-24.5142 Y3.9701 
G01 X-24.3666 Y4.0312 
G01 X-24.2099 Y4.0624 
G01 X-24.0501 Y4.0624 
G01 X-23.8934 Y4.0312 
G01 X-23.7458 Y3.9701 
G01 X-23.6129 Y3.8813 
G01 X-23.4999 Y3.7683 
G01 X-23.4111 Y3.6354 
G01 X-23.3500 Y3.4878 
G01 X-23.3188 Y3.3311 
G01 X-23.3188 Y1.7489 
G01 X-23.3500 Y1.5922 
G01 X-23.4111 Y1.4446 
G01 X-23.4999 Y1.3117 
G01 X-23.6129 Y1.1987 
G01 X-23.7458 Y1.1099 
G01 X-23.8934 Y1.0488 
G01 X-24.0501 Y1.0176 
G01 X-24.2099 Y1.0176 
G01 X-24.3666 Y1.0488 
G01 X-24.5142 Y1.1099 
G01 X-24.6471 Y1.1987 
G01 X-24.7601 Y1.3117 
G01 X-24.8489 Y1.4446 
G01 X-24.9100 Y1.5922 
G01 X-24.9412 Y1.7489 
G01 X-24.9412 Y3.0876 
G01 X-26.1036 Y4.2500 
G01 X-35.7997 Y4.2500 
G01 X-35.8916 Y4.2881 
G01 X-35.9619 Y4.3584 
G01 X-36.0347 Y4.4311 
G01 X-36.0727 Y4.4154 
G01 X-36.1901 Y4.3920 
G01 X-36.3099 Y4.3920 
G01 X-36.4273 Y4.4154 
G01 X-36.4653 Y4.4311 
G01 X-36.5381 Y4.3584 
G01 X-36.6084 Y4.2881 
G01 X-36.7003 Y4.2500 
G01 X-59.6465 Y4.2500 
G01 X-59.0960 Y3.6996 
G00 Z2.0000 
G00 X-6.7809 Y4.2382 
G01 Z-0.0250 F254.00 
G01 X-6.8550 Y4.2689 F508.00 
G01 X-6.9117 Y4.3256 
G01 X-6.9424 Y4.3997 
G01 X-6.9424 Y4.4799 
G01 X-6.9117 Y4.5540 
G01 X-6.8550 Y4.6107 
G01 X-6.7809 Y4.6414 
G01 X-5.6549 Y4.6414 
G01 X-5.3832 Y4.9131 
G01 X-5.3832 Y5.7974 
G01 X-6.7809 Y5.7974 
G01 X-6.8550 Y5.8281 
G01 X-6.9117 Y5.8848 
G01 X-6.9424 Y5.9589 
G01 X-6.9424 Y6.0391 
G01 X-6.9117 Y6.1132 
G01 X-6.8550 Y6.1699 
G01 X-6.7809 Y6.2006 
G01 X-5.1415 Y6.2006 
G01 X-5.0674 Y6.1699 
G01 X-5.0107 Y6.1132 
G01 X-4.9800 Y6.0391 
G01 X-4.9800 Y4.7895 
G01 X-5.0107 Y4.7154 
G01 X-5.0674 Y4.6587 
G01 X-5.4572 Y4.2689 
G01 X-5.5313 Y4.2382 
G01 X-5.6115 Y4.2382 
G01 X-6.7809 Y4.2382 
G00 Z2.0000 
G00 X-7.2448 Y3.8311 
G01 Z-0.0250 F254.00 
G01 X-7.1707 Y3.8618 F508.00 
G01 X-7.0905 Y3.8618 
G01 X-7.0164 Y3.8311 
G01 X-6.9597 Y3.7744 
G01 X-6.9290 Y3.7003 
G01 X-6.9290 Y3.6201 
G01 X-6.9597 Y3.5460 
G01 X-7.3188 Y3.1869 
G01 X-7.3188 Y2.5743 
G01 X-7.0471 Y2.3026 
G01 X-6.8243 Y2.3026 
G01 X-6.5526 Y2.5743 
G01 X-6.5526 Y3.3105 
G01 X-6.5219 Y3.3846 
G01 X-6.1321 Y3.7744 
G01 X-6.0754 Y3.8311 
G01 X-6.0013 Y3.8618 
G01 X-5.5313 Y3.8618 
G01 X-5.4572 Y3.8311 
G01 X-5.4538 Y3.8277 
G01 X-5.4005 Y3.7744 
G01 X-5.0674 Y3.4413 
G01 X-5.0107 Y3.3846 
G01 X-4.9800 Y3.3105 
G01 X-4.9800 Y2.4507 
G01 X-5.0107 Y2.3766 
G01 X-5.4572 Y1.9301 
G01 X-5.5313 Y1.8994 
G01 X-5.6115 Y1.8994 
G01 X-5.6856 Y1.9301 
G01 X-5.7423 Y1.9868 
G01 X-5.7730 Y2.0609 
G01 X-5.7730 Y2.1411 
G01 X-5.7423 Y2.2152 
G01 X-5.3832 Y2.5743 
G01 X-5.3832 Y3.1869 
G01 X-5.6549 Y3.4586 
G01 X-5.8777 Y3.4586 
G01 X-6.1494 Y3.1869 
G01 X-6.1494 Y2.4507 
G01 X-6.1801 Y2.3766 
G01 X-6.2368 Y2.3199 
G01 X-6.5699 Y1.9868 
G01 X-6.6266 Y1.9301 
G01 X-6.6986 Y1.9003 
G01 X-7.1707 Y1.8994 
G01 X-7.2448 Y1.9301 
G01 X-7.3015 Y1.9868 
G01 X-7.6346 Y2.3199 
G01 X-7.6879 Y2.3732 
G01 X-7.6913 Y2.3766 
G01 X-7.7220 Y2.4507 
G01 X-7.7220 Y3.3105 
G01 X-7.6913 Y3.3846 
G01 X-7.6346 Y3.4413 
G01 X-7.2448 Y3.8311 
G00 Z2.0000 
G00 X-7.3188 Y6.7385 
G01 Z-0.0250 F254.00 
G01 X-7.3495 Y6.6644 F508.00 
G01 X-7.4062 Y6.6077 
G01 X-7.4803 Y6.5770 
G01 X-7.5605 Y6.5770 
G01 X-7.6346 Y6.6077 
G01 X-7.6913 Y6.6644 
G01 X-7.7220 Y6.7385 
G01 X-7.7220 Y7.2085 
G01 X-7.6913 Y7.2826 
G01 X-7.6346 Y7.3393 
G01 X-7.5605 Y7.3700 
G01 X-5.3832 Y7.3700 
G01 X-5.3832 Y7.5983 
G01 X-5.3525 Y7.6724 
G01 X-5.2958 Y7.7291 
G01 X-5.2217 Y7.7598 
G01 X-5.1415 Y7.7598 
G01 X-5.0674 Y7.7291 
G01 X-5.0107 Y7.6724 
G01 X-4.9800 Y7.5983 
G01 X-4.9800 Y6.7385 
G01 X-5.0107 Y6.6644 
G01 X-5.0674 Y6.6077 
G01 X-5.1415 Y6.5770 
G01 X-5.2217 Y6.5770 
G01 X-5.2958 Y6.6077 
G01 X-5.3525 Y6.6644 
G01 X-5.3832 Y6.7385 
G01 X-5.3832 Y6.9668 
G01 X-7.3188 Y6.9668 
G01 X-7.3188 Y6.7385 
G00 Z2.0000 
G00 X-6.5392 Y8.6875 
G01 Z-0.0250 F254.00 
G01 X-6.5699 Y8.6134 F508.00 
G01 X-6.6266 Y8.5567 
G01 X-6.7007 Y8.5260 
G01 X-6.7809 Y8.5260 
G01 X-6.8550 Y8.5567 
G01 X-6.9117 Y8.6134 
G01 X-6.9424 Y8.6875 
G01 X-6.9424 Y9.5473 
G01 X-6.9117 Y9.6214 
G01 X-6.5219 Y10.0112 
G01 X-6.4652 Y10.0679 
G01 X-6.3911 Y10.0986 
G01 X-5.1415 Y10.0986 
G01 X-5.0674 Y10.0679 
G01 X-5.0107 Y10.0112 
G01 X-4.9800 Y9.9371 
G01 X-4.9800 Y8.6875 
G01 X-5.0107 Y8.6134 
G01 X-5.4563 Y8.1678 
G01 X-5.5313 Y8.1362 
G01 X-5.6115 Y8.1362 
G01 X-5.6856 Y8.1669 
G01 X-5.7423 Y8.2236 
G01 X-6.0754 Y8.5567 
G01 X-6.1321 Y8.6134 
G01 X-6.1628 Y8.6875 
G01 X-6.1628 Y9.6954 
G01 X-6.2675 Y9.6954 
G01 X-6.5392 Y9.4237 
G01 X-6.5392 Y8.6875 
G00 Z2.0000 
G00 X-5.1415 Y10.8782 
G01 Z-0.0250 F254.00 
G01 X-5.0674 Y10.8475 F508.00 
G01 X-5.0107 Y10.7908 
G01 X-4.9800 Y10.7167 
G01 X-4.9800 Y10.6365 
G01 X-5.0107 Y10.5624 
G01 X-5.0674 Y10.5057 
G01 X-5.1415 Y10.4750 
G01 X-6.7809 Y10.4750 
G01 X-6.8550 Y10.5057 
G01 X-6.9117 Y10.5624 
G01 X-6.9424 Y10.6365 
G01 X-6.9424 Y11.1065 
G01 X-6.9117 Y11.1806 
G01 X-6.6361 Y11.4562 
G01 X-6.8550 Y11.6751 
G01 X-6.9117 Y11.7318 
G01 X-6.9424 Y11.8059 
G01 X-6.9424 Y11.8861 
G01 X-6.9117 Y11.9602 
G01 X-6.5219 Y12.3500 
G01 X-6.4652 Y12.4067 
G01 X-6.3911 Y12.4374 
G01 X-5.1415 Y12.4374 
G01 X-5.0674 Y12.4067 
G01 X-5.0107 Y12.3500 
G01 X-4.9800 Y12.2759 
G01 X-4.9800 Y12.1957 
G01 X-5.0107 Y12.1216 
G01 X-5.0674 Y12.0649 
G01 X-5.1415 Y12.0342 
G01 X-6.2675 Y12.0342 
G01 X-6.4557 Y11.8460 
G01 X-6.2675 Y11.6578 
G01 X-5.1415 Y11.6578 
G01 X-5.0674 Y11.6271 
G01 X-5.0107 Y11.5704 
G01 X-4.9800 Y11.4963 
G01 X-4.9800 Y11.4161 
G01 X-5.0107 Y11.3420 
G01 X-5.0674 Y11.2853 
G01 X-5.1415 Y11.2546 
G01 X-6.2675 Y11.2546 
G01 X-6.5392 Y10.9829 
G01 X-6.5392 Y10.8782 
G01 X-5.1415 Y10.8782 
G00 Z2.0000 
G00 X-6.5392 Y13.3651 
G01 Z-0.0250 F254.00 
G01 X-6.5699 Y13.2910 F508.00 
G01 X-6.6266 Y13.2343 
G01 X-6.7007 Y13.2036 
G01 X-6.7809 Y13.2036 
G01 X-6.8550 Y13.2343 
G01 X-6.9117 Y13.2910 
G01 X-6.9424 Y13.3651 
G01 X-6.9424 Y14.2249 
G01 X-6.9117 Y14.2990 
G01 X-6.5219 Y14.6888 
G01 X-6.4652 Y14.7455 
G01 X-6.3911 Y14.7762 
G01 X-5.1415 Y14.7762 
G01 X-5.0674 Y14.7455 
G01 X-5.0107 Y14.6888 
G01 X-4.9800 Y14.6147 
G01 X-4.9800 Y13.3651 
G01 X-5.0107 Y13.2910 
G01 X-5.4572 Y12.8445 
G01 X-5.5313 Y12.8138 
G01 X-5.6115 Y12.8138 
G01 X-5.6856 Y12.8445 
G01 X-5.7423 Y12.9012 
G01 X-6.0754 Y13.2343 
G01 X-6.1321 Y13.2910 
G01 X-6.1628 Y13.3651 
G01 X-6.1628 Y14.3730 
G01 X-6.2675 Y14.3730 
G01 X-6.5392 Y14.1013 
G01 X-6.5392 Y13.3651 
G00 Z2.0000 
G00 X-7.1707 Y15.5424 
G01 Z-0.0250 F254.00 
G01 X-7.2448 Y15.5731 F508.00 
G01 X-7.3015 Y15.6298 
G01 X-7.3322 Y15.7039 
G01 X-7.3322 Y15.7841 
G01 X-7.3015 Y15.8582 
G01 X-7.2448 Y15.9149 
G01 X-7.1707 Y15.9456 
G01 X-6.9424 Y15.9456 
G01 X-6.9424 Y16.1739 
G01 X-6.9117 Y16.2480 
G01 X-6.8550 Y16.3047 
G01 X-6.7809 Y16.3354 
G01 X-6.7007 Y16.3354 
G01 X-6.6266 Y16.3047 
G01 X-6.5699 Y16.2480 
G01 X-6.5392 Y16.1739 
G01 X-6.5392 Y15.9456 
G01 X-5.6549 Y15.9456 
G01 X-5.2958 Y16.3047 
G01 X-5.2217 Y16.3354 
G01 X-5.1415 Y16.3354 
G01 X-5.0674 Y16.3047 
G01 X-5.0107 Y16.2480 
G01 X-4.9800 Y16.1739 
G01 X-4.9800 Y16.0937 
G01 X-5.0107 Y16.0196 
G01 X-5.4005 Y15.6298 
G01 X-5.4538 Y15.5765 
G01 X-5.4572 Y15.5731 
G01 X-5.5313 Y15.5424 
G01 X-6.5392 Y15.5424 
G01 X-6.5392 Y15.3141 
G01 X-6.5699 Y15.2400 
G01 X-6.6266 Y15.1833 
G01 X-6.7007 Y15.1526 
G01 X-6.7809 Y15.1526 
G01 X-6.8550 Y15.1833 
G01 X-6.9117 Y15.2400 
G01 X-6.9424 Y15.3141 
G01 X-6.9424 Y15.5424 
G01 X-7.1707 Y15.5424 
G00 Z2.0000 
G00 X-6.5392 Y16.8733 
G01 Z-0.0250 F254.00 
G01 X-6.5699 Y16.7992 F508.00 
G01 X-6.6266 Y16.7425 
G01 X-6.7007 Y16.7118 
G01 X-6.7809 Y16.7118 
G01 X-6.8550 Y16.7425 
G01 X-6.9117 Y16.7992 
G01 X-6.9424 Y16.8733 
G01 X-6.9424 Y17.3433 
G01 X-6.9117 Y17.4174 
G01 X-6.8550 Y17.4741 
G01 X-6.7809 Y17.5048 
G01 X-5.3832 Y17.5048 
G01 X-5.3832 Y17.7331 
G01 X-5.3525 Y17.8072 
G01 X-5.2958 Y17.8639 
G01 X-5.2217 Y17.8946 
G01 X-5.1415 Y17.8946 
G01 X-5.0674 Y17.8639 
G01 X-5.0107 Y17.8072 
G01 X-4.9800 Y17.7331 
G01 X-4.9800 Y16.8733 
G01 X-5.0107 Y16.7992 
G01 X-5.0674 Y16.7425 
G01 X-5.1415 Y16.7118 
G01 X-5.2217 Y16.7118 
G01 X-5.2958 Y16.7425 
G01 X-5.3525 Y16.7992 
G01 X-5.3832 Y16.8733 
G01 X-5.3832 Y17.1016 
G01 X-6.5392 Y17.1016 
G01 X-6.5392 Y16.8733 
G00 Z2.0000 
G00 X-7.4803 Y17.1016 
G01 Z-0.0250 F254.00 
G01 X-7.9503 Y17.1016 F508.00 
G01 X-8.0244 Y17.1323 
G01 X-8.0811 Y17.1890 
G01 X-8.1118 Y17.2631 
G01 X-8.1118 Y17.3433 
G01 X-8.0811 Y17.4174 
G01 X-8.0244 Y17.4741 
G01 X-7.9503 Y17.5048 
G01 X-7.4803 Y17.5048 
G01 X-7.4062 Y17.4741 
G01 X-7.3495 Y17.4174 
G01 X-7.3188 Y17.3433 
G01 X-7.3188 Y17.2631 
G01 X-7.3495 Y17.1890 
G01 X-7.4062 Y17.1323 
G01 X-7.4803 Y17.1016 
G00 Z2.0000 
G00 X-7.5605 Y18.6742 
G01 Z-0.0250 F254.00 
G01 X-6.3379 Y18.6742 F508.00 
G01 X-6.9308 Y19.5635 
G01 X-6.9463 Y19.6422 
G01 X-6.9306 Y19.7208 
G01 X-6.8860 Y19.7875 
G01 X-6.8193 Y19.8320 
G01 X-6.7406 Y19.8475 
G01 X-6.6619 Y19.8318 
G01 X-6.5953 Y19.7872 
G01 X-5.9612 Y18.8360 
G01 X-5.3271 Y19.7872 
G01 X-5.2605 Y19.8318 
G01 X-5.1818 Y19.8475 
G01 X-5.1031 Y19.8320 
G01 X-5.0364 Y19.7875 
G01 X-4.9918 Y19.7208 
G01 X-4.9760 Y19.6422 
G01 X-4.9916 Y19.5635 
G01 X-5.5845 Y18.6742 
G01 X-5.1415 Y18.6742 
G01 X-5.0674 Y18.6435 
G01 X-5.0107 Y18.5868 
G01 X-4.9800 Y18.5127 
G01 X-4.9800 Y18.4325 
G01 X-5.0107 Y18.3584 
G01 X-5.0674 Y18.3017 
G01 X-5.1415 Y18.2710 
G01 X-5.9412 Y18.2710 
G01 X-5.9610 Y18.2670 
G01 X-5.9812 Y18.2710 
G01 X-7.5605 Y18.2710 
G01 X-7.6346 Y18.3017 
G01 X-7.6913 Y18.3584 
G01 X-7.7220 Y18.4325 
G01 X-7.7220 Y18.5127 
G01 X-7.6913 Y18.5868 
G01 X-7.6346 Y18.6435 
G01 X-7.5605 Y18.6742 
G00 Z2.0000 
G00 X-63.1428 Y36.7401 
G01 Z-0.0250 F254.00 
G01 X-63.1428 Y36.9199 F508.00 
G01 X-63.1077 Y37.0963 
G01 X-63.0389 Y37.2624 
G01 X-62.9390 Y37.4119 
G01 X-62.8119 Y37.5390 
G01 X-62.6624 Y37.6389 
G01 X-62.4963 Y37.7077 
G01 X-62.3199 Y37.7428 
G01 X-62.1401 Y37.7428 
G01 X-61.9637 Y37.7077 
G01 X-61.7976 Y37.6389 
G01 X-61.6481 Y37.5390 
G01 X-61.5210 Y37.4119 
G01 X-61.4211 Y37.2624 
G01 X-61.3523 Y37.0963 
G01 X-61.3172 Y36.9199 
G01 X-61.3172 Y36.7401 
G01 X-61.3523 Y36.5637 
G01 X-61.4211 Y36.3976 
G01 X-61.5210 Y36.2481 
G01 X-61.6481 Y36.1210 
G01 X-61.7976 Y36.0211 
G01 X-61.9637 Y35.9523 
G01 X-62.1401 Y35.9172 
G01 X-62.3199 Y35.9172 
G01 X-62.4963 Y35.9523 
G01 X-62.6624 Y36.0211 
G01 X-62.8119 Y36.1210 
G01 X-62.9390 Y36.2481 
G01 X-63.0389 Y36.3976 
G01 X-63.1077 Y36.5637 
G01 X-63.1428 Y36.7401 
G00 Z2.0000 
G00 X-63.1428 Y26.5801 
G01 Z-0.0250 F254.00 
G01 X-63.1428 Y26.7599 F508.00 
G01 X-63.1077 Y26.9363 
G01 X-63.0389 Y27.1024 
G01 X-62.9390 Y27.2519 
G01 X-62.8119 Y27.3790 
G01 X-62.6624 Y27.4789 
G01 X-62.4963 Y27.5477 
G01 X-62.3199 Y27.5828 
G01 X-62.1401 Y27.5828 
G01 X-61.9637 Y27.5477 
G01 X-61.7976 Y27.4789 
G01 X-61.6481 Y27.3790 
G01 X-61.5210 Y27.2519 
G01 X-61.4211 Y27.1024 
G01 X-61.3523 Y26.9363 
G01 X-61.3172 Y26.7599 
G01 X-61.3172 Y26.5801 
G01 X-61.3523 Y26.4037 
G01 X-61.4211 Y26.2376 
G01 X-61.5210 Y26.0881 
G01 X-61.6481 Y25.9610 
G01 X-61.7500 Y25.8929 
G01 X-61.7500 Y25.8536 
G01 X-60.1464 Y24.2500 
G01 X-57.7003 Y24.2500 
G01 X-57.6084 Y24.2119 
G01 X-57.5381 Y24.1416 
G01 X-52.7153 Y19.3189 
G01 X-52.6773 Y19.3346 
G01 X-52.5599 Y19.3580 
G01 X-52.4401 Y19.3580 
G01 X-52.3227 Y19.3346 
G01 X-52.2120 Y19.2888 
G01 X-52.1124 Y19.2223 
G01 X-52.0277 Y19.1376 
G01 X-51.9612 Y19.0380 
G01 X-51.9154 Y18.9273 
G01 X-51.8920 Y18.8099 
G01 X-51.8920 Y18.6901 
G01 X-51.9154 Y18.5726 
G01 X-51.9612 Y18.4620 
G01 X-52.0277 Y18.3624 
G01 X-52.1124 Y18.2777 
G01 X-52.2120 Y18.2112 
G01 X-52.3227 Y18.1654 
G01 X-52.4401 Y18.1420 
G01 X-52.5599 Y18.1420 
G01 X-52.6773 Y18.1654 
G01 X-52.7880 Y18.2112 
G01 X-52.8876 Y18.2777 
G01 X-52.9723 Y18.3624 
G01 X-53.0388 Y18.4620 
G01 X-53.0846 Y18.5726 
G01 X-53.1080 Y18.6901 
G01 X-53.1080 Y18.8099 
G01 X-53.0846 Y18.9273 
G01 X-53.0689 Y18.9653 
G01 X-57.8536 Y23.7500 
G01 X-60.2997 Y23.7500 
G01 X-60.3916 Y23.7881 
G01 X-62.1416 Y25.5381 
G01 X-62.2119 Y25.6084 
G01 X-62.2500 Y25.7003 
G01 X-62.2500 Y25.7572 
G01 X-62.3199 Y25.7572 
G01 X-62.4963 Y25.7923 
G01 X-62.6624 Y25.8611 
G01 X-62.8119 Y25.9610 
G01 X-62.9390 Y26.0881 
G01 X-63.0389 Y26.2376 
G01 X-63.1077 Y26.4037 
G01 X-63.1428 Y26.5801 
G00 Z2.0000 
G00 X-63.1428 Y24.0401 
G01 Z-0.0250 F254.00 
G01 X-63.1428 Y24.2199 F508.00 
G01 X-63.1077 Y24.3963 
G01 X-63.0389 Y24.5624 
G01 X-62.9390 Y24.7119 
G01 X-62.8119 Y24.8390 
G01 X-62.6624 Y24.9389 
G01 X-62.4963 Y25.0077 
G01 X-62.3199 Y25.0428 
G01 X-62.1401 Y25.0428 
G01 X-61.9637 Y25.0077 
G01 X-61.7976 Y24.9389 
G01 X-61.6481 Y24.8390 
G01 X-61.5210 Y24.7119 
G01 X-61.4211 Y24.5624 
G01 X-61.3523 Y24.3963 
G01 X-61.3172 Y24.2199 
G01 X-61.3172 Y24.0401 
G01 X-61.3523 Y23.8637 
G01 X-61.4211 Y23.6976 
G01 X-61.5210 Y23.5481 
G01 X-61.6481 Y23.4210 
G01 X-61.7976 Y23.3211 
G01 X-61.9637 Y23.2523 
G01 X-62.1401 Y23.2172 
G01 X-62.3199 Y23.2172 
G01 X-62.4963 Y23.2523 
G01 X-62.6624 Y23.3211 
G01 X-62.8119 Y23.4210 
G01 X-62.9390 Y23.5481 
G01 X-63.0389 Y23.6976 
G01 X-63.1077 Y23.8637 
G01 X-63.1428 Y24.0401 
G00 Z2.0000 
G00 X-63.1428 Y21.5001 
G01 Z-0.0250 F254.00 
G01 X-63.1428 Y21.6799 F508.00 
G01 X-63.1077 Y21.8563 
G01 X-63.0389 Y22.0224 
G01 X-62.9390 Y22.1719 
G01 X-62.8119 Y22.2990 
G01 X-62.6624 Y22.3989 
G01 X-62.4963 Y22.4677 
G01 X-62.3199 Y22.5028 
G01 X-62.1401 Y22.5028 
G01 X-61.9637 Y22.4677 
G01 X-61.7976 Y22.3989 
G01 X-61.6481 Y22.2990 
G01 X-61.5210 Y22.1719 
G01 X-61.4211 Y22.0224 
G01 X-61.3523 Y21.8563 
G01 X-61.3172 Y21.6799 
G01 X-61.3172 Y21.5001 
G01 X-61.3523 Y21.3237 
G01 X-61.4211 Y21.1576 
G01 X-61.5210 Y21.0081 
G01 X-61.6481 Y20.8810 
G01 X-61.7976 Y20.7811 
G01 X-61.9637 Y20.7123 
G01 X-62.1401 Y20.6772 
G01 X-62.3199 Y20.6772 
G01 X-62.4963 Y20.7123 
G01 X-62.6624 Y20.7811 
G01 X-62.8119 Y20.8810 
G01 X-62.9390 Y21.0081 
G01 X-63.0389 Y21.1576 
G01 X-63.1077 Y21.3237 
G01 X-63.1428 Y21.5001 
G00 Z2.0000 
G00 X-63.1428 Y18.9601 
G01 Z-0.0250 F254.00 
G01 X-63.1428 Y19.1399 F508.00 
G01 X-63.1077 Y19.3163 
G01 X-63.0389 Y19.4824 
G01 X-62.9390 Y19.6319 
G01 X-62.8119 Y19.7590 
G01 X-62.6624 Y19.8589 
G01 X-62.4963 Y19.9277 
G01 X-62.3199 Y19.9628 
G01 X-62.1401 Y19.9628 
G01 X-61.9637 Y19.9277 
G01 X-61.7976 Y19.8589 
G01 X-61.6481 Y19.7590 
G01 X-61.5210 Y19.6319 
G01 X-61.4211 Y19.4824 
G01 X-61.3523 Y19.3163 
G01 X-61.3172 Y19.1399 
G01 X-61.3172 Y18.9601 
G01 X-61.3523 Y18.7837 
G01 X-61.3751 Y18.7287 
G01 X-60.6464 Y18.0000 
G01 X-46.3580 Y18.0000 
G01 X-46.3580 Y18.0599 
G01 X-46.3346 Y18.1773 
G01 X-46.2888 Y18.2880 
G01 X-46.2223 Y18.3876 
G01 X-46.1376 Y18.4723 
G01 X-46.0380 Y18.5388 
G01 X-45.9273 Y18.5846 
G01 X-45.8099 Y18.6080 
G01 X-45.6901 Y18.6080 
G01 X-45.5727 Y18.5846 
G01 X-45.4620 Y18.5388 
G01 X-45.3624 Y18.4723 
G01 X-45.2777 Y18.3876 
G01 X-45.2112 Y18.2880 
G01 X-45.1654 Y18.1773 
G01 X-45.1420 Y18.0599 
G01 X-45.1420 Y17.9401 
G01 X-45.1654 Y17.8226 
G01 X-45.2112 Y17.7120 
G01 X-45.2777 Y17.6124 
G01 X-45.3624 Y17.5277 
G01 X-45.4620 Y17.4612 
G01 X-45.5727 Y17.4154 
G01 X-45.6901 Y17.3920 
G01 X-45.8099 Y17.3920 
G01 X-45.9273 Y17.4154 
G01 X-46.0380 Y17.4612 
G01 X-46.0961 Y17.5000 
G01 X-60.7997 Y17.5000 
G01 X-60.8916 Y17.5381 
G01 X-61.6759 Y18.3224 
G01 X-61.7976 Y18.2411 
G01 X-61.9637 Y18.1723 
G01 X-62.1401 Y18.1372 
G01 X-62.3199 Y18.1372 
G01 X-62.4963 Y18.1723 
G01 X-62.6624 Y18.2411 
G01 X-62.8119 Y18.3410 
G01 X-62.9390 Y18.4681 
G01 X-63.0389 Y18.6176 
G01 X-63.1077 Y18.7837 
G01 X-63.1428 Y18.9601 
G00 Z2.0000 
G00 X-63.1428 Y16.4201 
G01 Z-0.0250 F254.00 
G01 X-63.1428 Y16.5999 F508.00 
G01 X-63.1077 Y16.7763 
G01 X-63.0389 Y16.9424 
G01 X-62.9390 Y17.0919 
G01 X-62.8119 Y17.2190 
G01 X-62.6624 Y17.3189 
G01 X-62.4963 Y17.3877 
G01 X-62.3199 Y17.4228 
G01 X-62.1401 Y17.4228 
G01 X-61.9637 Y17.3877 
G01 X-61.7976 Y17.3189 
G01 X-61.6481 Y17.2190 
G01 X-61.5210 Y17.0919 
G01 X-61.4211 Y16.9424 
G01 X-61.3523 Y16.7763 
G01 X-61.3172 Y16.5999 
G01 X-61.3172 Y16.4201 
G01 X-61.3523 Y16.2437 
G01 X-61.4211 Y16.0776 
G01 X-61.5210 Y15.9281 
G01 X-61.6481 Y15.8010 
G01 X-61.7976 Y15.7011 
G01 X-61.9637 Y15.6323 
G01 X-62.1401 Y15.5972 
G01 X-62.3199 Y15.5972 
G01 X-62.4963 Y15.6323 
G01 X-62.6624 Y15.7011 
G01 X-62.8119 Y15.8010 
G01 X-62.9390 Y15.9281 
G01 X-63.0389 Y16.0776 
G01 X-63.1077 Y16.2437 
G01 X-63.1428 Y16.4201 
G00 Z2.0000 
G00 X-63.1428 Y13.8801 
G01 Z-0.0250 F254.00 
G01 X-63.1428 Y14.0599 F508.00 
G01 X-63.1077 Y14.2363 
G01 X-63.0389 Y14.4024 
G01 X-62.9390 Y14.5519 
G01 X-62.8119 Y14.6790 
G01 X-62.6624 Y14.7789 
G01 X-62.4963 Y14.8477 
G01 X-62.3199 Y14.8828 
G01 X-62.1401 Y14.8828 
G01 X-61.9637 Y14.8477 
G01 X-61.7976 Y14.7789 
G01 X-61.6481 Y14.6790 
G01 X-61.5210 Y14.5519 
G01 X-61.4211 Y14.4024 
G01 X-61.3523 Y14.2363 
G01 X-61.3172 Y14.0599 
G01 X-61.3172 Y13.8801 
G01 X-61.3523 Y13.7037 
G01 X-61.4211 Y13.5376 
G01 X-61.5210 Y13.3881 
G01 X-61.6481 Y13.2610 
G01 X-61.7976 Y13.1611 
G01 X-61.9637 Y13.0923 
G01 X-62.1401 Y13.0572 
G01 X-62.3199 Y13.0572 
G01 X-62.4963 Y13.0923 
G01 X-62.6624 Y13.1611 
G01 X-62.8119 Y13.2610 
G01 X-62.9390 Y13.3881 
G01 X-63.0389 Y13.5376 
G01 X-63.1077 Y13.7037 
G01 X-63.1428 Y13.8801 
G00 Z2.0000 
G00 X-63.1428 Y8.8001 
G01 Z-0.0250 F254.00 
G01 X-63.1428 Y8.9799 F508.00 
G01 X-63.1077 Y9.1563 
G01 X-63.0389 Y9.3224 
G01 X-62.9390 Y9.4719 
G01 X-62.8119 Y9.5990 
G01 X-62.6624 Y9.6989 
G01 X-62.4963 Y9.7677 
G01 X-62.3199 Y9.8028 
G01 X-62.1401 Y9.8028 
G01 X-61.9637 Y9.7677 
G01 X-61.7976 Y9.6989 
G01 X-61.6481 Y9.5990 
G01 X-61.5210 Y9.4719 
G01 X-61.4211 Y9.3224 
G01 X-61.3523 Y9.1563 
G01 X-61.3172 Y8.9799 
G01 X-61.3172 Y8.8001 
G01 X-61.3523 Y8.6237 
G01 X-61.4015 Y8.5050 
G01 X-59.8964 Y7.0000 
G01 X-46.0961 Y7.0000 
G01 X-46.0380 Y7.0388 
G01 X-45.9273 Y7.0846 
G01 X-45.8099 Y7.1080 
G01 X-45.6901 Y7.1080 
G01 X-45.5727 Y7.0846 
G01 X-45.4620 Y7.0388 
G01 X-45.3624 Y6.9723 
G01 X-45.2777 Y6.8876 
G01 X-45.2112 Y6.7880 
G01 X-45.1654 Y6.6773 
G01 X-45.1420 Y6.5599 
G01 X-45.1420 Y6.4401 
G01 X-45.1654 Y6.3227 
G01 X-45.2112 Y6.2120 
G01 X-45.2777 Y6.1124 
G01 X-45.3624 Y6.0277 
G01 X-45.4620 Y5.9612 
G01 X-45.5727 Y5.9154 
G01 X-45.6901 Y5.8920 
G01 X-45.8099 Y5.8920 
G01 X-45.9273 Y5.9154 
G01 X-46.0380 Y5.9612 
G01 X-46.1376 Y6.0277 
G01 X-46.2223 Y6.1124 
G01 X-46.2888 Y6.2120 
G01 X-46.3346 Y6.3227 
G01 X-46.3580 Y6.4401 
G01 X-46.3580 Y6.5000 
G01 X-60.0497 Y6.5000 
G01 X-60.1416 Y6.5381 
G01 X-61.7299 Y8.1263 
G01 X-61.7976 Y8.0811 
G01 X-61.9637 Y8.0123 
G01 X-62.1401 Y7.9772 
G01 X-62.3199 Y7.9772 
G01 X-62.4963 Y8.0123 
G01 X-62.6624 Y8.0811 
G01 X-62.8119 Y8.1810 
G01 X-62.9390 Y8.3081 
G01 X-63.0389 Y8.4576 
G01 X-63.1077 Y8.6237 
G01 X-63.1428 Y8.8001 
G00 Z2.0000 
G00 X-47.9028 Y8.8001 
G01 Z-0.0250 F254.00 
G01 X-47.9028 Y8.9799 F508.00 
G01 X-47.8677 Y9.1563 
G01 X-47.7989 Y9.3224 
G01 X-47.6990 Y9.4719 
G01 X-47.5719 Y9.5990 
G01 X-47.4224 Y9.6989 
G01 X-47.2563 Y9.7677 
G01 X-47.0799 Y9.8028 
G01 X-46.9001 Y9.8028 
G01 X-46.7237 Y9.7677 
G01 X-46.5576 Y9.6989 
G01 X-46.4081 Y9.5990 
G01 X-46.2810 Y9.4719 
G01 X-46.1811 Y9.3224 
G01 X-46.1123 Y9.1563 
G01 X-46.0812 Y9.0000 
G01 X-25.2003 Y9.0000 
G01 X-25.1084 Y8.9619 
G01 X-25.0381 Y8.8916 
G01 X-19.7727 Y3.6262 
G01 X-19.7689 Y3.6354 
G01 X-19.6801 Y3.7683 
G01 X-19.5671 Y3.8813 
G01 X-19.4342 Y3.9701 
G01 X-19.2866 Y4.0312 
G01 X-19.1299 Y4.0624 
G01 X-18.9701 Y4.0624 
G01 X-18.8134 Y4.0312 
G01 X-18.6657 Y3.9701 
G01 X-18.5329 Y3.8813 
G01 X-18.4199 Y3.7683 
G01 X-18.3311 Y3.6354 
G01 X-18.2700 Y3.4878 
G01 X-18.2388 Y3.3311 
G01 X-18.2388 Y1.7489 
G01 X-18.2700 Y1.5922 
G01 X-18.3311 Y1.4446 
G01 X-18.4199 Y1.3117 
G01 X-18.5329 Y1.1987 
G01 X-18.6657 Y1.1099 
G01 X-18.8134 Y1.0488 
G01 X-18.9701 Y1.0176 
G01 X-19.1299 Y1.0176 
G01 X-19.2866 Y1.0488 
G01 X-19.4342 Y1.1099 
G01 X-19.5671 Y1.1987 
G01 X-19.6801 Y1.3117 
G01 X-19.7689 Y1.4446 
G01 X-19.8300 Y1.5922 
G01 X-19.8612 Y1.7489 
G01 X-19.8612 Y3.0076 
G01 X-25.3536 Y8.5000 
G01 X-46.1635 Y8.5000 
G01 X-46.1811 Y8.4576 
G01 X-46.2810 Y8.3081 
G01 X-46.4081 Y8.1810 
G01 X-46.5576 Y8.0811 
G01 X-46.7237 Y8.0123 
G01 X-46.9001 Y7.9772 
G01 X-47.0799 Y7.9772 
G01 X-47.2563 Y8.0123 
G01 X-47.4224 Y8.0811 
G01 X-47.5719 Y8.1810 
G01 X-47.6990 Y8.3081 
G01 X-47.7989 Y8.4576 
G01 X-47.8677 Y8.6237 
G01 X-47.9028 Y8.8001 
G00 Z2.0000 
G00 X-47.9028 Y11.3401 
G01 Z-0.0250 F254.00 
G01 X-47.9028 Y11.5199 F508.00 
G01 X-47.8677 Y11.6963 
G01 X-47.7989 Y11.8624 
G01 X-47.6990 Y12.0119 
G01 X-47.5719 Y12.1390 
G01 X-47.4224 Y12.2389 
G01 X-47.2563 Y12.3077 
G01 X-47.0799 Y12.3428 
G01 X-46.9001 Y12.3428 
G01 X-46.7237 Y12.3077 
G01 X-46.5576 Y12.2389 
G01 X-46.4081 Y12.1390 
G01 X-46.2810 Y12.0119 
G01 X-46.1811 Y11.8624 
G01 X-46.1123 Y11.6963 
G01 X-46.0772 Y11.5199 
G01 X-46.0772 Y11.5000 
G01 X-25.2003 Y11.5000 
G01 X-25.1084 Y11.4619 
G01 X-25.0381 Y11.3916 
G01 X-17.2444 Y3.5980 
G01 X-17.2289 Y3.6354 
G01 X-17.1401 Y3.7683 
G01 X-17.0271 Y3.8813 
G01 X-16.8942 Y3.9701 
G01 X-16.7466 Y4.0312 
G01 X-16.5899 Y4.0624 
G01 X-16.4301 Y4.0624 
G01 X-16.2734 Y4.0312 
G01 X-16.1258 Y3.9701 
G01 X-15.9929 Y3.8813 
G01 X-15.8799 Y3.7683 
G01 X-15.7911 Y3.6354 
G01 X-15.7300 Y3.4878 
G01 X-15.6988 Y3.3311 
G01 X-15.6988 Y1.7489 
G01 X-15.7300 Y1.5922 
G01 X-15.7911 Y1.4446 
G01 X-15.8799 Y1.3117 
G01 X-15.9929 Y1.1987 
G01 X-16.1258 Y1.1099 
G01 X-16.2734 Y1.0488 
G01 X-16.4301 Y1.0176 
G01 X-16.5899 Y1.0176 
G01 X-16.7466 Y1.0488 
G01 X-16.8942 Y1.1099 
G01 X-17.0271 Y1.1987 
G01 X-17.1401 Y1.3117 
G01 X-17.2289 Y1.4446 
G01 X-17.2900 Y1.5922 
G01 X-17.3212 Y1.7489 
G01 X-17.3212 Y2.9676 
G01 X-25.3536 Y11.0000 
G01 X-46.1801 Y11.0000 
G01 X-46.2810 Y10.8481 
G01 X-46.4081 Y10.7210 
G01 X-46.5576 Y10.6211 
G01 X-46.7237 Y10.5523 
G01 X-46.9001 Y10.5172 
G01 X-47.0799 Y10.5172 
G01 X-47.2563 Y10.5523 
G01 X-47.4224 Y10.6211 
G01 X-47.5719 Y10.7210 
G01 X-47.6990 Y10.8481 
G01 X-47.7989 Y10.9976 
G01 X-47.8677 Y11.1637 
G01 X-47.9028 Y11.3401 
G00 Z2.0000 
G00 X-47.9028 Y13.8801 
G01 Z-0.0250 F254.00 
G01 X-47.9028 Y14.0599 F508.00 
G01 X-47.8677 Y14.2363 
G01 X-47.7989 Y14.4024 
G01 X-47.6990 Y14.5519 
G01 X-47.5719 Y14.6790 
G01 X-47.4224 Y14.7789 
G01 X-47.2563 Y14.8477 
G01 X-47.0799 Y14.8828 
G01 X-46.9001 Y14.8828 
G01 X-46.7237 Y14.8477 
G01 X-46.5576 Y14.7789 
G01 X-46.4081 Y14.6790 
G01 X-46.2810 Y14.5519 
G01 X-46.1811 Y14.4024 
G01 X-46.1123 Y14.2363 
G01 X-46.0772 Y14.0599 
G01 X-46.0772 Y14.0000 
G01 X-15.9503 Y14.0000 
G01 X-15.8584 Y13.9619 
G01 X-15.7881 Y13.8916 
G01 X-15.7500 Y13.7997 
G01 X-15.7500 Y6.3536 
G01 X-13.7881 Y4.3916 
G01 X-13.7500 Y4.2997 
G01 X-13.7500 Y4.0345 
G01 X-13.7334 Y4.0312 
G01 X-13.5858 Y3.9701 
G01 X-13.4529 Y3.8813 
G01 X-13.3399 Y3.7683 
G01 X-13.2511 Y3.6354 
G01 X-13.1900 Y3.4878 
G01 X-13.1588 Y3.3311 
G01 X-13.1588 Y1.7489 
G01 X-13.1900 Y1.5922 
G01 X-13.2511 Y1.4446 
G01 X-13.3399 Y1.3117 
G01 X-13.4529 Y1.1987 
G01 X-13.5858 Y1.1099 
G01 X-13.7334 Y1.0488 
G01 X-13.8901 Y1.0176 
G01 X-14.0499 Y1.0176 
G01 X-14.2066 Y1.0488 
G01 X-14.3542 Y1.1099 
G01 X-14.4871 Y1.1987 
G01 X-14.6001 Y1.3117 
G01 X-14.6889 Y1.4446 
G01 X-14.7500 Y1.5922 
G01 X-14.7812 Y1.7489 
G01 X-14.7812 Y3.3311 
G01 X-14.7500 Y3.4878 
G01 X-14.6889 Y3.6354 
G01 X-14.6001 Y3.7683 
G01 X-14.4871 Y3.8813 
G01 X-14.3542 Y3.9701 
G01 X-14.2500 Y4.0133 
G01 X-14.2500 Y4.1464 
G01 X-16.1416 Y6.0381 
G01 X-16.2119 Y6.1084 
G01 X-16.2500 Y6.2003 
G01 X-16.2500 Y13.5000 
G01 X-46.2062 Y13.5000 
G01 X-46.2810 Y13.3881 
G01 X-46.4081 Y13.2610 
G01 X-46.5576 Y13.1611 
G01 X-46.7237 Y13.0923 
G01 X-46.9001 Y13.0572 
G01 X-47.0799 Y13.0572 
G01 X-47.2563 Y13.0923 
G01 X-47.4224 Y13.1611 
G01 X-47.5719 Y13.2610 
G01 X-47.6990 Y13.3881 
G01 X-47.7989 Y13.5376 
G01 X-47.8677 Y13.7037 
G01 X-47.9028 Y13.8801 
G00 Z2.0000 
G00 X-47.9028 Y16.4201 
G01 Z-0.0250 F254.00 
G01 X-47.9028 Y16.5999 F508.00 
G01 X-47.8677 Y16.7763 
G01 X-47.7989 Y16.9424 
G01 X-47.6990 Y17.0919 
G01 X-47.5719 Y17.2190 
G01 X-47.4224 Y17.3189 
G01 X-47.2563 Y17.3877 
G01 X-47.0799 Y17.4228 
G01 X-46.9001 Y17.4228 
G01 X-46.7237 Y17.3877 
G01 X-46.5576 Y17.3189 
G01 X-46.4081 Y17.2190 
G01 X-46.2810 Y17.0919 
G01 X-46.1811 Y16.9424 
G01 X-46.1123 Y16.7763 
G01 X-46.1071 Y16.7500 
G01 X-17.7003 Y16.7500 
G01 X-17.6084 Y16.7119 
G01 X-17.5381 Y16.6416 
G01 X-12.3964 Y11.5000 
G01 X-11.4503 Y11.5000 
G01 X-11.3584 Y11.4619 
G01 X-11.2881 Y11.3916 
G01 X-11.2500 Y11.2997 
G01 X-11.2500 Y4.0425 
G01 X-11.1934 Y4.0312 
G01 X-11.0457 Y3.9701 
G01 X-10.9129 Y3.8813 
G01 X-10.7999 Y3.7683 
G01 X-10.7111 Y3.6354 
G01 X-10.6500 Y3.4878 
G01 X-10.6188 Y3.3311 
G01 X-10.6188 Y1.7489 
G01 X-10.6500 Y1.5922 
G01 X-10.7111 Y1.4446 
G01 X-10.7999 Y1.3117 
G01 X-10.9129 Y1.1987 
G01 X-11.0457 Y1.1099 
G01 X-11.1934 Y1.0488 
G01 X-11.3501 Y1.0176 
G01 X-11.5099 Y1.0176 
G01 X-11.6666 Y1.0488 
G01 X-11.8142 Y1.1099 
G01 X-11.9471 Y1.1987 
G01 X-12.0601 Y1.3117 
G01 X-12.1489 Y1.4446 
G01 X-12.2100 Y1.5922 
G01 X-12.2412 Y1.7489 
G01 X-12.2412 Y3.3311 
G01 X-12.2100 Y3.4878 
G01 X-12.1489 Y3.6354 
G01 X-12.0601 Y3.7683 
G01 X-11.9471 Y3.8813 
G01 X-11.8142 Y3.9701 
G01 X-11.7500 Y3.9967 
G01 X-11.7500 Y11.0000 
G01 X-12.5497 Y11.0000 
G01 X-12.6416 Y11.0381 
G01 X-17.8536 Y16.2500 
G01 X-46.1110 Y16.2500 
G01 X-46.1123 Y16.2437 
G01 X-46.1811 Y16.0776 
G01 X-46.2810 Y15.9281 
G01 X-46.4081 Y15.8010 
G01 X-46.5576 Y15.7011 
G01 X-46.7237 Y15.6323 
G01 X-46.9001 Y15.5972 
G01 X-47.0799 Y15.5972 
G01 X-47.2563 Y15.6323 
G01 X-47.4224 Y15.7011 
G01 X-47.5719 Y15.8010 
G01 X-47.6990 Y15.9281 
G01 X-47.7989 Y16.0776 
G01 X-47.8677 Y16.2437 
G01 X-47.9028 Y16.4201 
G00 Z2.0000 
G00 X-47.9028 Y18.9601 
G01 Z-0.0250 F254.00 
G01 X-47.9028 Y19.1399 F508.00 
G01 X-47.8677 Y19.3163 
G01 X-47.7989 Y19.4824 
G01 X-47.6990 Y19.6319 
G01 X-47.5719 Y19.7590 
G01 X-47.4224 Y19.8589 
G01 X-47.2563 Y19.9277 
G01 X-47.0799 Y19.9628 
G01 X-46.9001 Y19.9628 
G01 X-46.7237 Y19.9277 
G01 X-46.5576 Y19.8589 
G01 X-46.4081 Y19.7590 
G01 X-46.2810 Y19.6319 
G01 X-46.1811 Y19.4824 
G01 X-46.1123 Y19.3163 
G01 X-46.0991 Y19.2500 
G01 X-33.5545 Y19.2500 
G01 X-33.5388 Y19.2880 
G01 X-33.4723 Y19.3876 
G01 X-33.3876 Y19.4723 
G01 X-33.2880 Y19.5388 
G01 X-33.1773 Y19.5846 
G01 X-33.0599 Y19.6080 
G01 X-32.9401 Y19.6080 
G01 X-32.8227 Y19.5846 
G01 X-32.7120 Y19.5388 
G01 X-32.6124 Y19.4723 
G01 X-32.5277 Y19.3876 
G01 X-32.4612 Y19.2880 
G01 X-32.4455 Y19.2500 
G01 X-19.9503 Y19.2500 
G01 X-19.8584 Y19.2119 
G01 X-19.7881 Y19.1416 
G01 X-18.7153 Y18.0689 
G01 X-18.6773 Y18.0846 
G01 X-18.5599 Y18.1080 
G01 X-18.4401 Y18.1080 
G01 X-18.3226 Y18.0846 
G01 X-18.2120 Y18.0388 
G01 X-18.1124 Y17.9723 
G01 X-18.0277 Y17.8876 
G01 X-17.9612 Y17.7880 
G01 X-17.9154 Y17.6773 
G01 X-17.8920 Y17.5599 
G01 X-17.8920 Y17.4401 
G01 X-17.9154 Y17.3226 
G01 X-17.9612 Y17.2120 
G01 X-18.0277 Y17.1124 
G01 X-18.1124 Y17.0277 
G01 X-18.2120 Y16.9612 
G01 X-18.3226 Y16.9154 
G01 X-18.4401 Y16.8920 
G01 X-18.5599 Y16.8920 
G01 X-18.6773 Y16.9154 
G01 X-18.7880 Y16.9612 
G01 X-18.8876 Y17.0277 
G01 X-18.9723 Y17.1124 
G01 X-19.0388 Y17.2120 
G01 X-19.0846 Y17.3226 
G01 X-19.1080 Y17.4401 
G01 X-19.1080 Y17.5599 
G01 X-19.0846 Y17.6773 
G01 X-19.0689 Y17.7153 
G01 X-20.1036 Y18.7500 
G01 X-32.4455 Y18.7500 
G01 X-32.4612 Y18.7120 
G01 X-32.5277 Y18.6124 
G01 X-32.6124 Y18.5277 
G01 X-32.7120 Y18.4612 
G01 X-32.8227 Y18.4154 
G01 X-32.9401 Y18.3920 
G01 X-33.0599 Y18.3920 
G01 X-33.1773 Y18.4154 
G01 X-33.2880 Y18.4612 
G01 X-33.3876 Y18.5277 
G01 X-33.4723 Y18.6124 
G01 X-33.5388 Y18.7120 
G01 X-33.5545 Y18.7500 
G01 X-46.1263 Y18.7500 
G01 X-46.1811 Y18.6176 
G01 X-46.2810 Y18.4681 
G01 X-46.4081 Y18.3410 
G01 X-46.5576 Y18.2411 
G01 X-46.7237 Y18.1723 
G01 X-46.9001 Y18.1372 
G01 X-47.0799 Y18.1372 
G01 X-47.2563 Y18.1723 
G01 X-47.4224 Y18.2411 
G01 X-47.5719 Y18.3410 
G01 X-47.6990 Y18.4681 
G01 X-47.7989 Y18.6176 
G01 X-47.8677 Y18.7837 
G01 X-47.9028 Y18.9601 
G00 Z2.0000 
G00 X-47.9028 Y21.5001 
G01 Z-0.0250 F254.00 
G01 X-47.9028 Y21.6799 F508.00 
G01 X-47.8677 Y21.8563 
G01 X-47.7989 Y22.0224 
G01 X-47.6990 Y22.1719 
G01 X-47.5719 Y22.2990 
G01 X-47.4224 Y22.3989 
G01 X-47.2563 Y22.4677 
G01 X-47.0799 Y22.5028 
G01 X-46.9001 Y22.5028 
G01 X-46.7237 Y22.4677 
G01 X-46.5576 Y22.3989 
G01 X-46.4081 Y22.2990 
G01 X-46.2810 Y22.1719 
G01 X-46.1811 Y22.0224 
G01 X-46.1718 Y22.0000 
G01 X-13.2500 Y22.0000 
G01 X-13.2500 Y31.5000 
G01 X-20.5497 Y31.5000 
G01 X-20.6416 Y31.5381 
G01 X-21.5516 Y32.4480 
G01 X-21.6038 Y32.4101 
G01 X-21.7497 Y32.3358 
G01 X-21.9053 Y32.2852 
G01 X-22.0670 Y32.2596 
G01 X-22.2306 Y32.2596 
G01 X-22.3923 Y32.2852 
G01 X-22.5479 Y32.3358 
G01 X-22.6938 Y32.4101 
G01 X-22.8262 Y32.5063 
G01 X-22.9419 Y32.6220 
G01 X-23.0381 Y32.7544 
G01 X-23.1124 Y32.9003 
G01 X-23.1630 Y33.0559 
G01 X-23.1886 Y33.2176 
G01 X-23.1886 Y33.3812 
G01 X-23.1630 Y33.5429 
G01 X-23.1124 Y33.6985 
G01 X-23.0381 Y33.8444 
G01 X-22.9419 Y33.9768 
G01 X-22.8262 Y34.0925 
G01 X-22.6938 Y34.1887 
G01 X-22.5479 Y34.2630 
G01 X-22.3923 Y34.3136 
G01 X-22.2306 Y34.3392 
G01 X-22.0670 Y34.3392 
G01 X-21.9053 Y34.3136 
G01 X-21.7497 Y34.2630 
G01 X-21.6038 Y34.1887 
G01 X-21.4714 Y34.0925 
G01 X-21.3557 Y33.9768 
G01 X-21.2595 Y33.8444 
G01 X-21.1852 Y33.6985 
G01 X-21.1346 Y33.5429 
G01 X-21.1090 Y33.3812 
G01 X-21.1090 Y33.2176 
G01 X-21.1346 Y33.0559 
G01 X-21.1852 Y32.9003 
G01 X-21.2228 Y32.8264 
G01 X-20.3964 Y32.0000 
G01 X-12.9503 Y32.0000 
G01 X-12.8584 Y31.9619 
G01 X-12.7881 Y31.8916 
G01 X-12.7500 Y31.7997 
G01 X-12.7500 Y20.8045 
G01 X-12.7120 Y20.7888 
G01 X-12.6124 Y20.7223 
G01 X-12.5277 Y20.6376 
G01 X-12.4612 Y20.5380 
G01 X-12.4154 Y20.4273 
G01 X-12.3920 Y20.3099 
G01 X-12.3920 Y20.1901 
G01 X-12.4154 Y20.0726 
G01 X-12.4612 Y19.9620 
G01 X-12.5277 Y19.8624 
G01 X-12.6124 Y19.7777 
G01 X-12.7120 Y19.7112 
G01 X-12.8227 Y19.6654 
G01 X-12.9401 Y19.6420 
G01 X-13.0599 Y19.6420 
G01 X-13.1773 Y19.6654 
G01 X-13.2880 Y19.7112 
G01 X-13.3876 Y19.7777 
G01 X-13.4723 Y19.8624 
G01 X-13.5388 Y19.9620 
G01 X-13.5846 Y20.0726 
G01 X-13.6080 Y20.1901 
G01 X-13.6080 Y20.3099 
G01 X-13.5846 Y20.4273 
G01 X-13.5388 Y20.5380 
G01 X-13.4723 Y20.6376 
G01 X-13.3876 Y20.7223 
G01 X-13.2880 Y20.7888 
G01 X-13.2500 Y20.8045 
G01 X-13.2500 Y21.5000 
G01 X-46.0772 Y21.5000 
G01 X-46.1123 Y21.3237 
G01 X-46.1811 Y21.1576 
G01 X-46.2810 Y21.0081 
G01 X-46.4081 Y20.8810 
G01 X-46.5576 Y20.7811 
G01 X-46.7237 Y20.7123 
G01 X-46.9001 Y20.6772 
G01 X-47.0799 Y20.6772 
G01 X-47.2563 Y20.7123 
G01 X-47.4224 Y20.7811 
G01 X-47.5719 Y20.8810 
G01 X-47.6990 Y21.0081 
G01 X-47.7989 Y21.1576 
G01 X-47.8677 Y21.3237 
G01 X-47.9028 Y21.5001 
G00 Z2.0000 
G00 X-47.9028 Y24.0401 
G01 Z-0.0250 F254.00 
G01 X-47.9028 Y24.2199 F508.00 
G01 X-47.8677 Y24.3963 
G01 X-47.7989 Y24.5624 
G01 X-47.6990 Y24.7119 
G01 X-47.5719 Y24.8390 
G01 X-47.4224 Y24.9389 
G01 X-47.2563 Y25.0077 
G01 X-47.0799 Y25.0428 
G01 X-46.9001 Y25.0428 
G01 X-46.7237 Y25.0077 
G01 X-46.5576 Y24.9389 
G01 X-46.4081 Y24.8390 
G01 X-46.2810 Y24.7119 
G01 X-46.1811 Y24.5624 
G01 X-46.1123 Y24.3963 
G01 X-46.0772 Y24.2199 
G01 X-46.0772 Y24.0401 
G01 X-46.1123 Y23.8637 
G01 X-46.1811 Y23.6976 
G01 X-46.2810 Y23.5481 
G01 X-46.4081 Y23.4210 
G01 X-46.5576 Y23.3211 
G01 X-46.7237 Y23.2523 
G01 X-46.9001 Y23.2172 
G01 X-47.0799 Y23.2172 
G01 X-47.2563 Y23.2523 
G01 X-47.4224 Y23.3211 
G01 X-47.5719 Y23.4210 
G01 X-47.6990 Y23.5481 
G01 X-47.7989 Y23.6976 
G01 X-47.8677 Y23.8637 
G01 X-47.9028 Y24.0401 
G00 Z2.0000 
G00 X-47.9028 Y29.2999 
G01 Z-0.0250 F254.00 
G01 X-47.8677 Y29.4763 F508.00 
G01 X-47.7989 Y29.6424 
G01 X-47.6990 Y29.7919 
G01 X-47.5719 Y29.9190 
G01 X-47.4224 Y30.0189 
G01 X-47.2563 Y30.0877 
G01 X-47.0799 Y30.1228 
G01 X-46.9001 Y30.1228 
G01 X-46.7237 Y30.0877 
G01 X-46.5576 Y30.0189 
G01 X-46.4081 Y29.9190 
G01 X-46.2810 Y29.7919 
G01 X-46.1811 Y29.6424 
G01 X-46.1123 Y29.4763 
G01 X-46.0772 Y29.2999 
G01 X-46.0772 Y29.1201 
G01 X-46.1123 Y28.9437 
G01 X-46.1811 Y28.7776 
G01 X-46.2810 Y28.6281 
G01 X-46.4081 Y28.5010 
G01 X-46.5576 Y28.4011 
G01 X-46.7237 Y28.3323 
G01 X-46.9001 Y28.2972 
G01 X-47.0799 Y28.2972 
G01 X-47.2563 Y28.3323 
G01 X-47.4224 Y28.4011 
G01 X-47.5719 Y28.5010 
G01 X-47.6990 Y28.6281 
G01 X-47.7805 Y28.7500 
G01 X-49.6955 Y28.7500 
G01 X-49.7112 Y28.7120 
G01 X-49.7777 Y28.6124 
G01 X-49.8624 Y28.5277 
G01 X-49.9620 Y28.4612 
G01 X-50.0727 Y28.4154 
G01 X-50.1901 Y28.3920 
G01 X-50.3099 Y28.3920 
G01 X-50.4273 Y28.4154 
G01 X-50.5380 Y28.4612 
G01 X-50.6376 Y28.5277 
G01 X-50.7223 Y28.6124 
G01 X-50.7888 Y28.7120 
G01 X-50.8346 Y28.8227 
G01 X-50.8580 Y28.9401 
G01 X-50.8580 Y29.0599 
G01 X-50.8346 Y29.1773 
G01 X-50.8189 Y29.2153 
G01 X-51.8536 Y30.2500 
G01 X-64.0000 Y30.2500 
G01 X-64.0000 Y7.6036 
G01 X-60.7881 Y4.3916 
G01 X-60.7500 Y4.2997 
G01 X-60.7500 Y4.0365 
G01 X-60.7234 Y4.0312 
G01 X-60.5758 Y3.9701 
G01 X-60.4429 Y3.8813 
G01 X-60.3299 Y3.7683 
G01 X-60.2411 Y3.6354 
G01 X-60.1800 Y3.4878 
G01 X-60.1488 Y3.3311 
G01 X-60.1488 Y1.7489 
G01 X-60.1800 Y1.5922 
G01 X-60.2411 Y1.4446 
G01 X-60.3299 Y1.3117 
G01 X-60.4429 Y1.1987 
G01 X-60.5758 Y1.1099 
G01 X-60.7234 Y1.0488 
G01 X-60.8801 Y1.0176 
G01 X-61.0399 Y1.0176 
G01 X-61.1966 Y1.0488 
G01 X-61.3442 Y1.1099 
G01 X-61.4771 Y1.1987 
G01 X-61.5901 Y1.3117 
G01 X-61.6789 Y1.4446 
G01 X-61.7400 Y1.5922 
G01 X-61.7712 Y1.7489 
G01 X-61.7712 Y3.3311 
G01 X-61.7400 Y3.4878 
G01 X-61.6789 Y3.6354 
G01 X-61.5901 Y3.7683 
G01 X-61.4771 Y3.8813 
G01 X-61.3442 Y3.9701 
G01 X-61.2500 Y4.0091 
G01 X-61.2500 Y4.1464 
G01 X-64.3916 Y7.2881 
G01 X-64.4619 Y7.3584 
G01 X-64.5000 Y7.4503 
G01 X-64.5000 Y34.2997 
G01 X-64.4619 Y34.3916 
G01 X-64.3916 Y34.4619 
G01 X-64.2997 Y34.5000 
G01 X-63.1189 Y34.5000 
G01 X-63.1077 Y34.5563 
G01 X-63.0389 Y34.7224 
G01 X-62.9390 Y34.8719 
G01 X-62.8119 Y34.9990 
G01 X-62.6624 Y35.0989 
G01 X-62.4963 Y35.1677 
G01 X-62.3199 Y35.2028 
G01 X-62.1401 Y35.2028 
G01 X-61.9637 Y35.1677 
G01 X-61.7976 Y35.0989 
G01 X-61.6481 Y34.9990 
G01 X-61.5210 Y34.8719 
G01 X-61.4211 Y34.7224 
G01 X-61.3523 Y34.5563 
G01 X-61.3172 Y34.3799 
G01 X-61.3172 Y34.2001 
G01 X-61.3523 Y34.0237 
G01 X-61.4211 Y33.8576 
G01 X-61.5210 Y33.7081 
G01 X-61.6481 Y33.5810 
G01 X-61.7976 Y33.4811 
G01 X-61.9637 Y33.4123 
G01 X-62.1401 Y33.3772 
G01 X-62.3199 Y33.3772 
G01 X-62.4963 Y33.4123 
G01 X-62.6624 Y33.4811 
G01 X-62.8119 Y33.5810 
G01 X-62.9390 Y33.7081 
G01 X-63.0389 Y33.8576 
G01 X-63.0979 Y34.0000 
G01 X-64.0000 Y34.0000 
G01 X-64.0000 Y30.7500 
G01 X-51.7003 Y30.7500 
G01 X-51.6084 Y30.7119 
G01 X-51.5381 Y30.6416 
G01 X-50.4653 Y29.5689 
G01 X-50.4273 Y29.5846 
G01 X-50.3099 Y29.6080 
G01 X-50.1901 Y29.6080 
G01 X-50.0727 Y29.5846 
G01 X-49.9620 Y29.5388 
G01 X-49.8624 Y29.4723 
G01 X-49.7777 Y29.3876 
G01 X-49.7112 Y29.2880 
G01 X-49.6955 Y29.2500 
G01 X-47.9028 Y29.2500 
G01 X-47.9028 Y29.2999 
G00 Z2.0000 
G00 X-47.8677 Y32.0163 
G01 Z-0.0250 F254.00 
G01 X-47.7989 Y32.1824 F508.00 
G01 X-47.6990 Y32.3319 
G01 X-47.5719 Y32.4590 
G01 X-47.4224 Y32.5589 
G01 X-47.2563 Y32.6277 
G01 X-47.0799 Y32.6628 
G01 X-46.9001 Y32.6628 
G01 X-46.7237 Y32.6277 
G01 X-46.5576 Y32.5589 
G01 X-46.4081 Y32.4590 
G01 X-46.2810 Y32.3319 
G01 X-46.1811 Y32.1824 
G01 X-46.1123 Y32.0163 
G01 X-46.0772 Y31.8399 
G01 X-46.0772 Y31.6601 
G01 X-46.1123 Y31.4837 
G01 X-46.1811 Y31.3176 
G01 X-46.2810 Y31.1681 
G01 X-46.4081 Y31.0410 
G01 X-46.5576 Y30.9411 
G01 X-46.7237 Y30.8723 
G01 X-46.9001 Y30.8372 
G01 X-47.0799 Y30.8372 
G01 X-47.2563 Y30.8723 
G01 X-47.4224 Y30.9411 
G01 X-47.5719 Y31.0410 
G01 X-47.6990 Y31.1681 
G01 X-47.7989 Y31.3176 
G01 X-47.8677 Y31.4837 
G01 X-47.8710 Y31.5000 
G01 X-61.3490 Y31.5000 
G01 X-61.3523 Y31.4837 
G01 X-61.4211 Y31.3176 
G01 X-61.5210 Y31.1681 
G01 X-61.6481 Y31.0410 
G01 X-61.7976 Y30.9411 
G01 X-61.9637 Y30.8723 
G01 X-62.1401 Y30.8372 
G01 X-62.3199 Y30.8372 
G01 X-62.4963 Y30.8723 
G01 X-62.6624 Y30.9411 
G01 X-62.8119 Y31.0410 
G01 X-62.9390 Y31.1681 
G01 X-63.0389 Y31.3176 
G01 X-63.1077 Y31.4837 
G01 X-63.1428 Y31.6601 
G01 X-63.1428 Y31.8399 
G01 X-63.1077 Y32.0163 
G01 X-63.0389 Y32.1824 
G01 X-62.9390 Y32.3319 
G01 X-62.8119 Y32.4590 
G01 X-62.6624 Y32.5589 
G01 X-62.4963 Y32.6277 
G01 X-62.3199 Y32.6628 
G01 X-62.1401 Y32.6628 
G01 X-61.9637 Y32.6277 
G01 X-61.7976 Y32.5589 
G01 X-61.6481 Y32.4590 
G01 X-61.5210 Y32.3319 
G01 X-61.4211 Y32.1824 
G01 X-61.3523 Y32.0163 
G01 X-61.3490 Y32.0000 
G01 X-47.8710 Y32.0000 
G01 X-47.8677 Y32.0163 
G00 Z2.0000 
G00 X-47.9028 Y34.2001 
G01 Z-0.0250 F254.00 
G01 X-47.9028 Y34.3799 F508.00 
G01 X-47.8677 Y34.5563 
G01 X-47.7989 Y34.7224 
G01 X-47.6990 Y34.8719 
G01 X-47.5719 Y34.9990 
G01 X-47.4224 Y35.0989 
G01 X-47.2563 Y35.1677 
G01 X-47.0799 Y35.2028 
G01 X-46.9001 Y35.2028 
G01 X-46.7237 Y35.1677 
G01 X-46.5576 Y35.0989 
G01 X-46.4081 Y34.9990 
G01 X-46.2810 Y34.8719 
G01 X-46.1811 Y34.7224 
G01 X-46.1123 Y34.5563 
G01 X-46.0772 Y34.3799 
G01 X-46.0772 Y34.2001 
G01 X-46.1123 Y34.0237 
G01 X-46.1811 Y33.8576 
G01 X-46.2810 Y33.7081 
G01 X-46.4081 Y33.5810 
G01 X-46.5576 Y33.4811 
G01 X-46.7237 Y33.4123 
G01 X-46.9001 Y33.3772 
G01 X-47.0799 Y33.3772 
G01 X-47.2563 Y33.4123 
G01 X-47.4224 Y33.4811 
G01 X-47.5719 Y33.5810 
G01 X-47.6990 Y33.7081 
G01 X-47.7989 Y33.8576 
G01 X-47.8677 Y34.0237 
G01 X-47.9028 Y34.2001 
G00 Z2.0000 
G00 X-47.9028 Y36.7401 
G01 Z-0.0250 F254.00 
G01 X-47.9028 Y36.9199 F508.00 
G01 X-47.8677 Y37.0963 
G01 X-47.7989 Y37.2624 
G01 X-47.6990 Y37.4119 
G01 X-47.5719 Y37.5390 
G01 X-47.4224 Y37.6389 
G01 X-47.2563 Y37.7077 
G01 X-47.0799 Y37.7428 
G01 X-46.9001 Y37.7428 
G01 X-46.7237 Y37.7077 
G01 X-46.5576 Y37.6389 
G01 X-46.4081 Y37.5390 
G01 X-46.2810 Y37.4119 
G01 X-46.1811 Y37.2624 
G01 X-46.1123 Y37.0963 
G01 X-46.0772 Y36.9199 
G01 X-46.0772 Y36.7401 
G01 X-46.1123 Y36.5637 
G01 X-46.1811 Y36.3976 
G01 X-46.2810 Y36.2481 
G01 X-46.4081 Y36.1210 
G01 X-46.5576 Y36.0211 
G01 X-46.7237 Y35.9523 
G01 X-46.9001 Y35.9172 
G01 X-47.0799 Y35.9172 
G01 X-47.2563 Y35.9523 
G01 X-47.4224 Y36.0211 
G01 X-47.5719 Y36.1210 
G01 X-47.6990 Y36.2481 
G01 X-47.7989 Y36.3976 
G01 X-47.8677 Y36.5637 
G01 X-47.9028 Y36.7401 
G00 Z2.0000 
G00 X-20.9439 Y49.6241 
G01 Z-0.0250 F254.00 
G01 X-20.9439 Y46.8959 F508.00 
G01 X-20.9773 Y46.6849 
G01 X-21.0433 Y46.4817 
G01 X-21.1403 Y46.2913 
G01 X-21.2659 Y46.1185 
G01 X-21.4170 Y45.9674 
G01 X-21.5898 Y45.8418 
G01 X-21.7802 Y45.7448 
G01 X-21.9834 Y45.6788 
G01 X-22.1944 Y45.6454 
G01 X-22.4080 Y45.6454 
G01 X-22.6190 Y45.6788 
G01 X-22.8222 Y45.7448 
G01 X-23.0126 Y45.8418 
G01 X-23.1854 Y45.9674 
G01 X-23.3365 Y46.1185 
G01 X-23.4621 Y46.2913 
G01 X-23.5591 Y46.4817 
G01 X-23.6251 Y46.6849 
G01 X-23.6585 Y46.8959 
G01 X-23.6585 Y49.6241 
G01 X-23.6251 Y49.8351 
G01 X-23.5591 Y50.0383 
G01 X-23.4621 Y50.2287 
G01 X-23.3365 Y50.4015 
G01 X-23.1854 Y50.5526 
G01 X-23.0126 Y50.6782 
G01 X-22.8222 Y50.7752 
G01 X-22.6190 Y50.8412 
G01 X-22.4080 Y50.8746 
G01 X-22.1944 Y50.8746 
G01 X-21.9834 Y50.8412 
G01 X-21.7802 Y50.7752 
G01 X-21.5898 Y50.6782 
G01 X-21.4170 Y50.5526 
G01 X-21.2659 Y50.4015 
G01 X-21.1403 Y50.2287 
G01 X-21.0433 Y50.0383 
G01 X-20.9773 Y49.8351 
G01 X-20.9439 Y49.6241 
G00 Z2.0000 
G00 X-16.9815 Y49.6241 
G01 Z-0.0250 F254.00 
G01 X-16.9815 Y46.8959 F508.00 
G01 X-17.0149 Y46.6849 
G01 X-17.0809 Y46.4817 
G01 X-17.1779 Y46.2913 
G01 X-17.3035 Y46.1185 
G01 X-17.4546 Y45.9674 
G01 X-17.6274 Y45.8418 
G01 X-17.8178 Y45.7448 
G01 X-18.0210 Y45.6788 
G01 X-18.2320 Y45.6454 
G01 X-18.4456 Y45.6454 
G01 X-18.6566 Y45.6788 
G01 X-18.8598 Y45.7448 
G01 X-19.0502 Y45.8418 
G01 X-19.2230 Y45.9674 
G01 X-19.3741 Y46.1185 
G01 X-19.4997 Y46.2913 
G01 X-19.5967 Y46.4817 
G01 X-19.6627 Y46.6849 
G01 X-19.6961 Y46.8959 
G01 X-19.6961 Y49.6241 
G01 X-19.6627 Y49.8351 
G01 X-19.5967 Y50.0383 
G01 X-19.4997 Y50.2287 
G01 X-19.3741 Y50.4015 
G01 X-19.2230 Y50.5526 
G01 X-19.0502 Y50.6782 
G01 X-18.8598 Y50.7752 
G01 X-18.6566 Y50.8412 
G01 X-18.4456 Y50.8746 
G01 X-18.2320 Y50.8746 
G01 X-18.0210 Y50.8412 
G01 X-17.8178 Y50.7752 
G01 X-17.6274 Y50.6782 
G01 X-17.4546 Y50.5526 
G01 X-17.3035 Y50.4015 
G01 X-17.1779 Y50.2287 
G01 X-17.0809 Y50.0383 
G01 X-17.0149 Y49.8351 
G01 X-16.9815 Y49.6241 
G00 Z2.0000 
G00 X-9.3710 Y37.7388 
G01 Z-0.0250 F254.00 
G01 X-9.3710 Y37.9024 F508.00 
G01 X-9.3454 Y38.0641 
G01 X-9.2948 Y38.2197 
G01 X-9.2205 Y38.3656 
G01 X-9.1243 Y38.4980 
G01 X-9.0086 Y38.6137 
G01 X-8.8762 Y38.7099 
G01 X-8.7303 Y38.7842 
G01 X-8.5747 Y38.8348 
G01 X-8.4130 Y38.8604 
G01 X-8.2494 Y38.8604 
G01 X-8.0877 Y38.8348 
G01 X-7.9321 Y38.7842 
G01 X-7.7862 Y38.7099 
G01 X-7.6538 Y38.6137 
G01 X-7.5381 Y38.4980 
G01 X-7.4419 Y38.3656 
G01 X-7.3676 Y38.2197 
G01 X-7.3170 Y38.0641 
G01 X-7.2914 Y37.9024 
G01 X-7.2914 Y37.7388 
G01 X-7.3170 Y37.5771 
G01 X-7.3676 Y37.4215 
G01 X-7.4419 Y37.2756 
G01 X-7.5381 Y37.1432 
G01 X-7.6538 Y37.0275 
G01 X-7.7862 Y36.9313 
G01 X-7.9321 Y36.8570 
G01 X-8.0877 Y36.8064 
G01 X-8.2494 Y36.7808 
G01 X-8.4130 Y36.7808 
G01 X-8.5747 Y36.8064 
G01 X-8.7303 Y36.8570 
G01 X-8.8762 Y36.9313 
G01 X-9.0086 Y37.0275 
G01 X-9.1243 Y37.1432 
G01 X-9.2205 Y37.2756 
G01 X-9.2948 Y37.4215 
G01 X-9.3454 Y37.5771 
G01 X-9.3710 Y37.7388 
G00 Z2.0000 
G00 X-2.8686 Y33.2176 
G01 Z-0.0250 F254.00 
G01 X-2.8686 Y33.3812 F508.00 
G01 X-2.8430 Y33.5429 
G01 X-2.7924 Y33.6985 
G01 X-2.7181 Y33.8444 
G01 X-2.7096 Y33.8561 
G01 X-3.6036 Y34.7500 
G01 X-43.6955 Y34.7500 
G01 X-43.7112 Y34.7120 
G01 X-43.7777 Y34.6124 
G01 X-43.8624 Y34.5277 
G01 X-43.9620 Y34.4612 
G01 X-44.0727 Y34.4154 
G01 X-44.1901 Y34.3920 
G01 X-44.3099 Y34.3920 
G01 X-44.4273 Y34.4154 
G01 X-44.5380 Y34.4612 
G01 X-44.6376 Y34.5277 
G01 X-44.7223 Y34.6124 
G01 X-44.7888 Y34.7120 
G01 X-44.8346 Y34.8227 
G01 X-44.8580 Y34.9401 
G01 X-44.8580 Y35.0599 
G01 X-44.8346 Y35.1773 
G01 X-44.7888 Y35.2880 
G01 X-44.7223 Y35.3876 
G01 X-44.6376 Y35.4723 
G01 X-44.5380 Y35.5388 
G01 X-44.4273 Y35.5846 
G01 X-44.3099 Y35.6080 
G01 X-44.1901 Y35.6080 
G01 X-44.0727 Y35.5846 
G01 X-43.9620 Y35.5388 
G01 X-43.8624 Y35.4723 
G01 X-43.7777 Y35.3876 
G01 X-43.7112 Y35.2880 
G01 X-43.6955 Y35.2500 
G01 X-3.4503 Y35.2500 
G01 X-3.3584 Y35.2119 
G01 X-3.2881 Y35.1416 
G01 X-2.3482 Y34.2017 
G01 X-2.2279 Y34.2630 
G01 X-2.0723 Y34.3136 
G01 X-1.9106 Y34.3392 
G01 X-1.7470 Y34.3392 
G01 X-1.5853 Y34.3136 
G01 X-1.4297 Y34.2630 
G01 X-1.2838 Y34.1887 
G01 X-1.1514 Y34.0925 
G01 X-1.0357 Y33.9768 
G01 X-0.9395 Y33.8444 
G01 X-0.8652 Y33.6985 
G01 X-0.8146 Y33.5429 
G01 X-0.7890 Y33.3812 
G01 X-0.7890 Y33.2176 
G01 X-0.8146 Y33.0559 
G01 X-0.8652 Y32.9003 
G01 X-0.9395 Y32.7544 
G01 X-1.0357 Y32.6220 
G01 X-1.1514 Y32.5063 
G01 X-1.2838 Y32.4101 
G01 X-1.4297 Y32.3358 
G01 X-1.5853 Y32.2852 
G01 X-1.7470 Y32.2596 
G01 X-1.9106 Y32.2596 
G01 X-2.0723 Y32.2852 
G01 X-2.2279 Y32.3358 
G01 X-2.3738 Y32.4101 
G01 X-2.5062 Y32.5063 
G01 X-2.6219 Y32.6220 
G01 X-2.7181 Y32.7544 
G01 X-2.7924 Y32.9003 
G01 X-2.8430 Y33.0559 
G01 X-2.8686 Y33.2176 
G00 Z2.0000 
G00 X-9.3710 Y33.2176 
G01 Z-0.0250 F254.00 
G01 X-9.3710 Y33.3812 F508.00 
G01 X-9.3454 Y33.5429 
G01 X-9.2948 Y33.6985 
G01 X-9.2205 Y33.8444 
G01 X-9.1243 Y33.9768 
G01 X-9.0086 Y34.0925 
G01 X-8.8762 Y34.1887 
G01 X-8.7303 Y34.2630 
G01 X-8.5747 Y34.3136 
G01 X-8.4130 Y34.3392 
G01 X-8.2494 Y34.3392 
G01 X-8.0877 Y34.3136 
G01 X-7.9321 Y34.2630 
G01 X-7.7862 Y34.1887 
G01 X-7.6538 Y34.0925 
G01 X-7.5381 Y33.9768 
G01 X-7.4419 Y33.8444 
G01 X-7.3676 Y33.6985 
G01 X-7.3170 Y33.5429 
G01 X-7.2914 Y33.3812 
G01 X-7.2914 Y33.2176 
G01 X-7.3170 Y33.0559 
G01 X-7.3676 Y32.9003 
G01 X-7.4419 Y32.7544 
G01 X-7.5381 Y32.6220 
G01 X-7.6538 Y32.5063 
G01 X-7.7862 Y32.4101 
G01 X-7.9321 Y32.3358 
G01 X-8.0877 Y32.2852 
G01 X-8.2494 Y32.2596 
G01 X-8.4130 Y32.2596 
G01 X-8.5747 Y32.2852 
G01 X-8.7303 Y32.3358 
G01 X-8.8762 Y32.4101 
G01 X-9.0086 Y32.5063 
G01 X-9.1243 Y32.6220 
G01 X-9.2205 Y32.7544 
G01 X-9.2948 Y32.9003 
G01 X-9.3454 Y33.0559 
G01 X-9.3710 Y33.2176 
G00 Z2.0000 
G00 X-4.1215 Y20.6264 
G01 Z-0.0250 F254.00 
G01 X-6.0385 Y20.6264 F508.00 
G01 X-6.2247 Y20.6634 
G01 X-6.4000 Y20.7361 
G01 X-6.5579 Y20.8415 
G01 X-6.6921 Y20.9757 
G01 X-6.7975 Y21.1336 
G01 X-6.8702 Y21.3089 
G01 X-6.9072 Y21.4951 
G01 X-6.9072 Y21.6849 
G01 X-6.8702 Y21.8711 
G01 X-6.7975 Y22.0464 
G01 X-6.6921 Y22.2043 
G01 X-6.5579 Y22.3385 
G01 X-6.4000 Y22.4439 
G01 X-6.2247 Y22.5166 
G01 X-6.0385 Y22.5536 
G01 X-4.1215 Y22.5536 
G01 X-3.9353 Y22.5166 
G01 X-3.7600 Y22.4439 
G01 X-3.6021 Y22.3385 
G01 X-3.4679 Y22.2043 
G01 X-3.3625 Y22.0464 
G01 X-3.2898 Y21.8711 
G01 X-3.2528 Y21.6849 
G01 X-3.2528 Y21.4951 
G01 X-3.2898 Y21.3089 
G01 X-3.3625 Y21.1336 
G01 X-3.4679 Y20.9757 
G01 X-3.6021 Y20.8415 
G01 X-3.7600 Y20.7361 
G01 X-3.9353 Y20.6634 
G01 X-4.1215 Y20.6264 
G00 Z2.0000 
G00 X-4.1215 Y24.4364 
G01 Z-0.0250 F254.00 
G01 X-6.0385 Y24.4364 F508.00 
G01 X-6.2247 Y24.4734 
G01 X-6.4000 Y24.5461 
G01 X-6.5579 Y24.6515 
G01 X-6.6921 Y24.7857 
G01 X-6.7975 Y24.9436 
G01 X-6.8702 Y25.1189 
G01 X-6.9072 Y25.3051 
G01 X-6.9072 Y25.4949 
G01 X-6.8702 Y25.6811 
G01 X-6.7975 Y25.8564 
G01 X-6.6921 Y26.0143 
G01 X-6.5579 Y26.1485 
G01 X-6.4000 Y26.2539 
G01 X-6.2247 Y26.3266 
G01 X-6.0385 Y26.3636 
G01 X-4.1215 Y26.3636 
G01 X-3.9353 Y26.3266 
G01 X-3.7600 Y26.2539 
G01 X-3.6021 Y26.1485 
G01 X-3.4679 Y26.0143 
G01 X-3.3625 Y25.8564 
G01 X-3.2898 Y25.6811 
G01 X-3.2528 Y25.4949 
G01 X-3.2528 Y25.3051 
G01 X-3.2898 Y25.1189 
G01 X-3.3625 Y24.9436 
G01 X-3.4679 Y24.7857 
G01 X-3.6021 Y24.6515 
G01 X-3.7600 Y24.5461 
G01 X-3.9353 Y24.4734 
G01 X-4.1215 Y24.4364 
G00 Z2.0000 
G00 X-4.1215 Y28.2464 
G01 Z-0.0250 F254.00 
G01 X-6.0385 Y28.2464 F508.00 
G01 X-6.2247 Y28.2834 
G01 X-6.4000 Y28.3561 
G01 X-6.5579 Y28.4615 
G01 X-6.6921 Y28.5957 
G01 X-6.7975 Y28.7536 
G01 X-6.8702 Y28.9289 
G01 X-6.9072 Y29.1151 
G01 X-6.9072 Y29.3049 
G01 X-6.8702 Y29.4911 
G01 X-6.7975 Y29.6664 
G01 X-6.6921 Y29.8243 
G01 X-6.5579 Y29.9585 
G01 X-6.4000 Y30.0639 
G01 X-6.2247 Y30.1366 
G01 X-6.0385 Y30.1736 
G01 X-4.1215 Y30.1736 
G01 X-3.9353 Y30.1366 
G01 X-3.7600 Y30.0639 
G01 X-3.6021 Y29.9585 
G01 X-3.4679 Y29.8243 
G01 X-3.3625 Y29.6664 
G01 X-3.2898 Y29.4911 
G01 X-3.2528 Y29.3049 
G01 X-3.2528 Y29.1151 
G01 X-3.2898 Y28.9289 
G01 X-3.3625 Y28.7536 
G01 X-3.4679 Y28.5957 
G01 X-3.6021 Y28.4615 
G01 X-3.7600 Y28.3561 
G01 X-3.9353 Y28.2834 
G01 X-4.1215 Y28.2464 
G00 Z2.0000 
G00 X-5.7039 Y49.6241 
G01 Z-0.0250 F254.00 
G01 X-5.7039 Y46.8959 F508.00 
G01 X-5.7373 Y46.6849 
G01 X-5.8033 Y46.4817 
G01 X-5.9003 Y46.2913 
G01 X-6.0259 Y46.1185 
G01 X-6.1770 Y45.9674 
G01 X-6.3498 Y45.8418 
G01 X-6.5402 Y45.7448 
G01 X-6.7434 Y45.6788 
G01 X-6.9544 Y45.6454 
G01 X-7.1680 Y45.6454 
G01 X-7.3790 Y45.6788 
G01 X-7.5822 Y45.7448 
G01 X-7.7726 Y45.8418 
G01 X-7.9454 Y45.9674 
G01 X-8.0965 Y46.1185 
G01 X-8.2221 Y46.2913 
G01 X-8.3191 Y46.4817 
G01 X-8.3851 Y46.6849 
G01 X-8.4185 Y46.8959 
G01 X-8.4185 Y49.6241 
G01 X-8.3851 Y49.8351 
G01 X-8.3191 Y50.0383 
G01 X-8.2221 Y50.2287 
G01 X-8.0965 Y50.4015 
G01 X-7.9454 Y50.5526 
G01 X-7.7726 Y50.6782 
G01 X-7.5822 Y50.7752 
G01 X-7.3790 Y50.8412 
G01 X-7.1680 Y50.8746 
G01 X-6.9544 Y50.8746 
G01 X-6.7434 Y50.8412 
G01 X-6.5402 Y50.7752 
G01 X-6.3498 Y50.6782 
G01 X-6.1770 Y50.5526 
G01 X-6.0259 Y50.4015 
G01 X-5.9003 Y50.2287 
G01 X-5.8033 Y50.0383 
G01 X-5.7373 Y49.8351 
G01 X-5.7039 Y49.6241 
G00 Z2.0000 
G00 X-1.7415 Y49.6241 
G01 Z-0.0250 F254.00 
G01 X-1.7415 Y46.8959 F508.00 
G01 X-1.7749 Y46.6849 
G01 X-1.8409 Y46.4817 
G01 X-1.9379 Y46.2913 
G01 X-2.0635 Y46.1185 
G01 X-2.2146 Y45.9674 
G01 X-2.3874 Y45.8418 
G01 X-2.5778 Y45.7448 
G01 X-2.7810 Y45.6788 
G01 X-2.9920 Y45.6454 
G01 X-3.2056 Y45.6454 
G01 X-3.4166 Y45.6788 
G01 X-3.6198 Y45.7448 
G01 X-3.8102 Y45.8418 
G01 X-3.9830 Y45.9674 
G01 X-4.1341 Y46.1185 
G01 X-4.2597 Y46.2913 
G01 X-4.3567 Y46.4817 
G01 X-4.4227 Y46.6849 
G01 X-4.4561 Y46.8959 
G01 X-4.4561 Y49.6241 
G01 X-4.4227 Y49.8351 
G01 X-4.3567 Y50.0383 
G01 X-4.2597 Y50.2287 
G01 X-4.1341 Y50.4015 
G01 X-3.9830 Y50.5526 
G01 X-3.8102 Y50.6782 
G01 X-3.6198 Y50.7752 
G01 X-3.4166 Y50.8412 
G01 X-3.2056 Y50.8746 
G01 X-2.9920 Y50.8746 
G01 X-2.7810 Y50.8412 
G01 X-2.5778 Y50.7752 
G01 X-2.3874 Y50.6782 
G01 X-2.2146 Y50.5526 
G01 X-2.0635 Y50.4015 
G01 X-1.9379 Y50.2287 
G01 X-1.8409 Y50.0383 
G01 X-1.7749 Y49.8351 
G01 X-1.7415 Y49.6241 
G00 Z2.0000 
G00 X-24.6015 Y49.6241 
G01 Z-0.0250 F254.00 
G01 X-24.6015 Y46.8959 F508.00 
G01 X-24.6349 Y46.6849 
G01 X-24.7009 Y46.4817 
G01 X-24.7979 Y46.2913 
G01 X-24.9235 Y46.1185 
G01 X-25.0746 Y45.9674 
G01 X-25.2474 Y45.8418 
G01 X-25.4378 Y45.7448 
G01 X-25.6410 Y45.6788 
G01 X-25.8520 Y45.6454 
G01 X-26.0656 Y45.6454 
G01 X-26.2766 Y45.6788 
G01 X-26.4798 Y45.7448 
G01 X-26.6702 Y45.8418 
G01 X-26.8430 Y45.9674 
G01 X-26.9941 Y46.1185 
G01 X-27.1197 Y46.2913 
G01 X-27.2167 Y46.4817 
G01 X-27.2827 Y46.6849 
G01 X-27.3161 Y46.8959 
G01 X-27.3161 Y49.6241 
G01 X-27.2827 Y49.8351 
G01 X-27.2167 Y50.0383 
G01 X-27.1197 Y50.2287 
G01 X-26.9941 Y50.4015 
G01 X-26.8430 Y50.5526 
G01 X-26.6702 Y50.6782 
G01 X-26.4798 Y50.7752 
G01 X-26.2766 Y50.8412 
G01 X-26.0656 Y50.8746 
G01 X-25.8520 Y50.8746 
G01 X-25.6410 Y50.8412 
G01 X-25.4378 Y50.7752 
G01 X-25.2474 Y50.6782 
G01 X-25.0746 Y50.5526 
G01 X-24.9235 Y50.4015 
G01 X-24.7979 Y50.2287 
G01 X-24.7009 Y50.0383 
G01 X-24.6349 Y49.8351 
G01 X-24.6015 Y49.6241 
G00 Z2.0000 
G00 X-42.7212 Y47.4689 
G01 Z-0.0250 F254.00 
G01 X-42.7212 Y49.0511 F508.00 
G01 X-42.6900 Y49.2078 
G01 X-42.6289 Y49.3554 
G01 X-42.5401 Y49.4883 
G01 X-42.4271 Y49.6013 
G01 X-42.2942 Y49.6901 
G01 X-42.1466 Y49.7512 
G01 X-41.9899 Y49.7824 
G01 X-41.8301 Y49.7824 
G01 X-41.6734 Y49.7512 
G01 X-41.5258 Y49.6901 
G01 X-41.3929 Y49.6013 
G01 X-41.2799 Y49.4883 
G01 X-41.1911 Y49.3554 
G01 X-41.1300 Y49.2078 
G01 X-41.0988 Y49.0511 
G01 X-41.0988 Y47.4689 
G01 X-41.1300 Y47.3122 
G01 X-41.1911 Y47.1646 
G01 X-41.2799 Y47.0317 
G01 X-41.3929 Y46.9187 
G01 X-41.5258 Y46.8299 
G01 X-41.6734 Y46.7688 
G01 X-41.8301 Y46.7376 
G01 X-41.9899 Y46.7376 
G01 X-42.1466 Y46.7688 
G01 X-42.2942 Y46.8299 
G01 X-42.4271 Y46.9187 
G01 X-42.5401 Y47.0317 
G01 X-42.6289 Y47.1646 
G01 X-42.6900 Y47.3122 
G01 X-42.7212 Y47.4689 
G00 Z2.0000 
G00 X-40.1812 Y47.4689 
G01 Z-0.0250 F254.00 
G01 X-40.1812 Y48.8276 F508.00 
G01 X-41.3536 Y50.0000 
G01 X-47.8964 Y50.0000 
G01 X-49.2536 Y48.6428 
G01 X-49.2510 Y48.6389 
G01 X-49.1907 Y48.4933 
G01 X-49.1600 Y48.3388 
G01 X-49.1600 Y48.1812 
G01 X-49.1907 Y48.0266 
G01 X-49.2510 Y47.8811 
G01 X-49.3386 Y47.7500 
G01 X-49.4500 Y47.6386 
G01 X-49.5811 Y47.5511 
G01 X-49.7266 Y47.4907 
G01 X-49.8812 Y47.4600 
G01 X-50.0388 Y47.4600 
G01 X-50.1934 Y47.4907 
G01 X-50.3389 Y47.5511 
G01 X-50.4700 Y47.6386 
G01 X-50.5814 Y47.7500 
G01 X-50.6689 Y47.8811 
G01 X-50.7293 Y48.0266 
G01 X-50.7600 Y48.1812 
G01 X-50.7600 Y48.3388 
G01 X-50.7293 Y48.4933 
G01 X-50.6689 Y48.6389 
G01 X-50.5814 Y48.7700 
G01 X-50.4700 Y48.8814 
G01 X-50.3389 Y48.9689 
G01 X-50.1934 Y49.0293 
G01 X-50.0388 Y49.0600 
G01 X-49.8812 Y49.0600 
G01 X-49.7266 Y49.0293 
G01 X-49.6189 Y48.9846 
G01 X-48.2119 Y50.3916 
G01 X-48.1416 Y50.4619 
G01 X-48.0497 Y50.5000 
G01 X-41.2003 Y50.5000 
G01 X-41.1084 Y50.4619 
G01 X-40.0540 Y49.4076 
G01 X-40.0001 Y49.4883 
G01 X-39.8871 Y49.6013 
G01 X-39.7542 Y49.6901 
G01 X-39.6066 Y49.7512 
G01 X-39.4499 Y49.7824 
G01 X-39.2901 Y49.7824 
G01 X-39.1334 Y49.7512 
G01 X-38.9858 Y49.6901 
G01 X-38.8529 Y49.6013 
G01 X-38.7399 Y49.4883 
G01 X-38.6511 Y49.3554 
G01 X-38.5900 Y49.2078 
G01 X-38.5588 Y49.0511 
G01 X-38.5588 Y48.5000 
G01 X-31.2785 Y48.5000 
G01 X-31.2785 Y49.6241 
G01 X-31.2451 Y49.8351 
G01 X-31.1791 Y50.0383 
G01 X-31.0821 Y50.2287 
G01 X-30.9565 Y50.4015 
G01 X-30.8054 Y50.5526 
G01 X-30.6326 Y50.6782 
G01 X-30.4422 Y50.7752 
G01 X-30.2390 Y50.8412 
G01 X-30.0280 Y50.8746 
G01 X-29.8144 Y50.8746 
G01 X-29.6034 Y50.8412 
G01 X-29.4002 Y50.7752 
G01 X-29.2098 Y50.6782 
G01 X-29.0370 Y50.5526 
G01 X-28.8859 Y50.4015 
G01 X-28.7603 Y50.2287 
G01 X-28.6633 Y50.0383 
G01 X-28.5973 Y49.8351 
G01 X-28.5639 Y49.6241 
G01 X-28.5639 Y46.8959 
G01 X-28.5973 Y46.6849 
G01 X-28.6633 Y46.4817 
G01 X-28.7603 Y46.2913 
G01 X-28.8859 Y46.1185 
G01 X-29.0370 Y45.9674 
G01 X-29.2098 Y45.8418 
G01 X-29.4002 Y45.7448 
G01 X-29.6034 Y45.6788 
G01 X-29.8144 Y45.6454 
G01 X-30.0280 Y45.6454 
G01 X-30.2390 Y45.6788 
G01 X-30.4422 Y45.7448 
G01 X-30.6326 Y45.8418 
G01 X-30.8054 Y45.9674 
G01 X-30.9565 Y46.1185 
G01 X-31.0821 Y46.2913 
G01 X-31.1791 Y46.4817 
G01 X-31.2451 Y46.6849 
G01 X-31.2785 Y46.8959 
G01 X-31.2785 Y48.0000 
G01 X-38.5588 Y48.0000 
G01 X-38.5588 Y47.4689 
G01 X-38.5900 Y47.3122 
G01 X-38.6511 Y47.1646 
G01 X-38.7399 Y47.0317 
G01 X-38.8529 Y46.9187 
G01 X-38.9858 Y46.8299 
G01 X-39.1334 Y46.7688 
G01 X-39.2901 Y46.7376 
G01 X-39.4499 Y46.7376 
G01 X-39.6066 Y46.7688 
G01 X-39.7542 Y46.8299 
G01 X-39.8871 Y46.9187 
G01 X-40.0001 Y47.0317 
G01 X-40.0889 Y47.1646 
G01 X-40.1500 Y47.3122 
G01 X-40.1812 Y47.4689 
G00 Z2.0000 
G00 X-47.3600 Y48.1812 
G01 Z-0.0250 F254.00 
G01 X-47.3600 Y48.3388 F508.00 
G01 X-47.3293 Y48.4933 
G01 X-47.2689 Y48.6389 
G01 X-47.1814 Y48.7700 
G01 X-47.0700 Y48.8814 
G01 X-46.9389 Y48.9689 
G01 X-46.7934 Y49.0293 
G01 X-46.6388 Y49.0600 
G01 X-46.4812 Y49.0600 
G01 X-46.3266 Y49.0293 
G01 X-46.1811 Y48.9689 
G01 X-46.0500 Y48.8814 
G01 X-45.9386 Y48.7700 
G01 X-45.8511 Y48.6389 
G01 X-45.7907 Y48.4933 
G01 X-45.7600 Y48.3388 
G01 X-45.7600 Y48.1812 
G01 X-45.7907 Y48.0266 
G01 X-45.8295 Y47.9331 
G01 X-41.2153 Y43.3189 
G01 X-41.1773 Y43.3346 
G01 X-41.0599 Y43.3580 
G01 X-40.9401 Y43.3580 
G01 X-40.8227 Y43.3346 
G01 X-40.7120 Y43.2888 
G01 X-40.6124 Y43.2223 
G01 X-40.5277 Y43.1376 
G01 X-40.4612 Y43.0380 
G01 X-40.4154 Y42.9273 
G01 X-40.3920 Y42.8099 
G01 X-40.3920 Y42.6901 
G01 X-40.4154 Y42.5727 
G01 X-40.4612 Y42.4620 
G01 X-40.5277 Y42.3624 
G01 X-40.6124 Y42.2777 
G01 X-40.7120 Y42.2112 
G01 X-40.8227 Y42.1654 
G01 X-40.9401 Y42.1420 
G01 X-41.0599 Y42.1420 
G01 X-41.1773 Y42.1654 
G01 X-41.2880 Y42.2112 
G01 X-41.3876 Y42.2777 
G01 X-41.4723 Y42.3624 
G01 X-41.5388 Y42.4620 
G01 X-41.5846 Y42.5727 
G01 X-41.6080 Y42.6901 
G01 X-41.6080 Y42.8099 
G01 X-41.5846 Y42.9273 
G01 X-41.5689 Y42.9653 
G01 X-46.1652 Y47.5616 
G01 X-46.1811 Y47.5511 
G01 X-46.3266 Y47.4907 
G01 X-46.4812 Y47.4600 
G01 X-46.6388 Y47.4600 
G01 X-46.7934 Y47.4907 
G01 X-46.9389 Y47.5511 
G01 X-47.0700 Y47.6386 
G01 X-47.1814 Y47.7500 
G01 X-47.2689 Y47.8811 
G01 X-47.3293 Y48.0266 
G01 X-47.3600 Y48.1812 
G00 Z2.0000 
G00 X-13.3239 Y49.6241 
G01 Z-0.0250 F254.00 
G01 X-13.3239 Y46.8959 F508.00 
G01 X-13.3573 Y46.6849 
G01 X-13.4233 Y46.4817 
G01 X-13.5203 Y46.2913 
G01 X-13.6459 Y46.1185 
G01 X-13.7970 Y45.9674 
G01 X-13.9698 Y45.8418 
G01 X-14.1602 Y45.7448 
G01 X-14.3634 Y45.6788 
G01 X-14.5000 Y45.6572 
G01 X-14.5000 Y39.2003 
G01 X-14.5381 Y39.1084 
G01 X-14.6084 Y39.0381 
G01 X-14.7003 Y39.0000 
G01 X-34.8964 Y39.0000 
G01 X-37.6811 Y36.2153 
G01 X-37.6654 Y36.1773 
G01 X-37.6420 Y36.0599 
G01 X-37.6420 Y35.9401 
G01 X-37.6654 Y35.8227 
G01 X-37.7112 Y35.7120 
G01 X-37.7777 Y35.6124 
G01 X-37.8624 Y35.5277 
G01 X-37.9620 Y35.4612 
G01 X-38.0727 Y35.4154 
G01 X-38.1901 Y35.3920 
G01 X-38.3099 Y35.3920 
G01 X-38.4273 Y35.4154 
G01 X-38.5380 Y35.4612 
G01 X-38.6376 Y35.5277 
G01 X-38.7223 Y35.6124 
G01 X-38.7888 Y35.7120 
G01 X-38.8346 Y35.8227 
G01 X-38.8580 Y35.9401 
G01 X-38.8580 Y36.0599 
G01 X-38.8346 Y36.1773 
G01 X-38.7888 Y36.2880 
G01 X-38.7223 Y36.3876 
G01 X-38.6376 Y36.4723 
G01 X-38.5380 Y36.5388 
G01 X-38.4273 Y36.5846 
G01 X-38.3099 Y36.6080 
G01 X-38.1901 Y36.6080 
G01 X-38.0727 Y36.5846 
G01 X-38.0347 Y36.5689 
G01 X-35.1416 Y39.4619 
G01 X-35.0497 Y39.5000 
G01 X-15.0000 Y39.5000 
G01 X-15.0000 Y45.6791 
G01 X-15.2022 Y45.7448 
G01 X-15.3926 Y45.8418 
G01 X-15.5654 Y45.9674 
G01 X-15.7165 Y46.1185 
G01 X-15.8421 Y46.2913 
G01 X-15.9391 Y46.4817 
G01 X-16.0051 Y46.6849 
G01 X-16.0385 Y46.8959 
G01 X-16.0385 Y49.6241 
G01 X-16.0051 Y49.8351 
G01 X-15.9391 Y50.0383 
G01 X-15.8421 Y50.2287 
G01 X-15.7165 Y50.4015 
G01 X-15.5654 Y50.5526 
G01 X-15.3926 Y50.6782 
G01 X-15.2022 Y50.7752 
G01 X-14.9990 Y50.8412 
G01 X-14.7880 Y50.8746 
G01 X-14.5744 Y50.8746 
G01 X-14.3634 Y50.8412 
G01 X-14.1602 Y50.7752 
G01 X-13.9698 Y50.6782 
G01 X-13.7970 Y50.5526 
G01 X-13.6459 Y50.4015 
G01 X-13.5203 Y50.2287 
G01 X-13.4233 Y50.0383 
G01 X-13.3573 Y49.8351 
G01 X-13.3239 Y49.6241 
G00 Z2.0000 
G00 X-9.3615 Y49.6241 
G01 Z-0.0250 F254.00 
G01 X-9.3615 Y46.8959 F508.00 
G01 X-9.3949 Y46.6849 
G01 X-9.4609 Y46.4817 
G01 X-9.5579 Y46.2913 
G01 X-9.6835 Y46.1185 
G01 X-9.8346 Y45.9674 
G01 X-10.0074 Y45.8418 
G01 X-10.1978 Y45.7448 
G01 X-10.4010 Y45.6788 
G01 X-10.6120 Y45.6454 
G01 X-10.8256 Y45.6454 
G01 X-11.0366 Y45.6788 
G01 X-11.2398 Y45.7448 
G01 X-11.4302 Y45.8418 
G01 X-11.6030 Y45.9674 
G01 X-11.7541 Y46.1185 
G01 X-11.8797 Y46.2913 
G01 X-11.9767 Y46.4817 
G01 X-12.0427 Y46.6849 
G01 X-12.0761 Y46.8959 
G01 X-12.0761 Y49.4725 
G01 X-13.6036 Y51.0000 
G01 X-52.6464 Y51.0000 
G01 X-57.5072 Y46.1392 
G01 X-57.5072 Y44.8173 
G01 X-57.5423 Y44.6409 
G01 X-57.6111 Y44.4748 
G01 X-57.7110 Y44.3253 
G01 X-57.8381 Y44.1982 
G01 X-57.9876 Y44.0983 
G01 X-58.1537 Y44.0295 
G01 X-58.3301 Y43.9944 
G01 X-58.5099 Y43.9944 
G01 X-58.6863 Y44.0295 
G01 X-58.8524 Y44.0983 
G01 X-59.0019 Y44.1982 
G01 X-59.1290 Y44.3253 
G01 X-59.2289 Y44.4748 
G01 X-59.2977 Y44.6409 
G01 X-59.3328 Y44.8173 
G01 X-59.3328 Y46.6227 
G01 X-59.2977 Y46.7991 
G01 X-59.2289 Y46.9652 
G01 X-59.1290 Y47.1147 
G01 X-59.0019 Y47.2418 
G01 X-58.8524 Y47.3417 
G01 X-58.6863 Y47.4105 
G01 X-58.5099 Y47.4456 
G01 X-58.3301 Y47.4456 
G01 X-58.1537 Y47.4105 
G01 X-57.9876 Y47.3417 
G01 X-57.8381 Y47.2418 
G01 X-57.7110 Y47.1147 
G01 X-57.6111 Y46.9652 
G01 X-57.5459 Y46.8077 
G01 X-52.9619 Y51.3916 
G01 X-52.8916 Y51.4619 
G01 X-52.7997 Y51.5000 
G01 X-13.4503 Y51.5000 
G01 X-13.3584 Y51.4619 
G01 X-11.9625 Y50.0661 
G01 X-11.8797 Y50.2287 
G01 X-11.7541 Y50.4015 
G01 X-11.6030 Y50.5526 
G01 X-11.4302 Y50.6782 
G01 X-11.2398 Y50.7752 
G01 X-11.0366 Y50.8412 
G01 X-10.8256 Y50.8746 
G01 X-10.6120 Y50.8746 
G01 X-10.4010 Y50.8412 
G01 X-10.1978 Y50.7752 
G01 X-10.0074 Y50.6782 
G01 X-9.8346 Y50.5526 
G01 X-9.6835 Y50.4015 
G01 X-9.5579 Y50.2287 
G01 X-9.4609 Y50.0383 
G01 X-9.3949 Y49.8351 
G01 X-9.3615 Y49.6241 
G00 Z2.0000 
G00 X-56.7827 Y51.7128 
G01 Z-0.0250 F254.00 
G01 X-54.9773 Y51.7128 F508.00 
G01 X-54.8009 Y51.6777 
G01 X-54.6348 Y51.6089 
G01 X-54.4853 Y51.5090 
G01 X-54.3582 Y51.3819 
G01 X-54.2583 Y51.2324 
G01 X-54.1895 Y51.0663 
G01 X-54.1544 Y50.8899 
G01 X-54.1544 Y50.7101 
G01 X-54.1895 Y50.5337 
G01 X-54.2583 Y50.3676 
G01 X-54.3582 Y50.2181 
G01 X-54.4853 Y50.0910 
G01 X-54.6348 Y49.9911 
G01 X-54.8009 Y49.9223 
G01 X-54.9773 Y49.8872 
G01 X-56.7827 Y49.8872 
G01 X-56.9591 Y49.9223 
G01 X-57.1252 Y49.9911 
G01 X-57.2747 Y50.0910 
G01 X-57.4018 Y50.2181 
G01 X-57.5017 Y50.3676 
G01 X-57.5705 Y50.5337 
G01 X-57.6056 Y50.7101 
G01 X-57.6056 Y50.8899 
G01 X-57.5705 Y51.0663 
G01 X-57.5017 Y51.2324 
G01 X-57.4018 Y51.3819 
G01 X-57.2747 Y51.5090 
G01 X-57.1252 Y51.6089 
G01 X-56.9591 Y51.6777 
G01 X-56.7827 Y51.7128 
G00 Z2.0000 
G00 X-52.4272 Y46.6227 
G01 Z-0.0250 F254.00 
G01 X-52.4272 Y44.8173 F508.00 
G01 X-52.4623 Y44.6409 
G01 X-52.5311 Y44.4748 
G01 X-52.6310 Y44.3253 
G01 X-52.7581 Y44.1982 
G01 X-52.9076 Y44.0983 
G01 X-53.0737 Y44.0295 
G01 X-53.2501 Y43.9944 
G01 X-53.4299 Y43.9944 
G01 X-53.6063 Y44.0295 
G01 X-53.7724 Y44.0983 
G01 X-53.9219 Y44.1982 
G01 X-54.0490 Y44.3253 
G01 X-54.1489 Y44.4748 
G01 X-54.2177 Y44.6409 
G01 X-54.2528 Y44.8173 
G01 X-54.2528 Y46.6227 
G01 X-54.2177 Y46.7991 
G01 X-54.1489 Y46.9652 
G01 X-54.0490 Y47.1147 
G01 X-53.9219 Y47.2418 
G01 X-53.7724 Y47.3417 
G01 X-53.6063 Y47.4105 
G01 X-53.4299 Y47.4456 
G01 X-53.2501 Y47.4456 
G01 X-53.0737 Y47.4105 
G01 X-52.9076 Y47.3417 
G01 X-52.7581 Y47.2418 
G01 X-52.6310 Y47.1147 
G01 X-52.5311 Y46.9652 
G01 X-52.4623 Y46.7991 
G01 X-52.4272 Y46.6227 
G00 Z2.0000 
G00 X-20.7788 Y3.3311 
G01 Z-0.0250 F254.00 
G01 X-20.7788 Y1.7489 F508.00 
G01 X-20.8100 Y1.5922 
G01 X-20.8711 Y1.4446 
G01 X-20.9599 Y1.3117 
G01 X-21.0729 Y1.1987 
G01 X-21.2058 Y1.1099 
G01 X-21.3534 Y1.0488 
G01 X-21.5101 Y1.0176 
G01 X-21.6699 Y1.0176 
G01 X-21.8266 Y1.0488 
G01 X-21.9742 Y1.1099 
G01 X-22.1071 Y1.1987 
G01 X-22.2201 Y1.3117 
G01 X-22.3089 Y1.4446 
G01 X-22.3700 Y1.5922 
G01 X-22.4012 Y1.7489 
G01 X-22.4012 Y3.0476 
G01 X-26.6036 Y7.2500 
G01 X-58.2997 Y7.2500 
G01 X-58.3916 Y7.2881 
G01 X-61.7539 Y10.6503 
G01 X-61.7976 Y10.6211 
G01 X-61.9637 Y10.5523 
G01 X-62.1401 Y10.5172 
G01 X-62.3199 Y10.5172 
G01 X-62.4963 Y10.5523 
G01 X-62.6624 Y10.6211 
G01 X-62.8119 Y10.7210 
G01 X-62.9390 Y10.8481 
G01 X-63.0389 Y10.9976 
G01 X-63.1077 Y11.1637 
G01 X-63.1428 Y11.3401 
G01 X-63.1428 Y11.5199 
G01 X-63.1077 Y11.6963 
G01 X-63.0389 Y11.8624 
G01 X-62.9390 Y12.0119 
G01 X-62.8119 Y12.1390 
G01 X-62.6624 Y12.2389 
G01 X-62.4963 Y12.3077 
G01 X-62.3199 Y12.3428 
G01 X-62.1401 Y12.3428 
G01 X-61.9637 Y12.3077 
G01 X-61.7976 Y12.2389 
G01 X-61.6481 Y12.1390 
G01 X-61.5210 Y12.0119 
G01 X-61.4211 Y11.8624 
G01 X-61.3523 Y11.6963 
G01 X-61.3172 Y11.5199 
G01 X-61.3172 Y11.3401 
G01 X-61.3523 Y11.1637 
G01 X-61.4132 Y11.0167 
G01 X-58.1464 Y7.7500 
G01 X-26.4503 Y7.7500 
G01 X-26.3584 Y7.7119 
G01 X-26.2881 Y7.6416 
G01 X-22.2981 Y3.6516 
G01 X-22.2201 Y3.7683 
G01 X-22.1071 Y3.8813 
G01 X-21.9742 Y3.9701 
G01 X-21.8266 Y4.0312 
G01 X-21.6699 Y4.0624 
G01 X-21.5101 Y4.0624 
G01 X-21.3534 Y4.0312 
G01 X-21.2058 Y3.9701 
G01 X-21.0729 Y3.8813 
G01 X-20.9599 Y3.7683 
G01 X-20.8711 Y3.6354 
G01 X-20.8100 Y3.4878 
G01 X-20.7788 Y3.3311 
G00 Z2.0000 
G00 X-25.8588 Y3.3311 
G01 Z-0.0250 F254.00 
G01 X-25.8588 Y1.7489 F508.00 
G01 X-25.8900 Y1.5922 
G01 X-25.9511 Y1.4446 
G01 X-26.0399 Y1.3117 
G01 X-26.1529 Y1.1987 
G01 X-26.2858 Y1.1099 
G01 X-26.4334 Y1.0488 
G01 X-26.5901 Y1.0176 
G01 X-26.7499 Y1.0176 
G01 X-26.9066 Y1.0488 
G01 X-27.0542 Y1.1099 
G01 X-27.1871 Y1.1987 
G01 X-27.3001 Y1.3117 
G01 X-27.3889 Y1.4446 
G01 X-27.4500 Y1.5922 
G01 X-27.4812 Y1.7489 
G01 X-27.4812 Y3.3311 
G01 X-27.4500 Y3.4878 
G01 X-27.3889 Y3.6354 
G01 X-27.3001 Y3.7683 
G01 X-27.1871 Y3.8813 
G01 X-27.0542 Y3.9701 
G01 X-26.9066 Y4.0312 
G01 X-26.7499 Y4.0624 
G01 X-26.5901 Y4.0624 
G01 X-26.4334 Y4.0312 
G01 X-26.2858 Y3.9701 
G01 X-26.1529 Y3.8813 
G01 X-26.0399 Y3.7683 
G01 X-25.9511 Y3.6354 
G01 X-25.8900 Y3.4878 
G01 X-25.8588 Y3.3311 
G00 Z2.0000 
G00 X-28.3988 Y3.3311 
G01 Z-0.0250 F254.00 
G01 X-28.3988 Y1.7489 F508.00 
G01 X-28.4300 Y1.5922 
G01 X-28.4911 Y1.4446 
G01 X-28.5799 Y1.3117 
G01 X-28.6929 Y1.1987 
G01 X-28.8258 Y1.1099 
G01 X-28.9734 Y1.0488 
G01 X-29.1301 Y1.0176 
G01 X-29.2899 Y1.0176 
G01 X-29.4466 Y1.0488 
G01 X-29.5942 Y1.1099 
G01 X-29.7271 Y1.1987 
G01 X-29.8401 Y1.3117 
G01 X-29.9289 Y1.4446 
G01 X-29.9900 Y1.5922 
G01 X-30.0212 Y1.7489 
G01 X-30.0212 Y3.3311 
G01 X-29.9900 Y3.4878 
G01 X-29.9289 Y3.6354 
G01 X-29.8401 Y3.7683 
G01 X-29.7271 Y3.8813 
G01 X-29.5942 Y3.9701 
G01 X-29.4466 Y4.0312 
G01 X-29.2899 Y4.0624 
G01 X-29.1301 Y4.0624 
G01 X-28.9734 Y4.0312 
G01 X-28.8258 Y3.9701 
G01 X-28.6929 Y3.8813 
G01 X-28.5799 Y3.7683 
G01 X-28.4911 Y3.6354 
G01 X-28.4300 Y3.4878 
G01 X-28.3988 Y3.3311 
G00 Z2.0000 
G00 X-19.5310 Y37.7388 
G01 Z-0.0250 F254.00 
G01 X-19.5310 Y37.9024 F508.00 
G01 X-19.5054 Y38.0641 
G01 X-19.4548 Y38.2197 
G01 X-19.3805 Y38.3656 
G01 X-19.2843 Y38.4980 
G01 X-19.1686 Y38.6137 
G01 X-19.0362 Y38.7099 
G01 X-18.8903 Y38.7842 
G01 X-18.7347 Y38.8348 
G01 X-18.5730 Y38.8604 
G01 X-18.4094 Y38.8604 
G01 X-18.2477 Y38.8348 
G01 X-18.0921 Y38.7842 
G01 X-17.9462 Y38.7099 
G01 X-17.8138 Y38.6137 
G01 X-17.6981 Y38.4980 
G01 X-17.6019 Y38.3656 
G01 X-17.5276 Y38.2197 
G01 X-17.4770 Y38.0641 
G01 X-17.4514 Y37.9024 
G01 X-17.4514 Y37.7388 
G01 X-17.4770 Y37.5771 
G01 X-17.5276 Y37.4215 
G01 X-17.6019 Y37.2756 
G01 X-17.6981 Y37.1432 
G01 X-17.8138 Y37.0275 
G01 X-17.9462 Y36.9313 
G01 X-18.0921 Y36.8570 
G01 X-18.2477 Y36.8064 
G01 X-18.4094 Y36.7808 
G01 X-18.5730 Y36.7808 
G01 X-18.7347 Y36.8064 
G01 X-18.8903 Y36.8570 
G01 X-19.0362 Y36.9313 
G01 X-19.1686 Y37.0275 
G01 X-19.2843 Y37.1432 
G01 X-19.3805 Y37.2756 
G01 X-19.4548 Y37.4215 
G01 X-19.5054 Y37.5771 
G01 X-19.5310 Y37.7388 
G00 Z2.0000 
G00 X-13.0286 Y33.2176 
G01 Z-0.0250 F254.00 
G01 X-13.0286 Y33.3812 F508.00 
G01 X-13.0030 Y33.5429 
G01 X-12.9524 Y33.6985 
G01 X-12.8781 Y33.8444 
G01 X-12.7819 Y33.9768 
G01 X-12.6662 Y34.0925 
G01 X-12.5338 Y34.1887 
G01 X-12.3879 Y34.2630 
G01 X-12.2323 Y34.3136 
G01 X-12.0706 Y34.3392 
G01 X-11.9070 Y34.3392 
G01 X-11.7453 Y34.3136 
G01 X-11.5897 Y34.2630 
G01 X-11.4438 Y34.1887 
G01 X-11.3114 Y34.0925 
G01 X-11.1957 Y33.9768 
G01 X-11.0995 Y33.8444 
G01 X-11.0252 Y33.6985 
G01 X-10.9746 Y33.5429 
G01 X-10.9490 Y33.3812 
G01 X-10.9490 Y33.2176 
G01 X-10.9746 Y33.0559 
G01 X-11.0252 Y32.9003 
G01 X-11.0995 Y32.7544 
G01 X-11.1957 Y32.6220 
G01 X-11.3114 Y32.5063 
G01 X-11.4438 Y32.4101 
G01 X-11.5897 Y32.3358 
G01 X-11.7453 Y32.2852 
G01 X-11.9070 Y32.2596 
G01 X-12.0706 Y32.2596 
G01 X-12.2323 Y32.2852 
G01 X-12.3879 Y32.3358 
G01 X-12.5338 Y32.4101 
G01 X-12.6662 Y32.5063 
G01 X-12.7819 Y32.6220 
G01 X-12.8781 Y32.7544 
G01 X-12.9524 Y32.9003 
G01 X-13.0030 Y33.0559 
G01 X-13.0286 Y33.2176 
G00 Z2.0000 
G00 X-19.5310 Y33.2176 
G01 Z-0.0250 F254.00 
G01 X-19.5310 Y33.3812 F508.00 
G01 X-19.5054 Y33.5429 
G01 X-19.4548 Y33.6985 
G01 X-19.3805 Y33.8444 
G01 X-19.2843 Y33.9768 
G01 X-19.1686 Y34.0925 
G01 X-19.0362 Y34.1887 
G01 X-18.8903 Y34.2630 
G01 X-18.7347 Y34.3136 
G01 X-18.5730 Y34.3392 
G01 X-18.4094 Y34.3392 
G01 X-18.2477 Y34.3136 
G01 X-18.0921 Y34.2630 
G01 X-17.9462 Y34.1887 
G01 X-17.8138 Y34.0925 
G01 X-17.6981 Y33.9768 
G01 X-17.6019 Y33.8444 
G01 X-17.5276 Y33.6985 
G01 X-17.4770 Y33.5429 
G01 X-17.4514 Y33.3812 
G01 X-17.4514 Y33.2176 
G01 X-17.4770 Y33.0559 
G01 X-17.5276 Y32.9003 
G01 X-17.6019 Y32.7544 
G01 X-17.6981 Y32.6220 
G01 X-17.8138 Y32.5063 
G01 X-17.9462 Y32.4101 
G01 X-18.0921 Y32.3358 
G01 X-18.2477 Y32.2852 
G01 X-18.4094 Y32.2596 
G01 X-18.5730 Y32.2596 
G01 X-18.7347 Y32.2852 
G01 X-18.8903 Y32.3358 
G01 X-19.0362 Y32.4101 
G01 X-19.1686 Y32.5063 
G01 X-19.2843 Y32.6220 
G01 X-19.3805 Y32.7544 
G01 X-19.4548 Y32.9003 
G01 X-19.5054 Y33.0559 
G01 X-19.5310 Y33.2176 
G00 Z2.0000 
G00 X-23.1886 Y37.7388 
G01 Z-0.0250 F254.00 
G01 X-23.1886 Y37.9024 F508.00 
G01 X-23.1630 Y38.0641 
G01 X-23.1124 Y38.2197 
G01 X-23.0381 Y38.3656 
G01 X-22.9419 Y38.4980 
G01 X-22.8262 Y38.6137 
G01 X-22.6938 Y38.7099 
G01 X-22.5479 Y38.7842 
G01 X-22.3923 Y38.8348 
G01 X-22.2306 Y38.8604 
G01 X-22.0670 Y38.8604 
G01 X-21.9053 Y38.8348 
G01 X-21.7497 Y38.7842 
G01 X-21.6038 Y38.7099 
G01 X-21.4714 Y38.6137 
G01 X-21.3557 Y38.4980 
G01 X-21.2595 Y38.3656 
G01 X-21.1852 Y38.2197 
G01 X-21.1346 Y38.0641 
G01 X-21.1090 Y37.9024 
G01 X-21.1090 Y37.7388 
G01 X-21.1346 Y37.5771 
G01 X-21.1852 Y37.4215 
G01 X-21.2300 Y37.3335 
G01 X-20.3964 Y36.5000 
G01 X-13.6036 Y36.5000 
G01 X-12.8570 Y37.2466 
G01 X-12.8781 Y37.2756 
G01 X-12.9524 Y37.4215 
G01 X-13.0030 Y37.5771 
G01 X-13.0286 Y37.7388 
G01 X-13.0286 Y37.9024 
G01 X-13.0030 Y38.0641 
G01 X-12.9524 Y38.2197 
G01 X-12.8781 Y38.3656 
G01 X-12.7819 Y38.4980 
G01 X-12.6662 Y38.6137 
G01 X-12.5338 Y38.7099 
G01 X-12.3879 Y38.7842 
G01 X-12.2323 Y38.8348 
G01 X-12.0706 Y38.8604 
G01 X-11.9070 Y38.8604 
G01 X-11.7453 Y38.8348 
G01 X-11.5897 Y38.7842 
G01 X-11.4438 Y38.7099 
G01 X-11.4148 Y38.6888 
G01 X-10.6416 Y39.4619 
G01 X-10.5497 Y39.5000 
G01 X-3.2003 Y39.5000 
G01 X-3.1084 Y39.4619 
G01 X-2.3622 Y38.7158 
G01 X-2.2279 Y38.7842 
G01 X-2.0723 Y38.8348 
G01 X-1.9106 Y38.8604 
G01 X-1.7470 Y38.8604 
G01 X-1.5853 Y38.8348 
G01 X-1.4297 Y38.7842 
G01 X-1.2838 Y38.7099 
G01 X-1.1514 Y38.6137 
G01 X-1.0357 Y38.4980 
G01 X-0.9395 Y38.3656 
G01 X-0.8652 Y38.2197 
G01 X-0.8146 Y38.0641 
G01 X-0.7890 Y37.9024 
G01 X-0.7890 Y37.7388 
G01 X-0.8146 Y37.5771 
G01 X-0.8652 Y37.4215 
G01 X-0.9395 Y37.2756 
G01 X-1.0357 Y37.1432 
G01 X-1.1514 Y37.0275 
G01 X-1.2838 Y36.9313 
G01 X-1.4297 Y36.8570 
G01 X-1.5853 Y36.8064 
G01 X-1.7470 Y36.7808 
G01 X-1.9106 Y36.7808 
G01 X-2.0723 Y36.8064 
G01 X-2.2279 Y36.8570 
G01 X-2.3738 Y36.9313 
G01 X-2.5062 Y37.0275 
G01 X-2.6219 Y37.1432 
G01 X-2.7181 Y37.2756 
G01 X-2.7924 Y37.4215 
G01 X-2.8430 Y37.5771 
G01 X-2.8686 Y37.7388 
G01 X-2.8686 Y37.9024 
G01 X-2.8430 Y38.0641 
G01 X-2.7924 Y38.2197 
G01 X-2.7185 Y38.3649 
G01 X-3.3536 Y39.0000 
G01 X-10.3964 Y39.0000 
G01 X-11.0763 Y38.3201 
G01 X-11.0252 Y38.2197 
G01 X-10.9746 Y38.0641 
G01 X-10.9490 Y37.9024 
G01 X-10.9490 Y37.7388 
G01 X-10.9746 Y37.5771 
G01 X-11.0252 Y37.4215 
G01 X-11.0995 Y37.2756 
G01 X-11.1957 Y37.1432 
G01 X-11.3114 Y37.0275 
G01 X-11.4438 Y36.9313 
G01 X-11.5897 Y36.8570 
G01 X-11.7453 Y36.8064 
G01 X-11.9070 Y36.7808 
G01 X-12.0706 Y36.7808 
G01 X-12.2323 Y36.8064 
G01 X-12.3879 Y36.8570 
G01 X-12.4883 Y36.9081 
G01 X-13.2881 Y36.1084 
G01 X-13.3584 Y36.0381 
G01 X-13.4503 Y36.0000 
G01 X-20.5497 Y36.0000 
G01 X-20.6416 Y36.0381 
G01 X-21.5639 Y36.9603 
G01 X-21.6038 Y36.9313 
G01 X-21.7497 Y36.8570 
G01 X-21.9053 Y36.8064 
G01 X-22.0670 Y36.7808 
G01 X-22.2306 Y36.7808 
G01 X-22.3923 Y36.8064 
G01 X-22.5479 Y36.8570 
G01 X-22.6938 Y36.9313 
G01 X-22.8262 Y37.0275 
G01 X-22.9419 Y37.1432 
G01 X-23.0381 Y37.2756 
G01 X-23.1124 Y37.4215 
G01 X-23.1630 Y37.5771 
G01 X-23.1886 Y37.7388 
G00 Z2.0000 
G00 X-29.6910 Y37.7388 
G01 Z-0.0250 F254.00 
G01 X-29.6910 Y37.9024 F508.00 
G01 X-29.6654 Y38.0641 
G01 X-29.6148 Y38.2197 
G01 X-29.5405 Y38.3656 
G01 X-29.4443 Y38.4980 
G01 X-29.3286 Y38.6137 
G01 X-29.1962 Y38.7099 
G01 X-29.0503 Y38.7842 
G01 X-28.8947 Y38.8348 
G01 X-28.7330 Y38.8604 
G01 X-28.5694 Y38.8604 
G01 X-28.4077 Y38.8348 
G01 X-28.2521 Y38.7842 
G01 X-28.1062 Y38.7099 
G01 X-27.9738 Y38.6137 
G01 X-27.8581 Y38.4980 
G01 X-27.7619 Y38.3656 
G01 X-27.6876 Y38.2197 
G01 X-27.6370 Y38.0641 
G01 X-27.6114 Y37.9024 
G01 X-27.6114 Y37.7388 
G01 X-27.6370 Y37.5771 
G01 X-27.6876 Y37.4215 
G01 X-27.7619 Y37.2756 
G01 X-27.8581 Y37.1432 
G01 X-27.9738 Y37.0275 
G01 X-28.1062 Y36.9313 
G01 X-28.2521 Y36.8570 
G01 X-28.4077 Y36.8064 
G01 X-28.5694 Y36.7808 
G01 X-28.7330 Y36.7808 
G01 X-28.8947 Y36.8064 
G01 X-29.0503 Y36.8570 
G01 X-29.1962 Y36.9313 
G01 X-29.3286 Y37.0275 
G01 X-29.4443 Y37.1432 
G01 X-29.5405 Y37.2756 
G01 X-29.6148 Y37.4215 
G01 X-29.6654 Y37.5771 
G01 X-29.6910 Y37.7388 
G00 Z2.0000 
G00 X-29.6910 Y33.2176 
G01 Z-0.0250 F254.00 
G01 X-29.6910 Y33.3812 F508.00 
G01 X-29.6654 Y33.5429 
G01 X-29.6148 Y33.6985 
G01 X-29.5405 Y33.8444 
G01 X-29.4443 Y33.9768 
G01 X-29.3286 Y34.0925 
G01 X-29.1962 Y34.1887 
G01 X-29.0503 Y34.2630 
G01 X-28.8947 Y34.3136 
G01 X-28.7330 Y34.3392 
G01 X-28.5694 Y34.3392 
G01 X-28.4077 Y34.3136 
G01 X-28.2521 Y34.2630 
G01 X-28.1062 Y34.1887 
G01 X-27.9738 Y34.0925 
G01 X-27.8581 Y33.9768 
G01 X-27.7619 Y33.8444 
G01 X-27.6876 Y33.6985 
G01 X-27.6370 Y33.5429 
G01 X-27.6114 Y33.3812 
G01 X-27.6114 Y33.2176 
G01 X-27.6370 Y33.0559 
G01 X-27.6876 Y32.9003 
G01 X-27.7619 Y32.7544 
G01 X-27.8581 Y32.6220 
G01 X-27.9738 Y32.5063 
G01 X-28.1062 Y32.4101 
G01 X-28.2521 Y32.3358 
G01 X-28.4077 Y32.2852 
G01 X-28.5694 Y32.2596 
G01 X-28.7330 Y32.2596 
G01 X-28.8947 Y32.2852 
G01 X-29.0503 Y32.3358 
G01 X-29.1962 Y32.4101 
G01 X-29.3286 Y32.5063 
G01 X-29.4443 Y32.6220 
G01 X-29.5405 Y32.7544 
G01 X-29.6148 Y32.9003 
G01 X-29.6654 Y33.0559 
G01 X-29.6910 Y33.2176 
G00 Z2.0000 
G00 X-33.3486 Y37.7388 
G01 Z-0.0250 F254.00 
G01 X-33.3486 Y37.9024 F508.00 
G01 X-33.3230 Y38.0641 
G01 X-33.2724 Y38.2197 
G01 X-33.1981 Y38.3656 
G01 X-33.1019 Y38.4980 
G01 X-32.9862 Y38.6137 
G01 X-32.8538 Y38.7099 
G01 X-32.7079 Y38.7842 
G01 X-32.5523 Y38.8348 
G01 X-32.3906 Y38.8604 
G01 X-32.2270 Y38.8604 
G01 X-32.0653 Y38.8348 
G01 X-31.9097 Y38.7842 
G01 X-31.7638 Y38.7099 
G01 X-31.6314 Y38.6137 
G01 X-31.5157 Y38.4980 
G01 X-31.4195 Y38.3656 
G01 X-31.3452 Y38.2197 
G01 X-31.2946 Y38.0641 
G01 X-31.2690 Y37.9024 
G01 X-31.2690 Y37.7388 
G01 X-31.2946 Y37.5771 
G01 X-31.3452 Y37.4215 
G01 X-31.4195 Y37.2756 
G01 X-31.5157 Y37.1432 
G01 X-31.6314 Y37.0275 
G01 X-31.7638 Y36.9313 
G01 X-31.9097 Y36.8570 
G01 X-32.0653 Y36.8064 
G01 X-32.2270 Y36.7808 
G01 X-32.3906 Y36.7808 
G01 X-32.5523 Y36.8064 
G01 X-32.7079 Y36.8570 
G01 X-32.8538 Y36.9313 
G01 X-32.9862 Y37.0275 
G01 X-33.1019 Y37.1432 
G01 X-33.1981 Y37.2756 
G01 X-33.2724 Y37.4215 
G01 X-33.3230 Y37.5771 
G01 X-33.3486 Y37.7388 
G00 Z2.0000 
G00 X-39.8510 Y37.7388 
G01 Z-0.0250 F254.00 
G01 X-39.8510 Y37.9024 F508.00 
G01 X-39.8254 Y38.0641 
G01 X-39.7748 Y38.2197 
G01 X-39.7005 Y38.3656 
G01 X-39.6043 Y38.4980 
G01 X-39.4886 Y38.6137 
G01 X-39.3562 Y38.7099 
G01 X-39.2103 Y38.7842 
G01 X-39.0547 Y38.8348 
G01 X-38.8930 Y38.8604 
G01 X-38.7294 Y38.8604 
G01 X-38.5677 Y38.8348 
G01 X-38.4121 Y38.7842 
G01 X-38.2662 Y38.7099 
G01 X-38.1338 Y38.6137 
G01 X-38.0181 Y38.4980 
G01 X-37.9219 Y38.3656 
G01 X-37.8476 Y38.2197 
G01 X-37.7970 Y38.0641 
G01 X-37.7714 Y37.9024 
G01 X-37.7714 Y37.7388 
G01 X-37.7970 Y37.5771 
G01 X-37.8476 Y37.4215 
G01 X-37.9219 Y37.2756 
G01 X-38.0181 Y37.1432 
G01 X-38.1338 Y37.0275 
G01 X-38.2662 Y36.9313 
G01 X-38.4121 Y36.8570 
G01 X-38.5677 Y36.8064 
G01 X-38.7294 Y36.7808 
G01 X-38.8930 Y36.7808 
G01 X-39.0547 Y36.8064 
G01 X-39.2103 Y36.8570 
G01 X-39.3562 Y36.9313 
G01 X-39.4886 Y37.0275 
G01 X-39.6043 Y37.1432 
G01 X-39.7005 Y37.2756 
G01 X-39.7748 Y37.4215 
G01 X-39.8254 Y37.5771 
G01 X-39.8510 Y37.7388 
G00 Z2.0000 
G00 X-33.3486 Y33.2176 
G01 Z-0.0250 F254.00 
G01 X-33.3486 Y33.3812 F508.00 
G01 X-33.3230 Y33.5429 
G01 X-33.2724 Y33.6985 
G01 X-33.1981 Y33.8444 
G01 X-33.1019 Y33.9768 
G01 X-32.9862 Y34.0925 
G01 X-32.8538 Y34.1887 
G01 X-32.7079 Y34.2630 
G01 X-32.5523 Y34.3136 
G01 X-32.3906 Y34.3392 
G01 X-32.2270 Y34.3392 
G01 X-32.0653 Y34.3136 
G01 X-31.9097 Y34.2630 
G01 X-31.7638 Y34.1887 
G01 X-31.6314 Y34.0925 
G01 X-31.5157 Y33.9768 
G01 X-31.4195 Y33.8444 
G01 X-31.3452 Y33.6985 
G01 X-31.2946 Y33.5429 
G01 X-31.2690 Y33.3812 
G01 X-31.2690 Y33.2176 
G01 X-31.2946 Y33.0559 
G01 X-31.3452 Y32.9003 
G01 X-31.4195 Y32.7544 
G01 X-31.5157 Y32.6220 
G01 X-31.6314 Y32.5063 
G01 X-31.7638 Y32.4101 
G01 X-31.9097 Y32.3358 
G01 X-32.0653 Y32.2852 
G01 X-32.2270 Y32.2596 
G01 X-32.3906 Y32.2596 
G01 X-32.5523 Y32.2852 
G01 X-32.7079 Y32.3358 
G01 X-32.8538 Y32.4101 
G01 X-32.9862 Y32.5063 
G01 X-33.1019 Y32.6220 
G01 X-33.1981 Y32.7544 
G01 X-33.2724 Y32.9003 
G01 X-33.3230 Y33.0559 
G01 X-33.3486 Y33.2176 
G00 Z2.0000 
G00 X-39.8510 Y33.2176 
G01 Z-0.0250 F254.00 
G01 X-39.8510 Y33.3812 F508.00 
G01 X-39.8254 Y33.5429 
G01 X-39.7748 Y33.6985 
G01 X-39.7005 Y33.8444 
G01 X-39.6043 Y33.9768 
G01 X-39.4886 Y34.0925 
G01 X-39.3562 Y34.1887 
G01 X-39.2103 Y34.2630 
G01 X-39.0547 Y34.3136 
G01 X-38.8930 Y34.3392 
G01 X-38.7294 Y34.3392 
G01 X-38.5677 Y34.3136 
G01 X-38.4121 Y34.2630 
G01 X-38.2662 Y34.1887 
G01 X-38.1338 Y34.0925 
G01 X-38.0181 Y33.9768 
G01 X-37.9219 Y33.8444 
G01 X-37.8476 Y33.6985 
G01 X-37.7970 Y33.5429 
G01 X-37.7714 Y33.3812 
G01 X-37.7714 Y33.2176 
G01 X-37.7970 Y33.0559 
G01 X-37.8476 Y32.9003 
G01 X-37.9219 Y32.7544 
G01 X-38.0181 Y32.6220 
G01 X-38.1338 Y32.5063 
G01 X-38.2662 Y32.4101 
G01 X-38.4121 Y32.3358 
G01 X-38.5677 Y32.2852 
G01 X-38.7294 Y32.2596 
G01 X-38.8930 Y32.2596 
G01 X-39.0547 Y32.2852 
G01 X-39.2103 Y32.3358 
G01 X-39.3562 Y32.4101 
G01 X-39.4886 Y32.5063 
G01 X-39.6043 Y32.6220 
G01 X-39.7005 Y32.7544 
G01 X-39.7748 Y32.9003 
G01 X-39.8254 Y33.0559 
G01 X-39.8510 Y33.2176 
G00 Z2.0000 
G00 X-49.9888 Y3.3311 
G01 Z-0.0250 F254.00 
G01 X-49.9888 Y1.7489 F508.00 
G01 X-50.0200 Y1.5922 
G01 X-50.0811 Y1.4446 
G01 X-50.1699 Y1.3117 
G01 X-50.2829 Y1.1987 
G01 X-50.4158 Y1.1099 
G01 X-50.5634 Y1.0488 
G01 X-50.7201 Y1.0176 
G01 X-50.8799 Y1.0176 
G01 X-51.0366 Y1.0488 
G01 X-51.1842 Y1.1099 
G01 X-51.3171 Y1.1987 
G01 X-51.4301 Y1.3117 
G01 X-51.5189 Y1.4446 
G01 X-51.5800 Y1.5922 
G01 X-51.6112 Y1.7489 
G01 X-51.6112 Y3.3311 
G01 X-51.5800 Y3.4878 
G01 X-51.5189 Y3.6354 
G01 X-51.4301 Y3.7683 
G01 X-51.3171 Y3.8813 
G01 X-51.1842 Y3.9701 
G01 X-51.0366 Y4.0312 
G01 X-50.8799 Y4.0624 
G01 X-50.7201 Y4.0624 
G01 X-50.5634 Y4.0312 
G01 X-50.4158 Y3.9701 
G01 X-50.2829 Y3.8813 
G01 X-50.1699 Y3.7683 
G01 X-50.0811 Y3.6354 
G01 X-50.0200 Y3.4878 
G01 X-49.9888 Y3.3311 
G00 Z2.0000 
G00 X-52.5288 Y3.3311 
G01 Z-0.0250 F254.00 
G01 X-52.5288 Y1.7489 F508.00 
G01 X-52.5600 Y1.5922 
G01 X-52.6211 Y1.4446 
G01 X-52.7099 Y1.3117 
G01 X-52.8229 Y1.1987 
G01 X-52.9558 Y1.1099 
G01 X-53.1034 Y1.0488 
G01 X-53.2601 Y1.0176 
G01 X-53.4199 Y1.0176 
G01 X-53.5766 Y1.0488 
G01 X-53.7242 Y1.1099 
G01 X-53.8571 Y1.1987 
G01 X-53.9701 Y1.3117 
G01 X-54.0589 Y1.4446 
G01 X-54.1200 Y1.5922 
G01 X-54.1512 Y1.7489 
G01 X-54.1512 Y3.3311 
G01 X-54.1200 Y3.4878 
G01 X-54.0589 Y3.6354 
G01 X-53.9701 Y3.7683 
G01 X-53.8571 Y3.8813 
G01 X-53.7242 Y3.9701 
G01 X-53.5766 Y4.0312 
G01 X-53.4199 Y4.0624 
G01 X-53.2601 Y4.0624 
G01 X-53.1034 Y4.0312 
G01 X-52.9558 Y3.9701 
G01 X-52.8229 Y3.8813 
G01 X-52.7099 Y3.7683 
G01 X-52.6211 Y3.6354 
G01 X-52.5600 Y3.4878 
G01 X-52.5288 Y3.3311 
G00 Z2.0000 
G00 X-55.0688 Y3.3311 
G01 Z-0.0250 F254.00 
G01 X-55.0688 Y1.7489 F508.00 
G01 X-55.1000 Y1.5922 
G01 X-55.1611 Y1.4446 
G01 X-55.2499 Y1.3117 
G01 X-55.3629 Y1.1987 
G01 X-55.4958 Y1.1099 
G01 X-55.6434 Y1.0488 
G01 X-55.8001 Y1.0176 
G01 X-55.9599 Y1.0176 
G01 X-56.1166 Y1.0488 
G01 X-56.2642 Y1.1099 
G01 X-56.3971 Y1.1987 
G01 X-56.5101 Y1.3117 
G01 X-56.5989 Y1.4446 
G01 X-56.6600 Y1.5922 
G01 X-56.6912 Y1.7489 
G01 X-56.6912 Y3.3311 
G01 X-56.6600 Y3.4878 
G01 X-56.5989 Y3.6354 
G01 X-56.5101 Y3.7683 
G01 X-56.3971 Y3.8813 
G01 X-56.2642 Y3.9701 
G01 X-56.1166 Y4.0312 
G01 X-55.9599 Y4.0624 
G01 X-55.8001 Y4.0624 
G01 X-55.6434 Y4.0312 
G01 X-55.4958 Y3.9701 
G01 X-55.3629 Y3.8813 
G01 X-55.2499 Y3.7683 
G01 X-55.1611 Y3.6354 
G01 X-55.1000 Y3.4878 
G01 X-55.0688 Y3.3311 
G00 Z2.0000 
G00 X-57.8536 Y27.5000 
G01 Z-0.0250 F254.00 
G01 X-58.8862 Y27.5000 F508.00 
G01 X-58.9810 Y27.3581 
G01 X-59.1081 Y27.2310 
G01 X-59.2576 Y27.1311 
G01 X-59.4237 Y27.0623 
G01 X-59.6001 Y27.0272 
G01 X-59.7799 Y27.0272 
G01 X-59.9563 Y27.0623 
G01 X-60.1224 Y27.1311 
G01 X-60.2719 Y27.2310 
G01 X-60.3990 Y27.3581 
G01 X-60.4989 Y27.5076 
G01 X-60.5677 Y27.6737 
G01 X-60.6028 Y27.8501 
G01 X-60.6028 Y28.0299 
G01 X-60.5677 Y28.2063 
G01 X-60.4989 Y28.3724 
G01 X-60.3990 Y28.5219 
G01 X-60.2719 Y28.6490 
G01 X-60.1224 Y28.7489 
G01 X-59.9563 Y28.8177 
G01 X-59.7799 Y28.8528 
G01 X-59.6001 Y28.8528 
G01 X-59.4237 Y28.8177 
G01 X-59.2576 Y28.7489 
G01 X-59.1081 Y28.6490 
G01 X-58.9810 Y28.5219 
G01 X-58.8811 Y28.3724 
G01 X-58.8123 Y28.2063 
G01 X-58.7772 Y28.0299 
G01 X-58.7772 Y28.0000 
G01 X-57.7003 Y28.0000 
G01 X-57.6084 Y27.9619 
G01 X-57.5381 Y27.8916 
G01 X-56.2153 Y26.5689 
G01 X-56.1773 Y26.5846 
G01 X-56.0599 Y26.6080 
G01 X-55.9401 Y26.6080 
G01 X-55.8227 Y26.5846 
G01 X-55.7120 Y26.5388 
G01 X-55.6124 Y26.4723 
G01 X-55.5277 Y26.3876 
G01 X-55.4612 Y26.2880 
G01 X-55.4154 Y26.1773 
G01 X-55.3920 Y26.0599 
G01 X-55.3920 Y25.9401 
G01 X-55.4154 Y25.8227 
G01 X-55.4612 Y25.7120 
G01 X-55.5277 Y25.6124 
G01 X-55.6124 Y25.5277 
G01 X-55.7120 Y25.4612 
G01 X-55.8227 Y25.4154 
G01 X-55.9401 Y25.3920 
G01 X-56.0599 Y25.3920 
G01 X-56.1773 Y25.4154 
G01 X-56.2880 Y25.4612 
G01 X-56.3876 Y25.5277 
G01 X-56.4723 Y25.6124 
G01 X-56.5388 Y25.7120 
G01 X-56.5846 Y25.8227 
G01 X-56.6080 Y25.9401 
G01 X-56.6080 Y26.0599 
G01 X-56.5846 Y26.1773 
G01 X-56.5689 Y26.2153 
G01 X-57.8536 Y27.5000 
G00 Z2.0000 
G00 X-18.2881 Y26.6084 
G01 Z-0.0250 F254.00 
G01 X-18.3584 Y26.5381 F508.00 
G01 X-18.4503 Y26.5000 
G01 X-46.0931 Y26.5000 
G01 X-46.1123 Y26.4037 
G01 X-46.1811 Y26.2376 
G01 X-46.2810 Y26.0881 
G01 X-46.4081 Y25.9610 
G01 X-46.5576 Y25.8611 
G01 X-46.7237 Y25.7923 
G01 X-46.9001 Y25.7572 
G01 X-47.0799 Y25.7572 
G01 X-47.2563 Y25.7923 
G01 X-47.4224 Y25.8611 
G01 X-47.5719 Y25.9610 
G01 X-47.6990 Y26.0881 
G01 X-47.7989 Y26.2376 
G01 X-47.8677 Y26.4037 
G01 X-47.8869 Y26.5000 
G01 X-49.9039 Y26.5000 
G01 X-49.9620 Y26.4612 
G01 X-50.0727 Y26.4154 
G01 X-50.1901 Y26.3920 
G01 X-50.3099 Y26.3920 
G01 X-50.4273 Y26.4154 
G01 X-50.5380 Y26.4612 
G01 X-50.6376 Y26.5277 
G01 X-50.7223 Y26.6124 
G01 X-50.7888 Y26.7120 
G01 X-50.8346 Y26.8227 
G01 X-50.8580 Y26.9401 
G01 X-50.8580 Y27.0599 
G01 X-50.8346 Y27.1773 
G01 X-50.7888 Y27.2880 
G01 X-50.7223 Y27.3876 
G01 X-50.6376 Y27.4723 
G01 X-50.5380 Y27.5388 
G01 X-50.4273 Y27.5846 
G01 X-50.3099 Y27.6080 
G01 X-50.1901 Y27.6080 
G01 X-50.0727 Y27.5846 
G01 X-49.9620 Y27.5388 
G01 X-49.8624 Y27.4723 
G01 X-49.7777 Y27.3876 
G01 X-49.7112 Y27.2880 
G01 X-49.6654 Y27.1773 
G01 X-49.6420 Y27.0599 
G01 X-49.6420 Y27.0000 
G01 X-47.8413 Y27.0000 
G01 X-47.7989 Y27.1024 
G01 X-47.6990 Y27.2519 
G01 X-47.5719 Y27.3790 
G01 X-47.4224 Y27.4789 
G01 X-47.2563 Y27.5477 
G01 X-47.0799 Y27.5828 
G01 X-46.9001 Y27.5828 
G01 X-46.7237 Y27.5477 
G01 X-46.5576 Y27.4789 
G01 X-46.4081 Y27.3790 
G01 X-46.2810 Y27.2519 
G01 X-46.1811 Y27.1024 
G01 X-46.1387 Y27.0000 
G01 X-18.6036 Y27.0000 
G01 X-17.3189 Y28.2847 
G01 X-17.3346 Y28.3227 
G01 X-17.3580 Y28.4401 
G01 X-17.3580 Y28.5599 
G01 X-17.3346 Y28.6773 
G01 X-17.2888 Y28.7880 
G01 X-17.2223 Y28.8876 
G01 X-17.1376 Y28.9723 
G01 X-17.0380 Y29.0388 
G01 X-16.9273 Y29.0846 
G01 X-16.8099 Y29.1080 
G01 X-16.6901 Y29.1080 
G01 X-16.5726 Y29.0846 
G01 X-16.4620 Y29.0388 
G01 X-16.3624 Y28.9723 
G01 X-16.2777 Y28.8876 
G01 X-16.2112 Y28.7880 
G01 X-16.1654 Y28.6773 
G01 X-16.1420 Y28.5599 
G01 X-16.1420 Y28.4401 
G01 X-16.1654 Y28.3227 
G01 X-16.2112 Y28.2120 
G01 X-16.2777 Y28.1124 
G01 X-16.3624 Y28.0277 
G01 X-16.4620 Y27.9612 
G01 X-16.5726 Y27.9154 
G01 X-16.6901 Y27.8920 
G01 X-16.8099 Y27.8920 
G01 X-16.9273 Y27.9154 
G01 X-16.9653 Y27.9311 
G01 X-18.2881 Y26.6084 
G00 Z2.0000 
G00 X-48.9619 Y30.6416 
G01 Z-0.0250 F254.00 
G01 X-48.8916 Y30.7119 F508.00 
G01 X-48.7997 Y30.7500 
G01 X-32.9503 Y30.7500 
G01 X-32.8584 Y30.7119 
G01 X-30.4653 Y28.3189 
G01 X-30.4273 Y28.3346 
G01 X-30.3099 Y28.3580 
G01 X-30.1901 Y28.3580 
G01 X-30.0727 Y28.3346 
G01 X-29.9620 Y28.2888 
G01 X-29.8624 Y28.2223 
G01 X-29.7777 Y28.1376 
G01 X-29.7112 Y28.0380 
G01 X-29.6654 Y27.9273 
G01 X-29.6420 Y27.8099 
G01 X-29.6420 Y27.6901 
G01 X-29.6654 Y27.5727 
G01 X-29.7112 Y27.4620 
G01 X-29.7777 Y27.3624 
G01 X-29.8624 Y27.2777 
G01 X-29.9620 Y27.2112 
G01 X-30.0727 Y27.1654 
G01 X-30.1901 Y27.1420 
G01 X-30.3099 Y27.1420 
G01 X-30.4273 Y27.1654 
G01 X-30.5380 Y27.2112 
G01 X-30.6376 Y27.2777 
G01 X-30.7223 Y27.3624 
G01 X-30.7888 Y27.4620 
G01 X-30.8346 Y27.5727 
G01 X-30.8580 Y27.6901 
G01 X-30.8580 Y27.8099 
G01 X-30.8346 Y27.9273 
G01 X-30.8189 Y27.9653 
G01 X-33.1036 Y30.2500 
G01 X-48.6464 Y30.2500 
G01 X-48.6811 Y30.2153 
G01 X-48.6654 Y30.1773 
G01 X-48.6420 Y30.0599 
G01 X-48.6420 Y29.9401 
G01 X-48.6654 Y29.8227 
G01 X-48.7112 Y29.7120 
G01 X-48.7777 Y29.6124 
G01 X-48.8624 Y29.5277 
G01 X-48.9620 Y29.4612 
G01 X-49.0727 Y29.4154 
G01 X-49.1901 Y29.3920 
G01 X-49.3099 Y29.3920 
G01 X-49.4273 Y29.4154 
G01 X-49.5380 Y29.4612 
G01 X-49.6376 Y29.5277 
G01 X-49.7223 Y29.6124 
G01 X-49.7888 Y29.7120 
G01 X-49.8346 Y29.8227 
G01 X-49.8580 Y29.9401 
G01 X-49.8580 Y30.0599 
G01 X-49.8346 Y30.1773 
G01 X-49.7888 Y30.2880 
G01 X-49.7223 Y30.3876 
G01 X-49.6376 Y30.4723 
G01 X-49.5380 Y30.5388 
G01 X-49.4273 Y30.5846 
G01 X-49.3099 Y30.6080 
G01 X-49.1901 Y30.6080 
G01 X-49.0727 Y30.5846 
G01 X-49.0347 Y30.5689 
G01 X-48.9619 Y30.6416 
G00 Z2.0000 
G00 X-34.4455 Y5.2500 
G01 Z-0.0250 F254.00 
G01 X-34.4612 Y5.2120 F508.00 
G01 X-34.5277 Y5.1124 
G01 X-34.6124 Y5.0277 
G01 X-34.7120 Y4.9612 
G01 X-34.8227 Y4.9154 
G01 X-34.9401 Y4.8920 
G01 X-35.0599 Y4.8920 
G01 X-35.1773 Y4.9154 
G01 X-35.2880 Y4.9612 
G01 X-35.3876 Y5.0277 
G01 X-35.4723 Y5.1124 
G01 X-35.5388 Y5.2120 
G01 X-35.5846 Y5.3227 
G01 X-35.6080 Y5.4401 
G01 X-35.6080 Y5.5599 
G01 X-35.5846 Y5.6773 
G01 X-35.5388 Y5.7880 
G01 X-35.4723 Y5.8876 
G01 X-35.3876 Y5.9723 
G01 X-35.2880 Y6.0388 
G01 X-35.1773 Y6.0846 
G01 X-35.0599 Y6.1080 
G01 X-34.9401 Y6.1080 
G01 X-34.8227 Y6.0846 
G01 X-34.7120 Y6.0388 
G01 X-34.6124 Y5.9723 
G01 X-34.5277 Y5.8876 
G01 X-34.4612 Y5.7880 
G01 X-34.4455 Y5.7500 
G01 X-30.0545 Y5.7500 
G01 X-30.0388 Y5.7880 
G01 X-29.9723 Y5.8876 
G01 X-29.8876 Y5.9723 
G01 X-29.7880 Y6.0388 
G01 X-29.6773 Y6.0846 
G01 X-29.5599 Y6.1080 
G01 X-29.4401 Y6.1080 
G01 X-29.3227 Y6.0846 
G01 X-29.2120 Y6.0388 
G01 X-29.1124 Y5.9723 
G01 X-29.0277 Y5.8876 
G01 X-28.9612 Y5.7880 
G01 X-28.9154 Y5.6773 
G01 X-28.8920 Y5.5599 
G01 X-28.8920 Y5.4401 
G01 X-28.9154 Y5.3227 
G01 X-28.9612 Y5.2120 
G01 X-29.0277 Y5.1124 
G01 X-29.1124 Y5.0277 
G01 X-29.2120 Y4.9612 
G01 X-29.3227 Y4.9154 
G01 X-29.4401 Y4.8920 
G01 X-29.5599 Y4.8920 
G01 X-29.6773 Y4.9154 
G01 X-29.7880 Y4.9612 
G01 X-29.8876 Y5.0277 
G01 X-29.9723 Y5.1124 
G01 X-30.0388 Y5.2120 
G01 X-30.0545 Y5.2500 
G01 X-34.4455 Y5.2500 
G00 Z2.0000 
G00 X-4.1400 Y2.4141 
G01 Z-0.0250 F254.00 
G01 X-4.1400 Y2.6659 F508.00 
G01 X-4.1006 Y2.9147 
G01 X-4.0228 Y3.1542 
G01 X-3.9084 Y3.3786 
G01 X-3.7604 Y3.5823 
G01 X-3.5823 Y3.7604 
G01 X-3.3786 Y3.9084 
G01 X-3.1542 Y4.0228 
G01 X-2.9147 Y4.1006 
G01 X-2.6659 Y4.1400 
G01 X-2.4141 Y4.1400 
G01 X-2.1653 Y4.1006 
G01 X-1.9258 Y4.0228 
G01 X-1.7014 Y3.9084 
G01 X-1.4977 Y3.7604 
G01 X-1.3196 Y3.5823 
G01 X-1.1716 Y3.3786 
G01 X-1.0572 Y3.1542 
G01 X-0.9794 Y2.9147 
G01 X-0.9400 Y2.6659 
G01 X-0.9400 Y2.4141 
G01 X-0.9794 Y2.1653 
G01 X-1.0572 Y1.9258 
G01 X-1.1716 Y1.7014 
G01 X-1.3196 Y1.4977 
G01 X-1.4977 Y1.3196 
G01 X-1.7014 Y1.1716 
G01 X-1.9258 Y1.0572 
G01 X-2.1653 Y0.9794 
G01 X-2.4141 Y0.9400 
G01 X-2.6659 Y0.9400 
G01 X-2.9147 Y0.9794 
G01 X-3.1542 Y1.0572 
G01 X-3.3786 Y1.1716 
G01 X-3.5823 Y1.3196 
G01 X-3.7604 Y1.4977 
G01 X-3.9084 Y1.7014 
G01 X-4.0228 Y1.9258 
G01 X-4.1006 Y2.1653 
G01 X-4.1400 Y2.4141 
G00 Z2.0000 
G00 X-65.1000 Y50.6741 
G01 Z-0.0250 F254.00 
G01 X-65.1000 Y50.9259 F508.00 
G01 X-65.0606 Y51.1747 
G01 X-64.9828 Y51.4142 
G01 X-64.8684 Y51.6386 
G01 X-64.7204 Y51.8423 
G01 X-64.5423 Y52.0204 
G01 X-64.3386 Y52.1684 
G01 X-64.1142 Y52.2828 
G01 X-63.8747 Y52.3606 
G01 X-63.6259 Y52.4000 
G01 X-63.3741 Y52.4000 
G01 X-63.1253 Y52.3606 
G01 X-62.8858 Y52.2828 
G01 X-62.6614 Y52.1684 
G01 X-62.4577 Y52.0204 
G01 X-62.2796 Y51.8423 
G01 X-62.1316 Y51.6386 
G01 X-62.0172 Y51.4142 
G01 X-61.9394 Y51.1747 
G01 X-61.9000 Y50.9259 
G01 X-61.9000 Y50.6741 
G01 X-61.9394 Y50.4253 
G01 X-62.0172 Y50.1858 
G01 X-62.1316 Y49.9614 
G01 X-62.2796 Y49.7577 
G01 X-62.4577 Y49.5796 
G01 X-62.6614 Y49.4316 
G01 X-62.8858 Y49.3172 
G01 X-63.1253 Y49.2394 
G01 X-63.3741 Y49.2000 
G01 X-63.6259 Y49.2000 
G01 X-63.8747 Y49.2394 
G01 X-64.1142 Y49.3172 
G01 X-64.3386 Y49.4316 
G01 X-64.5423 Y49.5796 
G01 X-64.7204 Y49.7577 
G01 X-64.8684 Y49.9614 
G01 X-64.9828 Y50.1858 
G01 X-65.0606 Y50.4253 
G01 X-65.1000 Y50.6741 
G00 Z2.0000 
G00 X-34.3824 Y5.1500 
G01 Z-0.0250 F254.00 
G01 X-34.4501 Y5.0487 F508.00 
G01 X-34.5487 Y4.9501 
G01 X-34.6646 Y4.8726 
G01 X-34.7192 Y4.8500 
G01 X-29.7808 Y4.8500 
G01 X-29.8354 Y4.8726 
G01 X-29.9513 Y4.9501 
G01 X-30.0499 Y5.0487 
G01 X-30.1176 Y5.1500 
G01 X-34.3824 Y5.1500 
G00 Z2.0000 
G00 X-35.5420 Y4.9303 
G01 Z-0.0250 F254.00 
G01 X-35.5580 Y4.8500 F508.00 
G01 X-35.2808 Y4.8500 
G01 X-35.3354 Y4.8726 
G01 X-35.4513 Y4.9501 
G01 X-35.5420 Y5.0407 
G01 X-35.5420 Y4.9303 
G00 Z2.0000 
G00 X-49.0301 Y30.7149 
G01 Z-0.0250 F254.00 
G01 X-48.9649 Y30.7801 F508.00 
G01 X-48.8851 Y30.8261 
G01 X-48.7961 Y30.8500 
G01 X-47.4638 Y30.8500 
G01 X-47.4697 Y30.8525 
G01 X-47.6356 Y30.9633 
G01 X-47.7767 Y31.1044 
G01 X-47.8875 Y31.2703 
G01 X-47.9413 Y31.4000 
G01 X-61.2787 Y31.4000 
G01 X-61.3325 Y31.2703 
G01 X-61.4433 Y31.1044 
G01 X-61.5844 Y30.9633 
G01 X-61.7503 Y30.8525 
G01 X-61.7562 Y30.8500 
G01 X-51.7039 Y30.8500 
G01 X-51.6149 Y30.8261 
G01 X-51.5351 Y30.7801 
G01 X-51.4699 Y30.7149 
G01 X-50.4392 Y29.6842 
G01 X-50.3197 Y29.7080 
G01 X-50.1803 Y29.7080 
G01 X-50.0435 Y29.6808 
G01 X-49.9146 Y29.6274 
G01 X-49.8025 Y29.5525 
G01 X-49.8774 Y29.6646 
G01 X-49.9308 Y29.7935 
G01 X-49.9580 Y29.9303 
G01 X-49.9580 Y30.0697 
G01 X-49.9308 Y30.2065 
G01 X-49.8774 Y30.3354 
G01 X-49.7999 Y30.4513 
G01 X-49.7013 Y30.5499 
G01 X-49.5854 Y30.6274 
G01 X-49.4565 Y30.6808 
G01 X-49.3197 Y30.7080 
G01 X-49.1803 Y30.7080 
G01 X-49.0608 Y30.6842 
G01 X-49.0301 Y30.7149 
G00 Z2.0000 
G00 X-49.6324 Y29.3500 
G01 Z-0.0250 F254.00 
G01 X-49.5308 Y29.3500 F508.00 
G01 X-49.5854 Y29.3726 
G01 X-49.6975 Y29.4475 
G01 X-49.6324 Y29.3500 
G00 Z2.0000 
G00 X-47.9948 Y29.3500 
G01 Z-0.0250 F254.00 
G01 X-47.9639 Y29.5054 F508.00 
G01 X-47.8875 Y29.6897 
G01 X-47.7767 Y29.8556 
G01 X-47.6356 Y29.9967 
G01 X-47.4697 Y30.1075 
G01 X-47.3672 Y30.1500 
G01 X-48.5580 Y30.1500 
G01 X-48.5420 Y30.0697 
G01 X-48.5420 Y29.9303 
G01 X-48.5692 Y29.7935 
G01 X-48.6226 Y29.6646 
G01 X-48.7001 Y29.5487 
G01 X-48.7987 Y29.4501 
G01 X-48.9146 Y29.3726 
G01 X-48.9692 Y29.3500 
G01 X-47.9948 Y29.3500 
G00 Z2.0000 
G00 X-52.7808 Y18.1000 
G01 Z-0.0250 F254.00 
G01 X-52.8354 Y18.1226 F508.00 
G01 X-52.9513 Y18.2001 
G01 X-53.0499 Y18.2987 
G01 X-53.1274 Y18.4146 
G01 X-53.1808 Y18.5435 
G01 X-53.2080 Y18.6803 
G01 X-53.2080 Y18.8197 
G01 X-53.1842 Y18.9393 
G01 X-57.8950 Y23.6500 
G01 X-60.2961 Y23.6500 
G01 X-60.3851 Y23.6739 
G01 X-60.4649 Y23.7199 
G01 X-61.3167 Y24.5718 
G01 X-61.2561 Y24.4254 
G01 X-61.2172 Y24.2298 
G01 X-61.2172 Y24.0302 
G01 X-61.2561 Y23.8346 
G01 X-61.3325 Y23.6503 
G01 X-61.4433 Y23.4844 
G01 X-61.5844 Y23.3433 
G01 X-61.7503 Y23.2325 
G01 X-61.9346 Y23.1561 
G01 X-62.1302 Y23.1172 
G01 X-62.3298 Y23.1172 
G01 X-62.5254 Y23.1561 
G01 X-62.7097 Y23.2325 
G01 X-62.8756 Y23.3433 
G01 X-63.0167 Y23.4844 
G01 X-63.1275 Y23.6503 
G01 X-63.1500 Y23.7045 
G01 X-63.1500 Y22.0155 
G01 X-63.1275 Y22.0697 
G01 X-63.0167 Y22.2356 
G01 X-62.8756 Y22.3767 
G01 X-62.7097 Y22.4875 
G01 X-62.5254 Y22.5639 
G01 X-62.3298 Y22.6028 
G01 X-62.1302 Y22.6028 
G01 X-61.9346 Y22.5639 
G01 X-61.7503 Y22.4875 
G01 X-61.5844 Y22.3767 
G01 X-61.4433 Y22.2356 
G01 X-61.3325 Y22.0697 
G01 X-61.2561 Y21.8854 
G01 X-61.2172 Y21.6898 
G01 X-61.2172 Y21.4902 
G01 X-61.2561 Y21.2946 
G01 X-61.3325 Y21.1103 
G01 X-61.4433 Y20.9444 
G01 X-61.5844 Y20.8033 
G01 X-61.7503 Y20.6925 
G01 X-61.9346 Y20.6161 
G01 X-62.1302 Y20.5772 
G01 X-62.3298 Y20.5772 
G01 X-62.5254 Y20.6161 
G01 X-62.7097 Y20.6925 
G01 X-62.8756 Y20.8033 
G01 X-63.0167 Y20.9444 
G01 X-63.1275 Y21.1103 
G01 X-63.1500 Y21.1645 
G01 X-63.1500 Y19.4755 
G01 X-63.1275 Y19.5297 
G01 X-63.0167 Y19.6956 
G01 X-62.8756 Y19.8367 
G01 X-62.7097 Y19.9475 
G01 X-62.5254 Y20.0239 
G01 X-62.3298 Y20.0628 
G01 X-62.1302 Y20.0628 
G01 X-61.9346 Y20.0239 
G01 X-61.7503 Y19.9475 
G01 X-61.5844 Y19.8367 
G01 X-61.4433 Y19.6956 
G01 X-61.3325 Y19.5297 
G01 X-61.2561 Y19.3454 
G01 X-61.2172 Y19.1498 
G01 X-61.2172 Y18.9502 
G01 X-61.2561 Y18.7546 
G01 X-60.6050 Y18.1000 
G01 X-52.7808 Y18.1000 
G00 Z2.0000 
G00 X-46.5103 Y18.1525 
G01 Z-0.0250 F254.00 
G01 X-46.6369 Y18.1000 F508.00 
G01 X-46.4520 Y18.1000 
G01 X-46.4310 Y18.2054 
G01 X-46.5103 Y18.1525 
G00 Z2.0000 
G00 X-46.0654 Y18.6357 
G01 Z-0.0250 F254.00 
G01 X-46.0308 Y18.6500 F508.00 
G01 X-46.0594 Y18.6500 
G01 X-46.0654 Y18.6357 
G00 Z2.0000 
G00 X-62.5254 Y25.6961 
G01 Z-0.0250 F254.00 
G01 X-62.7097 Y25.7725 F508.00 
G01 X-62.8756 Y25.8833 
G01 X-63.0167 Y26.0244 
G01 X-63.1275 Y26.1903 
G01 X-63.1500 Y26.2445 
G01 X-63.1500 Y24.5555 
G01 X-63.1275 Y24.6097 
G01 X-63.0167 Y24.7756 
G01 X-62.8756 Y24.9167 
G01 X-62.7097 Y25.0275 
G01 X-62.5254 Y25.1039 
G01 X-62.3298 Y25.1428 
G01 X-62.1302 Y25.1428 
G01 X-61.9346 Y25.1039 
G01 X-61.7882 Y25.0433 
G01 X-62.2149 Y25.4699 
G01 X-62.2801 Y25.5351 
G01 X-62.3261 Y25.6149 
G01 X-62.3379 Y25.6588 
G01 X-62.5254 Y25.6961 
G00 Z2.0000 
G00 X-59.1074 Y3.8524 
G01 Z-0.0250 F254.00 
G01 X-59.0009 Y3.9590 F508.00 
G01 X-58.8516 Y4.0587 
G01 X-58.6858 Y4.1274 
G01 X-58.5721 Y4.1500 
G01 X-59.4050 Y4.1500 
G01 X-59.1074 Y3.8524 
G00 Z2.0000 
G00 X-18.8354 Y16.8726 
G01 Z-0.0250 F254.00 
G01 X-18.9513 Y16.9501 F508.00 
G01 X-19.0499 Y17.0487 
G01 X-19.1274 Y17.1646 
G01 X-19.1808 Y17.2935 
G01 X-19.2080 Y17.4303 
G01 X-19.2080 Y17.5697 
G01 X-19.1842 Y17.6893 
G01 X-20.1450 Y18.6500 
G01 X-32.3824 Y18.6500 
G01 X-32.4501 Y18.5487 
G01 X-32.5487 Y18.4501 
G01 X-32.6646 Y18.3726 
G01 X-32.7935 Y18.3192 
G01 X-32.9303 Y18.2920 
G01 X-33.0697 Y18.2920 
G01 X-33.2065 Y18.3192 
G01 X-33.3354 Y18.3726 
G01 X-33.4513 Y18.4501 
G01 X-33.5499 Y18.5487 
G01 X-33.6176 Y18.6500 
G01 X-45.4692 Y18.6500 
G01 X-45.4146 Y18.6274 
G01 X-45.2987 Y18.5499 
G01 X-45.2001 Y18.4513 
G01 X-45.1226 Y18.3354 
G01 X-45.0692 Y18.2065 
G01 X-45.0420 Y18.0697 
G01 X-45.0420 Y17.9303 
G01 X-45.0692 Y17.7935 
G01 X-45.1226 Y17.6646 
G01 X-45.2001 Y17.5487 
G01 X-45.2987 Y17.4501 
G01 X-45.4146 Y17.3726 
G01 X-45.5435 Y17.3192 
G01 X-45.6803 Y17.2920 
G01 X-45.8197 Y17.2920 
G01 X-45.9565 Y17.3192 
G01 X-46.0854 Y17.3726 
G01 X-46.1264 Y17.4000 
G01 X-46.4990 Y17.4000 
G01 X-46.3444 Y17.2967 
G01 X-46.2033 Y17.1556 
G01 X-46.0925 Y16.9897 
G01 X-46.0346 Y16.8500 
G01 X-18.7808 Y16.8500 
G01 X-18.8354 Y16.8726 
G00 Z2.0000 
