(.../pcb-gcode-3.6.0.4/pcb-gcode.ulp)
(Copyright 2005 - 2012 by John Johnson)
(See readme.txt for licensing terms.)
(This file generated from the board:)
(.../eagle/SulaMatikV1/SulaMatikV1.brd)
(Current profile is .../pcb-gcode-3.6.0.4/profiles/emc.pp  )
(This file generated 9/3/2014 1:30:54 PM)
(Settings from pcb-machine.h)
(  Tool Size)
(0.1000 )
(Z Axis Settings)
(  High     Up        Down     Drill)
(19.5000 	2.0000 	-0.0250 	-1.5000 )
(spindle on time = 1.0000)
(milling depth = -0.0500)
(text depth = -0.0500)
(tool change at 15.0000 15.0000 19.0000 )
(feed rate xy = F508.00 )
(feed rate z  = F254.00 )
(Settings from pcb-defaults.h)
(isolate min = 0.0500)
(isolate max = 1.0000)
(isolate step = 0.1000)
(Generated top outlines, top drill, bottom outlines, bottom drill, )
(Unit of measure: mm)
(Metric Mode)
G21
(Absolute Coordinates)
G90
G00 X0.0000 Y0.0000 
M03
G04 P1.000000
G00 Z2.0000 
G00 X-11.6080 Y14.2500 
G01 Z-0.0250 F254.00 
G01 X-11.6080 Y14.3099 F508.00 
G01 X-11.5846 Y14.4273 
G01 X-11.5388 Y14.5380 
G01 X-11.4723 Y14.6376 
G01 X-11.3876 Y14.7223 
G01 X-11.2880 Y14.7888 
G01 X-11.1773 Y14.8346 
G01 X-11.0599 Y14.8580 
G01 X-10.9401 Y14.8580 
G01 X-10.8227 Y14.8346 
G01 X-10.7120 Y14.7888 
G01 X-10.6124 Y14.7223 
G01 X-10.5277 Y14.6376 
G01 X-10.4612 Y14.5380 
G01 X-10.4154 Y14.4273 
G01 X-10.3920 Y14.3099 
G01 X-10.3920 Y14.1901 
G01 X-10.4154 Y14.0727 
G01 X-10.4612 Y13.9620 
G01 X-10.5277 Y13.8624 
G01 X-10.6124 Y13.7777 
G01 X-10.7120 Y13.7112 
G01 X-10.8227 Y13.6654 
G01 X-10.9401 Y13.6420 
G01 X-11.0599 Y13.6420 
G01 X-11.1773 Y13.6654 
G01 X-11.2880 Y13.7112 
G01 X-11.3461 Y13.7500 
G01 X-58.1955 Y13.7500 
G01 X-58.2112 Y13.7120 
G01 X-58.2777 Y13.6124 
G01 X-58.3624 Y13.5277 
G01 X-58.4620 Y13.4612 
G01 X-58.5727 Y13.4154 
G01 X-58.6901 Y13.3920 
G01 X-58.8099 Y13.3920 
G01 X-58.9273 Y13.4154 
G01 X-59.0380 Y13.4612 
G01 X-59.1376 Y13.5277 
G01 X-59.2223 Y13.6124 
G01 X-59.2888 Y13.7120 
G01 X-59.3346 Y13.8227 
G01 X-59.3580 Y13.9401 
G01 X-59.3580 Y14.0599 
G01 X-59.3346 Y14.1773 
G01 X-59.2888 Y14.2880 
G01 X-59.2223 Y14.3876 
G01 X-59.1376 Y14.4723 
G01 X-59.0380 Y14.5388 
G01 X-58.9273 Y14.5846 
G01 X-58.8099 Y14.6080 
G01 X-58.6901 Y14.6080 
G01 X-58.5727 Y14.5846 
G01 X-58.4620 Y14.5388 
G01 X-58.3624 Y14.4723 
G01 X-58.2777 Y14.3876 
G01 X-58.2112 Y14.2880 
G01 X-58.1955 Y14.2500 
G01 X-11.6080 Y14.2500 
G00 Z2.0000 
G00 X-13.5000 Y26.8536 
G01 Z-0.0250 F254.00 
G01 X-13.5000 Y34.7500 F508.00 
G01 X-44.3964 Y34.7500 
G01 X-46.2881 Y32.8584 
G01 X-46.3584 Y32.7881 
G01 X-46.4503 Y32.7500 
G01 X-62.6464 Y32.7500 
G01 X-64.2500 Y31.1464 
G01 X-64.2500 Y29.5000 
G01 X-63.0979 Y29.5000 
G01 X-63.0389 Y29.6424 
G01 X-62.9390 Y29.7919 
G01 X-62.8119 Y29.9190 
G01 X-62.6624 Y30.0189 
G01 X-62.4963 Y30.0877 
G01 X-62.3199 Y30.1228 
G01 X-62.1401 Y30.1228 
G01 X-61.9637 Y30.0877 
G01 X-61.7976 Y30.0189 
G01 X-61.6481 Y29.9190 
G01 X-61.5210 Y29.7919 
G01 X-61.4211 Y29.6424 
G01 X-61.3523 Y29.4763 
G01 X-61.3172 Y29.2999 
G01 X-61.3172 Y29.1201 
G01 X-61.3523 Y28.9437 
G01 X-61.4211 Y28.7776 
G01 X-61.5210 Y28.6281 
G01 X-61.6481 Y28.5010 
G01 X-61.7976 Y28.4011 
G01 X-61.9637 Y28.3323 
G01 X-62.1401 Y28.2972 
G01 X-62.3199 Y28.2972 
G01 X-62.4963 Y28.3323 
G01 X-62.6624 Y28.4011 
G01 X-62.8119 Y28.5010 
G01 X-62.9390 Y28.6281 
G01 X-63.0389 Y28.7776 
G01 X-63.1077 Y28.9437 
G01 X-63.1189 Y29.0000 
G01 X-64.5497 Y29.0000 
G01 X-64.6416 Y29.0381 
G01 X-64.7119 Y29.1084 
G01 X-64.7500 Y29.2003 
G01 X-64.7500 Y31.2997 
G01 X-64.7119 Y31.3916 
G01 X-64.6416 Y31.4619 
G01 X-62.8916 Y33.2119 
G01 X-62.7997 Y33.2500 
G01 X-46.6036 Y33.2500 
G01 X-44.6416 Y35.2119 
G01 X-44.5497 Y35.2500 
G01 X-13.2003 Y35.2500 
G01 X-13.1084 Y35.2119 
G01 X-13.0381 Y35.1416 
G01 X-13.0000 Y35.0497 
G01 X-13.0000 Y26.7003 
G01 X-13.0381 Y26.6084 
G01 X-13.1084 Y26.5381 
G01 X-20.6811 Y18.9653 
G01 X-20.6654 Y18.9273 
G01 X-20.6420 Y18.8099 
G01 X-20.6420 Y18.6901 
G01 X-20.6654 Y18.5726 
G01 X-20.7112 Y18.4620 
G01 X-20.7777 Y18.3624 
G01 X-20.8624 Y18.2777 
G01 X-20.9620 Y18.2112 
G01 X-21.0726 Y18.1654 
G01 X-21.1901 Y18.1420 
G01 X-21.3099 Y18.1420 
G01 X-21.4273 Y18.1654 
G01 X-21.5380 Y18.2112 
G01 X-21.6376 Y18.2777 
G01 X-21.7223 Y18.3624 
G01 X-21.7888 Y18.4620 
G01 X-21.8346 Y18.5726 
G01 X-21.8580 Y18.6901 
G01 X-21.8580 Y18.8099 
G01 X-21.8346 Y18.9273 
G01 X-21.7888 Y19.0380 
G01 X-21.7223 Y19.1376 
G01 X-21.6376 Y19.2223 
G01 X-21.5380 Y19.2888 
G01 X-21.4273 Y19.3346 
G01 X-21.3099 Y19.3580 
G01 X-21.1901 Y19.3580 
G01 X-21.0726 Y19.3346 
G01 X-21.0347 Y19.3189 
G01 X-13.5000 Y26.8536 
G00 Z2.0000 
G00 X-18.2881 Y24.6084 
G01 Z-0.0250 F254.00 
G01 X-18.3584 Y24.5381 F508.00 
G01 X-18.4503 Y24.5000 
G01 X-50.7997 Y24.5000 
G01 X-50.8916 Y24.5381 
G01 X-55.6036 Y29.2500 
G01 X-59.9455 Y29.2500 
G01 X-59.9612 Y29.2120 
G01 X-60.0277 Y29.1124 
G01 X-60.1124 Y29.0277 
G01 X-60.2120 Y28.9612 
G01 X-60.3227 Y28.9154 
G01 X-60.4401 Y28.8920 
G01 X-60.5599 Y28.8920 
G01 X-60.6773 Y28.9154 
G01 X-60.7880 Y28.9612 
G01 X-60.8876 Y29.0277 
G01 X-60.9723 Y29.1124 
G01 X-61.0388 Y29.2120 
G01 X-61.0846 Y29.3227 
G01 X-61.1080 Y29.4401 
G01 X-61.1080 Y29.5599 
G01 X-61.0846 Y29.6773 
G01 X-61.0388 Y29.7880 
G01 X-60.9723 Y29.8876 
G01 X-60.8876 Y29.9723 
G01 X-60.7880 Y30.0388 
G01 X-60.6773 Y30.0846 
G01 X-60.5599 Y30.1080 
G01 X-60.4401 Y30.1080 
G01 X-60.3227 Y30.0846 
G01 X-60.2120 Y30.0388 
G01 X-60.1124 Y29.9723 
G01 X-60.0277 Y29.8876 
G01 X-59.9612 Y29.7880 
G01 X-59.9455 Y29.7500 
G01 X-55.4503 Y29.7500 
G01 X-55.3584 Y29.7119 
G01 X-55.2881 Y29.6416 
G01 X-50.6464 Y25.0000 
G01 X-18.6036 Y25.0000 
G01 X-18.5689 Y25.0347 
G01 X-18.5846 Y25.0726 
G01 X-18.6080 Y25.1901 
G01 X-18.6080 Y25.3099 
G01 X-18.5846 Y25.4273 
G01 X-18.5388 Y25.5380 
G01 X-18.4723 Y25.6376 
G01 X-18.3876 Y25.7223 
G01 X-18.2880 Y25.7888 
G01 X-18.1773 Y25.8346 
G01 X-18.0599 Y25.8580 
G01 X-17.9401 Y25.8580 
G01 X-17.8226 Y25.8346 
G01 X-17.7120 Y25.7888 
G01 X-17.6124 Y25.7223 
G01 X-17.5277 Y25.6376 
G01 X-17.4612 Y25.5380 
G01 X-17.4154 Y25.4273 
G01 X-17.3920 Y25.3099 
G01 X-17.3920 Y25.1901 
G01 X-17.4154 Y25.0726 
G01 X-17.4612 Y24.9620 
G01 X-17.5277 Y24.8624 
G01 X-17.6124 Y24.7777 
G01 X-17.7120 Y24.7112 
G01 X-17.8226 Y24.6654 
G01 X-17.9401 Y24.6420 
G01 X-18.0599 Y24.6420 
G01 X-18.1773 Y24.6654 
G01 X-18.2153 Y24.6811 
G01 X-18.2881 Y24.6084 
G00 Z2.0000 
G00 X-42.8228 Y1.6373 
G01 Z-0.0250 F254.00 
G01 X-42.8228 Y3.4427 F508.00 
G01 X-42.7877 Y3.6191 
G01 X-42.7189 Y3.7852 
G01 X-42.6190 Y3.9347 
G01 X-42.4919 Y4.0618 
G01 X-42.3424 Y4.1617 
G01 X-42.1763 Y4.2305 
G01 X-41.9999 Y4.2656 
G01 X-41.8201 Y4.2656 
G01 X-41.6437 Y4.2305 
G01 X-41.4776 Y4.1617 
G01 X-41.3281 Y4.0618 
G01 X-41.2010 Y3.9347 
G01 X-41.1011 Y3.7852 
G01 X-41.0323 Y3.6191 
G01 X-40.9972 Y3.4427 
G01 X-40.9972 Y1.6373 
G01 X-41.0323 Y1.4609 
G01 X-41.1011 Y1.2948 
G01 X-41.2010 Y1.1453 
G01 X-41.3281 Y1.0182 
G01 X-41.4776 Y0.9183 
G01 X-41.6437 Y0.8495 
G01 X-41.8201 Y0.8144 
G01 X-41.9999 Y0.8144 
G01 X-42.1763 Y0.8495 
G01 X-42.3424 Y0.9183 
G01 X-42.4919 Y1.0182 
G01 X-42.6190 Y1.1453 
G01 X-42.7189 Y1.2948 
G01 X-42.7877 Y1.4609 
G01 X-42.8228 Y1.6373 
G00 Z2.0000 
G00 X-58.7772 Y23.7627 
G01 Z-0.0250 F254.00 
G01 X-58.7772 Y21.9573 F508.00 
G01 X-58.8123 Y21.7809 
G01 X-58.8811 Y21.6148 
G01 X-58.9810 Y21.4653 
G01 X-59.1081 Y21.3382 
G01 X-59.2576 Y21.2383 
G01 X-59.4237 Y21.1695 
G01 X-59.6001 Y21.1344 
G01 X-59.7799 Y21.1344 
G01 X-59.9563 Y21.1695 
G01 X-60.1224 Y21.2383 
G01 X-60.2719 Y21.3382 
G01 X-60.3990 Y21.4653 
G01 X-60.4989 Y21.6148 
G01 X-60.5677 Y21.7809 
G01 X-60.6028 Y21.9573 
G01 X-60.6028 Y23.7627 
G01 X-60.5677 Y23.9391 
G01 X-60.4989 Y24.1052 
G01 X-60.3990 Y24.2547 
G01 X-60.2719 Y24.3818 
G01 X-60.1224 Y24.4817 
G01 X-59.9563 Y24.5505 
G01 X-59.7799 Y24.5856 
G01 X-59.6001 Y24.5856 
G01 X-59.4237 Y24.5505 
G01 X-59.2576 Y24.4817 
G01 X-59.1081 Y24.3818 
G01 X-58.9810 Y24.2547 
G01 X-58.8811 Y24.1052 
G01 X-58.8123 Y23.9391 
G01 X-58.7772 Y23.7627 
G00 Z2.0000 
G00 X-56.2372 Y23.7627 
G01 Z-0.0250 F254.00 
G01 X-56.2372 Y21.9573 F508.00 
G01 X-56.2723 Y21.7809 
G01 X-56.3411 Y21.6148 
G01 X-56.4410 Y21.4653 
G01 X-56.5681 Y21.3382 
G01 X-56.7176 Y21.2383 
G01 X-56.8837 Y21.1695 
G01 X-57.0601 Y21.1344 
G01 X-57.2399 Y21.1344 
G01 X-57.4163 Y21.1695 
G01 X-57.5824 Y21.2383 
G01 X-57.7319 Y21.3382 
G01 X-57.8590 Y21.4653 
G01 X-57.9589 Y21.6148 
G01 X-58.0277 Y21.7809 
G01 X-58.0628 Y21.9573 
G01 X-58.0628 Y23.7627 
G01 X-58.0277 Y23.9391 
G01 X-57.9589 Y24.1052 
G01 X-57.8590 Y24.2547 
G01 X-57.7319 Y24.3818 
G01 X-57.5824 Y24.4817 
G01 X-57.4163 Y24.5505 
G01 X-57.2399 Y24.5856 
G01 X-57.0601 Y24.5856 
G01 X-56.8837 Y24.5505 
G01 X-56.7176 Y24.4817 
G01 X-56.5681 Y24.3818 
G01 X-56.4410 Y24.2547 
G01 X-56.3411 Y24.1052 
G01 X-56.2723 Y23.9391 
G01 X-56.2372 Y23.7627 
G00 Z2.0000 
G00 X-53.6972 Y23.7627 
G01 Z-0.0250 F254.00 
G01 X-53.6972 Y21.9573 F508.00 
G01 X-53.7323 Y21.7809 
G01 X-53.8011 Y21.6148 
G01 X-53.9010 Y21.4653 
G01 X-54.0281 Y21.3382 
G01 X-54.1776 Y21.2383 
G01 X-54.3437 Y21.1695 
G01 X-54.5201 Y21.1344 
G01 X-54.6999 Y21.1344 
G01 X-54.8763 Y21.1695 
G01 X-55.0424 Y21.2383 
G01 X-55.1919 Y21.3382 
G01 X-55.3190 Y21.4653 
G01 X-55.4189 Y21.6148 
G01 X-55.4877 Y21.7809 
G01 X-55.5228 Y21.9573 
G01 X-55.5228 Y23.7627 
G01 X-55.4877 Y23.9391 
G01 X-55.4189 Y24.1052 
G01 X-55.3190 Y24.2547 
G01 X-55.1919 Y24.3818 
G01 X-55.0424 Y24.4817 
G01 X-54.8763 Y24.5505 
G01 X-54.6999 Y24.5856 
G01 X-54.5201 Y24.5856 
G01 X-54.3437 Y24.5505 
G01 X-54.1776 Y24.4817 
G01 X-54.0281 Y24.3818 
G01 X-53.9010 Y24.2547 
G01 X-53.8011 Y24.1052 
G01 X-53.7323 Y23.9391 
G01 X-53.6972 Y23.7627 
G00 Z2.0000 
G00 X-51.1572 Y23.7627 
G01 Z-0.0250 F254.00 
G01 X-51.1572 Y21.9573 F508.00 
G01 X-51.1923 Y21.7809 
G01 X-51.2611 Y21.6148 
G01 X-51.3610 Y21.4653 
G01 X-51.4881 Y21.3382 
G01 X-51.6376 Y21.2383 
G01 X-51.8037 Y21.1695 
G01 X-51.9801 Y21.1344 
G01 X-52.1599 Y21.1344 
G01 X-52.3363 Y21.1695 
G01 X-52.5024 Y21.2383 
G01 X-52.6519 Y21.3382 
G01 X-52.7790 Y21.4653 
G01 X-52.8789 Y21.6148 
G01 X-52.9477 Y21.7809 
G01 X-52.9828 Y21.9573 
G01 X-52.9828 Y23.7627 
G01 X-52.9477 Y23.9391 
G01 X-52.8789 Y24.1052 
G01 X-52.7790 Y24.2547 
G01 X-52.6519 Y24.3818 
G01 X-52.5024 Y24.4817 
G01 X-52.5000 Y25.0000 
G01 X-58.9455 Y25.0000 
G01 X-58.9612 Y24.9620 
G01 X-59.0277 Y24.8624 
G01 X-59.1124 Y24.7777 
G01 X-59.2120 Y24.7112 
G01 X-59.3227 Y24.6654 
G01 X-59.4401 Y24.6420 
G01 X-59.5599 Y24.6420 
G01 X-59.6773 Y24.6654 
G01 X-59.7880 Y24.7112 
G01 X-59.8876 Y24.7777 
G01 X-59.9723 Y24.8624 
G01 X-60.0388 Y24.9620 
G01 X-60.0846 Y25.0726 
G01 X-60.1080 Y25.1901 
G01 X-60.1080 Y25.3099 
G01 X-60.0846 Y25.4273 
G01 X-60.0388 Y25.5380 
G01 X-59.9723 Y25.6376 
G01 X-59.8876 Y25.7223 
G01 X-59.7880 Y25.7888 
G01 X-59.6773 Y25.8346 
G01 X-59.5599 Y25.8580 
G01 X-59.4401 Y25.8580 
G01 X-59.3227 Y25.8346 
G01 X-59.2120 Y25.7888 
G01 X-59.1124 Y25.7223 
G01 X-59.0277 Y25.6376 
G01 X-58.9612 Y25.5380 
G01 X-58.9455 Y25.5000 
G01 X-52.2003 Y25.5000 
G01 X-52.1084 Y25.4619 
G01 X-52.0381 Y25.3916 
G01 X-52.0000 Y25.2997 
G01 X-52.0000 Y24.5856 
G01 X-51.9801 Y24.5856 
G01 X-51.8037 Y24.5505 
G01 X-51.6376 Y24.4817 
G01 X-51.4881 Y24.3818 
G01 X-51.3610 Y24.2547 
G01 X-51.2611 Y24.1052 
G01 X-51.1923 Y23.9391 
G01 X-51.1572 Y23.7627 
G00 Z2.0000 
G00 X-46.1788 Y8.4111 
G01 Z-0.0250 F254.00 
G01 X-46.1788 Y6.8289 F508.00 
G01 X-46.2100 Y6.6722 
G01 X-46.2711 Y6.5246 
G01 X-46.3599 Y6.3917 
G01 X-46.4729 Y6.2787 
G01 X-46.6058 Y6.1899 
G01 X-46.7534 Y6.1288 
G01 X-46.9101 Y6.0976 
G01 X-47.0699 Y6.0976 
G01 X-47.2266 Y6.1288 
G01 X-47.3742 Y6.1899 
G01 X-47.5071 Y6.2787 
G01 X-47.6201 Y6.3917 
G01 X-47.7089 Y6.5246 
G01 X-47.7700 Y6.6722 
G01 X-47.8012 Y6.8289 
G01 X-47.8012 Y8.4111 
G01 X-47.7700 Y8.5678 
G01 X-47.7089 Y8.7154 
G01 X-47.6201 Y8.8483 
G01 X-47.5071 Y8.9613 
G01 X-47.3742 Y9.0501 
G01 X-47.2266 Y9.1112 
G01 X-47.0699 Y9.1424 
G01 X-46.9101 Y9.1424 
G01 X-46.7534 Y9.1112 
G01 X-46.6058 Y9.0501 
G01 X-46.4729 Y8.9613 
G01 X-46.3599 Y8.8483 
G01 X-46.2711 Y8.7154 
G01 X-46.2100 Y8.5678 
G01 X-46.1788 Y8.4111 
G00 Z2.0000 
G00 X-9.3710 Y50.9976 
G01 Z-0.0250 F254.00 
G01 X-9.3710 Y51.1612 F508.00 
G01 X-9.3454 Y51.3229 
G01 X-9.2948 Y51.4785 
G01 X-9.2205 Y51.6244 
G01 X-9.1243 Y51.7568 
G01 X-9.0086 Y51.8725 
G01 X-8.8762 Y51.9687 
G01 X-8.7303 Y52.0430 
G01 X-8.5747 Y52.0936 
G01 X-8.4130 Y52.1192 
G01 X-8.2494 Y52.1192 
G01 X-8.0877 Y52.0936 
G01 X-7.9321 Y52.0430 
G01 X-7.7862 Y51.9687 
G01 X-7.6538 Y51.8725 
G01 X-7.5381 Y51.7568 
G01 X-7.4419 Y51.6244 
G01 X-7.3676 Y51.4785 
G01 X-7.3170 Y51.3229 
G01 X-7.2914 Y51.1612 
G01 X-7.2914 Y50.9976 
G01 X-7.3170 Y50.8359 
G01 X-7.3676 Y50.6803 
G01 X-7.4419 Y50.5344 
G01 X-7.5381 Y50.4020 
G01 X-7.6538 Y50.2863 
G01 X-7.7862 Y50.1901 
G01 X-7.9321 Y50.1158 
G01 X-8.0877 Y50.0652 
G01 X-8.2494 Y50.0396 
G01 X-8.4130 Y50.0396 
G01 X-8.5747 Y50.0652 
G01 X-8.7303 Y50.1158 
G01 X-8.8762 Y50.1901 
G01 X-9.0086 Y50.2863 
G01 X-9.1243 Y50.4020 
G01 X-9.2205 Y50.5344 
G01 X-9.2948 Y50.6803 
G01 X-9.3454 Y50.8359 
G01 X-9.3710 Y50.9976 
G00 Z2.0000 
G00 X-9.3710 Y55.5188 
G01 Z-0.0250 F254.00 
G01 X-9.3710 Y55.6824 F508.00 
G01 X-9.3454 Y55.8441 
G01 X-9.2948 Y55.9997 
G01 X-9.2205 Y56.1456 
G01 X-9.1243 Y56.2780 
G01 X-9.0086 Y56.3937 
G01 X-8.8762 Y56.4899 
G01 X-8.7303 Y56.5642 
G01 X-8.5747 Y56.6148 
G01 X-8.4130 Y56.6404 
G01 X-8.2494 Y56.6404 
G01 X-8.0877 Y56.6148 
G01 X-7.9321 Y56.5642 
G01 X-7.7862 Y56.4899 
G01 X-7.6538 Y56.3937 
G01 X-7.5381 Y56.2780 
G01 X-7.4419 Y56.1456 
G01 X-7.3676 Y55.9997 
G01 X-7.3170 Y55.8441 
G01 X-7.2914 Y55.6824 
G01 X-7.2914 Y55.5188 
G01 X-7.3170 Y55.3571 
G01 X-7.3676 Y55.2015 
G01 X-7.4419 Y55.0556 
G01 X-7.5381 Y54.9232 
G01 X-7.6538 Y54.8075 
G01 X-7.7862 Y54.7113 
G01 X-7.9321 Y54.6370 
G01 X-8.0877 Y54.5864 
G01 X-8.2494 Y54.5608 
G01 X-8.4130 Y54.5608 
G01 X-8.5747 Y54.5864 
G01 X-8.7303 Y54.6370 
G01 X-8.8762 Y54.7113 
G01 X-9.0086 Y54.8075 
G01 X-9.1243 Y54.9232 
G01 X-9.2205 Y55.0556 
G01 X-9.2948 Y55.2015 
G01 X-9.3454 Y55.3571 
G01 X-9.3710 Y55.5188 
G00 Z2.0000 
G00 X-2.8686 Y55.5188 
G01 Z-0.0250 F254.00 
G01 X-2.8686 Y55.6824 F508.00 
G01 X-2.8430 Y55.8441 
G01 X-2.7924 Y55.9997 
G01 X-2.7181 Y56.1456 
G01 X-2.6219 Y56.2780 
G01 X-2.5062 Y56.3937 
G01 X-2.3738 Y56.4899 
G01 X-2.2279 Y56.5642 
G01 X-2.0723 Y56.6148 
G01 X-1.9106 Y56.6404 
G01 X-1.7470 Y56.6404 
G01 X-1.5853 Y56.6148 
G01 X-1.4297 Y56.5642 
G01 X-1.2838 Y56.4899 
G01 X-1.1514 Y56.3937 
G01 X-1.0357 Y56.2780 
G01 X-0.9395 Y56.1456 
G01 X-0.8652 Y55.9997 
G01 X-0.8146 Y55.8441 
G01 X-0.7890 Y55.6824 
G01 X-0.7890 Y55.5188 
G01 X-0.8146 Y55.3571 
G01 X-0.8652 Y55.2015 
G01 X-0.9395 Y55.0556 
G01 X-1.0357 Y54.9232 
G01 X-1.1514 Y54.8075 
G01 X-1.2838 Y54.7113 
G01 X-1.4297 Y54.6370 
G01 X-1.5853 Y54.5864 
G01 X-1.7470 Y54.5608 
G01 X-1.9106 Y54.5608 
G01 X-2.0723 Y54.5864 
G01 X-2.2279 Y54.6370 
G01 X-2.3738 Y54.7113 
G01 X-2.5062 Y54.8075 
G01 X-2.6219 Y54.9232 
G01 X-2.7181 Y55.0556 
G01 X-2.7924 Y55.2015 
G01 X-2.8430 Y55.3571 
G01 X-2.8686 Y55.5188 
G00 Z2.0000 
G00 X-39.8510 Y50.9976 
G01 Z-0.0250 F254.00 
G01 X-39.8510 Y51.1612 F508.00 
G01 X-39.8254 Y51.3229 
G01 X-39.7748 Y51.4785 
G01 X-39.7005 Y51.6244 
G01 X-39.6043 Y51.7568 
G01 X-39.4886 Y51.8725 
G01 X-39.3562 Y51.9687 
G01 X-39.2103 Y52.0430 
G01 X-39.0547 Y52.0936 
G01 X-38.8930 Y52.1192 
G01 X-38.7294 Y52.1192 
G01 X-38.5677 Y52.0936 
G01 X-38.4121 Y52.0430 
G01 X-38.2662 Y51.9687 
G01 X-38.1338 Y51.8725 
G01 X-38.0181 Y51.7568 
G01 X-37.9219 Y51.6244 
G01 X-37.8476 Y51.4785 
G01 X-37.7970 Y51.3229 
G01 X-37.7714 Y51.1612 
G01 X-37.7714 Y50.9976 
G01 X-37.7970 Y50.8359 
G01 X-37.8476 Y50.6803 
G01 X-37.9219 Y50.5344 
G01 X-38.0181 Y50.4020 
G01 X-38.1338 Y50.2863 
G01 X-38.2662 Y50.1901 
G01 X-38.4121 Y50.1158 
G01 X-38.5677 Y50.0652 
G01 X-38.7294 Y50.0396 
G01 X-38.8930 Y50.0396 
G01 X-39.0547 Y50.0652 
G01 X-39.2103 Y50.1158 
G01 X-39.3562 Y50.1901 
G01 X-39.4886 Y50.2863 
G01 X-39.6043 Y50.4020 
G01 X-39.7005 Y50.5344 
G01 X-39.7748 Y50.6803 
G01 X-39.8254 Y50.8359 
G01 X-39.8510 Y50.9976 
G00 Z2.0000 
G00 X-33.3486 Y50.9976 
G01 Z-0.0250 F254.00 
G01 X-33.3486 Y51.1612 F508.00 
G01 X-33.3230 Y51.3229 
G01 X-33.2724 Y51.4785 
G01 X-33.1981 Y51.6244 
G01 X-33.1019 Y51.7568 
G01 X-32.9862 Y51.8725 
G01 X-32.8538 Y51.9687 
G01 X-32.7079 Y52.0430 
G01 X-32.5523 Y52.0936 
G01 X-32.3906 Y52.1192 
G01 X-32.2270 Y52.1192 
G01 X-32.0653 Y52.0936 
G01 X-31.9097 Y52.0430 
G01 X-31.7638 Y51.9687 
G01 X-31.6314 Y51.8725 
G01 X-31.5157 Y51.7568 
G01 X-31.4195 Y51.6244 
G01 X-31.3452 Y51.4785 
G01 X-31.2946 Y51.3229 
G01 X-31.2690 Y51.1612 
G01 X-31.2690 Y50.9976 
G01 X-31.2946 Y50.8359 
G01 X-31.3452 Y50.6803 
G01 X-31.4195 Y50.5344 
G01 X-31.5157 Y50.4020 
G01 X-31.6314 Y50.2863 
G01 X-31.7638 Y50.1901 
G01 X-31.9097 Y50.1158 
G01 X-32.0653 Y50.0652 
G01 X-32.2270 Y50.0396 
G01 X-32.3906 Y50.0396 
G01 X-32.5523 Y50.0652 
G01 X-32.7079 Y50.1158 
G01 X-32.8538 Y50.1901 
G01 X-32.9862 Y50.2863 
G01 X-33.1019 Y50.4020 
G01 X-33.1981 Y50.5344 
G01 X-33.2724 Y50.6803 
G01 X-33.3230 Y50.8359 
G01 X-33.3486 Y50.9976 
G00 Z2.0000 
G00 X-39.8510 Y55.5188 
G01 Z-0.0250 F254.00 
G01 X-39.8510 Y55.6824 F508.00 
G01 X-39.8254 Y55.8441 
G01 X-39.7748 Y55.9997 
G01 X-39.7005 Y56.1456 
G01 X-39.6043 Y56.2780 
G01 X-39.4886 Y56.3937 
G01 X-39.3562 Y56.4899 
G01 X-39.2103 Y56.5642 
G01 X-39.0547 Y56.6148 
G01 X-38.8930 Y56.6404 
G01 X-38.7294 Y56.6404 
G01 X-38.5677 Y56.6148 
G01 X-38.4121 Y56.5642 
G01 X-38.2662 Y56.4899 
G01 X-38.1338 Y56.3937 
G01 X-38.0181 Y56.2780 
G01 X-37.9219 Y56.1456 
G01 X-37.8476 Y55.9997 
G01 X-37.7970 Y55.8441 
G01 X-37.7714 Y55.6824 
G01 X-37.7714 Y55.5188 
G01 X-37.7970 Y55.3571 
G01 X-37.8476 Y55.2015 
G01 X-37.9219 Y55.0556 
G01 X-38.0181 Y54.9232 
G01 X-38.1338 Y54.8075 
G01 X-38.2662 Y54.7113 
G01 X-38.4121 Y54.6370 
G01 X-38.5677 Y54.5864 
G01 X-38.7294 Y54.5608 
G01 X-38.8930 Y54.5608 
G01 X-39.0547 Y54.5864 
G01 X-39.2103 Y54.6370 
G01 X-39.3562 Y54.7113 
G01 X-39.4886 Y54.8075 
G01 X-39.6043 Y54.9232 
G01 X-39.7005 Y55.0556 
G01 X-39.7748 Y55.2015 
G01 X-39.8254 Y55.3571 
G01 X-39.8510 Y55.5188 
G00 Z2.0000 
G00 X-33.3486 Y55.5188 
G01 Z-0.0250 F254.00 
G01 X-33.3486 Y55.6824 F508.00 
G01 X-33.3230 Y55.8441 
G01 X-33.2724 Y55.9997 
G01 X-33.1981 Y56.1456 
G01 X-33.1019 Y56.2780 
G01 X-32.9862 Y56.3937 
G01 X-32.8538 Y56.4899 
G01 X-32.7079 Y56.5642 
G01 X-32.5523 Y56.6148 
G01 X-32.3906 Y56.6404 
G01 X-32.2270 Y56.6404 
G01 X-32.0653 Y56.6148 
G01 X-31.9097 Y56.5642 
G01 X-31.8299 Y56.5236 
G01 X-31.2119 Y57.1416 
G01 X-31.1416 Y57.2119 
G01 X-31.0497 Y57.2500 
G01 X-13.2003 Y57.2500 
G01 X-13.1084 Y57.2119 
G01 X-12.4361 Y56.5397 
G01 X-12.3879 Y56.5642 
G01 X-12.2323 Y56.6148 
G01 X-12.0706 Y56.6404 
G01 X-11.9070 Y56.6404 
G01 X-11.7453 Y56.6148 
G01 X-11.5897 Y56.5642 
G01 X-11.4438 Y56.4899 
G01 X-11.3114 Y56.3937 
G01 X-11.1957 Y56.2780 
G01 X-11.0995 Y56.1456 
G01 X-11.0252 Y55.9997 
G01 X-10.9746 Y55.8441 
G01 X-10.9490 Y55.6824 
G01 X-10.9490 Y55.5188 
G01 X-10.9746 Y55.3571 
G01 X-11.0252 Y55.2015 
G01 X-11.0995 Y55.0556 
G01 X-11.1957 Y54.9232 
G01 X-11.3114 Y54.8075 
G01 X-11.4438 Y54.7113 
G01 X-11.5897 Y54.6370 
G01 X-11.7453 Y54.5864 
G01 X-11.9070 Y54.5608 
G01 X-12.0706 Y54.5608 
G01 X-12.2323 Y54.5864 
G01 X-12.3879 Y54.6370 
G01 X-12.5338 Y54.7113 
G01 X-12.6662 Y54.8075 
G01 X-12.7819 Y54.9232 
G01 X-12.8781 Y55.0556 
G01 X-12.9524 Y55.2015 
G01 X-13.0030 Y55.3571 
G01 X-13.0286 Y55.5188 
G01 X-13.0286 Y55.6824 
G01 X-13.0030 Y55.8441 
G01 X-12.9524 Y55.9997 
G01 X-12.8781 Y56.1456 
G01 X-12.8238 Y56.2203 
G01 X-13.3536 Y56.7500 
G01 X-20.6464 Y56.7500 
G01 X-21.2566 Y56.1399 
G01 X-21.1852 Y55.9997 
G01 X-21.1346 Y55.8441 
G01 X-21.1090 Y55.6824 
G01 X-21.1090 Y55.5188 
G01 X-21.1346 Y55.3571 
G01 X-21.1852 Y55.2015 
G01 X-21.2595 Y55.0556 
G01 X-21.3557 Y54.9232 
G01 X-21.4714 Y54.8075 
G01 X-21.6038 Y54.7113 
G01 X-21.7497 Y54.6370 
G01 X-21.9053 Y54.5864 
G01 X-22.0670 Y54.5608 
G01 X-22.2306 Y54.5608 
G01 X-22.3923 Y54.5864 
G01 X-22.5479 Y54.6370 
G01 X-22.6938 Y54.7113 
G01 X-22.8262 Y54.8075 
G01 X-22.9419 Y54.9232 
G01 X-23.0381 Y55.0556 
G01 X-23.1124 Y55.2015 
G01 X-23.1630 Y55.3571 
G01 X-23.1886 Y55.5188 
G01 X-23.1886 Y55.6824 
G01 X-23.1630 Y55.8441 
G01 X-23.1124 Y55.9997 
G01 X-23.0381 Y56.1456 
G01 X-22.9419 Y56.2780 
G01 X-22.8262 Y56.3937 
G01 X-22.6938 Y56.4899 
G01 X-22.5479 Y56.5642 
G01 X-22.3923 Y56.6148 
G01 X-22.2306 Y56.6404 
G01 X-22.0670 Y56.6404 
G01 X-21.9053 Y56.6148 
G01 X-21.7497 Y56.5642 
G01 X-21.6103 Y56.4932 
G01 X-21.3535 Y56.7500 
G01 X-30.8964 Y56.7500 
G01 X-31.4537 Y56.1927 
G01 X-31.4195 Y56.1456 
G01 X-31.3452 Y55.9997 
G01 X-31.2946 Y55.8441 
G01 X-31.2690 Y55.6824 
G01 X-31.2690 Y55.5188 
G01 X-31.2946 Y55.3571 
G01 X-31.3452 Y55.2015 
G01 X-31.4195 Y55.0556 
G01 X-31.5157 Y54.9232 
G01 X-31.6314 Y54.8075 
G01 X-31.7638 Y54.7113 
G01 X-31.9097 Y54.6370 
G01 X-32.0653 Y54.5864 
G01 X-32.2270 Y54.5608 
G01 X-32.3906 Y54.5608 
G01 X-32.5523 Y54.5864 
G01 X-32.7079 Y54.6370 
G01 X-32.8538 Y54.7113 
G01 X-32.9862 Y54.8075 
G01 X-33.1019 Y54.9232 
G01 X-33.1981 Y55.0556 
G01 X-33.2724 Y55.2015 
G01 X-33.3230 Y55.3571 
G01 X-33.3486 Y55.5188 
G00 Z2.0000 
G00 X-19.5310 Y50.9976 
G01 Z-0.0250 F254.00 
G01 X-19.5310 Y51.1612 F508.00 
G01 X-19.5054 Y51.3229 
G01 X-19.4548 Y51.4785 
G01 X-19.3805 Y51.6244 
G01 X-19.2843 Y51.7568 
G01 X-19.1686 Y51.8725 
G01 X-19.0362 Y51.9687 
G01 X-18.8903 Y52.0430 
G01 X-18.7347 Y52.0936 
G01 X-18.5730 Y52.1192 
G01 X-18.4094 Y52.1192 
G01 X-18.2477 Y52.0936 
G01 X-18.0921 Y52.0430 
G01 X-17.9462 Y51.9687 
G01 X-17.8138 Y51.8725 
G01 X-17.6981 Y51.7568 
G01 X-17.6019 Y51.6244 
G01 X-17.5276 Y51.4785 
G01 X-17.4770 Y51.3229 
G01 X-17.4514 Y51.1612 
G01 X-17.4514 Y50.9976 
G01 X-17.4770 Y50.8359 
G01 X-17.5276 Y50.6803 
G01 X-17.6019 Y50.5344 
G01 X-17.6981 Y50.4020 
G01 X-17.8138 Y50.2863 
G01 X-17.9462 Y50.1901 
G01 X-18.0921 Y50.1158 
G01 X-18.2477 Y50.0652 
G01 X-18.4094 Y50.0396 
G01 X-18.5730 Y50.0396 
G01 X-18.7347 Y50.0652 
G01 X-18.8903 Y50.1158 
G01 X-19.0362 Y50.1901 
G01 X-19.1686 Y50.2863 
G01 X-19.2843 Y50.4020 
G01 X-19.3805 Y50.5344 
G01 X-19.4548 Y50.6803 
G01 X-19.5054 Y50.8359 
G01 X-19.5310 Y50.9976 
G00 Z2.0000 
G00 X-13.0286 Y50.9976 
G01 Z-0.0250 F254.00 
G01 X-13.0286 Y51.1612 F508.00 
G01 X-13.0030 Y51.3229 
G01 X-12.9524 Y51.4785 
G01 X-12.8781 Y51.6244 
G01 X-12.7819 Y51.7568 
G01 X-12.6662 Y51.8725 
G01 X-12.5338 Y51.9687 
G01 X-12.3879 Y52.0430 
G01 X-12.2323 Y52.0936 
G01 X-12.0706 Y52.1192 
G01 X-11.9070 Y52.1192 
G01 X-11.7453 Y52.0936 
G01 X-11.5897 Y52.0430 
G01 X-11.4438 Y51.9687 
G01 X-11.3114 Y51.8725 
G01 X-11.1957 Y51.7568 
G01 X-11.0995 Y51.6244 
G01 X-11.0252 Y51.4785 
G01 X-10.9746 Y51.3229 
G01 X-10.9490 Y51.1612 
G01 X-10.9490 Y50.9976 
G01 X-10.9746 Y50.8359 
G01 X-11.0252 Y50.6803 
G01 X-11.0995 Y50.5344 
G01 X-11.1957 Y50.4020 
G01 X-11.3114 Y50.2863 
G01 X-11.4438 Y50.1901 
G01 X-11.5897 Y50.1158 
G01 X-11.7453 Y50.0652 
G01 X-11.9070 Y50.0396 
G01 X-12.0706 Y50.0396 
G01 X-12.2323 Y50.0652 
G01 X-12.3879 Y50.1158 
G01 X-12.4825 Y50.1640 
G01 X-18.3584 Y44.2881 
G01 X-18.4503 Y44.2500 
G01 X-46.0991 Y44.2500 
G01 X-46.1123 Y44.1837 
G01 X-46.1811 Y44.0176 
G01 X-46.2810 Y43.8681 
G01 X-46.4081 Y43.7410 
G01 X-46.5576 Y43.6411 
G01 X-46.7237 Y43.5723 
G01 X-46.9001 Y43.5372 
G01 X-47.0799 Y43.5372 
G01 X-47.2563 Y43.5723 
G01 X-47.4224 Y43.6411 
G01 X-47.5719 Y43.7410 
G01 X-47.6990 Y43.8681 
G01 X-47.7989 Y44.0176 
G01 X-47.8677 Y44.1837 
G01 X-47.9028 Y44.3601 
G01 X-47.9028 Y44.5399 
G01 X-47.8677 Y44.7163 
G01 X-47.7989 Y44.8824 
G01 X-47.6990 Y45.0319 
G01 X-47.5719 Y45.1590 
G01 X-47.4224 Y45.2589 
G01 X-47.2563 Y45.3277 
G01 X-47.0799 Y45.3628 
G01 X-46.9001 Y45.3628 
G01 X-46.7237 Y45.3277 
G01 X-46.5576 Y45.2589 
G01 X-46.4081 Y45.1590 
G01 X-46.2810 Y45.0319 
G01 X-46.1811 Y44.8824 
G01 X-46.1263 Y44.7500 
G01 X-18.6036 Y44.7500 
G01 X-12.8533 Y50.5003 
G01 X-12.8781 Y50.5344 
G01 X-12.9524 Y50.6803 
G01 X-13.0030 Y50.8359 
G01 X-13.0286 Y50.9976 
G00 Z2.0000 
G00 X-19.5310 Y55.5188 
G01 Z-0.0250 F254.00 
G01 X-19.5310 Y55.6824 F508.00 
G01 X-19.5054 Y55.8441 
G01 X-19.4548 Y55.9997 
G01 X-19.3805 Y56.1456 
G01 X-19.2843 Y56.2780 
G01 X-19.1686 Y56.3937 
G01 X-19.0362 Y56.4899 
G01 X-18.8903 Y56.5642 
G01 X-18.7347 Y56.6148 
G01 X-18.5730 Y56.6404 
G01 X-18.4094 Y56.6404 
G01 X-18.2477 Y56.6148 
G01 X-18.0921 Y56.5642 
G01 X-17.9462 Y56.4899 
G01 X-17.8138 Y56.3937 
G01 X-17.6981 Y56.2780 
G01 X-17.6019 Y56.1456 
G01 X-17.5276 Y55.9997 
G01 X-17.4770 Y55.8441 
G01 X-17.4514 Y55.6824 
G01 X-17.4514 Y55.5188 
G01 X-17.4770 Y55.3571 
G01 X-17.5276 Y55.2015 
G01 X-17.6019 Y55.0556 
G01 X-17.6981 Y54.9232 
G01 X-17.8138 Y54.8075 
G01 X-17.9462 Y54.7113 
G01 X-18.0921 Y54.6370 
G01 X-18.2477 Y54.5864 
G01 X-18.4094 Y54.5608 
G01 X-18.5730 Y54.5608 
G01 X-18.7347 Y54.5864 
G01 X-18.8903 Y54.6370 
G01 X-19.0362 Y54.7113 
G01 X-19.1686 Y54.8075 
G01 X-19.2843 Y54.9232 
G01 X-19.3805 Y55.0556 
G01 X-19.4548 Y55.2015 
G01 X-19.5054 Y55.3571 
G01 X-19.5310 Y55.5188 
G00 Z2.0000 
G00 X-28.3988 Y5.8711 
G01 Z-0.0250 F254.00 
G01 X-28.3988 Y4.2889 F508.00 
G01 X-28.4300 Y4.1322 
G01 X-28.4911 Y3.9846 
G01 X-28.5799 Y3.8517 
G01 X-28.6929 Y3.7387 
G01 X-28.8258 Y3.6499 
G01 X-28.9734 Y3.5888 
G01 X-29.1301 Y3.5576 
G01 X-29.2899 Y3.5576 
G01 X-29.4466 Y3.5888 
G01 X-29.5942 Y3.6499 
G01 X-29.7271 Y3.7387 
G01 X-29.8401 Y3.8517 
G01 X-29.9289 Y3.9846 
G01 X-29.9900 Y4.1322 
G01 X-30.0212 Y4.2889 
G01 X-30.0212 Y5.8711 
G01 X-29.9900 Y6.0278 
G01 X-29.9289 Y6.1754 
G01 X-29.8401 Y6.3083 
G01 X-29.7271 Y6.4213 
G01 X-29.5942 Y6.5101 
G01 X-29.4466 Y6.5712 
G01 X-29.2899 Y6.6024 
G01 X-29.1301 Y6.6024 
G01 X-28.9734 Y6.5712 
G01 X-28.8258 Y6.5101 
G01 X-28.6929 Y6.4213 
G01 X-28.5799 Y6.3083 
G01 X-28.4911 Y6.1754 
G01 X-28.4300 Y6.0278 
G01 X-28.3988 Y5.8711 
G00 Z2.0000 
G00 X-25.8588 Y5.8711 
G01 Z-0.0250 F254.00 
G01 X-25.8588 Y4.2889 F508.00 
G01 X-25.8900 Y4.1322 
G01 X-25.9511 Y3.9846 
G01 X-26.0399 Y3.8517 
G01 X-26.1529 Y3.7387 
G01 X-26.2858 Y3.6499 
G01 X-26.4334 Y3.5888 
G01 X-26.5901 Y3.5576 
G01 X-26.7499 Y3.5576 
G01 X-26.9066 Y3.5888 
G01 X-27.0542 Y3.6499 
G01 X-27.1871 Y3.7387 
G01 X-27.3001 Y3.8517 
G01 X-27.3889 Y3.9846 
G01 X-27.4500 Y4.1322 
G01 X-27.4812 Y4.2889 
G01 X-27.4812 Y5.8711 
G01 X-27.4500 Y6.0278 
G01 X-27.3889 Y6.1754 
G01 X-27.3001 Y6.3083 
G01 X-27.1871 Y6.4213 
G01 X-27.0542 Y6.5101 
G01 X-26.9066 Y6.5712 
G01 X-26.7499 Y6.6024 
G01 X-26.5901 Y6.6024 
G01 X-26.4334 Y6.5712 
G01 X-26.2858 Y6.5101 
G01 X-26.1529 Y6.4213 
G01 X-26.0399 Y6.3083 
G01 X-25.9511 Y6.1754 
G01 X-25.8900 Y6.0278 
G01 X-25.8588 Y5.8711 
G00 Z2.0000 
G00 X-23.3188 Y5.8711 
G01 Z-0.0250 F254.00 
G01 X-23.3188 Y4.2889 F508.00 
G01 X-23.3500 Y4.1322 
G01 X-23.4111 Y3.9846 
G01 X-23.4999 Y3.8517 
G01 X-23.6129 Y3.7387 
G01 X-23.7458 Y3.6499 
G01 X-23.8934 Y3.5888 
G01 X-24.0501 Y3.5576 
G01 X-24.2099 Y3.5576 
G01 X-24.3666 Y3.5888 
G01 X-24.5142 Y3.6499 
G01 X-24.6471 Y3.7387 
G01 X-24.7601 Y3.8517 
G01 X-24.8489 Y3.9846 
G01 X-24.8673 Y4.0291 
G01 X-25.7881 Y3.1084 
G01 X-25.8584 Y3.0381 
G01 X-25.9503 Y3.0000 
G01 X-40.0497 Y3.0000 
G01 X-40.1416 Y3.0381 
G01 X-41.6036 Y4.5000 
G01 X-45.8965 Y4.5000 
G01 X-45.2279 Y3.8315 
G01 X-45.1590 Y3.9347 
G01 X-45.0319 Y4.0618 
G01 X-44.8824 Y4.1617 
G01 X-44.7163 Y4.2305 
G01 X-44.5399 Y4.2656 
G01 X-44.3601 Y4.2656 
G01 X-44.1837 Y4.2305 
G01 X-44.0176 Y4.1617 
G01 X-43.8681 Y4.0618 
G01 X-43.7410 Y3.9347 
G01 X-43.6411 Y3.7852 
G01 X-43.5723 Y3.6191 
G01 X-43.5372 Y3.4427 
G01 X-43.5372 Y1.6373 
G01 X-43.5723 Y1.4609 
G01 X-43.6411 Y1.2948 
G01 X-43.7410 Y1.1453 
G01 X-43.8681 Y1.0182 
G01 X-44.0176 Y0.9183 
G01 X-44.1837 Y0.8495 
G01 X-44.3601 Y0.8144 
G01 X-44.5399 Y0.8144 
G01 X-44.7163 Y0.8495 
G01 X-44.8824 Y0.9183 
G01 X-45.0319 Y1.0182 
G01 X-45.1590 Y1.1453 
G01 X-45.2589 Y1.2948 
G01 X-45.3277 Y1.4609 
G01 X-45.3628 Y1.6373 
G01 X-45.3628 Y3.2592 
G01 X-46.7119 Y4.6084 
G01 X-48.7575 Y6.6540 
G01 X-48.8111 Y6.5246 
G01 X-48.8999 Y6.3917 
G01 X-49.0129 Y6.2787 
G01 X-49.1457 Y6.1899 
G01 X-49.2934 Y6.1288 
G01 X-49.4501 Y6.0976 
G01 X-49.6099 Y6.0976 
G01 X-49.7666 Y6.1288 
G01 X-49.9142 Y6.1899 
G01 X-50.0471 Y6.2787 
G01 X-50.1601 Y6.3917 
G01 X-50.2489 Y6.5246 
G01 X-50.3100 Y6.6722 
G01 X-50.3412 Y6.8289 
G01 X-50.3412 Y8.4111 
G01 X-50.3100 Y8.5678 
G01 X-50.2489 Y8.7154 
G01 X-50.1601 Y8.8483 
G01 X-50.0471 Y8.9613 
G01 X-49.9142 Y9.0501 
G01 X-49.7666 Y9.1112 
G01 X-49.6099 Y9.1424 
G01 X-49.4501 Y9.1424 
G01 X-49.2934 Y9.1112 
G01 X-49.1457 Y9.0501 
G01 X-49.0129 Y8.9613 
G01 X-48.8999 Y8.8483 
G01 X-48.8111 Y8.7154 
G01 X-48.7500 Y8.5678 
G01 X-48.7188 Y8.4111 
G01 X-48.7188 Y7.3224 
G01 X-46.3964 Y5.0000 
G01 X-41.4503 Y5.0000 
G01 X-41.3584 Y4.9619 
G01 X-41.2881 Y4.8916 
G01 X-39.8964 Y3.5000 
G01 X-26.1036 Y3.5000 
G01 X-24.9412 Y4.6623 
G01 X-24.9412 Y5.8711 
G01 X-24.9100 Y6.0278 
G01 X-24.8489 Y6.1754 
G01 X-24.7601 Y6.3083 
G01 X-24.6471 Y6.4213 
G01 X-24.5142 Y6.5101 
G01 X-24.3666 Y6.5712 
G01 X-24.2099 Y6.6024 
G01 X-24.0501 Y6.6024 
G01 X-23.8934 Y6.5712 
G01 X-23.7458 Y6.5101 
G01 X-23.6129 Y6.4213 
G01 X-23.4999 Y6.3083 
G01 X-23.4111 Y6.1754 
G01 X-23.3500 Y6.0278 
G01 X-23.3188 Y5.8711 
G00 Z2.0000 
G00 X-20.7788 Y5.8711 
G01 Z-0.0250 F254.00 
G01 X-20.7788 Y4.2889 F508.00 
G01 X-20.8100 Y4.1322 
G01 X-20.8711 Y3.9846 
G01 X-20.9599 Y3.8517 
G01 X-21.0729 Y3.7387 
G01 X-21.2058 Y3.6499 
G01 X-21.3534 Y3.5888 
G01 X-21.5101 Y3.5576 
G01 X-21.6699 Y3.5576 
G01 X-21.8266 Y3.5888 
G01 X-21.9742 Y3.6499 
G01 X-22.1071 Y3.7387 
G01 X-22.2201 Y3.8517 
G01 X-22.3089 Y3.9846 
G01 X-22.3700 Y4.1322 
G01 X-22.4012 Y4.2889 
G01 X-22.4012 Y5.8711 
G01 X-22.3700 Y6.0278 
G01 X-22.3089 Y6.1754 
G01 X-22.2201 Y6.3083 
G01 X-22.1071 Y6.4213 
G01 X-21.9742 Y6.5101 
G01 X-21.8266 Y6.5712 
G01 X-21.6699 Y6.6024 
G01 X-21.5101 Y6.6024 
G01 X-21.3534 Y6.5712 
G01 X-21.2058 Y6.5101 
G01 X-21.0729 Y6.4213 
G01 X-20.9599 Y6.3083 
G01 X-20.8711 Y6.1754 
G01 X-20.8100 Y6.0278 
G01 X-20.7788 Y5.8711 
G00 Z2.0000 
G00 X-18.2388 Y5.8711 
G01 Z-0.0250 F254.00 
G01 X-18.2388 Y4.2889 F508.00 
G01 X-18.2700 Y4.1322 
G01 X-18.3311 Y3.9846 
G01 X-18.4199 Y3.8517 
G01 X-18.5329 Y3.7387 
G01 X-18.6657 Y3.6499 
G01 X-18.8134 Y3.5888 
G01 X-18.9701 Y3.5576 
G01 X-19.1299 Y3.5576 
G01 X-19.2866 Y3.5888 
G01 X-19.4342 Y3.6499 
G01 X-19.5671 Y3.7387 
G01 X-19.6801 Y3.8517 
G01 X-19.7689 Y3.9846 
G01 X-19.8300 Y4.1322 
G01 X-19.8612 Y4.2889 
G01 X-19.8612 Y5.8711 
G01 X-19.8300 Y6.0278 
G01 X-19.7689 Y6.1754 
G01 X-19.6801 Y6.3083 
G01 X-19.5671 Y6.4213 
G01 X-19.4342 Y6.5101 
G01 X-19.2866 Y6.5712 
G01 X-19.1299 Y6.6024 
G01 X-18.9701 Y6.6024 
G01 X-18.8134 Y6.5712 
G01 X-18.6657 Y6.5101 
G01 X-18.5329 Y6.4213 
G01 X-18.4199 Y6.3083 
G01 X-18.3311 Y6.1754 
G01 X-18.2700 Y6.0278 
G01 X-18.2388 Y5.8711 
G00 Z2.0000 
G00 X-15.6988 Y5.8711 
G01 Z-0.0250 F254.00 
G01 X-15.6988 Y4.2889 F508.00 
G01 X-15.7300 Y4.1322 
G01 X-15.7911 Y3.9846 
G01 X-15.8799 Y3.8517 
G01 X-15.9929 Y3.7387 
G01 X-16.1258 Y3.6499 
G01 X-16.2734 Y3.5888 
G01 X-16.4301 Y3.5576 
G01 X-16.5899 Y3.5576 
G01 X-16.7466 Y3.5888 
G01 X-16.8942 Y3.6499 
G01 X-17.0271 Y3.7387 
G01 X-17.1401 Y3.8517 
G01 X-17.2289 Y3.9846 
G01 X-17.2900 Y4.1322 
G01 X-17.3212 Y4.2889 
G01 X-17.3212 Y5.8711 
G01 X-17.2900 Y6.0278 
G01 X-17.2289 Y6.1754 
G01 X-17.1401 Y6.3083 
G01 X-17.0271 Y6.4213 
G01 X-16.8942 Y6.5101 
G01 X-16.7466 Y6.5712 
G01 X-16.5899 Y6.6024 
G01 X-16.4301 Y6.6024 
G01 X-16.2734 Y6.5712 
G01 X-16.1258 Y6.5101 
G01 X-15.9929 Y6.4213 
G01 X-15.8799 Y6.3083 
G01 X-15.7911 Y6.1754 
G01 X-15.7300 Y6.0278 
G01 X-15.6988 Y5.8711 
G00 Z2.0000 
G00 X-13.1588 Y5.8711 
G01 Z-0.0250 F254.00 
G01 X-13.1588 Y4.2889 F508.00 
G01 X-13.1900 Y4.1322 
G01 X-13.2511 Y3.9846 
G01 X-13.3399 Y3.8517 
G01 X-13.4529 Y3.7387 
G01 X-13.5858 Y3.6499 
G01 X-13.7334 Y3.5888 
G01 X-13.8901 Y3.5576 
G01 X-14.0499 Y3.5576 
G01 X-14.2066 Y3.5888 
G01 X-14.3542 Y3.6499 
G01 X-14.4871 Y3.7387 
G01 X-14.6001 Y3.8517 
G01 X-14.6889 Y3.9846 
G01 X-14.7500 Y4.1322 
G01 X-14.7812 Y4.2889 
G01 X-14.7812 Y5.6776 
G01 X-19.3536 Y10.2500 
G01 X-43.1955 Y10.2500 
G01 X-43.2112 Y10.2120 
G01 X-43.2777 Y10.1124 
G01 X-43.3624 Y10.0277 
G01 X-43.4620 Y9.9612 
G01 X-43.5727 Y9.9154 
G01 X-43.6901 Y9.8920 
G01 X-43.8099 Y9.8920 
G01 X-43.9273 Y9.9154 
G01 X-44.0380 Y9.9612 
G01 X-44.1376 Y10.0277 
G01 X-44.2223 Y10.1124 
G01 X-44.2888 Y10.2120 
G01 X-44.3346 Y10.3227 
G01 X-44.3580 Y10.4401 
G01 X-44.3580 Y10.5599 
G01 X-44.3346 Y10.6773 
G01 X-44.2888 Y10.7880 
G01 X-44.2223 Y10.8876 
G01 X-44.1376 Y10.9723 
G01 X-44.0380 Y11.0388 
G01 X-43.9273 Y11.0846 
G01 X-43.8099 Y11.1080 
G01 X-43.6901 Y11.1080 
G01 X-43.5727 Y11.0846 
G01 X-43.4620 Y11.0388 
G01 X-43.3624 Y10.9723 
G01 X-43.2777 Y10.8876 
G01 X-43.2112 Y10.7880 
G01 X-43.1955 Y10.7500 
G01 X-19.2003 Y10.7500 
G01 X-19.1084 Y10.7119 
G01 X-19.0381 Y10.6416 
G01 X-14.6420 Y6.2456 
G01 X-14.6001 Y6.3083 
G01 X-14.4871 Y6.4213 
G01 X-14.3542 Y6.5101 
G01 X-14.2066 Y6.5712 
G01 X-14.0499 Y6.6024 
G01 X-13.8901 Y6.6024 
G01 X-13.7334 Y6.5712 
G01 X-13.5858 Y6.5101 
G01 X-13.4529 Y6.4213 
G01 X-13.3399 Y6.3083 
G01 X-13.2511 Y6.1754 
G01 X-13.1900 Y6.0278 
G01 X-13.1588 Y5.8711 
G00 Z2.0000 
G00 X-57.5072 Y11.0627 
G01 Z-0.0250 F254.00 
G01 X-57.5072 Y9.2573 F508.00 
G01 X-57.5423 Y9.0809 
G01 X-57.6111 Y8.9148 
G01 X-57.7110 Y8.7653 
G01 X-57.8381 Y8.6382 
G01 X-57.9876 Y8.5383 
G01 X-58.1537 Y8.4695 
G01 X-58.3301 Y8.4344 
G01 X-58.5099 Y8.4344 
G01 X-58.6863 Y8.4695 
G01 X-58.8524 Y8.5383 
G01 X-59.0019 Y8.6382 
G01 X-59.1290 Y8.7653 
G01 X-59.2289 Y8.9148 
G01 X-59.2881 Y8.8584 
G01 X-59.3584 Y8.7881 
G01 X-59.4503 Y8.7500 
G01 X-61.7844 Y8.7500 
G01 X-61.8095 Y8.6237 
G01 X-61.8783 Y8.4576 
G01 X-61.9782 Y8.3081 
G01 X-62.1053 Y8.1810 
G01 X-62.2548 Y8.0811 
G01 X-62.4209 Y8.0123 
G01 X-62.5973 Y7.9772 
G01 X-64.4027 Y7.9772 
G01 X-64.5791 Y8.0123 
G01 X-64.7452 Y8.0811 
G01 X-64.8947 Y8.1810 
G01 X-65.0218 Y8.3081 
G01 X-65.1217 Y8.4576 
G01 X-65.1905 Y8.6237 
G01 X-65.2256 Y8.8001 
G01 X-65.2256 Y8.9799 
G01 X-65.1905 Y9.1563 
G01 X-65.1217 Y9.3224 
G01 X-65.0218 Y9.4719 
G01 X-64.8947 Y9.5990 
G01 X-64.7452 Y9.6989 
G01 X-64.5791 Y9.7677 
G01 X-64.4027 Y9.8028 
G01 X-62.5973 Y9.8028 
G01 X-62.4209 Y9.7677 
G01 X-62.2548 Y9.6989 
G01 X-62.1053 Y9.5990 
G01 X-61.9782 Y9.4719 
G01 X-61.8783 Y9.3224 
G01 X-61.8483 Y9.2500 
G01 X-59.6036 Y9.2500 
G01 X-59.3328 Y9.5208 
G01 X-59.3328 Y11.0627 
G01 X-59.2977 Y11.2391 
G01 X-59.2289 Y11.4052 
G01 X-59.1290 Y11.5547 
G01 X-59.0019 Y11.6818 
G01 X-58.8524 Y11.7817 
G01 X-58.6863 Y11.8505 
G01 X-58.5099 Y11.8856 
G01 X-58.3301 Y11.8856 
G01 X-58.1537 Y11.8505 
G01 X-57.9876 Y11.7817 
G01 X-57.8381 Y11.6818 
G01 X-57.7110 Y11.5547 
G01 X-57.6111 Y11.4052 
G01 X-57.5423 Y11.2391 
G01 X-57.5072 Y11.0627 
G00 Z2.0000 
G00 X-52.4272 Y11.0627 
G01 Z-0.0250 F254.00 
G01 X-52.4272 Y9.2573 F508.00 
G01 X-52.4623 Y9.0809 
G01 X-52.5311 Y8.9148 
G01 X-52.6310 Y8.7653 
G01 X-52.7581 Y8.6382 
G01 X-52.9076 Y8.5383 
G01 X-53.0737 Y8.4695 
G01 X-53.2501 Y8.4344 
G01 X-53.4299 Y8.4344 
G01 X-53.6063 Y8.4695 
G01 X-53.7724 Y8.5383 
G01 X-53.9219 Y8.6382 
G01 X-54.0490 Y8.7653 
G01 X-54.1489 Y8.9148 
G01 X-54.2177 Y9.0809 
G01 X-54.2528 Y9.2573 
G01 X-54.2528 Y11.0627 
G01 X-54.2177 Y11.2391 
G01 X-54.1489 Y11.4052 
G01 X-54.0490 Y11.5547 
G01 X-53.9219 Y11.6818 
G01 X-53.7724 Y11.7817 
G01 X-53.6063 Y11.8505 
G01 X-53.4299 Y11.8856 
G01 X-53.2501 Y11.8856 
G01 X-53.0737 Y11.8505 
G01 X-52.9076 Y11.7817 
G01 X-52.7581 Y11.6818 
G01 X-52.6310 Y11.5547 
G01 X-52.5311 Y11.4052 
G01 X-52.4623 Y11.2391 
G01 X-52.4272 Y11.0627 
G00 Z2.0000 
G00 X-64.4027 Y7.2628 
G01 Z-0.0250 F254.00 
G01 X-62.5973 Y7.2628 F508.00 
G01 X-62.4209 Y7.2277 
G01 X-62.2548 Y7.1589 
G01 X-62.1053 Y7.0590 
G01 X-61.9782 Y6.9319 
G01 X-61.8783 Y6.7824 
G01 X-61.8649 Y6.7500 
G01 X-54.3536 Y6.7500 
G01 X-50.3536 Y10.7500 
G01 X-51.0347 Y11.4311 
G01 X-51.0727 Y11.4154 
G01 X-51.1901 Y11.3920 
G01 X-51.3099 Y11.3920 
G01 X-51.4273 Y11.4154 
G01 X-51.5380 Y11.4612 
G01 X-51.6376 Y11.5277 
G01 X-51.7223 Y11.6124 
G01 X-51.7888 Y11.7120 
G01 X-51.8346 Y11.8227 
G01 X-51.8580 Y11.9401 
G01 X-51.8580 Y12.0599 
G01 X-51.8346 Y12.1773 
G01 X-51.7888 Y12.2880 
G01 X-51.7223 Y12.3876 
G01 X-51.6376 Y12.4723 
G01 X-51.5380 Y12.5388 
G01 X-51.4273 Y12.5846 
G01 X-51.3099 Y12.6080 
G01 X-51.1901 Y12.6080 
G01 X-51.0727 Y12.5846 
G01 X-50.9620 Y12.5388 
G01 X-50.8624 Y12.4723 
G01 X-50.7777 Y12.3876 
G01 X-50.7112 Y12.2880 
G01 X-50.6654 Y12.1773 
G01 X-50.6420 Y12.0599 
G01 X-50.6420 Y11.9401 
G01 X-50.6654 Y11.8227 
G01 X-50.6811 Y11.7847 
G01 X-50.0000 Y11.1036 
G01 X-49.3916 Y11.7119 
G01 X-49.2997 Y11.7500 
G01 X-8.8536 Y11.7500 
G01 X-8.3189 Y12.2847 
G01 X-8.3346 Y12.3227 
G01 X-8.3580 Y12.4401 
G01 X-8.3580 Y12.5599 
G01 X-8.3346 Y12.6773 
G01 X-8.2888 Y12.7880 
G01 X-8.2223 Y12.8876 
G01 X-8.1376 Y12.9723 
G01 X-8.0380 Y13.0388 
G01 X-7.9273 Y13.0846 
G01 X-7.8099 Y13.1080 
G01 X-7.6901 Y13.1080 
G01 X-7.5727 Y13.0846 
G01 X-7.4620 Y13.0388 
G01 X-7.3624 Y12.9723 
G01 X-7.2777 Y12.8876 
G01 X-7.2112 Y12.7880 
G01 X-7.1654 Y12.6773 
G01 X-7.1420 Y12.5599 
G01 X-7.1420 Y12.4401 
G01 X-7.1654 Y12.3227 
G01 X-7.2112 Y12.2120 
G01 X-7.2777 Y12.1124 
G01 X-7.3624 Y12.0277 
G01 X-7.4620 Y11.9612 
G01 X-7.5727 Y11.9154 
G01 X-7.6901 Y11.8920 
G01 X-7.8099 Y11.8920 
G01 X-7.9273 Y11.9154 
G01 X-7.9653 Y11.9311 
G01 X-8.5381 Y11.3584 
G01 X-8.6084 Y11.2881 
G01 X-8.7003 Y11.2500 
G01 X-49.1464 Y11.2500 
G01 X-49.7881 Y10.6084 
G01 X-49.8584 Y10.5381 
G01 X-54.0381 Y6.3584 
G01 X-54.1084 Y6.2881 
G01 X-54.2003 Y6.2500 
G01 X-61.7764 Y6.2500 
G01 X-61.8095 Y6.0837 
G01 X-61.8783 Y5.9176 
G01 X-61.9782 Y5.7681 
G01 X-62.1053 Y5.6410 
G01 X-62.2548 Y5.5411 
G01 X-62.4209 Y5.4723 
G01 X-62.5973 Y5.4372 
G01 X-64.4027 Y5.4372 
G01 X-64.5791 Y5.4723 
G01 X-64.7452 Y5.5411 
G01 X-64.8947 Y5.6410 
G01 X-65.0218 Y5.7681 
G01 X-65.1217 Y5.9176 
G01 X-65.1905 Y6.0837 
G01 X-65.2256 Y6.2601 
G01 X-65.2256 Y6.4399 
G01 X-65.1905 Y6.6163 
G01 X-65.1217 Y6.7824 
G01 X-65.0218 Y6.9319 
G01 X-64.8947 Y7.0590 
G01 X-64.7452 Y7.1589 
G01 X-64.5791 Y7.2277 
G01 X-64.4027 Y7.2628 
G00 Z2.0000 
G00 X-47.3600 Y17.7012 
G01 Z-0.0250 F254.00 
G01 X-47.3600 Y17.8588 F508.00 
G01 X-47.3293 Y18.0134 
G01 X-47.2689 Y18.1589 
G01 X-47.2664 Y18.1628 
G01 X-47.8536 Y18.7500 
G01 X-58.5497 Y18.7500 
G01 X-58.6416 Y18.7881 
G01 X-58.7119 Y18.8584 
G01 X-64.2847 Y24.4311 
G01 X-64.3227 Y24.4154 
G01 X-64.4401 Y24.3920 
G01 X-64.5599 Y24.3920 
G01 X-64.6773 Y24.4154 
G01 X-64.7880 Y24.4612 
G01 X-64.8876 Y24.5277 
G01 X-64.9723 Y24.6124 
G01 X-65.0388 Y24.7120 
G01 X-65.0846 Y24.8226 
G01 X-65.1080 Y24.9401 
G01 X-65.1080 Y25.0599 
G01 X-65.0846 Y25.1773 
G01 X-65.0388 Y25.2880 
G01 X-64.9723 Y25.3876 
G01 X-64.8876 Y25.4723 
G01 X-64.7880 Y25.5388 
G01 X-64.6773 Y25.5846 
G01 X-64.5599 Y25.6080 
G01 X-64.4401 Y25.6080 
G01 X-64.3227 Y25.5846 
G01 X-64.2120 Y25.5388 
G01 X-64.1124 Y25.4723 
G01 X-64.0277 Y25.3876 
G01 X-63.9612 Y25.2880 
G01 X-63.9154 Y25.1773 
G01 X-63.8920 Y25.0599 
G01 X-63.8920 Y24.9401 
G01 X-63.9154 Y24.8226 
G01 X-63.9311 Y24.7847 
G01 X-58.3964 Y19.2500 
G01 X-47.7003 Y19.2500 
G01 X-47.6084 Y19.2119 
G01 X-46.9011 Y18.5046 
G01 X-46.7934 Y18.5493 
G01 X-46.6388 Y18.5800 
G01 X-46.4812 Y18.5800 
G01 X-46.3266 Y18.5493 
G01 X-46.1811 Y18.4889 
G01 X-46.0500 Y18.4014 
G01 X-45.9386 Y18.2900 
G01 X-45.8511 Y18.1589 
G01 X-45.7907 Y18.0134 
G01 X-45.7881 Y18.0000 
G01 X-11.5545 Y18.0000 
G01 X-11.5388 Y18.0380 
G01 X-11.4723 Y18.1376 
G01 X-11.3876 Y18.2223 
G01 X-11.2880 Y18.2888 
G01 X-11.1773 Y18.3346 
G01 X-11.0599 Y18.3580 
G01 X-10.9401 Y18.3580 
G01 X-10.8227 Y18.3346 
G01 X-10.7120 Y18.2888 
G01 X-10.6124 Y18.2223 
G01 X-10.5277 Y18.1376 
G01 X-10.4612 Y18.0380 
G01 X-10.4154 Y17.9273 
G01 X-10.3920 Y17.8099 
G01 X-10.3920 Y17.6901 
G01 X-10.4154 Y17.5726 
G01 X-10.4612 Y17.4620 
G01 X-10.5277 Y17.3624 
G01 X-10.6124 Y17.2777 
G01 X-10.7120 Y17.2112 
G01 X-10.8227 Y17.1654 
G01 X-10.9401 Y17.1420 
G01 X-11.0599 Y17.1420 
G01 X-11.1773 Y17.1654 
G01 X-11.2880 Y17.2112 
G01 X-11.3876 Y17.2777 
G01 X-11.4723 Y17.3624 
G01 X-11.5388 Y17.4620 
G01 X-11.5545 Y17.5000 
G01 X-45.8101 Y17.5000 
G01 X-45.8511 Y17.4011 
G01 X-45.9386 Y17.2700 
G01 X-46.0500 Y17.1586 
G01 X-46.1811 Y17.0710 
G01 X-46.3266 Y17.0107 
G01 X-46.4812 Y16.9800 
G01 X-46.6388 Y16.9800 
G01 X-46.7934 Y17.0107 
G01 X-46.9389 Y17.0710 
G01 X-47.0700 Y17.1586 
G01 X-47.1814 Y17.2700 
G01 X-47.2689 Y17.4011 
G01 X-47.3293 Y17.5466 
G01 X-47.3600 Y17.7012 
G00 Z2.0000 
G00 X-64.4027 Y17.4228 
G01 Z-0.0250 F254.00 
G01 X-62.5973 Y17.4228 F508.00 
G01 X-62.4209 Y17.3877 
G01 X-62.2548 Y17.3189 
G01 X-62.1053 Y17.2190 
G01 X-61.9782 Y17.0919 
G01 X-61.8783 Y16.9424 
G01 X-61.8095 Y16.7763 
G01 X-61.7744 Y16.5999 
G01 X-61.7744 Y16.4201 
G01 X-61.8095 Y16.2437 
G01 X-61.8783 Y16.0776 
G01 X-61.9782 Y15.9281 
G01 X-62.1053 Y15.8010 
G01 X-62.2548 Y15.7011 
G01 X-62.3204 Y15.6739 
G01 X-62.1464 Y15.5000 
G01 X-57.5718 Y15.5000 
G01 X-57.5705 Y15.5063 
G01 X-57.5017 Y15.6724 
G01 X-57.4018 Y15.8219 
G01 X-57.2747 Y15.9490 
G01 X-57.1252 Y16.0489 
G01 X-56.9591 Y16.1177 
G01 X-56.7827 Y16.1528 
G01 X-54.9773 Y16.1528 
G01 X-54.8009 Y16.1177 
G01 X-54.6348 Y16.0489 
G01 X-54.4853 Y15.9490 
G01 X-54.3582 Y15.8219 
G01 X-54.2583 Y15.6724 
G01 X-54.1895 Y15.5063 
G01 X-54.1882 Y15.5000 
G01 X-52.6036 Y15.5000 
G01 X-50.6788 Y17.4248 
G01 X-50.7293 Y17.5466 
G01 X-50.7600 Y17.7012 
G01 X-50.7600 Y17.8588 
G01 X-50.7293 Y18.0134 
G01 X-50.6689 Y18.1589 
G01 X-50.5814 Y18.2900 
G01 X-50.4700 Y18.4014 
G01 X-50.3389 Y18.4889 
G01 X-50.1934 Y18.5493 
G01 X-50.0388 Y18.5800 
G01 X-49.8812 Y18.5800 
G01 X-49.7266 Y18.5493 
G01 X-49.5811 Y18.4889 
G01 X-49.4500 Y18.4014 
G01 X-49.3386 Y18.2900 
G01 X-49.2510 Y18.1589 
G01 X-49.1907 Y18.0134 
G01 X-49.1600 Y17.8588 
G01 X-49.1600 Y17.7012 
G01 X-49.1907 Y17.5466 
G01 X-49.2510 Y17.4011 
G01 X-49.3386 Y17.2700 
G01 X-49.4500 Y17.1586 
G01 X-49.5811 Y17.0710 
G01 X-49.7266 Y17.0107 
G01 X-49.8812 Y16.9800 
G01 X-50.0388 Y16.9800 
G01 X-50.1934 Y17.0107 
G01 X-50.3294 Y17.0671 
G01 X-52.2881 Y15.1084 
G01 X-52.3584 Y15.0381 
G01 X-52.4503 Y15.0000 
G01 X-54.1843 Y15.0000 
G01 X-54.1895 Y14.9737 
G01 X-54.2583 Y14.8076 
G01 X-54.3582 Y14.6581 
G01 X-54.4853 Y14.5310 
G01 X-54.6348 Y14.4311 
G01 X-54.8009 Y14.3623 
G01 X-54.9773 Y14.3272 
G01 X-56.7827 Y14.3272 
G01 X-56.9591 Y14.3623 
G01 X-57.1252 Y14.4311 
G01 X-57.2747 Y14.5310 
G01 X-57.4018 Y14.6581 
G01 X-57.5017 Y14.8076 
G01 X-57.5705 Y14.9737 
G01 X-57.5757 Y15.0000 
G01 X-62.2997 Y15.0000 
G01 X-62.3916 Y15.0381 
G01 X-62.4619 Y15.1084 
G01 X-62.9508 Y15.5972 
G01 X-64.4027 Y15.5972 
G01 X-64.5791 Y15.6323 
G01 X-64.7452 Y15.7011 
G01 X-64.8947 Y15.8010 
G01 X-65.0218 Y15.9281 
G01 X-65.1217 Y16.0776 
G01 X-65.1905 Y16.2437 
G01 X-65.2256 Y16.4201 
G01 X-65.2256 Y16.5999 
G01 X-65.1905 Y16.7763 
G01 X-65.1217 Y16.9424 
G01 X-65.0218 Y17.0919 
G01 X-64.8947 Y17.2190 
G01 X-64.7452 Y17.3189 
G01 X-64.5791 Y17.3877 
G01 X-64.4027 Y17.4228 
G00 Z2.0000 
G00 X-64.4027 Y19.9628 
G01 Z-0.0250 F254.00 
G01 X-62.5973 Y19.9628 F508.00 
G01 X-62.4209 Y19.9277 
G01 X-62.2548 Y19.8589 
G01 X-62.1053 Y19.7590 
G01 X-61.9782 Y19.6319 
G01 X-61.8783 Y19.4824 
G01 X-61.8095 Y19.3163 
G01 X-61.7744 Y19.1399 
G01 X-61.7744 Y18.9601 
G01 X-61.8095 Y18.7837 
G01 X-61.8783 Y18.6176 
G01 X-61.9782 Y18.4681 
G01 X-62.1053 Y18.3410 
G01 X-62.2548 Y18.2411 
G01 X-62.4209 Y18.1723 
G01 X-62.5973 Y18.1372 
G01 X-64.4027 Y18.1372 
G01 X-64.5791 Y18.1723 
G01 X-64.7452 Y18.2411 
G01 X-64.8947 Y18.3410 
G01 X-65.0218 Y18.4681 
G01 X-65.1217 Y18.6176 
G01 X-65.1905 Y18.7837 
G01 X-65.2256 Y18.9601 
G01 X-65.2256 Y19.1399 
G01 X-65.1905 Y19.3163 
G01 X-65.1217 Y19.4824 
G01 X-65.0218 Y19.6319 
G01 X-64.8947 Y19.7590 
G01 X-64.7452 Y19.8589 
G01 X-64.5791 Y19.9277 
G01 X-64.4027 Y19.9628 
G00 Z2.0000 
G00 X-47.9028 Y1.6373 
G01 Z-0.0250 F254.00 
G01 X-47.9028 Y3.2992 F508.00 
G01 X-49.8536 Y5.2500 
G01 X-55.9455 Y5.2500 
G01 X-55.9612 Y5.2120 
G01 X-56.0277 Y5.1124 
G01 X-56.1124 Y5.0277 
G01 X-56.2120 Y4.9612 
G01 X-56.3227 Y4.9154 
G01 X-56.4401 Y4.8920 
G01 X-56.5599 Y4.8920 
G01 X-56.6773 Y4.9154 
G01 X-56.7880 Y4.9612 
G01 X-56.8876 Y5.0277 
G01 X-56.9723 Y5.1124 
G01 X-57.0388 Y5.2120 
G01 X-57.0846 Y5.3227 
G01 X-57.1080 Y5.4401 
G01 X-57.1080 Y5.5599 
G01 X-57.0846 Y5.6773 
G01 X-57.0388 Y5.7880 
G01 X-56.9723 Y5.8876 
G01 X-56.8876 Y5.9723 
G01 X-56.7880 Y6.0388 
G01 X-56.6773 Y6.0846 
G01 X-56.5599 Y6.1080 
G01 X-56.4401 Y6.1080 
G01 X-56.3227 Y6.0846 
G01 X-56.2120 Y6.0388 
G01 X-56.1124 Y5.9723 
G01 X-56.0277 Y5.8876 
G01 X-55.9612 Y5.7880 
G01 X-55.9455 Y5.7500 
G01 X-49.7003 Y5.7500 
G01 X-49.6084 Y5.7119 
G01 X-49.5381 Y5.6416 
G01 X-47.7519 Y3.8555 
G01 X-47.6990 Y3.9347 
G01 X-47.5719 Y4.0618 
G01 X-47.4224 Y4.1617 
G01 X-47.2563 Y4.2305 
G01 X-47.0799 Y4.2656 
G01 X-46.9001 Y4.2656 
G01 X-46.7237 Y4.2305 
G01 X-46.5576 Y4.1617 
G01 X-46.4081 Y4.0618 
G01 X-46.2810 Y3.9347 
G01 X-46.1811 Y3.7852 
G01 X-46.1123 Y3.6191 
G01 X-46.0772 Y3.4427 
G01 X-46.0772 Y1.6373 
G01 X-46.1123 Y1.4609 
G01 X-46.1811 Y1.2948 
G01 X-46.2810 Y1.1453 
G01 X-46.4081 Y1.0182 
G01 X-46.5576 Y0.9183 
G01 X-46.7237 Y0.8495 
G01 X-46.9001 Y0.8144 
G01 X-47.0799 Y0.8144 
G01 X-47.2563 Y0.8495 
G01 X-47.4224 Y0.9183 
G01 X-47.5719 Y1.0182 
G01 X-47.6990 Y1.1453 
G01 X-47.7989 Y1.2948 
G01 X-47.8677 Y1.4609 
G01 X-47.9028 Y1.6373 
G00 Z2.0000 
G00 X-50.4428 Y1.6373 
G01 Z-0.0250 F254.00 
G01 X-50.4428 Y3.0892 F508.00 
G01 X-51.8536 Y4.5000 
G01 X-55.6464 Y4.5000 
G01 X-57.4564 Y2.6900 
G01 X-57.4564 Y1.5815 
G01 X-57.4934 Y1.3953 
G01 X-57.5661 Y1.2200 
G01 X-57.6715 Y1.0621 
G01 X-57.8057 Y0.9279 
G01 X-57.9636 Y0.8225 
G01 X-58.1389 Y0.7498 
G01 X-58.3251 Y0.7128 
G01 X-58.5149 Y0.7128 
G01 X-58.7011 Y0.7498 
G01 X-58.8764 Y0.8225 
G01 X-59.0343 Y0.9279 
G01 X-59.1685 Y1.0621 
G01 X-59.2739 Y1.2200 
G01 X-59.3466 Y1.3953 
G01 X-59.3836 Y1.5815 
G01 X-59.3836 Y3.4985 
G01 X-59.3466 Y3.6847 
G01 X-59.2739 Y3.8600 
G01 X-59.1685 Y4.0179 
G01 X-59.0343 Y4.1521 
G01 X-58.8764 Y4.2575 
G01 X-58.7011 Y4.3302 
G01 X-58.5149 Y4.3672 
G01 X-58.3251 Y4.3672 
G01 X-58.1389 Y4.3302 
G01 X-57.9636 Y4.2575 
G01 X-57.8057 Y4.1521 
G01 X-57.6715 Y4.0179 
G01 X-57.5661 Y3.8600 
G01 X-57.4934 Y3.6847 
G01 X-57.4564 Y3.4985 
G01 X-57.4564 Y3.3971 
G01 X-55.8916 Y4.9619 
G01 X-55.7997 Y5.0000 
G01 X-51.7003 Y5.0000 
G01 X-51.6084 Y4.9619 
G01 X-51.5381 Y4.8916 
G01 X-50.3661 Y3.7196 
G01 X-50.3389 Y3.7852 
G01 X-50.2390 Y3.9347 
G01 X-50.1119 Y4.0618 
G01 X-49.9624 Y4.1617 
G01 X-49.7963 Y4.2305 
G01 X-49.6199 Y4.2656 
G01 X-49.4401 Y4.2656 
G01 X-49.2637 Y4.2305 
G01 X-49.0976 Y4.1617 
G01 X-48.9481 Y4.0618 
G01 X-48.8210 Y3.9347 
G01 X-48.7211 Y3.7852 
G01 X-48.6523 Y3.6191 
G01 X-48.6172 Y3.4427 
G01 X-48.6172 Y1.6373 
G01 X-48.6523 Y1.4609 
G01 X-48.7211 Y1.2948 
G01 X-48.8210 Y1.1453 
G01 X-48.9481 Y1.0182 
G01 X-49.0976 Y0.9183 
G01 X-49.2637 Y0.8495 
G01 X-49.4401 Y0.8144 
G01 X-49.6199 Y0.8144 
G01 X-49.7963 Y0.8495 
G01 X-49.9624 Y0.9183 
G01 X-50.1119 Y1.0182 
G01 X-50.2390 Y1.1453 
G01 X-50.3389 Y1.2948 
G01 X-50.4077 Y1.4609 
G01 X-50.4428 Y1.6373 
G00 Z2.0000 
G00 X-61.2664 Y3.4985 
G01 Z-0.0250 F254.00 
G01 X-61.2664 Y1.5815 F508.00 
G01 X-61.3034 Y1.3953 
G01 X-61.3761 Y1.2200 
G01 X-61.4815 Y1.0621 
G01 X-61.6157 Y0.9279 
G01 X-61.7736 Y0.8225 
G01 X-61.9489 Y0.7498 
G01 X-62.1351 Y0.7128 
G01 X-62.3249 Y0.7128 
G01 X-62.5111 Y0.7498 
G01 X-62.6864 Y0.8225 
G01 X-62.8443 Y0.9279 
G01 X-62.9785 Y1.0621 
G01 X-63.0839 Y1.2200 
G01 X-63.1566 Y1.3953 
G01 X-63.1936 Y1.5815 
G01 X-63.1936 Y3.4985 
G01 X-63.1566 Y3.6847 
G01 X-63.0839 Y3.8600 
G01 X-62.9785 Y4.0179 
G01 X-62.8443 Y4.1521 
G01 X-62.6864 Y4.2575 
G01 X-62.5111 Y4.3302 
G01 X-62.3249 Y4.3672 
G01 X-62.1351 Y4.3672 
G01 X-61.9489 Y4.3302 
G01 X-61.7736 Y4.2575 
G01 X-61.6157 Y4.1521 
G01 X-61.4815 Y4.0179 
G01 X-61.3761 Y3.8600 
G01 X-61.3034 Y3.6847 
G01 X-61.2664 Y3.4985 
G00 Z2.0000 
G00 X-53.6464 Y3.4985 
G01 Z-0.0250 F254.00 
G01 X-53.6464 Y1.5815 F508.00 
G01 X-53.6834 Y1.3953 
G01 X-53.7561 Y1.2200 
G01 X-53.8615 Y1.0621 
G01 X-53.9957 Y0.9279 
G01 X-54.1536 Y0.8225 
G01 X-54.3289 Y0.7498 
G01 X-54.5151 Y0.7128 
G01 X-54.7049 Y0.7128 
G01 X-54.8911 Y0.7498 
G01 X-55.0664 Y0.8225 
G01 X-55.2243 Y0.9279 
G01 X-55.3585 Y1.0621 
G01 X-55.4639 Y1.2200 
G01 X-55.5366 Y1.3953 
G01 X-55.5736 Y1.5815 
G01 X-55.5736 Y3.4985 
G01 X-55.5366 Y3.6847 
G01 X-55.4639 Y3.8600 
G01 X-55.3585 Y4.0179 
G01 X-55.2243 Y4.1521 
G01 X-55.0664 Y4.2575 
G01 X-54.8911 Y4.3302 
G01 X-54.7049 Y4.3672 
G01 X-54.5151 Y4.3672 
G01 X-54.3289 Y4.3302 
G01 X-54.1536 Y4.2575 
G01 X-53.9957 Y4.1521 
G01 X-53.8615 Y4.0179 
G01 X-53.7561 Y3.8600 
G01 X-53.6834 Y3.6847 
G01 X-53.6464 Y3.4985 
G00 Z2.0000 
G00 X-29.6910 Y50.9976 
G01 Z-0.0250 F254.00 
G01 X-29.6910 Y51.1612 F508.00 
G01 X-29.6654 Y51.3229 
G01 X-29.6148 Y51.4785 
G01 X-29.5405 Y51.6244 
G01 X-29.4443 Y51.7568 
G01 X-29.3286 Y51.8725 
G01 X-29.1962 Y51.9687 
G01 X-29.0503 Y52.0430 
G01 X-28.8947 Y52.0936 
G01 X-28.7330 Y52.1192 
G01 X-28.5694 Y52.1192 
G01 X-28.4077 Y52.0936 
G01 X-28.2521 Y52.0430 
G01 X-28.1062 Y51.9687 
G01 X-27.9738 Y51.8725 
G01 X-27.8581 Y51.7568 
G01 X-27.7619 Y51.6244 
G01 X-27.6876 Y51.4785 
G01 X-27.6370 Y51.3229 
G01 X-27.6114 Y51.1612 
G01 X-27.6114 Y50.9976 
G01 X-27.6370 Y50.8359 
G01 X-27.6876 Y50.6803 
G01 X-27.7619 Y50.5344 
G01 X-27.8581 Y50.4020 
G01 X-27.9738 Y50.2863 
G01 X-28.1062 Y50.1901 
G01 X-28.2521 Y50.1158 
G01 X-28.4077 Y50.0652 
G01 X-28.5694 Y50.0396 
G01 X-28.7330 Y50.0396 
G01 X-28.8947 Y50.0652 
G01 X-29.0503 Y50.1158 
G01 X-29.1962 Y50.1901 
G01 X-29.3286 Y50.2863 
G01 X-29.4443 Y50.4020 
G01 X-29.5405 Y50.5344 
G01 X-29.6148 Y50.6803 
G01 X-29.6654 Y50.8359 
G01 X-29.6910 Y50.9976 
G00 Z2.0000 
G00 X-29.6910 Y55.5188 
G01 Z-0.0250 F254.00 
G01 X-29.6910 Y55.6824 F508.00 
G01 X-29.6654 Y55.8441 
G01 X-29.6148 Y55.9997 
G01 X-29.5405 Y56.1456 
G01 X-29.4443 Y56.2780 
G01 X-29.3286 Y56.3937 
G01 X-29.1962 Y56.4899 
G01 X-29.0503 Y56.5642 
G01 X-28.8947 Y56.6148 
G01 X-28.7330 Y56.6404 
G01 X-28.5694 Y56.6404 
G01 X-28.4077 Y56.6148 
G01 X-28.2521 Y56.5642 
G01 X-28.1062 Y56.4899 
G01 X-27.9738 Y56.3937 
G01 X-27.8581 Y56.2780 
G01 X-27.7619 Y56.1456 
G01 X-27.6876 Y55.9997 
G01 X-27.6370 Y55.8441 
G01 X-27.6114 Y55.6824 
G01 X-27.6114 Y55.5188 
G01 X-27.6370 Y55.3571 
G01 X-27.6876 Y55.2015 
G01 X-27.7619 Y55.0556 
G01 X-27.8581 Y54.9232 
G01 X-27.9738 Y54.8075 
G01 X-28.1062 Y54.7113 
G01 X-28.2521 Y54.6370 
G01 X-28.4077 Y54.5864 
G01 X-28.5694 Y54.5608 
G01 X-28.7330 Y54.5608 
G01 X-28.8947 Y54.5864 
G01 X-29.0503 Y54.6370 
G01 X-29.1962 Y54.7113 
G01 X-29.3286 Y54.8075 
G01 X-29.4443 Y54.9232 
G01 X-29.5405 Y55.0556 
G01 X-29.6148 Y55.2015 
G01 X-29.6654 Y55.3571 
G01 X-29.6910 Y55.5188 
G00 Z2.0000 
G00 X-64.4027 Y12.3428 
G01 Z-0.0250 F254.00 
G01 X-62.5973 Y12.3428 F508.00 
G01 X-62.4209 Y12.3077 
G01 X-62.2548 Y12.2389 
G01 X-62.1053 Y12.1390 
G01 X-61.9782 Y12.0119 
G01 X-61.8783 Y11.8624 
G01 X-61.8095 Y11.6963 
G01 X-61.7744 Y11.5199 
G01 X-61.7744 Y11.3401 
G01 X-61.8095 Y11.1637 
G01 X-61.8783 Y10.9976 
G01 X-61.9782 Y10.8481 
G01 X-62.1053 Y10.7210 
G01 X-62.2548 Y10.6211 
G01 X-62.4209 Y10.5523 
G01 X-62.5973 Y10.5172 
G01 X-64.4027 Y10.5172 
G01 X-64.5791 Y10.5523 
G01 X-64.7452 Y10.6211 
G01 X-64.8947 Y10.7210 
G01 X-65.0218 Y10.8481 
G01 X-65.1217 Y10.9976 
G01 X-65.1905 Y11.1637 
G01 X-65.2256 Y11.3401 
G01 X-65.2256 Y11.5199 
G01 X-65.1905 Y11.6963 
G01 X-65.1217 Y11.8624 
G01 X-65.0218 Y12.0119 
G01 X-64.8947 Y12.1390 
G01 X-64.7452 Y12.2389 
G01 X-64.5791 Y12.3077 
G01 X-64.4027 Y12.3428 
G00 Z2.0000 
G00 X-64.4027 Y14.8828 
G01 Z-0.0250 F254.00 
G01 X-62.5973 Y14.8828 F508.00 
G01 X-62.4209 Y14.8477 
G01 X-62.2548 Y14.7789 
G01 X-62.1053 Y14.6790 
G01 X-61.9782 Y14.5519 
G01 X-61.8783 Y14.4024 
G01 X-61.8095 Y14.2363 
G01 X-61.7744 Y14.0599 
G01 X-61.7744 Y13.8801 
G01 X-61.8095 Y13.7037 
G01 X-61.8783 Y13.5376 
G01 X-61.9782 Y13.3881 
G01 X-62.1053 Y13.2610 
G01 X-62.1218 Y13.2500 
G01 X-10.8536 Y13.2500 
G01 X-6.5000 Y17.6036 
G01 X-6.5000 Y18.9455 
G01 X-6.5380 Y18.9612 
G01 X-6.6376 Y19.0277 
G01 X-6.7223 Y19.1124 
G01 X-6.7888 Y19.2120 
G01 X-6.8346 Y19.3226 
G01 X-6.8580 Y19.4401 
G01 X-6.8580 Y19.5599 
G01 X-6.8346 Y19.6773 
G01 X-6.7888 Y19.7880 
G01 X-6.7223 Y19.8876 
G01 X-6.6376 Y19.9723 
G01 X-6.5380 Y20.0388 
G01 X-6.5000 Y20.0545 
G01 X-6.5000 Y41.1955 
G01 X-6.5380 Y41.2112 
G01 X-6.6376 Y41.2777 
G01 X-6.7223 Y41.3624 
G01 X-6.7888 Y41.4620 
G01 X-6.8346 Y41.5727 
G01 X-6.8580 Y41.6901 
G01 X-6.8580 Y41.8099 
G01 X-6.8346 Y41.9273 
G01 X-6.7888 Y42.0380 
G01 X-6.7223 Y42.1376 
G01 X-6.6376 Y42.2223 
G01 X-6.5380 Y42.2888 
G01 X-6.4273 Y42.3346 
G01 X-6.3099 Y42.3580 
G01 X-6.1901 Y42.3580 
G01 X-6.0727 Y42.3346 
G01 X-5.9620 Y42.2888 
G01 X-5.8624 Y42.2223 
G01 X-5.7777 Y42.1376 
G01 X-5.7112 Y42.0380 
G01 X-5.6654 Y41.9273 
G01 X-5.6420 Y41.8099 
G01 X-5.6420 Y41.6901 
G01 X-5.6654 Y41.5727 
G01 X-5.7112 Y41.4620 
G01 X-5.7777 Y41.3624 
G01 X-5.8624 Y41.2777 
G01 X-5.9620 Y41.2112 
G01 X-6.0000 Y41.1955 
G01 X-6.0000 Y20.0545 
G01 X-5.9620 Y20.0388 
G01 X-5.8624 Y19.9723 
G01 X-5.7777 Y19.8876 
G01 X-5.7112 Y19.7880 
G01 X-5.6654 Y19.6773 
G01 X-5.6420 Y19.5599 
G01 X-5.6420 Y19.4401 
G01 X-5.6654 Y19.3226 
G01 X-5.7112 Y19.2120 
G01 X-5.7777 Y19.1124 
G01 X-5.8624 Y19.0277 
G01 X-5.9620 Y18.9612 
G01 X-6.0000 Y18.9455 
G01 X-6.0000 Y17.4503 
G01 X-6.0381 Y17.3584 
G01 X-6.1084 Y17.2881 
G01 X-10.6084 Y12.7881 
G01 X-10.7003 Y12.7500 
G01 X-62.7997 Y12.7500 
G01 X-62.8916 Y12.7881 
G01 X-62.9619 Y12.8584 
G01 X-63.1608 Y13.0572 
G01 X-64.4027 Y13.0572 
G01 X-64.5791 Y13.0923 
G01 X-64.7452 Y13.1611 
G01 X-64.8947 Y13.2610 
G01 X-65.0218 Y13.3881 
G01 X-65.1217 Y13.5376 
G01 X-65.1905 Y13.7037 
G01 X-65.2256 Y13.8801 
G01 X-65.2256 Y14.0599 
G01 X-65.1905 Y14.2363 
G01 X-65.1217 Y14.4024 
G01 X-65.0218 Y14.5519 
G01 X-64.8947 Y14.6790 
G01 X-64.7452 Y14.7789 
G01 X-64.5791 Y14.8477 
G01 X-64.4027 Y14.8828 
G00 Z2.0000 
G00 X-60.6028 Y43.0901 
G01 Z-0.0250 F254.00 
G01 X-60.6028 Y43.2699 F508.00 
G01 X-60.5677 Y43.4463 
G01 X-60.4989 Y43.6124 
G01 X-60.3990 Y43.7619 
G01 X-60.2719 Y43.8890 
G01 X-60.1224 Y43.9889 
G01 X-59.9563 Y44.0577 
G01 X-59.7799 Y44.0928 
G01 X-59.6001 Y44.0928 
G01 X-59.4237 Y44.0577 
G01 X-59.2576 Y43.9889 
G01 X-59.1081 Y43.8890 
G01 X-58.9810 Y43.7619 
G01 X-58.8811 Y43.6124 
G01 X-58.8123 Y43.4463 
G01 X-58.7772 Y43.2699 
G01 X-58.7772 Y43.0901 
G01 X-58.8123 Y42.9137 
G01 X-58.8811 Y42.7476 
G01 X-58.9810 Y42.5981 
G01 X-59.1081 Y42.4710 
G01 X-59.2576 Y42.3711 
G01 X-59.4237 Y42.3023 
G01 X-59.6001 Y42.2672 
G01 X-59.7799 Y42.2672 
G01 X-59.9563 Y42.3023 
G01 X-60.1224 Y42.3711 
G01 X-60.2719 Y42.4710 
G01 X-60.3990 Y42.5981 
G01 X-60.4989 Y42.7476 
G01 X-60.5677 Y42.9137 
G01 X-60.6028 Y43.0901 
G00 Z2.0000 
G00 X-47.9028 Y54.5201 
G01 Z-0.0250 F254.00 
G01 X-47.9028 Y54.6999 F508.00 
G01 X-47.8677 Y54.8763 
G01 X-47.7989 Y55.0424 
G01 X-47.6990 Y55.1919 
G01 X-47.5719 Y55.3190 
G01 X-47.4224 Y55.4189 
G01 X-47.2563 Y55.4877 
G01 X-47.0799 Y55.5228 
G01 X-46.9001 Y55.5228 
G01 X-46.7237 Y55.4877 
G01 X-46.5576 Y55.4189 
G01 X-46.4081 Y55.3190 
G01 X-46.2810 Y55.1919 
G01 X-46.1811 Y55.0424 
G01 X-46.1123 Y54.8763 
G01 X-46.0772 Y54.6999 
G01 X-46.0772 Y54.5201 
G01 X-46.1123 Y54.3437 
G01 X-46.1811 Y54.1776 
G01 X-46.2810 Y54.0281 
G01 X-46.4081 Y53.9010 
G01 X-46.5576 Y53.8011 
G01 X-46.7237 Y53.7323 
G01 X-46.9001 Y53.6972 
G01 X-47.0799 Y53.6972 
G01 X-47.2563 Y53.7323 
G01 X-47.4224 Y53.8011 
G01 X-47.5719 Y53.9010 
G01 X-47.6990 Y54.0281 
G01 X-47.7989 Y54.1776 
G01 X-47.8677 Y54.3437 
G01 X-47.9028 Y54.5201 
G00 Z2.0000 
G00 X-47.9028 Y51.9801 
G01 Z-0.0250 F254.00 
G01 X-47.9028 Y52.1599 F508.00 
G01 X-47.8677 Y52.3363 
G01 X-47.7989 Y52.5024 
G01 X-47.6990 Y52.6519 
G01 X-47.5719 Y52.7790 
G01 X-47.4224 Y52.8789 
G01 X-47.2563 Y52.9477 
G01 X-47.0799 Y52.9828 
G01 X-46.9001 Y52.9828 
G01 X-46.7237 Y52.9477 
G01 X-46.5576 Y52.8789 
G01 X-46.4081 Y52.7790 
G01 X-46.2810 Y52.6519 
G01 X-46.1811 Y52.5024 
G01 X-46.1123 Y52.3363 
G01 X-46.0772 Y52.1599 
G01 X-46.0772 Y51.9801 
G01 X-46.1123 Y51.8037 
G01 X-46.1811 Y51.6376 
G01 X-46.2810 Y51.4881 
G01 X-46.4081 Y51.3610 
G01 X-46.5576 Y51.2611 
G01 X-46.7237 Y51.1923 
G01 X-46.9001 Y51.1572 
G01 X-47.0799 Y51.1572 
G01 X-47.2563 Y51.1923 
G01 X-47.4224 Y51.2611 
G01 X-47.5719 Y51.3610 
G01 X-47.6990 Y51.4881 
G01 X-47.7989 Y51.6376 
G01 X-47.8677 Y51.8037 
G01 X-47.9028 Y51.9801 
G00 Z2.0000 
G00 X-47.9028 Y46.9001 
G01 Z-0.0250 F254.00 
G01 X-47.9028 Y47.0799 F508.00 
G01 X-47.8677 Y47.2563 
G01 X-47.7989 Y47.4224 
G01 X-47.6990 Y47.5719 
G01 X-47.5719 Y47.6990 
G01 X-47.4224 Y47.7989 
G01 X-47.2563 Y47.8677 
G01 X-47.0799 Y47.9028 
G01 X-46.9001 Y47.9028 
G01 X-46.7237 Y47.8677 
G01 X-46.5576 Y47.7989 
G01 X-46.4081 Y47.6990 
G01 X-46.2810 Y47.5719 
G01 X-46.1811 Y47.4224 
G01 X-46.1123 Y47.2563 
G01 X-46.0772 Y47.0799 
G01 X-46.0772 Y46.9001 
G01 X-46.1123 Y46.7237 
G01 X-46.1811 Y46.5576 
G01 X-46.2810 Y46.4081 
G01 X-46.4081 Y46.2810 
G01 X-46.5576 Y46.1811 
G01 X-46.7237 Y46.1123 
G01 X-46.9001 Y46.0772 
G01 X-47.0799 Y46.0772 
G01 X-47.2563 Y46.1123 
G01 X-47.4224 Y46.1811 
G01 X-47.5719 Y46.2810 
G01 X-47.6990 Y46.4081 
G01 X-47.7989 Y46.5576 
G01 X-47.8677 Y46.7237 
G01 X-47.9028 Y46.9001 
G00 Z2.0000 
G00 X-47.9028 Y39.2801 
G01 Z-0.0250 F254.00 
G01 X-47.9028 Y39.4599 F508.00 
G01 X-47.8677 Y39.6363 
G01 X-47.7989 Y39.8024 
G01 X-47.6990 Y39.9519 
G01 X-47.5719 Y40.0790 
G01 X-47.4224 Y40.1789 
G01 X-47.2563 Y40.2477 
G01 X-47.0799 Y40.2828 
G01 X-46.9001 Y40.2828 
G01 X-46.7237 Y40.2477 
G01 X-46.5576 Y40.1789 
G01 X-46.4779 Y40.1256 
G01 X-45.4619 Y41.1416 
G01 X-45.3916 Y41.2119 
G01 X-45.2997 Y41.2500 
G01 X-36.8045 Y41.2500 
G01 X-36.7888 Y41.2880 
G01 X-36.7223 Y41.3876 
G01 X-36.6376 Y41.4723 
G01 X-36.5380 Y41.5388 
G01 X-36.4273 Y41.5846 
G01 X-36.3099 Y41.6080 
G01 X-36.1901 Y41.6080 
G01 X-36.0727 Y41.5846 
G01 X-35.9620 Y41.5388 
G01 X-35.8624 Y41.4723 
G01 X-35.7777 Y41.3876 
G01 X-35.7112 Y41.2880 
G01 X-35.6654 Y41.1773 
G01 X-35.6420 Y41.0599 
G01 X-35.6420 Y40.9401 
G01 X-35.6654 Y40.8227 
G01 X-35.7112 Y40.7120 
G01 X-35.7777 Y40.6124 
G01 X-35.8624 Y40.5277 
G01 X-35.9620 Y40.4612 
G01 X-36.0727 Y40.4154 
G01 X-36.1901 Y40.3920 
G01 X-36.3099 Y40.3920 
G01 X-36.4273 Y40.4154 
G01 X-36.5380 Y40.4612 
G01 X-36.6376 Y40.5277 
G01 X-36.7223 Y40.6124 
G01 X-36.7888 Y40.7120 
G01 X-36.8045 Y40.7500 
G01 X-45.1464 Y40.7500 
G01 X-46.1556 Y39.7408 
G01 X-46.1123 Y39.6363 
G01 X-46.0772 Y39.4599 
G01 X-46.0772 Y39.2801 
G01 X-46.1123 Y39.1037 
G01 X-46.1811 Y38.9376 
G01 X-46.2810 Y38.7881 
G01 X-46.4081 Y38.6610 
G01 X-46.5576 Y38.5611 
G01 X-46.7237 Y38.4923 
G01 X-46.9001 Y38.4572 
G01 X-47.0799 Y38.4572 
G01 X-47.2563 Y38.4923 
G01 X-47.4224 Y38.5611 
G01 X-47.5719 Y38.6610 
G01 X-47.6990 Y38.7881 
G01 X-47.7989 Y38.9376 
G01 X-47.8677 Y39.1037 
G01 X-47.9028 Y39.2801 
G00 Z2.0000 
G00 X-47.9028 Y34.2001 
G01 Z-0.0250 F254.00 
G01 X-47.9028 Y34.3799 F508.00 
G01 X-47.8677 Y34.5563 
G01 X-47.7989 Y34.7224 
G01 X-47.6990 Y34.8719 
G01 X-47.5719 Y34.9990 
G01 X-47.4224 Y35.0989 
G01 X-47.2563 Y35.1677 
G01 X-47.0799 Y35.2028 
G01 X-46.9001 Y35.2028 
G01 X-46.7237 Y35.1677 
G01 X-46.5576 Y35.0989 
G01 X-46.5259 Y35.0777 
G01 X-45.6416 Y35.9619 
G01 X-45.5497 Y36.0000 
G01 X-18.6036 Y36.0000 
G01 X-11.6416 Y42.9619 
G01 X-11.5497 Y43.0000 
G01 X-5.2003 Y43.0000 
G01 X-5.1084 Y42.9619 
G01 X-5.0381 Y42.8916 
G01 X-5.0000 Y42.7997 
G01 X-5.0000 Y11.2003 
G01 X-5.0381 Y11.1084 
G01 X-5.1084 Y11.0381 
G01 X-10.6188 Y5.5276 
G01 X-10.6188 Y4.2889 
G01 X-10.6500 Y4.1322 
G01 X-10.7111 Y3.9846 
G01 X-10.7999 Y3.8517 
G01 X-10.9129 Y3.7387 
G01 X-11.0457 Y3.6499 
G01 X-11.1934 Y3.5888 
G01 X-11.3501 Y3.5576 
G01 X-11.5099 Y3.5576 
G01 X-11.6666 Y3.5888 
G01 X-11.8142 Y3.6499 
G01 X-11.9471 Y3.7387 
G01 X-12.0601 Y3.8517 
G01 X-12.1489 Y3.9846 
G01 X-12.2100 Y4.1322 
G01 X-12.2412 Y4.2889 
G01 X-12.2412 Y5.8711 
G01 X-12.2100 Y6.0278 
G01 X-12.1489 Y6.1754 
G01 X-12.0601 Y6.3083 
G01 X-11.9471 Y6.4213 
G01 X-11.8142 Y6.5101 
G01 X-11.6666 Y6.5712 
G01 X-11.5099 Y6.6024 
G01 X-11.3501 Y6.6024 
G01 X-11.1934 Y6.5712 
G01 X-11.0457 Y6.5101 
G01 X-10.9129 Y6.4213 
G01 X-10.7999 Y6.3083 
G01 X-10.7111 Y6.1754 
G01 X-10.7015 Y6.1521 
G01 X-5.5000 Y11.3536 
G01 X-5.5000 Y42.5000 
G01 X-11.3964 Y42.5000 
G01 X-18.2881 Y35.6084 
G01 X-18.3584 Y35.5381 
G01 X-18.4503 Y35.5000 
G01 X-45.3964 Y35.5000 
G01 X-46.1790 Y34.7174 
G01 X-46.1123 Y34.5563 
G01 X-46.0772 Y34.3799 
G01 X-46.0772 Y34.2001 
G01 X-46.1123 Y34.0237 
G01 X-46.1811 Y33.8576 
G01 X-46.2810 Y33.7081 
G01 X-46.4081 Y33.5810 
G01 X-46.5576 Y33.4811 
G01 X-46.7237 Y33.4123 
G01 X-46.9001 Y33.3772 
G01 X-47.0799 Y33.3772 
G01 X-47.2563 Y33.4123 
G01 X-47.4224 Y33.4811 
G01 X-47.5719 Y33.5810 
G01 X-47.6990 Y33.7081 
G01 X-47.7989 Y33.8576 
G01 X-47.8677 Y34.0237 
G01 X-47.9028 Y34.2001 
G00 Z2.0000 
G00 X-47.9028 Y31.6601 
G01 Z-0.0250 F254.00 
G01 X-47.9028 Y31.8399 F508.00 
G01 X-47.8677 Y32.0163 
G01 X-47.7989 Y32.1824 
G01 X-47.6990 Y32.3319 
G01 X-47.5719 Y32.4590 
G01 X-47.4224 Y32.5589 
G01 X-47.2563 Y32.6277 
G01 X-47.0799 Y32.6628 
G01 X-46.9001 Y32.6628 
G01 X-46.7237 Y32.6277 
G01 X-46.5576 Y32.5589 
G01 X-46.4081 Y32.4590 
G01 X-46.2810 Y32.3319 
G01 X-46.1811 Y32.1824 
G01 X-46.1123 Y32.0163 
G01 X-46.0772 Y31.8399 
G01 X-46.0772 Y31.6601 
G01 X-46.1123 Y31.4837 
G01 X-46.1811 Y31.3176 
G01 X-46.2810 Y31.1681 
G01 X-46.4081 Y31.0410 
G01 X-46.5576 Y30.9411 
G01 X-46.7237 Y30.8723 
G01 X-46.9001 Y30.8372 
G01 X-47.0799 Y30.8372 
G01 X-47.2563 Y30.8723 
G01 X-47.4224 Y30.9411 
G01 X-47.5719 Y31.0410 
G01 X-47.6990 Y31.1681 
G01 X-47.7989 Y31.3176 
G01 X-47.8677 Y31.4837 
G01 X-47.9028 Y31.6601 
G00 Z2.0000 
G00 X-47.9028 Y26.5801 
G01 Z-0.0250 F254.00 
G01 X-47.9028 Y26.7599 F508.00 
G01 X-47.8677 Y26.9363 
G01 X-47.7989 Y27.1024 
G01 X-47.6990 Y27.2519 
G01 X-47.5719 Y27.3790 
G01 X-47.4224 Y27.4789 
G01 X-47.2563 Y27.5477 
G01 X-47.0799 Y27.5828 
G01 X-46.9001 Y27.5828 
G01 X-46.7237 Y27.5477 
G01 X-46.5576 Y27.4789 
G01 X-46.4081 Y27.3790 
G01 X-46.2810 Y27.2519 
G01 X-46.1811 Y27.1024 
G01 X-46.1123 Y26.9363 
G01 X-46.0772 Y26.7599 
G01 X-46.0772 Y26.7500 
G01 X-27.8045 Y26.7500 
G01 X-27.7888 Y26.7880 
G01 X-27.7223 Y26.8876 
G01 X-27.6376 Y26.9723 
G01 X-27.5380 Y27.0388 
G01 X-27.4273 Y27.0846 
G01 X-27.3099 Y27.1080 
G01 X-27.1901 Y27.1080 
G01 X-27.0727 Y27.0846 
G01 X-26.9620 Y27.0388 
G01 X-26.8624 Y26.9723 
G01 X-26.7777 Y26.8876 
G01 X-26.7112 Y26.7880 
G01 X-26.6654 Y26.6773 
G01 X-26.6420 Y26.5599 
G01 X-26.6420 Y26.4401 
G01 X-26.6654 Y26.3227 
G01 X-26.7112 Y26.2120 
G01 X-26.7777 Y26.1124 
G01 X-26.8624 Y26.0277 
G01 X-26.9620 Y25.9612 
G01 X-27.0727 Y25.9154 
G01 X-27.1901 Y25.8920 
G01 X-27.3099 Y25.8920 
G01 X-27.4273 Y25.9154 
G01 X-27.5380 Y25.9612 
G01 X-27.6376 Y26.0277 
G01 X-27.7223 Y26.1124 
G01 X-27.7888 Y26.2120 
G01 X-27.8045 Y26.2500 
G01 X-46.1760 Y26.2500 
G01 X-46.1811 Y26.2376 
G01 X-46.2810 Y26.0881 
G01 X-46.4081 Y25.9610 
G01 X-46.5576 Y25.8611 
G01 X-46.7237 Y25.7923 
G01 X-46.9001 Y25.7572 
G01 X-47.0799 Y25.7572 
G01 X-47.2563 Y25.7923 
G01 X-47.4224 Y25.8611 
G01 X-47.5719 Y25.9610 
G01 X-47.6990 Y26.0881 
G01 X-47.7989 Y26.2376 
G01 X-47.8677 Y26.4037 
G01 X-47.9028 Y26.5801 
G00 Z2.0000 
G00 X-63.1428 Y26.5801 
G01 Z-0.0250 F254.00 
G01 X-63.1428 Y26.7599 F508.00 
G01 X-63.1077 Y26.9363 
G01 X-63.0389 Y27.1024 
G01 X-62.9390 Y27.2519 
G01 X-62.8119 Y27.3790 
G01 X-62.6624 Y27.4789 
G01 X-62.4963 Y27.5477 
G01 X-62.3199 Y27.5828 
G01 X-62.1401 Y27.5828 
G01 X-61.9637 Y27.5477 
G01 X-61.7976 Y27.4789 
G01 X-61.6481 Y27.3790 
G01 X-61.5210 Y27.2519 
G01 X-61.4211 Y27.1024 
G01 X-61.3523 Y26.9363 
G01 X-61.3172 Y26.7599 
G01 X-61.3172 Y26.5801 
G01 X-61.3523 Y26.4037 
G01 X-61.4211 Y26.2376 
G01 X-61.5210 Y26.0881 
G01 X-61.6481 Y25.9610 
G01 X-61.7976 Y25.8611 
G01 X-61.9637 Y25.7923 
G01 X-62.1401 Y25.7572 
G01 X-62.3199 Y25.7572 
G01 X-62.4963 Y25.7923 
G01 X-62.6624 Y25.8611 
G01 X-62.8119 Y25.9610 
G01 X-62.9390 Y26.0881 
G01 X-63.0389 Y26.2376 
G01 X-63.1077 Y26.4037 
G01 X-63.1428 Y26.5801 
G00 Z2.0000 
G00 X-63.1428 Y31.6601 
G01 Z-0.0250 F254.00 
G01 X-63.1428 Y31.8399 F508.00 
G01 X-63.1077 Y32.0163 
G01 X-63.0389 Y32.1824 
G01 X-62.9390 Y32.3319 
G01 X-62.8119 Y32.4590 
G01 X-62.6624 Y32.5589 
G01 X-62.4963 Y32.6277 
G01 X-62.3199 Y32.6628 
G01 X-62.1401 Y32.6628 
G01 X-61.9637 Y32.6277 
G01 X-61.7976 Y32.5589 
G01 X-61.6481 Y32.4590 
G01 X-61.5210 Y32.3319 
G01 X-61.4211 Y32.1824 
G01 X-61.3523 Y32.0163 
G01 X-61.3172 Y31.8399 
G01 X-61.3172 Y31.6601 
G01 X-61.3523 Y31.4837 
G01 X-61.4211 Y31.3176 
G01 X-61.5210 Y31.1681 
G01 X-61.6481 Y31.0410 
G01 X-61.7976 Y30.9411 
G01 X-61.9637 Y30.8723 
G01 X-62.1401 Y30.8372 
G01 X-62.3199 Y30.8372 
G01 X-62.4963 Y30.8723 
G01 X-62.6624 Y30.9411 
G01 X-62.8119 Y31.0410 
G01 X-62.9390 Y31.1681 
G01 X-63.0389 Y31.3176 
G01 X-63.1077 Y31.4837 
G01 X-63.1428 Y31.6601 
G00 Z2.0000 
G00 X-63.1428 Y34.2001 
G01 Z-0.0250 F254.00 
G01 X-63.1428 Y34.3799 F508.00 
G01 X-63.1077 Y34.5563 
G01 X-63.0389 Y34.7224 
G01 X-62.9536 Y34.8500 
G01 X-63.6416 Y35.5381 
G01 X-63.7119 Y35.6084 
G01 X-63.7500 Y35.7003 
G01 X-63.7500 Y48.2997 
G01 X-63.7119 Y48.3916 
G01 X-63.6416 Y48.4619 
G01 X-63.5497 Y48.5000 
G01 X-25.1036 Y48.5000 
G01 X-23.0486 Y50.5550 
G01 X-23.1124 Y50.6803 
G01 X-23.1630 Y50.8359 
G01 X-23.1886 Y50.9976 
G01 X-23.1886 Y51.1612 
G01 X-23.1630 Y51.3229 
G01 X-23.1124 Y51.4785 
G01 X-23.0381 Y51.6244 
G01 X-22.9419 Y51.7568 
G01 X-22.8262 Y51.8725 
G01 X-22.6938 Y51.9687 
G01 X-22.5479 Y52.0430 
G01 X-22.3923 Y52.0936 
G01 X-22.2306 Y52.1192 
G01 X-22.0670 Y52.1192 
G01 X-21.9053 Y52.0936 
G01 X-21.7497 Y52.0430 
G01 X-21.6038 Y51.9687 
G01 X-21.4714 Y51.8725 
G01 X-21.3557 Y51.7568 
G01 X-21.2595 Y51.6244 
G01 X-21.1852 Y51.4785 
G01 X-21.1346 Y51.3229 
G01 X-21.1090 Y51.1612 
G01 X-21.1090 Y50.9976 
G01 X-21.1346 Y50.8359 
G01 X-21.1852 Y50.6803 
G01 X-21.2595 Y50.5344 
G01 X-21.3557 Y50.4020 
G01 X-21.4714 Y50.2863 
G01 X-21.6038 Y50.1901 
G01 X-21.7497 Y50.1158 
G01 X-21.9053 Y50.0652 
G01 X-22.0670 Y50.0396 
G01 X-22.2306 Y50.0396 
G01 X-22.3923 Y50.0652 
G01 X-22.5479 Y50.1158 
G01 X-22.6938 Y50.1901 
G01 X-22.7011 Y50.1954 
G01 X-24.8584 Y48.0381 
G01 X-24.9503 Y48.0000 
G01 X-63.2500 Y48.0000 
G01 X-63.2500 Y35.8536 
G01 X-62.5443 Y35.1478 
G01 X-62.4963 Y35.1677 
G01 X-62.3199 Y35.2028 
G01 X-62.1401 Y35.2028 
G01 X-61.9637 Y35.1677 
G01 X-61.7976 Y35.0989 
G01 X-61.6481 Y34.9990 
G01 X-61.5210 Y34.8719 
G01 X-61.4211 Y34.7224 
G01 X-61.3523 Y34.5563 
G01 X-61.3172 Y34.3799 
G01 X-61.3172 Y34.2001 
G01 X-61.3523 Y34.0237 
G01 X-61.4211 Y33.8576 
G01 X-61.5210 Y33.7081 
G01 X-61.6481 Y33.5810 
G01 X-61.7976 Y33.4811 
G01 X-61.9637 Y33.4123 
G01 X-62.1401 Y33.3772 
G01 X-62.3199 Y33.3772 
G01 X-62.4963 Y33.4123 
G01 X-62.6624 Y33.4811 
G01 X-62.8119 Y33.5810 
G01 X-62.9390 Y33.7081 
G01 X-63.0389 Y33.8576 
G01 X-63.1077 Y34.0237 
G01 X-63.1428 Y34.2001 
G00 Z2.0000 
G00 X-63.1428 Y36.7401 
G01 Z-0.0250 F254.00 
G01 X-63.1428 Y36.9199 F508.00 
G01 X-63.1077 Y37.0963 
G01 X-63.0389 Y37.2624 
G01 X-62.9390 Y37.4119 
G01 X-62.8119 Y37.5390 
G01 X-62.6624 Y37.6389 
G01 X-62.4963 Y37.7077 
G01 X-62.3199 Y37.7428 
G01 X-62.1401 Y37.7428 
G01 X-61.9637 Y37.7077 
G01 X-61.7976 Y37.6389 
G01 X-61.6481 Y37.5390 
G01 X-61.5210 Y37.4119 
G01 X-61.4211 Y37.2624 
G01 X-61.3523 Y37.0963 
G01 X-61.3172 Y36.9199 
G01 X-61.3172 Y36.7401 
G01 X-61.3523 Y36.5637 
G01 X-61.3839 Y36.4874 
G01 X-59.1464 Y34.2500 
G01 X-56.0545 Y34.2500 
G01 X-56.0388 Y34.2880 
G01 X-55.9723 Y34.3876 
G01 X-55.8876 Y34.4723 
G01 X-55.7880 Y34.5388 
G01 X-55.6773 Y34.5846 
G01 X-55.5599 Y34.6080 
G01 X-55.4401 Y34.6080 
G01 X-55.3227 Y34.5846 
G01 X-55.2120 Y34.5388 
G01 X-55.1124 Y34.4723 
G01 X-55.0277 Y34.3876 
G01 X-54.9612 Y34.2880 
G01 X-54.9154 Y34.1773 
G01 X-54.8920 Y34.0599 
G01 X-54.8920 Y33.9401 
G01 X-54.9154 Y33.8227 
G01 X-54.9612 Y33.7120 
G01 X-55.0277 Y33.6124 
G01 X-55.1124 Y33.5277 
G01 X-55.2120 Y33.4612 
G01 X-55.3227 Y33.4154 
G01 X-55.4401 Y33.3920 
G01 X-55.5599 Y33.3920 
G01 X-55.6773 Y33.4154 
G01 X-55.7880 Y33.4612 
G01 X-55.8876 Y33.5277 
G01 X-55.9723 Y33.6124 
G01 X-56.0388 Y33.7120 
G01 X-56.0545 Y33.7500 
G01 X-59.2997 Y33.7500 
G01 X-59.3916 Y33.7881 
G01 X-59.4619 Y33.8584 
G01 X-61.6939 Y36.0904 
G01 X-61.7976 Y36.0211 
G01 X-61.9637 Y35.9523 
G01 X-62.1401 Y35.9172 
G01 X-62.3199 Y35.9172 
G01 X-62.4963 Y35.9523 
G01 X-62.6624 Y36.0211 
G01 X-62.8119 Y36.1210 
G01 X-62.9390 Y36.2481 
G01 X-63.0389 Y36.3976 
G01 X-63.1077 Y36.5637 
G01 X-63.1428 Y36.7401 
G00 Z2.0000 
G00 X-63.1428 Y39.2801 
G01 Z-0.0250 F254.00 
G01 X-63.1428 Y39.4599 F508.00 
G01 X-63.1077 Y39.6363 
G01 X-63.0389 Y39.8024 
G01 X-62.9390 Y39.9519 
G01 X-62.8119 Y40.0790 
G01 X-62.6624 Y40.1789 
G01 X-62.4963 Y40.2477 
G01 X-62.3199 Y40.2828 
G01 X-62.1401 Y40.2828 
G01 X-61.9637 Y40.2477 
G01 X-61.7976 Y40.1789 
G01 X-61.7239 Y40.1296 
G01 X-60.7119 Y41.1416 
G01 X-60.6416 Y41.2119 
G01 X-60.5497 Y41.2500 
G01 X-52.3536 Y41.2500 
G01 X-47.7119 Y45.8916 
G01 X-47.6416 Y45.9619 
G01 X-47.5497 Y46.0000 
G01 X-31.3045 Y46.0000 
G01 X-31.2888 Y46.0380 
G01 X-31.2223 Y46.1376 
G01 X-31.1376 Y46.2223 
G01 X-31.0380 Y46.2888 
G01 X-30.9273 Y46.3346 
G01 X-30.8099 Y46.3580 
G01 X-30.6901 Y46.3580 
G01 X-30.5727 Y46.3346 
G01 X-30.4620 Y46.2888 
G01 X-30.3624 Y46.2223 
G01 X-30.2777 Y46.1376 
G01 X-30.2112 Y46.0380 
G01 X-30.1654 Y45.9273 
G01 X-30.1420 Y45.8099 
G01 X-30.1420 Y45.6901 
G01 X-30.1654 Y45.5727 
G01 X-30.2112 Y45.4620 
G01 X-30.2777 Y45.3624 
G01 X-30.3624 Y45.2777 
G01 X-30.4620 Y45.2112 
G01 X-30.5727 Y45.1654 
G01 X-30.6901 Y45.1420 
G01 X-30.8099 Y45.1420 
G01 X-30.9273 Y45.1654 
G01 X-31.0380 Y45.2112 
G01 X-31.1376 Y45.2777 
G01 X-31.2223 Y45.3624 
G01 X-31.2888 Y45.4620 
G01 X-31.3045 Y45.5000 
G01 X-47.3964 Y45.5000 
G01 X-52.1084 Y40.7881 
G01 X-52.2003 Y40.7500 
G01 X-60.3964 Y40.7500 
G01 X-61.3985 Y39.7479 
G01 X-61.3523 Y39.6363 
G01 X-61.3172 Y39.4599 
G01 X-61.3172 Y39.2801 
G01 X-61.3523 Y39.1037 
G01 X-61.4211 Y38.9376 
G01 X-61.5210 Y38.7881 
G01 X-61.6481 Y38.6610 
G01 X-61.7976 Y38.5611 
G01 X-61.9637 Y38.4923 
G01 X-62.1401 Y38.4572 
G01 X-62.3199 Y38.4572 
G01 X-62.4963 Y38.4923 
G01 X-62.6624 Y38.5611 
G01 X-62.8119 Y38.6610 
G01 X-62.9390 Y38.7881 
G01 X-63.0389 Y38.9376 
G01 X-63.1077 Y39.1037 
G01 X-63.1428 Y39.2801 
G00 Z2.0000 
G00 X-63.1428 Y41.8201 
G01 Z-0.0250 F254.00 
G01 X-63.1428 Y41.9999 F508.00 
G01 X-63.1077 Y42.1763 
G01 X-63.0389 Y42.3424 
G01 X-62.9390 Y42.4919 
G01 X-62.8119 Y42.6190 
G01 X-62.6624 Y42.7189 
G01 X-62.4963 Y42.7877 
G01 X-62.3199 Y42.8228 
G01 X-62.1401 Y42.8228 
G01 X-61.9637 Y42.7877 
G01 X-61.7976 Y42.7189 
G01 X-61.6481 Y42.6190 
G01 X-61.5210 Y42.4919 
G01 X-61.4211 Y42.3424 
G01 X-61.3523 Y42.1763 
G01 X-61.3172 Y41.9999 
G01 X-61.3172 Y41.8201 
G01 X-61.3523 Y41.6437 
G01 X-61.4211 Y41.4776 
G01 X-61.5210 Y41.3281 
G01 X-61.6481 Y41.2010 
G01 X-61.7976 Y41.1011 
G01 X-61.9637 Y41.0323 
G01 X-62.1401 Y40.9972 
G01 X-62.3199 Y40.9972 
G01 X-62.4963 Y41.0323 
G01 X-62.6624 Y41.1011 
G01 X-62.8119 Y41.2010 
G01 X-62.9390 Y41.3281 
G01 X-63.0389 Y41.4776 
G01 X-63.1077 Y41.6437 
G01 X-63.1428 Y41.8201 
G00 Z2.0000 
G00 X-63.1428 Y44.3601 
G01 Z-0.0250 F254.00 
G01 X-63.1428 Y44.5399 F508.00 
G01 X-63.1077 Y44.7163 
G01 X-63.0389 Y44.8824 
G01 X-62.9390 Y45.0319 
G01 X-62.8119 Y45.1590 
G01 X-62.6624 Y45.2589 
G01 X-62.4963 Y45.3277 
G01 X-62.3199 Y45.3628 
G01 X-62.1401 Y45.3628 
G01 X-61.9637 Y45.3277 
G01 X-61.7976 Y45.2589 
G01 X-61.6481 Y45.1590 
G01 X-61.5210 Y45.0319 
G01 X-61.4211 Y44.8824 
G01 X-61.3663 Y44.7500 
G01 X-58.7003 Y44.7500 
G01 X-58.6084 Y44.7119 
G01 X-56.1464 Y42.2500 
G01 X-53.8045 Y42.2500 
G01 X-53.7888 Y42.2880 
G01 X-53.7223 Y42.3876 
G01 X-53.6376 Y42.4723 
G01 X-53.5380 Y42.5388 
G01 X-53.4273 Y42.5846 
G01 X-53.3099 Y42.6080 
G01 X-53.1901 Y42.6080 
G01 X-53.0727 Y42.5846 
G01 X-52.9620 Y42.5388 
G01 X-52.8624 Y42.4723 
G01 X-52.7777 Y42.3876 
G01 X-52.7112 Y42.2880 
G01 X-52.6654 Y42.1773 
G01 X-52.6420 Y42.0599 
G01 X-52.6420 Y41.9401 
G01 X-52.6654 Y41.8227 
G01 X-52.7112 Y41.7120 
G01 X-52.7777 Y41.6124 
G01 X-52.8624 Y41.5277 
G01 X-52.9620 Y41.4612 
G01 X-53.0727 Y41.4154 
G01 X-53.1901 Y41.3920 
G01 X-53.3099 Y41.3920 
G01 X-53.4273 Y41.4154 
G01 X-53.5380 Y41.4612 
G01 X-53.6376 Y41.5277 
G01 X-53.7223 Y41.6124 
G01 X-53.7888 Y41.7120 
G01 X-53.8045 Y41.7500 
G01 X-56.2997 Y41.7500 
G01 X-56.3916 Y41.7881 
G01 X-56.4619 Y41.8584 
G01 X-58.8536 Y44.2500 
G01 X-61.3391 Y44.2500 
G01 X-61.3523 Y44.1837 
G01 X-61.4211 Y44.0176 
G01 X-61.5210 Y43.8681 
G01 X-61.6481 Y43.7410 
G01 X-61.7976 Y43.6411 
G01 X-61.9637 Y43.5723 
G01 X-62.1401 Y43.5372 
G01 X-62.3199 Y43.5372 
G01 X-62.4963 Y43.5723 
G01 X-62.6624 Y43.6411 
G01 X-62.8119 Y43.7410 
G01 X-62.9390 Y43.8681 
G01 X-63.0389 Y44.0176 
G01 X-63.1077 Y44.1837 
G01 X-63.1428 Y44.3601 
G00 Z2.0000 
G00 X-63.1428 Y46.9001 
G01 Z-0.0250 F254.00 
G01 X-63.1428 Y47.0799 F508.00 
G01 X-63.1077 Y47.2563 
G01 X-63.0389 Y47.4224 
G01 X-62.9390 Y47.5719 
G01 X-62.8119 Y47.6990 
G01 X-62.6624 Y47.7989 
G01 X-62.4963 Y47.8677 
G01 X-62.3199 Y47.9028 
G01 X-62.1401 Y47.9028 
G01 X-61.9637 Y47.8677 
G01 X-61.7976 Y47.7989 
G01 X-61.6481 Y47.6990 
G01 X-61.5210 Y47.5719 
G01 X-61.4211 Y47.4224 
G01 X-61.3523 Y47.2563 
G01 X-61.3510 Y47.2500 
G01 X-50.2003 Y47.2500 
G01 X-50.1084 Y47.2119 
G01 X-49.2153 Y46.3189 
G01 X-49.1773 Y46.3346 
G01 X-49.0599 Y46.3580 
G01 X-48.9401 Y46.3580 
G01 X-48.8227 Y46.3346 
G01 X-48.7120 Y46.2888 
G01 X-48.6124 Y46.2223 
G01 X-48.5277 Y46.1376 
G01 X-48.4612 Y46.0380 
G01 X-48.4154 Y45.9273 
G01 X-48.3920 Y45.8099 
G01 X-48.3920 Y45.6901 
G01 X-48.4154 Y45.5727 
G01 X-48.4612 Y45.4620 
G01 X-48.5277 Y45.3624 
G01 X-48.6124 Y45.2777 
G01 X-48.7120 Y45.2112 
G01 X-48.8227 Y45.1654 
G01 X-48.9401 Y45.1420 
G01 X-49.0599 Y45.1420 
G01 X-49.1773 Y45.1654 
G01 X-49.2880 Y45.2112 
G01 X-49.3876 Y45.2777 
G01 X-49.4723 Y45.3624 
G01 X-49.5388 Y45.4620 
G01 X-49.5846 Y45.5727 
G01 X-49.6080 Y45.6901 
G01 X-49.6080 Y45.8099 
G01 X-49.5846 Y45.9273 
G01 X-49.5689 Y45.9653 
G01 X-50.3536 Y46.7500 
G01 X-61.3471 Y46.7500 
G01 X-61.3523 Y46.7237 
G01 X-61.4211 Y46.5576 
G01 X-61.5210 Y46.4081 
G01 X-61.6481 Y46.2810 
G01 X-61.7976 Y46.1811 
G01 X-61.9637 Y46.1123 
G01 X-62.1401 Y46.0772 
G01 X-62.3199 Y46.0772 
G01 X-62.4963 Y46.1123 
G01 X-62.6624 Y46.1811 
G01 X-62.8119 Y46.2810 
G01 X-62.9390 Y46.4081 
G01 X-63.0389 Y46.5576 
G01 X-63.1077 Y46.7237 
G01 X-63.1428 Y46.9001 
G00 Z2.0000 
G00 X-63.1428 Y49.4401 
G01 Z-0.0250 F254.00 
G01 X-63.1428 Y49.6199 F508.00 
G01 X-63.1077 Y49.7963 
G01 X-63.0389 Y49.9624 
G01 X-62.9390 Y50.1119 
G01 X-62.8119 Y50.2390 
G01 X-62.6624 Y50.3389 
G01 X-62.4963 Y50.4077 
G01 X-62.3199 Y50.4428 
G01 X-62.1401 Y50.4428 
G01 X-61.9637 Y50.4077 
G01 X-61.7976 Y50.3389 
G01 X-61.6481 Y50.2390 
G01 X-61.5210 Y50.1119 
G01 X-61.4211 Y49.9624 
G01 X-61.3523 Y49.7963 
G01 X-61.3431 Y49.7500 
G01 X-47.8769 Y49.7500 
G01 X-47.8677 Y49.7963 
G01 X-47.7989 Y49.9624 
G01 X-47.6990 Y50.1119 
G01 X-47.5719 Y50.2390 
G01 X-47.4224 Y50.3389 
G01 X-47.2563 Y50.4077 
G01 X-47.0799 Y50.4428 
G01 X-46.9001 Y50.4428 
G01 X-46.7237 Y50.4077 
G01 X-46.5576 Y50.3389 
G01 X-46.4081 Y50.2390 
G01 X-46.2810 Y50.1119 
G01 X-46.1811 Y49.9624 
G01 X-46.1123 Y49.7963 
G01 X-46.0772 Y49.6199 
G01 X-46.0772 Y49.4401 
G01 X-46.1123 Y49.2637 
G01 X-46.1811 Y49.0976 
G01 X-46.2810 Y48.9481 
G01 X-46.4081 Y48.8210 
G01 X-46.5576 Y48.7211 
G01 X-46.7237 Y48.6523 
G01 X-46.9001 Y48.6172 
G01 X-47.0799 Y48.6172 
G01 X-47.2563 Y48.6523 
G01 X-47.4224 Y48.7211 
G01 X-47.5719 Y48.8210 
G01 X-47.6990 Y48.9481 
G01 X-47.7989 Y49.0976 
G01 X-47.8620 Y49.2500 
G01 X-61.3580 Y49.2500 
G01 X-61.4211 Y49.0976 
G01 X-61.5210 Y48.9481 
G01 X-61.6481 Y48.8210 
G01 X-61.7976 Y48.7211 
G01 X-61.9637 Y48.6523 
G01 X-62.1401 Y48.6172 
G01 X-62.3199 Y48.6172 
G01 X-62.4963 Y48.6523 
G01 X-62.6624 Y48.7211 
G01 X-62.8119 Y48.8210 
G01 X-62.9390 Y48.9481 
G01 X-63.0389 Y49.0976 
G01 X-63.1077 Y49.2637 
G01 X-63.1428 Y49.4401 
G00 Z2.0000 
G00 X-63.1428 Y51.9801 
G01 Z-0.0250 F254.00 
G01 X-63.1428 Y52.1599 F508.00 
G01 X-63.1077 Y52.3363 
G01 X-63.0389 Y52.5024 
G01 X-62.9390 Y52.6519 
G01 X-62.8119 Y52.7790 
G01 X-62.6624 Y52.8789 
G01 X-62.4963 Y52.9477 
G01 X-62.3199 Y52.9828 
G01 X-62.1401 Y52.9828 
G01 X-61.9637 Y52.9477 
G01 X-61.7976 Y52.8789 
G01 X-61.6481 Y52.7790 
G01 X-61.5210 Y52.6519 
G01 X-61.4211 Y52.5024 
G01 X-61.3523 Y52.3363 
G01 X-61.3172 Y52.1599 
G01 X-61.3172 Y51.9801 
G01 X-61.3523 Y51.8037 
G01 X-61.4211 Y51.6376 
G01 X-61.5210 Y51.4881 
G01 X-61.6481 Y51.3610 
G01 X-61.7976 Y51.2611 
G01 X-61.9637 Y51.1923 
G01 X-62.1401 Y51.1572 
G01 X-62.3199 Y51.1572 
G01 X-62.4963 Y51.1923 
G01 X-62.6624 Y51.2611 
G01 X-62.8119 Y51.3610 
G01 X-62.9390 Y51.4881 
G01 X-63.0389 Y51.6376 
G01 X-63.1077 Y51.8037 
G01 X-63.1428 Y51.9801 
G00 Z2.0000 
G00 X-63.1428 Y54.5201 
G01 Z-0.0250 F254.00 
G01 X-63.1428 Y54.6999 F508.00 
G01 X-63.1077 Y54.8763 
G01 X-63.0389 Y55.0424 
G01 X-62.9390 Y55.1919 
G01 X-62.8119 Y55.3190 
G01 X-62.6624 Y55.4189 
G01 X-62.4963 Y55.4877 
G01 X-62.3199 Y55.5228 
G01 X-62.1401 Y55.5228 
G01 X-61.9637 Y55.4877 
G01 X-61.7976 Y55.4189 
G01 X-61.6481 Y55.3190 
G01 X-61.5210 Y55.1919 
G01 X-61.4211 Y55.0424 
G01 X-61.3523 Y54.8763 
G01 X-61.3172 Y54.6999 
G01 X-61.3172 Y54.5201 
G01 X-61.3523 Y54.3437 
G01 X-61.4211 Y54.1776 
G01 X-61.5210 Y54.0281 
G01 X-61.6481 Y53.9010 
G01 X-61.7976 Y53.8011 
G01 X-61.9637 Y53.7323 
G01 X-62.1401 Y53.6972 
G01 X-62.3199 Y53.6972 
G01 X-62.4963 Y53.7323 
G01 X-62.6624 Y53.8011 
G01 X-62.8119 Y53.9010 
G01 X-62.9390 Y54.0281 
G01 X-63.0389 Y54.1776 
G01 X-63.1077 Y54.3437 
G01 X-63.1428 Y54.5201 
G00 Z2.0000 
G00 X-22.6036 Y28.7500 
G01 Z-0.0250 F254.00 
G01 X-46.1995 Y28.7500 F508.00 
G01 X-46.2810 Y28.6281 
G01 X-46.4081 Y28.5010 
G01 X-46.5576 Y28.4011 
G01 X-46.7237 Y28.3323 
G01 X-46.9001 Y28.2972 
G01 X-47.0799 Y28.2972 
G01 X-47.2563 Y28.3323 
G01 X-47.4224 Y28.4011 
G01 X-47.5719 Y28.5010 
G01 X-47.6990 Y28.6281 
G01 X-47.7989 Y28.7776 
G01 X-47.8677 Y28.9437 
G01 X-47.9028 Y29.1201 
G01 X-47.9028 Y29.2999 
G01 X-47.8677 Y29.4763 
G01 X-47.7989 Y29.6424 
G01 X-47.6990 Y29.7919 
G01 X-47.5719 Y29.9190 
G01 X-47.4224 Y30.0189 
G01 X-47.2563 Y30.0877 
G01 X-47.0799 Y30.1228 
G01 X-46.9001 Y30.1228 
G01 X-46.7237 Y30.0877 
G01 X-46.5576 Y30.0189 
G01 X-46.4081 Y29.9190 
G01 X-46.2810 Y29.7919 
G01 X-46.1811 Y29.6424 
G01 X-46.1123 Y29.4763 
G01 X-46.0772 Y29.2999 
G01 X-46.0772 Y29.2500 
G01 X-22.4503 Y29.2500 
G01 X-22.3584 Y29.2119 
G01 X-22.2881 Y29.1416 
G01 X-19.4653 Y26.3189 
G01 X-19.4273 Y26.3346 
G01 X-19.3099 Y26.3580 
G01 X-19.1901 Y26.3580 
G01 X-19.0726 Y26.3346 
G01 X-18.9620 Y26.2888 
G01 X-18.8624 Y26.2223 
G01 X-18.7777 Y26.1376 
G01 X-18.7112 Y26.0380 
G01 X-18.6654 Y25.9273 
G01 X-18.6420 Y25.8099 
G01 X-18.6420 Y25.6901 
G01 X-18.6654 Y25.5727 
G01 X-18.7112 Y25.4620 
G01 X-18.7777 Y25.3624 
G01 X-18.8624 Y25.2777 
G01 X-18.9620 Y25.2112 
G01 X-19.0726 Y25.1654 
G01 X-19.1901 Y25.1420 
G01 X-19.3099 Y25.1420 
G01 X-19.4273 Y25.1654 
G01 X-19.5380 Y25.2112 
G01 X-19.6376 Y25.2777 
G01 X-19.7223 Y25.3624 
G01 X-19.7888 Y25.4620 
G01 X-19.8346 Y25.5727 
G01 X-19.8580 Y25.6901 
G01 X-19.8580 Y25.8099 
G01 X-19.8346 Y25.9273 
G01 X-19.8189 Y25.9653 
G01 X-22.6036 Y28.7500 
G00 Z2.0000 
G00 X-58.3536 Y45.2500 
G01 Z-0.0250 F254.00 
G01 X-58.9062 Y45.2500 F508.00 
G01 X-58.9810 Y45.1381 
G01 X-59.1081 Y45.0110 
G01 X-59.2576 Y44.9111 
G01 X-59.4237 Y44.8423 
G01 X-59.6001 Y44.8072 
G01 X-59.7799 Y44.8072 
G01 X-59.9563 Y44.8423 
G01 X-60.1224 Y44.9111 
G01 X-60.2719 Y45.0110 
G01 X-60.3990 Y45.1381 
G01 X-60.4989 Y45.2876 
G01 X-60.5677 Y45.4537 
G01 X-60.6028 Y45.6301 
G01 X-60.6028 Y45.8099 
G01 X-60.5677 Y45.9863 
G01 X-60.4989 Y46.1524 
G01 X-60.3990 Y46.3019 
G01 X-60.2719 Y46.4290 
G01 X-60.1224 Y46.5289 
G01 X-59.9563 Y46.5977 
G01 X-59.7799 Y46.6328 
G01 X-59.6001 Y46.6328 
G01 X-59.4237 Y46.5977 
G01 X-59.2576 Y46.5289 
G01 X-59.1081 Y46.4290 
G01 X-58.9810 Y46.3019 
G01 X-58.8811 Y46.1524 
G01 X-58.8123 Y45.9863 
G01 X-58.7772 Y45.8099 
G01 X-58.7772 Y45.7500 
G01 X-58.2003 Y45.7500 
G01 X-58.1084 Y45.7119 
G01 X-58.0381 Y45.6416 
G01 X-56.4653 Y44.0689 
G01 X-56.4273 Y44.0846 
G01 X-56.3099 Y44.1080 
G01 X-56.1901 Y44.1080 
G01 X-56.0727 Y44.0846 
G01 X-55.9620 Y44.0388 
G01 X-55.8624 Y43.9723 
G01 X-55.7777 Y43.8876 
G01 X-55.7112 Y43.7880 
G01 X-55.6654 Y43.6773 
G01 X-55.6420 Y43.5599 
G01 X-55.6420 Y43.4401 
G01 X-55.6654 Y43.3227 
G01 X-55.7112 Y43.2120 
G01 X-55.7777 Y43.1124 
G01 X-55.8624 Y43.0277 
G01 X-55.9620 Y42.9612 
G01 X-56.0727 Y42.9154 
G01 X-56.1901 Y42.8920 
G01 X-56.3099 Y42.8920 
G01 X-56.4273 Y42.9154 
G01 X-56.5380 Y42.9612 
G01 X-56.6376 Y43.0277 
G01 X-56.7223 Y43.1124 
G01 X-56.7888 Y43.2120 
G01 X-56.8346 Y43.3227 
G01 X-56.8580 Y43.4401 
G01 X-56.8580 Y43.5599 
G01 X-56.8346 Y43.6773 
G01 X-56.8189 Y43.7153 
G01 X-58.3536 Y45.2500 
G00 Z2.0000 
G00 X-32.6036 Y41.7500 
G01 Z-0.0250 F254.00 
G01 X-46.0911 Y41.7500 F508.00 
G01 X-46.1123 Y41.6437 
G01 X-46.1811 Y41.4776 
G01 X-46.2810 Y41.3281 
G01 X-46.4081 Y41.2010 
G01 X-46.5576 Y41.1011 
G01 X-46.7237 Y41.0323 
G01 X-46.9001 Y40.9972 
G01 X-47.0799 Y40.9972 
G01 X-47.2563 Y41.0323 
G01 X-47.4224 Y41.1011 
G01 X-47.5719 Y41.2010 
G01 X-47.6990 Y41.3281 
G01 X-47.7989 Y41.4776 
G01 X-47.8677 Y41.6437 
G01 X-47.9028 Y41.8201 
G01 X-47.9028 Y41.9999 
G01 X-47.8677 Y42.1763 
G01 X-47.7989 Y42.3424 
G01 X-47.6990 Y42.4919 
G01 X-47.5719 Y42.6190 
G01 X-47.4224 Y42.7189 
G01 X-47.2563 Y42.7877 
G01 X-47.0799 Y42.8228 
G01 X-46.9001 Y42.8228 
G01 X-46.7237 Y42.7877 
G01 X-46.5576 Y42.7189 
G01 X-46.4081 Y42.6190 
G01 X-46.2810 Y42.4919 
G01 X-46.1811 Y42.3424 
G01 X-46.1428 Y42.2500 
G01 X-32.4503 Y42.2500 
G01 X-32.3584 Y42.2119 
G01 X-32.2881 Y42.1416 
G01 X-29.4653 Y39.3189 
G01 X-29.4273 Y39.3346 
G01 X-29.3099 Y39.3580 
G01 X-29.1901 Y39.3580 
G01 X-29.0727 Y39.3346 
G01 X-28.9620 Y39.2888 
G01 X-28.8624 Y39.2223 
G01 X-28.7777 Y39.1376 
G01 X-28.7112 Y39.0380 
G01 X-28.6654 Y38.9273 
G01 X-28.6420 Y38.8099 
G01 X-28.6420 Y38.6901 
G01 X-28.6654 Y38.5727 
G01 X-28.7112 Y38.4620 
G01 X-28.7777 Y38.3624 
G01 X-28.8624 Y38.2777 
G01 X-28.9620 Y38.2112 
G01 X-29.0727 Y38.1654 
G01 X-29.1901 Y38.1420 
G01 X-29.3099 Y38.1420 
G01 X-29.4273 Y38.1654 
G01 X-29.5380 Y38.2112 
G01 X-29.6376 Y38.2777 
G01 X-29.7223 Y38.3624 
G01 X-29.7888 Y38.4620 
G01 X-29.8346 Y38.5727 
G01 X-29.8580 Y38.6901 
G01 X-29.8580 Y38.8099 
G01 X-29.8346 Y38.9273 
G01 X-29.8189 Y38.9653 
G01 X-32.6036 Y41.7500 
G00 Z2.0000 
G00 X-4.9619 Y51.1416 
G01 Z-0.0250 F254.00 
G01 X-4.8916 Y51.2119 F508.00 
G01 X-4.7997 Y51.2500 
G01 X-2.8545 Y51.2500 
G01 X-2.8430 Y51.3229 
G01 X-2.7924 Y51.4785 
G01 X-2.7181 Y51.6244 
G01 X-2.6219 Y51.7568 
G01 X-2.5062 Y51.8725 
G01 X-2.3738 Y51.9687 
G01 X-2.2279 Y52.0430 
G01 X-2.0723 Y52.0936 
G01 X-1.9106 Y52.1192 
G01 X-1.7470 Y52.1192 
G01 X-1.5853 Y52.0936 
G01 X-1.4297 Y52.0430 
G01 X-1.2838 Y51.9687 
G01 X-1.1514 Y51.8725 
G01 X-1.0357 Y51.7568 
G01 X-0.9395 Y51.6244 
G01 X-0.8652 Y51.4785 
G01 X-0.8146 Y51.3229 
G01 X-0.7890 Y51.1612 
G01 X-0.7890 Y50.9976 
G01 X-0.8146 Y50.8359 
G01 X-0.8652 Y50.6803 
G01 X-0.9395 Y50.5344 
G01 X-1.0357 Y50.4020 
G01 X-1.1514 Y50.2863 
G01 X-1.2838 Y50.1901 
G01 X-1.4297 Y50.1158 
G01 X-1.5853 Y50.0652 
G01 X-1.7470 Y50.0396 
G01 X-1.9106 Y50.0396 
G01 X-2.0723 Y50.0652 
G01 X-2.2279 Y50.1158 
G01 X-2.3738 Y50.1901 
G01 X-2.5062 Y50.2863 
G01 X-2.6219 Y50.4020 
G01 X-2.7181 Y50.5344 
G01 X-2.7924 Y50.6803 
G01 X-2.8151 Y50.7500 
G01 X-4.6464 Y50.7500 
G01 X-17.1811 Y38.2153 
G01 X-17.1654 Y38.1773 
G01 X-17.1420 Y38.0599 
G01 X-17.1420 Y37.9401 
G01 X-17.1654 Y37.8227 
G01 X-17.2112 Y37.7120 
G01 X-17.2777 Y37.6124 
G01 X-17.3624 Y37.5277 
G01 X-17.4620 Y37.4612 
G01 X-17.5726 Y37.4154 
G01 X-17.6901 Y37.3920 
G01 X-17.8099 Y37.3920 
G01 X-17.9273 Y37.4154 
G01 X-18.0380 Y37.4612 
G01 X-18.0961 Y37.5000 
G01 X-45.8964 Y37.5000 
G01 X-46.1673 Y37.2291 
G01 X-46.1123 Y37.0963 
G01 X-46.0772 Y36.9199 
G01 X-46.0772 Y36.7401 
G01 X-46.1123 Y36.5637 
G01 X-46.1811 Y36.3976 
G01 X-46.2810 Y36.2481 
G01 X-46.4081 Y36.1210 
G01 X-46.5576 Y36.0211 
G01 X-46.7237 Y35.9523 
G01 X-46.9001 Y35.9172 
G01 X-47.0799 Y35.9172 
G01 X-47.2563 Y35.9523 
G01 X-47.4224 Y36.0211 
G01 X-47.5719 Y36.1210 
G01 X-47.6990 Y36.2481 
G01 X-47.7989 Y36.3976 
G01 X-47.8677 Y36.5637 
G01 X-47.9028 Y36.7401 
G01 X-47.9028 Y36.9199 
G01 X-47.8677 Y37.0963 
G01 X-47.7989 Y37.2624 
G01 X-47.6990 Y37.4119 
G01 X-47.5719 Y37.5390 
G01 X-47.4224 Y37.6389 
G01 X-47.2563 Y37.7077 
G01 X-47.0799 Y37.7428 
G01 X-46.9001 Y37.7428 
G01 X-46.7237 Y37.7077 
G01 X-46.5576 Y37.6389 
G01 X-46.5019 Y37.6017 
G01 X-46.2119 Y37.8916 
G01 X-46.1416 Y37.9619 
G01 X-46.0497 Y38.0000 
G01 X-18.3580 Y38.0000 
G01 X-18.3580 Y38.0599 
G01 X-18.3346 Y38.1773 
G01 X-18.2888 Y38.2880 
G01 X-18.2223 Y38.3876 
G01 X-18.1376 Y38.4723 
G01 X-18.0380 Y38.5388 
G01 X-17.9273 Y38.5846 
G01 X-17.8099 Y38.6080 
G01 X-17.6901 Y38.6080 
G01 X-17.5726 Y38.5846 
G01 X-17.5347 Y38.5689 
G01 X-4.9619 Y51.1416 
G00 Z2.0000 
G00 X-24.5381 Y19.8584 
G01 Z-0.0250 F254.00 
G01 X-24.6084 Y19.7881 F508.00 
G01 X-24.7003 Y19.7500 
G01 X-51.1955 Y19.7500 
G01 X-51.2112 Y19.7120 
G01 X-51.2777 Y19.6124 
G01 X-51.3624 Y19.5277 
G01 X-51.4620 Y19.4612 
G01 X-51.5727 Y19.4154 
G01 X-51.6901 Y19.3920 
G01 X-51.8099 Y19.3920 
G01 X-51.9273 Y19.4154 
G01 X-52.0380 Y19.4612 
G01 X-52.1376 Y19.5277 
G01 X-52.2223 Y19.6124 
G01 X-52.2888 Y19.7120 
G01 X-52.3346 Y19.8226 
G01 X-52.3580 Y19.9401 
G01 X-52.3580 Y20.0599 
G01 X-52.3346 Y20.1773 
G01 X-52.2888 Y20.2880 
G01 X-52.2223 Y20.3876 
G01 X-52.1376 Y20.4723 
G01 X-52.0380 Y20.5388 
G01 X-51.9273 Y20.5846 
G01 X-51.8099 Y20.6080 
G01 X-51.6901 Y20.6080 
G01 X-51.5727 Y20.5846 
G01 X-51.4620 Y20.5388 
G01 X-51.3624 Y20.4723 
G01 X-51.2777 Y20.3876 
G01 X-51.2112 Y20.2880 
G01 X-51.1955 Y20.2500 
G01 X-24.8536 Y20.2500 
G01 X-21.5689 Y23.5347 
G01 X-21.5846 Y23.5726 
G01 X-21.6080 Y23.6901 
G01 X-21.6080 Y23.8099 
G01 X-21.5846 Y23.9273 
G01 X-21.5388 Y24.0380 
G01 X-21.4723 Y24.1376 
G01 X-21.3876 Y24.2223 
G01 X-21.2880 Y24.2888 
G01 X-21.1773 Y24.3346 
G01 X-21.0599 Y24.3580 
G01 X-20.9401 Y24.3580 
G01 X-20.8226 Y24.3346 
G01 X-20.7120 Y24.2888 
G01 X-20.6124 Y24.2223 
G01 X-20.5277 Y24.1376 
G01 X-20.4612 Y24.0380 
G01 X-20.4154 Y23.9273 
G01 X-20.3920 Y23.8099 
G01 X-20.3920 Y23.6901 
G01 X-20.4154 Y23.5726 
G01 X-20.4612 Y23.4620 
G01 X-20.5277 Y23.3624 
G01 X-20.6124 Y23.2777 
G01 X-20.7120 Y23.2112 
G01 X-20.8226 Y23.1654 
G01 X-20.9401 Y23.1420 
G01 X-21.0599 Y23.1420 
G01 X-21.1773 Y23.1654 
G01 X-21.2153 Y23.1811 
G01 X-24.5381 Y19.8584 
G00 Z2.0000 
G00 X-20.8964 Y32.5000 
G01 Z-0.0250 F254.00 
G01 X-14.8045 Y32.5000 F508.00 
G01 X-14.7888 Y32.5380 
G01 X-14.7223 Y32.6376 
G01 X-14.6376 Y32.7223 
G01 X-14.5380 Y32.7888 
G01 X-14.4273 Y32.8346 
G01 X-14.3099 Y32.8580 
G01 X-14.1901 Y32.8580 
G01 X-14.0727 Y32.8346 
G01 X-13.9620 Y32.7888 
G01 X-13.8624 Y32.7223 
G01 X-13.7777 Y32.6376 
G01 X-13.7112 Y32.5380 
G01 X-13.6654 Y32.4273 
G01 X-13.6420 Y32.3099 
G01 X-13.6420 Y32.1901 
G01 X-13.6654 Y32.0727 
G01 X-13.7112 Y31.9620 
G01 X-13.7777 Y31.8624 
G01 X-13.8624 Y31.7777 
G01 X-13.9620 Y31.7112 
G01 X-14.0727 Y31.6654 
G01 X-14.1901 Y31.6420 
G01 X-14.3099 Y31.6420 
G01 X-14.4273 Y31.6654 
G01 X-14.5380 Y31.7112 
G01 X-14.6376 Y31.7777 
G01 X-14.7223 Y31.8624 
G01 X-14.7888 Y31.9620 
G01 X-14.8045 Y32.0000 
G01 X-21.0497 Y32.0000 
G01 X-21.1416 Y32.0381 
G01 X-21.2119 Y32.1084 
G01 X-22.5347 Y33.4311 
G01 X-22.5726 Y33.4154 
G01 X-22.6901 Y33.3920 
G01 X-22.8099 Y33.3920 
G01 X-22.9273 Y33.4154 
G01 X-22.9653 Y33.4311 
G01 X-26.1084 Y30.2881 
G01 X-26.2003 Y30.2500 
G01 X-62.8920 Y30.2500 
G01 X-62.8920 Y30.1901 
G01 X-62.9154 Y30.0727 
G01 X-62.9612 Y29.9620 
G01 X-63.0277 Y29.8624 
G01 X-63.1124 Y29.7777 
G01 X-63.2120 Y29.7112 
G01 X-63.3227 Y29.6654 
G01 X-63.4401 Y29.6420 
G01 X-63.5599 Y29.6420 
G01 X-63.6773 Y29.6654 
G01 X-63.7880 Y29.7112 
G01 X-63.8876 Y29.7777 
G01 X-63.9723 Y29.8624 
G01 X-64.0388 Y29.9620 
G01 X-64.0846 Y30.0727 
G01 X-64.1080 Y30.1901 
G01 X-64.1080 Y30.3099 
G01 X-64.0846 Y30.4273 
G01 X-64.0388 Y30.5380 
G01 X-63.9723 Y30.6376 
G01 X-63.8876 Y30.7223 
G01 X-63.7880 Y30.7888 
G01 X-63.6773 Y30.8346 
G01 X-63.5599 Y30.8580 
G01 X-63.4401 Y30.8580 
G01 X-63.3227 Y30.8346 
G01 X-63.2120 Y30.7888 
G01 X-63.1539 Y30.7500 
G01 X-26.3536 Y30.7500 
G01 X-23.3189 Y33.7847 
G01 X-23.3346 Y33.8227 
G01 X-23.3580 Y33.9401 
G01 X-23.3580 Y34.0599 
G01 X-23.3346 Y34.1773 
G01 X-23.2888 Y34.2880 
G01 X-23.2223 Y34.3876 
G01 X-23.1376 Y34.4723 
G01 X-23.0380 Y34.5388 
G01 X-22.9273 Y34.5846 
G01 X-22.8099 Y34.6080 
G01 X-22.6901 Y34.6080 
G01 X-22.5726 Y34.5846 
G01 X-22.4620 Y34.5388 
G01 X-22.3624 Y34.4723 
G01 X-22.2777 Y34.3876 
G01 X-22.2112 Y34.2880 
G01 X-22.1654 Y34.1773 
G01 X-22.1420 Y34.0599 
G01 X-22.1420 Y33.9401 
G01 X-22.1654 Y33.8227 
G01 X-22.1811 Y33.7847 
G01 X-20.8964 Y32.5000 
G00 Z2.0000 
G00 X-4.1400 Y2.4141 
G01 Z-0.0250 F254.00 
G01 X-4.1400 Y2.6659 F508.00 
G01 X-4.1006 Y2.9147 
G01 X-4.0228 Y3.1542 
G01 X-3.9084 Y3.3786 
G01 X-3.7604 Y3.5823 
G01 X-3.5823 Y3.7604 
G01 X-3.3786 Y3.9084 
G01 X-3.1542 Y4.0228 
G01 X-2.9147 Y4.1006 
G01 X-2.6659 Y4.1400 
G01 X-2.4141 Y4.1400 
G01 X-2.1653 Y4.1006 
G01 X-1.9258 Y4.0228 
G01 X-1.7014 Y3.9084 
G01 X-1.4977 Y3.7604 
G01 X-1.3196 Y3.5823 
G01 X-1.1716 Y3.3786 
G01 X-1.0572 Y3.1542 
G01 X-0.9794 Y2.9147 
G01 X-0.9400 Y2.6659 
G01 X-0.9400 Y2.4141 
G01 X-0.9794 Y2.1653 
G01 X-1.0572 Y1.9258 
G01 X-1.1716 Y1.7014 
G01 X-1.3196 Y1.4977 
G01 X-1.4977 Y1.3196 
G01 X-1.7014 Y1.1716 
G01 X-1.9258 Y1.0572 
G01 X-2.1653 Y0.9794 
G01 X-2.4141 Y0.9400 
G01 X-2.6659 Y0.9400 
G01 X-2.9147 Y0.9794 
G01 X-3.1542 Y1.0572 
G01 X-3.3786 Y1.1716 
G01 X-3.5823 Y1.3196 
G01 X-3.7604 Y1.4977 
G01 X-3.9084 Y1.7014 
G01 X-4.0228 Y1.9258 
G01 X-4.1006 Y2.1653 
G01 X-4.1400 Y2.4141 
G00 Z2.0000 
G00 X-65.1000 Y58.2941 
G01 Z-0.0250 F254.00 
G01 X-65.1000 Y58.5459 F508.00 
G01 X-65.0606 Y58.7947 
G01 X-64.9828 Y59.0342 
G01 X-64.8684 Y59.2586 
G01 X-64.7204 Y59.4623 
G01 X-64.5423 Y59.6404 
G01 X-64.3386 Y59.7884 
G01 X-64.1142 Y59.9028 
G01 X-63.8747 Y59.9806 
G01 X-63.6259 Y60.0200 
G01 X-63.3741 Y60.0200 
G01 X-63.1253 Y59.9806 
G01 X-62.8858 Y59.9028 
G01 X-62.6614 Y59.7884 
G01 X-62.4577 Y59.6404 
G01 X-62.2796 Y59.4623 
G01 X-62.1316 Y59.2586 
G01 X-62.0172 Y59.0342 
G01 X-61.9394 Y58.7947 
G01 X-61.9000 Y58.5459 
G01 X-61.9000 Y58.2941 
G01 X-61.9394 Y58.0453 
G01 X-62.0172 Y57.8058 
G01 X-62.1316 Y57.5814 
G01 X-62.2796 Y57.3777 
G01 X-62.4577 Y57.1996 
G01 X-62.6614 Y57.0516 
G01 X-62.8858 Y56.9372 
G01 X-63.1253 Y56.8594 
G01 X-63.3741 Y56.8200 
G01 X-63.6259 Y56.8200 
G01 X-63.8747 Y56.8594 
G01 X-64.1142 Y56.9372 
G01 X-64.3386 Y57.0516 
G01 X-64.5423 Y57.1996 
G01 X-64.7204 Y57.3777 
G01 X-64.8684 Y57.5814 
G01 X-64.9828 Y57.8058 
G01 X-65.0606 Y58.0453 
G01 X-65.1000 Y58.2941 
G00 Z2.0000 
G00 X-63.1500 Y47.4155 
G01 Z-0.0250 F254.00 
G01 X-63.1275 Y47.4697 F508.00 
G01 X-63.0167 Y47.6356 
G01 X-62.8756 Y47.7767 
G01 X-62.7097 Y47.8875 
G01 X-62.6796 Y47.9000 
G01 X-63.1500 Y47.9000 
G01 X-63.1500 Y47.4155 
G00 Z2.0000 
G00 X-47.4697 Y48.6325 
G01 Z-0.0250 F254.00 
G01 X-47.6356 Y48.7433 F508.00 
G01 X-47.7767 Y48.8844 
G01 X-47.8875 Y49.0503 
G01 X-47.9288 Y49.1500 
G01 X-61.2912 Y49.1500 
G01 X-61.3325 Y49.0503 
G01 X-61.4433 Y48.8844 
G01 X-61.5844 Y48.7433 
G01 X-61.7503 Y48.6325 
G01 X-61.8287 Y48.6000 
G01 X-47.3913 Y48.6000 
G01 X-47.4697 Y48.6325 
G00 Z2.0000 
G00 X-60.3356 Y44.9333 
G01 Z-0.0250 F254.00 
G01 X-60.4767 Y45.0744 F508.00 
G01 X-60.5875 Y45.2403 
G01 X-60.6639 Y45.4246 
G01 X-60.7028 Y45.6202 
G01 X-60.7028 Y45.8198 
G01 X-60.6639 Y46.0154 
G01 X-60.5875 Y46.1997 
G01 X-60.4767 Y46.3656 
G01 X-60.3356 Y46.5067 
G01 X-60.1697 Y46.6175 
G01 X-60.0913 Y46.6500 
G01 X-61.2746 Y46.6500 
G01 X-61.3325 Y46.5103 
G01 X-61.4433 Y46.3444 
G01 X-61.5844 Y46.2033 
G01 X-61.7503 Y46.0925 
G01 X-61.9346 Y46.0161 
G01 X-62.1302 Y45.9772 
G01 X-62.3298 Y45.9772 
G01 X-62.5254 Y46.0161 
G01 X-62.7097 Y46.0925 
G01 X-62.8756 Y46.2033 
G01 X-63.0167 Y46.3444 
G01 X-63.1275 Y46.5103 
G01 X-63.1500 Y46.5645 
G01 X-63.1500 Y44.8755 
G01 X-63.1275 Y44.9297 
G01 X-63.0167 Y45.0956 
G01 X-62.8756 Y45.2367 
G01 X-62.7097 Y45.3475 
G01 X-62.5254 Y45.4239 
G01 X-62.3298 Y45.4628 
G01 X-62.1302 Y45.4628 
G01 X-61.9346 Y45.4239 
G01 X-61.7503 Y45.3475 
G01 X-61.5844 Y45.2367 
G01 X-61.4433 Y45.0956 
G01 X-61.3325 Y44.9297 
G01 X-61.2994 Y44.8500 
G01 X-60.2109 Y44.8500 
G01 X-60.3356 Y44.9333 
G00 Z2.0000 
G00 X-47.6356 Y46.2033 
G01 Z-0.0250 F254.00 
G01 X-47.7767 Y46.3444 F508.00 
G01 X-47.8875 Y46.5103 
G01 X-47.9639 Y46.6946 
G01 X-48.0028 Y46.8902 
G01 X-48.0028 Y47.0898 
G01 X-47.9639 Y47.2854 
G01 X-47.8875 Y47.4697 
G01 X-47.7767 Y47.6356 
G01 X-47.6356 Y47.7767 
G01 X-47.4697 Y47.8875 
G01 X-47.4396 Y47.9000 
G01 X-61.7804 Y47.9000 
G01 X-61.7503 Y47.8875 
G01 X-61.5844 Y47.7767 
G01 X-61.4433 Y47.6356 
G01 X-61.3325 Y47.4697 
G01 X-61.2829 Y47.3500 
G01 X-50.2039 Y47.3500 
G01 X-50.1149 Y47.3261 
G01 X-50.0351 Y47.2801 
G01 X-49.1893 Y46.4342 
G01 X-49.0697 Y46.4580 
G01 X-48.9303 Y46.4580 
G01 X-48.7935 Y46.4308 
G01 X-48.6646 Y46.3774 
G01 X-48.5487 Y46.2999 
G01 X-48.4501 Y46.2013 
G01 X-48.3726 Y46.0854 
G01 X-48.3192 Y45.9565 
G01 X-48.2920 Y45.8197 
G01 X-48.2920 Y45.6803 
G01 X-48.3192 Y45.5435 
G01 X-48.3726 Y45.4146 
G01 X-48.4501 Y45.2987 
G01 X-48.5487 Y45.2001 
G01 X-48.6646 Y45.1226 
G01 X-48.7935 Y45.0692 
G01 X-48.9303 Y45.0420 
G01 X-49.0697 Y45.0420 
G01 X-49.2065 Y45.0692 
G01 X-49.3354 Y45.1226 
G01 X-49.4513 Y45.2001 
G01 X-49.5499 Y45.2987 
G01 X-49.6274 Y45.4146 
G01 X-49.6808 Y45.5435 
G01 X-49.7080 Y45.6803 
G01 X-49.7080 Y45.8197 
G01 X-49.6842 Y45.9393 
G01 X-50.3950 Y46.6500 
G01 X-59.2887 Y46.6500 
G01 X-59.2103 Y46.6175 
G01 X-59.0444 Y46.5067 
G01 X-58.9033 Y46.3656 
G01 X-58.7925 Y46.1997 
G01 X-58.7161 Y46.0154 
G01 X-58.6832 Y45.8500 
G01 X-58.2039 Y45.8500 
G01 X-58.1149 Y45.8261 
G01 X-58.0351 Y45.7801 
G01 X-57.9699 Y45.7149 
G01 X-56.4392 Y44.1842 
G01 X-56.3197 Y44.2080 
G01 X-56.1803 Y44.2080 
G01 X-56.0435 Y44.1808 
G01 X-55.9146 Y44.1274 
G01 X-55.7987 Y44.0499 
G01 X-55.7001 Y43.9513 
G01 X-55.6226 Y43.8354 
G01 X-55.5692 Y43.7065 
G01 X-55.5420 Y43.5697 
G01 X-55.5420 Y43.4303 
G01 X-55.5692 Y43.2935 
G01 X-55.6226 Y43.1646 
G01 X-55.7001 Y43.0487 
G01 X-55.7987 Y42.9501 
G01 X-55.9146 Y42.8726 
G01 X-56.0435 Y42.8192 
G01 X-56.1803 Y42.7920 
G01 X-56.3197 Y42.7920 
G01 X-56.4565 Y42.8192 
G01 X-56.5854 Y42.8726 
G01 X-56.7013 Y42.9501 
G01 X-56.7999 Y43.0487 
G01 X-56.8774 Y43.1646 
G01 X-56.9308 Y43.2935 
G01 X-56.9580 Y43.4303 
G01 X-56.9580 Y43.5697 
G01 X-56.9342 Y43.6892 
G01 X-58.3950 Y45.1500 
G01 X-58.8528 Y45.1500 
G01 X-58.9033 Y45.0744 
G01 X-59.0444 Y44.9333 
G01 X-59.1691 Y44.8500 
G01 X-58.7039 Y44.8500 
G01 X-58.6149 Y44.8261 
G01 X-58.5351 Y44.7801 
G01 X-56.1050 Y42.3500 
G01 X-53.8676 Y42.3500 
G01 X-53.7999 Y42.4513 
G01 X-53.7013 Y42.5499 
G01 X-53.5854 Y42.6274 
G01 X-53.4565 Y42.6808 
G01 X-53.3197 Y42.7080 
G01 X-53.1803 Y42.7080 
G01 X-53.0435 Y42.6808 
G01 X-52.9146 Y42.6274 
G01 X-52.7987 Y42.5499 
G01 X-52.7001 Y42.4513 
G01 X-52.6226 Y42.3354 
G01 X-52.5692 Y42.2065 
G01 X-52.5420 Y42.0697 
G01 X-52.5420 Y41.9303 
G01 X-52.5692 Y41.7935 
G01 X-52.6226 Y41.6646 
G01 X-52.7001 Y41.5487 
G01 X-52.7987 Y41.4501 
G01 X-52.9146 Y41.3726 
G01 X-52.9692 Y41.3500 
G01 X-52.3950 Y41.3500 
G01 X-47.7801 Y45.9649 
G01 X-47.7149 Y46.0301 
G01 X-47.6351 Y46.0761 
G01 X-47.5461 Y46.1000 
G01 X-47.4810 Y46.1000 
G01 X-47.6356 Y46.2033 
G00 Z2.0000 
G00 X-59.2961 Y33.6500 
G01 Z-0.0250 F254.00 
G01 X-59.3851 Y33.6739 F508.00 
G01 X-59.4649 Y33.7199 
G01 X-59.5301 Y33.7851 
G01 X-61.7066 Y35.9616 
G01 X-61.7503 Y35.9325 
G01 X-61.9346 Y35.8561 
G01 X-62.1302 Y35.8172 
G01 X-62.3298 Y35.8172 
G01 X-62.5254 Y35.8561 
G01 X-62.7097 Y35.9325 
G01 X-62.8756 Y36.0433 
G01 X-63.0167 Y36.1844 
G01 X-63.1275 Y36.3503 
G01 X-63.1500 Y36.4045 
G01 X-63.1500 Y35.8950 
G01 X-62.5200 Y35.2650 
G01 X-62.3298 Y35.3028 
G01 X-62.1302 Y35.3028 
G01 X-61.9346 Y35.2639 
G01 X-61.7503 Y35.1875 
G01 X-61.5844 Y35.0767 
G01 X-61.4433 Y34.9356 
G01 X-61.3325 Y34.7697 
G01 X-61.2561 Y34.5854 
G01 X-61.2172 Y34.3898 
G01 X-61.2172 Y34.1902 
G01 X-61.2561 Y33.9946 
G01 X-61.3325 Y33.8103 
G01 X-61.4433 Y33.6444 
G01 X-61.5844 Y33.5033 
G01 X-61.7503 Y33.3925 
G01 X-61.8528 Y33.3500 
G01 X-55.7808 Y33.3500 
G01 X-55.8354 Y33.3726 
G01 X-55.9513 Y33.4501 
G01 X-56.0499 Y33.5487 
G01 X-56.1176 Y33.6500 
G01 X-59.2961 Y33.6500 
G00 Z2.0000 
G00 X-47.3635 Y45.3915 
G01 Z-0.0250 F254.00 
G01 X-47.3431 Y45.4000 F508.00 
G01 X-47.3550 Y45.4000 
G01 X-47.3635 Y45.3915 
G00 Z2.0000 
G00 X-53.5854 Y41.3726 
G01 Z-0.0250 F254.00 
G01 X-53.7013 Y41.4501 F508.00 
G01 X-53.7999 Y41.5487 
G01 X-53.8676 Y41.6500 
G01 X-56.2961 Y41.6500 
G01 X-56.3851 Y41.6739 
G01 X-56.4649 Y41.7199 
G01 X-56.5301 Y41.7851 
G01 X-58.8950 Y44.1500 
G01 X-59.3852 Y44.1500 
G01 X-59.2103 Y44.0775 
G01 X-59.0444 Y43.9667 
G01 X-58.9033 Y43.8256 
G01 X-58.7925 Y43.6597 
G01 X-58.7161 Y43.4754 
G01 X-58.6772 Y43.2798 
G01 X-58.6772 Y43.0802 
G01 X-58.7161 Y42.8846 
G01 X-58.7925 Y42.7003 
G01 X-58.9033 Y42.5344 
G01 X-59.0444 Y42.3933 
G01 X-59.2103 Y42.2825 
G01 X-59.3946 Y42.2061 
G01 X-59.5902 Y42.1672 
G01 X-59.7898 Y42.1672 
G01 X-59.9854 Y42.2061 
G01 X-60.1697 Y42.2825 
G01 X-60.3356 Y42.3933 
G01 X-60.4767 Y42.5344 
G01 X-60.5875 Y42.7003 
G01 X-60.6639 Y42.8846 
G01 X-60.7028 Y43.0802 
G01 X-60.7028 Y43.2798 
G01 X-60.6639 Y43.4754 
G01 X-60.5875 Y43.6597 
G01 X-60.4767 Y43.8256 
G01 X-60.3356 Y43.9667 
G01 X-60.1697 Y44.0775 
G01 X-59.9948 Y44.1500 
G01 X-61.2580 Y44.1500 
G01 X-61.3325 Y43.9703 
G01 X-61.4433 Y43.8044 
G01 X-61.5844 Y43.6633 
G01 X-61.7503 Y43.5525 
G01 X-61.9346 Y43.4761 
G01 X-62.1302 Y43.4372 
G01 X-62.3298 Y43.4372 
G01 X-62.5254 Y43.4761 
G01 X-62.7097 Y43.5525 
G01 X-62.8756 Y43.6633 
G01 X-63.0167 Y43.8044 
G01 X-63.1275 Y43.9703 
G01 X-63.1500 Y44.0245 
G01 X-63.1500 Y42.3355 
G01 X-63.1275 Y42.3897 
G01 X-63.0167 Y42.5556 
G01 X-62.8756 Y42.6967 
G01 X-62.7097 Y42.8075 
G01 X-62.5254 Y42.8839 
G01 X-62.3298 Y42.9228 
G01 X-62.1302 Y42.9228 
G01 X-61.9346 Y42.8839 
G01 X-61.7503 Y42.8075 
G01 X-61.5844 Y42.6967 
G01 X-61.4433 Y42.5556 
G01 X-61.3325 Y42.3897 
G01 X-61.2561 Y42.2054 
G01 X-61.2172 Y42.0098 
G01 X-61.2172 Y41.8102 
G01 X-61.2561 Y41.6146 
G01 X-61.3325 Y41.4303 
G01 X-61.4433 Y41.2644 
G01 X-61.5844 Y41.1233 
G01 X-61.7503 Y41.0125 
G01 X-61.9346 Y40.9361 
G01 X-62.1302 Y40.8972 
G01 X-62.3298 Y40.8972 
G01 X-62.5254 Y40.9361 
G01 X-62.7097 Y41.0125 
G01 X-62.8756 Y41.1233 
G01 X-63.0167 Y41.2644 
G01 X-63.1275 Y41.4303 
G01 X-63.1500 Y41.4845 
G01 X-63.1500 Y39.7955 
G01 X-63.1275 Y39.8497 
G01 X-63.0167 Y40.0156 
G01 X-62.8756 Y40.1567 
G01 X-62.7097 Y40.2675 
G01 X-62.5254 Y40.3439 
G01 X-62.3298 Y40.3828 
G01 X-62.1302 Y40.3828 
G01 X-61.9346 Y40.3439 
G01 X-61.7503 Y40.2675 
G01 X-61.7366 Y40.2584 
G01 X-60.7801 Y41.2149 
G01 X-60.7149 Y41.2801 
G01 X-60.6351 Y41.3261 
G01 X-60.5461 Y41.3500 
G01 X-53.5308 Y41.3500 
G01 X-53.5854 Y41.3726 
G00 Z2.0000 
G00 X-59.0854 Y13.3726 
G01 Z-0.0250 F254.00 
G01 X-59.2013 Y13.4501 F508.00 
G01 X-59.2999 Y13.5487 
G01 X-59.3774 Y13.6646 
G01 X-59.4308 Y13.7935 
G01 X-59.4580 Y13.9303 
G01 X-59.4580 Y14.0697 
G01 X-59.4308 Y14.2065 
G01 X-59.3774 Y14.3354 
G01 X-59.2999 Y14.4513 
G01 X-59.2013 Y14.5499 
G01 X-59.0854 Y14.6274 
G01 X-58.9565 Y14.6808 
G01 X-58.8197 Y14.7080 
