(.../pcb-gcode-3.6.0.4/pcb-gcode.ulp)
(Copyright 2005 - 2012 by John Johnson)
(See readme.txt for licensing terms.)
(This file generated from the board:)
(.../eagle/SulaMatikV1/SulaMatikV1.brd)
(Current profile is .../pcb-gcode-3.6.0.4/profiles/emc.pp  )
(This file generated 9/3/2014 2:58:27 PM)
(Settings from pcb-machine.h)
(  Tool Size)
(0.1000 )
(Z Axis Settings)
(  High     Up        Down     Drill)
(19.5000 	2.0000 	-0.0250 	-1.5000 )
(spindle on time = 1.0000)
(milling depth = -0.0500)
(text depth = -0.0500)
(tool change at 15.0000 15.0000 19.0000 )
(feed rate xy = F508.00 )
(feed rate z  = F254.00 )
(Settings from pcb-defaults.h)
(isolate min = 0.0500)
(isolate max = 1.0000)
(isolate step = 0.1000)
(Generated top outlines, top drill, bottom outlines, bottom drill, )
(Unit of measure: mm)
(Metric Mode)
G21
(Absolute Coordinates)
G90
G00 X0.0000 Y0.0000 
M03
G04 P1.000000
G00 Z2.0000 
G00 X37.7968 Y24.5330 
G01 Z-0.0250 F254.00 
G01 X37.7968 Y23.6487 F508.00 
G01 X37.6086 Y23.4605 
G01 X37.4204 Y23.6487 
G01 X37.4204 Y24.5330 
G01 X37.7968 Y24.5330 
G00 Z2.0000 
G00 X37.7968 Y19.8554 
G01 Z-0.0250 F254.00 
G01 X37.7968 Y18.9711 F508.00 
G01 X37.6086 Y18.7829 
G01 X37.4204 Y18.9711 
G01 X37.4204 Y19.8554 
G01 X37.7968 Y19.8554 
G00 Z2.0000 
G00 X67.6400 Y60.8341 
G01 Z-0.0250 F254.00 
G01 X67.6400 Y61.0859 F508.00 
G01 X67.6006 Y61.3347 
G01 X67.5228 Y61.5742 
G01 X67.4084 Y61.7986 
G01 X67.2604 Y62.0023 
G01 X67.0823 Y62.1804 
G01 X66.8786 Y62.3284 
G01 X66.6542 Y62.4428 
G01 X66.4147 Y62.5206 
G01 X66.1659 Y62.5600 
G01 X65.9141 Y62.5600 
G01 X65.6653 Y62.5206 
G01 X65.4258 Y62.4428 
G01 X65.2014 Y62.3284 
G01 X64.9977 Y62.1804 
G01 X64.8196 Y62.0023 
G01 X64.6716 Y61.7986 
G01 X64.5572 Y61.5742 
G01 X64.4794 Y61.3347 
G01 X64.4400 Y61.0859 
G01 X64.4400 Y60.8341 
G01 X64.4794 Y60.5853 
G01 X64.5572 Y60.3458 
G01 X64.6716 Y60.1214 
G01 X64.8196 Y59.9177 
G01 X64.9977 Y59.7396 
G01 X65.2014 Y59.5916 
G01 X65.4258 Y59.4772 
G01 X65.6653 Y59.3994 
G01 X65.9141 Y59.3600 
G01 X66.1659 Y59.3600 
G01 X66.4147 Y59.3994 
G01 X66.6542 Y59.4772 
G01 X66.8786 Y59.5916 
G01 X67.0823 Y59.7396 
G01 X67.2604 Y59.9177 
G01 X67.4084 Y60.1214 
G01 X67.5228 Y60.3458 
G01 X67.6006 Y60.5853 
G01 X67.6400 Y60.8341 
G00 Z2.0000 
G00 X6.6800 Y4.9541 
G01 Z-0.0250 F254.00 
G01 X6.6800 Y5.2059 F508.00 
G01 X6.6406 Y5.4547 
G01 X6.5628 Y5.6942 
G01 X6.4484 Y5.9186 
G01 X6.3004 Y6.1223 
G01 X6.1223 Y6.3004 
G01 X5.9186 Y6.4484 
G01 X5.6942 Y6.5628 
G01 X5.4547 Y6.6406 
G01 X5.2059 Y6.6800 
G01 X4.9541 Y6.6800 
G01 X4.7053 Y6.6406 
G01 X4.4658 Y6.5628 
G01 X4.2414 Y6.4484 
G01 X4.0377 Y6.3004 
G01 X3.8596 Y6.1223 
G01 X3.7116 Y5.9186 
G01 X3.5972 Y5.6942 
G01 X3.5194 Y5.4547 
G01 X3.4800 Y5.2059 
G01 X3.4800 Y4.9541 
G01 X3.5194 Y4.7053 
G01 X3.5972 Y4.4658 
G01 X3.7116 Y4.2414 
G01 X3.8596 Y4.0377 
G01 X4.0377 Y3.8596 
G01 X4.2414 Y3.7116 
G01 X4.4658 Y3.5972 
G01 X4.7053 Y3.5194 
G01 X4.9541 Y3.4800 
G01 X5.2059 Y3.4800 
G01 X5.4547 Y3.5194 
G01 X5.6942 Y3.5972 
G01 X5.9186 Y3.7116 
G01 X6.1223 Y3.8596 
G01 X6.3004 Y4.0377 
G01 X6.4484 Y4.2414 
G01 X6.5628 Y4.4658 
G01 X6.6406 Y4.7053 
G01 X6.6800 Y4.9541 
G00 Z2.0000 
G00 X56.0400 Y20.4364 
G01 Z-0.0250 F254.00 
G01 X56.0400 Y14.9903 F508.00 
G01 X56.0781 Y14.8984 
G01 X57.0400 Y13.9364 
G01 X57.0400 Y6.9042 
G01 X56.8689 Y6.8702 
G01 X56.6936 Y6.7975 
G01 X56.5357 Y6.6921 
G01 X56.4015 Y6.5579 
G01 X56.2961 Y6.4000 
G01 X56.2234 Y6.2247 
G01 X56.1864 Y6.0385 
G01 X56.1864 Y4.1215 
G01 X56.2234 Y3.9353 
G01 X56.2961 Y3.7600 
G01 X56.4015 Y3.6021 
G01 X56.5357 Y3.4679 
G01 X56.6936 Y3.3625 
G01 X56.8689 Y3.2898 
G01 X57.0551 Y3.2528 
G01 X57.2449 Y3.2528 
G01 X57.4311 Y3.2898 
G01 X57.6064 Y3.3625 
G01 X57.7643 Y3.4679 
G01 X57.8985 Y3.6021 
G01 X58.0039 Y3.7600 
G01 X58.0766 Y3.9353 
G01 X58.1136 Y4.1215 
G01 X58.1136 Y6.0385 
G01 X58.0766 Y6.2247 
G01 X58.0039 Y6.4000 
G01 X57.8985 Y6.5579 
G01 X57.7643 Y6.6921 
G01 X57.6064 Y6.7975 
G01 X57.5400 Y6.8250 
G01 X57.5400 Y14.0897 
G01 X57.5019 Y14.1816 
G01 X57.4316 Y14.2519 
G01 X56.5400 Y15.1436 
G01 X56.5400 Y20.5897 
G01 X56.5019 Y20.6816 
G01 X56.4316 Y20.7519 
G01 X54.8589 Y22.3247 
G01 X54.8746 Y22.3627 
G01 X54.8980 Y22.4801 
G01 X54.8980 Y22.5999 
G01 X54.8746 Y22.7173 
G01 X54.8288 Y22.8280 
G01 X54.7623 Y22.9276 
G01 X54.6776 Y23.0123 
G01 X54.5780 Y23.0788 
G01 X54.4673 Y23.1246 
G01 X54.3499 Y23.1480 
G01 X54.2301 Y23.1480 
G01 X54.1127 Y23.1246 
G01 X54.0020 Y23.0788 
G01 X53.9024 Y23.0123 
G01 X53.8177 Y22.9276 
G01 X53.7512 Y22.8280 
G01 X53.7054 Y22.7173 
G01 X53.6820 Y22.5999 
G01 X53.6820 Y22.4801 
G01 X53.7054 Y22.3627 
G01 X53.7512 Y22.2520 
G01 X53.8177 Y22.1524 
G01 X53.9024 Y22.0677 
G01 X54.0020 Y22.0012 
G01 X54.1127 Y21.9554 
G01 X54.2301 Y21.9320 
G01 X54.3499 Y21.9320 
G01 X54.4673 Y21.9554 
G01 X54.5053 Y21.9711 
G01 X56.0400 Y20.4364 
G00 Z2.0000 
G00 X53.1484 Y32.0019 
G01 Z-0.0250 F254.00 
G01 X53.0781 Y31.9316 F508.00 
G01 X53.0400 Y31.8397 
G01 X53.0400 Y21.2403 
G01 X53.0781 Y21.1484 
G01 X53.5400 Y20.6864 
G01 X53.5400 Y15.0945 
G01 X53.5020 Y15.0788 
G01 X53.4024 Y15.0123 
G01 X53.3177 Y14.9276 
G01 X53.2512 Y14.8280 
G01 X53.2054 Y14.7173 
G01 X53.1820 Y14.5999 
G01 X53.1820 Y14.4801 
G01 X53.2054 Y14.3627 
G01 X53.2512 Y14.2520 
G01 X53.3177 Y14.1524 
G01 X53.4024 Y14.0677 
G01 X53.5020 Y14.0012 
G01 X53.6127 Y13.9554 
G01 X53.7301 Y13.9320 
G01 X53.8499 Y13.9320 
G01 X53.9673 Y13.9554 
G01 X54.0780 Y14.0012 
G01 X54.1776 Y14.0677 
G01 X54.2623 Y14.1524 
G01 X54.3288 Y14.2520 
G01 X54.3746 Y14.3627 
G01 X54.3980 Y14.4801 
G01 X54.3980 Y14.5999 
G01 X54.3746 Y14.7173 
G01 X54.3288 Y14.8280 
G01 X54.2623 Y14.9276 
G01 X54.1776 Y15.0123 
G01 X54.0780 Y15.0788 
G01 X54.0400 Y15.0945 
G01 X54.0400 Y20.8397 
G01 X54.0019 Y20.9316 
G01 X53.9316 Y21.0019 
G01 X53.5400 Y21.3936 
G01 X53.5400 Y31.6864 
G01 X57.8247 Y35.9711 
G01 X57.8627 Y35.9554 
G01 X57.9801 Y35.9320 
G01 X58.0999 Y35.9320 
G01 X58.2173 Y35.9554 
G01 X58.3280 Y36.0012 
G01 X58.4276 Y36.0677 
G01 X58.5123 Y36.1524 
G01 X58.5788 Y36.2520 
G01 X58.6246 Y36.3627 
G01 X58.6480 Y36.4801 
G01 X58.6480 Y36.5999 
G01 X58.6246 Y36.7173 
G01 X58.5788 Y36.8280 
G01 X58.5123 Y36.9276 
G01 X58.4276 Y37.0123 
G01 X58.3280 Y37.0788 
G01 X58.2173 Y37.1246 
G01 X58.0999 Y37.1480 
G01 X57.9801 Y37.1480 
G01 X57.8627 Y37.1246 
G01 X57.7520 Y37.0788 
G01 X57.6524 Y37.0123 
G01 X57.5677 Y36.9276 
G01 X57.5012 Y36.8280 
G01 X57.4554 Y36.7173 
G01 X57.4320 Y36.5999 
G01 X57.4320 Y36.4801 
G01 X57.4554 Y36.3627 
G01 X57.4711 Y36.3247 
G01 X53.1484 Y32.0019 
G00 Z2.0000 
G00 X36.3991 Y14.8014 
G01 Z-0.0250 F254.00 
G01 X36.3250 Y14.7707 F508.00 
G01 X36.2683 Y14.7140 
G01 X36.2376 Y14.6399 
G01 X36.2376 Y14.5597 
G01 X36.2683 Y14.4856 
G01 X36.3250 Y14.4289 
G01 X36.3991 Y14.3982 
G01 X37.6487 Y14.3982 
G01 X37.7228 Y14.4289 
G01 X38.1126 Y14.8187 
G01 X38.1693 Y14.8754 
G01 X38.2000 Y14.9495 
G01 X38.2000 Y16.1991 
G01 X38.1693 Y16.2732 
G01 X38.1126 Y16.3299 
G01 X38.0385 Y16.3606 
G01 X36.3991 Y16.3606 
G01 X36.3250 Y16.3299 
G01 X36.2683 Y16.2732 
G01 X36.2376 Y16.1991 
G01 X36.2376 Y16.1189 
G01 X36.2683 Y16.0448 
G01 X36.3250 Y15.9881 
G01 X36.3991 Y15.9574 
G01 X37.7968 Y15.9574 
G01 X37.7968 Y15.0731 
G01 X37.5251 Y14.8014 
G01 X36.3991 Y14.8014 
G00 Z2.0000 
G00 X36.2203 Y13.7060 
G01 Z-0.0250 F254.00 
G01 X36.2510 Y13.7801 F508.00 
G01 X36.2510 Y13.8603 
G01 X36.2203 Y13.9344 
G01 X36.1636 Y13.9911 
G01 X36.0895 Y14.0218 
G01 X36.0093 Y14.0218 
G01 X35.9352 Y13.9911 
G01 X35.5454 Y13.6013 
G01 X35.4887 Y13.5446 
G01 X35.4580 Y13.4705 
G01 X35.4580 Y12.6107 
G01 X35.4887 Y12.5366 
G01 X35.4921 Y12.5332 
G01 X35.5454 Y12.4799 
G01 X35.8785 Y12.1468 
G01 X35.9352 Y12.0901 
G01 X36.0093 Y12.0594 
G01 X36.4793 Y12.0594 
G01 X36.5534 Y12.0901 
G01 X36.6101 Y12.1468 
G01 X36.9432 Y12.4799 
G01 X36.9999 Y12.5366 
G01 X37.0306 Y12.6107 
G01 X37.0306 Y13.3469 
G01 X37.3023 Y13.6186 
G01 X37.5251 Y13.6186 
G01 X37.7968 Y13.3469 
G01 X37.7968 Y12.7343 
G01 X37.4377 Y12.3752 
G01 X37.4070 Y12.3011 
G01 X37.4070 Y12.2209 
G01 X37.4377 Y12.1468 
G01 X37.4944 Y12.0901 
G01 X37.5685 Y12.0594 
G01 X37.6487 Y12.0594 
G01 X37.7228 Y12.0901 
G01 X38.1693 Y12.5366 
G01 X38.2000 Y12.6107 
G01 X38.2000 Y13.4705 
G01 X38.1693 Y13.5446 
G01 X38.1126 Y13.6013 
G01 X37.7795 Y13.9344 
G01 X37.7262 Y13.9877 
G01 X37.7228 Y13.9911 
G01 X37.6487 Y14.0218 
G01 X37.1787 Y14.0218 
G01 X37.1046 Y13.9911 
G01 X37.0479 Y13.9344 
G01 X36.6581 Y13.5446 
G01 X36.6274 Y13.4705 
G01 X36.6274 Y12.7343 
G01 X36.3557 Y12.4626 
G01 X36.1329 Y12.4626 
G01 X35.8612 Y12.7343 
G01 X35.8612 Y13.3469 
G01 X36.2203 Y13.7060 
G00 Z2.0000 
G00 X35.4580 Y16.8985 
G01 Z-0.0250 F254.00 
G01 X35.4887 Y16.8244 F508.00 
G01 X35.5454 Y16.7677 
G01 X35.6195 Y16.7370 
G01 X35.6997 Y16.7370 
G01 X35.7738 Y16.7677 
G01 X35.8305 Y16.8244 
G01 X35.8612 Y16.8985 
G01 X35.8612 Y17.1268 
G01 X37.7968 Y17.1268 
G01 X37.7968 Y16.8985 
G01 X37.8275 Y16.8244 
G01 X37.8842 Y16.7677 
G01 X37.9583 Y16.7370 
G01 X38.0385 Y16.7370 
G01 X38.1126 Y16.7677 
G01 X38.1693 Y16.8244 
G01 X38.2000 Y16.8985 
G01 X38.2000 Y17.7583 
G01 X38.1693 Y17.8324 
G01 X38.1126 Y17.8891 
G01 X38.0385 Y17.9198 
G01 X37.9583 Y17.9198 
G01 X37.8842 Y17.8891 
G01 X37.8275 Y17.8324 
G01 X37.7968 Y17.7583 
G01 X37.7968 Y17.5300 
G01 X35.6195 Y17.5300 
G01 X35.5454 Y17.4993 
G01 X35.4887 Y17.4426 
G01 X35.4580 Y17.3685 
G01 X35.4580 Y17.2883 
G01 X35.4580 Y16.8985 
G00 Z2.0000 
G00 X36.2376 Y18.8475 
G01 Z-0.0250 F254.00 
G01 X36.2683 Y18.7734 F508.00 
G01 X36.3250 Y18.7167 
G01 X36.3991 Y18.6860 
G01 X36.4793 Y18.6860 
G01 X36.5534 Y18.7167 
G01 X36.6101 Y18.7734 
G01 X36.6408 Y18.8475 
G01 X36.6408 Y19.5837 
G01 X36.9125 Y19.8554 
G01 X37.0172 Y19.8554 
G01 X37.0172 Y18.8475 
G01 X37.0479 Y18.7734 
G01 X37.1046 Y18.7167 
G01 X37.4377 Y18.3836 
G01 X37.4944 Y18.3269 
G01 X37.5664 Y18.2971 
G01 X37.6487 Y18.2962 
G01 X37.7228 Y18.3269 
G01 X38.1693 Y18.7734 
G01 X38.2000 Y18.8475 
G01 X38.2000 Y20.0971 
G01 X38.1693 Y20.1712 
G01 X38.1126 Y20.2279 
G01 X38.0385 Y20.2586 
G01 X36.7889 Y20.2586 
G01 X36.7148 Y20.2279 
G01 X36.6581 Y20.1712 
G01 X36.2683 Y19.7814 
G01 X36.2376 Y19.7073 
G01 X36.2376 Y19.6271 
G01 X36.2376 Y18.8475 
G00 Z2.0000 
G00 X38.0385 Y20.6350 
G01 Z-0.0250 F254.00 
G01 X38.1126 Y20.6657 F508.00 
G01 X38.1693 Y20.7224 
G01 X38.2000 Y20.7965 
G01 X38.2000 Y20.8767 
G01 X38.1693 Y20.9508 
G01 X38.1126 Y21.0075 
G01 X38.0385 Y21.0382 
G01 X36.6408 Y21.0382 
G01 X36.6408 Y21.1429 
G01 X36.9125 Y21.4146 
G01 X38.0385 Y21.4146 
G01 X38.1126 Y21.4453 
G01 X38.1693 Y21.5020 
G01 X38.2000 Y21.5761 
G01 X38.2000 Y21.6563 
G01 X38.1693 Y21.7304 
G01 X38.1126 Y21.7871 
G01 X38.0385 Y21.8178 
G01 X36.9125 Y21.8178 
G01 X36.7243 Y22.0060 
G01 X36.9125 Y22.1942 
G01 X38.0385 Y22.1942 
G01 X38.1126 Y22.2249 
G01 X38.1693 Y22.2816 
G01 X38.2000 Y22.3557 
G01 X38.2000 Y22.4359 
G01 X38.1693 Y22.5100 
G01 X38.1126 Y22.5667 
G01 X38.0385 Y22.5974 
G01 X36.7889 Y22.5974 
G01 X36.7148 Y22.5667 
G01 X36.6581 Y22.5100 
G01 X36.2683 Y22.1202 
G01 X36.2376 Y22.0461 
G01 X36.2376 Y21.9659 
G01 X36.2683 Y21.8918 
G01 X36.3250 Y21.8351 
G01 X36.5439 Y21.6162 
G01 X36.2683 Y21.3406 
G01 X36.2376 Y21.2665 
G01 X36.2376 Y20.7965 
G01 X36.2683 Y20.7224 
G01 X36.3250 Y20.6657 
G01 X36.3991 Y20.6350 
G01 X36.4793 Y20.6350 
G01 X38.0385 Y20.6350 
G00 Z2.0000 
G00 X36.2376 Y23.5251 
G01 Z-0.0250 F254.00 
G01 X36.2683 Y23.4510 F508.00 
G01 X36.3250 Y23.3943 
G01 X36.3991 Y23.3636 
G01 X36.4793 Y23.3636 
G01 X36.5534 Y23.3943 
G01 X36.6101 Y23.4510 
G01 X36.6408 Y23.5251 
G01 X36.6408 Y24.2613 
G01 X36.9125 Y24.5330 
G01 X37.0172 Y24.5330 
G01 X37.0172 Y23.5251 
G01 X37.0479 Y23.4510 
G01 X37.1046 Y23.3943 
G01 X37.4377 Y23.0612 
G01 X37.4944 Y23.0045 
G01 X37.5685 Y22.9738 
G01 X37.6487 Y22.9738 
G01 X37.7228 Y23.0045 
G01 X38.1693 Y23.4510 
G01 X38.2000 Y23.5251 
G01 X38.2000 Y24.7747 
G01 X38.1693 Y24.8488 
G01 X38.1126 Y24.9055 
G01 X38.0385 Y24.9362 
G01 X36.7889 Y24.9362 
G01 X36.7148 Y24.9055 
G01 X36.6581 Y24.8488 
G01 X36.2683 Y24.4590 
G01 X36.2376 Y24.3849 
G01 X36.2376 Y24.3047 
G01 X36.2376 Y23.5251 
G00 Z2.0000 
G00 X36.0093 Y26.1056 
G01 Z-0.0250 F254.00 
G01 X35.9352 Y26.0749 F508.00 
G01 X35.8785 Y26.0182 
G01 X35.8478 Y25.9441 
G01 X35.8478 Y25.8639 
G01 X35.8785 Y25.7898 
G01 X35.9352 Y25.7331 
G01 X36.0093 Y25.7024 
G01 X36.2376 Y25.7024 
G01 X36.2376 Y25.4741 
G01 X36.2683 Y25.4000 
G01 X36.3250 Y25.3433 
G01 X36.3991 Y25.3126 
G01 X36.4793 Y25.3126 
G01 X36.5534 Y25.3433 
G01 X36.6101 Y25.4000 
G01 X36.6408 Y25.4741 
G01 X36.6408 Y25.7024 
G01 X37.6487 Y25.7024 
G01 X37.7228 Y25.7331 
G01 X37.7262 Y25.7365 
G01 X37.7795 Y25.7898 
G01 X38.1693 Y26.1796 
G01 X38.2000 Y26.2537 
G01 X38.2000 Y26.3339 
G01 X38.1693 Y26.4080 
G01 X38.1126 Y26.4647 
G01 X38.0385 Y26.4954 
G01 X37.9583 Y26.4954 
G01 X37.8842 Y26.4647 
G01 X37.5251 Y26.1056 
G01 X36.6408 Y26.1056 
G01 X36.6408 Y26.3339 
G01 X36.6101 Y26.4080 
G01 X36.5534 Y26.4647 
G01 X36.4793 Y26.4954 
G01 X36.3991 Y26.4954 
G01 X36.3250 Y26.4647 
G01 X36.2683 Y26.4080 
G01 X36.2376 Y26.3339 
G01 X36.2376 Y26.1056 
G01 X36.0093 Y26.1056 
G00 Z2.0000 
G00 X36.2376 Y27.0333 
G01 Z-0.0250 F254.00 
G01 X36.2683 Y26.9592 F508.00 
G01 X36.3250 Y26.9025 
G01 X36.3991 Y26.8718 
G01 X36.4793 Y26.8718 
G01 X36.5534 Y26.9025 
G01 X36.6101 Y26.9592 
G01 X36.6408 Y27.0333 
G01 X36.6408 Y27.2616 
G01 X37.7968 Y27.2616 
G01 X37.7968 Y27.0333 
G01 X37.8275 Y26.9592 
G01 X37.8842 Y26.9025 
G01 X37.9583 Y26.8718 
G01 X38.0385 Y26.8718 
G01 X38.1126 Y26.9025 
G01 X38.1693 Y26.9592 
G01 X38.2000 Y27.0333 
G01 X38.2000 Y27.8931 
G01 X38.1693 Y27.9672 
G01 X38.1126 Y28.0239 
G01 X38.0385 Y28.0546 
G01 X37.9583 Y28.0546 
G01 X37.8842 Y28.0239 
G01 X37.8275 Y27.9672 
G01 X37.7968 Y27.8931 
G01 X37.7968 Y27.6648 
G01 X36.3991 Y27.6648 
G01 X36.3250 Y27.6341 
G01 X36.2683 Y27.5774 
G01 X36.2376 Y27.5033 
G01 X36.2376 Y27.4231 
G01 X36.2376 Y27.0333 
G00 Z2.0000 
G00 X35.6997 Y27.6648 
G01 Z-0.0250 F254.00 
G01 X35.2297 Y27.6648 F508.00 
G01 X35.1556 Y27.6341 
G01 X35.0989 Y27.5774 
G01 X35.0682 Y27.5033 
G01 X35.0682 Y27.4231 
G01 X35.0989 Y27.3490 
G01 X35.1556 Y27.2923 
G01 X35.2297 Y27.2616 
G01 X35.6997 Y27.2616 
G01 X35.7738 Y27.2923 
G01 X35.8305 Y27.3490 
G01 X35.8612 Y27.4231 
G01 X35.8612 Y27.5033 
G01 X35.8305 Y27.5774 
G01 X35.7738 Y27.6341 
G01 X35.6997 Y27.6648 
G00 Z2.0000 
G00 X35.6195 Y28.4310 
G01 Z-0.0250 F254.00 
G01 X37.1988 Y28.4310 F508.00 
G01 X37.2186 Y28.4270 
G01 X37.2388 Y28.4310 
G01 X38.0385 Y28.4310 
G01 X38.1126 Y28.4617 
G01 X38.1693 Y28.5184 
G01 X38.2000 Y28.5925 
G01 X38.2000 Y28.6727 
G01 X38.1693 Y28.7468 
G01 X38.1126 Y28.8035 
G01 X38.0385 Y28.8342 
G01 X37.5955 Y28.8342 
G01 X38.1884 Y29.7235 
G01 X38.2039 Y29.8022 
G01 X38.1882 Y29.8808 
G01 X38.1436 Y29.9475 
G01 X38.0769 Y29.9920 
G01 X37.9982 Y30.0075 
G01 X37.9195 Y29.9918 
G01 X37.8529 Y29.9472 
G01 X37.2188 Y28.9960 
G01 X36.5847 Y29.9472 
G01 X36.5181 Y29.9918 
G01 X36.4394 Y30.0075 
G01 X36.3607 Y29.9920 
G01 X36.2940 Y29.9475 
G01 X36.2494 Y29.8808 
G01 X36.2337 Y29.8022 
G01 X36.2492 Y29.7235 
G01 X36.8421 Y28.8342 
G01 X35.6195 Y28.8342 
G01 X35.5454 Y28.8035 
G01 X35.4887 Y28.7468 
G01 X35.4580 Y28.6727 
G01 X35.4580 Y28.5925 
G01 X35.4887 Y28.5184 
G01 X35.5454 Y28.4617 
G01 X35.6195 Y28.4310 
G00 Z2.0000 
G00 X65.6828 Y57.0601 
G01 Z-0.0250 F254.00 
G01 X65.6828 Y57.2399 F508.00 
G01 X65.6477 Y57.4163 
G01 X65.5789 Y57.5824 
G01 X65.4790 Y57.7319 
G01 X65.3519 Y57.8590 
G01 X65.2024 Y57.9589 
G01 X65.0363 Y58.0277 
G01 X64.8599 Y58.0628 
G01 X64.6801 Y58.0628 
G01 X64.5037 Y58.0277 
G01 X64.3376 Y57.9589 
G01 X64.1881 Y57.8590 
G01 X64.0610 Y57.7319 
G01 X63.9611 Y57.5824 
G01 X63.8923 Y57.4163 
G01 X63.8572 Y57.2399 
G01 X63.8572 Y57.0601 
G01 X63.8923 Y56.8837 
G01 X63.9611 Y56.7176 
G01 X64.0610 Y56.5681 
G01 X64.1881 Y56.4410 
G01 X64.3376 Y56.3411 
G01 X64.5037 Y56.2723 
G01 X64.6801 Y56.2372 
G01 X64.8599 Y56.2372 
G01 X65.0363 Y56.2723 
G01 X65.2024 Y56.3411 
G01 X65.3519 Y56.4410 
G01 X65.4790 Y56.5681 
G01 X65.5789 Y56.7176 
G01 X65.6477 Y56.8837 
G01 X65.6828 Y57.0601 
G00 Z2.0000 
G00 X65.6828 Y51.9801 
G01 Z-0.0250 F254.00 
G01 X65.6828 Y52.1599 F508.00 
G01 X65.6477 Y52.3363 
G01 X65.5789 Y52.5024 
G01 X65.4790 Y52.6519 
G01 X65.3519 Y52.7790 
G01 X65.2024 Y52.8789 
G01 X65.0363 Y52.9477 
G01 X64.8599 Y52.9828 
G01 X64.6801 Y52.9828 
G01 X64.5037 Y52.9477 
G01 X64.3376 Y52.8789 
G01 X64.1881 Y52.7790 
G01 X64.0610 Y52.6519 
G01 X63.9611 Y52.5024 
G01 X63.8923 Y52.3363 
G01 X63.8572 Y52.1599 
G01 X63.8572 Y51.9801 
G01 X63.8923 Y51.8037 
G01 X63.9611 Y51.6376 
G01 X64.0610 Y51.4881 
G01 X64.1881 Y51.3610 
G01 X64.3376 Y51.2611 
G01 X64.5037 Y51.1923 
G01 X64.6801 Y51.1572 
G01 X64.8599 Y51.1572 
G01 X65.0363 Y51.1923 
G01 X65.2024 Y51.2611 
G01 X65.3519 Y51.3610 
G01 X65.4790 Y51.4881 
G01 X65.5789 Y51.6376 
G01 X65.6477 Y51.8037 
G01 X65.6828 Y51.9801 
G00 Z2.0000 
G00 X65.6828 Y49.4401 
G01 Z-0.0250 F254.00 
G01 X65.6828 Y49.6199 F508.00 
G01 X65.6477 Y49.7963 
G01 X65.5789 Y49.9624 
G01 X65.4790 Y50.1119 
G01 X65.3519 Y50.2390 
G01 X65.2024 Y50.3389 
G01 X65.0363 Y50.4077 
G01 X64.8599 Y50.4428 
G01 X64.6801 Y50.4428 
G01 X64.5037 Y50.4077 
G01 X64.3376 Y50.3389 
G01 X64.1881 Y50.2390 
G01 X64.0610 Y50.1119 
G01 X63.9611 Y49.9624 
G01 X63.8923 Y49.7963 
G01 X63.8572 Y49.6199 
G01 X63.8572 Y49.4401 
G01 X63.8923 Y49.2637 
G01 X63.9611 Y49.0976 
G01 X64.0610 Y48.9481 
G01 X64.1881 Y48.8210 
G01 X64.3376 Y48.7211 
G01 X64.5037 Y48.6523 
G01 X64.6801 Y48.6172 
G01 X64.8599 Y48.6172 
G01 X65.0363 Y48.6523 
G01 X65.2024 Y48.7211 
G01 X65.3519 Y48.8210 
G01 X65.4790 Y48.9481 
G01 X65.5789 Y49.0976 
G01 X65.6477 Y49.2637 
G01 X65.6828 Y49.4401 
G00 Z2.0000 
G00 X65.6828 Y46.9001 
G01 Z-0.0250 F254.00 
G01 X65.6828 Y47.0799 F508.00 
G01 X65.6477 Y47.2563 
G01 X65.5789 Y47.4224 
G01 X65.4790 Y47.5719 
G01 X65.3519 Y47.6990 
G01 X65.2024 Y47.7989 
G01 X65.0363 Y47.8677 
G01 X64.8599 Y47.9028 
G01 X64.6801 Y47.9028 
G01 X64.5037 Y47.8677 
G01 X64.3376 Y47.7989 
G01 X64.1881 Y47.6990 
G01 X64.0610 Y47.5719 
G01 X63.9611 Y47.4224 
G01 X63.8923 Y47.2563 
G01 X63.8572 Y47.0799 
G01 X63.8572 Y46.9001 
G01 X63.8923 Y46.7237 
G01 X63.9611 Y46.5576 
G01 X64.0610 Y46.4081 
G01 X64.1881 Y46.2810 
G01 X64.3376 Y46.1811 
G01 X64.5037 Y46.1123 
G01 X64.6801 Y46.0772 
G01 X64.8599 Y46.0772 
G01 X65.0363 Y46.1123 
G01 X65.2024 Y46.1811 
G01 X65.3519 Y46.2810 
G01 X65.4790 Y46.4081 
G01 X65.5789 Y46.5576 
G01 X65.6477 Y46.7237 
G01 X65.6828 Y46.9001 
G00 Z2.0000 
G00 X65.6828 Y44.3601 
G01 Z-0.0250 F254.00 
G01 X65.6828 Y44.5399 F508.00 
G01 X65.6477 Y44.7163 
G01 X65.5789 Y44.8824 
G01 X65.4790 Y45.0319 
G01 X65.3519 Y45.1590 
G01 X65.2024 Y45.2589 
G01 X65.0363 Y45.3277 
G01 X64.8599 Y45.3628 
G01 X64.6801 Y45.3628 
G01 X64.5037 Y45.3277 
G01 X64.3376 Y45.2589 
G01 X64.1881 Y45.1590 
G01 X64.0610 Y45.0319 
G01 X63.9611 Y44.8824 
G01 X63.8923 Y44.7163 
G01 X63.8572 Y44.5399 
G01 X63.8572 Y44.3601 
G01 X63.8923 Y44.1837 
G01 X63.9611 Y44.0176 
G01 X64.0610 Y43.8681 
G01 X64.1881 Y43.7410 
G01 X64.3376 Y43.6411 
G01 X64.5037 Y43.5723 
G01 X64.6801 Y43.5372 
G01 X64.8599 Y43.5372 
G01 X65.0363 Y43.5723 
G01 X65.1196 Y43.6068 
G01 X66.7900 Y41.9364 
G01 X66.7900 Y28.0945 
G01 X66.7520 Y28.0788 
G01 X66.6524 Y28.0123 
G01 X66.5677 Y27.9276 
G01 X66.5012 Y27.8280 
G01 X66.4554 Y27.7173 
G01 X66.4320 Y27.5999 
G01 X66.4320 Y27.4801 
G01 X66.4554 Y27.3627 
G01 X66.5012 Y27.2520 
G01 X66.5677 Y27.1524 
G01 X66.6524 Y27.0677 
G01 X66.7520 Y27.0012 
G01 X66.8627 Y26.9554 
G01 X66.9801 Y26.9320 
G01 X67.0999 Y26.9320 
G01 X67.2173 Y26.9554 
G01 X67.3280 Y27.0012 
G01 X67.4276 Y27.0677 
G01 X67.5123 Y27.1524 
G01 X67.5788 Y27.2520 
G01 X67.6246 Y27.3627 
G01 X67.6480 Y27.4801 
G01 X67.6480 Y27.5999 
G01 X67.6246 Y27.7173 
G01 X67.5788 Y27.8280 
G01 X67.5123 Y27.9276 
G01 X67.4276 Y28.0123 
G01 X67.3280 Y28.0788 
G01 X67.2900 Y28.0945 
G01 X67.2900 Y42.0897 
G01 X67.2519 Y42.1816 
G01 X67.1816 Y42.2519 
G01 X65.5136 Y43.9199 
G01 X65.5789 Y44.0176 
G01 X65.6477 Y44.1837 
G01 X65.6828 Y44.3601 
G00 Z2.0000 
G00 X65.6828 Y41.8201 
G01 Z-0.0250 F254.00 
G01 X65.6828 Y41.9999 F508.00 
G01 X65.6477 Y42.1763 
G01 X65.5789 Y42.3424 
G01 X65.4790 Y42.4919 
G01 X65.3519 Y42.6190 
G01 X65.2024 Y42.7189 
G01 X65.0363 Y42.7877 
G01 X64.8599 Y42.8228 
G01 X64.6801 Y42.8228 
G01 X64.5037 Y42.7877 
G01 X64.3376 Y42.7189 
G01 X64.1881 Y42.6190 
G01 X64.0610 Y42.4919 
G01 X63.9611 Y42.3424 
G01 X63.8923 Y42.1763 
G01 X63.8572 Y41.9999 
G01 X63.8572 Y41.8201 
G01 X63.8923 Y41.6437 
G01 X63.9611 Y41.4776 
G01 X64.0610 Y41.3281 
G01 X64.1881 Y41.2010 
G01 X64.3376 Y41.1011 
G01 X64.5037 Y41.0323 
G01 X64.6801 Y40.9972 
G01 X64.8599 Y40.9972 
G01 X65.0363 Y41.0323 
G01 X65.2024 Y41.1011 
G01 X65.3519 Y41.2010 
G01 X65.4790 Y41.3281 
G01 X65.5789 Y41.4776 
G01 X65.6477 Y41.6437 
G01 X65.6828 Y41.8201 
G00 Z2.0000 
G00 X65.6828 Y39.2801 
G01 Z-0.0250 F254.00 
G01 X65.6828 Y39.4599 F508.00 
G01 X65.6477 Y39.6363 
G01 X65.5789 Y39.8024 
G01 X65.4790 Y39.9519 
G01 X65.3519 Y40.0790 
G01 X65.2024 Y40.1789 
G01 X65.0363 Y40.2477 
G01 X64.8599 Y40.2828 
G01 X64.6801 Y40.2828 
G01 X64.5037 Y40.2477 
G01 X64.3376 Y40.1789 
G01 X64.1881 Y40.0790 
G01 X64.0610 Y39.9519 
G01 X63.9611 Y39.8024 
G01 X63.8923 Y39.6363 
G01 X63.8572 Y39.4599 
G01 X63.8572 Y39.2801 
G01 X63.8923 Y39.1037 
G01 X63.9611 Y38.9376 
G01 X64.0610 Y38.7881 
G01 X64.1881 Y38.6610 
G01 X64.3376 Y38.5611 
G01 X64.5037 Y38.4923 
G01 X64.6801 Y38.4572 
G01 X64.8599 Y38.4572 
G01 X65.0363 Y38.4923 
G01 X65.2024 Y38.5611 
G01 X65.3519 Y38.6610 
G01 X65.4790 Y38.7881 
G01 X65.5789 Y38.9376 
G01 X65.6477 Y39.1037 
G01 X65.6828 Y39.2801 
G00 Z2.0000 
G00 X65.6828 Y36.7401 
G01 Z-0.0250 F254.00 
G01 X65.6828 Y36.9199 F508.00 
G01 X65.6477 Y37.0963 
G01 X65.5789 Y37.2624 
G01 X65.4790 Y37.4119 
G01 X65.3519 Y37.5390 
G01 X65.2024 Y37.6389 
G01 X65.0363 Y37.7077 
G01 X64.8599 Y37.7428 
G01 X64.6801 Y37.7428 
G01 X64.5037 Y37.7077 
G01 X64.3376 Y37.6389 
G01 X64.1881 Y37.5390 
G01 X64.0610 Y37.4119 
G01 X63.9611 Y37.2624 
G01 X63.8923 Y37.0963 
G01 X63.8572 Y36.9199 
G01 X63.8572 Y36.7401 
G01 X63.8923 Y36.5637 
G01 X63.9611 Y36.3976 
G01 X64.0610 Y36.2481 
G01 X64.1881 Y36.1210 
G01 X64.3376 Y36.0211 
G01 X64.5037 Y35.9523 
G01 X64.6801 Y35.9172 
G01 X64.8599 Y35.9172 
G01 X65.0363 Y35.9523 
G01 X65.2024 Y36.0211 
G01 X65.3519 Y36.1210 
G01 X65.4790 Y36.2481 
G01 X65.5789 Y36.3976 
G01 X65.6477 Y36.5637 
G01 X65.6828 Y36.7401 
G00 Z2.0000 
G00 X65.6828 Y34.2001 
G01 Z-0.0250 F254.00 
G01 X65.6828 Y34.3799 F508.00 
G01 X65.6477 Y34.5563 
G01 X65.5789 Y34.7224 
G01 X65.4790 Y34.8719 
G01 X65.3519 Y34.9990 
G01 X65.2024 Y35.0989 
G01 X65.0363 Y35.1677 
G01 X64.8599 Y35.2028 
G01 X64.6801 Y35.2028 
G01 X64.5037 Y35.1677 
G01 X64.3376 Y35.0989 
G01 X64.1881 Y34.9990 
G01 X64.0610 Y34.8719 
G01 X63.9611 Y34.7224 
G01 X63.8923 Y34.5563 
G01 X63.8572 Y34.3799 
G01 X63.8572 Y34.2001 
G01 X63.8923 Y34.0237 
G01 X63.9611 Y33.8576 
G01 X64.0610 Y33.7081 
G01 X64.1881 Y33.5810 
G01 X64.2117 Y33.5652 
G01 X63.2553 Y32.6089 
G01 X63.2173 Y32.6246 
G01 X63.0999 Y32.6480 
G01 X62.9801 Y32.6480 
G01 X62.8627 Y32.6246 
G01 X62.7520 Y32.5788 
G01 X62.6524 Y32.5123 
G01 X62.5677 Y32.4276 
G01 X62.5012 Y32.3280 
G01 X62.4554 Y32.2173 
G01 X62.4320 Y32.0999 
G01 X62.4320 Y31.9801 
G01 X62.4554 Y31.8627 
G01 X62.5012 Y31.7520 
G01 X62.5677 Y31.6524 
G01 X62.6524 Y31.5677 
G01 X62.7520 Y31.5012 
G01 X62.8627 Y31.4554 
G01 X62.9801 Y31.4320 
G01 X63.0999 Y31.4320 
G01 X63.2173 Y31.4554 
G01 X63.3280 Y31.5012 
G01 X63.4276 Y31.5677 
G01 X63.5123 Y31.6524 
G01 X63.5788 Y31.7520 
G01 X63.6246 Y31.8627 
G01 X63.6480 Y31.9801 
G01 X63.6480 Y32.0999 
G01 X63.6246 Y32.2173 
G01 X63.6089 Y32.2553 
G01 X64.6816 Y33.3281 
G01 X64.7308 Y33.3772 
G01 X64.8599 Y33.3772 
G01 X65.0363 Y33.4123 
G01 X65.2024 Y33.4811 
G01 X65.3519 Y33.5810 
G01 X65.4790 Y33.7081 
G01 X65.5789 Y33.8576 
G01 X65.6477 Y34.0237 
G01 X65.6828 Y34.2001 
G00 Z2.0000 
G00 X65.6828 Y31.6601 
G01 Z-0.0250 F254.00 
G01 X65.6828 Y31.8399 F508.00 
G01 X65.6477 Y32.0163 
G01 X65.5789 Y32.1824 
G01 X65.4790 Y32.3319 
G01 X65.3519 Y32.4590 
G01 X65.2024 Y32.5589 
G01 X65.0363 Y32.6277 
G01 X64.8599 Y32.6628 
G01 X64.6801 Y32.6628 
G01 X64.5037 Y32.6277 
G01 X64.3376 Y32.5589 
G01 X64.1881 Y32.4590 
G01 X64.0610 Y32.3319 
G01 X63.9611 Y32.1824 
G01 X63.8923 Y32.0163 
G01 X63.8572 Y31.8399 
G01 X63.8572 Y31.6601 
G01 X63.8923 Y31.4837 
G01 X63.9611 Y31.3176 
G01 X64.0610 Y31.1681 
G01 X64.1881 Y31.0410 
G01 X64.3376 Y30.9411 
G01 X64.5037 Y30.8723 
G01 X64.6801 Y30.8372 
G01 X64.8599 Y30.8372 
G01 X65.0363 Y30.8723 
G01 X65.2024 Y30.9411 
G01 X65.3519 Y31.0410 
G01 X65.4790 Y31.1681 
G01 X65.5789 Y31.3176 
G01 X65.6477 Y31.4837 
G01 X65.6828 Y31.6601 
G00 Z2.0000 
G00 X65.6828 Y29.1201 
G01 Z-0.0250 F254.00 
G01 X65.6828 Y29.2999 F508.00 
G01 X65.6477 Y29.4763 
G01 X65.5789 Y29.6424 
G01 X65.4790 Y29.7919 
G01 X65.3519 Y29.9190 
G01 X65.2024 Y30.0189 
G01 X65.0363 Y30.0877 
G01 X64.8599 Y30.1228 
G01 X64.6801 Y30.1228 
G01 X64.5037 Y30.0877 
G01 X64.3376 Y30.0189 
G01 X64.1881 Y29.9190 
G01 X64.0610 Y29.7919 
G01 X63.9611 Y29.6424 
G01 X63.8923 Y29.4763 
G01 X63.8572 Y29.2999 
G01 X63.8572 Y29.1201 
G01 X63.8923 Y28.9437 
G01 X63.9502 Y28.8038 
G01 X63.5781 Y28.4316 
G01 X63.5400 Y28.3397 
G01 X63.5400 Y19.1436 
G01 X61.5053 Y17.1089 
G01 X61.4673 Y17.1246 
G01 X61.3499 Y17.1480 
G01 X61.2301 Y17.1480 
G01 X61.1127 Y17.1246 
G01 X61.0020 Y17.0788 
G01 X60.9024 Y17.0123 
G01 X60.8177 Y16.9276 
G01 X60.7512 Y16.8280 
G01 X60.7054 Y16.7173 
G01 X60.6820 Y16.5999 
G01 X60.6820 Y16.4801 
G01 X60.7054 Y16.3627 
G01 X60.7512 Y16.2520 
G01 X60.8177 Y16.1524 
G01 X60.9024 Y16.0677 
G01 X61.0020 Y16.0012 
G01 X61.1127 Y15.9554 
G01 X61.2301 Y15.9320 
G01 X61.3499 Y15.9320 
G01 X61.4673 Y15.9554 
G01 X61.5780 Y16.0012 
G01 X61.6776 Y16.0677 
G01 X61.7623 Y16.1524 
G01 X61.8288 Y16.2520 
G01 X61.8746 Y16.3627 
G01 X61.8980 Y16.4801 
G01 X61.8980 Y16.5999 
G01 X61.8746 Y16.7173 
G01 X61.8589 Y16.7553 
G01 X63.9316 Y18.8281 
G01 X64.0019 Y18.8984 
G01 X64.0400 Y18.9903 
G01 X64.0400 Y28.1864 
G01 X64.2879 Y28.4343 
G01 X64.3376 Y28.4011 
G01 X64.5037 Y28.3323 
G01 X64.6801 Y28.2972 
G01 X64.8599 Y28.2972 
G01 X65.0363 Y28.3323 
G01 X65.2024 Y28.4011 
G01 X65.3519 Y28.5010 
G01 X65.4790 Y28.6281 
G01 X65.5789 Y28.7776 
G01 X65.6477 Y28.9437 
G01 X65.6828 Y29.1201 
G00 Z2.0000 
G00 X50.4428 Y29.1201 
G01 Z-0.0250 F254.00 
G01 X50.4428 Y29.2999 F508.00 
G01 X50.4077 Y29.4763 
G01 X50.3389 Y29.6424 
G01 X50.2390 Y29.7919 
G01 X50.1119 Y29.9190 
G01 X49.9624 Y30.0189 
G01 X49.7963 Y30.0877 
G01 X49.6199 Y30.1228 
G01 X49.4401 Y30.1228 
G01 X49.2637 Y30.0877 
G01 X49.0976 Y30.0189 
G01 X48.9481 Y29.9190 
G01 X48.8210 Y29.7919 
G01 X48.7211 Y29.6424 
G01 X48.6523 Y29.4763 
G01 X48.6172 Y29.2999 
G01 X48.6172 Y29.1201 
G01 X48.6523 Y28.9437 
G01 X48.7211 Y28.7776 
G01 X48.8210 Y28.6281 
G01 X48.9481 Y28.5010 
G01 X49.0976 Y28.4011 
G01 X49.2637 Y28.3323 
G01 X49.4401 Y28.2972 
G01 X49.6199 Y28.2972 
G01 X49.7963 Y28.3323 
G01 X49.9624 Y28.4011 
G01 X50.1119 Y28.5010 
G01 X50.2390 Y28.6281 
G01 X50.3389 Y28.7776 
G01 X50.4077 Y28.9437 
G01 X50.4428 Y29.1201 
G00 Z2.0000 
G00 X50.4428 Y31.6601 
G01 Z-0.0250 F254.00 
G01 X50.4428 Y31.8399 F508.00 
G01 X50.4077 Y32.0163 
G01 X50.3389 Y32.1824 
G01 X50.2390 Y32.3319 
G01 X50.1119 Y32.4590 
G01 X49.9624 Y32.5589 
G01 X49.7963 Y32.6277 
G01 X49.6199 Y32.6628 
G01 X49.4401 Y32.6628 
G01 X49.2637 Y32.6277 
G01 X49.0976 Y32.5589 
G01 X48.9481 Y32.4590 
G01 X48.8210 Y32.3319 
G01 X48.7211 Y32.1824 
G01 X48.6523 Y32.0163 
G01 X48.6172 Y31.8399 
G01 X48.6172 Y31.6601 
G01 X48.6523 Y31.4837 
G01 X48.7211 Y31.3176 
G01 X48.8210 Y31.1681 
G01 X48.9481 Y31.0410 
G01 X49.0976 Y30.9411 
G01 X49.2637 Y30.8723 
G01 X49.4401 Y30.8372 
G01 X49.6199 Y30.8372 
G01 X49.7963 Y30.8723 
G01 X49.9624 Y30.9411 
G01 X50.1119 Y31.0410 
G01 X50.2390 Y31.1681 
G01 X50.3389 Y31.3176 
G01 X50.4077 Y31.4837 
G01 X50.4428 Y31.6601 
G00 Z2.0000 
G00 X50.4428 Y34.2001 
G01 Z-0.0250 F254.00 
G01 X50.4428 Y34.3799 F508.00 
G01 X50.4077 Y34.5563 
G01 X50.3389 Y34.7224 
G01 X50.2390 Y34.8719 
G01 X50.1119 Y34.9990 
G01 X49.9624 Y35.0989 
G01 X49.7963 Y35.1677 
G01 X49.6199 Y35.2028 
G01 X49.4401 Y35.2028 
G01 X49.2637 Y35.1677 
G01 X49.0976 Y35.0989 
G01 X48.9481 Y34.9990 
G01 X48.8210 Y34.8719 
G01 X48.7211 Y34.7224 
G01 X48.6523 Y34.5563 
G01 X48.6172 Y34.3799 
G01 X48.6172 Y34.2001 
G01 X48.6523 Y34.0237 
G01 X48.6575 Y34.0111 
G01 X47.5781 Y32.9316 
G01 X47.5400 Y32.8397 
G01 X47.5400 Y14.6436 
G01 X46.5053 Y13.6089 
G01 X46.4673 Y13.6246 
G01 X46.3499 Y13.6480 
G01 X46.2301 Y13.6480 
G01 X46.1127 Y13.6246 
G01 X46.0020 Y13.5788 
G01 X45.9024 Y13.5123 
G01 X45.8177 Y13.4276 
G01 X45.7512 Y13.3280 
G01 X45.7054 Y13.2173 
G01 X45.6820 Y13.0999 
G01 X45.6820 Y12.9801 
G01 X45.7054 Y12.8627 
G01 X45.7512 Y12.7520 
G01 X45.8177 Y12.6524 
G01 X45.9024 Y12.5677 
G01 X46.0020 Y12.5012 
G01 X46.1127 Y12.4554 
G01 X46.2301 Y12.4320 
G01 X46.3499 Y12.4320 
G01 X46.4673 Y12.4554 
G01 X46.5780 Y12.5012 
G01 X46.6776 Y12.5677 
G01 X46.7623 Y12.6524 
G01 X46.8288 Y12.7520 
G01 X46.8746 Y12.8627 
G01 X46.8980 Y12.9801 
G01 X46.8980 Y13.0999 
G01 X46.8746 Y13.2173 
G01 X46.8589 Y13.2553 
G01 X47.9316 Y14.3281 
G01 X48.0019 Y14.3984 
G01 X48.0400 Y14.4903 
G01 X48.0400 Y32.6864 
G01 X48.9413 Y33.5878 
G01 X48.9481 Y33.5810 
G01 X49.0976 Y33.4811 
G01 X49.2637 Y33.4123 
G01 X49.4401 Y33.3772 
G01 X49.6199 Y33.3772 
G01 X49.7963 Y33.4123 
G01 X49.9624 Y33.4811 
G01 X50.1119 Y33.5810 
G01 X50.2390 Y33.7081 
G01 X50.3389 Y33.8576 
G01 X50.4077 Y34.0237 
G01 X50.4428 Y34.2001 
G00 Z2.0000 
G00 X50.4428 Y36.7401 
G01 Z-0.0250 F254.00 
G01 X50.4428 Y36.9199 F508.00 
G01 X50.4077 Y37.0963 
G01 X50.3389 Y37.2624 
G01 X50.2390 Y37.4119 
G01 X50.1119 Y37.5390 
G01 X49.9624 Y37.6389 
G01 X49.7963 Y37.7077 
G01 X49.6199 Y37.7428 
G01 X49.4401 Y37.7428 
G01 X49.2637 Y37.7077 
G01 X49.0976 Y37.6389 
G01 X48.9481 Y37.5390 
G01 X48.8210 Y37.4119 
G01 X48.7211 Y37.2624 
G01 X48.6523 Y37.0963 
G01 X48.6172 Y36.9199 
G01 X48.6172 Y36.7401 
G01 X48.6523 Y36.5637 
G01 X48.7211 Y36.3976 
G01 X48.8210 Y36.2481 
G01 X48.9481 Y36.1210 
G01 X49.0976 Y36.0211 
G01 X49.2637 Y35.9523 
G01 X49.4401 Y35.9172 
G01 X49.6199 Y35.9172 
G01 X49.7963 Y35.9523 
G01 X49.9624 Y36.0211 
G01 X50.1119 Y36.1210 
G01 X50.2390 Y36.2481 
G01 X50.3389 Y36.3976 
G01 X50.4077 Y36.5637 
G01 X50.4428 Y36.7401 
G00 Z2.0000 
G00 X50.4428 Y39.2801 
G01 Z-0.0250 F254.00 
G01 X50.4428 Y39.4599 F508.00 
G01 X50.4077 Y39.6363 
G01 X50.3389 Y39.8024 
G01 X50.2390 Y39.9519 
G01 X50.1119 Y40.0790 
G01 X49.9624 Y40.1789 
G01 X49.7963 Y40.2477 
G01 X49.6199 Y40.2828 
G01 X49.4401 Y40.2828 
G01 X49.2637 Y40.2477 
G01 X49.0976 Y40.1789 
G01 X48.9481 Y40.0790 
G01 X48.8210 Y39.9519 
G01 X48.7211 Y39.8024 
G01 X48.6523 Y39.6363 
G01 X48.6172 Y39.4599 
G01 X48.6172 Y39.2801 
G01 X48.6523 Y39.1037 
G01 X48.7211 Y38.9376 
G01 X48.8210 Y38.7881 
G01 X48.9481 Y38.6610 
G01 X49.0976 Y38.5611 
G01 X49.2637 Y38.4923 
G01 X49.4401 Y38.4572 
G01 X49.6199 Y38.4572 
G01 X49.7963 Y38.4923 
G01 X49.9624 Y38.5611 
G01 X50.1119 Y38.6610 
G01 X50.2390 Y38.7881 
G01 X50.3389 Y38.9376 
G01 X50.4077 Y39.1037 
G01 X50.4428 Y39.2801 
G00 Z2.0000 
G00 X50.4428 Y41.8201 
G01 Z-0.0250 F254.00 
G01 X50.4428 Y41.9999 F508.00 
G01 X50.4077 Y42.1763 
G01 X50.3389 Y42.3424 
G01 X50.2390 Y42.4919 
G01 X50.1119 Y42.6190 
G01 X49.9624 Y42.7189 
G01 X49.7963 Y42.7877 
G01 X49.6199 Y42.8228 
G01 X49.4401 Y42.8228 
G01 X49.2637 Y42.7877 
G01 X49.0976 Y42.7189 
G01 X48.9481 Y42.6190 
G01 X48.8210 Y42.4919 
G01 X48.7211 Y42.3424 
G01 X48.6523 Y42.1763 
G01 X48.6172 Y41.9999 
G01 X48.6172 Y41.8201 
G01 X48.6523 Y41.6437 
G01 X48.7211 Y41.4776 
G01 X48.8210 Y41.3281 
G01 X48.9481 Y41.2010 
G01 X49.0976 Y41.1011 
G01 X49.2637 Y41.0323 
G01 X49.4401 Y40.9972 
G01 X49.6199 Y40.9972 
G01 X49.7963 Y41.0323 
G01 X49.9624 Y41.1011 
G01 X50.1119 Y41.2010 
G01 X50.2390 Y41.3281 
G01 X50.3389 Y41.4776 
G01 X50.4077 Y41.6437 
G01 X50.4428 Y41.8201 
G00 Z2.0000 
G00 X50.4428 Y44.3601 
G01 Z-0.0250 F254.00 
G01 X50.4428 Y44.5399 F508.00 
G01 X50.4077 Y44.7163 
G01 X50.3389 Y44.8824 
G01 X50.2390 Y45.0319 
G01 X50.1119 Y45.1590 
G01 X49.9624 Y45.2589 
G01 X49.7963 Y45.3277 
G01 X49.6199 Y45.3628 
G01 X49.4401 Y45.3628 
G01 X49.2637 Y45.3277 
G01 X49.0976 Y45.2589 
G01 X48.9481 Y45.1590 
G01 X48.8210 Y45.0319 
G01 X48.7211 Y44.8824 
G01 X48.6523 Y44.7163 
G01 X48.6172 Y44.5399 
G01 X48.6172 Y44.3601 
G01 X48.6523 Y44.1837 
G01 X48.7211 Y44.0176 
G01 X48.8210 Y43.8681 
G01 X48.9481 Y43.7410 
G01 X49.0976 Y43.6411 
G01 X49.2637 Y43.5723 
G01 X49.4401 Y43.5372 
G01 X49.6199 Y43.5372 
G01 X49.7963 Y43.5723 
G01 X49.9624 Y43.6411 
G01 X50.1119 Y43.7410 
G01 X50.2390 Y43.8681 
G01 X50.3389 Y44.0176 
G01 X50.4077 Y44.1837 
G01 X50.4428 Y44.3601 
G00 Z2.0000 
G00 X50.4428 Y46.9001 
G01 Z-0.0250 F254.00 
G01 X50.4428 Y47.0400 F508.00 
G01 X52.6400 Y47.0400 
G01 X52.6400 Y46.9401 
G01 X52.6552 Y46.9034 
G01 X52.6834 Y46.8752 
G01 X52.7201 Y46.8600 
G01 X53.9599 Y46.8600 
G01 X53.9966 Y46.8752 
G01 X54.0248 Y46.9034 
G01 X54.0400 Y46.9401 
G01 X54.0400 Y47.7799 
G01 X54.0248 Y47.8166 
G01 X53.9966 Y47.8448 
G01 X53.9599 Y47.8600 
G01 X52.7201 Y47.8600 
G01 X52.6834 Y47.8448 
G01 X52.6552 Y47.8166 
G01 X52.6400 Y47.7799 
G01 X52.6400 Y47.5400 
G01 X50.2603 Y47.5400 
G01 X50.2390 Y47.5719 
G01 X50.1119 Y47.6990 
G01 X49.9624 Y47.7989 
G01 X49.7963 Y47.8677 
G01 X49.6199 Y47.9028 
G01 X49.4401 Y47.9028 
G01 X49.2637 Y47.8677 
G01 X49.0976 Y47.7989 
G01 X48.9481 Y47.6990 
G01 X48.8210 Y47.5719 
G01 X48.7211 Y47.4224 
G01 X48.6523 Y47.2563 
G01 X48.6172 Y47.0799 
G01 X48.6172 Y46.9001 
G01 X48.6523 Y46.7237 
G01 X48.7211 Y46.5576 
G01 X48.8210 Y46.4081 
G01 X48.9481 Y46.2810 
G01 X49.0976 Y46.1811 
G01 X49.2637 Y46.1123 
G01 X49.4401 Y46.0772 
G01 X49.6199 Y46.0772 
G01 X49.7963 Y46.1123 
G01 X49.9624 Y46.1811 
G01 X50.1119 Y46.2810 
G01 X50.2390 Y46.4081 
G01 X50.3389 Y46.5576 
G01 X50.4077 Y46.7237 
G01 X50.4428 Y46.9001 
G00 Z2.0000 
G00 X50.4428 Y51.9801 
G01 Z-0.0250 F254.00 
G01 X50.4428 Y52.1599 F508.00 
G01 X50.4077 Y52.3363 
G01 X50.3389 Y52.5024 
G01 X50.2390 Y52.6519 
G01 X50.1119 Y52.7790 
G01 X49.9624 Y52.8789 
G01 X49.7963 Y52.9477 
G01 X49.6199 Y52.9828 
G01 X49.4401 Y52.9828 
G01 X49.2637 Y52.9477 
G01 X49.0976 Y52.8789 
G01 X48.9481 Y52.7790 
G01 X48.8210 Y52.6519 
G01 X48.7211 Y52.5024 
G01 X48.6523 Y52.3363 
G01 X48.6172 Y52.1599 
G01 X48.6172 Y51.9801 
G01 X48.6523 Y51.8037 
G01 X48.7211 Y51.6376 
G01 X48.8210 Y51.4881 
G01 X48.9481 Y51.3610 
G01 X49.0976 Y51.2611 
G01 X49.2637 Y51.1923 
G01 X49.4401 Y51.1572 
G01 X49.6199 Y51.1572 
G01 X49.7963 Y51.1923 
G01 X49.9624 Y51.2611 
G01 X50.1119 Y51.3610 
G01 X50.2390 Y51.4881 
G01 X50.3389 Y51.6376 
G01 X50.4077 Y51.8037 
G01 X50.4428 Y51.9801 
G00 Z2.0000 
G00 X50.4428 Y54.5201 
G01 Z-0.0250 F254.00 
G01 X50.4428 Y54.6999 F508.00 
G01 X50.4077 Y54.8763 
G01 X50.3389 Y55.0424 
G01 X50.2390 Y55.1919 
G01 X50.1119 Y55.3190 
G01 X49.9624 Y55.4189 
G01 X49.7963 Y55.4877 
G01 X49.6199 Y55.5228 
G01 X49.4401 Y55.5228 
G01 X49.2637 Y55.4877 
G01 X49.0976 Y55.4189 
G01 X48.9481 Y55.3190 
G01 X48.8210 Y55.1919 
G01 X48.7211 Y55.0424 
G01 X48.6523 Y54.8763 
G01 X48.6172 Y54.6999 
G01 X48.6172 Y54.5201 
G01 X48.6523 Y54.3437 
G01 X48.7211 Y54.1776 
G01 X48.8210 Y54.0281 
G01 X48.9481 Y53.9010 
G01 X49.0976 Y53.8011 
G01 X49.2637 Y53.7323 
G01 X49.4401 Y53.6972 
G01 X49.6199 Y53.6972 
G01 X49.7963 Y53.7323 
G01 X49.9624 Y53.8011 
G01 X50.1119 Y53.9010 
G01 X50.2390 Y54.0281 
G01 X50.3389 Y54.1776 
G01 X50.4077 Y54.3437 
G01 X50.4428 Y54.5201 
G00 Z2.0000 
G00 X50.4428 Y57.0601 
G01 Z-0.0250 F254.00 
G01 X50.4428 Y57.2399 F508.00 
G01 X50.4077 Y57.4163 
G01 X50.3389 Y57.5824 
G01 X50.2390 Y57.7319 
G01 X50.1119 Y57.8590 
G01 X49.9624 Y57.9589 
G01 X49.7963 Y58.0277 
G01 X49.6199 Y58.0628 
G01 X49.4401 Y58.0628 
G01 X49.2637 Y58.0277 
G01 X49.0976 Y57.9589 
G01 X48.9481 Y57.8590 
G01 X48.8210 Y57.7319 
G01 X48.7211 Y57.5824 
G01 X48.6523 Y57.4163 
G01 X48.6172 Y57.2399 
G01 X48.6172 Y57.0601 
G01 X48.6523 Y56.8837 
G01 X48.7211 Y56.7176 
G01 X48.8210 Y56.5681 
G01 X48.9481 Y56.4410 
G01 X49.0976 Y56.3411 
G01 X49.2637 Y56.2723 
G01 X49.4401 Y56.2372 
G01 X49.6199 Y56.2372 
G01 X49.7963 Y56.2723 
G01 X49.9624 Y56.3411 
G01 X50.1119 Y56.4410 
G01 X50.2390 Y56.5681 
G01 X50.3389 Y56.7176 
G01 X50.4077 Y56.8837 
G01 X50.4428 Y57.0601 
G00 Z2.0000 
G00 X63.1428 Y45.6301 
G01 Z-0.0250 F254.00 
G01 X63.1428 Y45.8099 F508.00 
G01 X63.1077 Y45.9863 
G01 X63.0389 Y46.1524 
G01 X62.9390 Y46.3019 
G01 X62.8119 Y46.4290 
G01 X62.6624 Y46.5289 
G01 X62.4963 Y46.5977 
G01 X62.3199 Y46.6328 
G01 X62.1401 Y46.6328 
G01 X61.9637 Y46.5977 
G01 X61.7976 Y46.5289 
G01 X61.6481 Y46.4290 
G01 X61.5210 Y46.3019 
G01 X61.4211 Y46.1524 
G01 X61.3523 Y45.9863 
G01 X61.3172 Y45.8099 
G01 X61.3172 Y45.6301 
G01 X61.3523 Y45.4537 
G01 X61.4211 Y45.2876 
G01 X61.5210 Y45.1381 
G01 X61.6481 Y45.0110 
G01 X61.7900 Y44.9162 
G01 X61.7900 Y28.3445 
G01 X61.7520 Y28.3288 
G01 X61.6524 Y28.2623 
G01 X61.5677 Y28.1776 
G01 X61.5012 Y28.0780 
G01 X61.4554 Y27.9673 
G01 X61.4320 Y27.8499 
G01 X61.4320 Y27.7301 
G01 X61.4554 Y27.6127 
G01 X61.5012 Y27.5020 
G01 X61.5677 Y27.4024 
G01 X61.6524 Y27.3177 
G01 X61.7520 Y27.2512 
G01 X61.8627 Y27.2054 
G01 X61.9801 Y27.1820 
G01 X62.0999 Y27.1820 
G01 X62.2173 Y27.2054 
G01 X62.3280 Y27.2512 
G01 X62.4276 Y27.3177 
G01 X62.5123 Y27.4024 
G01 X62.5788 Y27.5020 
G01 X62.6246 Y27.6127 
G01 X62.6480 Y27.7301 
G01 X62.6480 Y27.8499 
G01 X62.6246 Y27.9673 
G01 X62.5788 Y28.0780 
G01 X62.5123 Y28.1776 
G01 X62.4276 Y28.2623 
G01 X62.3280 Y28.3288 
G01 X62.2900 Y28.3445 
G01 X62.2900 Y44.8072 
G01 X62.3199 Y44.8072 
G01 X62.4963 Y44.8423 
G01 X62.6624 Y44.9111 
G01 X62.8119 Y45.0110 
G01 X62.9390 Y45.1381 
G01 X63.0389 Y45.2876 
G01 X63.1077 Y45.4537 
G01 X63.1428 Y45.6301 
G00 Z2.0000 
G00 X63.1428 Y48.1701 
G01 Z-0.0250 F254.00 
G01 X63.1428 Y48.3499 F508.00 
G01 X63.1077 Y48.5263 
G01 X63.0389 Y48.6924 
G01 X62.9390 Y48.8419 
G01 X62.8119 Y48.9690 
G01 X62.6624 Y49.0689 
G01 X62.4963 Y49.1377 
G01 X62.3199 Y49.1728 
G01 X62.1401 Y49.1728 
G01 X61.9637 Y49.1377 
G01 X61.7976 Y49.0689 
G01 X61.6481 Y48.9690 
G01 X61.5210 Y48.8419 
G01 X61.4211 Y48.6924 
G01 X61.3523 Y48.5263 
G01 X61.3172 Y48.3499 
G01 X61.3172 Y48.1701 
G01 X61.3523 Y47.9937 
G01 X61.4211 Y47.8276 
G01 X61.5210 Y47.6781 
G01 X61.6481 Y47.5510 
G01 X61.7976 Y47.4511 
G01 X61.9637 Y47.3823 
G01 X62.1401 Y47.3472 
G01 X62.3199 Y47.3472 
G01 X62.4963 Y47.3823 
G01 X62.6624 Y47.4511 
G01 X62.8119 Y47.5510 
G01 X62.9390 Y47.6781 
G01 X63.0389 Y47.8276 
G01 X63.1077 Y47.9937 
G01 X63.1428 Y48.1701 
G00 Z2.0000 
G00 X66.9427 Y17.4228 
G01 Z-0.0250 F254.00 
G01 X65.1373 Y17.4228 F508.00 
G01 X64.9609 Y17.3877 
G01 X64.7948 Y17.3189 
G01 X64.6453 Y17.2190 
G01 X64.5182 Y17.0919 
G01 X64.4183 Y16.9424 
G01 X64.3495 Y16.7763 
G01 X64.3144 Y16.5999 
G01 X64.3144 Y16.4201 
G01 X64.3495 Y16.2437 
G01 X64.4183 Y16.0776 
G01 X64.5182 Y15.9281 
G01 X64.6453 Y15.8010 
G01 X64.7948 Y15.7011 
G01 X64.9609 Y15.6323 
G01 X65.1373 Y15.5972 
G01 X66.9427 Y15.5972 
G01 X67.1191 Y15.6323 
G01 X67.2852 Y15.7011 
G01 X67.4347 Y15.8010 
G01 X67.5618 Y15.9281 
G01 X67.6617 Y16.0776 
G01 X67.7305 Y16.2437 
G01 X67.7656 Y16.4201 
G01 X67.7656 Y16.5999 
G01 X67.7305 Y16.7763 
G01 X67.6617 Y16.9424 
G01 X67.5618 Y17.0919 
G01 X67.4347 Y17.2190 
G01 X67.2852 Y17.3189 
G01 X67.1191 Y17.3877 
G01 X66.9427 Y17.4228 
G00 Z2.0000 
G00 X66.9427 Y14.8828 
G01 Z-0.0250 F254.00 
G01 X65.1373 Y14.8828 F508.00 
G01 X64.9609 Y14.8477 
G01 X64.7948 Y14.7789 
G01 X64.6453 Y14.6790 
G01 X64.5182 Y14.5519 
G01 X64.4183 Y14.4024 
G01 X64.3717 Y14.2900 
G01 X64.0400 Y14.2900 
G01 X64.0400 Y16.6864 
G01 X65.4908 Y18.1372 
G01 X66.9427 Y18.1372 
G01 X67.1191 Y18.1723 
G01 X67.2852 Y18.2411 
G01 X67.4347 Y18.3410 
G01 X67.5618 Y18.4681 
G01 X67.6617 Y18.6176 
G01 X67.7305 Y18.7837 
G01 X67.7656 Y18.9601 
G01 X67.7656 Y19.1399 
G01 X67.7305 Y19.3163 
G01 X67.6617 Y19.4824 
G01 X67.5618 Y19.6319 
G01 X67.4347 Y19.7590 
G01 X67.2852 Y19.8589 
G01 X67.1191 Y19.9277 
G01 X66.9427 Y19.9628 
G01 X65.1373 Y19.9628 
G01 X64.9609 Y19.9277 
G01 X64.7948 Y19.8589 
G01 X64.6453 Y19.7590 
G01 X64.5182 Y19.6319 
G01 X64.4183 Y19.4824 
G01 X64.3495 Y19.3163 
G01 X64.3144 Y19.1399 
G01 X64.3144 Y18.9601 
G01 X64.3495 Y18.7837 
G01 X64.4183 Y18.6176 
G01 X64.5182 Y18.4681 
G01 X64.6453 Y18.3410 
G01 X64.7948 Y18.2411 
G01 X64.8604 Y18.2139 
G01 X63.5781 Y16.9316 
G01 X63.5400 Y16.8397 
G01 X63.5400 Y13.9903 
G01 X63.5781 Y13.8984 
G01 X63.6484 Y13.8281 
G01 X63.7403 Y13.7900 
G01 X64.3323 Y13.7900 
G01 X64.3495 Y13.7037 
G01 X64.4183 Y13.5376 
G01 X64.5182 Y13.3881 
G01 X64.6453 Y13.2610 
G01 X64.7948 Y13.1611 
G01 X64.9609 Y13.0923 
G01 X65.1373 Y13.0572 
G01 X66.9427 Y13.0572 
G01 X67.1191 Y13.0923 
G01 X67.2852 Y13.1611 
G01 X67.4347 Y13.2610 
G01 X67.5618 Y13.3881 
G01 X67.6617 Y13.5376 
G01 X67.7305 Y13.7037 
G01 X67.7656 Y13.8801 
G01 X67.7656 Y14.0599 
G01 X67.7305 Y14.2363 
G01 X67.6617 Y14.4024 
G01 X67.5618 Y14.5519 
G01 X67.4347 Y14.6790 
G01 X67.2852 Y14.7789 
G01 X67.1191 Y14.8477 
G01 X66.9427 Y14.8828 
G00 Z2.0000 
G00 X9.5600 Y22.4799 
G01 Z-0.0250 F254.00 
G01 X9.5600 Y22.0400 F508.00 
G01 X9.3980 Y22.0400 
G01 X9.3980 Y22.0999 
G01 X9.3746 Y22.2173 
G01 X9.3288 Y22.3280 
G01 X9.2623 Y22.4276 
G01 X9.1776 Y22.5123 
G01 X9.0780 Y22.5788 
G01 X8.9673 Y22.6246 
G01 X8.8499 Y22.6480 
G01 X8.7301 Y22.6480 
G01 X8.6127 Y22.6246 
G01 X8.5020 Y22.5788 
G01 X8.4024 Y22.5123 
G01 X8.3177 Y22.4276 
G01 X8.2512 Y22.3280 
G01 X8.2054 Y22.2173 
G01 X8.1820 Y22.0999 
G01 X8.1820 Y21.9801 
G01 X8.2054 Y21.8627 
G01 X8.2512 Y21.7520 
G01 X8.3177 Y21.6524 
G01 X8.4024 Y21.5677 
G01 X8.5020 Y21.5012 
G01 X8.6127 Y21.4554 
G01 X8.7301 Y21.4320 
G01 X8.8499 Y21.4320 
G01 X8.9673 Y21.4554 
G01 X9.0780 Y21.5012 
G01 X9.1361 Y21.5400 
G01 X9.5600 Y21.5400 
G01 X9.5600 Y21.0401 
G01 X9.5752 Y21.0034 
G01 X9.6034 Y20.9752 
G01 X9.6401 Y20.9600 
G01 X10.6799 Y20.9600 
G01 X10.7166 Y20.9752 
G01 X10.7448 Y21.0034 
G01 X10.7600 Y21.0401 
G01 X10.7600 Y22.4799 
G01 X10.7448 Y22.5166 
G01 X10.7166 Y22.5448 
G01 X10.6799 Y22.5600 
G01 X9.6401 Y22.5600 
G01 X9.6034 Y22.5448 
G01 X9.5752 Y22.5166 
G01 X9.5600 Y22.4799 
G00 Z2.0000 
G00 X17.3800 Y27.3201 
G01 Z-0.0250 F254.00 
G01 X17.3800 Y28.5599 F508.00 
G01 X17.3648 Y28.5966 
G01 X17.3366 Y28.6248 
G01 X17.2999 Y28.6400 
G01 X16.4601 Y28.6400 
G01 X16.4234 Y28.6248 
G01 X16.3952 Y28.5966 
G01 X16.3800 Y28.5599 
G01 X16.3800 Y28.0400 
G01 X11.7403 Y28.0400 
G01 X11.6484 Y28.0019 
G01 X11.5781 Y27.9316 
G01 X11.5400 Y27.8397 
G01 X11.5400 Y24.7600 
G01 X10.5901 Y24.7600 
G01 X10.5534 Y24.7448 
G01 X10.5252 Y24.7166 
G01 X10.5100 Y24.6799 
G01 X10.5100 Y23.2401 
G01 X10.5252 Y23.2034 
G01 X10.5534 Y23.1752 
G01 X10.5901 Y23.1600 
G01 X11.6299 Y23.1600 
G01 X11.6666 Y23.1752 
G01 X11.6948 Y23.2034 
G01 X11.7100 Y23.2401 
G01 X11.7100 Y24.1064 
G01 X12.0019 Y24.3984 
G01 X12.0400 Y24.4903 
G01 X12.0400 Y27.5400 
G01 X16.3800 Y27.5400 
G01 X16.3800 Y27.3201 
G01 X16.3952 Y27.2834 
G01 X16.4234 Y27.2552 
G01 X16.4601 Y27.2400 
G01 X17.2999 Y27.2400 
G01 X17.3366 Y27.2552 
G01 X17.3648 Y27.2834 
G01 X17.3800 Y27.3201 
G00 Z2.0000 
G00 X19.1800 Y27.3201 
G01 Z-0.0250 F254.00 
G01 X19.1800 Y27.5400 F508.00 
G01 X19.9855 Y27.5400 
G01 X20.0012 Y27.5020 
G01 X20.0677 Y27.4024 
G01 X20.1524 Y27.3177 
G01 X20.2520 Y27.2512 
G01 X20.3627 Y27.2054 
G01 X20.4801 Y27.1820 
G01 X20.5999 Y27.1820 
G01 X20.7173 Y27.2054 
G01 X20.8280 Y27.2512 
G01 X20.9276 Y27.3177 
G01 X21.0123 Y27.4024 
G01 X21.0788 Y27.5020 
G01 X21.1246 Y27.6127 
G01 X21.1480 Y27.7301 
G01 X21.1480 Y27.8499 
G01 X21.1246 Y27.9673 
G01 X21.0788 Y28.0780 
G01 X21.0123 Y28.1776 
G01 X20.9276 Y28.2623 
G01 X20.8280 Y28.3288 
G01 X20.7173 Y28.3746 
G01 X20.5999 Y28.3980 
G01 X20.4801 Y28.3980 
G01 X20.3627 Y28.3746 
G01 X20.2520 Y28.3288 
G01 X20.1524 Y28.2623 
G01 X20.0677 Y28.1776 
G01 X20.0012 Y28.0780 
G01 X19.9855 Y28.0400 
G01 X19.1800 Y28.0400 
G01 X19.1800 Y28.5599 
G01 X19.1648 Y28.5966 
G01 X19.1366 Y28.6248 
G01 X19.0999 Y28.6400 
G01 X18.2601 Y28.6400 
G01 X18.2234 Y28.6248 
G01 X18.1952 Y28.5966 
G01 X18.1800 Y28.5599 
G01 X18.1800 Y27.3201 
G01 X18.1952 Y27.2834 
G01 X18.2234 Y27.2552 
G01 X18.2601 Y27.2400 
G01 X19.0999 Y27.2400 
G01 X19.1366 Y27.2552 
G01 X19.1648 Y27.2834 
G01 X19.1800 Y27.3201 
G00 Z2.0000 
G00 X10.5050 Y44.9651 
G01 Z-0.0250 F254.00 
G01 X10.5050 Y46.4749 F508.00 
G01 X10.4898 Y46.5116 
G01 X10.4616 Y46.5398 
G01 X10.4249 Y46.5550 
G01 X9.1151 Y46.5550 
G01 X9.0784 Y46.5398 
G01 X9.0502 Y46.5116 
G01 X9.0350 Y46.4749 
G01 X9.0350 Y44.9651 
G01 X9.0502 Y44.9284 
G01 X9.0625 Y44.9161 
G01 X9.0053 Y44.8589 
G01 X8.9673 Y44.8746 
G01 X8.8499 Y44.8980 
G01 X8.7301 Y44.8980 
G01 X8.6127 Y44.8746 
G01 X8.5020 Y44.8288 
G01 X8.4024 Y44.7623 
G01 X8.3177 Y44.6776 
G01 X8.2512 Y44.5780 
G01 X8.2054 Y44.4673 
G01 X8.1820 Y44.3499 
G01 X8.1820 Y44.2301 
G01 X8.2054 Y44.1127 
G01 X8.2512 Y44.0020 
G01 X8.3177 Y43.9024 
G01 X8.4024 Y43.8177 
G01 X8.5020 Y43.7512 
G01 X8.6127 Y43.7054 
G01 X8.7301 Y43.6820 
G01 X8.8499 Y43.6820 
G01 X8.9673 Y43.7054 
G01 X9.0780 Y43.7512 
G01 X9.1776 Y43.8177 
G01 X9.2623 Y43.9024 
G01 X9.3288 Y44.0020 
G01 X9.3746 Y44.1127 
G01 X9.3980 Y44.2301 
G01 X9.3980 Y44.3499 
G01 X9.3746 Y44.4673 
G01 X9.3589 Y44.5053 
G01 X9.6816 Y44.8281 
G01 X9.7386 Y44.8850 
G01 X10.4249 Y44.8850 
G01 X10.4616 Y44.9002 
G01 X10.4898 Y44.9284 
G01 X10.5050 Y44.9651 
G00 Z2.0000 
G00 X25.7286 Y58.0588 
G01 Z-0.0250 F254.00 
G01 X25.7286 Y58.2224 F508.00 
G01 X25.7030 Y58.3841 
G01 X25.6524 Y58.5397 
G01 X25.5781 Y58.6856 
G01 X25.4819 Y58.8180 
G01 X25.3662 Y58.9337 
G01 X25.2338 Y59.0299 
G01 X25.0879 Y59.1042 
G01 X24.9323 Y59.1548 
G01 X24.7706 Y59.1804 
G01 X24.6070 Y59.1804 
G01 X24.4453 Y59.1548 
G01 X24.2897 Y59.1042 
G01 X24.1438 Y59.0299 
G01 X24.0114 Y58.9337 
G01 X23.8957 Y58.8180 
G01 X23.7995 Y58.6856 
G01 X23.7252 Y58.5397 
G01 X23.6746 Y58.3841 
G01 X23.6490 Y58.2224 
G01 X23.6490 Y58.0588 
G01 X23.6746 Y57.8971 
G01 X23.7252 Y57.7415 
G01 X23.7995 Y57.5956 
G01 X23.8957 Y57.4632 
G01 X24.0114 Y57.3475 
G01 X24.1438 Y57.2513 
G01 X24.2897 Y57.1770 
G01 X24.4453 Y57.1264 
G01 X24.6070 Y57.1008 
G01 X24.7706 Y57.1008 
G01 X24.9323 Y57.1264 
G01 X25.0879 Y57.1770 
G01 X25.2338 Y57.2513 
G01 X25.3662 Y57.3475 
G01 X25.4819 Y57.4632 
G01 X25.5781 Y57.5956 
G01 X25.6524 Y57.7415 
G01 X25.7030 Y57.8971 
G01 X25.7286 Y58.0588 
G00 Z2.0000 
G00 X32.2310 Y58.0588 
G01 Z-0.0250 F254.00 
G01 X32.2310 Y58.2224 F508.00 
G01 X32.2054 Y58.3841 
G01 X32.1548 Y58.5397 
G01 X32.0805 Y58.6856 
G01 X31.9843 Y58.8180 
G01 X31.8686 Y58.9337 
G01 X31.7362 Y59.0299 
G01 X31.5903 Y59.1042 
G01 X31.4347 Y59.1548 
G01 X31.2730 Y59.1804 
G01 X31.1094 Y59.1804 
G01 X30.9477 Y59.1548 
G01 X30.7921 Y59.1042 
G01 X30.6462 Y59.0299 
G01 X30.5138 Y58.9337 
G01 X30.3981 Y58.8180 
G01 X30.3019 Y58.6856 
G01 X30.2276 Y58.5397 
G01 X30.1770 Y58.3841 
G01 X30.1514 Y58.2224 
G01 X30.1514 Y58.0588 
G01 X30.1770 Y57.8971 
G01 X30.2276 Y57.7415 
G01 X30.3019 Y57.5956 
G01 X30.3981 Y57.4632 
G01 X30.5138 Y57.3475 
G01 X30.6462 Y57.2513 
G01 X30.7921 Y57.1770 
G01 X30.9477 Y57.1264 
G01 X31.1094 Y57.1008 
G01 X31.2730 Y57.1008 
G01 X31.4347 Y57.1264 
G01 X31.5903 Y57.1770 
G01 X31.7362 Y57.2513 
G01 X31.8686 Y57.3475 
G01 X31.9843 Y57.4632 
G01 X32.0805 Y57.5956 
G01 X32.1548 Y57.7415 
G01 X32.2054 Y57.8971 
G01 X32.2310 Y58.0588 
G00 Z2.0000 
G00 X25.7286 Y53.5376 
G01 Z-0.0250 F254.00 
G01 X25.7286 Y53.7012 F508.00 
G01 X25.7030 Y53.8629 
G01 X25.6524 Y54.0185 
G01 X25.5781 Y54.1644 
G01 X25.4819 Y54.2968 
G01 X25.3662 Y54.4125 
G01 X25.2338 Y54.5087 
G01 X25.0879 Y54.5830 
G01 X24.9323 Y54.6336 
G01 X24.7706 Y54.6592 
G01 X24.6070 Y54.6592 
G01 X24.4453 Y54.6336 
G01 X24.2897 Y54.5830 
G01 X24.1438 Y54.5087 
G01 X24.0114 Y54.4125 
G01 X23.8957 Y54.2968 
G01 X23.7995 Y54.1644 
G01 X23.7252 Y54.0185 
G01 X23.6746 Y53.8629 
G01 X23.6490 Y53.7012 
G01 X23.6490 Y53.5376 
G01 X23.6746 Y53.3759 
G01 X23.7252 Y53.2203 
G01 X23.7995 Y53.0744 
G01 X23.8957 Y52.9420 
G01 X24.0114 Y52.8263 
G01 X24.1438 Y52.7301 
G01 X24.2897 Y52.6558 
G01 X24.4453 Y52.6052 
G01 X24.5400 Y52.5902 
G01 X24.5400 Y51.7403 
G01 X24.5781 Y51.6484 
G01 X24.6484 Y51.5781 
G01 X24.7403 Y51.5400 
G01 X27.2400 Y51.5400 
G01 X27.2400 Y51.2801 
G01 X27.2552 Y51.2434 
G01 X27.2834 Y51.2152 
G01 X27.3201 Y51.2000 
G01 X28.5599 Y51.2000 
G01 X28.5966 Y51.2152 
G01 X28.6248 Y51.2434 
G01 X28.6400 Y51.2801 
G01 X28.6400 Y52.1199 
G01 X28.6248 Y52.1566 
G01 X28.5966 Y52.1848 
G01 X28.5599 Y52.2000 
G01 X27.3201 Y52.2000 
G01 X27.2834 Y52.1848 
G01 X27.2552 Y52.1566 
G01 X27.2400 Y52.1199 
G01 X27.2400 Y52.0400 
G01 X25.0400 Y52.0400 
G01 X25.0400 Y52.6402 
G01 X25.0879 Y52.6558 
G01 X25.2338 Y52.7301 
G01 X25.3662 Y52.8263 
G01 X25.4819 Y52.9420 
G01 X25.5781 Y53.0744 
G01 X25.6524 Y53.2203 
G01 X25.7030 Y53.3759 
G01 X25.7286 Y53.5376 
G00 Z2.0000 
G00 X32.2310 Y53.5376 
G01 Z-0.0250 F254.00 
G01 X32.2310 Y53.7012 F508.00 
G01 X32.2054 Y53.8629 
G01 X32.1548 Y54.0185 
G01 X32.0805 Y54.1644 
G01 X31.9843 Y54.2968 
G01 X31.8686 Y54.4125 
G01 X31.7362 Y54.5087 
G01 X31.5903 Y54.5830 
G01 X31.4347 Y54.6336 
G01 X31.2730 Y54.6592 
G01 X31.1094 Y54.6592 
G01 X30.9477 Y54.6336 
G01 X30.7921 Y54.5830 
G01 X30.6462 Y54.5087 
G01 X30.5138 Y54.4125 
G01 X30.3981 Y54.2968 
G01 X30.3019 Y54.1644 
G01 X30.2276 Y54.0185 
G01 X30.1770 Y53.8629 
G01 X30.1514 Y53.7012 
G01 X30.1514 Y53.5376 
G01 X30.1770 Y53.3759 
G01 X30.2276 Y53.2203 
G01 X30.3019 Y53.0744 
G01 X30.3981 Y52.9420 
G01 X30.5138 Y52.8263 
G01 X30.6462 Y52.7301 
G01 X30.7921 Y52.6558 
G01 X30.9477 Y52.6052 
G01 X31.1094 Y52.5796 
G01 X31.2730 Y52.5796 
G01 X31.4347 Y52.6052 
G01 X31.5903 Y52.6558 
G01 X31.7362 Y52.7301 
G01 X31.8686 Y52.8263 
G01 X31.9843 Y52.9420 
G01 X32.0805 Y53.0744 
G01 X32.1548 Y53.2203 
G01 X32.2054 Y53.3759 
G01 X32.2310 Y53.5376 
G00 Z2.0000 
G00 X19.9750 Y46.4749 
G01 Z-0.0250 F254.00 
G01 X19.9750 Y44.9651 F508.00 
G01 X19.9902 Y44.9284 
G01 X20.0184 Y44.9002 
G01 X20.0551 Y44.8850 
G01 X21.0914 Y44.8850 
G01 X21.2900 Y44.6864 
G01 X21.2900 Y39.4903 
G01 X21.3281 Y39.3984 
G01 X23.2900 Y37.4364 
G01 X23.2900 Y26.8445 
G01 X23.2520 Y26.8288 
G01 X23.1524 Y26.7623 
G01 X23.0677 Y26.6776 
G01 X23.0012 Y26.5780 
G01 X22.9554 Y26.4673 
G01 X22.9320 Y26.3499 
G01 X22.9320 Y26.2301 
G01 X22.9554 Y26.1127 
G01 X23.0012 Y26.0020 
G01 X23.0677 Y25.9024 
G01 X23.1524 Y25.8177 
G01 X23.2520 Y25.7512 
G01 X23.3627 Y25.7054 
G01 X23.4801 Y25.6820 
G01 X23.5999 Y25.6820 
G01 X23.7173 Y25.7054 
G01 X23.8280 Y25.7512 
G01 X23.9276 Y25.8177 
G01 X24.0123 Y25.9024 
G01 X24.0788 Y26.0020 
G01 X24.1246 Y26.1127 
G01 X24.1480 Y26.2301 
G01 X24.1480 Y26.3499 
G01 X24.1246 Y26.4673 
G01 X24.0788 Y26.5780 
G01 X24.0123 Y26.6776 
G01 X23.9276 Y26.7623 
G01 X23.8280 Y26.8288 
G01 X23.7900 Y26.8445 
G01 X23.7900 Y37.5897 
G01 X23.7519 Y37.6816 
G01 X23.6816 Y37.7519 
G01 X21.7900 Y39.6436 
G01 X21.7900 Y44.8397 
G01 X21.7519 Y44.9316 
G01 X21.6816 Y45.0019 
G01 X21.4450 Y45.2386 
G01 X21.4450 Y46.4749 
G01 X21.4298 Y46.5116 
G01 X21.4016 Y46.5398 
G01 X21.3649 Y46.5550 
G01 X20.0551 Y46.5550 
G01 X20.0184 Y46.5398 
G01 X19.9902 Y46.5116 
G01 X19.9750 Y46.4749 
G00 Z2.0000 
G00 X59.9964 Y6.0385 
G01 Z-0.0250 F254.00 
G01 X59.9964 Y4.1215 F508.00 
G01 X60.0334 Y3.9353 
G01 X60.1061 Y3.7600 
G01 X60.2115 Y3.6021 
G01 X60.3457 Y3.4679 
G01 X60.5036 Y3.3625 
G01 X60.6789 Y3.2898 
G01 X60.8651 Y3.2528 
G01 X61.0549 Y3.2528 
G01 X61.2411 Y3.2898 
G01 X61.4164 Y3.3625 
G01 X61.5743 Y3.4679 
G01 X61.7085 Y3.6021 
G01 X61.8139 Y3.7600 
G01 X61.8866 Y3.9353 
G01 X61.9236 Y4.1215 
G01 X61.9236 Y6.0385 
G01 X61.8866 Y6.2247 
G01 X61.8139 Y6.4000 
G01 X61.7085 Y6.5579 
G01 X61.5743 Y6.6921 
G01 X61.4164 Y6.7975 
G01 X61.2411 Y6.8702 
G01 X61.0549 Y6.9072 
G01 X60.8651 Y6.9072 
G01 X60.6789 Y6.8702 
G01 X60.5036 Y6.7975 
G01 X60.3457 Y6.6921 
G01 X60.2115 Y6.5579 
G01 X60.1061 Y6.4000 
G01 X60.0334 Y6.2247 
G01 X59.9964 Y6.0385 
G00 Z2.0000 
G00 X63.8064 Y6.0385 
G01 Z-0.0250 F254.00 
G01 X63.8064 Y4.1215 F508.00 
G01 X63.8434 Y3.9353 
G01 X63.9161 Y3.7600 
G01 X64.0215 Y3.6021 
G01 X64.1557 Y3.4679 
G01 X64.3136 Y3.3625 
G01 X64.4889 Y3.2898 
G01 X64.6751 Y3.2528 
G01 X64.8649 Y3.2528 
G01 X65.0511 Y3.2898 
G01 X65.2264 Y3.3625 
G01 X65.3843 Y3.4679 
G01 X65.5185 Y3.6021 
G01 X65.6239 Y3.7600 
G01 X65.6966 Y3.9353 
G01 X65.7336 Y4.1215 
G01 X65.7336 Y6.0385 
G01 X65.6966 Y6.2247 
G01 X65.6239 Y6.4000 
G01 X65.5185 Y6.5579 
G01 X65.3843 Y6.6921 
G01 X65.2264 Y6.7975 
G01 X65.0511 Y6.8702 
G01 X64.8649 Y6.9072 
G01 X64.6751 Y6.9072 
G01 X64.4889 Y6.8702 
G01 X64.3136 Y6.7975 
G01 X64.1557 Y6.6921 
G01 X64.0215 Y6.5579 
G01 X63.9161 Y6.4000 
G01 X63.8434 Y6.2247 
G01 X63.8064 Y6.0385 
G00 Z2.0000 
G00 X45.1001 Y56.2800 
G01 Z-0.0250 F254.00 
G01 X46.3399 Y56.2800 F508.00 
G01 X46.3766 Y56.2952 
G01 X46.4048 Y56.3234 
G01 X46.4200 Y56.3601 
G01 X46.4200 Y57.0664 
G01 X46.6816 Y57.3281 
G01 X46.7519 Y57.3984 
G01 X46.7900 Y57.4903 
G01 X46.7900 Y60.2600 
G01 X47.3899 Y60.2600 
G01 X47.4266 Y60.2752 
G01 X47.4548 Y60.3034 
G01 X47.4700 Y60.3401 
G01 X47.4700 Y61.5799 
G01 X47.4548 Y61.6166 
G01 X47.4266 Y61.6448 
G01 X47.3899 Y61.6600 
G01 X46.1501 Y61.6600 
G01 X46.1134 Y61.6448 
G01 X46.0852 Y61.6166 
G01 X46.0700 Y61.5799 
G01 X46.0700 Y60.3401 
G01 X46.0852 Y60.3034 
G01 X46.1134 Y60.2752 
G01 X46.1501 Y60.2600 
G01 X46.2900 Y60.2600 
G01 X46.2900 Y57.6436 
G01 X45.9264 Y57.2800 
G01 X45.1001 Y57.2800 
G01 X45.0634 Y57.2648 
G01 X45.0352 Y57.2366 
G01 X45.0200 Y57.1999 
G01 X45.0200 Y56.3601 
G01 X45.0352 Y56.3234 
G01 X45.0634 Y56.2952 
G01 X45.1001 Y56.2800 
G00 Z2.0000 
G00 X13.6201 Y47.2200 
G01 Z-0.0250 F254.00 
G01 X16.8599 Y47.2200 F508.00 
G01 X16.8966 Y47.2352 
G01 X16.9248 Y47.2634 
G01 X16.9400 Y47.3001 
G01 X16.9400 Y49.1199 
G01 X16.9248 Y49.1566 
G01 X16.8966 Y49.1848 
G01 X16.8599 Y49.2000 
G01 X16.5535 Y49.2000 
G01 X19.1436 Y51.7900 
G01 X20.7900 Y51.7900 
G01 X20.7900 Y51.4958 
G01 X20.7634 Y51.4848 
G01 X20.7352 Y51.4566 
G01 X20.7200 Y51.4199 
G01 X20.7200 Y50.1801 
G01 X20.7352 Y50.1434 
G01 X20.7634 Y50.1152 
G01 X20.8001 Y50.1000 
G01 X21.6264 Y50.1000 
G01 X24.5400 Y47.1864 
G01 X24.5400 Y46.5550 
G01 X24.3551 Y46.5550 
G01 X24.3184 Y46.5398 
G01 X24.2902 Y46.5116 
G01 X24.2750 Y46.4749 
G01 X24.2750 Y44.9651 
G01 X24.2902 Y44.9284 
G01 X24.3184 Y44.9002 
G01 X24.3551 Y44.8850 
G01 X25.6649 Y44.8850 
G01 X25.7016 Y44.9002 
G01 X25.7298 Y44.9284 
G01 X25.7450 Y44.9651 
G01 X25.7450 Y46.4749 
G01 X25.7298 Y46.5116 
G01 X25.7016 Y46.5398 
G01 X25.6649 Y46.5550 
G01 X25.0400 Y46.5550 
G01 X25.0400 Y47.3397 
G01 X25.0019 Y47.4316 
G01 X24.9316 Y47.5019 
G01 X21.7200 Y50.7136 
G01 X21.7200 Y51.4199 
G01 X21.7048 Y51.4566 
G01 X21.6766 Y51.4848 
G01 X21.6399 Y51.5000 
G01 X21.2900 Y51.5000 
G01 X21.2900 Y52.0897 
G01 X21.2519 Y52.1816 
G01 X21.1816 Y52.2519 
G01 X21.0897 Y52.2900 
G01 X18.9903 Y52.2900 
G01 X18.8984 Y52.2519 
G01 X18.8281 Y52.1816 
G01 X15.8464 Y49.2000 
G01 X13.6201 Y49.2000 
G01 X13.5834 Y49.1848 
G01 X13.5552 Y49.1566 
G01 X13.5400 Y49.1199 
G01 X13.5400 Y47.3001 
G01 X13.5552 Y47.2634 
G01 X13.5834 Y47.2352 
G01 X13.6201 Y47.2200 
G00 Z2.0000 
G00 X13.6201 Y42.2400 
G01 Z-0.0250 F254.00 
G01 X14.7900 Y42.2400 F508.00 
G01 X14.7900 Y42.1436 
G01 X13.9071 Y41.2607 
G01 X12.2864 Y41.2607 
G01 X12.2497 Y41.2455 
G01 X12.2215 Y41.2173 
G01 X12.2063 Y41.1806 
G01 X12.2063 Y39.6422 
G01 X12.2215 Y39.6055 
G01 X12.2497 Y39.5773 
G01 X12.2864 Y39.5621 
G01 X14.3328 Y39.5621 
G01 X14.3695 Y39.5773 
G01 X14.3977 Y39.6055 
G01 X14.4129 Y39.6422 
G01 X14.4129 Y41.0593 
G01 X15.1816 Y41.8281 
G01 X15.2519 Y41.8984 
G01 X15.2900 Y41.9903 
G01 X15.2900 Y42.2400 
G01 X16.8599 Y42.2400 
G01 X16.8966 Y42.2552 
G01 X16.9248 Y42.2834 
G01 X16.9400 Y42.3201 
G01 X16.9400 Y44.1399 
G01 X16.9248 Y44.1766 
G01 X16.8966 Y44.2048 
G01 X16.8599 Y44.2200 
G01 X13.6201 Y44.2200 
G01 X13.5834 Y44.2048 
G01 X13.5552 Y44.1766 
G01 X13.5400 Y44.1399 
G01 X13.5400 Y42.3201 
G01 X13.5552 Y42.2834 
G01 X13.5834 Y42.2552 
G01 X13.6201 Y42.2400 
G00 Z2.0000 
G00 X52.9828 Y4.1773 
G01 Z-0.0250 F254.00 
G01 X52.9828 Y5.9827 F508.00 
G01 X52.9477 Y6.1591 
G01 X52.8789 Y6.3252 
G01 X52.7790 Y6.4747 
G01 X52.6519 Y6.6018 
G01 X52.5024 Y6.7017 
G01 X52.3363 Y6.7705 
G01 X52.1599 Y6.8056 
G01 X51.9801 Y6.8056 
G01 X51.8037 Y6.7705 
G01 X51.6376 Y6.7017 
G01 X51.4881 Y6.6018 
G01 X51.3610 Y6.4747 
G01 X51.2611 Y6.3252 
G01 X51.1923 Y6.1591 
G01 X51.1572 Y5.9827 
G01 X51.1572 Y4.1773 
G01 X51.1923 Y4.0009 
G01 X51.2611 Y3.8348 
G01 X51.3610 Y3.6853 
G01 X51.4881 Y3.5582 
G01 X51.6376 Y3.4583 
G01 X51.8037 Y3.3895 
G01 X51.9801 Y3.3544 
G01 X52.1599 Y3.3544 
G01 X52.3363 Y3.3895 
G01 X52.5024 Y3.4583 
G01 X52.6519 Y3.5582 
G01 X52.7790 Y3.6853 
G01 X52.8789 Y3.8348 
G01 X52.9477 Y4.0009 
G01 X52.9828 Y4.1773 
G00 Z2.0000 
G00 X50.4428 Y4.1773 
G01 Z-0.0250 F254.00 
G01 X50.4428 Y5.9827 F508.00 
G01 X50.4077 Y6.1591 
G01 X50.3389 Y6.3252 
G01 X50.2390 Y6.4747 
G01 X50.1119 Y6.6018 
G01 X49.9624 Y6.7017 
G01 X49.7963 Y6.7705 
G01 X49.6199 Y6.8056 
G01 X49.4401 Y6.8056 
G01 X49.2637 Y6.7705 
G01 X49.0976 Y6.7017 
G01 X48.9481 Y6.6018 
G01 X48.8210 Y6.4747 
G01 X48.7211 Y6.3252 
G01 X48.6523 Y6.1591 
G01 X48.6172 Y5.9827 
G01 X48.6172 Y4.1773 
G01 X48.6523 Y4.0009 
G01 X48.7211 Y3.8348 
G01 X48.8210 Y3.6853 
G01 X48.9481 Y3.5582 
G01 X49.0976 Y3.4583 
G01 X49.2637 Y3.3895 
G01 X49.4401 Y3.3544 
G01 X49.6199 Y3.3544 
G01 X49.7963 Y3.3895 
G01 X49.9624 Y3.4583 
G01 X50.1119 Y3.5582 
G01 X50.2390 Y3.6853 
G01 X50.3389 Y3.8348 
G01 X50.4077 Y4.0009 
G01 X50.4428 Y4.1773 
G00 Z2.0000 
G00 X8.0336 Y40.1050 
G01 Z-0.0250 F254.00 
G01 X5.9872 Y40.1050 F508.00 
G01 X5.9505 Y40.0898 
G01 X5.9223 Y40.0616 
G01 X5.9071 Y40.0249 
G01 X5.9071 Y36.1751 
G01 X5.9223 Y36.1384 
G01 X5.9505 Y36.1102 
G01 X5.9872 Y36.0950 
G01 X8.0336 Y36.0950 
G01 X8.0703 Y36.1102 
G01 X8.0985 Y36.1384 
G01 X8.1137 Y36.1751 
G01 X8.1137 Y40.0249 
G01 X8.0985 Y40.0616 
G01 X8.0703 Y40.0898 
G01 X8.0336 Y40.1050 
G00 Z2.0000 
G00 X66.9427 Y22.5028 
G01 Z-0.0250 F254.00 
G01 X66.2900 Y22.5028 F508.00 
G01 X66.2900 Y32.2355 
G01 X66.3280 Y32.2512 
G01 X66.4276 Y32.3177 
G01 X66.5123 Y32.4024 
G01 X66.5788 Y32.5020 
G01 X66.6246 Y32.6127 
G01 X66.6480 Y32.7301 
G01 X66.6480 Y32.8499 
G01 X66.6246 Y32.9673 
G01 X66.5788 Y33.0780 
G01 X66.5123 Y33.1776 
G01 X66.4276 Y33.2623 
G01 X66.3280 Y33.3288 
G01 X66.2173 Y33.3746 
G01 X66.0999 Y33.3980 
G01 X65.9801 Y33.3980 
G01 X65.8627 Y33.3746 
G01 X65.7520 Y33.3288 
G01 X65.6524 Y33.2623 
G01 X65.5677 Y33.1776 
G01 X65.5012 Y33.0780 
G01 X65.4554 Y32.9673 
G01 X65.4320 Y32.8499 
G01 X65.4320 Y32.7301 
G01 X65.4554 Y32.6127 
G01 X65.5012 Y32.5020 
G01 X65.5677 Y32.4024 
G01 X65.6524 Y32.3177 
G01 X65.7520 Y32.2512 
G01 X65.7900 Y32.2355 
G01 X65.7900 Y22.5028 
G01 X65.1373 Y22.5028 
G01 X64.9609 Y22.4677 
G01 X64.7948 Y22.3989 
G01 X64.6453 Y22.2990 
G01 X64.5182 Y22.1719 
G01 X64.4183 Y22.0224 
G01 X64.3495 Y21.8563 
G01 X64.3144 Y21.6799 
G01 X64.3144 Y21.5001 
G01 X64.3495 Y21.3237 
G01 X64.4183 Y21.1576 
G01 X64.5182 Y21.0081 
G01 X64.6453 Y20.8810 
G01 X64.7948 Y20.7811 
G01 X64.9609 Y20.7123 
G01 X65.1373 Y20.6772 
G01 X66.9427 Y20.6772 
G01 X67.1191 Y20.7123 
G01 X67.2852 Y20.7811 
G01 X67.4347 Y20.8810 
G01 X67.5618 Y21.0081 
G01 X67.6617 Y21.1576 
G01 X67.7305 Y21.3237 
G01 X67.7656 Y21.5001 
G01 X67.7656 Y21.6799 
G01 X67.7305 Y21.8563 
G01 X67.6617 Y22.0224 
G01 X67.5618 Y22.1719 
G01 X67.4347 Y22.2990 
G01 X67.2852 Y22.3989 
G01 X67.1191 Y22.4677 
G01 X66.9427 Y22.5028 
G00 Z2.0000 
G00 X28.5400 Y35.9401 
G01 Z-0.0250 F254.00 
G01 X28.5400 Y37.3799 F508.00 
G01 X28.5248 Y37.4166 
G01 X28.4966 Y37.4448 
G01 X28.4599 Y37.4600 
G01 X27.4201 Y37.4600 
G01 X27.3834 Y37.4448 
G01 X27.3552 Y37.4166 
G01 X27.3400 Y37.3799 
G01 X27.3400 Y36.7900 
G01 X25.8445 Y36.7900 
G01 X25.8288 Y36.8280 
G01 X25.7623 Y36.9276 
G01 X25.6776 Y37.0123 
G01 X25.5780 Y37.0788 
G01 X25.4673 Y37.1246 
G01 X25.3499 Y37.1480 
G01 X25.2301 Y37.1480 
G01 X25.1127 Y37.1246 
G01 X25.0020 Y37.0788 
G01 X24.9024 Y37.0123 
G01 X24.8177 Y36.9276 
G01 X24.7512 Y36.8280 
G01 X24.7054 Y36.7173 
G01 X24.6820 Y36.5999 
G01 X24.6820 Y36.4801 
G01 X24.7054 Y36.3627 
G01 X24.7512 Y36.2520 
G01 X24.8177 Y36.1524 
G01 X24.9024 Y36.0677 
G01 X25.0020 Y36.0012 
G01 X25.1127 Y35.9554 
G01 X25.2301 Y35.9320 
G01 X25.3499 Y35.9320 
G01 X25.4673 Y35.9554 
G01 X25.5780 Y36.0012 
G01 X25.6776 Y36.0677 
G01 X25.7623 Y36.1524 
G01 X25.8288 Y36.2520 
G01 X25.8445 Y36.2900 
G01 X27.3400 Y36.2900 
G01 X27.3400 Y35.9401 
G01 X27.3552 Y35.9034 
G01 X27.3834 Y35.8752 
G01 X27.4201 Y35.8600 
G01 X28.4599 Y35.8600 
G01 X28.4966 Y35.8752 
G01 X28.5248 Y35.9034 
G01 X28.5400 Y35.9401 
G00 Z2.0000 
G00 X24.7801 Y28.3400 
G01 Z-0.0250 F254.00 
G01 X26.0199 Y28.3400 F508.00 
G01 X26.0566 Y28.3552 
G01 X26.0848 Y28.3834 
G01 X26.1000 Y28.4201 
G01 X26.1000 Y29.2464 
G01 X26.9316 Y30.0781 
G01 X27.0019 Y30.1484 
G01 X27.0400 Y30.2403 
G01 X27.0400 Y33.6600 
G01 X27.5099 Y33.6600 
G01 X27.5466 Y33.6752 
G01 X27.5748 Y33.7034 
G01 X27.5900 Y33.7401 
G01 X27.5900 Y35.1799 
G01 X27.5748 Y35.2166 
G01 X27.5466 Y35.2448 
G01 X27.5099 Y35.2600 
G01 X26.4701 Y35.2600 
G01 X26.4334 Y35.2448 
G01 X26.4052 Y35.2166 
G01 X26.3900 Y35.1799 
G01 X26.3900 Y33.7401 
G01 X26.4052 Y33.7034 
G01 X26.4334 Y33.6752 
G01 X26.4701 Y33.6600 
G01 X26.5400 Y33.6600 
G01 X26.5400 Y30.3936 
G01 X25.4864 Y29.3400 
G01 X24.7801 Y29.3400 
G01 X24.7434 Y29.3248 
G01 X24.7152 Y29.2966 
G01 X24.7000 Y29.2599 
G01 X24.7000 Y28.4201 
G01 X24.7152 Y28.3834 
G01 X24.7434 Y28.3552 
G01 X24.7801 Y28.3400 
G00 Z2.0000 
G00 X24.7801 Y26.5400 
G01 Z-0.0250 F254.00 
G01 X26.0199 Y26.5400 F508.00 
G01 X26.0566 Y26.5552 
G01 X26.0848 Y26.5834 
G01 X26.1000 Y26.6201 
G01 X26.1000 Y27.2464 
G01 X31.9316 Y33.0781 
G01 X32.0019 Y33.1484 
G01 X32.0400 Y33.2403 
G01 X32.0400 Y40.7355 
G01 X32.0780 Y40.7512 
G01 X32.1776 Y40.8177 
G01 X32.2623 Y40.9024 
G01 X32.3288 Y41.0020 
G01 X32.3746 Y41.1127 
G01 X32.3980 Y41.2301 
G01 X32.3980 Y41.3499 
G01 X32.3746 Y41.4673 
G01 X32.3288 Y41.5780 
G01 X32.2623 Y41.6776 
G01 X32.1776 Y41.7623 
G01 X32.0780 Y41.8288 
G01 X31.9673 Y41.8746 
G01 X31.8499 Y41.8980 
G01 X31.7301 Y41.8980 
G01 X31.6127 Y41.8746 
G01 X31.5020 Y41.8288 
G01 X31.4024 Y41.7623 
G01 X31.3177 Y41.6776 
G01 X31.2512 Y41.5780 
G01 X31.2054 Y41.4673 
G01 X31.1820 Y41.3499 
G01 X31.1820 Y41.2301 
G01 X31.2054 Y41.1127 
G01 X31.2512 Y41.0020 
G01 X31.3177 Y40.9024 
G01 X31.4024 Y40.8177 
G01 X31.5020 Y40.7512 
G01 X31.5400 Y40.7355 
G01 X31.5400 Y33.3936 
G01 X25.6864 Y27.5400 
G01 X24.7801 Y27.5400 
G01 X24.7434 Y27.5248 
G01 X24.7152 Y27.4966 
G01 X24.7000 Y27.4599 
G01 X24.7000 Y26.6201 
G01 X24.7152 Y26.5834 
G01 X24.7434 Y26.5552 
G01 X24.7801 Y26.5400 
G00 Z2.0000 
G00 X13.0450 Y29.7251 
G01 Z-0.0250 F254.00 
G01 X13.0450 Y30.6914 F508.00 
G01 X16.5747 Y34.2211 
G01 X16.6127 Y34.2054 
G01 X16.7301 Y34.1820 
G01 X16.8499 Y34.1820 
G01 X16.9673 Y34.2054 
G01 X17.0780 Y34.2512 
G01 X17.1776 Y34.3177 
G01 X17.2623 Y34.4024 
G01 X17.3288 Y34.5020 
G01 X17.3746 Y34.6127 
G01 X17.3980 Y34.7301 
G01 X17.3980 Y34.8499 
G01 X17.3746 Y34.9673 
G01 X17.3288 Y35.0780 
G01 X17.2623 Y35.1776 
G01 X17.1776 Y35.2623 
G01 X17.0780 Y35.3288 
G01 X16.9673 Y35.3746 
G01 X16.8499 Y35.3980 
G01 X16.7301 Y35.3980 
G01 X16.6127 Y35.3746 
G01 X16.5020 Y35.3288 
G01 X16.4024 Y35.2623 
G01 X16.3177 Y35.1776 
G01 X16.2512 Y35.0780 
G01 X16.2054 Y34.9673 
G01 X16.1820 Y34.8499 
G01 X16.1820 Y34.7301 
G01 X16.2054 Y34.6127 
G01 X16.2211 Y34.5747 
G01 X12.9614 Y31.3150 
G01 X11.6551 Y31.3150 
G01 X11.6184 Y31.2998 
G01 X11.5902 Y31.2716 
G01 X11.5750 Y31.2349 
G01 X11.5750 Y29.7251 
G01 X11.5902 Y29.6884 
G01 X11.6184 Y29.6602 
G01 X11.6551 Y29.6450 
G01 X12.9649 Y29.6450 
G01 X13.0016 Y29.6602 
G01 X13.0298 Y29.6884 
G01 X13.0450 Y29.7251 
G00 Z2.0000 
G00 X7.2750 Y31.2349 
G01 Z-0.0250 F254.00 
G01 X7.2750 Y29.7251 F508.00 
G01 X7.2902 Y29.6884 
G01 X7.3184 Y29.6602 
G01 X7.3551 Y29.6450 
G01 X8.6649 Y29.6450 
G01 X8.7016 Y29.6602 
G01 X8.7298 Y29.6884 
G01 X8.7450 Y29.7251 
G01 X8.7450 Y30.8914 
G01 X10.4316 Y32.5781 
G01 X10.5019 Y32.6484 
G01 X10.5400 Y32.7403 
G01 X10.5400 Y40.1865 
G01 X12.2063 Y38.5201 
G01 X12.2063 Y37.3562 
G01 X12.2215 Y37.3195 
G01 X12.2497 Y37.2913 
G01 X12.2864 Y37.2761 
G01 X14.3328 Y37.2761 
G01 X14.3695 Y37.2913 
G01 X14.3977 Y37.3195 
G01 X14.4129 Y37.3562 
G01 X14.4129 Y38.8946 
G01 X14.3977 Y38.9313 
G01 X14.3695 Y38.9595 
G01 X14.3328 Y38.9747 
G01 X12.4588 Y38.9747 
G01 X10.5019 Y40.9316 
G01 X10.4316 Y41.0019 
G01 X6.2050 Y45.2286 
G01 X6.2050 Y46.4749 
G01 X6.1898 Y46.5116 
G01 X6.1616 Y46.5398 
G01 X6.1249 Y46.5550 
G01 X6.0400 Y46.5550 
G01 X6.0400 Y55.7900 
G01 X12.3397 Y55.7900 
G01 X12.4316 Y55.8281 
G01 X12.5019 Y55.8984 
G01 X13.9091 Y57.3056 
G01 X13.9838 Y57.2513 
G01 X14.1297 Y57.1770 
G01 X14.2853 Y57.1264 
G01 X14.4470 Y57.1008 
G01 X14.6106 Y57.1008 
G01 X14.7723 Y57.1264 
G01 X14.9279 Y57.1770 
G01 X15.0738 Y57.2513 
G01 X15.2062 Y57.3475 
G01 X15.3219 Y57.4632 
G01 X15.4181 Y57.5956 
G01 X15.4924 Y57.7415 
G01 X15.5430 Y57.8971 
G01 X15.5686 Y58.0588 
G01 X15.5686 Y58.2224 
G01 X15.5430 Y58.3841 
G01 X15.4924 Y58.5397 
G01 X15.4181 Y58.6856 
G01 X15.3219 Y58.8180 
G01 X15.2062 Y58.9337 
G01 X15.0738 Y59.0299 
G01 X14.9279 Y59.1042 
G01 X14.7723 Y59.1548 
G01 X14.6106 Y59.1804 
G01 X14.4470 Y59.1804 
G01 X14.2853 Y59.1548 
G01 X14.1297 Y59.1042 
G01 X13.9838 Y59.0299 
G01 X13.8514 Y58.9337 
G01 X13.7357 Y58.8180 
G01 X13.6395 Y58.6856 
G01 X13.5652 Y58.5397 
G01 X13.5146 Y58.3841 
G01 X13.4890 Y58.2224 
G01 X13.4890 Y58.0588 
G01 X13.5146 Y57.8971 
G01 X13.5652 Y57.7415 
G01 X13.5897 Y57.6933 
G01 X12.1864 Y56.2900 
G01 X6.0400 Y56.2900 
G01 X6.0400 Y56.8397 
G01 X6.0019 Y56.9316 
G01 X5.9316 Y57.0019 
G01 X5.2851 Y57.6485 
G01 X5.3324 Y57.7415 
G01 X5.3830 Y57.8971 
G01 X5.4086 Y58.0588 
G01 X5.4086 Y58.2224 
G01 X5.3830 Y58.3841 
G01 X5.3324 Y58.5397 
G01 X5.2581 Y58.6856 
G01 X5.1619 Y58.8180 
G01 X5.0462 Y58.9337 
G01 X4.9138 Y59.0299 
G01 X4.7679 Y59.1042 
G01 X4.6123 Y59.1548 
G01 X4.4506 Y59.1804 
G01 X4.2870 Y59.1804 
G01 X4.1253 Y59.1548 
G01 X3.9697 Y59.1042 
G01 X3.8238 Y59.0299 
G01 X3.6914 Y58.9337 
G01 X3.5757 Y58.8180 
G01 X3.4795 Y58.6856 
G01 X3.4052 Y58.5397 
G01 X3.3546 Y58.3841 
G01 X3.3290 Y58.2224 
G01 X3.3290 Y58.0588 
G01 X3.3546 Y57.8971 
G01 X3.4052 Y57.7415 
G01 X3.4795 Y57.5956 
G01 X3.5757 Y57.4632 
G01 X3.6914 Y57.3475 
G01 X3.8238 Y57.2513 
G01 X3.9697 Y57.1770 
G01 X4.1253 Y57.1264 
G01 X4.2870 Y57.1008 
G01 X4.4506 Y57.1008 
G01 X4.6123 Y57.1264 
G01 X4.7679 Y57.1770 
G01 X4.9138 Y57.2513 
G01 X4.9493 Y57.2771 
G01 X5.5400 Y56.6864 
G01 X5.5400 Y46.5550 
G01 X4.8151 Y46.5550 
G01 X4.7784 Y46.5398 
G01 X4.7502 Y46.5116 
G01 X4.7350 Y46.4749 
G01 X4.7350 Y44.9651 
G01 X4.7502 Y44.9284 
G01 X4.7784 Y44.9002 
G01 X4.8151 Y44.8850 
G01 X5.8414 Y44.8850 
G01 X10.0400 Y40.6864 
G01 X10.0400 Y32.8936 
G01 X8.4614 Y31.3150 
G01 X7.3551 Y31.3150 
G01 X7.3184 Y31.2998 
G01 X7.2902 Y31.2716 
G01 X7.2750 Y31.2349 
G00 Z2.0000 
G00 X49.9000 Y20.2412 
G01 Z-0.0250 F254.00 
G01 X49.9000 Y20.3988 F508.00 
G01 X49.8693 Y20.5534 
G01 X49.8089 Y20.6989 
G01 X49.7214 Y20.8300 
G01 X49.6100 Y20.9414 
G01 X49.4789 Y21.0289 
G01 X49.3334 Y21.0893 
G01 X49.1788 Y21.1200 
G01 X49.0212 Y21.1200 
G01 X48.8666 Y21.0893 
G01 X48.7211 Y21.0289 
G01 X48.5900 Y20.9414 
G01 X48.4786 Y20.8300 
G01 X48.3910 Y20.6989 
G01 X48.3307 Y20.5534 
G01 X48.3000 Y20.3988 
G01 X48.3000 Y20.2412 
G01 X48.3307 Y20.0866 
G01 X48.3910 Y19.9411 
G01 X48.4786 Y19.8100 
G01 X48.5900 Y19.6986 
G01 X48.7211 Y19.6111 
G01 X48.8666 Y19.5507 
G01 X49.0212 Y19.5200 
G01 X49.1788 Y19.5200 
G01 X49.3334 Y19.5507 
G01 X49.4789 Y19.6111 
G01 X49.6100 Y19.6986 
G01 X49.7214 Y19.8100 
G01 X49.8089 Y19.9411 
G01 X49.8693 Y20.0866 
G01 X49.9000 Y20.2412 
G00 Z2.0000 
G00 X5.4800 Y20.9399 
G01 Z-0.0250 F254.00 
G01 X5.4800 Y19.7001 F508.00 
G01 X5.4952 Y19.6634 
G01 X5.5234 Y19.6352 
G01 X5.5601 Y19.6200 
G01 X6.3999 Y19.6200 
G01 X6.4366 Y19.6352 
G01 X6.4648 Y19.6634 
G01 X6.4800 Y19.7001 
G01 X6.4800 Y20.0400 
G01 X12.9855 Y20.0400 
G01 X13.0012 Y20.0020 
G01 X13.0677 Y19.9024 
G01 X13.1524 Y19.8177 
G01 X13.2520 Y19.7512 
G01 X13.3627 Y19.7054 
G01 X13.4801 Y19.6820 
G01 X13.5999 Y19.6820 
G01 X13.7173 Y19.7054 
G01 X13.8280 Y19.7512 
G01 X13.9276 Y19.8177 
G01 X14.0123 Y19.9024 
G01 X14.0788 Y20.0020 
G01 X14.1246 Y20.1127 
G01 X14.1480 Y20.2301 
G01 X14.1480 Y20.3499 
G01 X14.1246 Y20.4673 
G01 X14.0788 Y20.5780 
G01 X14.0123 Y20.6776 
G01 X13.9276 Y20.7623 
G01 X13.8280 Y20.8288 
G01 X13.7173 Y20.8746 
G01 X13.5999 Y20.8980 
G01 X13.4801 Y20.8980 
G01 X13.3627 Y20.8746 
G01 X13.2520 Y20.8288 
G01 X13.1524 Y20.7623 
G01 X13.0677 Y20.6776 
G01 X13.0012 Y20.5780 
G01 X12.9855 Y20.5400 
G01 X6.4800 Y20.5400 
G01 X6.4800 Y20.9399 
G01 X6.4648 Y20.9766 
G01 X6.4366 Y21.0048 
G01 X6.3999 Y21.0200 
G01 X5.5601 Y21.0200 
G01 X5.5234 Y21.0048 
G01 X5.4952 Y20.9766 
G01 X5.4800 Y20.9399 
G00 Z2.0000 
G00 X5.4800 Y15.8599 
G01 Z-0.0250 F254.00 
G01 X5.4800 Y14.6201 F508.00 
G01 X5.4952 Y14.5834 
G01 X5.5234 Y14.5552 
G01 X5.5601 Y14.5400 
G01 X6.3999 Y14.5400 
G01 X6.4366 Y14.5552 
G01 X6.4648 Y14.5834 
G01 X6.4800 Y14.6201 
G01 X6.4800 Y14.7900 
G01 X9.7355 Y14.7900 
G01 X9.7512 Y14.7520 
G01 X9.8177 Y14.6524 
G01 X9.9024 Y14.5677 
G01 X10.0020 Y14.5012 
G01 X10.1127 Y14.4554 
G01 X10.2301 Y14.4320 
G01 X10.3499 Y14.4320 
G01 X10.4673 Y14.4554 
G01 X10.5780 Y14.5012 
G01 X10.6776 Y14.5677 
G01 X10.7623 Y14.6524 
G01 X10.8288 Y14.7520 
G01 X10.8746 Y14.8627 
G01 X10.8980 Y14.9801 
G01 X10.8980 Y15.0999 
G01 X10.8746 Y15.2173 
G01 X10.8288 Y15.3280 
G01 X10.7623 Y15.4276 
G01 X10.6776 Y15.5123 
G01 X10.5780 Y15.5788 
G01 X10.4673 Y15.6246 
G01 X10.3499 Y15.6480 
G01 X10.2301 Y15.6480 
G01 X10.1127 Y15.6246 
G01 X10.0020 Y15.5788 
G01 X9.9024 Y15.5123 
G01 X9.8177 Y15.4276 
G01 X9.7512 Y15.3280 
G01 X9.7355 Y15.2900 
G01 X6.4800 Y15.2900 
G01 X6.4800 Y15.8599 
G01 X6.4648 Y15.8966 
G01 X6.4366 Y15.9248 
G01 X6.3999 Y15.9400 
G01 X5.5601 Y15.9400 
G01 X5.5234 Y15.9248 
G01 X5.4952 Y15.8966 
G01 X5.4800 Y15.8599 
G00 Z2.0000 
G00 X66.9427 Y12.3428 
G01 Z-0.0250 F254.00 
G01 X65.1373 Y12.3428 F508.00 
G01 X64.9609 Y12.3077 
G01 X64.7948 Y12.2389 
G01 X64.6453 Y12.1390 
G01 X64.5182 Y12.0119 
G01 X64.4183 Y11.8624 
G01 X64.3495 Y11.6963 
G01 X64.3144 Y11.5199 
G01 X64.3144 Y11.3401 
G01 X64.3495 Y11.1637 
G01 X64.4183 Y10.9976 
G01 X64.5182 Y10.8481 
G01 X64.6453 Y10.7210 
G01 X64.7948 Y10.6211 
G01 X64.9609 Y10.5523 
G01 X65.1373 Y10.5172 
G01 X66.9427 Y10.5172 
G01 X67.1191 Y10.5523 
G01 X67.2852 Y10.6211 
G01 X67.4347 Y10.7210 
G01 X67.5618 Y10.8481 
G01 X67.6617 Y10.9976 
G01 X67.7305 Y11.1637 
G01 X67.7656 Y11.3401 
G01 X67.7656 Y11.5199 
G01 X67.7305 Y11.6963 
G01 X67.6617 Y11.8624 
G01 X67.5618 Y12.0119 
G01 X67.4347 Y12.1390 
G01 X67.2852 Y12.2389 
G01 X67.1191 Y12.3077 
G01 X66.9427 Y12.3428 
G00 Z2.0000 
G00 X66.9427 Y9.8028 
G01 Z-0.0250 F254.00 
G01 X65.1373 Y9.8028 F508.00 
G01 X64.9609 Y9.7677 
G01 X64.7948 Y9.6989 
G01 X64.6453 Y9.5990 
G01 X64.5182 Y9.4719 
G01 X64.4183 Y9.3224 
G01 X64.3495 Y9.1563 
G01 X64.3144 Y8.9799 
G01 X64.3144 Y8.8001 
G01 X64.3495 Y8.6237 
G01 X64.4183 Y8.4576 
G01 X64.5182 Y8.3081 
G01 X64.6453 Y8.1810 
G01 X64.7948 Y8.0811 
G01 X64.9609 Y8.0123 
G01 X65.1373 Y7.9772 
G01 X66.9427 Y7.9772 
G01 X67.1191 Y8.0123 
G01 X67.2852 Y8.0811 
G01 X67.4347 Y8.1810 
G01 X67.5618 Y8.3081 
G01 X67.6617 Y8.4576 
G01 X67.7305 Y8.6237 
G01 X67.7656 Y8.8001 
G01 X67.7656 Y8.9799 
G01 X67.7305 Y9.1563 
G01 X67.6617 Y9.3224 
G01 X67.5618 Y9.4719 
G01 X67.4347 Y9.5990 
G01 X67.2852 Y9.6989 
G01 X67.1191 Y9.7677 
G01 X66.9427 Y9.8028 
G00 Z2.0000 
G00 X54.9672 Y13.6027 
G01 Z-0.0250 F254.00 
G01 X54.9672 Y11.7973 F508.00 
G01 X55.0023 Y11.6209 
G01 X55.0711 Y11.4548 
G01 X55.1710 Y11.3053 
G01 X55.2981 Y11.1782 
G01 X55.4476 Y11.0783 
G01 X55.6137 Y11.0095 
G01 X55.7901 Y10.9744 
G01 X55.9699 Y10.9744 
G01 X56.1463 Y11.0095 
G01 X56.3124 Y11.0783 
G01 X56.4619 Y11.1782 
G01 X56.5890 Y11.3053 
G01 X56.6889 Y11.4548 
G01 X56.7577 Y11.6209 
G01 X56.7928 Y11.7973 
G01 X56.7928 Y13.6027 
G01 X56.7577 Y13.7791 
G01 X56.6889 Y13.9452 
G01 X56.5890 Y14.0947 
G01 X56.4619 Y14.2218 
G01 X56.3124 Y14.3217 
G01 X56.1463 Y14.3905 
G01 X55.9699 Y14.4256 
G01 X55.7901 Y14.4256 
G01 X55.6137 Y14.3905 
G01 X55.4476 Y14.3217 
G01 X55.2981 Y14.2218 
G01 X55.1710 Y14.0947 
G01 X55.0711 Y13.9452 
G01 X55.0023 Y13.7791 
G01 X54.9672 Y13.6027 
G00 Z2.0000 
G00 X60.0472 Y13.6027 
G01 Z-0.0250 F254.00 
G01 X60.0472 Y11.7973 F508.00 
G01 X60.0823 Y11.6209 
G01 X60.1511 Y11.4548 
G01 X60.2510 Y11.3053 
G01 X60.3781 Y11.1782 
G01 X60.5276 Y11.0783 
G01 X60.6937 Y11.0095 
G01 X60.8701 Y10.9744 
G01 X61.0499 Y10.9744 
G01 X61.2263 Y11.0095 
G01 X61.3924 Y11.0783 
G01 X61.5419 Y11.1782 
G01 X61.6690 Y11.3053 
G01 X61.7689 Y11.4548 
G01 X61.8377 Y11.6209 
G01 X61.8728 Y11.7973 
G01 X61.8728 Y13.6027 
G01 X61.8377 Y13.7791 
G01 X61.7689 Y13.9452 
G01 X61.6690 Y14.0947 
G01 X61.5419 Y14.2218 
G01 X61.3924 Y14.3217 
G01 X61.2263 Y14.3905 
G01 X61.0499 Y14.4256 
G01 X60.8701 Y14.4256 
G01 X60.6937 Y14.3905 
G01 X60.5276 Y14.3217 
G01 X60.3781 Y14.2218 
G01 X60.2510 Y14.0947 
G01 X60.1511 Y13.9452 
G01 X60.0823 Y13.7791 
G01 X60.0472 Y13.6027 
G00 Z2.0000 
G00 X13.1588 Y8.4111 
G01 Z-0.0250 F254.00 
G01 X13.1588 Y6.8289 F508.00 
G01 X13.1900 Y6.6722 
G01 X13.2511 Y6.5246 
G01 X13.3399 Y6.3917 
G01 X13.4529 Y6.2787 
G01 X13.5858 Y6.1899 
G01 X13.7334 Y6.1288 
G01 X13.8901 Y6.0976 
G01 X14.0499 Y6.0976 
G01 X14.2066 Y6.1288 
G01 X14.3542 Y6.1899 
G01 X14.4871 Y6.2787 
G01 X14.6001 Y6.3917 
G01 X14.6889 Y6.5246 
G01 X14.7500 Y6.6722 
G01 X14.7812 Y6.8289 
G01 X14.7812 Y8.4111 
G01 X14.7500 Y8.5678 
G01 X14.6889 Y8.7154 
G01 X14.6001 Y8.8483 
G01 X14.4871 Y8.9613 
G01 X14.3542 Y9.0501 
G01 X14.2066 Y9.1112 
G01 X14.0499 Y9.1424 
G01 X13.8901 Y9.1424 
G01 X13.7334 Y9.1112 
G01 X13.5858 Y9.0501 
G01 X13.4529 Y8.9613 
G01 X13.3399 Y8.8483 
G01 X13.2511 Y8.7154 
G01 X13.1900 Y8.5678 
G01 X13.1588 Y8.4111 
G00 Z2.0000 
G00 X15.6988 Y8.4111 
G01 Z-0.0250 F254.00 
G01 X15.6988 Y6.8289 F508.00 
G01 X15.7300 Y6.6722 
G01 X15.7911 Y6.5246 
G01 X15.8799 Y6.3917 
G01 X15.9929 Y6.2787 
G01 X16.1258 Y6.1899 
G01 X16.2734 Y6.1288 
G01 X16.4301 Y6.0976 
G01 X16.5899 Y6.0976 
G01 X16.7466 Y6.1288 
G01 X16.8942 Y6.1899 
G01 X17.0271 Y6.2787 
G01 X17.1401 Y6.3917 
G01 X17.2289 Y6.5246 
G01 X17.2900 Y6.6722 
G01 X17.3212 Y6.8289 
G01 X17.3212 Y8.4111 
G01 X17.2900 Y8.5678 
G01 X17.2289 Y8.7154 
G01 X17.1401 Y8.8483 
G01 X17.0271 Y8.9613 
G01 X16.8942 Y9.0501 
G01 X16.7466 Y9.1112 
G01 X16.5899 Y9.1424 
G01 X16.4301 Y9.1424 
G01 X16.2734 Y9.1112 
G01 X16.1258 Y9.0501 
G01 X15.9929 Y8.9613 
G01 X15.8799 Y8.8483 
G01 X15.7911 Y8.7154 
G01 X15.7300 Y8.5678 
G01 X15.6988 Y8.4111 
G00 Z2.0000 
G00 X18.2388 Y6.8289 
G01 Z-0.0250 F254.00 
G01 X18.2700 Y6.6722 F508.00 
G01 X18.3311 Y6.5246 
G01 X18.4199 Y6.3917 
G01 X18.5329 Y6.2787 
G01 X18.6657 Y6.1899 
G01 X18.8134 Y6.1288 
G01 X18.9701 Y6.0976 
G01 X19.1299 Y6.0976 
G01 X19.2866 Y6.1288 
G01 X19.4342 Y6.1899 
G01 X19.5671 Y6.2787 
G01 X19.6801 Y6.3917 
G01 X19.7689 Y6.5246 
G01 X19.8300 Y6.6722 
G01 X19.8612 Y6.8289 
G01 X19.8612 Y8.4111 
G01 X19.8300 Y8.5678 
G01 X19.7689 Y8.7154 
G01 X19.6801 Y8.8483 
G01 X19.5671 Y8.9613 
G01 X19.4342 Y9.0501 
G01 X19.2866 Y9.1112 
G01 X19.1299 Y9.1424 
G01 X18.9701 Y9.1424 
G01 X18.8134 Y9.1112 
G01 X18.6657 Y9.0501 
G01 X18.5329 Y8.9613 
G01 X18.4199 Y8.8483 
G01 X18.3860 Y8.7976 
G01 X16.7900 Y10.3936 
G01 X16.7900 Y19.6864 
G01 X17.1436 Y20.0400 
G01 X21.8397 Y20.0400 
G01 X21.9316 Y20.0781 
G01 X22.0019 Y20.1484 
G01 X22.0400 Y20.2403 
G01 X22.0400 Y27.7355 
G01 X22.0780 Y27.7512 
G01 X22.1776 Y27.8177 
G01 X22.2623 Y27.9024 
G01 X22.3288 Y28.0020 
G01 X22.3746 Y28.1127 
G01 X22.3980 Y28.2301 
G01 X22.3980 Y28.3499 
G01 X22.3746 Y28.4673 
G01 X22.3288 Y28.5780 
G01 X22.2623 Y28.6776 
G01 X22.1776 Y28.7623 
G01 X22.0780 Y28.8288 
G01 X21.9673 Y28.8746 
G01 X21.8499 Y28.8980 
G01 X21.7301 Y28.8980 
G01 X21.6127 Y28.8746 
G01 X21.5020 Y28.8288 
G01 X21.4024 Y28.7623 
G01 X21.3177 Y28.6776 
G01 X21.2512 Y28.5780 
G01 X21.2054 Y28.4673 
G01 X21.1820 Y28.3499 
G01 X21.1820 Y28.2301 
G01 X21.2054 Y28.1127 
G01 X21.2512 Y28.0020 
G01 X21.3177 Y27.9024 
G01 X21.4024 Y27.8177 
G01 X21.5020 Y27.7512 
G01 X21.5400 Y27.7355 
G01 X21.5400 Y20.5400 
G01 X16.9903 Y20.5400 
G01 X16.8984 Y20.5019 
G01 X16.8281 Y20.4316 
G01 X16.3281 Y19.9316 
G01 X16.2900 Y19.8397 
G01 X16.2900 Y10.2403 
G01 X16.3281 Y10.1484 
G01 X18.2388 Y8.2376 
G01 X18.2388 Y6.8289 
G00 Z2.0000 
G00 X20.7788 Y8.4111 
G01 Z-0.0250 F254.00 
G01 X20.7788 Y6.8289 F508.00 
G01 X20.8100 Y6.6722 
G01 X20.8711 Y6.5246 
G01 X20.9599 Y6.3917 
G01 X21.0729 Y6.2787 
G01 X21.2058 Y6.1899 
G01 X21.3534 Y6.1288 
G01 X21.5101 Y6.0976 
G01 X21.6699 Y6.0976 
G01 X21.8266 Y6.1288 
G01 X21.9742 Y6.1899 
G01 X22.1071 Y6.2787 
G01 X22.2201 Y6.3917 
G01 X22.3089 Y6.5246 
G01 X22.3700 Y6.6722 
G01 X22.4012 Y6.8289 
G01 X22.4012 Y8.0476 
G01 X22.6816 Y8.3281 
G01 X22.7519 Y8.3984 
G01 X22.7900 Y8.4903 
G01 X22.7900 Y21.6864 
G01 X29.5747 Y28.4711 
G01 X29.6127 Y28.4554 
G01 X29.7301 Y28.4320 
G01 X29.8499 Y28.4320 
G01 X29.9673 Y28.4554 
G01 X30.0780 Y28.5012 
G01 X30.1776 Y28.5677 
G01 X30.2623 Y28.6524 
G01 X30.3288 Y28.7520 
G01 X30.3746 Y28.8627 
G01 X30.3980 Y28.9801 
G01 X30.3980 Y29.0999 
G01 X30.3746 Y29.2173 
G01 X30.3288 Y29.3280 
G01 X30.2623 Y29.4276 
G01 X30.1776 Y29.5123 
G01 X30.0780 Y29.5788 
G01 X29.9673 Y29.6246 
G01 X29.8499 Y29.6480 
G01 X29.7301 Y29.6480 
G01 X29.6127 Y29.6246 
G01 X29.5020 Y29.5788 
G01 X29.4024 Y29.5123 
G01 X29.3177 Y29.4276 
G01 X29.2512 Y29.3280 
G01 X29.2054 Y29.2173 
G01 X29.1820 Y29.0999 
G01 X29.1820 Y28.9801 
G01 X29.2054 Y28.8627 
G01 X29.2211 Y28.8247 
G01 X22.3281 Y21.9316 
G01 X22.2900 Y21.8397 
G01 X22.2900 Y8.7437 
G01 X22.2201 Y8.8483 
G01 X22.1071 Y8.9613 
G01 X21.9742 Y9.0501 
G01 X21.8266 Y9.1112 
G01 X21.6699 Y9.1424 
G01 X21.5101 Y9.1424 
G01 X21.3534 Y9.1112 
G01 X21.2058 Y9.0501 
G01 X21.0729 Y8.9613 
G01 X20.9599 Y8.8483 
G01 X20.8711 Y8.7154 
G01 X20.8100 Y8.5678 
G01 X20.7788 Y8.4111 
G00 Z2.0000 
G00 X23.3188 Y8.4111 
G01 Z-0.0250 F254.00 
G01 X23.3188 Y6.8289 F508.00 
G01 X23.3500 Y6.6722 
G01 X23.4111 Y6.5246 
G01 X23.4999 Y6.3917 
G01 X23.6129 Y6.2787 
G01 X23.7458 Y6.1899 
G01 X23.8934 Y6.1288 
G01 X24.0501 Y6.0976 
G01 X24.2099 Y6.0976 
G01 X24.3666 Y6.1288 
G01 X24.5142 Y6.1899 
G01 X24.6471 Y6.2787 
G01 X24.7601 Y6.3917 
G01 X24.8489 Y6.5246 
G01 X24.9100 Y6.6722 
G01 X24.9412 Y6.8289 
G01 X24.9412 Y8.4111 
G01 X24.9100 Y8.5678 
G01 X24.8489 Y8.7154 
G01 X24.7601 Y8.8483 
G01 X24.6471 Y8.9613 
G01 X24.5142 Y9.0501 
G01 X24.3666 Y9.1112 
G01 X24.2099 Y9.1424 
G01 X24.0501 Y9.1424 
G01 X24.0400 Y9.1404 
G01 X24.0400 Y20.7355 
G01 X24.0780 Y20.7512 
G01 X24.1776 Y20.8177 
G01 X24.2623 Y20.9024 
G01 X24.3288 Y21.0020 
G01 X24.3746 Y21.1127 
G01 X24.3980 Y21.2301 
G01 X24.3980 Y21.3499 
G01 X24.3746 Y21.4673 
G01 X24.3288 Y21.5780 
G01 X24.2623 Y21.6776 
G01 X24.1776 Y21.7623 
G01 X24.0780 Y21.8288 
G01 X23.9673 Y21.8746 
G01 X23.8499 Y21.8980 
G01 X23.7301 Y21.8980 
G01 X23.6127 Y21.8746 
G01 X23.5020 Y21.8288 
G01 X23.4024 Y21.7623 
G01 X23.3177 Y21.6776 
G01 X23.2512 Y21.5780 
G01 X23.2054 Y21.4673 
G01 X23.1820 Y21.3499 
G01 X23.1820 Y21.2301 
G01 X23.2054 Y21.1127 
G01 X23.2512 Y21.0020 
G01 X23.3177 Y20.9024 
G01 X23.4024 Y20.8177 
G01 X23.5020 Y20.7512 
G01 X23.5400 Y20.7355 
G01 X23.5400 Y8.8884 
G01 X23.4999 Y8.8483 
G01 X23.4111 Y8.7154 
G01 X23.3500 Y8.5678 
G01 X23.3188 Y8.4111 
G00 Z2.0000 
G00 X30.9388 Y8.4111 
G01 Z-0.0250 F254.00 
G01 X30.9388 Y6.8289 F508.00 
G01 X30.9700 Y6.6722 
G01 X31.0311 Y6.5246 
G01 X31.1199 Y6.3917 
G01 X31.2329 Y6.2787 
G01 X31.2900 Y6.2405 
G01 X31.2900 Y5.2900 
G01 X16.8936 Y5.2900 
G01 X15.5400 Y6.6436 
G01 X15.5400 Y9.0897 
G01 X15.5019 Y9.1816 
G01 X15.4316 Y9.2519 
G01 X13.3936 Y11.2900 
G01 X14.7519 Y12.6484 
G01 X14.7900 Y12.7403 
G01 X14.7900 Y20.7900 
G01 X17.0842 Y20.7900 
G01 X17.0952 Y20.7634 
G01 X17.1234 Y20.7352 
G01 X17.1601 Y20.7200 
G01 X18.3999 Y20.7200 
G01 X18.4366 Y20.7352 
G01 X18.4648 Y20.7634 
G01 X18.4800 Y20.8001 
G01 X18.4800 Y21.6399 
G01 X18.4648 Y21.6766 
G01 X18.4366 Y21.7048 
G01 X18.3999 Y21.7200 
G01 X17.1601 Y21.7200 
G01 X17.1234 Y21.7048 
G01 X17.0952 Y21.6766 
G01 X17.0800 Y21.6399 
G01 X17.0800 Y21.2900 
G01 X14.4903 Y21.2900 
G01 X14.3984 Y21.2519 
G01 X14.3281 Y21.1816 
G01 X14.2900 Y21.0897 
G01 X14.2900 Y12.8936 
G01 X12.8984 Y11.5019 
G01 X12.8281 Y11.4316 
G01 X10.9364 Y9.5400 
G01 X10.7600 Y9.5400 
G01 X10.7600 Y9.7799 
G01 X10.7448 Y9.8166 
G01 X10.7166 Y9.8448 
G01 X10.6799 Y9.8600 
G01 X9.6401 Y9.8600 
G01 X9.6034 Y9.8448 
G01 X9.5752 Y9.8166 
G01 X9.5600 Y9.7799 
G01 X9.5600 Y8.3401 
G01 X9.5752 Y8.3034 
G01 X9.6034 Y8.2752 
G01 X9.6401 Y8.2600 
G01 X10.6799 Y8.2600 
G01 X10.7166 Y8.2752 
G01 X10.7448 Y8.3034 
G01 X10.7600 Y8.3401 
G01 X10.7600 Y9.0400 
G01 X11.0897 Y9.0400 
G01 X11.1816 Y9.0781 
G01 X11.2519 Y9.1484 
G01 X13.0400 Y10.9364 
G01 X15.0400 Y8.9364 
G01 X15.0400 Y6.4903 
G01 X15.0781 Y6.3984 
G01 X16.5781 Y4.8984 
G01 X16.6484 Y4.8281 
G01 X16.7403 Y4.7900 
G01 X31.5897 Y4.7900 
G01 X31.6816 Y4.8281 
G01 X31.7519 Y4.8984 
G01 X31.7900 Y4.9903 
G01 X31.7900 Y6.0976 
G01 X31.8299 Y6.0976 
G01 X31.9866 Y6.1288 
G01 X32.1342 Y6.1899 
G01 X32.2671 Y6.2787 
G01 X32.3801 Y6.3917 
G01 X32.4689 Y6.5246 
G01 X32.5300 Y6.6722 
G01 X32.5612 Y6.8289 
G01 X32.5612 Y8.4111 
G01 X32.5300 Y8.5678 
G01 X32.4689 Y8.7154 
G01 X32.3801 Y8.8483 
G01 X32.2671 Y8.9613 
G01 X32.1342 Y9.0501 
G01 X31.9866 Y9.1112 
G01 X31.8299 Y9.1424 
G01 X31.7900 Y9.1424 
G01 X31.7900 Y16.3397 
G01 X31.7519 Y16.4316 
G01 X31.6816 Y16.5019 
G01 X26.2350 Y21.9486 
G01 X26.2350 Y23.1249 
G01 X26.2198 Y23.1616 
G01 X26.1916 Y23.1898 
G01 X26.1549 Y23.2050 
G01 X24.6451 Y23.2050 
G01 X24.6084 Y23.1898 
G01 X24.5802 Y23.1616 
G01 X24.5650 Y23.1249 
G01 X24.5650 Y21.8151 
G01 X24.5802 Y21.7784 
G01 X24.6084 Y21.7502 
G01 X24.6451 Y21.7350 
G01 X25.7414 Y21.7350 
G01 X31.2900 Y16.1864 
G01 X31.2900 Y8.9995 
G01 X31.2329 Y8.9613 
G01 X31.1199 Y8.8483 
G01 X31.0311 Y8.7154 
G01 X30.9700 Y8.5678 
G01 X30.9388 Y8.4111 
G00 Z2.0000 
G00 X17.1601 Y18.9200 
G01 Z-0.0250 F254.00 
G01 X17.8064 Y18.9200 F508.00 
G01 X20.0400 Y16.6864 
G01 X20.0400 Y6.4903 
G01 X20.0781 Y6.3984 
G01 X20.8281 Y5.6484 
G01 X20.8984 Y5.5781 
G01 X20.9903 Y5.5400 
G01 X29.0897 Y5.5400 
G01 X29.1816 Y5.5781 
G01 X29.2519 Y5.6484 
G01 X29.2900 Y5.7403 
G01 X29.2900 Y6.0976 
G01 X29.4466 Y6.1288 
G01 X29.5942 Y6.1899 
G01 X29.7271 Y6.2787 
G01 X29.8401 Y6.3917 
G01 X29.9289 Y6.5246 
G01 X29.9900 Y6.6722 
G01 X30.0212 Y6.8289 
G01 X30.0212 Y8.4111 
G01 X29.9900 Y8.5678 
G01 X29.9289 Y8.7154 
G01 X29.8401 Y8.8483 
G01 X29.7271 Y8.9613 
G01 X29.5942 Y9.0501 
G01 X29.4466 Y9.1112 
G01 X29.2899 Y9.1424 
G01 X29.1301 Y9.1424 
G01 X28.9734 Y9.1112 
G01 X28.8258 Y9.0501 
G01 X28.6929 Y8.9613 
G01 X28.5799 Y8.8483 
G01 X28.4911 Y8.7154 
G01 X28.4300 Y8.5678 
G01 X28.3988 Y8.4111 
G01 X28.3988 Y6.8289 
G01 X28.4300 Y6.6722 
G01 X28.4911 Y6.5246 
G01 X28.5799 Y6.3917 
G01 X28.6929 Y6.2787 
G01 X28.7900 Y6.2138 
G01 X28.7900 Y6.0400 
G01 X21.1436 Y6.0400 
G01 X20.5400 Y6.6436 
G01 X20.5400 Y16.8397 
G01 X20.5019 Y16.9316 
G01 X20.4316 Y17.0019 
G01 X18.4664 Y18.9672 
G01 X18.4800 Y19.0001 
G01 X18.4800 Y19.8399 
G01 X18.4648 Y19.8766 
G01 X18.4366 Y19.9048 
G01 X18.3999 Y19.9200 
G01 X17.1601 Y19.9200 
G01 X17.1234 Y19.9048 
G01 X17.0952 Y19.8766 
G01 X17.0800 Y19.8399 
G01 X17.0800 Y19.0001 
G01 X17.0952 Y18.9634 
G01 X17.1234 Y18.9352 
G01 X17.1601 Y18.9200 
G00 Z2.0000 
G00 X22.0710 Y58.0588 
G01 Z-0.0250 F254.00 
G01 X22.0710 Y58.2224 F508.00 
G01 X22.0454 Y58.3841 
G01 X21.9948 Y58.5397 
G01 X21.9205 Y58.6856 
G01 X21.8243 Y58.8180 
G01 X21.7086 Y58.9337 
G01 X21.5762 Y59.0299 
G01 X21.4303 Y59.1042 
G01 X21.2747 Y59.1548 
G01 X21.1130 Y59.1804 
G01 X20.9494 Y59.1804 
G01 X20.7877 Y59.1548 
G01 X20.6321 Y59.1042 
G01 X20.4862 Y59.0299 
G01 X20.3538 Y58.9337 
G01 X20.2381 Y58.8180 
G01 X20.1419 Y58.6856 
G01 X20.0676 Y58.5397 
G01 X20.0170 Y58.3841 
G01 X19.9914 Y58.2224 
G01 X19.9914 Y58.0588 
G01 X20.0170 Y57.8971 
G01 X20.0676 Y57.7415 
G01 X20.1419 Y57.5956 
G01 X20.2381 Y57.4632 
G01 X20.3538 Y57.3475 
G01 X20.4862 Y57.2513 
G01 X20.6321 Y57.1770 
G01 X20.7877 Y57.1264 
G01 X20.9494 Y57.1008 
G01 X21.1130 Y57.1008 
G01 X21.2747 Y57.1264 
G01 X21.4303 Y57.1770 
G01 X21.5762 Y57.2513 
G01 X21.7086 Y57.3475 
G01 X21.8243 Y57.4632 
G01 X21.9205 Y57.5956 
G01 X21.9948 Y57.7415 
G01 X22.0454 Y57.8971 
G01 X22.0710 Y58.0588 
G00 Z2.0000 
G00 X15.5686 Y53.5376 
G01 Z-0.0250 F254.00 
G01 X15.5686 Y53.7012 F508.00 
G01 X15.5430 Y53.8629 
G01 X15.4924 Y54.0185 
G01 X15.4181 Y54.1644 
G01 X15.3219 Y54.2968 
G01 X15.2062 Y54.4125 
G01 X15.0738 Y54.5087 
G01 X14.9279 Y54.5830 
G01 X14.7723 Y54.6336 
G01 X14.6106 Y54.6592 
G01 X14.4470 Y54.6592 
G01 X14.2853 Y54.6336 
G01 X14.1297 Y54.5830 
G01 X13.9838 Y54.5087 
G01 X13.8514 Y54.4125 
G01 X13.7357 Y54.2968 
G01 X13.6395 Y54.1644 
G01 X13.5652 Y54.0185 
G01 X13.5146 Y53.8629 
G01 X13.4890 Y53.7012 
G01 X13.4890 Y53.5376 
G01 X13.5146 Y53.3759 
G01 X13.5652 Y53.2203 
G01 X13.6395 Y53.0744 
G01 X13.7357 Y52.9420 
G01 X13.8514 Y52.8263 
G01 X13.9838 Y52.7301 
G01 X14.1297 Y52.6558 
G01 X14.2853 Y52.6052 
G01 X14.4470 Y52.5796 
G01 X14.6106 Y52.5796 
G01 X14.7723 Y52.6052 
G01 X14.9279 Y52.6558 
G01 X15.0738 Y52.7301 
G01 X15.2062 Y52.8263 
G01 X15.3219 Y52.9420 
G01 X15.4181 Y53.0744 
G01 X15.4924 Y53.2203 
G01 X15.5430 Y53.3759 
G01 X15.5686 Y53.5376 
G00 Z2.0000 
G00 X22.0710 Y53.5376 
G01 Z-0.0250 F254.00 
G01 X22.0710 Y53.7012 F508.00 
G01 X22.0454 Y53.8629 
G01 X21.9948 Y54.0185 
G01 X21.9205 Y54.1644 
G01 X21.8243 Y54.2968 
G01 X21.7086 Y54.4125 
G01 X21.5762 Y54.5087 
G01 X21.4303 Y54.5830 
G01 X21.2747 Y54.6336 
G01 X21.1130 Y54.6592 
G01 X20.9494 Y54.6592 
G01 X20.7877 Y54.6336 
G01 X20.6321 Y54.5830 
G01 X20.4862 Y54.5087 
G01 X20.3538 Y54.4125 
G01 X20.2381 Y54.2968 
G01 X20.1419 Y54.1644 
G01 X20.0676 Y54.0185 
G01 X20.0170 Y53.8629 
G01 X19.9914 Y53.7012 
G01 X19.9914 Y53.5376 
G01 X20.0170 Y53.3759 
G01 X20.0676 Y53.2203 
G01 X20.1419 Y53.0744 
G01 X20.2381 Y52.9420 
G01 X20.3538 Y52.8263 
G01 X20.4862 Y52.7301 
G01 X20.6321 Y52.6558 
G01 X20.7877 Y52.6052 
G01 X20.9494 Y52.5796 
G01 X21.1130 Y52.5796 
G01 X21.2747 Y52.6052 
G01 X21.4303 Y52.6558 
G01 X21.5762 Y52.7301 
G01 X21.7086 Y52.8263 
G01 X21.8243 Y52.9420 
G01 X21.9205 Y53.0744 
G01 X21.9948 Y53.2203 
G01 X22.0454 Y53.3759 
G01 X22.0710 Y53.5376 
G00 Z2.0000 
G00 X8.6100 Y11.9799 
G01 Z-0.0250 F254.00 
G01 X8.6100 Y11.5400 F508.00 
G01 X4.5400 Y11.5400 
G01 X4.5400 Y14.5400 
G01 X4.5999 Y14.5400 
G01 X4.6366 Y14.5552 
G01 X4.6648 Y14.5834 
G01 X4.6800 Y14.6201 
G01 X4.6800 Y15.8599 
G01 X4.6648 Y15.8966 
G01 X4.6366 Y15.9248 
G01 X4.5999 Y15.9400 
G01 X4.5400 Y15.9400 
G01 X4.5400 Y19.6200 
G01 X4.5999 Y19.6200 
G01 X4.6366 Y19.6352 
G01 X4.6648 Y19.6634 
G01 X4.6800 Y19.7001 
G01 X4.6800 Y20.9399 
G01 X4.6648 Y20.9766 
G01 X4.6366 Y21.0048 
G01 X4.5999 Y21.0200 
G01 X4.5400 Y21.0200 
G01 X4.5400 Y23.5400 
G01 X8.6100 Y23.5400 
G01 X8.6100 Y23.2401 
G01 X8.6252 Y23.2034 
G01 X8.6534 Y23.1752 
G01 X8.6901 Y23.1600 
G01 X9.7299 Y23.1600 
G01 X9.7666 Y23.1752 
G01 X9.7948 Y23.2034 
G01 X9.8100 Y23.2401 
G01 X9.8100 Y24.2064 
G01 X11.1816 Y25.5781 
G01 X11.2519 Y25.6484 
G01 X11.2900 Y25.7403 
G01 X11.2900 Y33.4364 
G01 X12.8437 Y34.9901 
G01 X14.3328 Y34.9901 
G01 X14.3695 Y35.0053 
G01 X14.3977 Y35.0335 
G01 X14.4129 Y35.0702 
G01 X14.4129 Y36.3093 
G01 X15.0019 Y36.8984 
G01 X15.0400 Y36.9903 
G01 X15.0400 Y37.7900 
G01 X18.9200 Y37.7900 
G01 X18.9200 Y37.4801 
G01 X18.9352 Y37.4434 
G01 X18.9634 Y37.4152 
G01 X19.0001 Y37.4000 
G01 X19.8399 Y37.4000 
G01 X19.8766 Y37.4152 
G01 X19.9048 Y37.4434 
G01 X19.9200 Y37.4801 
G01 X19.9200 Y38.7199 
G01 X19.9048 Y38.7566 
G01 X19.8766 Y38.7848 
G01 X19.8399 Y38.8000 
G01 X19.5400 Y38.8000 
G01 X19.5400 Y46.7900 
G01 X23.5400 Y46.7900 
G01 X23.5400 Y44.7403 
G01 X23.5781 Y44.6484 
G01 X29.2900 Y38.9364 
G01 X29.2900 Y35.2600 
G01 X28.3701 Y35.2600 
G01 X28.3334 Y35.2448 
G01 X28.3052 Y35.2166 
G01 X28.2900 Y35.1799 
G01 X28.2900 Y33.7401 
G01 X28.3052 Y33.7034 
G01 X28.3334 Y33.6752 
G01 X28.3701 Y33.6600 
G01 X29.4099 Y33.6600 
G01 X29.4466 Y33.6752 
G01 X29.4748 Y33.7034 
G01 X29.4900 Y33.7401 
G01 X29.4900 Y34.6364 
G01 X29.6816 Y34.8281 
G01 X29.7519 Y34.8984 
G01 X29.7900 Y34.9903 
G01 X29.7900 Y42.4800 
G01 X29.9999 Y42.4800 
G01 X30.0366 Y42.4952 
G01 X30.0648 Y42.5234 
G01 X30.0800 Y42.5601 
G01 X30.0800 Y43.7999 
G01 X30.0648 Y43.8366 
G01 X30.0366 Y43.8648 
G01 X29.9999 Y43.8800 
G01 X29.7900 Y43.8800 
G01 X29.7900 Y48.3397 
G01 X29.7519 Y48.4316 
G01 X29.6816 Y48.5019 
G01 X29.1435 Y49.0400 
G01 X33.6864 Y49.0400 
G01 X34.8925 Y47.8339 
G01 X34.8752 Y47.8166 
G01 X34.8600 Y47.7799 
G01 X34.8600 Y46.9401 
G01 X34.8752 Y46.9034 
G01 X34.9034 Y46.8752 
G01 X34.9401 Y46.8600 
G01 X35.5400 Y46.8600 
G01 X35.5400 Y42.4903 
G01 X35.5781 Y42.3984 
G01 X35.6484 Y42.3281 
G01 X35.7403 Y42.2900 
G01 X39.3397 Y42.2900 
G01 X39.4316 Y42.3281 
G01 X39.5019 Y42.3984 
G01 X40.0019 Y42.8984 
G01 X40.0400 Y42.9903 
G01 X40.0400 Y47.5600 
G01 X40.1599 Y47.5600 
G01 X40.1966 Y47.5752 
G01 X40.2248 Y47.6034 
G01 X40.2400 Y47.6401 
G01 X40.2400 Y48.8799 
G01 X40.2248 Y48.9166 
G01 X40.1966 Y48.9448 
G01 X40.1599 Y48.9600 
G01 X39.3201 Y48.9600 
G01 X39.2834 Y48.9448 
G01 X39.2552 Y48.9166 
G01 X39.2400 Y48.8799 
G01 X39.2400 Y47.6401 
G01 X39.2552 Y47.6034 
G01 X39.2834 Y47.5752 
G01 X39.3201 Y47.5600 
G01 X39.5400 Y47.5600 
G01 X39.5400 Y43.1436 
G01 X39.1864 Y42.7900 
G01 X36.0400 Y42.7900 
G01 X36.0400 Y46.8600 
G01 X36.1799 Y46.8600 
G01 X36.2166 Y46.8752 
G01 X36.2448 Y46.9034 
G01 X36.2600 Y46.9401 
G01 X36.2600 Y47.7799 
G01 X36.2448 Y47.8166 
G01 X36.2166 Y47.8448 
G01 X36.1799 Y47.8600 
G01 X35.5736 Y47.8600 
G01 X34.0019 Y49.4316 
G01 X33.9316 Y49.5019 
G01 X33.8397 Y49.5400 
G01 X33.5400 Y49.5400 
G01 X33.5400 Y60.5400 
G01 X43.9700 Y60.5400 
G01 X43.9700 Y60.3401 
G01 X43.9852 Y60.3034 
G01 X44.0134 Y60.2752 
G01 X44.0501 Y60.2600 
G01 X44.2900 Y60.2600 
G01 X44.2900 Y55.7403 
G01 X44.3281 Y55.6484 
G01 X44.3984 Y55.5781 
G01 X44.4903 Y55.5400 
G01 X46.4364 Y55.5400 
G01 X46.5400 Y55.4364 
G01 X46.5400 Y51.9903 
G01 X46.5781 Y51.8984 
G01 X46.6484 Y51.8281 
G01 X48.6605 Y49.8160 
G01 X48.6523 Y49.7963 
G01 X48.6172 Y49.6199 
G01 X48.6172 Y49.4401 
G01 X48.6523 Y49.2637 
G01 X48.7211 Y49.0976 
G01 X48.8210 Y48.9481 
G01 X48.9481 Y48.8210 
G01 X49.0976 Y48.7211 
G01 X49.2637 Y48.6523 
G01 X49.4401 Y48.6172 
G01 X49.6199 Y48.6172 
G01 X49.7963 Y48.6523 
G01 X49.9624 Y48.7211 
G01 X50.1119 Y48.8210 
G01 X50.2390 Y48.9481 
G01 X50.3004 Y49.0400 
G01 X52.6400 Y49.0400 
G01 X52.6400 Y48.7401 
G01 X52.6552 Y48.7034 
G01 X52.6834 Y48.6752 
G01 X52.7201 Y48.6600 
G01 X53.5664 Y48.6600 
G01 X56.0781 Y46.1484 
G01 X56.1484 Y46.0781 
G01 X56.5400 Y45.6864 
G01 X56.5400 Y43.8800 
G01 X56.3601 Y43.8800 
G01 X56.3234 Y43.8648 
G01 X56.2952 Y43.8366 
G01 X56.2800 Y43.7999 
G01 X56.2800 Y42.5601 
G01 X56.2952 Y42.5234 
G01 X56.3234 Y42.4952 
G01 X56.3601 Y42.4800 
G01 X57.1999 Y42.4800 
G01 X57.2366 Y42.4952 
G01 X57.2648 Y42.5234 
G01 X57.2800 Y42.5601 
G01 X57.2800 Y43.7999 
G01 X57.2648 Y43.8366 
G01 X57.2366 Y43.8648 
G01 X57.1999 Y43.8800 
G01 X57.0400 Y43.8800 
G01 X57.0400 Y45.8397 
G01 X57.0019 Y45.9316 
G01 X56.6436 Y46.2900 
G01 X59.5400 Y49.1865 
G01 X59.5400 Y46.2403 
G01 X59.5781 Y46.1484 
G01 X59.6484 Y46.0781 
G01 X60.7900 Y44.9364 
G01 X60.7900 Y26.4903 
G01 X60.8281 Y26.3984 
G01 X60.8984 Y26.3281 
G01 X61.3172 Y25.9092 
G01 X61.3172 Y24.4973 
G01 X61.3523 Y24.3209 
G01 X61.4211 Y24.1548 
G01 X61.5210 Y24.0053 
G01 X61.6481 Y23.8782 
G01 X61.7900 Y23.7834 
G01 X61.7900 Y18.8936 
G01 X59.3281 Y16.4316 
G01 X59.2900 Y16.3397 
G01 X59.2900 Y8.6436 
G01 X59.2553 Y8.6089 
G01 X59.2173 Y8.6246 
G01 X59.0999 Y8.6480 
G01 X58.9801 Y8.6480 
G01 X58.8627 Y8.6246 
G01 X58.7520 Y8.5788 
G01 X58.6524 Y8.5123 
G01 X58.5677 Y8.4276 
G01 X58.5012 Y8.3280 
G01 X58.4554 Y8.2173 
G01 X58.4320 Y8.0999 
G01 X58.4320 Y7.9801 
G01 X58.4554 Y7.8627 
G01 X58.5012 Y7.7520 
G01 X58.5677 Y7.6524 
G01 X58.6524 Y7.5677 
G01 X58.7520 Y7.5012 
G01 X58.8627 Y7.4554 
G01 X58.9801 Y7.4320 
G01 X59.0999 Y7.4320 
G01 X59.2173 Y7.4554 
G01 X59.3280 Y7.5012 
G01 X59.4276 Y7.5677 
G01 X59.5123 Y7.6524 
G01 X59.5788 Y7.7520 
G01 X59.6246 Y7.8627 
G01 X59.6480 Y7.9801 
G01 X59.6480 Y8.0999 
G01 X59.6246 Y8.2173 
G01 X59.6089 Y8.2553 
G01 X59.6816 Y8.3281 
G01 X59.7519 Y8.3984 
G01 X59.7900 Y8.4903 
G01 X59.7900 Y16.1864 
G01 X62.1816 Y18.5781 
G01 X62.2519 Y18.6484 
G01 X62.2900 Y18.7403 
G01 X62.2900 Y23.6744 
G01 X62.3199 Y23.6744 
G01 X62.4963 Y23.7095 
G01 X62.6624 Y23.7783 
G01 X62.8119 Y23.8782 
G01 X62.9390 Y24.0053 
G01 X63.0389 Y24.1548 
G01 X63.1077 Y24.3209 
G01 X63.1428 Y24.4973 
G01 X63.1428 Y26.3027 
G01 X63.1077 Y26.4791 
G01 X63.0389 Y26.6452 
G01 X62.9390 Y26.7947 
G01 X62.8119 Y26.9218 
G01 X62.6624 Y27.0217 
G01 X62.4963 Y27.0905 
G01 X62.3199 Y27.1256 
G01 X62.1401 Y27.1256 
G01 X61.9637 Y27.0905 
G01 X61.7976 Y27.0217 
G01 X61.6481 Y26.9218 
G01 X61.5210 Y26.7947 
G01 X61.4211 Y26.6452 
G01 X61.3822 Y26.5513 
G01 X61.2900 Y26.6436 
G01 X61.2900 Y45.0897 
G01 X61.2519 Y45.1816 
G01 X60.0400 Y46.3936 
G01 X60.0400 Y49.6864 
G01 X64.2279 Y53.8744 
G01 X64.3376 Y53.8011 
G01 X64.5037 Y53.7323 
G01 X64.6801 Y53.6972 
G01 X64.8599 Y53.6972 
G01 X65.0363 Y53.7323 
G01 X65.2024 Y53.8011 
G01 X65.3519 Y53.9010 
G01 X65.4790 Y54.0281 
G01 X65.5789 Y54.1776 
G01 X65.6477 Y54.3437 
G01 X65.6828 Y54.5201 
G01 X65.6828 Y54.6999 
G01 X65.6477 Y54.8763 
G01 X65.5789 Y55.0424 
G01 X65.4790 Y55.1919 
G01 X65.3519 Y55.3190 
G01 X65.2024 Y55.4189 
G01 X65.0363 Y55.4877 
G01 X64.8599 Y55.5228 
G01 X64.6801 Y55.5228 
G01 X64.5037 Y55.4877 
G01 X64.3376 Y55.4189 
G01 X64.1881 Y55.3190 
G01 X64.0610 Y55.1919 
G01 X63.9611 Y55.0424 
G01 X63.8923 Y54.8763 
G01 X63.8572 Y54.6999 
G01 X63.8572 Y54.5201 
G01 X63.8923 Y54.3437 
G01 X63.9210 Y54.2745 
G01 X59.6484 Y50.0019 
G01 X56.2900 Y46.6436 
G01 X54.0400 Y48.8936 
G01 X54.0400 Y49.5799 
G01 X54.0248 Y49.6166 
G01 X53.9966 Y49.6448 
G01 X53.9599 Y49.6600 
G01 X52.7201 Y49.6600 
G01 X52.6834 Y49.6448 
G01 X52.6552 Y49.6166 
G01 X52.6400 Y49.5799 
G01 X52.6400 Y49.5400 
G01 X50.4428 Y49.5400 
G01 X50.4428 Y49.6199 
G01 X50.4077 Y49.7963 
G01 X50.3389 Y49.9624 
G01 X50.2390 Y50.1119 
G01 X50.1119 Y50.2390 
G01 X49.9624 Y50.3389 
G01 X49.7963 Y50.4077 
G01 X49.6199 Y50.4428 
G01 X49.4401 Y50.4428 
G01 X49.2637 Y50.4077 
G01 X49.0976 Y50.3389 
G01 X48.9481 Y50.2390 
G01 X47.0400 Y52.1436 
G01 X47.0400 Y55.5897 
G01 X47.0019 Y55.6816 
G01 X46.7519 Y55.9316 
G01 X46.6816 Y56.0019 
G01 X46.5897 Y56.0400 
G01 X44.7900 Y56.0400 
G01 X44.7900 Y60.2600 
G01 X45.2899 Y60.2600 
G01 X45.3266 Y60.2752 
G01 X45.3548 Y60.3034 
G01 X45.3700 Y60.3401 
G01 X45.3700 Y61.5799 
G01 X45.3548 Y61.6166 
G01 X45.3266 Y61.6448 
G01 X45.2899 Y61.6600 
G01 X44.0501 Y61.6600 
G01 X44.0134 Y61.6448 
G01 X43.9852 Y61.6166 
G01 X43.9700 Y61.5799 
G01 X43.9700 Y61.0400 
G01 X33.2403 Y61.0400 
G01 X33.1484 Y61.0019 
G01 X33.0781 Y60.9316 
G01 X33.0400 Y60.8397 
G01 X33.0400 Y49.5400 
G01 X28.6436 Y49.5400 
G01 X28.6400 Y49.5436 
G01 X28.6400 Y50.3199 
G01 X28.6248 Y50.3566 
G01 X28.5966 Y50.3848 
G01 X28.5599 Y50.4000 
G01 X27.3201 Y50.4000 
G01 X27.2834 Y50.3848 
G01 X27.2552 Y50.3566 
G01 X27.2400 Y50.3199 
G01 X27.2400 Y49.4801 
G01 X27.2552 Y49.4434 
G01 X27.2834 Y49.4152 
G01 X27.3201 Y49.4000 
G01 X28.0764 Y49.4000 
G01 X28.3281 Y49.1484 
G01 X28.3984 Y49.0781 
G01 X29.2900 Y48.1864 
G01 X29.2900 Y43.8800 
G01 X29.1601 Y43.8800 
G01 X29.1234 Y43.8648 
G01 X29.0952 Y43.8366 
G01 X29.0800 Y43.7999 
G01 X29.0800 Y42.5601 
G01 X29.0952 Y42.5234 
G01 X29.1234 Y42.4952 
G01 X29.1601 Y42.4800 
G01 X29.2900 Y42.4800 
G01 X29.2900 Y39.6435 
G01 X24.0400 Y44.8936 
G01 X24.0400 Y47.0897 
G01 X24.0019 Y47.1816 
G01 X23.9316 Y47.2519 
G01 X23.8397 Y47.2900 
G01 X19.5400 Y47.2900 
G01 X19.5400 Y50.1000 
G01 X19.8399 Y50.1000 
G01 X19.8766 Y50.1152 
G01 X19.9048 Y50.1434 
G01 X19.9200 Y50.1801 
G01 X19.9200 Y51.4199 
G01 X19.9048 Y51.4566 
G01 X19.8766 Y51.4848 
G01 X19.8399 Y51.5000 
G01 X19.0001 Y51.5000 
G01 X18.9634 Y51.4848 
G01 X18.9352 Y51.4566 
G01 X18.9200 Y51.4199 
G01 X18.9200 Y50.1801 
G01 X18.9352 Y50.1434 
G01 X18.9634 Y50.1152 
G01 X19.0001 Y50.1000 
G01 X19.0400 Y50.1000 
G01 X19.0400 Y38.8000 
G01 X19.0001 Y38.8000 
G01 X18.9634 Y38.7848 
G01 X18.9352 Y38.7566 
G01 X18.9200 Y38.7199 
G01 X18.9200 Y38.2900 
G01 X14.7403 Y38.2900 
G01 X14.6484 Y38.2519 
G01 X14.5781 Y38.1816 
G01 X14.5400 Y38.0897 
G01 X14.5400 Y37.1436 
G01 X14.0851 Y36.6887 
G01 X12.2864 Y36.6887 
G01 X12.2497 Y36.6735 
G01 X12.2215 Y36.6453 
G01 X12.2063 Y36.6086 
G01 X12.2063 Y35.0702 
G01 X12.2093 Y35.0629 
G01 X10.8281 Y33.6816 
G01 X10.7900 Y33.5897 
G01 X10.7900 Y25.8936 
G01 X9.6564 Y24.7600 
G01 X8.6901 Y24.7600 
G01 X8.6534 Y24.7448 
G01 X8.6252 Y24.7166 
G01 X8.6100 Y24.6799 
G01 X8.6100 Y24.0400 
G01 X4.2403 Y24.0400 
G01 X4.1484 Y24.0019 
G01 X4.0781 Y23.9316 
G01 X4.0400 Y23.8397 
G01 X4.0400 Y21.0200 
G01 X3.7601 Y21.0200 
G01 X3.7234 Y21.0048 
G01 X3.6952 Y20.9766 
G01 X3.6800 Y20.9399 
G01 X3.6800 Y19.7001 
G01 X3.6952 Y19.6634 
G01 X3.7234 Y19.6352 
G01 X3.7601 Y19.6200 
G01 X4.0400 Y19.6200 
G01 X4.0400 Y15.9400 
G01 X3.7601 Y15.9400 
G01 X3.7234 Y15.9248 
G01 X3.6952 Y15.8966 
G01 X3.6800 Y15.8599 
G01 X3.6800 Y14.6201 
G01 X3.6952 Y14.5834 
G01 X3.7234 Y14.5552 
G01 X3.7601 Y14.5400 
G01 X4.0400 Y14.5400 
G01 X4.0400 Y11.2403 
G01 X4.0781 Y11.1484 
G01 X4.1484 Y11.0781 
G01 X4.2403 Y11.0400 
G01 X8.6100 Y11.0400 
G01 X8.6100 Y10.5401 
G01 X8.6252 Y10.5034 
G01 X8.6534 Y10.4752 
G01 X8.6901 Y10.4600 
G01 X9.7299 Y10.4600 
G01 X9.7666 Y10.4752 
G01 X9.7948 Y10.5034 
G01 X9.8100 Y10.5401 
G01 X9.8100 Y11.9799 
G01 X9.7948 Y12.0166 
G01 X9.7666 Y12.0448 
G01 X9.7299 Y12.0600 
G01 X8.6901 Y12.0600 
G01 X8.6534 Y12.0448 
G01 X8.6252 Y12.0166 
G01 X8.6100 Y11.9799 
G00 Z2.0000 
G00 X12.3000 Y14.6201 
G01 Z-0.0250 F254.00 
G01 X12.3000 Y15.8599 F508.00 
G01 X12.2848 Y15.8966 
G01 X12.2566 Y15.9248 
G01 X12.2199 Y15.9400 
G01 X11.3801 Y15.9400 
G01 X11.3434 Y15.9248 
G01 X11.3152 Y15.8966 
G01 X11.3000 Y15.8599 
G01 X11.3000 Y14.9036 
G01 X11.1484 Y14.7519 
G01 X11.0781 Y14.6816 
G01 X11.0400 Y14.5897 
G01 X11.0400 Y12.0600 
G01 X10.5901 Y12.0600 
G01 X10.5534 Y12.0448 
G01 X10.5252 Y12.0166 
G01 X10.5100 Y11.9799 
G01 X10.5100 Y10.5401 
G01 X10.5252 Y10.5034 
G01 X10.5534 Y10.4752 
G01 X10.5901 Y10.4600 
G01 X11.6299 Y10.4600 
G01 X11.6666 Y10.4752 
G01 X11.6948 Y10.5034 
G01 X11.7100 Y10.5401 
G01 X11.7100 Y11.9799 
G01 X11.6948 Y12.0166 
G01 X11.6666 Y12.0448 
G01 X11.6299 Y12.0600 
G01 X11.5400 Y12.0600 
G01 X11.5400 Y14.4364 
G01 X11.6436 Y14.5400 
G01 X12.2199 Y14.5400 
G01 X12.2566 Y14.5552 
G01 X12.2848 Y14.5834 
G01 X12.3000 Y14.6201 
G00 Z2.0000 
G00 X14.1000 Y14.6201 
G01 Z-0.0250 F254.00 
G01 X14.1000 Y15.8599 F508.00 
G01 X14.0848 Y15.8966 
G01 X14.0566 Y15.9248 
G01 X14.0199 Y15.9400 
G01 X13.7900 Y15.9400 
G01 X13.7900 Y16.2355 
G01 X13.8280 Y16.2512 
G01 X13.9276 Y16.3177 
G01 X14.0123 Y16.4024 
G01 X14.0788 Y16.5020 
G01 X14.1246 Y16.6127 
G01 X14.1480 Y16.7301 
G01 X14.1480 Y16.8499 
G01 X14.1246 Y16.9673 
G01 X14.0788 Y17.0780 
G01 X14.0123 Y17.1776 
G01 X13.9276 Y17.2623 
G01 X13.8280 Y17.3288 
G01 X13.7173 Y17.3746 
G01 X13.5999 Y17.3980 
G01 X13.4801 Y17.3980 
G01 X13.3627 Y17.3746 
G01 X13.2520 Y17.3288 
G01 X13.1524 Y17.2623 
G01 X13.0677 Y17.1776 
G01 X13.0012 Y17.0780 
G01 X12.9554 Y16.9673 
G01 X12.9320 Y16.8499 
G01 X12.9320 Y16.7301 
