(.../pcb-gcode-3.6.0.4/pcb-gcode.ulp)
(Copyright 2005 - 2012 by John Johnson)
(See readme.txt for licensing terms.)
(This file generated from the board:)
(.../eagle/SulaMatikV1/SulaMatikV1.brd)
(Current profile is .../pcb-gcode-3.6.0.4/profiles/emc.pp  )
(This file generated 9/3/2014 1:31:10 PM)
(Settings from pcb-machine.h)
(  Tool Size)
(0.1000 )
(Z Axis Settings)
(  High     Up        Down     Drill)
(19.5000 	2.0000 	-0.0250 	-1.5000 )
(spindle on time = 1.0000)
(milling depth = -0.0500)
(text depth = -0.0500)
(tool change at 15.0000 15.0000 19.0000 )
(feed rate xy = F508.00 )
(feed rate z  = F254.00 )
(Settings from pcb-defaults.h)
(isolate min = 0.0500)
(isolate max = 1.0000)
(isolate step = 0.1000)
(Generated top outlines, top drill, bottom outlines, bottom drill, )
(Unit of measure: mm)
( Tool|       Size       |  Min Sub |  Max Sub |   Count )
( T01  0.508mm 0.0200in 0.0000in 0.0000in )
( T02  0.700mm 0.0276in 0.0000in 0.0000in )
( T03  0.813mm 0.0320in 0.0000in 0.0000in )
( T04  1.016mm 0.0400in 0.0000in 0.0000in )
( T05  1.118mm 0.0440in 0.0000in 0.0000in )
( T06  2.000mm 0.0787in 0.0000in 0.0000in )
(Metric Mode)
G21
(Absolute Coordinates)
G90
M05
G00 Z19.0000 
G00 X15.0000 Y15.0000 
M06 T01  ; 0.5080 
G01 Z0.0000 F254.00 
M06 T01  ; 0.5080 
G00 Z2.0000 
M03
G04 P1.000000
G00 Z2.000000
G00 X-36.2500 Y41.0000 
G01 Z-1.5000 F254.00 
G01 Z2.000000
(R2.0000  P1.000000)
(G00 Z2.000000)
G00 X-43.7500 Y10.5000 
G01 Z-1.500000
G01 Z2.000000
(G00 Z2.000000)
G00 X-49.0000 Y45.7500 
G01 Z-1.500000
G01 Z2.000000
(G00 Z2.000000)
G00 X-51.2500 Y12.0000 
G01 Z-1.500000
G01 Z2.000000
(G00 Z2.000000)
G00 X-51.7500 Y20.0000 
G01 Z-1.500000
G01 Z2.000000
(G00 Z2.000000)
G00 X-53.2500 Y42.0000 
G01 Z-1.500000
G01 Z2.000000
(G00 Z2.000000)
G00 X-55.5000 Y34.0000 
G01 Z-1.500000
G01 Z2.000000
(G00 Z2.000000)
G00 X-56.2500 Y43.5000 
G01 Z-1.500000
G01 Z2.000000
(G00 Z2.000000)
G00 X-56.5000 Y5.5000 
G01 Z-1.500000
G01 Z2.000000
(G00 Z2.000000)
G00 X-58.7500 Y14.0000 
G01 Z-1.500000
G01 Z2.000000
(G00 Z2.000000)
G00 X-59.5000 Y25.2500 
G01 Z-1.500000
G01 Z2.000000
(G00 Z2.000000)
G00 X-60.5000 Y29.5000 
G01 Z-1.500000
G01 Z2.000000
(G00 Z2.000000)
G00 X-6.2500 Y41.7500 
G01 Z-1.500000
G01 Z2.000000
(G00 Z2.000000)
G00 X-6.2500 Y19.5000 
G01 Z-1.500000
G01 Z2.000000
(G00 Z2.000000)
G00 X-63.5000 Y30.2500 
G01 Z-1.500000
G01 Z2.000000
(G00 Z2.000000)
G00 X-64.5000 Y25.0000 
G01 Z-1.500000
G01 Z2.000000
(G00 Z2.000000)
G00 X-7.7500 Y12.5000 
G01 Z-1.500000
G01 Z2.000000
(G00 Z2.000000)
G00 X-11.0000 Y14.2500 
G01 Z-1.500000
G01 Z2.000000
(G00 Z2.000000)
G00 X-11.0000 Y17.7500 
G01 Z-1.500000
G01 Z2.000000
(G00 Z2.000000)
G00 X-14.2500 Y32.2500 
G01 Z-1.500000
G01 Z2.000000
(G00 Z2.000000)
G00 X-17.7500 Y38.0000 
G01 Z-1.500000
G01 Z2.000000
(G00 Z2.000000)
G00 X-18.0000 Y25.2500 
G01 Z-1.500000
G01 Z2.000000
(G00 Z2.000000)
G00 X-19.2500 Y25.7500 
G01 Z-1.500000
G01 Z2.000000
(G00 Z2.000000)
G00 X-21.0000 Y23.7500 
G01 Z-1.500000
G01 Z2.000000
(G00 Z2.000000)
G00 X-21.2500 Y18.7500 
G01 Z-1.500000
G01 Z2.000000
(G00 Z2.000000)
G00 X-22.7500 Y34.0000 
G01 Z-1.500000
G01 Z2.000000
(G00 Z2.000000)
G00 X-27.2500 Y26.5000 
G01 Z-1.500000
G01 Z2.000000
(G00 Z2.000000)
G00 X-29.2500 Y38.7500 
G01 Z-1.500000
G01 Z2.000000
(G00 Z2.000000)
G00 X-30.7500 Y45.7500 
G01 Z-1.500000
G01 Z2.000000
M05
G00 Z19.0000 
M06 T02  ; 0.7000 
G01 Z0.0000 F254.00 
M06 T02  ; 0.7000 
G00 Z2.0000 
M03
G04 P1.000000
G00 Z2.000000
G00 X-46.5600 Y17.7800 
G01 Z-1.5000 F254.00 
G01 Z2.000000
(R2.0000  P1.000000)
(G00 Z2.000000)
G00 X-49.9600 Y17.7800 
G01 Z-1.500000
G01 Z2.000000
M05
G00 Z19.0000 
M06 T03  ; 0.8128 
G01 Z0.0000 F254.00 
M06 T03  ; 0.8128 
G00 Z2.0000 
M03
G04 P1.000000
G00 Z2.000000
G00 X-46.9900 Y7.6200 
G01 Z-1.5000 F254.00 
G01 Z2.000000
(R2.0000  P1.000000)
(G00 Z2.000000)
G00 X-49.5300 Y7.6200 
G01 Z-1.500000
G01 Z2.000000
(G00 Z2.000000)
G00 X-11.4300 Y5.0800 
G01 Z-1.500000
G01 Z2.000000
(G00 Z2.000000)
G00 X-13.9700 Y5.0800 
G01 Z-1.500000
G01 Z2.000000
(G00 Z2.000000)
G00 X-16.5100 Y5.0800 
G01 Z-1.500000
G01 Z2.000000
(G00 Z2.000000)
G00 X-19.0500 Y5.0800 
G01 Z-1.500000
G01 Z2.000000
(G00 Z2.000000)
G00 X-21.5900 Y5.0800 
G01 Z-1.500000
G01 Z2.000000
(G00 Z2.000000)
G00 X-24.1300 Y5.0800 
G01 Z-1.500000
G01 Z2.000000
(G00 Z2.000000)
G00 X-26.6700 Y5.0800 
G01 Z-1.500000
G01 Z2.000000
(G00 Z2.000000)
G00 X-29.2100 Y5.0800 
G01 Z-1.500000
G01 Z2.000000
M05
G00 Z19.0000 
M06 T04  ; 1.0160 
G01 Z0.0000 F254.00 
M06 T04  ; 1.0160 
G00 Z2.0000 
M03
G04 P1.000000
G00 Z2.000000
G00 X-32.3088 Y51.0794 
G01 Z-1.5000 F254.00 
G01 Z2.000000
(R2.0000  P1.000000)
(G00 Z2.000000)
G00 X-32.3088 Y55.6006 
G01 Z-1.500000
G01 Z2.000000
(G00 Z2.000000)
G00 X-38.8112 Y51.0794 
G01 Z-1.500000
G01 Z2.000000
(G00 Z2.000000)
G00 X-38.8112 Y55.6006 
G01 Z-1.500000
G01 Z2.000000
(G00 Z2.000000)
G00 X-41.9100 Y2.5400 
G01 Z-1.500000
G01 Z2.000000
(G00 Z2.000000)
G00 X-44.4500 Y2.5400 
G01 Z-1.500000
G01 Z2.000000
(G00 Z2.000000)
G00 X-46.9900 Y31.7500 
G01 Z-1.500000
G01 Z2.000000
(G00 Z2.000000)
G00 X-46.9900 Y34.2900 
G01 Z-1.500000
G01 Z2.000000
(G00 Z2.000000)
G00 X-46.9900 Y36.8300 
G01 Z-1.500000
G01 Z2.000000
(G00 Z2.000000)
G00 X-46.9900 Y39.3700 
G01 Z-1.500000
G01 Z2.000000
(G00 Z2.000000)
G00 X-46.9900 Y41.9100 
G01 Z-1.500000
G01 Z2.000000
(G00 Z2.000000)
G00 X-46.9900 Y44.4500 
G01 Z-1.500000
G01 Z2.000000
(G00 Z2.000000)
G00 X-46.9900 Y46.9900 
G01 Z-1.500000
G01 Z2.000000
(G00 Z2.000000)
G00 X-46.9900 Y49.5300 
G01 Z-1.500000
G01 Z2.000000
(G00 Z2.000000)
G00 X-46.9900 Y52.0700 
G01 Z-1.500000
G01 Z2.000000
(G00 Z2.000000)
G00 X-46.9900 Y54.6100 
G01 Z-1.500000
G01 Z2.000000
(G00 Z2.000000)
G00 X-46.9900 Y2.5400 
G01 Z-1.500000
G01 Z2.000000
(G00 Z2.000000)
G00 X-46.9900 Y26.6700 
G01 Z-1.500000
G01 Z2.000000
(G00 Z2.000000)
G00 X-46.9900 Y29.2100 
G01 Z-1.500000
G01 Z2.000000
(G00 Z2.000000)
G00 X-49.5300 Y2.5400 
G01 Z-1.500000
G01 Z2.000000
(G00 Z2.000000)
G00 X-52.0700 Y22.8600 
G01 Z-1.500000
G01 Z2.000000
(G00 Z2.000000)
G00 X-53.3400 Y10.1600 
G01 Z-1.500000
G01 Z2.000000
(G00 Z2.000000)
G00 X-54.6100 Y22.8600 
G01 Z-1.500000
G01 Z2.000000
(G00 Z2.000000)
G00 X-55.8800 Y15.2400 
G01 Z-1.500000
G01 Z2.000000
(G00 Z2.000000)
G00 X-57.1500 Y22.8600 
G01 Z-1.500000
G01 Z2.000000
(G00 Z2.000000)
G00 X-58.4200 Y10.1600 
G01 Z-1.500000
G01 Z2.000000
(G00 Z2.000000)
G00 X-59.6900 Y43.1800 
G01 Z-1.500000
G01 Z2.000000
(G00 Z2.000000)
G00 X-59.6900 Y45.7200 
G01 Z-1.500000
G01 Z2.000000
(G00 Z2.000000)
G00 X-59.6900 Y22.8600 
G01 Z-1.500000
G01 Z2.000000
(G00 Z2.000000)
G00 X-62.2300 Y31.7500 
G01 Z-1.500000
G01 Z2.000000
(G00 Z2.000000)
G00 X-62.2300 Y34.2900 
G01 Z-1.500000
G01 Z2.000000
(G00 Z2.000000)
G00 X-62.2300 Y36.8300 
G01 Z-1.500000
G01 Z2.000000
(G00 Z2.000000)
G00 X-62.2300 Y39.3700 
G01 Z-1.500000
G01 Z2.000000
(G00 Z2.000000)
G00 X-62.2300 Y41.9100 
G01 Z-1.500000
G01 Z2.000000
(G00 Z2.000000)
G00 X-62.2300 Y44.4500 
G01 Z-1.500000
G01 Z2.000000
(G00 Z2.000000)
G00 X-62.2300 Y46.9900 
G01 Z-1.500000
G01 Z2.000000
(G00 Z2.000000)
G00 X-62.2300 Y49.5300 
G01 Z-1.500000
G01 Z2.000000
(G00 Z2.000000)
G00 X-62.2300 Y52.0700 
G01 Z-1.500000
G01 Z2.000000
(G00 Z2.000000)
G00 X-62.2300 Y54.6100 
G01 Z-1.500000
G01 Z2.000000
(G00 Z2.000000)
G00 X-62.2300 Y26.6700 
G01 Z-1.500000
G01 Z2.000000
(G00 Z2.000000)
G00 X-62.2300 Y29.2100 
G01 Z-1.500000
G01 Z2.000000
(G00 Z2.000000)
G00 X-63.5000 Y6.3500 
G01 Z-1.500000
G01 Z2.000000
(G00 Z2.000000)
G00 X-63.5000 Y8.8900 
G01 Z-1.500000
G01 Z2.000000
(G00 Z2.000000)
G00 X-63.5000 Y11.4300 
G01 Z-1.500000
G01 Z2.000000
(G00 Z2.000000)
G00 X-63.5000 Y13.9700 
G01 Z-1.500000
G01 Z2.000000
(G00 Z2.000000)
G00 X-63.5000 Y16.5100 
G01 Z-1.500000
G01 Z2.000000
(G00 Z2.000000)
G00 X-63.5000 Y19.0500 
G01 Z-1.500000
G01 Z2.000000
(G00 Z2.000000)
G00 X-8.3312 Y51.0794 
G01 Z-1.500000
G01 Z2.000000
(G00 Z2.000000)
G00 X-8.3312 Y55.6006 
G01 Z-1.500000
G01 Z2.000000
(G00 Z2.000000)
G00 X-11.9888 Y51.0794 
G01 Z-1.500000
G01 Z2.000000
(G00 Z2.000000)
G00 X-11.9888 Y55.6006 
G01 Z-1.500000
G01 Z2.000000
(G00 Z2.000000)
G00 X-1.8288 Y51.0794 
G01 Z-1.500000
G01 Z2.000000
(G00 Z2.000000)
G00 X-1.8288 Y55.6006 
G01 Z-1.500000
G01 Z2.000000
(G00 Z2.000000)
G00 X-18.4912 Y51.0794 
G01 Z-1.500000
G01 Z2.000000
(G00 Z2.000000)
G00 X-18.4912 Y55.6006 
G01 Z-1.500000
G01 Z2.000000
(G00 Z2.000000)
G00 X-22.1488 Y51.0794 
G01 Z-1.500000
G01 Z2.000000
(G00 Z2.000000)
G00 X-22.1488 Y55.6006 
G01 Z-1.500000
G01 Z2.000000
(G00 Z2.000000)
G00 X-28.6512 Y51.0794 
G01 Z-1.500000
G01 Z2.000000
(G00 Z2.000000)
G00 X-28.6512 Y55.6006 
G01 Z-1.500000
G01 Z2.000000
M05
G00 Z19.0000 
M06 T05  ; 1.1176 
G01 Z0.0000 F254.00 
M06 T05  ; 1.1176 
G00 Z2.0000 
M03
G04 P1.000000
G00 Z2.000000
G00 X-54.6100 Y2.5400 
G01 Z-1.5000 F254.00 
G01 Z2.000000
(R2.0000  P1.000000)
(G00 Z2.000000)
G00 X-58.4200 Y2.5400 
G01 Z-1.500000
G01 Z2.000000
(G00 Z2.000000)
G00 X-62.2300 Y2.5400 
G01 Z-1.500000
G01 Z2.000000
M05
G00 Z19.0000 
M06 T06  ; 2.0000 
G01 Z0.0000 F254.00 
M06 T06  ; 2.0000 
G00 Z2.0000 
M03
G04 P1.000000
G00 Z2.000000
G00 X-63.5000 Y58.4200 
G01 Z-1.5000 F254.00 
G01 Z2.000000
(R2.0000  P1.000000)
(G00 Z2.000000)
G00 X-2.5400 Y2.5400 
G01 Z-1.500000
G01 Z2.000000
T01 
G00 Z19.5000 
M05
M02
